example_ofxGpuLutCube/bin/data/LUT/64-FJ 8563 RL.cube
TITLE "16x16x16 Adobe/IRIDAS cube 3D LUT exported with GrossGrade v0.1.027.1 (beta) 64 bit"
DOMAIN_MIN 0 0 0
DOMAIN_MAX 1 1 1
LUT_3D_SIZE 6
0.025100000 0.025900001 0.025599999
0.155148417 0.016249031 0.020920001
0.249503911 0.003096767 0.007083220
0.371514201 0.000000000 0.000000000
0.547813594 0.000000000 0.000000000
0.750599980 0.000000000 0.000000000
0.054080009 0.184131637 0.024215484
0.209033594 0.194682613 0.041689038
0.367275566 0.195095509 0.049698714
0.496765167 0.178103268 0.049381305
0.631402075 0.135693580 0.012589031
0.779622614 0.086065844 0.000000000
0.096432917 0.369340062 0.013283219
0.266836166 0.380424589 0.028793544
0.439560086 0.394680083 0.079136133
0.616200686 0.394036204 0.092190325
0.771929801 0.376591027 0.089841291
0.943673611 0.348711669 0.066027761
0.118089676 0.567936778 0.000000000
0.304859996 0.570876181 0.000000000
0.467820704 0.590860605 0.075010978
0.670846462 0.583519995 0.085979998
0.849067152 0.582894206 0.094202586
0.999681294 0.565336764 0.080940001
0.122215480 0.768360078 0.000000000
0.309436768 0.770924628 0.000000000
0.484346479 0.785843968 0.038818076
0.684565783 0.779247165 0.068999991
0.886931062 0.769593656 0.066106431
1.000000000 0.773411036 0.066637412
0.123599999 0.968699992 0.000000000
0.308721930 0.971244514 0.000000000
0.490063906 0.982949674 0.009032933
0.686520040 0.978200018 0.053089678
0.890435517 0.969089031 0.046081927
1.000000000 0.974099994 0.029800000
0.002670964 0.000000000 0.135460004
0.138170987 0.000000000 0.136531636
0.255652964 0.000000000 0.140500039
0.386520028 0.000000000 0.143060029
0.552507162 0.000000000 0.135161966
0.751207113 0.000000000 0.131189063
0.028640002 0.153536156 0.125321314
0.178661972 0.161442608 0.148383260
0.338708460 0.163097456 0.159436166
0.461326480 0.140731648 0.149148434
0.579711020 0.091710337 0.139218092
0.769622505 0.057944547 0.134253591
0.059070323 0.355618119 0.141956165
0.244639397 0.365824580 0.165923893
0.398574263 0.383611023 0.203291655
0.583278716 0.393808424 0.218145862
0.722053587 0.358285844 0.224985197
0.826971591 0.258554906 0.176402628
0.091641918 0.566509068 0.157251656
0.301645875 0.571216822 0.159478098
0.471788436 0.593895495 0.202684596
0.651485205 0.603410363 0.247241318
0.839272320 0.601806402 0.269005209
0.982456803 0.542052269 0.248689055
0.109345794 0.770167172 0.157934874
0.306994230 0.771988451 0.144286484
0.496247768 0.777165890 0.145824566
0.677163839 0.793334246 0.223261967
0.883347869 0.777912259 0.215366483
1.000000000 0.775911093 0.244520664
0.111639351 0.970739961 0.156882614
0.302771002 0.972911000 0.136936173
0.492031008 0.975389063 0.130864561
0.681965768 0.988851607 0.198439389
0.887637556 0.975390315 0.191895500
1.000000000 0.976080000 0.190473586
0.000000000 0.000000000 0.217683896
0.109766461 0.000000000 0.213025197
0.245234251 0.000000000 0.266623914
0.430485159 0.000000000 0.293587804
0.615428448 0.000000000 0.309549093
0.791180015 0.000000000 0.321100056
0.000000000 0.117503896 0.253776848
0.139272273 0.122584529 0.256941319
0.286660016 0.119209692 0.297473609
0.453839332 0.098655507 0.304974258
0.632524550 0.070420668 0.313843310
0.805016160 0.042061970 0.323421359
0.031856775 0.323353648 0.281727135
0.191272944 0.335058123 0.308891684
0.351510406 0.344310373 0.349510401
0.543032885 0.357456207 0.377476186
0.697294950 0.308418781 0.363369137
0.831970334 0.223794267 0.338810384
0.046710964 0.557701349 0.327664554
0.234089047 0.570404589 0.349232972
0.427737474 0.573779345 0.367125899
0.589676142 0.590058684 0.419691652
0.792085886 0.598694801 0.445472330
0.922938049 0.468207091 0.409722000
0.052957412 0.770694911 0.346443951
0.256578743 0.775214314 0.348357499
0.482728451 0.776351035 0.329853594
0.656373560 0.794662058 0.381559342
0.856840134 0.801264584 0.417423308
1.000000000 0.772055566 0.432394892
0.058094181 0.972309709 0.348989725
0.267029732 0.975195527 0.339209735
0.478776842 0.973013580 0.310413629
0.666670322 0.979488373 0.321826488
0.869929731 0.990785122 0.368981987
1.000000000 0.979376793 0.361936837
0.000000000 0.000000000 0.338114202
0.083969712 0.000000000 0.324169695
0.232158750 0.000000000 0.420003921
0.403336793 0.000000000 0.442699999
0.615709782 0.000000000 0.481807113
0.826005757 0.000000000 0.506623209
0.000000000 0.080990359 0.381989062
0.082420677 0.066775516 0.342421293
0.257046521 0.089813583 0.432532907
0.403429031 0.057808425 0.444432884
0.617136180 0.046620030 0.485485196
0.830023825 0.031683259 0.510927737
0.000000002 0.296676815 0.450332284
0.141001344 0.280034274 0.435263872
0.314748466 0.312356234 0.494194239
0.475044549 0.291033655 0.513306499
0.656127214 0.257080048 0.515902579
0.847988427 0.220940068 0.526769638
0.031592902 0.518916726 0.481830329
0.201934218 0.526407719 0.499225795
0.373536825 0.542375445 0.540523231
0.544327140 0.548860013 0.578053534
0.754073024 0.555281937 0.611391604
0.913556755 0.443661302 0.571437418
0.038330320 0.739632308 0.514561296
0.220992938 0.759790480 0.543826401
0.415651023 0.772919476 0.562669039
0.616638780 0.776609123 0.559801877
0.804512441 0.793354273 0.628407061
0.999837399 0.749324620 0.639323890
0.039326448 0.951383233 0.532016814
0.217618108 0.968098104 0.556299984
0.423903972 0.973115504 0.545372844
0.650069714 0.980206430 0.510883868
0.842223942 0.995411038 0.557056785
1.000000000 0.986200035 0.546854198
0.000000000 0.000000000 0.508409142
0.056128416 0.000000000 0.495382041
0.234067142 0.000000000 0.549758852
0.388180643 0.000000000 0.626283944
0.581393659 0.000000000 0.625858128
0.801126420 0.000000000 0.663977504
0.000000000 0.037343889 0.509806514
0.039506473 0.017514208 0.487206489
0.235001341 0.023854218 0.525881350
0.387382597 0.036094226 0.623612344
0.577818155 0.010625823 0.621727109
0.803965807 0.006144537 0.668787837
0.000000000 0.262471020 0.607986510
0.068787120 0.220820680 0.548779488
0.245051682 0.223705858 0.567305267
0.436238050 0.274508446 0.660205245
0.590242684 0.198233590 0.636130393
0.813363135 0.194938764 0.681442678
0.000000000 0.497880042 0.668878794
0.151028380 0.484054178 0.660624564
0.305528432 0.461151570 0.652758062
0.501507044 0.507582545 0.720121980
0.675344646 0.463785738 0.724178791
0.865634799 0.411860645 0.719891667
0.014406439 0.715466559 0.697671115
0.193765834 0.716556847 0.706113040
0.376014233 0.722683311 0.721024573
0.556962550 0.741664529 0.758586466
0.760304511 0.754148424 0.804128468
0.973277450 0.715990424 0.814967871
0.017101921 0.924144506 0.716644585
0.197814211 0.928627729 0.724083245
0.387258768 0.947190940 0.743604541
0.582921207 0.971272230 0.761857510
0.804993629 0.999041975 0.763486564
1.000000000 0.998701930 0.777315557
0.000000000 0.000000000 0.697000027
0.040109068 0.000000000 0.681809008
0.223783284 0.000000000 0.698969662
0.395033538 0.000000000 0.810763836
0.574409127 0.000000000 0.814984500
0.773000002 0.000000000 0.815800011
0.000000000 0.009331644 0.682540655
0.019220032 0.001513557 0.673098087
0.211727798 0.000397423 0.683033645
0.403891593 0.029719390 0.810679376
0.574140787 0.002064528 0.814876795
0.772159994 0.000000001 0.814000010
0.000000000 0.204577491 0.730780661
0.008075517 0.162155554 0.683327138
0.191624597 0.143922016 0.689448416
0.423281938 0.226898775 0.805703223
0.578163326 0.175852939 0.817706466
0.771676779 0.151426509 0.811696768
0.000000000 0.449693531 0.821946442
0.086199388 0.425447732 0.800747097
0.203816831 0.351471603 0.740630329
0.421339989 0.402979344 0.808932245
0.631185889 0.434754789 0.868190289
0.793945193 0.345361292 0.830071628
0.000000000 0.689981997 0.880786479
0.142541990 0.683870435 0.880666494
0.312245905 0.662330389 0.871014833
0.457377464 0.627802074 0.866494894
0.691651165 0.681257546 0.921968400
0.909368455 0.623283386 0.926621914
0.000000000 0.906700015 0.911099970
0.157895520 0.906344533 0.912160039
0.349866509 0.906440020 0.914456785
0.527883232 0.909630954 0.923669636
0.709121346 0.934931636 0.950133562
0.976100028 0.974300027 0.977199972
