example_ofxGpuLutCube/bin/data/LUT/64-FJ 8563 RL.cube
TITLE "16x16x16 Adobe/IRIDAS cube 3D LUT exported with GrossGrade v0.1.027.1 (beta) 64 bit"
DOMAIN_MIN 0 0 0
DOMAIN_MAX 1 1 1
LUT_3D_SIZE 16
0.025100000 0.025900001 0.025599999
0.067878716 0.023812689 0.025039354
0.114751838 0.019817634 0.023497850
0.155148417 0.016249031 0.020920001
0.188815698 0.013305590 0.017265592
0.218823656 0.009397849 0.012566665
0.249503911 0.003096767 0.007083220
0.284455508 0.000000000 0.001292040
0.325035483 0.000000000 0.000000000
0.371514201 0.000000000 0.000000000
0.424516082 0.000000000 0.000000000
0.483714193 0.000000000 0.000000000
0.547813594 0.000000000 0.000000000
0.615459859 0.000000000 0.000000000
0.684064150 0.000000000 0.000000000
0.750599980 0.000000000 0.000000000
0.029303871 0.072753981 0.025267957
0.072649680 0.071565814 0.025864515
0.122019157 0.068802588 0.025997851
0.167469710 0.065817207 0.024909463
0.207500651 0.063384086 0.022982366
0.242578074 0.060453340 0.020534409
0.274872929 0.055407312 0.016972901
0.308470130 0.047733549 0.011874838
0.346412688 0.037565600 0.004773335
0.389570951 0.025410974 0.000283871
0.438507944 0.011882160 0.000000000
0.493597627 0.002604952 0.000000000
0.554295540 0.000861723 0.000000000
0.619676054 0.000088388 0.000000000
0.687299728 0.000012258 0.000000000
0.753569245 0.000000000 0.000000000
0.039550751 0.130191416 0.024860000
0.083979145 0.130957425 0.027548388
0.136548176 0.131673113 0.031226238
0.188223705 0.131264955 0.032949034
0.237704739 0.130223453 0.033542581
0.282979995 0.128802598 0.034003228
0.323037714 0.125936776 0.033983659
0.359918535 0.120644525 0.032549895
0.397128373 0.112364531 0.028466672
0.437279582 0.101370983 0.020782586
0.481352031 0.088097863 0.009397428
0.528898716 0.072552055 0.000986668
0.579982698 0.055548593 0.000000000
0.635949850 0.039258476 0.000000000
0.697107553 0.025466461 0.000000000
0.760816514 0.018010978 0.000000000
0.054080009 0.184131637 0.024215484
0.100142390 0.186254874 0.027703656
0.154489055 0.190931857 0.035027314
0.209033594 0.194682613 0.041689038
0.264217019 0.196087569 0.045519147
0.317755938 0.196083263 0.047695920
0.367275566 0.195095509 0.049698714
0.412522614 0.192250997 0.051673558
0.454846680 0.186671436 0.052223023
0.496765167 0.178103268 0.049381305
0.540607929 0.166779190 0.041739590
0.586052954 0.152604118 0.029087760
0.631402075 0.135693580 0.012589031
0.677221358 0.117026679 0.001762798
0.725247800 0.097949505 0.000000001
0.779622614 0.086065844 0.000000000
0.069810107 0.241513133 0.022377850
0.118169256 0.243485391 0.024521075
0.174431413 0.249805823 0.033020213
0.228874654 0.257276148 0.045642592
0.285666674 0.261744529 0.055665590
0.343824327 0.263108820 0.060364518
0.399634272 0.263303667 0.063161515
0.452356368 0.262433559 0.066419996
0.501978517 0.259737015 0.069805808
0.548774600 0.254221320 0.071228817
0.595084906 0.245560870 0.068707742
0.643098474 0.234268621 0.061430324
0.691774309 0.220709905 0.049620204
0.738076448 0.204062775 0.033598468
0.779700696 0.183046043 0.013653126
0.825141549 0.166880667 0.003089898
0.084043011 0.303990334 0.018776344
0.134736121 0.304943651 0.018444300
0.194138080 0.310062587 0.024413120
0.247908413 0.319089264 0.040951412
0.302765608 0.326398909 0.059080865
0.362654865 0.329031199 0.069240861
0.422948867 0.329603672 0.073381506
0.480358988 0.329827547 0.077032477
0.535297394 0.329170555 0.081336349
0.587258935 0.326564968 0.084861942
0.636462331 0.320729017 0.085638709
0.686009228 0.311935246 0.082527526
0.738665462 0.301544487 0.075826444
0.792330027 0.289560437 0.065706000
0.841308832 0.273475498 0.050640862
0.889398932 0.259350568 0.036722586
0.096432917 0.369340062 0.013283219
0.148612916 0.369414479 0.011120422
0.211897433 0.372228473 0.012595903
0.266836166 0.380424589 0.028793544
0.318327963 0.389661580 0.054276556
0.376267344 0.394034714 0.072301082
0.439560086 0.394680083 0.079136133
0.501352489 0.394980699 0.083048604
0.560117841 0.395003945 0.087594628
0.616200686 0.394036204 0.092190325
0.669310987 0.391049981 0.095282592
0.720075727 0.385110825 0.094729684
0.771929801 0.376591027 0.089841291
0.827932596 0.367102206 0.082455911
0.886182189 0.356944174 0.073583677
0.943673611 0.348711669 0.066027761
0.106688179 0.435280025 0.006542577
0.159489259 0.435160667 0.003499352
0.225739583 0.436261535 0.001761287
0.284167111 0.442267150 0.013136780
0.334125608 0.452039391 0.042731609
0.387925804 0.458647132 0.069904521
0.450998545 0.459941745 0.081190757
0.516660035 0.459497452 0.084927097
0.579524040 0.458849907 0.089018494
0.639154494 0.457745641 0.093557850
0.695912838 0.456476390 0.097908817
0.749570131 0.454215527 0.100075275
0.800499618 0.448560029 0.097141489
0.853211045 0.439878970 0.089926869
0.912145615 0.431284308 0.082378492
0.974538743 0.426319391 0.078383446
0.113905594 0.501479983 0.000712043
0.167027533 0.501419604 0.000000000
0.234761730 0.501957178 0.000000000
0.297204316 0.505666852 0.000681944
0.348751009 0.514481485 0.026796998
0.399462402 0.522767544 0.062010325
0.460004568 0.525508583 0.080170974
0.527208030 0.524548769 0.084181078
0.593964100 0.522545636 0.086973764
0.657528162 0.520167947 0.090732694
0.717516541 0.518803895 0.094662577
0.774210989 0.519063652 0.098305166
0.826367617 0.517726004 0.098757848
0.875879705 0.511132717 0.093445361
0.929927289 0.501877010 0.085333116
0.990933776 0.496588171 0.081163011
0.118089676 0.567936778 0.000000000
0.171394423 0.568124354 0.000000000
0.239605173 0.568701029 0.000000000
0.304859996 0.570876181 0.000000000
0.359848171 0.577733755 0.009975492
0.410032064 0.586445153 0.049184524
0.467820704 0.590860605 0.075010978
0.534611642 0.590236962 0.080988392
0.603525162 0.587286234 0.082668819
0.670846462 0.583519995 0.085979998
0.734546423 0.580830574 0.089241512
0.794229031 0.581120014 0.092009671
0.849067152 0.582894206 0.094202586
0.898012102 0.580431640 0.092579983
0.946658969 0.571990550 0.085801072
0.999681294 0.565336764 0.080940001
0.120254837 0.634700000 0.000000000
0.173492059 0.635078430 0.000000000
0.241767541 0.635793924 0.000000000
0.308349252 0.637195408 0.000000000
0.366843879 0.642102361 0.001101941
0.418558091 0.650109708 0.033092484
0.474610388 0.655857563 0.065176368
0.539934695 0.656306207 0.075262360
0.609380424 0.653077364 0.076803654
0.678671658 0.648294985 0.080407962
0.745674193 0.644090235 0.084009677
0.808945179 0.642744899 0.084895484
0.867823541 0.644762337 0.085257202
0.919553638 0.646007538 0.085675485
0.965278327 0.641044080 0.082518063
1.000000000 0.634611785 0.079143010
0.121432260 0.701553345 0.000000000
0.174447969 0.702010572 0.000000000
0.242510334 0.702835441 0.000000000
0.309403896 0.704019129 0.000000000
0.370361090 0.707559347 0.000000000
0.424539357 0.714428008 0.016974632
0.480243087 0.720698714 0.052030347
0.543937266 0.722355247 0.067363657
0.612892270 0.719318926 0.070466883
0.682624340 0.713723242 0.074669026
0.751056910 0.708428204 0.078777425
0.817263424 0.705622137 0.078271396
0.880597293 0.706178308 0.075276986
0.937971950 0.708580196 0.074171178
0.985702157 0.707981467 0.074152261
1.000000000 0.704338968 0.074934624
0.122215480 0.768360078 0.000000000
0.174905822 0.768836439 0.000000000
0.242655709 0.769747436 0.000000000
0.309436768 0.770924628 0.000000000
0.371571004 0.773792207 0.000000000
0.428034425 0.779617488 0.005766021
0.484346479 0.785843968 0.038818076
0.546956182 0.788215578 0.058725368
0.615082800 0.785351932 0.064498708
0.684565783 0.779247165 0.068999991
0.753330290 0.773364365 0.072883010
0.820840418 0.770089984 0.071449883
0.886931062 0.769593656 0.066106431
0.949789762 0.771389127 0.062035896
0.997845769 0.773362875 0.062302139
1.000000000 0.773411036 0.066637412
0.122846670 0.835137963 0.000000000
0.175135717 0.835666835 0.000000000
0.242561951 0.836608946 0.000000000
0.309135497 0.837791324 0.000000000
0.371711224 0.840421200 0.000000000
0.429688841 0.845542908 0.001464513
0.487013400 0.851423562 0.027544098
0.549157858 0.853962719 0.050380852
0.616516769 0.851212382 0.058855690
0.685692251 0.844964623 0.063241065
0.754460871 0.839036226 0.066079341
0.822266221 0.836002707 0.063968584
0.889258623 0.835363150 0.057913955
0.954831600 0.836364448 0.051835462
0.999094427 0.838891745 0.050176106
1.000000000 0.840900123 0.054895677
0.123280004 0.901919961 0.000000000
0.175330549 0.902459979 0.000000000
0.242426887 0.903316379 0.000000000
0.308811873 0.904569030 0.000000000
0.371615261 0.907111585 0.000000000
0.430530548 0.911787331 0.000070968
0.488698155 0.917195499 0.017406052
0.550718904 0.919692218 0.041944094
0.617531180 0.917096376 0.052883442
0.686446667 0.911012948 0.057001933
0.755186439 0.905356407 0.058355913
0.823025823 0.902601302 0.055778705
0.890137732 0.902174175 0.049715478
0.956246793 0.902989507 0.042319775
0.999374628 0.905375242 0.038072042
1.000000000 0.907433391 0.041752040
0.123599999 0.968699992 0.000000000
0.175424516 0.969139993 0.000000000
0.242320225 0.970006645 0.000000000
0.308721930 0.971244514 0.000000000
0.371841282 0.973536551 0.000000000
0.431443006 0.977811813 0.000000000
0.490063906 0.982949674 0.009032933
0.551752925 0.985784531 0.034858719
0.617894411 0.983820438 0.048558280
0.686520040 0.978200018 0.053089678
0.755342960 0.972568810 0.053931184
0.823257864 0.969689906 0.051615696
0.890435517 0.969089031 0.046081927
0.956817985 0.969795525 0.037739981
0.999493957 0.971687973 0.031043874
1.000000000 0.974099994 0.029800000
0.021044731 0.019417418 0.063606024
0.063738711 0.017476775 0.062840000
0.110854842 0.013818493 0.062043443
0.151478723 0.010453331 0.060396995
0.185043439 0.007719784 0.057058286
0.214686453 0.004355267 0.052563660
0.244999811 0.000330966 0.047920644
0.279795110 0.000000000 0.043143228
0.320747763 0.000000000 0.037704520
0.368348807 0.000000000 0.031226886
0.422641039 0.000000000 0.023838717
0.482722789 0.000000000 0.016098715
0.547155976 0.000000000 0.008974191
0.614635408 0.000000000 0.003842150
0.683200896 0.000000000 0.002815273
0.749748588 0.000000000 0.002713768
0.025135912 0.065486662 0.060224090
0.068105817 0.064397208 0.060697205
0.117243022 0.061873984 0.061626241
0.162649497 0.059167102 0.061533336
0.202694207 0.056793764 0.059634630
0.237027109 0.053981721 0.056601081
0.267769694 0.049402148 0.052926019
0.299262166 0.042222362 0.048530325
0.335668355 0.032328177 0.042983230
0.379266441 0.020329252 0.035905167
0.430614620 0.006860869 0.027549041
0.488602579 0.001364519 0.018840868
0.551551938 0.000242152 0.011064083
0.618071079 0.000021290 0.005433331
0.686168373 0.000000000 0.003092478
0.752608597 0.000000000 0.002947317
0.034889247 0.122751407 0.056268390
0.078841075 0.123261295 0.058721725
0.130557448 0.123826899 0.062845595
0.181741968 0.123557426 0.065238930
0.231026471 0.122505814 0.065628387
0.275991827 0.121076129 0.065169469
0.314743072 0.118513115 0.064311400
0.348353565 0.113586448 0.062538072
0.380559802 0.105184086 0.058706675
0.416444957 0.093380645 0.051922373
0.459729046 0.079149269 0.042241946
0.510740399 0.063486040 0.031003235
0.567462862 0.047486007 0.020248165
0.628902256 0.032762997 0.011933758
0.693737447 0.020148395 0.006777426
0.759080708 0.013395277 0.004842157
0.048480868 0.177783042 0.055097420
0.094534203 0.179607570 0.058570974
0.148486689 0.183515295 0.065512903
0.201782629 0.186968207 0.071565822
0.255743653 0.188210785 0.074527539
0.308949918 0.188243464 0.075736351
0.358629137 0.187657669 0.077148825
0.403023720 0.185580254 0.078927748
0.441716582 0.180332720 0.079496354
0.476985842 0.170640260 0.076573350
0.513589442 0.156467989 0.068591200
0.555262566 0.139307141 0.056188188
0.602798581 0.121251628 0.042157426
0.655388236 0.103864096 0.029139783
0.712099612 0.087649070 0.018755713
0.772390127 0.078374662 0.013155496
0.063813120 0.236773357 0.055780221
0.112955488 0.238742605 0.058881722
0.170166254 0.244220242 0.066641510
0.223714665 0.250967979 0.077138931
0.277828634 0.255415916 0.085392267
0.334072292 0.256783247 0.088976562
0.389885247 0.257281095 0.091029257
0.443783253 0.257552058 0.094289258
0.493894607 0.256192267 0.098415270
0.538284361 0.251052707 0.100784093
0.577622414 0.240053579 0.098225810
0.615727723 0.223340005 0.089142159
0.656678796 0.203803211 0.075144075
0.701745510 0.183785141 0.059146218
0.749154627 0.163440019 0.042905387
0.801829875 0.150330335 0.031820871
0.078759782 0.300663888 0.056350544
0.130892277 0.302006245 0.057955917
0.192755714 0.306518525 0.063441075
0.247273356 0.314678520 0.076423667
0.299371868 0.322327971 0.092126891
0.355524302 0.325579584 0.101771198
0.414154470 0.326243252 0.105503872
0.472048432 0.327297419 0.108886026
0.528424978 0.328515708 0.113813989
0.581848621 0.327853113 0.119001083
0.630013943 0.322173148 0.121533990
0.672959387 0.309219569 0.118168384
0.714306951 0.290602356 0.107994825
0.757386386 0.269948334 0.092971809
0.801547348 0.248490751 0.075191408
0.850663662 0.233693123 0.061460864
0.092969045 0.367226094 0.055112477
0.146651849 0.367867559 0.054947097
0.212470129 0.370385230 0.056239352
0.269768655 0.377482444 0.067493342
0.319949239 0.387268484 0.089170970
0.373538554 0.393281579 0.107878715
0.433880538 0.394471496 0.116315924
0.495351464 0.394996196 0.120515712
0.554540992 0.396700084 0.125662595
0.611625552 0.398126096 0.131623462
0.666112900 0.396595538 0.136531204
0.716260254 0.389024138 0.137282386
0.762334645 0.374347568 0.131315708
0.808201015 0.355882168 0.119596981
0.855995119 0.337120920 0.104975946
0.907417238 0.324087203 0.093261324
0.105346456 0.434244990 0.051642794
0.159113780 0.434547782 0.049922798
0.226693988 0.435633808 0.047569890
0.287855715 0.440452516 0.054085813
0.338563442 0.450248420 0.077238716
0.388523668 0.459010571 0.104743652
0.447659433 0.461761296 0.120262593
0.512673318 0.461426705 0.125899136
0.575987935 0.462031394 0.130964726
0.635829031 0.463149935 0.137117431
0.693277359 0.463140488 0.142761096
0.747996151 0.459870130 0.145806223
0.798438549 0.450691223 0.143417209
0.847397506 0.436550528 0.135157615
0.899635732 0.421801984 0.124433987
0.955714405 0.412134439 0.116411626
0.114187308 0.501122534 0.046767529
0.167601943 0.501390517 0.043816350
0.235504523 0.501999557 0.039417427
0.299862206 0.504787505 0.041007541
0.353960901 0.512697160 0.060852695
0.402485371 0.522682786 0.093798280
0.458354712 0.527726293 0.117803238
0.523923457 0.527384698 0.126101941
0.591355443 0.526094854 0.129861519
0.655382812 0.525347292 0.134814203
0.715736151 0.524546444 0.139818698
0.773107350 0.523541033 0.143988818
0.826252162 0.519828856 0.145298705
0.876087189 0.510825098 0.141061500
0.928841650 0.499264091 0.132934198
0.987351656 0.491865426 0.127215922
0.119168386 0.568001091 0.042012908
0.172385186 0.568364680 0.038048178
0.240258709 0.569025099 0.032447748
0.306455910 0.570551634 0.030624738
0.364846647 0.575861692 0.044433989
0.415267318 0.585018277 0.077564530
0.468782663 0.591933131 0.109286264
0.532473564 0.592886269 0.122796983
0.601457834 0.590550542 0.125610977
0.669346929 0.587565005 0.128314838
0.733316541 0.584814847 0.131670326
0.793298066 0.583810747 0.135240644
0.848771095 0.583954215 0.138915062
0.898842931 0.580289423 0.139303654
0.948657572 0.571335018 0.133894846
0.999865770 0.564410746 0.129075050
0.121463008 0.634965122 0.038404953
0.174522161 0.635472476 0.033574846
0.242369026 0.636189461 0.026968606
0.309308201 0.637135208 0.023190759
0.371021271 0.640294611 0.030917646
0.425021917 0.647505999 0.059595499
0.478366524 0.655064225 0.095517032
0.539826751 0.657873929 0.115631402
0.608292043 0.655798912 0.119897641
0.677813709 0.651474595 0.121159360
0.744917035 0.646797359 0.123419359
0.808122754 0.644292474 0.125369251
0.866860747 0.645384729 0.128201082
0.919155777 0.646065116 0.131234199
0.966354251 0.640845180 0.129979357
1.000000000 0.634348154 0.126935706
0.122488387 0.701882362 0.036034845
0.175312698 0.702432692 0.030649036
0.242998511 0.703237772 0.022965167
0.309991419 0.704001486 0.018067745
0.373444080 0.706052065 0.021641081
0.430706680 0.711387753 0.043862585
0.485432535 0.718567967 0.079533584
0.545616388 0.722711384 0.105340220
0.612645090 0.721570075 0.113086030
0.682182074 0.716725767 0.114527956
0.750734985 0.710873067 0.116655059
0.816909254 0.706855536 0.117385589
0.879659414 0.706872046 0.117207535
0.936563373 0.709314883 0.119103670
0.984899759 0.708484292 0.121502586
1.000000000 0.704456568 0.122739151
0.123021506 0.768708885 0.034326024
0.175533757 0.769269764 0.028810972
0.242880225 0.770148456 0.020320004
0.309694856 0.770925462 0.014523871
0.373614818 0.772621810 0.015885375
0.432935297 0.776829541 0.032804083
0.489385664 0.783248425 0.065527335
0.549270332 0.787844777 0.094372042
0.615170360 0.787443936 0.106039353
0.684163630 0.782521963 0.108651601
0.753146648 0.776108503 0.110759988
0.820903003 0.771508455 0.110687733
0.886626542 0.770443082 0.107658908
0.948507428 0.772438824 0.105973534
0.997513592 0.774566770 0.109045595
1.000000000 0.774183929 0.114655696
0.123261295 0.835560143 0.033020433
0.175524309 0.836106837 0.027692048
0.242587537 0.836957991 0.018842801
0.309046924 0.837907255 0.012198925
0.372907102 0.839568496 0.012180215
0.433139771 0.843249321 0.025755266
0.491006702 0.848930418 0.054992706
0.551226258 0.853469133 0.084481932
0.616544783 0.853312612 0.099298701
0.685113549 0.848448694 0.103259996
0.754230082 0.841996253 0.104818702
0.822504461 0.837503135 0.103682563
0.889458418 0.836242437 0.098929875
0.954384208 0.837336898 0.094168156
0.999004126 0.840114057 0.094837628
1.000000000 0.842071295 0.101723850
0.123456553 0.902347267 0.031878285
0.175490111 0.902800620 0.026920436
0.242241293 0.903739929 0.018107962
0.308332920 0.904734790 0.010827531
0.371920854 0.906484365 0.009606672
0.432478309 0.909943879 0.020707963
0.491345227 0.915049016 0.046458960
0.552164137 0.919204295 0.075298078
0.617359579 0.919109464 0.092357635
0.685762763 0.914412916 0.097621083
0.754912078 0.908290982 0.098186448
0.823242545 0.904241264 0.095750108
0.890362024 0.903094172 0.090011172
0.956147492 0.903843701 0.083335474
0.999346673 0.906161785 0.080953546
1.000000000 0.908426464 0.086450763
0.123650752 0.969039381 0.031221081
0.175469249 0.969567299 0.026613122
0.242024943 0.970420718 0.018096134
0.308077693 0.971502125 0.010669895
0.371582180 0.973209679 0.008418715
0.432451606 0.976368189 0.016912265
0.491892278 0.981034815 0.039174441
0.552879333 0.985084295 0.067152061
0.617712021 0.985476136 0.086608171
0.685869455 0.981402755 0.093675919
0.754943192 0.975563407 0.094112046
0.823319376 0.971467555 0.091417640
0.890542924 0.970119357 0.085655473
0.956709385 0.970552683 0.077974394
0.999480844 0.972246885 0.072829254
1.000000000 0.974640012 0.073294416
0.012786880 0.006251181 0.105854630
0.055604085 0.004791827 0.104235917
0.103604957 0.002189032 0.104232050
0.145739377 0.000000000 0.105551183
0.181514412 0.000000000 0.104724526
0.213979363 0.000000000 0.101945169
0.246718109 0.000000000 0.099192694
0.282900035 0.000000000 0.097261727
0.323951185 0.000000000 0.095378503
0.370832026 0.000000000 0.092295274
0.424283832 0.000000000 0.087166891
0.483816385 0.000000000 0.080531403
0.547692358 0.000000000 0.074252687
0.614558637 0.000000000 0.069977425
0.682835758 0.000000000 0.067815706
0.749373138 0.000000000 0.067076139
0.017290967 0.051609464 0.100176781
0.060017634 0.050760437 0.099857636
0.109206028 0.048756134 0.101952262
0.155386046 0.046284087 0.104799569
0.196755707 0.043677852 0.105025813
0.233111188 0.040690109 0.102461293
0.265748620 0.036309458 0.099105380
0.298354417 0.030007957 0.096280865
0.334888399 0.021561079 0.093934417
0.378088385 0.010981079 0.091084957
0.429205745 0.002271833 0.086535498
0.487541974 0.000602152 0.080482155
0.550854027 0.000050968 0.074743882
0.617362440 0.000000000 0.070753984
0.685516357 0.000000000 0.068588398
0.752147734 0.000000000 0.067753129
0.026700001 0.109297633 0.093268827
0.070040211 0.109709680 0.095067963
0.121219791 0.110341720 0.100416996
0.172347784 0.110309042 0.105746239
0.222148195 0.109524950 0.108004950
0.268050998 0.107950330 0.107342377
0.307608217 0.105116129 0.105129473
0.341064543 0.099905171 0.102132909
0.371671200 0.091467537 0.098718286
0.405066252 0.079985388 0.094772905
0.446813762 0.066209689 0.089636356
0.499033332 0.051445816 0.083584100
0.559216022 0.036996119 0.078033991
0.624276876 0.023787726 0.073917642
0.691772103 0.012055707 0.071246460
0.758243799 0.005620652 0.070151836
0.038387105 0.166243032 0.091090329
0.083754629 0.167854220 0.094624095
0.137006685 0.171038732 0.102198072
0.189761326 0.173868626 0.109543234
0.243559584 0.175323695 0.113667533
0.297273368 0.175807998 0.115211621
0.347919643 0.175537243 0.115792267
0.392701536 0.173394874 0.115783028
0.429721326 0.167570785 0.114632063
0.460317075 0.156643048 0.111399800
0.490320653 0.140484139 0.105107769
0.528082609 0.121570580 0.096590772
0.577992499 0.103642814 0.088500865
0.637812793 0.088314846 0.082267523
0.702712893 0.075015090 0.077801093
0.767865360 0.067937024 0.075501516
0.051213764 0.227417648 0.093375698
0.099829033 0.229632273 0.097813554
0.156898513 0.234251186 0.106265597
0.210007548 0.239382163 0.115463667
0.262700677 0.243295088 0.122684307
0.317966908 0.245402172 0.126210764
0.374615520 0.246866047 0.128169909
0.430436194 0.248035938 0.130882591
0.482057631 0.247322604 0.134247556
0.524943650 0.241875067 0.136209473
0.557287276 0.228281736 0.133592695
0.584280431 0.205955282 0.124684319
0.617813647 0.180646017 0.112248167
0.665031731 0.158743203 0.100613110
0.722442150 0.141287535 0.091400228
0.783724129 0.132202804 0.085995704
0.064336129 0.293236375 0.097601943
0.116881512 0.295544118 0.102497004
0.180449471 0.299831182 0.110141076
0.236384973 0.305938721 0.120085165
0.286730349 0.312789023 0.132336140
0.339162171 0.317128390 0.141077429
0.395880282 0.318760246 0.144330114
0.454878122 0.320728630 0.146841511
0.514354169 0.323551178 0.151996985
0.570863485 0.324715495 0.158755481
0.618311226 0.319347560 0.163280666
0.652258515 0.301544964 0.160221949
0.678293586 0.271913975 0.147520199
0.710743964 0.240807056 0.130250722
0.756062150 0.216063678 0.114359573
0.811321139 0.203501508 0.104504094
0.077957861 0.361726940 0.101696350
0.133887559 0.363669515 0.106183447
0.203726053 0.366814703 0.111480221
0.265185624 0.372151911 0.119064085
0.315652490 0.381189764 0.135072485
0.364115298 0.389207363 0.152715921
0.419036448 0.391966313 0.161828205
0.478851616 0.392718136 0.164637223
0.539377213 0.395547837 0.169023246
0.599470317 0.399657041 0.176816344
0.657113492 0.401030391 0.185453370
0.706149459 0.392777503 0.189338744
0.740980506 0.368383050 0.181951419
0.769695401 0.333894849 0.164416134
0.805981755 0.302635580 0.144650370
0.855414212 0.286063313 0.131466702
0.091842160 0.430765390 0.104479358
0.149299785 0.432285219 0.107385390
0.221810982 0.434375107 0.109511398
0.287822396 0.437920660 0.112433977
0.341643661 0.446640879 0.127128601
0.387870312 0.457939386 0.152451620
0.439648896 0.463967144 0.171700448
0.500825584 0.464173794 0.178323030
0.564027309 0.465043038 0.182223439
0.625107110 0.468660891 0.189747944
0.684480846 0.471836150 0.198968381
0.741249859 0.469875306 0.205662817
0.789060295 0.455578923 0.204173759
0.826650381 0.427720189 0.191976562
0.864223421 0.397175282 0.174310356
0.911525786 0.379005849 0.161323473
0.104151607 0.499451160 0.105293766
0.161261722 0.500589669 0.106003881
0.233129695 0.502024710 0.105077222
0.300766021 0.504037797 0.103958510
0.359318286 0.510198474 0.113127753
0.407141477 0.521872044 0.139943466
0.455733150 0.531462967 0.169122398
0.515814900 0.533410549 0.183209479
0.582783222 0.532312930 0.187278718
0.647830129 0.533452690 0.193315700
0.709061682 0.535285592 0.201552913
0.767779708 0.534818709 0.208346665
0.822271228 0.528109431 0.210691839
0.869628072 0.511108577 0.205386445
0.914716065 0.488557220 0.193593755
0.965209901 0.473294824 0.183908612
0.113152690 0.567569017 0.104176998
0.169044301 0.568432689 0.102778293
0.239206463 0.569572270 0.099561945
0.306759387 0.570672274 0.096257217
0.369220018 0.574019372 0.099415064
0.421830773 0.583072901 0.121215060
