example_ofxGpuLutCube/bin/data/LUT/DJI Inspire LOG to Rec709.cube
TITLE "Generate by Resolve"
LUT_3D_SIZE 9
0 0 0
0.0305486 0 0
0.15996 0 0
0.293141 0 0
0.441184 0 0
0.602716 0 0
0.761364 0 0
0.902739 0 0
1 0 0
0 0.0308995 0
0.0309758 0.0309758 0
0.159884 0.0312047 0
0.292287 0.0304265 0
0.439429 0.0254368 0
0.599985 0.0164034 0
0.758618 0.00831617 0
0.90016 0.00508125 0
1 0.00387579 0
0 0.160815 0
0.0313725 0.160052 0
0.159731 0.159731 0
0.291997 0.158816 0
0.439429 0.154116 0
0.600717 0.145815 0
0.760525 0.138903 0
0.90367 0.137285 0
1 0.138125 0
0 0.290562 0
0.0282902 0.290135 0
0.15761 0.290776 0
0.291203 0.291203 0
0.440482 0.288334 0
0.604105 0.282368 0
0.766812 0.278355 0
0.91339 0.280171 0
1 0.284504 0
0 0.428931 0
0.0163272 0.43032 0
0.148425 0.433722 0
0.285191 0.437339 0
0.437842 0.437842 0
0.60528 0.435676 0
0.771527 0.435218 0
0.921202 0.440116 0
1 0.447044 0
0 0.581201 0
0.00274662 0.586328 0
0.138506 0.593408 0
0.278614 0.600336 0
0.433997 0.603586 0
0.603937 0.603937 0
0.771893 0.605173 0
0.922316 0.610819 0
1 0.618112 0
0 0.744381 0
0.00204471 0.752346 0
0.139879 0.761501 0
0.281437 0.769879 0
0.437522 0.773846 0
0.607401 0.774121 0
0.774487 0.774487 0
0.923262 0.7785 0
1 0.783703 0
0 0.907912 0
0.0213016 0.916381 0
0.158831 0.925216 0
0.29897 0.932189 0
0.453559 0.934646 0
0.620935 0.932418 0
0.784802 0.92958 0
0.929732 0.929732 0
1 0.930755 0
0 1 0
0.042298 1 0
0.177081 1 0
0.313634 1 0
0.464179 1 0
0.627543 1 0
0.787991 1 0
0.930648 1 0
1 1 0
0 0 0.0303807
0.0306401 0 0.0306401
0.160037 0 0.0313573
0.293233 0 0.0313725
0.441184 0 0.0271916
0.602365 0 0.0187839
0.761151 0 0.0108339
0.90248 0 0.00741588
1 0 0.00550851
0 0.0309606 0.0309606
0.0308232 0.0308232 0.0308232
0.159731 0.0310369 0.0310369
0.292042 0.0301976 0.0301976
0.439155 0.0251621 0.0251621
0.599725 0.016144 0.016144
0.758404 0.00810254 0.00810254
0.900023 0.00495918 0.00495918
1 0.00363165 0.00363165
0 0.160571 0.0318914
0.0308385 0.159533 0.0308385
0.159487 0.159487 0.030808
0.291829 0.158648 0.0299687
0.439353 0.154055 0.0253605
0.600778 0.145876 0.0171969
0.760784 0.139162 0.0104829
0.904234 0.13785 0.00917067
1 0.138842 0.0101625
0 0.290425 0.0285801
0.0281224 0.289967 0.0281224
0.157778 0.290944 0.0290837
0.291569 0.291569 0.0297246
0.440818 0.288685 0.0268254
0.605097 0.28336 0.0215152
0.768261 0.279805 0.0179446
0.915236 0.282017 0.0201724
1 0.286656 0.0247959
0 0.42945 0.0154574
0.0171359 0.431128 0.0171359
0.149538 0.434852 0.0208591
0.286717 0.438849 0.0248569
0.439628 0.439628 0.0256352
0.607569 0.43798 0.0239872
0.774075 0.437751 0.0237736
0.923842 0.442756 0.0287633
1 0.449897 0.0359045
0 0.582818 0
0.00476081 0.588342 0.00476081
0.140841 0.595728 0.0121462
0.281193 0.60293 0.0193484
0.436805 0.606394 0.0228122
0.606851 0.606851 0.02327
0.774823 0.608103 0.0245212
0.925109 0.613626 0.030045
1 0.620905 0.0373236
0 0.74696 0
0.00488289 0.755184 0.00488289
0.142809 0.764431 0.0141299
0.284123 0.77258 0.0222782
0.44036 0.776684 0.0263676
0.610117 0.776837 0.0265202
0.776913 0.776913 0.0265965
0.92549 0.780728 0.0304112
1 0.785519 0.0352178
0 0.910826 0.0157473
0.0241093 0.919173 0.0241093
0.161425 0.927825 0.0327459
0.301335 0.934554 0.0394903
0.455665 0.936751 0.0416876
0.62269 0.934188 0.0391089
0.785748 0.93051 0.0354467
0.93048 0.93048 0.0354009
1 0.931258 0.0361791
0 1 0.038117
0.0442206 1 0.0442206
0.178607 1 0.0499275
0.314733 1 0.0528725
0.464866 1 0.0508736
0.627955 1 0.0443732
0.788052 1 0.0377356
0.930922 1 0.0358434
1 1 0.0357519
0 0 0.159396
0.03093 0 0.159609
0.160372 0 0.160372
0.293538 0 0.160372
0.441413 0 0.156115
0.602411 0 0.147524
0.761151 0 0.139528
0.902464 0 0.13608
1 0 0.134127
0 0.0312352 0.159915
0.03093 0.03093 0.159609
0.159792 0.0311131 0.159792
0.292042 0.0301976 0.158877
0.439033 0.0250401 0.153735
0.599741 0.0161593 0.144839
0.75848 0.00817884 0.136858
0.900206 0.00512703 0.133806
1 0.00393683 0.132616
0 0.160571 0.160571
0.0308232 0.159503 0.159503
0.159503 0.159503 0.159503
0.291936 0.158755 0.158755
0.439353 0.154055 0.154055
0.60119 0.146288 0.146288
0.761395 0.139773 0.139773
0.904952 0.138552 0.138552
1 0.140078 0.140078
0 0.290394 0.157229
0.0283818 0.290242 0.157061
0.158267 0.291432 0.158267
0.292332 0.292332 0.159152
0.441855 0.289723 0.156542
0.606455 0.284733 0.151553
0.770016 0.281559 0.148394
0.917098 0.283879 0.150713
1 0.289189 0.156024
0 0.429984 0.144671
0.0183261 0.432319 0.147005
0.151141 0.436439 0.151141
0.28864 0.440787 0.155474
0.441871 0.441871 0.156558
0.610147 0.440558 0.155245
0.776944 0.44062 0.155322
0.926696 0.445609 0.160296
1 0.45304 0.167742
0 0.584772 0.12987
0.007187 0.590768 0.135866
0.143511 0.598413 0.143511
0.283803 0.605524 0.150622
0.439887 0.609476 0.154574
0.610025 0.610025 0.155123
0.777996 0.611261 0.156359
0.928206 0.616709 0.161822
1 0.623865 0.168963
0 0.74995 0.128328
0.00798047 0.758297 0.136675
0.145983 0.767605 0.145983
0.287175 0.775631 0.154009
0.443412 0.779721 0.158099
0.61297 0.77969 0.158068
0.779461 0.779461 0.157839
0.927871 0.783108 0.161471
1 0.787549 0.165911
0 0.91397 0.14757
0.0271305 0.92221 0.15581
0.164157 0.930556 0.164157
0.303838 0.937072 0.170672
0.457847 0.938933 0.172549
0.624491 0.935973 0.169589
0.787045 0.931823 0.165423
0.931426 0.931426 0.165026
1 0.931914 0.16553
0 1 0.169268
0.0462806 1 0.174975
0.179904 1 0.179904
0.315862 1 0.182696
0.465721 1 0.180407
0.628489 1 0.173587
0.788571 1 0.166949
0.931456 1 0.165072
1 1 0.165103
0 0 0.292592
0.0307164 0 0.292576
0.160388 0 0.293553
0.293492 0 0.293492
0.441245 0 0.289113
0.602167 0 0.28043
0.76083 0 0.272374
0.902129 0 0.268894
1 0 0.266896
0 0.0311589 0.293004
0.0306401 0.0306401 0.2925
0.159503 0.0308232 0.292683
0.291707 0.0298619 0.291707
0.438529 0.0245365 0.286397
0.59942 0.0158389 0.277699
0.758267 0.00794995 0.26981
0.900053 0.00497444 0.266835
1 0.00401312 0.265858
0 0.160143 0.293309
0.0304875 0.159182 0.292348
0.159228 0.159228 0.292393
0.291722 0.158556 0.291722
0.439277 0.153979 0.287144
0.601358 0.146456 0.279622
0.761822 0.140185 0.273365
0.905577 0.139193 0.272358
1 0.1411 0.274266
0 0.290196 0.290196
0.0283818 0.290227 0.290227
0.158465 0.29163 0.29163
0.292683 0.292683 0.292683
0.442725 0.290578 0.290578
0.607706 0.285985 0.285985
0.771603 0.283146 0.283146
0.91902 0.285786 0.285786
1 0.291432 0.291432
0 0.430549 0.278416
0.0192569 0.433249 0.281102
0.152529 0.437827 0.285695
0.29012 0.442252 0.29012
0.443961 0.443961 0.291829
0.612482 0.442893 0.290761
0.779278 0.442969 0.290822
0.929458 0.448371 0.296223
1 0.455894 0.303746
0 0.586618 0.264897
0.00939956 0.592981 0.27126
0.145998 0.6009 0.279179
0.286458 0.608194 0.286458
0.442664 0.612253 0.290532
0.612879 0.612879 0.291157
0.780484 0.613764 0.292027
0.930938 0.61944 0.297704
1 0.626398 0.304677
0 0.752697 0.26424
0.0108186 0.76112 0.272663
0.148836 0.770459 0.282002
0.289998 0.778454 0.289998
0.446113 0.782437 0.29398
0.615457 0.782177 0.293721
0.781506 0.781506 0.29305
0.929732 0.78497 0.296513
1 0.789029 0.300572
0 0.916732 0.283497
0.0297551 0.924819 0.2916
0.166339 0.932723 0.299504
0.305989 0.939208 0.305989
0.459602 0.940673 0.307454
0.625666 0.937163 0.303929
0.787884 0.932647 0.299428
0.93196 0.93196 0.298741
1 0.932235 0.299016
0 1 0.304448
0.0479438 1 0.309804
0.180941 1 0.314107
0.316518 1 0.316518
0.466117 1 0.313985
0.628687 1 0.30695
0.788769 1 0.300313
0.93167 1 0.298451
1 1 0.298543
0 0 0.443366
0.0293736 0 0.443366
0.15903 0 0.444343
0.292042 0 0.44419
0.439429 0 0.439429
0.600504 0 0.430915
0.759136 0 0.422812
0.90016 0 0.419074
1 0 0.41735
0 0.0294194 0.443412
0.0290379 0.0290379 0.44303
0.157824 0.0291447 0.443137
0.289998 0.0281529 0.44213
0.436835 0.0228428 0.436835
0.597772 0.0141909 0.428168
0.75668 0.00637827 0.420371
0.898421 0.00335698 0.41735
1 0.00280766 0.4168
0 0.158251 0.443549
0.028809 0.157488 0.442802
0.15761 0.15761 0.442924
0.290166 0.157 0.442298
0.437903 0.15259 0.437903
0.600183 0.145281 0.430594
0.760937 0.139315 0.424613
0.905013 0.138613 0.423926
1 0.140963 0.426276
0 0.288701 0.440848
0.0271153 0.28896 0.441108
0.157397 0.290562 0.442695
0.291722 0.291722 0.443854
0.442267 0.290135 0.442267
0.607721 0.285985 0.438132
0.771893 0.283436 0.435584
0.919722 0.286503 0.438636
1 0.292393 0.444541
0 0.429923 0.429923
0.0189364 0.432929 0.432929
0.152575 0.437888 0.437888
0.290593 0.442725 0.442725
0.444816 0.444816 0.444816
0.613596 0.444007 0.444007
0.780484 0.444175 0.444175
0.930861 0.449775 0.449775
1 0.457374 0.457374
0 0.587198 0.417609
0.0102998 0.593881 0.424292
0.146975 0.601877 0.432273
0.287816 0.609552 0.439963
0.444129 0.613718 0.444129
0.614359 0.614359 0.44477
0.781933 0.615213 0.445624
0.932265 0.620783 0.451179
1 0.627512 0.457923
0 0.754086 0.417777
0.0122988 0.762615 0.426291
0.149966 0.771588 0.435279
0.291386 0.779843 0.443519
0.447379 0.783688 0.447379
0.616251 0.782986 0.446662
0.782284 0.782284 0.44596
0.930114 0.785351 0.449027
1 0.788891 0.452567
0 0.918074 0.436988
0.0308995 0.925978 0.444892
0.167269 0.933654 0.452567
0.306645 0.939864 0.458778
0.459907 0.940993 0.459907
0.625132 0.936629 0.455543
0.787182 0.931945 0.450858
0.930999 0.930999 0.449912
1 0.931136 0.45005
0 1 0.457053
0.0480049 1 0.461997
0.180575 1 0.465888
0.31577 1 0.467903
0.465095 1 0.465095
0.627436 1 0.457847
0.78761 1 0.451286
0.930571 1 0.449485
1 1 0.4495
0 0 0.610162
0.0267491 0 0.61033
0.15639 0 0.611276
0.289235 0 0.610956
0.436576 0 0.606165
0.597559 0 0.597559
0.756161 0 0.589441
0.897185 0 0.585702
1 0 0.584024
0 0.0266423 0.610224
0.0261692 0.0261692 0.609751
0.154879 0.0261845 0.609766
0.286793 0.0249485 0.60853
0.43389 0.0198978 0.603479
0.594888 0.0113069 0.594888
0.753918 0.00360113 0.587182
0.895781 0.000717174 0.584298
1 0.000366217 0.583947
0 0.155276 0.610178
0.025864 0.154559 0.609445
0.154757 0.154757 0.609659
0.287236 0.15407 0.608972
0.43537 0.150057 0.604959
0.597833 0.142931 0.597833
0.758572 0.13695 0.591836
0.903288 0.136904 0.591806
1 0.139712 0.594614
0 0.28603 0.607752
0.0246586 0.286503 0.60824
0.1552 0.288365 0.610101
0.289815 0.289815 0.611536
0.440696 0.288548 0.610285
0.606516 0.284794 0.606516
0.770916 0.28246 0.604196
0.91931 0.286091 0.607813
1 0.292241 0.613977
0 0.428168 0.597757
0.0175937 0.431586 0.601175
0.151492 0.43679 0.606394
0.289891 0.442039 0.611627
0.444434 0.444434 0.614038
0.613504 0.443915 0.613504
0.78056 0.444251 0.61384
0.93106 0.449973 0.619562
1 0.457603 0.627192
0 0.586679 0.586679
0.0100252 0.593606 0.593606
0.146792 0.601694 0.601694
0.287953 0.609674 0.609674
0.444358 0.613947 0.613947
0.614404 0.614404 0.614404
0.782071 0.615351 0.615351
0.93228 0.620783 0.620783
1 0.627283 0.627283
0 0.754238 0.587518
0.0124666 0.762768 0.596048
0.150179 0.771801 0.605081
0.291478 0.779934 0.613199
0.447272 0.783597 0.616861
0.615869 0.782589 0.615869
0.781689 0.781689 0.614969
0.929168 0.784405 0.617685
1 0.787167 0.620432
0 0.918135 0.606653
0.0305028 0.925582 0.614084
0.166812 0.933211 0.621714
0.305867 0.939086 0.627588
0.458732 0.939818 0.628321
0.623529 0.935027 0.623529
0.785168 0.929931 0.618433
0.92871 0.92871 0.617212
1 0.92845 0.616953
0 1 0.625757
0.0462654 1 0.629847
0.178744 1 0.633646
0.313664 1 0.635386
0.462531 1 0.63212
0.62501 1 0.62501
0.785183 1 0.618463
0.928283 1 0.616785
1 1 0.616922
0 0 0.774395
0.0243534 0 0.774655
0.153903 0 0.77554
0.286595 0 0.775051
0.43389 0 0.770214
0.594812 0 0.761547
0.753338 0 0.753338
0.894453 0 0.749676
1 0 0.748074
0 0.0240024 0.774304
0.0234531 0.0234531 0.773754
0.152117 0.0234379 0.773739
0.284001 0.0221408 0.772457
0.431159 0.0171664 0.767468
0.592248 0.00866712 0.758968
0.751202 0.000900282 0.751202
0.893446 0 0.748684
1 0 0.748531
0 0.152529 0.774151
0.0231632 0.151843 0.773465
0.152026 0.152026 0.773648
0.284764 0.151598 0.77322
0.433112 0.147799 0.769421
0.595834 0.140948 0.76257
0.756863 0.135225 0.756863
0.9019 0.135515 0.757137
1 0.13872 0.760342
0 0.283604 0.772061
0.0224308 0.284276 0.772732
0.152987 0.286152 0.774609
0.288258 0.288258 0.776715
0.439536 0.287388 0.775845
0.605707 0.28397 0.772427
0.770413 0.281971 0.770413
0.919142 0.285924 0.77438
1 0.292363 0.780819
0 0.426673 0.762982
0.016556 0.430549 0.766873
0.150637 0.43595 0.772259
0.28957 0.441718 0.778027
0.444373 0.444373 0.780682
0.613321 0.443732 0.780056
0.780896 0.444587 0.780896
0.931487 0.450416 0.786725
1 0.45803 0.794339
0 0.58648 0.753216
0.0101015 0.593683 0.760418
0.147036 0.601938 0.768658
0.288319 0.61004 0.776776
0.444785 0.614374 0.781109
0.614649 0.614649 0.781369
0.782376 0.615656 0.782376
0.932387 0.620905 0.787625
1 0.6271 0.793835
0 0.75465 0.75465
0.0128023 0.763119 0.763119
0.150576 0.772198 0.772198
0.291752 0.780209 0.780209
0.447318 0.783627 0.783627
0.615625 0.782345 0.782345
0.781125 0.781125 0.781125
0.928222 0.783459 0.783459
1 0.785687 0.785687
0 0.918334 0.773571
0.0304265 0.925505 0.780728
0.166522 0.932921 0.788159
0.30518 0.938399 0.793637
0.457328 0.938399 0.793637
0.621927 0.93341 0.788647
0.783276 0.928038 0.783276
0.926543 0.926543 0.781765
1 0.926223 0.78146
0 1 0.791623
0.0449531 1 0.795254
0.176989 1 0.798611
0.311635 1 0.800092
0.460349 1 0.796658
0.622782 1 0.789502
0.782986 1 0.782986
0.925994 1 0.781231
1 1 0.781735
0 0 0.918349
0.0235142 0 0.918593
0.153002 0 0.919387
0.285435 0 0.918654
0.432761 0 0.913848
0.593652 0 0.905135
0.751949 0 0.896727
0.893294 0 0.893294
1 0 0.891783
0 0.0229343 0.918013
0.0222934 0.0222934 0.917372
0.150896 0.0222171 0.917281
0.282841 0.0209812 0.91606
0.43003 0.0160372 0.911116
0.591211 0.00762951 0.902693
0.750256 0 0.895018
0.892775 0 0.892775
1 0 0.892882
0 0.151369 0.917769
0.0220798 0.150774 0.917159
0.150973 0.150973 0.917372
0.283925 0.150759 0.917144
0.432471 0.147158 0.913558
0.595407 0.140505 0.906889
0.756878 0.135256 0.901656
0.902312 0.135912 0.902312
1 0.139467 0.905852
0 0.282872 0.916091
0.0218967 0.283757 0.916976
0.152712 0.285878 0.919097
0.28835 0.28835 0.921569
0.44007 0.287938 0.921157
0.606378 0.284642 0.917861
0.771679 0.283223 0.916442
0.920638 0.287419 0.920638
1 0.293919 0.927138
0 0.426902 0.907988
0.0169985 0.430976 0.912062
0.151659 0.436957 0.918044
0.290959 0.443107 0.924178
0.446021 0.446021 0.927108
0.615152 0.445548 0.926635
0.782849 0.446525 0.927611
0.933501 0.45243 0.933501
1 0.459693 0.940764
0 0.587915 0.899397
0.0114748 0.595056 0.906554
0.148943 0.60383 0.915328
0.290303 0.612039 0.923537
0.446799 0.616388 0.927886
0.616632 0.616632 0.92813
0.784253 0.617517 0.929015
0.934035 0.622538 0.934035
1 0.62826 0.939742
0 0.75668 0.901442
0.0146181 0.764935 0.909697
0.152499 0.774121 0.918883
0.293538 0.781994 0.926772
0.4486 0.784909 0.929686
0.616922 0.783658 0.92842
0.78204 0.78204 0.926802
0.928603 0.783825 0.928603
1 0.785687 0.930449
0 0.920012 0.920012
0.0318761 0.926955 0.926955
0.167712 0.934112 0.934112
0.306004 0.939239 0.939239
0.457481 0.938567 0.938567
0.621744 0.933242 0.933242
0.782849 0.927611 0.927611
0.925902 0.925902 0.925902
1 0.925597 0.925597
0 1 0.936889
0.0451209 1 0.940185
0.176761 1 0.943145
0.311086 1 0.944305
0.459724 1 0.94081
0.622141 1 0.933639
0.782422 1 0.927184
0.925505 1 0.925505
1 1 0.926192
0 0 1
0.0232547 0 1
0.152422 0 1
0.284947 0 1
0.432197 0 1
0.593042 0 1
0.751369 0 1
0.89276 0 1
1 0 1
0 0.0224155 1
0.0217136 0.0217136 1
0.150072 0.0213931 1
0.282261 0.0204013 1
0.429526 0.0155337 1
0.590799 0.00721752 1
0.749981 0 1
0.892699 0 1
1 0 1
0 0.150805 1
0.0216068 0.150286 1
0.150561 0.150561 1
0.283772 0.150591 1
0.432502 0.147204 1
0.595514 0.140612 1
0.757549 0.135927 1
0.903441 0.137041 1
1 0.140917 1
0 0.28278 1
0.0220035 0.283864 1
0.153185 0.286351 1
0.289143 0.289143 1
0.44126 0.289128 1
0.607935 0.286198 1
0.773632 0.285176 1
0.922866 0.289647 1
1 0.296239 1
0 0.427939 1
0.0182803 0.432273 1
0.153338 0.438651 1
0.292958 0.445106 1
0.448157 0.448157 1
0.617624 0.448035 1
0.785412 0.449104 1
0.936095 0.455024 1
1 0.462257 1
0 0.590021 1
0.0137942 0.597375 1
0.151431 0.606332 1
0.292912 0.614633 1
0.449042 0.618631 1
0.619135 0.619135 1
0.786618 0.619898 1
0.936004 0.624506 1
1 0.630137 1
0 0.75903 1
0.0171969 0.767514 1
0.154955 0.776577 1
0.295811 0.784268 1
0.450645 0.786969 1
0.618708 0.785443 1
0.783459 0.783459 1
0.929152 0.78439 1
1 0.786084 1
0 0.921904 1
0.0337987 0.928878 1
0.169299 0.935683 1
0.307195 0.940414 1
0.458228 0.939315 1
0.62211 0.933593 1
0.782925 0.927687 1
0.925719 0.925719 1
1 0.925536 1
0 1 1
0.045655 1 1
0.177005 1 1
0.310918 1 1
0.459663 1 1
0.622095 1 1
0.782483 1 1
0.925689 1 1
1 1 1
