example_ofxGpuLutCube/bin/data/LUT/DJI Inspire LOG to Rec709.cube
TITLE "Generate by Resolve"
LUT_3D_SIZE 33
0 0 0
0 0 0
0 0 0
0 0 0
0.0305486 0 0
0.0632029 0 0
0.0955062 0 0
0.127703 0 0
0.15996 0 0
0.19266 0 0
0.225498 0 0
0.258885 0 0
0.293141 0 0
0.328389 0 0
0.364797 0 0
0.402548 0 0
0.441184 0 0
0.48072 0 0
0.520943 0 0
0.561578 0 0
0.602716 0 0
0.643412 0 0
0.683497 0 0
0.722911 0 0
0.761364 0 0
0.798657 0 0
0.83444 0 0
0.868894 0 0
0.902739 0 0
0.936278 0 0
0.969757 0 0
1 0 0
1 0 0
0 0 0
0 0 0
0 0 0
0 0 0
0.0308843 0 0
0.0635538 0 0
0.0958572 0 0
0.128313 0 0
0.160555 0 0
0.193011 0 0
0.225849 0 0
0.259205 0 0
0.293431 0 0
0.328893 0 0
0.365179 0 0
0.402686 0 0
0.441276 0 0
0.480735 0 0
0.520897 0 0
0.561654 0 0
0.602472 0 0
0.643122 0 0
0.683177 0 0
0.722515 0 0
0.761013 0 0
0.798337 0 0
0.833951 0 0
0.868391 0 0
0.90222 0 0
0.935744 0 0
0.96936 0 0
1 0 0
1 0 0
0 0 0
0 0 0
0 0 0
0 0 0
0.0308537 0 0
0.0635233 0 0
0.0960555 0 0
0.128267 0 0
0.160494 0 0
0.192905 0 0
0.225666 0 0
0.258991 0 0
0.293431 0 0
0.328573 0 0
0.364767 0 0
0.402182 0 0
0.440681 0 0
0.48011 0 0
0.520424 0 0
0.560922 0 0
0.601678 0 0
0.642283 0 0
0.682307 0 0
0.721889 0 0
0.760281 0 0
0.797421 0 0
0.833021 0 0
0.86746 0 0
0.901366 0 0
0.935103 0 0
0.968612 0 0
1 0 0
1 0 0
0 0 0
0 0 0
0 0 0
0 0 0
0.030808 0 0
0.0637064 0 0
0.0959487 0 0
0.128084 0 0
0.16025 0 0
0.19263 0 0
0.225544 0 0
0.258824 0 0
0.292897 0 0
0.327962 0 0
0.364111 0 0
0.40148 0 0
0.440192 0 0
0.479545 0 0
0.519585 0 0
0.560067 0 0
0.600809 0 0
0.641398 0 0
0.681666 0 0
0.720974 0 0
0.759365 0 0
0.796521 0 0
0.832151 0 0
0.866651 0 0
0.900725 0 0
0.93431 0 0
0.967849 0 0
1 0 0
1 0 0
0 0.0308995 0
0 0.0309606 0
0 0.0308843 0
0 0.03093 0
0.0309758 0.0309758 0
0.0635691 0.0309911 0
0.0957504 0.0310826 0
0.12781 0.0311589 0
0.159884 0.0312047 0
0.192355 0.0313573 0
0.225071 0.0312963 0
0.258244 0.0309911 0
0.292287 0.0304265 0
0.327291 0.0295872 0
0.363394 0.0284428 0
0.400961 0.0271916 0
0.439429 0.0254368 0
0.478767 0.0233921 0
0.518791 0.0211643 0
0.559243 0.0188144 0
0.599985 0.0164034 0
0.640833 0.0142977 0
0.680873 0.0120851 0
0.720211 0.010071 0
0.758618 0.00831617 0
0.795789 0.00689708 0
0.831724 0.0061799 0
0.866239 0.00555428 0
0.90016 0.00508125 0
0.933776 0.00471504 0
0.967376 0.00437934 0
1 0.0039826 0
1 0.00387579 0
0 0.0637369 0
0 0.0637522 0
0 0.0637522 0
0 0.0637369 0
0.0310063 0.0635691 0
0.0634928 0.0634928 0
0.095613 0.063508 0
0.127611 0.0635386 0
0.159899 0.0637827 0
0.192126 0.0637064 0
0.22472 0.0635233 0
0.257862 0.0631723 0
0.291875 0.0625925 0
0.327031 0.0618906 0
0.36321 0.0608225 0
0.400534 0.0593271 0
0.438956 0.0575265 0
0.478294 0.0554971 0
0.518334 0.0532692 0
0.559014 0.0511635 0
0.599832 0.0488136 0
0.640436 0.0464637 0
0.680507 0.0442817 0
0.71989 0.0423133 0
0.758358 0.0406195 0
0.79585 0.0395209 0
0.831556 0.0385901 0
0.866133 0.0380102 0
0.90013 0.0376287 0
0.933852 0.0373541 0
0.967544 0.0371099 0
1 0.0370336 0
1 0.0367742 0
0 0.0963302 0
0 0.0964523 0
0 0.0962234 0
0 0.0960098 0
0.0311284 0.0957961 0
0.0635691 0.0956741 0
0.0957351 0.0957351 0
0.12784 0.0958724 0
0.159838 0.0958267 0
0.19205 0.0957351 0
0.224628 0.0955215 0
0.25774 0.0951553 0
0.291875 0.0946975 0
0.326986 0.0939498 0
0.363073 0.0927901 0
0.400412 0.09131 0
0.438849 0.0895399 0
0.478218 0.0875105 0
0.518471 0.0855116 0
0.559045 0.083299 0
0.599863 0.0809491 0
0.640528 0.0786603 0
0.680644 0.076524 0
0.720073 0.0746014 0
0.758877 0.073228 0
0.796201 0.0719768 0
0.832013 0.0711376 0
0.866651 0.0706493 0
0.90074 0.0703288 0
0.934798 0.0704051 0
0.968658 0.0703288 0
1 0.0701305 0
1 0.0699779 0
0 0.128756 0
0 0.128618 0
0 0.128359 0
0 0.128069 0
0.0311742 0.127825 0
0.0636759 0.127749 0
0.0958877 0.127871 0
0.127825 0.127825 0
0.159808 0.127779 0
0.192004 0.127657 0
0.224582 0.127443 0
0.257969 0.127352 0
0.291981 0.126772 0
0.326986 0.125933 0
0.363104 0.124788 0
0.400458 0.123323 0
0.439063 0.121721 0
0.478614 0.11989 0
0.518746 0.117754 0
0.559304 0.115511 0
0.600153 0.113222 0
0.640909 0.111009 0
0.681285 0.109148 0
0.720913 0.107408 0
0.759518 0.105852 0
0.796918 0.104677 0
0.832853 0.10396 0
0.867643 0.103609 0
0.902083 0.103655 0
0.936065 0.103639 0
0.970001 0.103639 0
1 0.103624 0
1 0.10367 0
0 0.160815 0
0 0.160647 0
0 0.160357 0
0 0.160067 0
0.0313725 0.160052 0
0.0637675 0.159884 0
0.0957961 0.159808 0
0.127733 0.159777 0
0.159731 0.159731 0
0.192004 0.159686 0
0.224796 0.159716 0
0.257954 0.159365 0
0.291997 0.158816 0
0.327047 0.158022 0
0.363226 0.156939 0
0.400732 0.155642 0
0.439429 0.154116 0
0.478904 0.152209 0
0.519112 0.150164 0
0.559762 0.148028 0
0.600717 0.145815 0
0.641688 0.143816 0
0.682109 0.142 0
0.721767 0.140307 0
0.760525 0.138903 0
0.798047 0.137835 0
0.834073 0.137224 0
0.869276 0.13727 0
0.90367 0.137285 0
0.937804 0.137423 0
0.971908 0.137575 0
1 0.137682 0
1 0.138125 0
0 0.192874 0
0 0.192691 0
0 0.192386 0
0 0.19234 0
0.0310979 0.192081 0
0.063508 0.191928 0
0.0955673 0.191882 0
0.12752 0.191867 0
0.159564 0.191867 0
0.19205 0.19205 0
0.224689 0.191913 0
0.257908 0.191638 0
0.291997 0.191135 0
0.327092 0.190372 0
0.363592 0.189624 0
0.401114 0.188327 0
0.439734 0.18674 0
0.479286 0.184909 0
0.51957 0.18294 0
0.560403 0.180972 0
0.601694 0.17911 0
0.642664 0.177111 0
0.68307 0.17528 0
0.722835 0.173678 0
0.761746 0.172427 0
0.799588 0.171679 0
0.835966 0.17142 0
0.871031 0.171328 0
0.905562 0.171481 0
0.93991 0.171817 0
0.974273 0.172259 0
1 0.172778 0
1 0.173297 0
0 0.22504 0
0 0.225086 0
0 0.224842 0
0 0.224552 0
0.0305333 0.224308 0
0.062974 0.224186 0
0.095079 0.22417 0
0.127352 0.224475 0
0.159426 0.224521 0
0.191714 0.224506 0
0.224414 0.224414 0
0.25771 0.224216 0
0.291905 0.223819 0
0.327367 0.223423 0
0.363668 0.222492 0
0.401266 0.221271 0
0.440009 0.219791 0
0.479713 0.218128 0
0.52018 0.216327 0
0.561273 0.214618 0
0.602472 0.212665 0
0.64361 0.210834 0
0.68423 0.209216 0
0.724163 0.207782 0
0.763302 0.20676 0
0.801373 0.206241 0
0.837812 0.206058 0
0.873152 0.206241 0
0.907897 0.206592 0
0.942397 0.207111 0
0.977279 0.208042 0
1 0.208667 0
1 0.209384 0
0 0.257649 0
0 0.257557 0
0 0.257298 0
0 0.257069 0
0.029633 0.256886 0
0.0621195 0.256809 0
0.0945144 0.257099 0
0.126604 0.257221 0
0.15877 0.257343 0
0.191165 0.257435 0
0.223941 0.257435 0
0.257298 0.257298 0
0.291859 0.257267 0
0.327199 0.256748 0
0.363653 0.255955 0
0.401358 0.254841 0
0.440208 0.253483 0
0.480323 0.252216 0
0.520928 0.250553 0
0.56199 0.248829 0
0.603342 0.247028 0
0.644617 0.245335 0
0.685435 0.243915 0
0.725887 0.243015 0
0.765194 0.242145 0
0.803265 0.241627 0
0.839887 0.241611 0
0.875456 0.242023 0
0.910597 0.242771 0
0.945602 0.243793 0
0.980392 0.244648 0
1 0.245457 0
1 0.246403 0
0 0.290562 0
0 0.290471 0
0 0.290272 0
0 0.290089 0
0.0282902 0.290135 0
0.0609751 0.290257 0
0.0932174 0.290394 0
0.125368 0.290578 0
0.15761 0.290776 0
0.190112 0.290974 0
0.22327 0.291341 0
0.256809 0.291402 0
0.291203 0.291203 0
0.326635 0.290791 0
0.363256 0.29015 0
0.40116 0.289235 0
0.440482 0.288334 0
0.480461 0.286931 0
0.521202 0.285435 0
0.562478 0.283909 0
0.604105 0.282368 0
0.645609 0.280919 0
0.68687 0.279942 0
0.727245 0.27895 0
0.766812 0.278355 0
0.805203 0.278157 0
0.842084 0.278401 0
0.877882 0.279057 0
0.91339 0.280171 0
0.94844 0.281224 0
0.98352 0.282368 0
1 0.283406 0
1 0.284504 0
0 0.323964 0
0 0.323949 0
0 0.323842 0
0 0.323903 0
0.0262608 0.32398 0
0.0589456 0.324086 0
0.09131 0.324346 0
0.123613 0.324666 0
0.155978 0.325002 0
0.188785 0.325505 0
0.221897 0.325841 0
0.255573 0.326024 0
0.290181 0.326024 0
0.32578 0.32578 0
0.362524 0.325277 0
0.400885 0.324819 0
0.440162 0.323888 0
0.4804 0.322744 0
0.521355 0.321431 0
0.562799 0.320089 0
0.604913 0.319036 0
0.646738 0.317891 0
0.688014 0.31693 0
0.728618 0.316182 0
0.768353 0.315755 0
0.806958 0.31577 0
0.844434 0.316609 0
0.880461 0.317479 0
0.915908 0.318547 0
0.951125 0.319753 0
0.986374 0.32108 0
1 0.322393 0
1 0.324025 0
0 0.358053 0
0 0.358114 0
0 0.358373 0
0 0.358419 0
0.0235599 0.358526 0
0.0563516 0.35874 0
0.0888228 0.359106 0
0.121386 0.359701 0
0.154101 0.360372 0
0.186892 0.360861 0
0.220096 0.361288 0
0.25391 0.361608 0
0.288701 0.361807 0
0.324758 0.362005 0
0.361852 0.361852 0
0.400107 0.361288 0
0.439551 0.360525 0
0.480034 0.359625 0
0.521309 0.358633 0
0.563287 0.357824 0
0.605371 0.356756 0
0.647349 0.355764 0
0.688869 0.355047 0
0.729763 0.354589 0
0.769757 0.354406 0
0.80885 0.35491 0
0.846174 0.355596 0
0.882414 0.356695 0
0.91812 0.358007 0
0.953536 0.359426 0
0.988922 0.360876 0
1 0.362631 0
1 0.364141 0
0 0.393011 0
0 0.393423 0
0 0.393515 0
0 0.393668 0
0.0201572 0.393942 0
0.0531624 0.394369 0
0.0859083 0.39501 0
0.118654 0.395789 0
0.151369 0.39646 0
0.18439 0.397177 0
0.217853 0.397864 0
0.251896 0.398413 0
0.287022 0.398947 0
0.323201 0.399268 0
0.360479 0.399298 0
0.399054 0.399054 0
0.438758 0.398535 0
0.479408 0.397818 0
0.521187 0.39733 0
0.56318 0.396536 0
0.605509 0.395697 0
0.6477 0.394934 0
0.689387 0.394369 0
0.730694 0.394324 0
0.771008 0.394461 0
0.810025 0.394903 0
0.847517 0.395758 0
0.883894 0.396979 0
0.919738 0.398444 0
0.955657 0.400366 0
0.991272 0.402045 0
1 0.403586 0
1 0.405188 0
0 0.428931 0
0 0.429313 0
0 0.429603 0
0 0.429923 0
0.0163272 0.43032 0
0.0497902 0.431205 0
0.0826734 0.431998 0
0.115511 0.432853 0
0.148425 0.433722 0
0.181613 0.434607 0
0.215381 0.435599 0
0.249943 0.436667 0
0.285191 0.437339 0
0.321477 0.437751 0
0.358923 0.437949 0
0.397711 0.437934 0
0.437842 0.437842 0
0.47895 0.437568 0
0.520607 0.436973 0
0.562753 0.436316 0
0.60528 0.435676 0
0.647715 0.435172 0
0.68983 0.435035 0
0.731167 0.435019 0
0.771527 0.435218 0
0.810712 0.435813 0
0.848417 0.436866 0
0.884947 0.438254 0
0.921202 0.440116 0
0.956954 0.441871 0
0.992645 0.443641 0
1 0.445319 0
1 0.447044 0
0 0.465568 0
0 0.466072 0
0 0.466575 0
0 0.46717 0
0.0127108 0.468086 0
0.046067 0.468864 0
0.0791333 0.469825 0
0.112215 0.470954 0
0.145449 0.472129 0
0.178973 0.47335 0
0.213092 0.474693 0
0.247623 0.475731 0
0.283131 0.476646 0
0.319692 0.477363 0
0.357382 0.477791 0
0.396475 0.478065 0
0.43682 0.478202 0
0.477974 0.477974 0
0.519875 0.477623 0
0.562219 0.477165 0
0.604883 0.476677 0
0.647807 0.476631 0
0.689891 0.476463 0
0.731304 0.476539 0
0.771801 0.47686 0
0.811093 0.477562 0
0.849073 0.478904 0
0.885893 0.480583 0
0.921981 0.482277 0
0.957778 0.484077 0
0.99353 0.485893 0
1 0.487633 0
1 0.489662 0
0 0.503151 0
0 0.503868 0
0 0.50454 0
0 0.505623 0
0.00891127 0.506539 0
0.0425727 0.507637 0
0.0758831 0.508843 0
0.109163 0.51014 0
0.142901 0.511833 0
0.176623 0.513268 0
0.210788 0.514641 0
0.245533 0.515892 0
0.281193 0.51696 0
0.317983 0.517891 0
0.356207 0.518868 0
0.395407 0.519249 0
0.435721 0.519356 0
0.477012 0.519265 0
0.519051 0.519051 0
0.5617 0.518898 0
0.604776 0.518822 0
0.647486 0.518563 0
0.689662 0.518502 0
0.731197 0.518669 0
0.771817 0.519142 0
0.811383 0.520119 0
0.849439 0.521538 0
0.886168 0.52311 0
0.922316 0.524865 0
0.95816 0.526726 0
0.993973 0.528603 0
1 0.530587 0
1 0.532494 0
0 0.541558 0
0 0.542855 0
0 0.543862 0
0 0.544854 0
0.00553903 0.545953 0
0.0394141 0.547265 0
0.0730144 0.54876 0
0.106859 0.550652 0
0.140475 0.552224 0
0.174365 0.553811 0
0.208743 0.555383 0
0.243732 0.556893 0
0.279606 0.558175 0
0.316838 0.559548 0
0.354894 0.560357 0
0.394263 0.560906 0
0.434791 0.561212 0
0.476234 0.561288 0
0.518456 0.561257 0
0.561364 0.561364 0
0.604334 0.561166 0
0.647166 0.561044 0
0.689448 0.56109 0
0.731044 0.561318 0
0.772076 0.562188 0
0.811536 0.563058 0
0.84947 0.564355 0
0.886244 0.565972 0
0.922408 0.567758 0
0.958389 0.569741 0
0.9944 0.571817 0
1 0.573571 0
1 0.575357 0
0 0.581201 0
0 0.582483 0
0 0.583703 0
0 0.584985 0
0.00274662 0.586328 0
0.0367895 0.587808 0
0.0708782 0.589792 0
0.104646 0.591577 0
0.138506 0.593408 0
0.17258 0.595178 0
0.20708 0.596902 0
0.242527 0.598856 0
0.278614 0.600336 0
0.315709 0.601587 0
0.353902 0.602533 0
0.393378 0.603174 0
0.433997 0.603586 0
0.475914 0.60412 0
0.518196 0.60415 0
0.560922 0.604074 0
0.603937 0.603937 0
0.64683 0.603876 0
0.689219 0.604013 0
0.731182 0.604623 0
0.771893 0.605173 0
0.811368 0.606058 0
0.849302 0.60734 0
0.886061 0.608957 0
0.922316 0.610819 0
0.958389 0.612909 0
0.994156 0.61474 0
1 0.616419 0
1 0.618112 0
0 0.621439 0
0 0.622873 0
0 0.624247 0
0 0.625711 0
0.000976577 0.627512 0
0.0353552 0.629343 0
0.0692912 0.631174 0
0.103182 0.633082 0
0.137194 0.635065 0
0.171466 0.637034 0
0.206439 0.639216 0
0.241733 0.641032 0
0.277897 0.642588 0
0.315099 0.643931 0
0.353429 0.645014 0
0.393011 0.645792 0
0.434058 0.646616 0
0.475685 0.64686 0
0.518029 0.646952 0
0.560815 0.646937 0
0.603876 0.646845 0
0.646815 0.646815 0
0.689494 0.647257 0
0.731136 0.647547 0
0.771847 0.648081 0
0.811307 0.648966 0
0.849226 0.650233 0
0.886275 0.65214 0
0.922362 0.653834 0
0.958114 0.655589 0
0.993805 0.657359 0
1 0.658976 0
1 0.660624 0
0 0.662043 0
0 0.663722 0
0 0.665309 0
0 0.667124 0
0.000183108 0.668971 0
0.034638 0.670863 0
0.0687724 0.672892 0
0.102815 0.674952 0
0.136934 0.677043 0
0.171649 0.679438 0
0.206455 0.681468 0
0.24184 0.68336 0
0.278096 0.685023 0
0.315358 0.686427 0
0.354009 0.687831 0
0.393729 0.688746 0
0.434485 0.689281 0
0.476158 0.68957 0
0.518517 0.689677 0
0.561303 0.689662 0
0.604685 0.689891 0
0.647623 0.68986 0
0.689952 0.689952 0
0.731563 0.690211 0
0.772213 0.6907 0
0.811597 0.691493 0
0.849775 0.693019 0
0.886427 0.694514 0
0.922423 0.696132 0
0.958053 0.69778 0
0.993606 0.699382 0
1 0.700908 0
1 0.702693 0
0 0.703059 0
0 0.704982 0
0 0.706981 0
0 0.708797 0
0.000488289 0.710643 0
0.03505 0.712627 0
0.069276 0.714748 0
0.103624 0.717128 0
0.138048 0.719509 0
0.172503 0.72166 0
0.207355 0.72372 0
0.242802 0.725673 0
0.279118 0.727398 0
0.31667 0.729107 0
0.3552 0.730388 0
0.394858 0.731212 0
0.435599 0.731746 0
0.477256 0.732036 0
0.519615 0.732128 0
0.562676 0.732403 0
0.605753 0.732311 0
0.648585 0.732189 0
0.690837 0.732189 0
0.732387 0.732387 0
0.772976 0.732799 0
0.812604 0.733852 0
0.850294 0.734905 0
0.886793 0.736248 0
0.922683 0.737743 0
0.958206 0.739284 0
0.993957 0.741085 0
1 0.742382 0
1 0.743648 0
0 0.744381 0
0 0.746578 0
0 0.74844 0
0 0.750362 0
0.00204471 0.752346 0
0.0366979 0.754437 0
0.0711528 0.756786 0
0.105577 0.759243 0
0.139879 0.761501 0
0.174395 0.763714 0
0.209308 0.765835 0
0.24477 0.767819 0
0.281437 0.769879 0
0.318746 0.771344 0
0.357153 0.772503 0
0.396796 0.773327 0
0.437522 0.773846 0
0.479332 0.774273 0
0.521752 0.774426 0
0.564431 0.774319 0
0.607401 0.774121 0
0.650172 0.773922 0
0.692317 0.773831 0
0.733959 0.774121 0
0.774487 0.774487 0
0.813672 0.775082 0
0.851255 0.776028 0
0.887587 0.777218 0
0.923262 0.7785 0
0.958907 0.780148 0
0.994202 0.781506 0
1 0.782635 0
1 0.783703 0
0 0.785809 0
0 0.787884 0
0 0.789853 0
0 0.791821 0
0.00500496 0.793896 0
0.0400244 0.796368 0
0.074403 0.798627 0
0.108659 0.800916 0
0.142977 0.803189 0
0.177493 0.805402 0
0.212497 0.80763 0
0.248188 0.809827 0
0.284489 0.811536 0
0.321782 0.81297 0
0.360128 0.814069 0
0.39968 0.814801 0
0.440497 0.815412 0
0.482231 0.815747 0
0.524422 0.815686 0
0.566979 0.815457 0
0.609781 0.815106 0
0.65243 0.814786 0
0.694697 0.814817 0
0.73608 0.814832 0
0.776333 0.814923 0
0.815305 0.815305 0
0.85272 0.816083 0
0.88893 0.817136 0
0.924743 0.81857 0
0.959838 0.819669 0
0.994827 0.820722 0
1 0.821653 0
1 0.822522 0
0 0.826734 0
0 0.82887 0
0 0.830884 0
0 0.832944 0
0.00979629 0.835325 0
0.0445258 0.837491 0
0.0788891 0.83975 0
0.113146 0.842039 0
0.147448 0.844297 0
0.182025 0.846571 0
0.217151 0.848905 0
0.252522 0.850797 0
0.288746 0.85243 0
0.325963 0.853788 0
0.364248 0.854826 0
0.404044 0.855817 0
0.444556 0.856107 0
0.485954 0.856123 0
0.528038 0.855955 0
0.570504 0.855604 0
0.613291 0.855238 0
0.655924 0.854917 0
0.697765 0.85452 0
0.738888 0.854276 0
0.779004 0.854231 0
0.817777 0.854414 0
0.855116 0.855116 0
0.891188 0.856046 0
0.926497 0.856962 0
0.961379 0.857847 0
0.996078 0.85861 0
1 0.859144 0
1 0.859876 0
0 0.86743 0
0 0.869566 0
0 0.871931 0
0 0.873976 0
0.0153353 0.87602 0
0.0500649 0.878172 0
0.0843824 0.8804 0
0.118593 0.882628 0
0.15317 0.885161 0
