example_ofxGpuLutCube/bin/data/LUT/DJI Inspire LOG to Rec709.cube
TITLE "Generate by Resolve"
LUT_3D_SIZE 5
0 0 0
0.15996 0 0
0.441184 0 0
0.761364 0 0
1 0 0
0 0.160815 0
0.159731 0.159731 0
0.439429 0.154116 0
0.760525 0.138903 0
1 0.138125 0
0 0.428931 0
0.148425 0.433722 0
0.437842 0.437842 0
0.771527 0.435218 0
1 0.447044 0
0 0.744381 0
0.139879 0.761501 0
0.437522 0.773846 0
0.774487 0.774487 0
1 0.783703 0
0 1 0
0.177081 1 0
0.464179 1 0
0.787991 1 0
1 1 0
0 0 0.159396
0.160372 0 0.160372
0.441413 0 0.156115
0.761151 0 0.139528
1 0 0.134127
0 0.160571 0.160571
0.159503 0.159503 0.159503
0.439353 0.154055 0.154055
0.761395 0.139773 0.139773
1 0.140078 0.140078
0 0.429984 0.144671
0.151141 0.436439 0.151141
0.441871 0.441871 0.156558
0.776944 0.44062 0.155322
1 0.45304 0.167742
0 0.74995 0.128328
0.145983 0.767605 0.145983
0.443412 0.779721 0.158099
0.779461 0.779461 0.157839
1 0.787549 0.165911
0 1 0.169268
0.179904 1 0.179904
0.465721 1 0.180407
0.788571 1 0.166949
1 1 0.165103
0 0 0.443366
0.15903 0 0.444343
0.439429 0 0.439429
0.759136 0 0.422812
1 0 0.41735
0 0.158251 0.443549
0.15761 0.15761 0.442924
0.437903 0.15259 0.437903
0.760937 0.139315 0.424613
1 0.140963 0.426276
0 0.429923 0.429923
0.152575 0.437888 0.437888
0.444816 0.444816 0.444816
0.780484 0.444175 0.444175
1 0.457374 0.457374
0 0.754086 0.417777
0.149966 0.771588 0.435279
0.447379 0.783688 0.447379
0.782284 0.782284 0.44596
1 0.788891 0.452567
0 1 0.457053
0.180575 1 0.465888
0.465095 1 0.465095
0.78761 1 0.451286
1 1 0.4495
0 0 0.774395
0.153903 0 0.77554
0.43389 0 0.770214
0.753338 0 0.753338
1 0 0.748074
0 0.152529 0.774151
0.152026 0.152026 0.773648
0.433112 0.147799 0.769421
0.756863 0.135225 0.756863
1 0.13872 0.760342
0 0.426673 0.762982
0.150637 0.43595 0.772259
0.444373 0.444373 0.780682
0.780896 0.444587 0.780896
1 0.45803 0.794339
0 0.75465 0.75465
0.150576 0.772198 0.772198
0.447318 0.783627 0.783627
0.781125 0.781125 0.781125
1 0.785687 0.785687
0 1 0.791623
0.176989 1 0.798611
0.460349 1 0.796658
0.782986 1 0.782986
1 1 0.781735
0 0 1
0.152422 0 1
0.432197 0 1
0.751369 0 1
1 0 1
0 0.150805 1
0.150561 0.150561 1
0.432502 0.147204 1
0.757549 0.135927 1
1 0.140917 1
0 0.427939 1
0.153338 0.438651 1
0.448157 0.448157 1
0.785412 0.449104 1
1 0.462257 1
0 0.75903 1
0.154955 0.776577 1
0.450645 0.786969 1
0.783459 0.783459 1
1 0.786084 1
0 1 1
0.177005 1 1
0.459663 1 1
0.782483 1 1
1 1 1
