example_ofxGpuLutCube/bin/data/LUT/Earlybird.cube
TITLE "16x16x16 Adobe/IRIDAS cube 3D LUT exported with GrossGrade v0.1.027.1 (beta) 64 bit"
DOMAIN_MIN 0 0 0
DOMAIN_MAX 1 1 1
LUT_3D_SIZE 16
0.121600002 0.019600000 0.019600000
0.174853340 0.032180000 0.032446668
0.237913340 0.047620002 0.047100000
0.294140041 0.064280011 0.058040015
0.355266690 0.076606676 0.067740001
0.427466691 0.103299998 0.090200000
0.500420034 0.115260005 0.099600002
0.563913345 0.127319992 0.111620001
0.628233314 0.143279999 0.135433331
0.686260045 0.154499993 0.142760009
0.742466629 0.172499999 0.156900004
0.802386701 0.197633341 0.178033337
0.832159996 0.203119993 0.186639994
0.878733397 0.221406698 0.198426694
0.912133217 0.238153294 0.214393303
0.941200018 0.250999987 0.219600007
0.130186662 0.072426677 0.024286669
0.178586662 0.076333337 0.028280001
0.238173336 0.088906676 0.043626666
0.294400036 0.105646677 0.054140009
0.359973371 0.121533342 0.069306672
0.420900017 0.137240008 0.084740005
0.496480048 0.153466687 0.099600002
0.558673382 0.166273326 0.107980005
0.626673281 0.190080002 0.129926667
0.683400035 0.200006664 0.135959998
0.742726624 0.220906675 0.153166667
0.792173326 0.232966676 0.166526660
0.828520000 0.243893340 0.176220015
0.878206730 0.269553363 0.197906688
0.908233225 0.278926641 0.210753292
0.941200018 0.295146644 0.219600007
0.142240003 0.129153341 0.036340006
0.179893330 0.126040012 0.033486668
0.237913340 0.133066669 0.043633334
0.294660032 0.150593355 0.054660011
0.353473336 0.163153365 0.062466677
0.422766685 0.180933341 0.086300001
0.496220022 0.202093348 0.100946665
0.558666706 0.217273340 0.114220001
0.625893295 0.235833332 0.125759989
0.688600004 0.252053320 0.137820005
0.742466629 0.267980009 0.151599988
0.787466705 0.279466689 0.164180011
0.829559982 0.296453357 0.178819999
0.878213406 0.321066707 0.197386712
0.908233225 0.331226617 0.213873312
0.945100009 0.347713321 0.223499998
0.158460006 0.184340030 0.048660006
0.196633354 0.184340030 0.049180008
0.250493348 0.190840036 0.055420004
0.293360025 0.194480017 0.055680003
0.359706670 0.211220026 0.066106685
0.427466691 0.230313361 0.084480003
0.498040020 0.244700015 0.095680006
0.557886720 0.260400027 0.108240008
0.624546647 0.276573330 0.127839983
0.685479999 0.294920027 0.139640003
0.742986619 0.315820009 0.154766664
0.790873349 0.326793373 0.167559996
0.836059988 0.347460032 0.187479988
0.875006735 0.361066699 0.191400006
0.910313249 0.379373312 0.212033302
0.941200018 0.393700033 0.218820006
0.174606666 0.247573346 0.065846682
0.212253347 0.248613358 0.064806677
0.261946678 0.250433356 0.067740001
0.306386709 0.251473367 0.065586679
0.356333375 0.251473367 0.068780005
0.419860005 0.270300031 0.080773346
0.499600053 0.291786700 0.096726671
0.559966683 0.307693362 0.112400003
0.630053282 0.327040046 0.127579987
0.686260045 0.343566686 0.137300000
0.742726624 0.363393366 0.156059980
0.788013339 0.372033358 0.167559996
0.833740056 0.393426687 0.180399999
0.876306713 0.410193384 0.190306664
0.906413257 0.421179980 0.207826629
0.940160036 0.445466697 0.219600007
0.190833330 0.313766688 0.075800002
0.231666669 0.315066695 0.077133343
0.277926683 0.312400043 0.075833343
0.321280032 0.316366702 0.077380009
0.370733380 0.318706691 0.082073346
0.422200024 0.324166685 0.085000008
0.497260034 0.338053346 0.097260013
0.565513372 0.359986693 0.112920001
0.625113308 0.373606682 0.129659995
0.685740054 0.389273345 0.138339996
0.743766665 0.411766678 0.154233336
0.792173326 0.426686704 0.168860003
0.833459973 0.446806699 0.182740003
0.874486685 0.463026702 0.193746686
0.909793198 0.480540007 0.212573305
0.941200018 0.503266692 0.219600007
0.207060009 0.387460053 0.095660001
0.247046694 0.386886716 0.093586676
0.294660032 0.383240044 0.093320012
0.335700035 0.385840058 0.092540003
0.381926686 0.387980044 0.091760002
0.432926685 0.387460053 0.095399998
0.494920045 0.394520044 0.099600002
0.560226679 0.410740048 0.115520000
0.626413286 0.434773356 0.129659981
0.683920026 0.446260035 0.138060004
0.741166592 0.466940016 0.151599988
0.792173386 0.486053348 0.167819992
0.830600023 0.501160026 0.183520004
0.874746740 0.521046698 0.196866691
0.904853344 0.532813370 0.209673315
0.941200018 0.554500043 0.215700001
0.229580000 0.461706698 0.107720003
0.270086676 0.461440027 0.107460007
0.315013319 0.457493365 0.105640002
0.359180033 0.462506711 0.105380006
0.404186696 0.459573358 0.106680006
0.449940026 0.460106701 0.106160007
0.509526670 0.461706698 0.107979998
0.564180017 0.467473358 0.115306675
0.624593258 0.483953327 0.128106669
0.684700012 0.501426697 0.139380008
0.742466629 0.522633374 0.156099990
0.793733358 0.536180019 0.168600008
0.834500015 0.557393372 0.182980016
0.875266731 0.575960040 0.193486676
0.906673253 0.585120022 0.211013302
0.943279982 0.601346672 0.219600007
0.243413329 0.534606695 0.121813327
0.278673351 0.538033307 0.116046660
0.330986649 0.534606695 0.119993322
0.373060018 0.536993325 0.120513335
0.422226667 0.537493348 0.121813327
0.477393329 0.534606695 0.122593321
0.524960041 0.530706704 0.118433334
0.569373369 0.534346640 0.125239998
0.626413345 0.538559973 0.129659981
0.688600004 0.554253340 0.140940011
0.745326698 0.575193346 0.154513344
0.792693317 0.589786649 0.169139996
0.830080032 0.601800025 0.179619998
0.876306713 0.625359952 0.195826665
0.905373335 0.636086643 0.208113328
0.942759991 0.655419946 0.221420005
0.259580016 0.599240005 0.138040006
0.301706672 0.598666668 0.135700002
0.353433341 0.597633362 0.137820005
0.393739998 0.602360010 0.138040006
0.441046685 0.600800037 0.139380008
0.489973336 0.599466681 0.138566673
0.541180074 0.600000024 0.138860002
0.584306717 0.600800037 0.137520000
0.629793346 0.596586704 0.133086666
0.686259985 0.606299996 0.141200006
0.741426587 0.617286682 0.151866674
0.792693317 0.636619985 0.168340012
0.835280061 0.648620009 0.180399984
0.875786722 0.669000030 0.195046678
0.907193363 0.680273354 0.211013317
0.941200018 0.698060036 0.217260003
0.275800020 0.669266641 0.150299981
0.323426664 0.666926622 0.151866660
0.373606652 0.668499947 0.155046657
0.412780046 0.670566618 0.152399987
0.461973369 0.669266641 0.151106670
0.508500040 0.669266641 0.151599988
0.560506701 0.670566618 0.152899995
0.604433358 0.669266641 0.150299981
0.652253330 0.670046628 0.153213337
0.696500003 0.670306623 0.151599973
0.739866614 0.669266641 0.152966648
0.787466645 0.680546641 0.164180011
0.832940042 0.695986688 0.180920020
0.874226689 0.713213325 0.194266677
0.906153321 0.724946618 0.213353306
0.941200018 0.739866674 0.216999993
0.288120002 0.722093344 0.159759998
0.337280005 0.725220025 0.166779995
0.382493317 0.727353334 0.167559996
0.427700043 0.726306677 0.165739998
0.478686690 0.724953353 0.159759998
0.522866726 0.725766659 0.163399994
0.575433373 0.726286650 0.166259989
0.622740030 0.723913312 0.165480003
0.667433321 0.725526690 0.164959982
0.708733320 0.728406668 0.169913337
0.752699971 0.729699969 0.172239989
0.794773340 0.725993276 0.171460003
0.833199978 0.739093363 0.182479978
0.872926712 0.751139998 0.195046678
0.906153321 0.763373315 0.214393303
0.941200018 0.778033376 0.218560010
0.308239996 0.775699973 0.181939989
0.352133304 0.778020024 0.181160003
0.400253326 0.774639964 0.181160003
0.447820008 0.777240038 0.181160003
0.502760053 0.775699973 0.181699991
0.547453344 0.774899960 0.178819999
0.597660005 0.777260005 0.182739988
0.643126726 0.773599923 0.179340020
0.683893323 0.776199996 0.178039998
0.720780015 0.776480019 0.178819999
0.768386662 0.777499974 0.184040010
0.798153400 0.774899960 0.181680024
0.835280001 0.775699973 0.183520019
0.878466725 0.787220001 0.194526687
0.904853344 0.796340048 0.204693303
0.941200018 0.808660030 0.219600007
0.320546687 0.816986680 0.191146687
0.365493357 0.817246675 0.190886691
0.416220039 0.813606679 0.190626696
0.464040041 0.819586694 0.191406697
0.505333364 0.816466689 0.192186683
0.555046678 0.819066703 0.191146687
0.609140038 0.820886672 0.190066665
0.655406713 0.818286657 0.187680006
0.699613333 0.816466689 0.189013347
0.736206710 0.818286657 0.188520014
0.777246654 0.815686703 0.188199997
0.809433341 0.816986680 0.190093338
0.832940042 0.816986680 0.191406682
0.868506670 0.820886672 0.197906703
0.904853344 0.832946718 0.214126691
0.941720009 0.841540039 0.226446688
0.340413272 0.865653276 0.214133278
0.385079950 0.865653276 0.210753277
0.433486670 0.862193346 0.210493281
0.483119994 0.868513227 0.214133278
0.528900027 0.868253231 0.213873297
0.576206684 0.866953254 0.212573305
0.631080031 0.867733181 0.213093296
0.675580025 0.865393221 0.212833300
0.710326672 0.867733240 0.213093311
0.750873327 0.865393281 0.209159970
0.796846628 0.867993236 0.214653298
0.825646639 0.862459958 0.212813318
0.852020025 0.865393221 0.214393303
0.881086648 0.865913212 0.211013287
0.901213348 0.861919999 0.211013302
0.940940022 0.869553328 0.222719967
0.356900007 0.905900002 0.219600007
0.397666693 0.902000010 0.215700001
0.446246684 0.898533344 0.215700001
0.495680034 0.902000010 0.215700001
0.545386672 0.903039992 0.212840006
0.593433321 0.902000010 0.214399993
0.640020072 0.900399983 0.211799994
0.683646679 0.902000010 0.213619992
0.728106618 0.902000010 0.217519999
0.766260028 0.903559983 0.215700001
0.803900003 0.902000010 0.213100001
0.828253329 0.900106668 0.215700001
0.862779975 0.904320002 0.218820006
0.888626695 0.902000010 0.215700001
0.912653327 0.905373335 0.219339997
0.941200018 0.902000010 0.219600007
0.129926667 0.028020002 0.068006665
0.178326651 0.035820000 0.068266667
0.231153354 0.047880005 0.079973340
0.296740025 0.064280011 0.093866676
0.359193355 0.082660004 0.111106671
0.427206695 0.099593334 0.121800005
0.501426697 0.112920016 0.141726673
0.558413327 0.126019999 0.152393341
0.626673281 0.141459987 0.168353334
0.688600004 0.159500003 0.180406660
0.743506610 0.177506655 0.200786665
0.793733358 0.190353334 0.214900002
0.832679987 0.203119993 0.217266664
0.872406662 0.219080016 0.235033363
0.907973230 0.234253302 0.244146660
0.941460013 0.250999987 0.264273316
0.134606674 0.072953336 0.064793341
0.187180012 0.085013337 0.072953336
0.251540005 0.104873337 0.092553340
0.310100019 0.117633350 0.102453344
0.376713365 0.137493342 0.118160017
0.437353373 0.154500023 0.131259993
0.515566707 0.172779992 0.151880011
0.574893355 0.186913356 0.160033345
0.641339958 0.202613339 0.177506670
0.701706648 0.220653340 0.193473354
0.761026621 0.242073327 0.215966672
0.810220003 0.254913360 0.221173346
0.847346663 0.265386671 0.231393322
0.891746700 0.283433378 0.251520008
0.924453199 0.299573302 0.260893315
0.946146667 0.308253348 0.269573361
0.146139994 0.129420012 0.072953336
0.199493349 0.142260000 0.082066678
0.251540005 0.150066674 0.089433342
0.313220054 0.166286677 0.105913348
0.377493352 0.179313347 0.116073355
0.440020025 0.198720008 0.136980012
0.513746679 0.218840018 0.149013340
0.574673355 0.230066687 0.157640010
0.645240009 0.249933347 0.176166669
0.697499990 0.265633315 0.189826682
0.759206593 0.284460038 0.212033331
0.811253309 0.300633371 0.219093338
0.839713335 0.314746678 0.228013352
0.887586713 0.335400015 0.250993341
0.924193203 0.351619959 0.263753295
0.942506671 0.357086658 0.269313335
0.163139999 0.190840021 0.085786678
0.212513357 0.202886686 0.097760007
0.253886700 0.200033367 0.098026671
0.310880005 0.211220011 0.106173351
0.376713365 0.227446705 0.118153349
0.434233367 0.240540028 0.136186674
0.515580058 0.267446667 0.151353344
0.575453401 0.278166652 0.166013345
0.641859949 0.298566669 0.181193322
0.695940018 0.314260006 0.195586666
0.757906556 0.330466688 0.211499989
0.806546688 0.351640016 0.222733349
0.841026664 0.360806704 0.228513345
0.884986699 0.378266692 0.247600019
0.920553327 0.393440008 0.259853333
0.949006677 0.409400046 0.272433311
0.177800000 0.249393359 0.101413339
0.231673345 0.264833361 0.113713346
0.275566667 0.264053375 0.112673350
0.323126704 0.265353382 0.111126684
0.379313350 0.276373357 0.121013336
0.438199997 0.290753365 0.131753340
0.513746679 0.307693362 0.146153361
0.580653369 0.326500028 0.163933337
0.642899990 0.346433342 0.178053319
0.699620008 0.359973341 0.191386670
0.758946657 0.377760023 0.211766660
0.808886647 0.395539999 0.220913351
0.844720006 0.410453349 0.232166678
0.890446723 0.434273362 0.252813339
0.923673272 0.444693327 0.258813322
0.948746681 0.457013339 0.270333320
0.192393333 0.317666680 0.115300015
0.245486677 0.329113364 0.127073348
0.293340027 0.326253355 0.126806676
0.339340031 0.326513380 0.127606675
0.389553368 0.339600027 0.134373352
0.435273349 0.334640056 0.131753340
0.521313369 0.360773355 0.156846672
0.576759994 0.371266693 0.161280006
0.643939972 0.392406672 0.178286672
0.697759986 0.409953386 0.192693353
0.758426607 0.427986652 0.213073328
0.808366716 0.442880005 0.221173331
0.845780015 0.464306682 0.232173353
0.887586713 0.480520010 0.249960005
0.926793218 0.504019976 0.264273345
0.950819969 0.511659980 0.275293350
0.213619992 0.391360044 0.132533342
0.267953336 0.404206693 0.145113349
0.312420011 0.405766696 0.145113349
0.356066704 0.405780047 0.144853354
0.404993355 0.407866716 0.142253339
0.450460047 0.406033397 0.141993359
0.521320045 0.417246699 0.155253336
0.575193346 0.424540043 0.158680022
0.643419981 0.448093385 0.176986665
0.698019981 0.466680050 0.191386670
0.758166552 0.489426672 0.214373305
0.810186625 0.505073369 0.220913351
0.845780015 0.519986749 0.229566678
0.888626695 0.536986709 0.248133346
0.925233245 0.558926702 0.261413336
0.950559974 0.568646729 0.273993343
0.223766670 0.464093357 0.148226663
0.282613337 0.478139997 0.158940002
0.332280010 0.477880001 0.158419997
0.376733363 0.478946656 0.156080008
0.422233343 0.478419989 0.157633334
0.471093357 0.480220020 0.157380000
0.526266694 0.478146672 0.159200013
0.574153364 0.483640015 0.165493339
0.644713283 0.503773332 0.182226673
0.702999949 0.523673356 0.197666675
0.761286616 0.543013334 0.214926645
0.808886647 0.560273349 0.223253340
0.845000029 0.572273374 0.235306680
0.887846708 0.590840042 0.253606707
0.927833200 0.610706627 0.268519968
0.949266672 0.616479993 0.273473322
0.243673325 0.539900005 0.157120004
0.300399989 0.556599975 0.171213329
0.353700012 0.554519951 0.172513321
0.397900045 0.557379901 0.175666675
0.444433331 0.554779947 0.174593344
0.488106668 0.551093280 0.168873340
0.543273389 0.555040002 0.173046663
0.584300041 0.552959979 0.172513336
0.644719958 0.556599975 0.177246675
0.697019994 0.569139957 0.192686677
0.759206593 0.591599941 0.212813318
0.806026697 0.610979974 0.220913351
0.842093289 0.620913327 0.227446675
0.887586713 0.640799999 0.250733346
0.922633231 0.655939937 0.255693316
0.949259996 0.668219984 0.272693336
0.260619998 0.603960037 0.174593344
0.315540016 0.615719974 0.188273340
0.369146705 0.616239965 0.191646680
0.415960014 0.620140016 0.190353349
0.462753356 0.615719974 0.190086678
0.509273350 0.619880021 0.190086678
0.558406711 0.618319988 0.190606669
0.605733335 0.619100034 0.191386685
0.656473339 0.618579984 0.192686677
0.700660050 0.620920002 0.196366668
0.759466588 0.636106670 0.208859995
0.809146643 0.655699968 0.222473338
0.844980001 0.667706728 0.231126681
0.886813343 0.683926642 0.252573341
0.926533222 0.698053360 0.262973338
0.949526668 0.706906676 0.276853353
0.281839967 0.673493266 0.196586654
0.333053350 0.680519938 0.201833323
0.383499980 0.681039929 0.206000000
0.430093318 0.683899999 0.203913316
0.479979992 0.683379948 0.205993325
0.523386717 0.682886600 0.201833323
0.577486694 0.683153272 0.206253335
0.624593377 0.683413267 0.204953328
0.670606673 0.682886600 0.205213308
0.712686658 0.684186578 0.208599985
0.758426607 0.685226679 0.210733339
0.809153318 0.695699990 0.222213328
0.844706655 0.714513302 0.227479994
0.886546731 0.730213284 0.249693364
0.923666537 0.745853305 0.259853303
0.947186649 0.752706647 0.272693336
0.296186686 0.729186654 0.210999995
0.351353347 0.741953373 0.218833342
0.406780005 0.747220039 0.222733349
0.446266681 0.741953373 0.216493338
0.497253358 0.743000031 0.218833357
0.548773289 0.744819999 0.219353348
0.597640038 0.742453396 0.219353333
0.644966722 0.745593369 0.222993344
0.688600004 0.744819999 0.220913351
0.722866654 0.741953373 0.217013329
0.771006703 0.744819999 0.223253340
0.811486661 0.746153355 0.223513350
0.845780015 0.752453327 0.230626687
0.888626695 0.769686699 0.254113376
0.922893226 0.783760011 0.261673361
0.946659982 0.794773340 0.277106673
0.316040039 0.780380011 0.220386669
0.370413363 0.789300025 0.230086669
0.416480005 0.787739992 0.231906667
0.469566673 0.789820015 0.234253347
0.510613382 0.789820015 0.233733341
0.561813354 0.793200016 0.232166663
0.614386678 0.792680025 0.233466655
0.663013399 0.789040029 0.231906667
0.705626726 0.789820015 0.232433334
0.742206693 0.788259983 0.234766677
0.782253325 0.790080011 0.231906667
0.816973388 0.792680025 0.234246686
0.844219983 0.792959988 0.231906682
0.888106704 0.801286697 0.248393342
0.920806527 0.812033355 0.260633290
0.951866686 0.825139999 0.275813371
0.325233370 0.825393379 0.231393367
0.382493347 0.833993375 0.244413361
0.430880040 0.833993375 0.244673356
0.481300026 0.834513366 0.245986685
0.530200005 0.833993375 0.247353360
0.581146717 0.835553348 0.245740026
0.630566716 0.837113380 0.246280029
0.679213345 0.834766746 0.247353360
0.714533329 0.832173347 0.244720012
0.757126689 0.837633371 0.248393342
0.795033336 0.835033357 0.245993361
0.824353337 0.836593390 0.246820018
0.851246655 0.832686722 0.246306688
0.884466708 0.837113380 0.248653337
0.924713194 0.848906696 0.260893345
0.946666658 0.853846669 0.269833326
0.344579995 0.869293213 0.248400003
0.405473292 0.878139973 0.264793336
0.453613281 0.877099931 0.264273286
0.502460003 0.880553186 0.264799982
0.549813330 0.877619922 0.263753295
0.598466694 0.877619922 0.263233304
0.644706726 0.877619922 0.263233304
0.689673364 0.877619922 0.264533311
0.730226576 0.879486561 0.262973338
0.771253347 0.877359927 0.260893345
0.811506629 0.881346524 0.264533311
0.830339968 0.875019908 0.263753325
0.870320022 0.876839936 0.264013320
0.893320024 0.877879918 0.261413276
0.923406541 0.877099931 0.263493329
0.949526668 0.882133245 0.276333362
0.357419997 0.905900002 0.260373324
0.414153337 0.910059988 0.272693336
0.462986678 0.906419992 0.272166669
0.509306669 0.907199979 0.269833356
0.562106669 0.907980025 0.269833356
0.612519979 0.909020007 0.267720014
0.654620051 0.908759952 0.269053340
0.698053360 0.910059988 0.270346671
0.740639985 0.910059988 0.270873338
0.781146705 0.907979965 0.266920000
0.820126653 0.907719970 0.270353347
0.844733357 0.909280002 0.277893335
0.875786662 0.909020007 0.267986685
0.900946677 0.910059988 0.268786669
0.925233305 0.910319984 0.268786669
0.945886672 0.906419992 0.268786669
0.145099998 0.040253337 0.113466680
0.189513326 0.047359999 0.116313346
0.237913355 0.047100000 0.116313338
0.297260016 0.064280011 0.133853361
0.360233366 0.079986669 0.145893350
0.422200024 0.095953345 0.160746679
0.500640035 0.111880004 0.180153340
0.562600017 0.127319992 0.194499999
0.623766720 0.145099998 0.206566662
0.679759979 0.158720002 0.217793345
0.740646601 0.176466644 0.235313326
0.789806664 0.189559996 0.251506656
0.832159996 0.203119993 0.263766676
0.872406662 0.215700015 0.273733348
0.912393212 0.237633288 0.292286605
0.941720009 0.250999987 0.308513343
0.146406665 0.081280008 0.109560005
0.199753344 0.101666674 0.126040012
0.254660010 0.105133340 0.129680008
0.313740045 0.124213345 0.143300012
0.377500057 0.140426680 0.158926666
0.442106694 0.156320021 0.177746683
0.516640007 0.170980036 0.191113368
0.577793360 0.186133340 0.203406677
0.641079962 0.202873334 0.219620004
0.700659990 0.222780004 0.235053346
0.758426607 0.236873344 0.250753343
0.807093322 0.253846675 0.266946703
0.843959987 0.266680002 0.275279999
0.894606709 0.286813378 0.299580038
0.921073318 0.296193331 0.305653334
0.946146667 0.305133313 0.317359984
0.151093334 0.136966676 0.113986686
0.206253335 0.153446689 0.129940003
0.264026672 0.166546673 0.143046677
0.327280045 0.182253346 0.156586707
0.394766688 0.202886686 0.176453337
0.460426688 0.219106689 0.195020005
0.531213403 0.234273344 0.205226690
0.596613348 0.254926652 0.219106689
0.663793266 0.271099985 0.236873329
0.716879964 0.285753340 0.249673337
0.778819978 0.307973325 0.269540012
0.822246671 0.316326678 0.280506700
0.859053314 0.341713339 0.295146644
0.895920038 0.348766685 0.305120021
0.936773300 0.368366659 0.321526676
0.962359965 0.380673349 0.336966664
0.167313337 0.195260018 0.136180013
0.219353348 0.210180014 0.141473338
0.283633351 0.223020032 0.157353342
0.331533372 0.231340036 0.166033357
0.397886693 0.247320026 0.185626686
0.459120005 0.260140032 0.189800024
0.535173416 0.280260026 0.205746680
0.597653329 0.301446706 0.225380018
0.664059937 0.321053356 0.239993334
0.718699992 0.335420012 0.250753343
0.777519941 0.353973329 0.267453343
0.819846690 0.366553336 0.280506700
0.860673308 0.386133343 0.296966672
0.897760034 0.395273387 0.306173325
0.933839977 0.414873332 0.321266681
0.971720040 0.436619997 0.342233330
0.184820011 0.255446672 0.141993344
0.232713342 0.265353382 0.155540019
0.298286647 0.281053364 0.169926688
0.344073355 0.287033349 0.173053354
0.393193364 0.291800022 0.177220002
0.461986691 0.305873364 0.189546674
0.532266736 0.325220048 0.206280038
0.599993348 0.349560022 0.225086674
0.666146636 0.364433348 0.234793335
0.717920005 0.379313350 0.245740011
0.784019947 0.399746686 0.266366661
0.820913315 0.414613336 0.281026691
0.864839971 0.436346680 0.302773327
0.899373353 0.447573364 0.302186698
0.936773300 0.466393322 0.321006685
0.968599975 0.479480058 0.339379996
0.200000003 0.324946702 0.160746679
0.249386683 0.333886683 0.171226680
0.313726693 0.349306673 0.186406687
0.354773343 0.351373345 0.185886681
0.407073408 0.352699995 0.190580025
0.465106696 0.356606692 0.192666680
0.533293366 0.377246678 0.208106697
0.595313370 0.395820022 0.221740007
0.662233293 0.412806690 0.234286681
0.717906654 0.432666689 0.250986695
0.776739955 0.449960023 0.265359998
0.819873333 0.470060021 0.282866687
0.864839971 0.486786693 0.299346685
0.898293376 0.499866694 0.303506672
0.936773300 0.518420041 0.321266681
0.972253323 0.535426676 0.343553334
0.214920014 0.393480033 0.176713333
0.271393359 0.410220057 0.193193346
0.329946667 0.419593394 0.200793341
0.372553349 0.424293369 0.199766695
0.418540061 0.418293417 0.194766715
0.473433375 0.422973394 0.197933346
0.533293366 0.434253395 0.206786692
0.592660010 0.450726718 0.220673338
0.664326608 0.469280064 0.231886670
0.716359973 0.490720034 0.247833341
0.777779937 0.507480025 0.264573336
0.820133328 0.526520014 0.279233366
0.861953259 0.545120001 0.296986669
0.896740019 0.557660043 0.301433325
0.933853388 0.575953364 0.320746690
0.968079925 0.593193352 0.339366674
0.235300004 0.469553351 0.193980008
0.287093371 0.481006682 0.203406677
0.353433341 0.502480030 0.216753334
0.399513364 0.506666660 0.220926672
0.445480019 0.503533363 0.220406681
0.496486694 0.504580021 0.220666677
0.547166705 0.504073322 0.220913336
0.599473357 0.509026647 0.224306688
0.666146636 0.524973392 0.235313326
0.717906654 0.545873344 0.252053350
0.779339969 0.561573327 0.269540012
0.821446657 0.575680017 0.283426672
0.863279939 0.593706727 0.298826665
0.897233367 0.606819987 0.305893332
0.934093356 0.626153350 0.322306693
0.970420003 0.640806675 0.339913338
0.249699995 0.543806672 0.206253335
0.308773339 0.562106669 0.220920011
0.368626684 0.573299944 0.231366664
0.412566692 0.573339939 0.227726668
0.464573354 0.569959939 0.231106669
0.511099994 0.571779907 0.232406676
0.561573386 0.573079944 0.231366664
0.610199988 0.576460004 0.232666671
0.662233233 0.578846633 0.233446673
0.716099977 0.589526594 0.245473340
0.776739955 0.612546682 0.267939985
0.819846690 0.625359952 0.277906686
0.863279998 0.646793306 0.298806667
0.898826659 0.656459928 0.305873334
0.936773300 0.674246669 0.321566641
0.968599975 0.685473323 0.335406691
0.271640003 0.614406645 0.230113342
0.324693352 0.621699989 0.237133354
0.388746679 0.636359990 0.249933347
0.432700038 0.638960004 0.247866690
0.482093364 0.639999986 0.245220020
0.526286721 0.637140036 0.244686693
