example_ofxGpuLutCube/bin/data/LUT/Earlybird.cube
TITLE "16x16x16 Adobe/IRIDAS cube 3D LUT exported with GrossGrade v0.1.027.1 (beta) 64 bit"
DOMAIN_MIN 0 0 0
DOMAIN_MAX 1 1 1
LUT_3D_SIZE 6
0.121600002 0.019600000 0.019600000
0.294140041 0.064280011 0.058040015
0.500420034 0.115260005 0.099600002
0.686260045 0.154499993 0.142760009
0.832159996 0.203119993 0.186639994
0.941200018 0.250999987 0.219600007
0.158460006 0.184340030 0.048660006
0.293360025 0.194480017 0.055680003
0.498040020 0.244700015 0.095680006
0.685479999 0.294920027 0.139640003
0.836059988 0.347460032 0.187479988
0.941200018 0.393700033 0.218820006
0.207060009 0.387460053 0.095660001
0.335700035 0.385840058 0.092540003
0.494920045 0.394520044 0.099600002
0.683920026 0.446260035 0.138060004
0.830600023 0.501160026 0.183520004
0.941200018 0.554500043 0.215700001
0.259580016 0.599240005 0.138040006
0.393739998 0.602360010 0.138040006
0.541180074 0.600000024 0.138860002
0.686259985 0.606299996 0.141200006
0.835280061 0.648620009 0.180399984
0.941200018 0.698060036 0.217260003
0.308239996 0.775699973 0.181939989
0.447820008 0.777240038 0.181160003
0.597660005 0.777260005 0.182739988
0.720780015 0.776480019 0.178819999
0.835280001 0.775699973 0.183520019
0.941200018 0.808660030 0.219600007
0.356900007 0.905900002 0.219600007
0.495680034 0.902000010 0.215700001
0.640020072 0.900399983 0.211799994
0.766260028 0.903559983 0.215700001
0.862779975 0.904320002 0.218820006
0.941200018 0.902000010 0.219600007
0.161579996 0.054140009 0.167860016
0.296480000 0.060380004 0.170980021
0.496480048 0.111360006 0.221180022
0.681580007 0.159240007 0.261960030
0.829819977 0.203119993 0.304340035
0.938080013 0.250999987 0.348239988
0.166260004 0.192140028 0.170980021
0.354520023 0.248620033 0.222760022
0.549000025 0.300380021 0.265100032
0.735660017 0.352940023 0.310620040
0.877640069 0.400020063 0.354500055
0.978839993 0.451740026 0.402380019
0.218040004 0.392180055 0.214880034
0.395300061 0.444740087 0.254100055
0.552980065 0.458800048 0.269000024
0.733340025 0.509820044 0.309020013
0.874520004 0.562360108 0.350600034
0.978839993 0.610980034 0.396860033
0.268260002 0.613340020 0.268240005
0.453340054 0.653320014 0.306680024
0.600019991 0.655680001 0.308240026
0.738020062 0.658039987 0.312960029
0.876840115 0.703520060 0.352940023
0.979619980 0.748239994 0.399220049
0.319220006 0.786679983 0.311380029
0.501960039 0.820380032 0.351360053
0.648620069 0.822759986 0.353720039
0.772560060 0.821979940 0.351380050
0.877620041 0.824339986 0.354500055
0.975660026 0.855700016 0.399239987
0.368600011 0.913699985 0.352920026
0.549820006 0.934880018 0.392940015
0.694940090 0.934880018 0.389020026
0.808660030 0.935660005 0.388260037
0.901200056 0.934880018 0.392140031
0.978060007 0.934880018 0.392140031
0.208620012 0.107460007 0.341960043
0.342720032 0.107460007 0.343520015
0.493360043 0.112920016 0.348260045
0.685479999 0.156079993 0.396080047
0.833719969 0.203119993 0.440020025
0.938860059 0.250999987 0.488620073
0.216500014 0.247060031 0.342740059
0.396080047 0.291780055 0.389780074
0.551400065 0.301980019 0.400760055
0.735660076 0.354500026 0.449420035
0.880000055 0.402380019 0.500400066
0.979620039 0.450180024 0.537240028
0.218820006 0.396860033 0.345860034
0.407060057 0.454900056 0.396880090
0.611780107 0.515280068 0.453320056
0.784319997 0.572540045 0.505100071
0.918399990 0.625120103 0.545860052
0.988200009 0.667460084 0.591360033
0.271380007 0.613339961 0.399220020
0.461180031 0.665880024 0.452540040
0.661960065 0.709800005 0.499600053
0.785860002 0.715280056 0.502760053
0.920760036 0.758420050 0.548200071
0.991400063 0.800779998 0.591360033
0.317640007 0.781159997 0.443920016
0.514500022 0.830599964 0.504300058
0.705880046 0.865900040 0.545900047
0.821200013 0.864320040 0.543540061
0.920799971 0.870620012 0.549800038
0.989799976 0.898820043 0.587460041
0.368600011 0.912919998 0.500420034
0.563940048 0.946660042 0.542720020
0.750599980 0.952899992 0.585900068
0.858840048 0.951339960 0.582720041
0.945080042 0.952899992 0.584280074
0.990599990 0.952899992 0.589020073
0.260419995 0.155300006 0.534099996
0.393739998 0.156100005 0.532580018
0.540420055 0.156079993 0.533360004
0.680019975 0.157639995 0.529419959
0.829819977 0.203900009 0.577239990
0.939640045 0.250999987 0.614880025
0.270559996 0.302760005 0.538039982
0.451780021 0.349040031 0.578040004
0.595279992 0.348220021 0.577260017
0.733319998 0.354500026 0.583539963
0.877619922 0.402360022 0.620400071
0.978060007 0.450180024 0.658819973
0.268999994 0.456460059 0.541200042
0.460380048 0.512940049 0.585900009
0.660400093 0.570200086 0.627420008
0.780400038 0.570200026 0.627420008
0.919199944 0.621160090 0.669039965
0.988200009 0.669020057 0.705080032
0.273719996 0.613380015 0.540380061
0.461960047 0.663520038 0.585100055
0.666679978 0.716059983 0.631399989
0.834540069 0.768620074 0.677640021
0.957660019 0.810200036 0.712180018
0.987460017 0.844720066 0.743539989
0.316820025 0.784300029 0.580359995
0.514499962 0.829020023 0.628240049
0.715280056 0.872960031 0.675280035
0.869840026 0.908999979 0.712180018
0.953759968 0.909000039 0.713739991
0.989840031 0.934940100 0.746639967
0.366259992 0.912919998 0.620379984
0.559200048 0.941200018 0.664340019
0.754500031 0.952139974 0.706640065
0.901180029 0.955299973 0.741160035
0.981160045 0.952899992 0.744319975
0.989040017 0.952899992 0.741160035
0.305900007 0.203119993 0.683160007
0.449440032 0.203119993 0.686259985
0.592920065 0.203119993 0.685499966
0.720780015 0.205460012 0.682379961
0.829039991 0.202339992 0.685499966
0.941200018 0.247879982 0.711360037
0.316040009 0.349800020 0.689400017
0.504300058 0.398460031 0.723940015
0.650180101 0.398460031 0.723140001
0.773340046 0.397660047 0.720800042
0.877620041 0.403140068 0.727060080
0.978839993 0.450960040 0.752140045
0.313699991 0.508220077 0.690180004
0.512160063 0.567860067 0.734920025
0.704320073 0.616460085 0.763119996
0.821200013 0.614900053 0.761560023
0.916840017 0.620360017 0.760780036
0.987420022 0.668240011 0.792180002
0.312920004 0.657280028 0.693300009
0.510600030 0.712180018 0.734920025
0.719240010 0.768620014 0.771759927
0.866640031 0.804720044 0.796860039
0.956860006 0.810180008 0.800759971
0.986660004 0.843940020 0.824360013
0.313699991 0.782720029 0.689400017
0.512159944 0.831360042 0.733359993
0.716840088 0.870580018 0.770179987
0.871400058 0.909000039 0.799200058
0.982740045 0.938820004 0.825120032
0.988200009 0.955320001 0.838420033
0.368600011 0.913699985 0.725479960
0.561560035 0.944319963 0.760000050
0.756879985 0.952899992 0.795300066
0.905860007 0.952120006 0.827480018
0.987420022 0.952899992 0.837640047
0.989000022 0.952899992 0.841540039
0.356900007 0.250999987 0.792200029
0.495680034 0.250999987 0.798439980
0.644700050 0.247099996 0.792200029
0.764660001 0.250999987 0.792200029
0.860360026 0.247099996 0.792200029
0.941200018 0.250999987 0.792200029
0.369379997 0.405500025 0.803900003
0.543500006 0.443920046 0.821959972
0.700399995 0.449380040 0.823519945
0.812539995 0.446280032 0.825099945
0.902760029 0.448620051 0.821959972
0.978060007 0.447840035 0.821179986
0.371760011 0.565460026 0.807060003
0.561540067 0.614900053 0.831399977
0.744300008 0.663560033 0.839200020
0.858060002 0.665900052 0.837640047
0.944300056 0.667460024 0.835300028
0.990599990 0.667460024 0.836860061
0.367040008 0.704299986 0.800000012
0.559980035 0.756100059 0.830619991
0.760780036 0.803940058 0.839200020
0.896440029 0.844720006 0.838419974
0.981160045 0.844720006 0.842320025
0.989800036 0.842380047 0.836860001
0.371720016 0.829800010 0.809440017
0.560000062 0.862720013 0.829840004
0.759180069 0.904320002 0.841539979
0.906640053 0.940400004 0.839980006
0.988200009 0.952120006 0.838420033
0.988200009 0.952120006 0.838420033
0.364699990 0.909799993 0.800000012
0.560760021 0.942759991 0.829060018
0.760000050 0.951339960 0.839200020
0.904300034 0.950559974 0.840759993
0.988200009 0.952899992 0.839200020
0.988200009 0.952899992 0.839200020
