example_ofxGpuLutCube/bin/data/LUT/EdgyAmber.cube
TITLE "16x16x16 Adobe/IRIDAS cube 3D LUT exported with GrossGrade v0.1.027.1 (beta) 64 bit"
DOMAIN_MIN 0 0 0
DOMAIN_MAX 1 1 1
LUT_3D_SIZE 6
0.027300000 0.027300000 0.027300000
0.141180009 0.047879994 0.039299998
0.298020035 0.010919993 0.013259991
0.415660024 0.000000000 0.000000000
0.552100003 0.000000000 0.000000000
0.713800013 0.000000000 0.000000000
0.141960010 0.123960011 0.012479995
0.213320032 0.118480004 0.009359996
0.314400017 0.097960003 0.000000000
0.431380004 0.076120012 0.000000000
0.569499969 0.052580014 0.000000000
0.731739998 0.086260013 0.000000000
0.247020021 0.221960023 0.000000000
0.291000038 0.217280015 0.000000000
0.377980053 0.207840025 0.000000000
0.480820000 0.209480017 0.000000000
0.628239930 0.212600037 0.000000000
0.807020068 0.243060037 0.000000000
0.397540033 0.354600012 0.000000000
0.425160021 0.358500004 0.000000000
0.502760053 0.358500004 0.000000000
0.617219985 0.368640006 0.000000000
0.750640035 0.392860055 0.000000000
0.938820004 0.439240038 0.000000000
0.629819989 0.569500029 0.000000000
0.659599960 0.578079998 0.000000000
0.728579998 0.586660028 0.000000000
0.829020023 0.601480007 0.000000000
0.974120021 0.641600013 0.000000000
1.000000000 0.690260053 0.000000000
0.964600027 0.866699994 0.000000000
0.976599991 0.870599985 0.000000000
1.000000000 0.876060009 0.000000000
1.000000000 0.882300019 0.000000000
1.000000000 0.882300019 0.000000000
1.000000000 0.874499977 0.000000000
0.068260007 0.034580000 0.032900002
0.164660022 0.044699989 0.051780000
0.301140040 0.017159997 0.020279991
0.414860010 0.000000000 0.000000000
0.548200011 0.000000000 0.000000000
0.713800013 0.000000000 0.000000000
0.169340014 0.119260006 0.018719992
0.225820020 0.115360007 0.012479994
0.321620017 0.097960003 0.000000000
0.434519976 0.080800012 0.000000000
0.571840048 0.051800016 0.000000000
0.733319998 0.076900020 0.000000000
0.268979996 0.218060017 0.000000000
0.303479999 0.214940026 0.000000000
0.384220034 0.207040012 0.000000000
0.493340015 0.211820036 0.000000000
0.632919967 0.216500044 0.000000000
0.800779998 0.246180028 0.000000000
0.408680022 0.352260023 0.000000000
0.436860025 0.357719988 0.000000000
0.504339993 0.360839993 0.000000000
0.617220044 0.367080003 0.000000000
0.756879985 0.392060012 0.000000000
0.940420032 0.439240009 0.000000000
0.645560026 0.565599978 0.000000000
0.672859967 0.576519966 0.000000000
0.733340025 0.586660028 0.000000000
0.839959979 0.606160045 0.000000000
0.977240026 0.645500064 0.000000000
1.000000000 0.692600012 0.026600014
0.968699992 0.866699994 0.039940014
0.984399974 0.867479980 0.018800024
1.000000000 0.876060009 0.016460024
1.000000000 0.884640038 0.021120012
1.000000000 0.882299960 0.056500014
1.000000000 0.869819999 0.037520014
0.155300021 0.040079996 0.058060005
0.225860029 0.023399994 0.066700004
0.323200017 0.007799999 0.040860005
0.426699996 0.000000000 0.011700008
0.556859970 0.000000000 0.004680008
0.717700005 0.000000000 0.011700010
0.220340014 0.110680006 0.038459998
0.260460019 0.107560009 0.032100003
0.341980040 0.094060004 0.015600000
0.443900019 0.084700011 0.003120005
0.574959934 0.078460015 0.005460007
0.740339994 0.098820023 0.008580013
0.299580038 0.214160025 0.000000000
0.324760020 0.210180014 0.000000000
0.400120050 0.207840025 0.000000000
0.504320025 0.207060024 0.000000000
0.641620040 0.214160040 0.000000000
0.813380063 0.246960029 0.006240010
0.436100006 0.353040010 0.000000000
0.461919993 0.353820026 0.000000000
0.526320100 0.356940001 0.000000000
0.628300071 0.372540027 0.000000000
0.773320019 0.395980030 0.000000000
0.953040004 0.443920016 0.011700016
0.674419999 0.572620034 0.000000000
0.694159985 0.571779907 0.000000000
0.750600040 0.588220000 0.001560001
0.852499962 0.606160045 0.003120003
0.977240026 0.646280050 0.061160006
1.000000000 0.697300017 0.138740018
0.990639985 0.865140021 0.162380010
1.000000000 0.867479980 0.164719999
1.000000000 0.876060009 0.169400021
1.000000000 0.885419965 0.152140021
1.000000000 0.881519973 0.156880021
1.000000000 0.866699994 0.137240022
0.251839995 0.004679997 0.086199999
0.285479993 0.007799997 0.081519999
0.356880009 0.000000000 0.075279996
0.453280002 0.000000000 0.061979998
0.574180007 0.000000000 0.058860000
0.729399979 0.034500003 0.066660002
0.278400004 0.098740004 0.068259999
0.305880010 0.097960010 0.065920003
0.369399995 0.090940006 0.058079999
0.469779998 0.073740020 0.053380001
0.597600043 0.076900005 0.055739999
0.756080031 0.120840006 0.068220004
0.349060059 0.208700031 0.033719998
0.371740013 0.205460027 0.026579995
0.427460015 0.206240028 0.028919997
0.531740010 0.204800025 0.033719998
0.661140084 0.221180052 0.041520007
0.823520064 0.266640037 0.076840013
0.476119995 0.350700021 0.000000000
0.500379980 0.353820026 0.001560002
0.560060084 0.360060006 0.012480007
0.655620039 0.374100000 0.032940015
0.792839944 0.395980030 0.059540007
0.974879980 0.455620021 0.121480003
0.713720024 0.574180007 0.064260006
0.730960011 0.581979990 0.085539997
0.784260094 0.592120051 0.097220011
0.880060077 0.616479993 0.120800003
0.982759953 0.650220037 0.162420005
1.000000000 0.699620008 0.221180022
1.000000000 0.862020016 0.236840010
1.000000000 0.867479980 0.244780004
1.000000000 0.873719990 0.251060009
1.000000000 0.878400028 0.242420003
1.000000000 0.877619982 0.228260025
1.000000000 0.862800002 0.213260010
0.327840000 0.000000000 0.108339995
0.347420007 0.000000000 0.107499994
0.403120041 0.000000000 0.102820002
0.491840035 0.000000000 0.096340001
0.605399966 0.000000000 0.099699996
0.761480033 0.017160000 0.116860002
0.345860004 0.076900013 0.098859996
0.363100052 0.079240017 0.096340001
0.418839991 0.070600003 0.094779998
0.509779990 0.062020015 0.094780006
0.632220030 0.068300009 0.100480005
0.785939991 0.124740012 0.125500008
0.402340025 0.200780004 0.078400001
0.420399994 0.200780019 0.079959996
0.477719992 0.199220017 0.081519991
0.563180029 0.211040050 0.086980008
0.695620000 0.225120038 0.109059997
0.858840108 0.271440029 0.138020009
0.530960023 0.350700021 0.078399993
0.553040087 0.352259994 0.081520006
0.604720056 0.361620009 0.091000006
0.693320036 0.379560024 0.112179995
0.826680124 0.408700049 0.137980014
0.984320045 0.469840050 0.190580010
0.762419999 0.578859985 0.148139983
0.774119973 0.581199944 0.154479995
0.833740056 0.595239997 0.166380018
0.923080027 0.619620025 0.201480016
0.988220036 0.661159992 0.236119986
1.000000000 0.705140054 0.286959976
1.000000000 0.870599985 0.304379970
1.000000000 0.867479980 0.298919976
1.000000000 0.871379972 0.301259995
1.000000000 0.876839995 0.311399996
1.000000000 0.878400028 0.309060037
1.000000000 0.855699956 0.272160023
0.392199993 0.000000000 0.133300006
0.414039999 0.000000000 0.129400000
0.458840013 0.000000000 0.129400000
0.538820028 0.000000000 0.129400000
0.654919982 0.000000000 0.140320018
0.807799995 0.058899999 0.168699995
0.414039999 0.058040012 0.125499994
0.430479974 0.047900021 0.125499994
0.480020016 0.051020015 0.128619999
0.554479957 0.043880019 0.130180001
0.675259948 0.072200015 0.145080000
0.835240006 0.131020010 0.174260005
0.467420012 0.193760023 0.119260006
0.487880021 0.194540024 0.125499994
0.538100004 0.200820029 0.129400000
0.618839979 0.211040035 0.139580011
0.745799959 0.232140034 0.158359990
0.908160031 0.284760028 0.198440015
0.598439991 0.353040010 0.140380010
0.611760020 0.356160015 0.145060003
0.667439997 0.368640006 0.154420003
0.753820002 0.388140023 0.175700009
0.877700031 0.422800004 0.203120008
1.000000000 0.473780006 0.251839995
0.831380010 0.593680024 0.218719989
0.834499955 0.592900038 0.220280007
0.893260062 0.607760012 0.241620004
0.974120080 0.634500027 0.265839994
1.000000000 0.675200045 0.303600013
1.000000000 0.718419969 0.349759996
1.000000000 0.870599985 0.349000007
1.000000000 0.874499977 0.351339996
1.000000000 0.872940004 0.354460001
1.000000000 0.874499977 0.357580006
1.000000000 0.872159958 0.350559980
1.000000000 0.851000011 0.337199986
