example_ofxGpuLutCube/bin/data/LUT/EdgyAmber.cube
TITLE "16x16x16 Adobe/IRIDAS cube 3D LUT exported with GrossGrade v0.1.027.1 (beta) 64 bit"
DOMAIN_MIN 0 0 0
DOMAIN_MAX 1 1 1
LUT_3D_SIZE 16
0.027300000 0.027300000 0.027300000
0.056986671 0.027840002 0.023926666
0.091959998 0.037480000 0.032366667
0.141180009 0.047879994 0.039299998
0.202940017 0.030119993 0.038259998
0.256233335 0.015600000 0.030099997
0.298020035 0.010919993 0.013259991
0.339846671 0.002080000 0.002080000
0.377499998 0.000000000 0.000000000
0.415660024 0.000000000 0.000000000
0.457499981 0.000000000 0.000000000
0.505140007 0.000000000 0.000000000
0.552100003 0.000000000 0.000000000
0.598140061 0.000000000 0.000000000
0.647859991 0.000000000 0.000000000
0.713800013 0.000000000 0.000000000
0.072960004 0.056986671 0.032093335
0.086486675 0.060459998 0.039559998
0.118253343 0.060460005 0.032626670
0.170379996 0.062006660 0.043699995
0.216206685 0.049186666 0.032459997
0.259353340 0.038266666 0.021319998
0.298540056 0.036606662 0.007019993
0.338026643 0.029140001 0.000000000
0.377759993 0.015620011 0.000000000
0.417220026 0.001560001 0.000000000
0.458539963 0.000000001 0.000000000
0.504880011 0.000260000 0.000000000
0.552359998 0.000000000 0.000000000
0.601260066 0.000000000 0.000000000
0.656013310 0.000000000 0.000000000
0.717700005 0.000000000 0.000000000
0.109640002 0.090400003 0.039519995
0.127093345 0.089880005 0.035879996
0.152940005 0.086500004 0.038999993
0.192993343 0.082340002 0.029619992
0.231046677 0.077660002 0.016379999
0.270339996 0.072159998 0.010399997
0.306860030 0.064879999 0.000000000
0.343226641 0.060686670 0.000000000
0.378799975 0.053353343 0.000000000
0.419326693 0.036053330 0.000000000
0.468419939 0.014600021 0.000000000
0.509039998 0.009660007 0.000000000
0.556039989 0.006020005 0.000000000
0.601260066 0.006280006 0.000000000
0.663553238 0.007853339 0.000000000
0.719259977 0.010453342 0.000000000
0.141960010 0.123960011 0.012479995
0.159199998 0.119793341 0.009359996
0.180760011 0.118740007 0.012479995
0.213320032 0.118480004 0.009359996
0.242300019 0.114840008 0.000000000
0.279499978 0.105700009 0.000000000
0.314400017 0.097960003 0.000000000
0.353166640 0.093020014 0.000000000
0.386339992 0.087300017 0.000000000
0.431380004 0.076120012 0.000000000
0.477326661 0.063853353 0.000000000
0.523339987 0.062460016 0.000000000
0.569499969 0.052580014 0.000000000
0.619560003 0.060180031 0.000000000
0.672653258 0.069873333 0.000000000
0.731739998 0.086260013 0.000000000
0.183880001 0.157400012 0.000000000
0.187519997 0.153239995 0.000000000
0.209400013 0.149526685 0.000000000
0.232340038 0.146666676 0.000000000
0.263506681 0.143466666 0.000000000
0.290460020 0.143726677 0.000000000
0.328646690 0.134366676 0.000000000
0.363646686 0.131766677 0.000000000
0.402419984 0.127606675 0.000000000
0.439206660 0.119546667 0.000000000
0.486766636 0.115906686 0.000000000
0.534806728 0.110540017 0.000000000
0.580940008 0.107366681 0.000000000
0.632760048 0.123406708 0.000000000
0.684453249 0.129166678 0.000000000
0.748459995 0.131300017 0.000000000
0.213033333 0.189600006 0.000000000
0.225319996 0.187000006 0.000000000
0.235733330 0.183880016 0.000000000
0.260133326 0.182320014 0.000000000
0.288360029 0.181800008 0.000000000
0.316233337 0.171200007 0.000000000
0.347740054 0.172240004 0.000000000
0.383199990 0.169379994 0.000000000
0.419660032 0.164960012 0.000000000
0.461980015 0.160800010 0.000000000
0.501999974 0.162100002 0.000000000
0.555053353 0.160240009 0.000000000
0.604393303 0.163120016 0.000000000
0.652553380 0.166780010 0.000000000
0.706493258 0.177179992 0.000000000
0.777833343 0.185633332 0.000000000
0.247020021 0.221960023 0.000000000
0.260660052 0.220660031 0.000000000
0.268240005 0.221440032 0.000000000
0.291000038 0.217280015 0.000000000
0.315466702 0.215200022 0.000000000
0.343580008 0.214420021 0.000000000
0.377980053 0.207840025 0.000000000
0.409480035 0.205500022 0.000000000
0.440760016 0.205500022 0.000000000
0.480820000 0.209480017 0.000000000
0.527260005 0.209480032 0.000000000
0.575973332 0.212600037 0.000000000
0.628239930 0.212600037 0.000000000
0.682900071 0.219620049 0.000000000
0.736179888 0.234219998 0.000000000
0.807020068 0.243060037 0.000000000
0.290760010 0.261446685 0.000000000
0.302980006 0.259106666 0.000000000
0.309233367 0.260146677 0.000000000
0.325286657 0.257806659 0.000000000
0.351366669 0.254686683 0.000000000
0.380600005 0.256246656 0.000000000
0.409480035 0.253646672 0.000000000
0.441266656 0.251460016 0.000000000
0.480313331 0.253280014 0.000000000
0.517886698 0.254346669 0.000000000
0.557166636 0.260406673 0.000000000
0.606820047 0.263006687 0.000000000
0.652286649 0.267426640 0.000000000
0.717953444 0.278486669 0.000000000
0.777473271 0.295173317 0.000000000
0.838100016 0.304019988 0.000000000
0.340893328 0.303259999 0.000000000
0.348586649 0.305079997 0.000000000
0.350633323 0.301959991 0.000000000
0.369179994 0.305339992 0.000000000
0.391100019 0.302739978 0.000000000
0.421253324 0.304299980 0.000000000
0.449613333 0.301699996 0.000000000
0.480833352 0.301699996 0.000000000
0.518653274 0.305859983 0.000000000
0.557699978 0.305599988 0.000000000
0.599433243 0.310799986 0.000000000
0.646553278 0.318393290 0.000000000
0.693619967 0.323593348 0.000000000
0.759246767 0.339659959 0.000000000
0.820939898 0.355873287 0.000000000
0.875753284 0.364713311 0.000000000
0.397540033 0.354600012 0.000000000
0.403380007 0.356160015 0.000000000
0.406500012 0.355120003 0.000000000
0.425160021 0.358500004 0.000000000
0.441840023 0.359540015 0.000000000
0.473000020 0.358500034 0.000000000
0.502760053 0.358500004 0.000000000
0.532020032 0.360840023 0.000000000
0.569673359 0.365000010 0.000000000
0.617219985 0.368640006 0.000000000
0.654586613 0.376960009 0.000000000
0.701119959 0.385293335 0.000000000
0.750640035 0.392860055 0.000000000
0.812346756 0.406093359 0.000000000
0.877219975 0.423313320 0.000000000
0.938820004 0.439240038 0.000000000
0.461366624 0.418399960 0.000000000
0.466046631 0.418399960 0.000000000
0.474366635 0.418399960 0.000000000
0.486486644 0.421259940 0.000000000
0.508759975 0.422819972 0.000000000
0.530733347 0.424899966 0.000000000
0.565546691 0.421779960 0.000000000
0.595753253 0.427239954 0.000000000
0.627233326 0.433013290 0.000000000
0.669346631 0.436666608 0.000000000
0.720233262 0.441866577 0.000000000
0.775346637 0.460586637 0.000000000
0.811559975 0.468906671 0.000000000
0.877226710 0.488666654 0.000000000
0.935679853 0.494426638 0.000000000
0.989566624 0.520266652 0.000000000
0.539793372 0.491073310 0.000000000
0.546966672 0.493673384 0.000000000
0.553793371 0.491073310 0.000000000
0.563153327 0.491853327 0.000000000
0.587153375 0.496013373 0.000000000
0.607793391 0.495233357 0.000000000
0.633540034 0.498353362 0.000000000
0.669073343 0.500433326 0.000000000
0.701420009 0.509793341 0.000000000
0.742820024 0.518139958 0.000000000
0.785593331 0.527046680 0.000000000
0.839213371 0.532773376 0.000000000
0.891273320 0.544213355 0.000000000
0.948880076 0.569173336 0.000000000
0.985093296 0.586633384 0.000000000
1.000000000 0.605379999 0.000000000
0.629819989 0.569500029 0.000000000
0.634800017 0.573660016 0.000000000
0.641593337 0.576259971 0.000000000
0.659599960 0.578079998 0.000000000
0.670780003 0.577560067 0.000000000
0.696619987 0.582240045 0.000000000
0.728579998 0.586660028 0.000000000
0.754519999 0.589519978 0.000000000
0.792379975 0.596539974 0.000000000
0.829020023 0.601480007 0.000000000
0.882939935 0.614420056 0.000000000
0.929593325 0.633199990 0.000000000
0.974120021 0.641600013 0.000000000
0.987466753 0.657480001 0.000000000
0.998440027 0.676239967 0.000000000
1.000000000 0.690260053 0.000000000
0.742173433 0.669246733 0.000000000
0.742693424 0.669766724 0.000000000
0.744800150 0.671326816 0.000000000
0.759800076 0.676006794 0.000000000
0.777026772 0.671326816 0.000000000
0.798346817 0.676786780 0.000000000
0.828186750 0.685226738 0.000000000
0.859586775 0.692646801 0.000000000
0.892546713 0.696806788 0.000000000
0.927286744 0.702006757 0.000000000
0.972286701 0.709806740 0.000000000
0.989026725 0.719206810 0.000000000
0.994760036 0.735406756 0.000000000
1.000000000 0.751026750 0.000000000
1.000000000 0.757700086 0.003380001
1.000000000 0.773946762 0.016900022
0.848359883 0.770313144 0.000000000
0.846026540 0.770833135 0.000000000
0.863013208 0.777593195 0.000000000
0.866926491 0.779673100 0.000000000
0.887813210 0.784873188 0.000000000
0.911673129 0.783833146 0.000000000
0.926013231 0.785133123 0.000000000
0.956133246 0.789833248 0.000000000
0.983053207 0.792433202 0.000000000
0.994773269 0.796333253 0.000000000
0.996859968 0.805953145 0.000000000
1.000000000 0.812453210 0.000000000
1.000000000 0.819993258 0.012480000
1.000000000 0.829099953 0.045239989
1.000000000 0.834319890 0.018199975
1.000000000 0.835639894 0.056273278
0.964600027 0.866699994 0.000000000
0.964600027 0.866699994 0.000000000
0.966200054 0.867219985 0.000000000
0.976599991 0.870599985 0.000000000
0.982840002 0.871640027 0.000000000
1.000000000 0.874499977 0.000000000
1.000000000 0.876060009 0.000000000
1.000000000 0.876580000 0.000000000
1.000000000 0.878659964 0.000000000
1.000000000 0.882300019 0.000000000
1.000000000 0.879700005 0.000000000
1.000000000 0.881259978 0.000000000
1.000000000 0.882300019 0.000000000
1.000000000 0.882300019 0.000000000
1.000000000 0.878660023 0.000000000
1.000000000 0.874499977 0.000000000
0.028360002 0.027566668 0.027840002
0.062040001 0.031833336 0.028620003
0.096120000 0.040339995 0.039299998
0.146120027 0.047059990 0.041120000
0.209439993 0.028413333 0.044760000
0.258573323 0.019760001 0.033999998
0.297760040 0.013259991 0.015599988
0.336726665 0.002080000 0.002080000
0.375680000 0.000000000 0.000000000
0.417493373 0.000000000 0.000000000
0.457499981 0.000000000 0.000000000
0.502280056 0.000000000 0.000000000
0.551319957 0.000000000 0.000000000
0.594760060 0.000000000 0.000000000
0.647859931 0.000000000 0.000000000
0.713800013 0.000000000 0.000000000
0.077640004 0.060980000 0.035919998
0.090906657 0.056726668 0.039299998
0.125533342 0.064099997 0.040339995
0.171420023 0.061486665 0.047339994
0.222706676 0.045806665 0.033759989
0.262213349 0.038526665 0.016379999
0.298540026 0.036079995 0.007019993
0.338546634 0.024200004 0.000000000
0.377759993 0.009366672 0.000000000
0.420200020 0.001300002 0.000000000
0.459906638 0.000000001 0.000000000
0.502800047 0.000000000 0.000000000
0.551579952 0.000000000 0.000000000
0.598660052 0.000000000 0.000000000
0.652286589 0.000000000 0.000000000
0.717960000 0.000000000 0.000000000
0.117966667 0.090140000 0.033280000
0.127613336 0.090140007 0.035879996
0.156840011 0.085980006 0.038479999
0.196126685 0.085200004 0.035859991
0.227653340 0.080520004 0.014819996
0.267173320 0.069300003 0.002599999
0.303740025 0.065140001 0.000000000
0.343526691 0.058606666 0.000000000
0.382440001 0.044433344 0.000000000
0.420626670 0.034153339 0.000000000
0.467639953 0.017213358 0.000000000
0.511640072 0.004980004 0.000000000
0.556559980 0.004720004 0.000000000
0.603860021 0.006020005 0.000000000
0.663553238 0.008373340 0.000000000
0.726019979 0.019813342 0.000000000
0.148719996 0.120580010 0.012479995
0.160760000 0.122913346 0.009359996
0.184400007 0.118740007 0.012479995
0.213580027 0.118480004 0.006239998
0.246346697 0.110680006 0.000000000
0.279759973 0.108560003 0.000000000
0.314926684 0.097960003 0.000000000
0.356106669 0.093540005 0.000000000
0.392199993 0.091200009 0.000000000
0.430353343 0.081580013 0.000000000
0.471866637 0.071700022 0.000000000
0.523339987 0.057086680 0.000000000
0.570279956 0.049240019 0.000000000
0.616413355 0.054200023 0.000000000
0.673953235 0.070133314 0.000000000
0.729420006 0.088600017 0.000000000
0.185699999 0.155580014 0.000000000
0.194820017 0.152720019 0.000000000
0.211520031 0.149780005 0.000000000
0.235200003 0.146133348 0.000000000
0.264046639 0.143466666 0.000000000
0.294100016 0.138266668 0.000000000
0.328139991 0.133326665 0.000000000
0.363906682 0.129946664 0.000000000
0.407359987 0.123966679 0.000000000
0.446260005 0.121886685 0.000000000
0.488620013 0.116166674 0.000000000
0.531946719 0.111720003 0.000000000
0.579380035 0.114346683 0.000000000
0.630040050 0.114866674 0.000000000
0.690679908 0.121926680 0.000000000
0.750040054 0.140666679 0.000000000
0.218819991 0.184400007 0.000000000
0.228706688 0.184139997 0.000000000
0.244773358 0.185440019 0.000000000
0.262753338 0.179133326 0.000000000
0.285760015 0.181539997 0.000000000
0.316493332 0.172499999 0.000000000
0.349560022 0.174060017 0.000000000
0.382420033 0.167560011 0.000000000
0.418619990 0.165220022 0.000000000
0.462240040 0.160280004 0.000000000
0.506159961 0.162360027 0.000000000
0.552973390 0.156600013 0.000000000
0.601000011 0.160780013 0.000000000
0.652293384 0.165219992 0.000000000
0.710133195 0.179899976 0.000000000
0.773800015 0.190380007 0.000000000
0.256760031 0.220400020 0.000000000
0.262220055 0.220400020 0.000000000
0.272400022 0.218060017 0.000000000
0.289440066 0.214940026 0.000000000
0.316246718 0.214160025 0.000000000
0.344099998 0.213066682 0.000000000
0.377980053 0.210180014 0.000000000
0.410000026 0.209933355 0.000000000
0.441020012 0.203900024 0.000000000
0.478740007 0.207140028 0.000000000
0.526753306 0.209740013 0.000000000
0.576493382 0.211560041 0.000000000
0.629020035 0.213380054 0.000000000
0.683146715 0.220433384 0.000000000
0.736959934 0.228240013 0.000000000
0.802860081 0.239420056 0.000000000
0.300899982 0.257546663 0.000000000
0.305319995 0.255726665 0.000000000
0.311313331 0.257806689 0.000000000
0.327886671 0.257546663 0.000000000
0.351106703 0.255206674 0.000000000
0.380860031 0.253646672 0.000000000
0.406360000 0.250159979 0.000000000
0.444646686 0.251460016 0.000000000
0.478233337 0.253013343 0.000000000
0.512426615 0.253786683 0.000000000
0.557946622 0.258066684 0.000000000
0.607859969 0.264046669 0.000000000
0.660640001 0.268466681 0.000000000
0.716626763 0.277746677 0.000000000
0.771233261 0.288939983 0.000000000
0.839706719 0.303759992 0.000000000
0.344806671 0.301699966 0.000000000
0.349373341 0.301440001 0.000000000
0.352753311 0.303519964 0.000000000
0.370739996 0.303519964 0.000000000
0.395260006 0.303259969 0.000000000
0.419433326 0.303519964 0.000000000
0.448053330 0.300399989 0.000000000
0.480573297 0.299879998 0.000000000
0.520213306 0.305859983 0.000000000
0.559520006 0.309499949 0.000000000
0.601359904 0.315526634 0.000000000
0.653053284 0.320993304 0.000000000
0.698299885 0.325153351 0.000000000
0.754533350 0.340493292 0.000000000
0.815473258 0.350673348 0.000000000
0.884019971 0.370953321 0.000000000
0.402486682 0.352520019 0.000000000
0.408913344 0.356160015 0.000000000
0.407840043 0.356420010 0.000000000
0.425420016 0.356940001 0.000000000
0.446780026 0.358759999 0.000000000
0.475860029 0.357199997 0.000000000
0.503540039 0.359280020 0.000000000
0.533620059 0.360840023 0.000000000
0.570980012 0.363440007 0.000000000
0.613579988 0.366560012 0.000000000
0.657459974 0.379566640 0.000000000
0.704813421 0.388440013 0.000000000
0.754019976 0.394940019 0.000000000
0.813646734 0.408446699 0.000000000
0.869759917 0.421760023 0.000000000
0.933359981 0.440540045 0.000000000
0.469686657 0.416839957 0.000000000
0.476239949 0.418399960 0.000000000
0.476226658 0.418919921 0.000000000
0.496506631 0.422820002 0.000000000
0.511906624 0.422299951 0.000000000
0.531466544 0.422819972 0.000000000
0.562866628 0.422819942 0.000000000
0.593906641 0.426459968 0.000000000
0.628813326 0.433793277 0.000000000
0.668566585 0.435366631 0.000000000
0.721533239 0.442906588 0.000000000
0.764946699 0.455386639 0.000000000
0.816500008 0.468646675 0.000000000
0.877746761 0.487886637 0.000000000
0.935339868 0.495986670 0.000000000
0.984299958 0.520779967 0.000000000
0.548266709 0.488213331 0.000000000
0.553533316 0.490813315 0.000000000
0.554573417 0.491333336 0.000000000
0.574153364 0.496273369 0.000000000
0.590793371 0.496793389 0.000000000
0.610679984 0.496013343 0.000000000
0.636319995 0.499653369 0.000000000
0.672193348 0.503553331 0.000000000
0.704779983 0.506413341 0.000000000
0.744900048 0.517886698 0.000000000
0.790533364 0.526786685 0.000000000
0.850913405 0.536673307 0.000000000
0.896993399 0.551193357 0.000000000
0.952520072 0.569173336 0.000000000
0.985873222 0.587673366 0.000000000
1.000000000 0.611819983 0.000000000
0.641640007 0.566120028 0.000000000
0.640026689 0.570280015 0.000000000
0.649979949 0.573140025 0.000000000
0.664799988 0.576520026 0.000000000
0.672359943 0.579640031 0.000000000
0.692720056 0.583280027 0.000000000
0.727100074 0.586660028 0.000000000
0.763426721 0.594200015 0.000000000
0.794219971 0.597840011 0.000000000
0.836820006 0.604860067 0.000000000
0.877740026 0.613260031 0.000000000
0.922573328 0.627993345 0.000000000
0.977240026 0.645499945 0.000000000
0.989286721 0.652580023 0.000000000
0.998699963 0.676239967 0.000000000
1.000000000 0.695000052 0.000000000
0.744266748 0.668726742 0.000000000
0.741153479 0.665866733 0.000000000
0.747426808 0.670546770 0.000000000
0.764546752 0.677046776 0.000000000
0.784046829 0.678346813 0.000000000
0.798873484 0.677846789 0.000000000
0.822433472 0.682006776 0.000000000
0.851513386 0.686006725 0.000000000
0.895666778 0.698626757 0.000000000
0.930666804 0.704346776 0.000000000
0.973846734 0.711106718 0.000000000
0.987466753 0.724120140 0.000000000
0.993200064 0.737746775 0.000000000
1.000000000 0.748166800 0.000000000
1.000000000 0.760380089 0.020046674
1.000000000 0.774466753 0.054426730
0.852093220 0.766673267 0.000000000
0.862233162 0.776286483 0.000000000
0.863273203 0.777333200 0.000000000
0.867453218 0.777593195 0.000000000
0.882873237 0.775773227 0.000000000
0.907253206 0.779153168 0.000000000
0.931733191 0.783573151 0.000000000
0.962106526 0.789293230 0.000000000
0.986953259 0.795293212 0.000000000
0.995553255 0.798673213 0.000000000
0.996859968 0.808553219 0.000000000
1.000000000 0.813493311 0.000000000
1.000000000 0.820513308 0.012480000
1.000000000 0.829359889 0.045499988
1.000000000 0.830679893 0.058873251
1.000000000 0.835379899 0.064099997
0.964873374 0.870339990 0.002086668
0.965400040 0.866959989 0.000000000
0.965399981 0.867219985 0.000000000
0.967000008 0.870599985 0.000000000
0.982840002 0.872420013 0.000000000
1.000000000 0.877099991 0.000000000
1.000000000 0.877099991 0.000520001
1.000000000 0.882040024 0.000260000
1.000000000 0.882300019 0.000000000
1.000000000 0.884380043 0.000000000
1.000000000 0.886200011 0.010399991
1.000000000 0.886200011 0.007279999
1.000000000 0.885680020 0.003660002
1.000000000 0.882820010 0.000000000
1.000000000 0.875280023 0.000000000
1.000000000 0.870859981 0.001300001
0.045813337 0.031846665 0.034853335
0.064380005 0.035659999 0.032106664
0.111733340 0.040859997 0.047619995
0.150800005 0.040819999 0.041120000
0.212560013 0.028673330 0.047880001
0.255973339 0.022879999 0.031920001
0.295160025 0.016119990 0.016119990
0.336726695 0.003640002 0.002080000
0.377499998 0.000000001 0.000000000
0.417573363 0.000000000 0.000000000
0.458866656 0.000000000 0.000000000
0.502800047 0.000000000 0.000000000
0.550799966 0.000000000 0.000000000
0.595800042 0.000000000 0.000000000
0.651239932 0.000000000 0.000000000
0.713800013 0.000000000 0.000000000
0.086220011 0.060720000 0.039820001
0.099780001 0.060719997 0.036700003
0.130753338 0.063313328 0.042940002
0.169600040 0.057846665 0.044739999
0.223226681 0.044506665 0.035059996
0.263513327 0.038746662 0.019499999
0.300620019 0.032066669 0.007279993
0.336986631 0.026540002 0.000000000
0.374639988 0.017180005 0.000000000
0.418379992 0.005206667 0.000000000
0.462246656 0.000000001 0.000000000
0.506180048 0.000000000 0.000000000
0.552633345 0.000000000 0.000000000
0.608020008 0.000000000 0.000000000
0.656526566 0.000000000 0.000000000
0.714579999 0.000000000 0.000000000
0.126813352 0.093260005 0.040560000
0.140113369 0.093260005 0.047579996
0.164639995 0.085979998 0.036140002
0.201340005 0.085460000 0.036379993
0.231566668 0.076620005 0.016379999
0.272199988 0.067739993 0.011179998
0.309720039 0.065633334 0.002339998
0.347426683 0.055173337 0.000000000
0.383480042 0.046253342 0.000000000
0.424360007 0.031033337 0.000000000
0.471866667 0.015393353 0.000000000
0.513719976 0.005240004 0.000000000
0.558119953 0.005760005 0.000000000
0.606460035 0.005760006 0.000000000
0.664073229 0.008373340 0.000000000
0.722639978 0.008373341 0.000000000
0.157120019 0.122646675 0.018719992
0.169600010 0.122646682 0.015599995
0.189640015 0.119260006 0.012479995
0.220873356 0.112240009 0.006239998
0.243860021 0.110680006 0.000000000
0.280840009 0.107520007 0.000000000
0.319280028 0.096400008 0.000000000
0.357666641 0.093540005 0.000000000
0.393499970 0.084960021 0.000000000
0.433993340 0.074820012 0.000000000
0.474986643 0.070920013 0.000000000
0.522299945 0.056046683 0.000000000
0.568719983 0.047900017 0.000000000
0.620079994 0.056240030 0.000000000
0.671873271 0.071433328 0.000000000
0.736180007 0.079760015 0.000000000
0.194280013 0.153500006 0.000000000
0.202380016 0.150040001 0.000000000
0.217760026 0.149513364 0.000000000
0.236760020 0.145319998 0.000000000
0.268526703 0.143986657 0.000000000
0.298000008 0.137746677 0.000000000
0.332586706 0.135666668 0.000000000
0.369680047 0.128646687 0.000000000
0.406320006 0.125006676 0.000000000
0.443886697 0.122926682 0.000000000
0.488846630 0.117726669 0.000000000
0.534286678 0.113540009 0.000000000
0.586140037 0.110793345 0.000000000
0.634320080 0.117426693 0.000000000
0.691733241 0.120586671 0.000000000
0.750326693 0.138293326 0.000000000
0.229219988 0.186480016 0.000000000
0.234433323 0.186220005 0.000000000
0.247653335 0.185180008 0.000000000
0.265393347 0.182320014 0.000000000
0.292020023 0.178093329 0.000000000
0.323453367 0.171980008 0.000000000
0.349573404 0.170159981 0.000000000
0.389806658 0.168080017 0.000000000
0.425913364 0.164959997 0.000000000
0.464840055 0.159759998 0.000000000
0.507719994 0.162360013 0.000000000
0.555573344 0.159200013 0.000000000
0.607540011 0.159740001 0.000000000
0.654893398 0.167820007 0.000000000
0.712733269 0.177959993 0.000000000
0.770680010 0.179780021 0.000000000
0.263779998 0.220400020 0.000000000
0.266920000 0.220660031 0.000000000
0.278439999 0.218060017 0.000000000
0.297239989 0.217800006 0.000000000
0.320846707 0.213613361 0.000000000
0.344359994 0.211820021 0.000000000
0.380320013 0.210180014 0.000000000
0.409740031 0.207400024 0.000000000
0.447259992 0.206773356 0.000000000
0.487320006 0.208440036 0.000000000
0.533293307 0.208960027 0.000000000
0.579093397 0.214680046 0.000000000
0.634600043 0.213119999 0.000000000
0.682146668 0.221700028 0.000000000
0.738519967 0.235260025 0.000000000
0.801559985 0.248260036 0.000000000
0.305059999 0.257026702 0.000000000
0.307139993 0.255726695 0.000000000
0.313653320 0.255726665 0.000000000
0.330513328 0.258066684 0.000000000
0.350326687 0.254426688 0.000000000
0.379299998 0.251566648 0.000000000
0.410260022 0.253126681 0.000000000
0.444646657 0.251980007 0.000000000
0.480573356 0.254926652 0.000000000
0.515546679 0.252746642 0.000000000
0.563186646 0.258586675 0.000000000
0.612073302 0.265086681 0.000000000
0.661420047 0.270806670 0.000000000
0.721346736 0.278746665 0.000000000
0.775913298 0.290493369 0.000000000
0.837626636 0.305839986 0.000000000
0.349073321 0.302999943 0.000000000
0.355353296 0.300919980 0.000000000
0.359253287 0.299619973 0.000000000
0.372819960 0.305339992 0.000000000
0.394219965 0.302999973 0.000000000
0.420213312 0.301439971 0.000000000
0.449873328 0.298059970 0.000000000
0.481613338 0.303000003 0.000000000
0.518913269 0.305339992 0.000000000
0.559000075 0.306119978 0.000000000
0.601879954 0.311839938 0.000000000
0.649673343 0.316819996 0.000000000
0.701939940 0.329833359 0.000000000
0.762106657 0.341013312 0.000000000
0.822239876 0.355613291 0.000000000
0.885839999 0.372253329 0.000000000
0.406260014 0.355640024 0.000000000
0.411266655 0.354079992 0.000000000
0.421499997 0.355120003 0.000000000
0.427500010 0.358500004 0.000000000
0.447820008 0.358500034 0.000000000
0.474300027 0.356680006 0.000000000
