example_ofxGpuLutCube/bin/data/LUT/Inkwell.cube
TITLE "16x16x16 Adobe/IRIDAS cube 3D LUT exported with GrossGrade v0.1.027.1 (beta) 64 bit"
DOMAIN_MIN 0 0 0
DOMAIN_MAX 1 1 1
LUT_3D_SIZE 16
0.000000000 0.000000000 0.000000000
0.000260001 0.000260001 0.000260001
0.025073336 0.025073336 0.025073336
0.058820017 0.058820017 0.058820017
0.091526680 0.091526680 0.091526680
0.132033348 0.132033348 0.132033348
0.180380031 0.180380031 0.180380031
0.220633358 0.220633358 0.220633358
0.267433316 0.267433316 0.267433316
0.316100001 0.316100001 0.316100001
0.368633300 0.368633300 0.368633300
0.421206683 0.421206683 0.421206683
0.469799966 0.469799966 0.469799966
0.518986702 0.518986702 0.518986702
0.567293227 0.567293227 0.567293227
0.603900015 0.603900015 0.603900015
0.004160000 0.004160000 0.004160000
0.000520001 0.000520001 0.000520001
0.021693340 0.021693340 0.021693340
0.055180013 0.055180013 0.055180013
0.092046678 0.092046678 0.092046678
0.130993336 0.130993336 0.130993336
0.174886703 0.174886703 0.174886703
0.220946670 0.220946670 0.220946670
0.267433316 0.267433316 0.267433316
0.314500034 0.314500034 0.314500034
0.365966648 0.365966648 0.365966648
0.418273330 0.418273330 0.418273330
0.469019979 0.469019979 0.469019979
0.516893387 0.516893387 0.516893387
0.566773236 0.566773236 0.566773236
0.608066678 0.608066678 0.608066678
0.021693340 0.021693340 0.021693340
0.025593339 0.025593339 0.025593339
0.025593339 0.025593339 0.025593339
0.055440016 0.055440016 0.055440016
0.092046678 0.092046678 0.092046678
0.128393352 0.128393352 0.128393352
0.176440030 0.176440030 0.176440030
0.222766683 0.222766683 0.222766683
0.269253343 0.269253343 0.269253343
0.316100001 0.316100001 0.316100001
0.365966648 0.365966648 0.365966648
0.421206683 0.421206683 0.421206683
0.470073313 0.470073313 0.470073313
0.518453360 0.518453360 0.518453360
0.563913226 0.563913226 0.563913226
0.600520015 0.600520015 0.600520015
0.058040015 0.058040015 0.058040015
0.058040015 0.058040015 0.058040015
0.054920014 0.054920014 0.054920014
0.058040015 0.058040015 0.058040015
0.091266677 0.091266677 0.091266677
0.128913358 0.128913358 0.128913358
0.178040028 0.178040028 0.178040028
0.218813345 0.218813345 0.218813345
0.269253343 0.269253343 0.269253343
0.312940031 0.312940031 0.312940031
0.366246611 0.366246611 0.366246611
0.418326676 0.418326676 0.418326676
0.465899974 0.465899974 0.465899974
0.510840058 0.510840058 0.510840058
0.566253245 0.566253245 0.566253245
0.603900015 0.603900015 0.603900015
0.091526680 0.091526680 0.091526680
0.091526680 0.091526680 0.091526680
0.091006674 0.091006674 0.091006674
0.091786683 0.091786683 0.091786683
0.090486676 0.090486676 0.090486676
0.133073360 0.133073360 0.133073360
0.173060045 0.173060045 0.173060045
0.222506672 0.222506672 0.222506672
0.269253343 0.269253343 0.269253343
0.313200027 0.313200027 0.313200027
0.367333293 0.367333293 0.367333293
0.417233348 0.417233348 0.417233348
0.467720002 0.467720002 0.467720002
0.515806675 0.515806675 0.515806675
0.565993249 0.565993249 0.565993249
0.603900015 0.603900015 0.603900015
0.130733341 0.130733341 0.130733341
0.133333340 0.133333340 0.133333340
0.130213350 0.130213350 0.130213350
0.132293344 0.132293344 0.132293344
0.130993336 0.130993336 0.130993336
0.133333355 0.133333355 0.133333355
0.174366698 0.174366698 0.174366698
0.220113352 0.220113352 0.220113352
0.269253314 0.269253314 0.269253314
0.314799994 0.314799994 0.314799994
0.369933307 0.369933307 0.369933307
0.417526662 0.417526662 0.417526662
0.469019979 0.469019979 0.469019979
0.516873360 0.516873360 0.516873360
0.563393235 0.563393235 0.563393235
0.605199993 0.605199993 0.605199993
0.176440030 0.176440030 0.176440030
0.180380031 0.180380031 0.180380031
0.171760038 0.171760038 0.171760038
0.177240029 0.177240029 0.177240029
0.175933361 0.175933361 0.175933361
0.178040028 0.178040028 0.178040028
0.173360050 0.173360050 0.173360050
0.220373347 0.220373347 0.220373347
0.267433316 0.267433316 0.267433316
0.312160015 0.312160015 0.312160015
0.366266608 0.366266608 0.366266608
0.416193336 0.416193336 0.416193336
0.469019979 0.469019979 0.469019979
0.519233346 0.519233346 0.519233346
0.567033231 0.567033231 0.567033231
0.603120029 0.603120029 0.603120029
0.223026678 0.223026678 0.223026678
0.220373362 0.220373362 0.220373362
0.218813345 0.218813345 0.218813345
0.220373347 0.220373347 0.220373347
0.218813345 0.218813345 0.218813345
0.220633358 0.220633358 0.220633358
0.220633358 0.220633358 0.220633358
0.222766668 0.222766668 0.222766668
0.269780010 0.269780010 0.269780010
0.317660004 0.317660004 0.317660004
0.366766661 0.366766661 0.366766661
0.418060005 0.418060005 0.418060005
0.469539970 0.469539970 0.469539970
0.521846652 0.521846652 0.521846652
0.565213203 0.565213203 0.565213203
0.603900015 0.603900015 0.603900015
0.265613317 0.265613317 0.265613317
0.269253343 0.269253343 0.269253343
0.265873343 0.265873343 0.265873343
0.269253343 0.269253343 0.269253343
0.270319998 0.270319998 0.270319998
0.270833313 0.270833313 0.270833313
0.269253343 0.269253343 0.269253343
0.268993318 0.268993318 0.268993318
0.269253343 0.269253343 0.269253343
0.316100001 0.316100001 0.316100001
0.366499960 0.366499960 0.366499960
0.418273330 0.418273330 0.418273330
0.469799966 0.469799966 0.469799966
0.520253360 0.520253360 0.520253360
0.565473258 0.565473258 0.565473258
0.605980039 0.605980039 0.605980039
0.317660004 0.317660004 0.317660004
0.312420011 0.312420011 0.312420011
0.316100001 0.316100001 0.316100001
0.316100001 0.316100001 0.316100001
0.316100001 0.316100001 0.316100001
0.316359997 0.316359997 0.316359997
0.317660004 0.317660004 0.317660004
0.316100001 0.316100001 0.316100001
0.314019978 0.314019978 0.314019978
0.316100001 0.316100001 0.316100001
0.364933312 0.364933312 0.364933312
0.420166671 0.420166671 0.420166671
0.468239963 0.468239963 0.468239963
0.520780027 0.520780027 0.520780027
0.566773236 0.566773236 0.566773236
0.607800007 0.607800007 0.607800007
0.366033286 0.366033286 0.366033286
0.365966648 0.365966648 0.365966648
0.366499990 0.366499990 0.366499990
0.367833316 0.367833316 0.367833316
0.366773278 0.366773278 0.366773278
0.364666611 0.364666611 0.364666611
0.365966648 0.365966648 0.365966648
0.366533279 0.366533279 0.366533279
0.364666641 0.364666641 0.364666641
0.362593323 0.362593323 0.362593323
0.365966648 0.365966648 0.365966648
0.416193336 0.416193336 0.416193336
0.466419995 0.466419995 0.466419995
0.513720036 0.513720036 0.513720036
0.563393235 0.563393235 0.563393235
0.606500030 0.606500030 0.606500030
0.416193336 0.416193336 0.416193336
0.422246665 0.422246665 0.422246665
0.419646680 0.419646680 0.419646680
0.419366658 0.419366658 0.419366658
0.416193336 0.416193336 0.416193336
0.417266697 0.417266697 0.417266697
0.418566674 0.418566674 0.418566674
0.419100016 0.419100016 0.419100016
0.420406669 0.420406669 0.420406669
0.420686692 0.420686692 0.420686692
0.418799996 0.418799996 0.418799996
0.422246695 0.422246695 0.422246695
0.475073338 0.475073338 0.475073338
0.516893387 0.516893387 0.516893387
0.563393235 0.563393235 0.563393235
0.603900015 0.603900015 0.603900015
0.469799966 0.469799966 0.469799966
0.469546646 0.469546646 0.469546646
0.469539970 0.469539970 0.469539970
0.469019979 0.469019979 0.469019979
0.469799966 0.469799966 0.469799966
0.469019979 0.469019979 0.469019979
0.469799966 0.469799966 0.469799966
0.469019979 0.469019979 0.469019979
0.471099973 0.471099973 0.471099973
0.467460006 0.467460006 0.467460006
0.471619964 0.471619964 0.471619964
0.469799966 0.469799966 0.469799966
0.472919971 0.472919971 0.472919971
0.518460035 0.518460035 0.518460035
0.563913226 0.563913226 0.563913226
0.601559997 0.601559997 0.601559997
0.518986702 0.518986702 0.518986702
0.514733374 0.514733374 0.514733374
0.514480054 0.514480054 0.514480054
0.518986702 0.518986702 0.518986702
0.517933369 0.517933369 0.517933369
0.518986702 0.518986702 0.518986702
0.520546675 0.520546675 0.520546675
0.515300035 0.515300035 0.515300035
0.516600072 0.516600072 0.516600072
0.514480054 0.514480054 0.514480054
0.519766688 0.519766688 0.519766688
0.514986694 0.514986694 0.514986694
0.518720031 0.518720031 0.518720031
0.519506693 0.519506693 0.519506693
0.566773236 0.566773236 0.566773236
0.607280016 0.607280016 0.607280016
0.563393235 0.563393235 0.563393235
0.563393235 0.563393235 0.563393235
0.566513240 0.566513240 0.566513240
0.567033231 0.567033231 0.567033231
0.565993249 0.565993249 0.565993249
0.563653290 0.563653290 0.563653290
0.565473258 0.565473258 0.565473258
0.567033231 0.567033231 0.567033231
0.567033231 0.567033231 0.567033231
0.562093258 0.562093258 0.562093258
0.563393235 0.563393235 0.563393235
0.563393295 0.563393295 0.563393295
0.566513240 0.566513240 0.566513240
0.566773236 0.566773236 0.566773236
0.567293346 0.567293346 0.567293346
0.607540011 0.607540011 0.607540011
0.603900015 0.603900015 0.603900015
0.604160011 0.604160011 0.604160011
0.601040006 0.601040006 0.601040006
0.607020020 0.607020020 0.607020020
0.606760025 0.606760025 0.606760025
0.602600038 0.602600038 0.602600038
0.603900015 0.603900015 0.603900015
0.603900015 0.603900015 0.603900015
0.603900015 0.603900015 0.603900015
0.602340043 0.602340043 0.602340043
0.603900015 0.603900015 0.603900015
0.603900015 0.603900015 0.603900015
0.604680002 0.604680002 0.604680002
0.603900015 0.603900015 0.603900015
0.607540011 0.607540011 0.607540011
0.603900015 0.603900015 0.603900015
0.000520001 0.000520001 0.000520001
0.000786669 0.000786669 0.000786669
0.025073336 0.025073336 0.025073336
0.058040015 0.058040015 0.058040015
0.091526680 0.091526680 0.091526680
0.132033348 0.132033348 0.132033348
0.176706702 0.176706702 0.176706702
0.219073340 0.219073340 0.219073340
0.269253343 0.269253343 0.269253343
0.318700016 0.318700016 0.318700016
0.367333293 0.367333293 0.367333293
0.416460007 0.416460007 0.416460007
0.466159970 0.466159970 0.466159970
0.518986702 0.518986702 0.518986702
0.566773236 0.566773236 0.566773236
0.603900015 0.603900015 0.603900015
0.000520001 0.000520001 0.000520001
0.021953341 0.021953341 0.021953341
0.057253342 0.057253342 0.057253342
0.089446694 0.089446694 0.089446694
0.128913358 0.128913358 0.128913358
0.173066691 0.173066691 0.173066691
0.221993372 0.221993372 0.221993372
0.263800025 0.263800025 0.263800025
0.314493328 0.314493328 0.314493328
0.361033320 0.361033320 0.361033320
0.416200012 0.416200012 0.416200012
0.467180014 0.467180014 0.467180014
0.517146647 0.517146647 0.517146647
0.566520035 0.566520035 0.566520035
0.601046681 0.601046681 0.601046681
0.640766621 0.640766621 0.640766621
0.021953339 0.021953339 0.021953339
0.055180013 0.055180013 0.055180013
0.054660007 0.054660007 0.054660007
0.088926688 0.088926688 0.088926688
0.132293344 0.132293344 0.132293344
0.169946685 0.169946685 0.169946685
0.219066709 0.219066709 0.219066709
0.260680020 0.260680020 0.260680020
0.315066665 0.315066665 0.315066665
0.358173341 0.358173341 0.358173341
0.416199952 0.416199952 0.416199952
0.464320034 0.464320034 0.464320034
0.513960004 0.513960004 0.513960004
0.557420015 0.557420015 0.557420015
0.607279897 0.607279897 0.607279897
0.637126625 0.637126625 0.637126625
0.054920014 0.054920014 0.054920014
0.092046678 0.092046678 0.092046678
0.084946685 0.084946685 0.084946685
0.092046686 0.092046686 0.092046686
0.128653347 0.128653347 0.128653347
0.176186681 0.176186681 0.176186681
0.220106706 0.220106706 0.220106706
0.264320016 0.264320016 0.264320016
0.314493328 0.314493328 0.314493328
0.364413351 0.364413351 0.364413351
0.418799996 0.418799996 0.418799996
0.466680020 0.466680020 0.466680020
0.517133296 0.517133296 0.517133296
0.557933331 0.557933331 0.557933331
0.603379905 0.603379905 0.603379905
0.643366694 0.643366694 0.643366694
0.090746678 0.090746678 0.090746678
0.131773338 0.131773338 0.131773338
0.128393352 0.128393352 0.128393352
0.129173353 0.129173353 0.129173353
0.131253332 0.131253332 0.131253332
0.172800019 0.172800019 0.172800019
0.218266696 0.218266696 0.218266696
0.267693341 0.267693341 0.267693341
0.317140013 0.317140013 0.317140013
0.364446700 0.364446700 0.364446700
0.418799996 0.418799996 0.418799996
0.467206717 0.467206717 0.467206717
0.513973355 0.513973355 0.513973355
0.563653350 0.563653350 0.563653350
0.604426622 0.604426622 0.604426622
0.639466643 0.639466643 0.639466643
0.134893343 0.134893343 0.134893343
0.172800019 0.172800019 0.172800019
0.173066691 0.173066691 0.173066691
0.170720011 0.170720011 0.170720011
0.174106687 0.174106687 0.174106687
0.176706687 0.176706687 0.176706687
0.223806694 0.223806694 0.223806694
0.265100032 0.265100032 0.265100032
0.313453346 0.313453346 0.313453346
0.361553341 0.361553341 0.361553341
0.418833345 0.418833345 0.418833345
0.467466712 0.467466712 0.467466712
0.517379999 0.517379999 0.517379999
0.561839998 0.561839998 0.561839998
0.609166622 0.609166622 0.609166622
0.641286671 0.641286671 0.641286671
0.177773356 0.177773356 0.177773356
0.219066709 0.219066709 0.219066709
0.219326705 0.219326705 0.219326705
0.221466705 0.221466705 0.221466705
0.221466705 0.221466705 0.221466705
0.221726701 0.221726701 0.221726701
0.223546699 0.223546699 0.223546699
0.263800025 0.263800025 0.263800025
0.313713342 0.313713342 0.313713342
0.357913375 0.357913375 0.357913375
0.418566644 0.418566644 0.418566644
0.467726678 0.467726678 0.467726678
0.518446684 0.518446684 0.518446684
0.559753358 0.559753358 0.559753358
0.606506586 0.606506586 0.606506586
0.643139958 0.643139958 0.643139958
0.220373362 0.220373362 0.220373362
0.263799995 0.263799995 0.263799995
0.267180055 0.267180055 0.267180055
0.271600008 0.271600008 0.271600008
0.265613377 0.265613377 0.265613377
0.267960042 0.267960042 0.267960042
0.268220037 0.268220037 0.268220037
0.269520015 0.269520015 0.269520015
0.317919999 0.317919999 0.317919999
0.363113344 0.363113344 0.363113344
0.419359982 0.419359982 0.419359982
0.468246698 0.468246698 0.468246698
0.515553355 0.515553355 0.515553355
0.562880039 0.562880039 0.562880039
0.609673321 0.609673321 0.609673321
0.640506625 0.640506625 0.640506625
0.265613317 0.265613317 0.265613317
0.312940001 0.312940001 0.312940001
0.315839976 0.315839976 0.315839976
0.316359967 0.316359967 0.316359967
0.312153339 0.312153339 0.312153339
0.314280003 0.314280003 0.314280003
0.316619992 0.316619992 0.316619992
0.316100001 0.316100001 0.316100001
0.314279944 0.314279944 0.314279944
0.359473377 0.359473377 0.359473377
0.417039990 0.417039990 0.417039990
0.465640038 0.465640038 0.465640038
0.515019953 0.515019953 0.515019953
0.560013354 0.560013354 0.560013354
0.604166567 0.604166567 0.604166567
0.640506625 0.640506625 0.640506625
0.313493311 0.313493311 0.313493311
0.361033320 0.361033320 0.361033320
0.361820042 0.361820042 0.361820042
0.367013335 0.367013335 0.367013335
0.360273361 0.360273361 0.360273361
0.362333357 0.362333357 0.362333357
0.363666683 0.363666683 0.363666683
0.361553341 0.361553341 0.361553341
0.364673376 0.364673376 0.364673376
0.363633364 0.363633364 0.363633364
0.416200012 0.416200012 0.416200012
0.469026685 0.469026685 0.469026685
0.516606688 0.516606688 0.516606688
0.564173341 0.564173341 0.564173341
0.602079988 0.602079988 0.602079988
0.642586648 0.642586648 0.642586648
0.367299974 0.367299974 0.367299974
0.414899975 0.414899975 0.414899975
0.416199982 0.416199982 0.416199982
0.414913297 0.414913297 0.414913297
0.414399952 0.414399952 0.414399952
0.416199982 0.416199982 0.416199982
0.416199982 0.416199982 0.416199982
0.416720003 0.416720003 0.416720003
0.416213334 0.416213334 0.416213334
0.416466653 0.416466653 0.416466653
0.416199982 0.416199982 0.416199982
0.466686696 0.466686696 0.466686696
0.518433332 0.518433332 0.518433332
0.562093377 0.562093377 0.562093377
0.603379905 0.603379905 0.603379905
0.645246625 0.645246625 0.645246625
0.421460003 0.421460003 0.421460003
0.465640008 0.465640008 0.465640008
0.469026685 0.469026685 0.469026685
0.467986703 0.467986703 0.467986703
0.466426700 0.466426700 0.466426700
0.467986673 0.467986673 0.467986673
0.468766689 0.468766689 0.468766689
0.469026685 0.469026685 0.469026685
0.468506694 0.468506694 0.468506694
0.465360016 0.465360016 0.465360016
0.470326692 0.470326692 0.470326692
0.471106678 0.471106678 0.471106678
0.516579986 0.516579986 0.516579986
0.562093377 0.562093377 0.562093377
0.608073294 0.608073294 0.608073294
0.643886685 0.643886685 0.643886685
0.469799966 0.469799966 0.469799966
0.516626656 0.516626656 0.516626656
0.514999986 0.514999986 0.514999986
0.512926638 0.512926638 0.512926638
0.513213336 0.513213336 0.513213336
0.516886652 0.516886652 0.516886652
0.516886652 0.516886652 0.516886652
0.514773309 0.514773309 0.514773309
0.515039980 0.515039980 0.515039980
0.517113328 0.517113328 0.517113328
0.517146647 0.517146647 0.517146647
0.516619980 0.516619980 0.516619980
0.514213324 0.514213324 0.514213324
0.560793340 0.560793340 0.560793340
0.606506586 0.606506586 0.606506586
0.644146681 0.644146681 0.644146681
0.518986702 0.518986702 0.518986702
0.566520035 0.566520035 0.566520035
0.557933331 0.557933331 0.557933331
0.561320007 0.561320007 0.561320007
0.563920021 0.563920021 0.563920021
0.562093318 0.562093318 0.562093318
0.561833322 0.561833322 0.561833322
0.561573386 0.561573386 0.561573386
0.561320007 0.561320007 0.561320007
0.564960003 0.564960003 0.564960003
0.564440012 0.564440012 0.564440012
0.560280025 0.560280025 0.560280025
0.562880039 0.562880039 0.562880039
0.563920021 0.563920021 0.563920021
0.601826668 0.601826668 0.601826668
0.643626690 0.643626690 0.643626690
0.563393235 0.563393235 0.563393235
0.607806563 0.607806563 0.607806563
0.604166627 0.604166627 0.604166627
0.607546568 0.607546568 0.607546568
0.605986536 0.605986536 0.605986536
0.607546568 0.607546568 0.607546568
0.603393316 0.603393316 0.603393316
0.607026577 0.607026577 0.607026577
0.602346659 0.602346659 0.602346659
0.606506586 0.606506586 0.606506586
0.608613253 0.608613253 0.608613253
0.604426682 0.604426682 0.604426682
0.607286572 0.607286572 0.607286572
0.607546568 0.607546568 0.607546568
0.610753238 0.610753238 0.610753238
0.643886685 0.643886685 0.643886685
0.604160011 0.604160011 0.604160011
0.640506625 0.640506625 0.640506625
0.643886685 0.643886685 0.643886685
0.641026616 0.641026616 0.641026616
0.640246630 0.640246630 0.640246630
0.641286671 0.641286671 0.641286671
0.640246630 0.640246630 0.640246630
0.640246630 0.640246630 0.640246630
0.638426661 0.638426661 0.638426661
0.640506625 0.640506625 0.640506625
0.637906611 0.637906611 0.637906611
0.645773292 0.645773292 0.645773292
0.639466643 0.639466643 0.639466643
0.640246630 0.640246630 0.640246630
0.643106699 0.643106699 0.643106699
0.644146681 0.644146681 0.644146681
0.022213340 0.022213340 0.022213340
0.025333337 0.025333337 0.025333337
0.025593339 0.025593339 0.025593339
0.058300015 0.058300015 0.058300015
0.091526680 0.091526680 0.091526680
0.129433349 0.129433349 0.129433349
0.179846689 0.179846689 0.179846689
0.221933350 0.221933350 0.221933350
0.263793319 0.263793319 0.263793319
0.314279974 0.314279974 0.314279974
0.366799951 0.366799951 0.366799951
0.416193336 0.416193336 0.416193336
0.467200011 0.467200011 0.467200011
0.513193369 0.513193369 0.513193369
0.563653350 0.563653350 0.563653350
0.603900015 0.603900015 0.603900015
0.021693340 0.021693340 0.021693340
0.054400008 0.054400008 0.054400008
0.054140005 0.054140005 0.054140005
0.092046686 0.092046686 0.092046686
0.131773338 0.131773338 0.131773338
0.173326686 0.173326686 0.173326686
0.218806714 0.218806714 0.218806714
0.267953366 0.267953366 0.267953366
0.314539999 0.314539999 0.314539999
0.363686711 0.363686711 0.363686711
0.421199977 0.421199977 0.421199977
0.469026685 0.469026685 0.469026685
0.519486666 0.519486666 0.519486666
0.564180017 0.564180017 0.564180017
0.601566672 0.601566672 0.601566672
0.640506625 0.640506625 0.640506625
0.025593337 0.025593337 0.025593337
0.054400012 0.054400012 0.054400012
0.088146687 0.088146687 0.088146687
0.133073360 0.133073360 0.133073360
0.171253353 0.171253353 0.171253353
0.220406681 0.220406681 0.220406681
0.268746704 0.268746704 0.268746704
0.316100031 0.316100031 0.316100031
0.363900006 0.363900006 0.363900006
0.414646685 0.414646685 0.414646685
0.468253314 0.468253314 0.468253314
0.518146694 0.518146694 0.518146694
0.561573327 0.561573327 0.561573327
0.602340102 0.602340102 0.602340102
0.640246630 0.640246630 0.640246630
0.672693312 0.672693312 0.672693312
0.058040015 0.058040015 0.058040015
0.091266684 0.091266684 0.091266684
0.132033348 0.132033348 0.132033348
0.134393349 0.134393349 0.134393349
0.174380019 0.174380019 0.174380019
0.217500016 0.217500016 0.217500016
0.269786716 0.269786716 0.269786716
0.316100001 0.316100001 0.316100001
0.366279989 0.366279989 0.366279989
0.417513341 0.417513341 0.417513341
0.469799966 0.469799966 0.469799966
0.518460035 0.518460035 0.518460035
0.565733373 0.565733373 0.565733373
0.606760085 0.606760085 0.606760085
0.643626571 0.643626571 0.643626571
0.675813317 0.675813317 0.675813317
0.088666685 0.088666685 0.088666685
0.129173353 0.129173353 0.129173353
0.174113363 0.174113363 0.174113363
0.173326686 0.173326686 0.173326686
0.173580021 0.173580021 0.173580021
0.219646677 0.219646677 0.219646677
0.272126675 0.272126675 0.272126675
0.315840036 0.315840036 0.315840036
0.365199983 0.365199983 0.365199983
0.417753339 0.417753339 0.417753339
0.471633285 0.471633285 0.471633285
0.520026684 0.520026684 0.520026684
0.565473378 0.565473378 0.565473378
0.604953408 0.604953408 0.604953408
0.640246689 0.640246689 0.640246689
0.675553322 0.675553322 0.675553322
0.129433349 0.129433349 0.129433349
0.173840016 0.173840016 0.173840016
0.217740029 0.217740029 0.217740029
0.218800023 0.218800023 0.218800023
0.219840035 0.219840035 0.219840035
0.218280017 0.218280017 0.218280017
0.272926688 0.272926688 0.272926688
0.315840006 0.315840006 0.315840006
0.365979999 0.365979999 0.365979999
0.412566721 0.412566721 0.412566721
0.469553322 0.469553322 0.469553322
0.518706679 0.518706679 0.518706679
0.564953327 0.564953327 0.564953327
0.605213344 0.605213344 0.605213344
0.639726639 0.639726639 0.639726639
0.678673327 0.678673327 0.678673327
0.176220044 0.176220044 0.176220044
0.221466705 0.221466705 0.221466705
0.269786716 0.269786716 0.269786716
0.270053387 0.270053387 0.270053387
0.265640050 0.265640050 0.265640050
0.266133368 0.266133368 0.266133368
0.271606714 0.271606714 0.271606714
0.311886698 0.311886698 0.311886698
0.366253316 0.366253316 0.366253316
0.415686697 0.415686697 0.415686697
0.468513310 0.468513310 0.468513310
0.515553355 0.515553355 0.515553355
0.562613368 0.562613368 0.562613368
0.604420066 0.604420066 0.604420066
0.641806602 0.641806602 0.641806602
0.673733354 0.673733354 0.673733354
0.218813345 0.218813345 0.218813345
0.265100032 0.265100032 0.265100032
0.315059990 0.315059990 0.315059990
0.316100001 0.316100001 0.316100001
0.315580010 0.315580010 0.315580010
0.319740027 0.319740027 0.319740027
0.313186705 0.313186705 0.313186705
0.316100001 0.316100001 0.316100001
0.364679992 0.364679992 0.364679992
0.417233318 0.417233318 0.417233318
0.472153306 0.472153306 0.472153306
0.522106707 0.522106707 0.522106707
0.567046642 0.567046642 0.567046642
0.604953408 0.604953408 0.604953408
0.641813338 0.641813338 0.641813338
0.677373350 0.677373350 0.677373350
0.269253343 0.269253343 0.269253343
0.316359997 0.316359997 0.316359997
0.364679992 0.364679992 0.364679992
0.364679992 0.364679992 0.364679992
0.367033303 0.367033303 0.367033303
0.364160001 0.364160001 0.364160001
0.366279989 0.366279989 0.366279989
0.366793334 0.366793334 0.366793334
0.364679992 0.364679992 0.364679992
0.407060057 0.407060057 0.407060057
0.472686619 0.472686619 0.472686619
0.513460040 0.513460040 0.513460040
0.562093318 0.562093318 0.562093318
0.604420066 0.604420066 0.604420066
0.642073333 0.642073333 0.642073333
0.676593304 0.676593304 0.676593304
0.316100001 0.316100001 0.316100001
0.361813366 0.361813366 0.361813366
0.416206688 0.416206688 0.416206688
0.420413375 0.420413375 0.420413375
0.416740030 0.416740030 0.416740030
0.416753381 0.416753381 0.416753381
