example_ofxGpuLutCube/bin/data/LUT/Inkwell.cube
TITLE "16x16x16 Adobe/IRIDAS cube 3D LUT exported with GrossGrade v0.1.027.1 (beta) 64 bit"
DOMAIN_MIN 0 0 0
DOMAIN_MAX 1 1 1
LUT_3D_SIZE 6
0.000000000 0.000000000 0.000000000
0.058820017 0.058820017 0.058820017
0.180380031 0.180380031 0.180380031
0.316100001 0.316100001 0.316100001
0.469799966 0.469799966 0.469799966
0.603900015 0.603900015 0.603900015
0.058040015 0.058040015 0.058040015
0.058040015 0.058040015 0.058040015
0.178040028 0.178040028 0.178040028
0.312940031 0.312940031 0.312940031
0.465899974 0.465899974 0.465899974
0.603900015 0.603900015 0.603900015
0.176440030 0.176440030 0.176440030
0.177240029 0.177240029 0.177240029
0.173360050 0.173360050 0.173360050
0.312160015 0.312160015 0.312160015
0.469019979 0.469019979 0.469019979
0.603120029 0.603120029 0.603120029
0.317660004 0.317660004 0.317660004
0.316100001 0.316100001 0.316100001
0.317660004 0.317660004 0.317660004
0.316100001 0.316100001 0.316100001
0.468239963 0.468239963 0.468239963
0.607800007 0.607800007 0.607800007
0.469799966 0.469799966 0.469799966
0.469019979 0.469019979 0.469019979
0.469799966 0.469799966 0.469799966
0.467460006 0.467460006 0.467460006
0.472919971 0.472919971 0.472919971
0.601559997 0.601559997 0.601559997
0.603900015 0.603900015 0.603900015
0.607020020 0.607020020 0.607020020
0.603900015 0.603900015 0.603900015
0.602340043 0.602340043 0.602340043
0.604680002 0.604680002 0.604680002
0.603900015 0.603900015 0.603900015
0.058040015 0.058040015 0.058040015
0.058040015 0.058040015 0.058040015
0.175700039 0.175700039 0.175700039
0.315319985 0.315319985 0.315319985
0.472139955 0.472139955 0.472139955
0.603900015 0.603900015 0.603900015
0.054920014 0.054920014 0.054920014
0.174120039 0.174120039 0.174120039
0.318440050 0.318440050 0.318440050
0.465120047 0.465120047 0.465120047
0.604699969 0.604699969 0.604699969
0.701920033 0.701920033 0.701920033
0.178780019 0.178780019 0.178780019
0.314480066 0.314480066 0.314480066
0.323120028 0.323120028 0.323120028
0.459600031 0.459600031 0.459600031
0.607039988 0.607039988 0.607039988
0.701920033 0.701920033 0.701920033
0.316100001 0.316100001 0.316100001
0.465120047 0.465120047 0.465120047
0.469040036 0.469040036 0.469040036
0.469040006 0.469040006 0.469040006
0.603140056 0.603140056 0.603140056
0.701920033 0.701920033 0.701920033
0.469799995 0.469799995 0.469799995
0.605479956 0.605479956 0.605479956
0.609419942 0.609419942 0.609419942
0.605480015 0.605480015 0.605480015
0.607819974 0.607819974 0.607819974
0.702720046 0.702720046 0.702720046
0.603900015 0.603900015 0.603900015
0.701920033 0.701920033 0.701920033
0.701920033 0.701920033 0.701920033
0.701920033 0.701920033 0.701920033
0.701920033 0.701920033 0.701920033
0.701920033 0.701920033 0.701920033
0.180380031 0.180380031 0.180380031
0.174900040 0.174900040 0.174900040
0.180380031 0.180380031 0.180380031
0.314500034 0.314500034 0.314500034
0.469799966 0.469799966 0.469799966
0.603900015 0.603900015 0.603900015
0.174100041 0.174100041 0.174100041
0.314480036 0.314480036 0.314480036
0.315320045 0.315320045 0.315320045
0.468260050 0.468260050 0.468260050
0.606259942 0.606259942 0.606259942
0.701920033 0.701920033 0.701920033
0.178040043 0.178040043 0.178040043
0.316880047 0.316880047 0.316880047
0.467460096 0.467460096 0.467460096
0.604680002 0.604680002 0.604680002
0.702719986 0.702719986 0.702719986
0.771759987 0.771759987 0.771759987
0.314539999 0.314539999 0.314539999
0.466680050 0.466680050 0.466680050
0.609400034 0.609400034 0.609400034
0.608659983 0.608659983 0.608659983
0.704299986 0.704299986 0.704299986
0.771759987 0.771759987 0.771759987
0.469799966 0.469799966 0.469799966
0.606259942 0.606259942 0.606259942
0.703500032 0.703500032 0.703500032
0.704299986 0.704299986 0.704299986
0.706660032 0.706660032 0.706660032
0.768599987 0.768599987 0.768599987
0.605460048 0.605460048 0.605460048
0.701920033 0.701920033 0.701920033
0.771759987 0.771759987 0.771759987
0.769379973 0.769379973 0.769379973
0.769379973 0.769379973 0.769379973
0.771759987 0.771759987 0.771759987
0.316100001 0.316100001 0.316100001
0.319220006 0.319220006 0.319220006
0.320780009 0.320780009 0.320780009
0.316100001 0.316100001 0.316100001
0.467460006 0.467460006 0.467460006
0.603900015 0.603900015 0.603900015
0.317640007 0.317640007 0.317640007
0.464320034 0.464320034 0.464320034
0.468240023 0.468240023 0.468240023
0.464340031 0.464340031 0.464340031
0.605479956 0.605479956 0.605479956
0.702720046 0.702720046 0.702720046
0.316100001 0.316100001 0.316100001
0.470600039 0.470600039 0.470600039
0.607059956 0.607059956 0.607059956
0.605460048 0.605460048 0.605460048
0.703540027 0.703540027 0.703540027
0.770980000 0.770980000 0.770980000
0.316100001 0.316100001 0.316100001
0.466660053 0.466660053 0.466660053
0.607840061 0.607840061 0.607840061
0.705079973 0.705079973 0.705079973
0.767820060 0.767820060 0.767820060
0.812539995 0.812539995 0.812539995
0.469799966 0.469799966 0.469799966
0.605479956 0.605479956 0.605479956
0.702760041 0.702760041 0.702760041
0.770159960 0.770159960 0.770159960
0.771780014 0.771780014 0.771780014
0.813340008 0.813340008 0.813340008
0.605459988 0.605459988 0.605459988
0.701920033 0.701920033 0.701920033
0.768600047 0.768600047 0.768600047
0.812539995 0.812539995 0.812539995
0.812539995 0.812539995 0.812539995
0.814140022 0.814140022 0.814140022
0.469799966 0.469799966 0.469799966
0.470599979 0.470599979 0.470599979
0.469019979 0.469019979 0.469019979
0.469799966 0.469799966 0.469799966
0.465899974 0.465899974 0.465899974
0.603900015 0.603900015 0.603900015
0.468239993 0.468239993 0.468239993
0.605479956 0.605479956 0.605479956
0.604680002 0.604680002 0.604680002
0.603900015 0.603900015 0.603900015
0.608600020 0.608600020 0.608600020
0.701920033 0.701920033 0.701920033
0.469019979 0.469019979 0.469019979
0.606299996 0.606299996 0.606299996
0.705100060 0.705100060 0.705100060
0.704300046 0.704300046 0.704300046
0.702720046 0.702720046 0.702720046
0.770159960 0.770159960 0.770159960
0.466679990 0.466679990 0.466679990
0.604720116 0.604720116 0.604720116
0.704299986 0.704299986 0.704299986
0.771000028 0.771000028 0.771000028
0.771000028 0.771000028 0.771000028
0.812539995 0.812539995 0.812539995
0.469799966 0.469799966 0.469799966
0.605479956 0.605479956 0.605479956
0.705100060 0.705100060 0.705100060
0.771780014 0.771780014 0.771780014
0.813340008 0.813340008 0.813340008
0.835300028 0.835300028 0.835300028
0.607020020 0.607020020 0.607020020
0.702720046 0.702720046 0.702720046
0.770159960 0.770159960 0.770159960
0.813340008 0.813340008 0.813340008
0.838420033 0.838420033 0.838420033
0.838420033 0.838420033 0.838420033
0.603900015 0.603900015 0.603900015
0.604680002 0.604680002 0.604680002
0.603900015 0.603900015 0.603900015
0.606240034 0.606240034 0.606240034
0.603900015 0.603900015 0.603900015
0.603900015 0.603900015 0.603900015
0.607020020 0.607020020 0.607020020
0.701920033 0.701920033 0.701920033
0.701920033 0.701920033 0.701920033
0.701140046 0.701140046 0.701140046
0.701920033 0.701920033 0.701920033
0.701920033 0.701920033 0.701920033
0.603900015 0.603900015 0.603900015
0.701940060 0.701940060 0.701940060
0.770159960 0.770159960 0.770159960
0.771759987 0.771759987 0.771759987
0.769420028 0.769420028 0.769420028
0.771759987 0.771759987 0.771759987
0.603900015 0.603900015 0.603900015
0.701920033 0.701920033 0.701920033
0.772540033 0.772540033 0.772540033
0.812539995 0.812539995 0.812539995
0.812539995 0.812539995 0.812539995
0.812539995 0.812539995 0.812539995
0.607800007 0.607800007 0.607800007
0.701920033 0.701920033 0.701920033
0.773320019 0.773320019 0.773320019
0.812539995 0.812539995 0.812539995
0.838420033 0.838420033 0.838420033
0.838420033 0.838420033 0.838420033
0.607800007 0.607800007 0.607800007
0.698800027 0.698800027 0.698800027
0.771759987 0.771759987 0.771759987
0.812539995 0.812539995 0.812539995
0.838420033 0.838420033 0.838420033
0.854900002 0.854900002 0.854900002
