example_ofxGpuLutCube/bin/data/LUT/LateSunset.cube
TITLE "16x16x16 Adobe/IRIDAS cube 3D LUT exported with GrossGrade v0.1.027.1 (beta) 64 bit"
DOMAIN_MIN 0 0 0
DOMAIN_MAX 1 1 1
LUT_3D_SIZE 16
0.000000000 0.000000000 0.000000000
0.025500001 0.000000000 0.000000000
0.061713338 0.000000000 0.002080002
0.108340003 0.000000000 0.022680011
0.126046672 0.002080002 0.061426677
0.158200011 0.009100000 0.101900004
0.192200020 0.007019993 0.131740004
0.233940005 0.000000000 0.144786671
0.271593332 0.000000000 0.153159991
0.302760005 0.000000000 0.156800002
0.337266654 0.000000000 0.161999986
0.374960005 0.000000000 0.167606652
0.412479997 0.000000000 0.171900004
0.450180024 0.006760009 0.176080003
0.502593279 0.040839955 0.183879986
0.549000025 0.070600003 0.184400007
0.000000000 0.014320002 0.003140002
0.019006670 0.013800002 0.004446670
0.060373340 0.017180000 0.022666674
0.103940010 0.013540002 0.057800010
0.132286653 0.015880004 0.084460013
0.161580011 0.022620000 0.114580005
0.199500024 0.014039992 0.135680005
0.234460011 0.003380001 0.148739994
0.267953306 0.001040001 0.151080012
0.301459998 0.000780001 0.154199988
0.335186660 0.001300001 0.162273318
0.374440044 0.007286669 0.170540005
0.413000017 0.014820001 0.175820008
0.450446695 0.027580015 0.176599994
0.499473274 0.054106634 0.184399992
0.557060003 0.094259992 0.192200005
0.003640004 0.054653335 0.054433338
0.037060004 0.046853337 0.049493343
0.072460003 0.046853337 0.075580001
0.102900013 0.046073336 0.095373347
0.141686678 0.041913334 0.114333339
0.171980008 0.038460001 0.134873331
0.211820021 0.027339997 0.143739998
0.245033339 0.021100003 0.149779990
0.272633314 0.021620004 0.153939992
0.306139976 0.017460002 0.159920007
0.341686636 0.021620000 0.167866662
0.381720006 0.032353342 0.171100006
0.420813352 0.033353336 0.175820008
0.456766695 0.055393368 0.178159997
0.507539928 0.072673313 0.190119982
0.561766684 0.101060003 0.192200005
0.039860018 0.082300007 0.111480013
0.071180008 0.075280011 0.117200002
0.094580010 0.074240007 0.127080008
0.120060012 0.073720008 0.138000026
0.152646691 0.069300003 0.146660000
0.185700014 0.062526673 0.148479998
0.223520026 0.057260007 0.156060010
0.249486685 0.055440009 0.158139989
0.278399974 0.053360008 0.162299991
0.314460009 0.053360011 0.163859993
0.348746657 0.057260007 0.170779988
0.385099977 0.066153347 0.171346664
0.426640004 0.071380004 0.175799996
0.471080035 0.090680033 0.186740011
0.517939925 0.101339996 0.186220005
0.571060002 0.125500008 0.192980006
0.096420005 0.104220010 0.152120009
0.109640002 0.100320004 0.148220003
0.119273342 0.100320004 0.152120009
0.147166669 0.094600007 0.153160006
0.172220007 0.092519999 0.158880010
0.200260013 0.090700008 0.157373324
0.229006678 0.091740005 0.162626684
0.260926634 0.089920007 0.169766665
0.293300003 0.088880010 0.170806661
0.320179969 0.090440005 0.170806661
0.360046625 0.093560003 0.173966646
0.399713337 0.100580014 0.179719999
0.441606671 0.104740009 0.182840019
0.485226721 0.124186695 0.188299999
0.534346581 0.141959995 0.192980006
0.586740017 0.152646676 0.195060000
0.125533342 0.130733341 0.164700001
0.139833331 0.128133342 0.163399994
0.146633327 0.128133342 0.162880003
0.170940012 0.128133342 0.168080002
0.192460030 0.126026675 0.168600008
0.217000008 0.122933343 0.171200007
0.246440023 0.124493346 0.171599999
0.273200005 0.126313344 0.175300002
0.304040015 0.125013337 0.176080003
0.340093315 0.128393337 0.180500001
0.371266633 0.128133342 0.181800008
0.418559998 0.139899999 0.186480001
0.459600002 0.149553359 0.194020018
0.505440056 0.158446670 0.194800004
0.556373298 0.178859964 0.195840001
0.617000043 0.198700011 0.197400004
0.161600024 0.161600024 0.175820008
0.172000021 0.161340013 0.178159997
0.175380021 0.160560012 0.178159997
0.202340022 0.161600024 0.177380010
0.218540013 0.161600024 0.181280002
0.238373354 0.158160031 0.182580009
0.265080035 0.163160026 0.187519997
0.296719998 0.159260020 0.181539997
0.322280020 0.162380025 0.185180008
0.360000014 0.165500015 0.186739996
0.396520019 0.172780022 0.192460001
0.441600055 0.181166694 0.195320010
0.485520005 0.190620020 0.198440000
0.532520056 0.205580056 0.200000003
0.591133356 0.224859998 0.199479997
0.655719995 0.249300033 0.206239998
0.195060000 0.195060000 0.184139997
0.201559991 0.196879998 0.185440004
0.209400013 0.195319980 0.182839990
0.227460012 0.197919995 0.184139997
0.246206656 0.196879998 0.190380007
0.269086659 0.198180005 0.193240002
0.297780007 0.202340007 0.195840001
0.323566645 0.202600002 0.194020003
0.354813337 0.201040000 0.192200005
0.392340004 0.210800007 0.197659999
0.430086672 0.217560008 0.200259998
0.474533349 0.227700025 0.204420000
0.518466651 0.236066669 0.201820001
0.567326725 0.254646689 0.200000003
0.633446574 0.279313266 0.205459997
0.691020012 0.302460015 0.205719993
0.234739989 0.236873314 0.196619987
0.243113309 0.238693312 0.198439986
0.249093324 0.238693312 0.194800004
0.264573336 0.239713311 0.195059985
0.287059993 0.238666669 0.194539994
0.308233321 0.242073312 0.200259984
0.336073339 0.244673327 0.200519994
0.368873328 0.250133306 0.203639999
0.398979992 0.254813313 0.200259984
0.432713330 0.255613327 0.204939991
0.474006653 0.265613317 0.206499994
0.519493341 0.279033303 0.208580002
0.562399983 0.294660002 0.207540005
0.622793376 0.315273345 0.202599987
0.687633216 0.335673273 0.196879983
0.747553349 0.358993322 0.178520024
0.292580009 0.291840017 0.206239998
0.301980019 0.291840017 0.208580002
0.306153357 0.291840017 0.208060011
0.319200009 0.292620003 0.206239998
0.338520020 0.293619990 0.204160005
0.363960028 0.296779990 0.207279995
0.387400031 0.298860013 0.207800001
0.419686675 0.303280026 0.207020015
0.453539997 0.315813333 0.210140005
0.495700002 0.322320014 0.206239998
0.532919943 0.329860002 0.211440012
0.578013361 0.346459985 0.210140005
0.631379962 0.361620009 0.198440000
0.694646716 0.388166696 0.178499982
0.760819972 0.408379972 0.149320021
0.825139999 0.437680036 0.117559977
0.367366642 0.355666637 0.212999985
0.370486677 0.355666637 0.214300007
0.376726627 0.355666637 0.213780016
0.395019978 0.358006626 0.211180001
0.413879961 0.363726646 0.212999985
0.432733327 0.364766628 0.215600014
0.459026635 0.366326630 0.212479979
0.487766623 0.374126613 0.213520005
0.524673223 0.383226663 0.214300007
0.565686584 0.396519929 0.204940006
0.606566548 0.401199967 0.189600021
0.672226608 0.427486628 0.167300045
0.711866617 0.442126632 0.151633352
0.777206719 0.468126655 0.123033337
0.828513265 0.487646610 0.090206742
0.894166648 0.522866666 0.091400005
0.449693352 0.428300023 0.209879994
0.467113346 0.439286679 0.209879994
0.472873360 0.434020013 0.209879994
0.486313373 0.435600013 0.206499979
0.510313332 0.441893369 0.201299995
0.523866713 0.441633373 0.197399989
0.551613331 0.448913336 0.189080000
0.583433330 0.454373360 0.177499995
0.622206628 0.468933344 0.160726666
0.665393412 0.482113332 0.145886660
0.706139982 0.497233331 0.121246673
0.752466738 0.510753393 0.108486660
0.806099951 0.528613389 0.089159995
0.857973456 0.560553372 0.113239966
0.900153220 0.590253353 0.132773340
0.954060018 0.620939970 0.173553348
0.570999980 0.519179940 0.129480004
0.576979935 0.525966704 0.140399992
0.594153345 0.531219959 0.122680001
0.607060015 0.535640001 0.119880006
0.619139969 0.535919964 0.116500005
0.636853337 0.539819956 0.109219998
0.660319984 0.546660006 0.101159982
0.686520040 0.555366695 0.093099996
0.723593235 0.564239979 0.095899999
0.758459985 0.577240050 0.097959980
0.801286638 0.600180030 0.116619989
0.837160051 0.624320030 0.141113296
0.880120039 0.644699991 0.167099997
0.920226753 0.671259999 0.208440036
0.950519919 0.699099898 0.253813267
0.993739963 0.728619993 0.307420015
0.698106766 0.642673492 0.116660006
0.694986820 0.639993489 0.114579983
0.701746762 0.644246817 0.104699999
0.711120069 0.645286798 0.116100021
0.718946755 0.645806849 0.110380024
0.734840035 0.652566791 0.122340031
0.757386804 0.662966788 0.137460068
0.778326809 0.674433410 0.154546738
0.803326786 0.684486747 0.166106775
0.829260051 0.696286798 0.190026775
0.854926765 0.717606783 0.230333447
0.885380030 0.731720150 0.263993502
0.918420017 0.761133432 0.310006768
0.949506700 0.779366791 0.348113537
0.979673266 0.804866791 0.394960076
1.000000000 0.834020078 0.448913455
0.757573247 0.757553160 0.234833151
0.757846594 0.758346558 0.236139849
0.765573263 0.771873176 0.255726427
0.770853281 0.768753171 0.257026464
0.782293320 0.770833135 0.262486458
0.795813262 0.777593136 0.278606445
0.803879976 0.785393178 0.289646506
0.822239876 0.793973207 0.312173128
0.845833302 0.805153191 0.335386455
0.863553286 0.818753123 0.359526426
0.887233317 0.836859822 0.392906398
0.910599947 0.852326512 0.428513169
0.938300014 0.867693305 0.458553135
0.964506686 0.888773143 0.496026516
0.997119963 0.902313292 0.526233137
1.000000000 0.923913300 0.569273174
0.780499995 0.886200011 0.419499993
0.777119994 0.882300019 0.415600002
0.785440028 0.883340001 0.418240011
0.793760002 0.889320016 0.435400009
0.802079976 0.888279974 0.439560026
0.811699986 0.895299971 0.453633338
0.827419996 0.902700007 0.462020010
0.846579969 0.909900010 0.473980010
0.861193359 0.916140020 0.497020006
0.880740047 0.928620040 0.523939967
0.905900002 0.938499987 0.541166663
0.925240040 0.946893334 0.556540012
0.954439938 0.955240011 0.573419988
0.977859974 0.967113316 0.586740017
0.998699963 0.976073325 0.617419899
1.000000000 0.992200017 0.639299989
0.000000000 0.000000000 0.021860002
0.025500003 0.000000000 0.021860002
0.063580006 0.000000000 0.021106672
0.103160016 0.000000000 0.051540013
0.130460009 0.002600002 0.086280011
0.156380013 0.010399999 0.115106672
0.194280013 0.004679996 0.147920012
0.231859982 0.000000000 0.163839996
0.263793319 0.000000000 0.167833313
0.295479983 0.000000000 0.169746652
0.335439980 0.000000000 0.175266653
0.366900057 0.000000000 0.180760011
0.409880012 0.000000000 0.184660017
0.449920028 0.007020008 0.188820004
0.498953283 0.037459955 0.193240017
0.549000025 0.070600003 0.200519994
0.000000000 0.021340001 0.034960002
0.022646669 0.010160002 0.029166671
0.059853334 0.010420002 0.050773341
0.100040011 0.014320003 0.078166679
0.132546648 0.018220002 0.102686681
0.162619993 0.020560000 0.135693341
0.195320025 0.015599995 0.153960004
0.232119992 0.005200001 0.163400009
0.266133338 0.001040001 0.168353349
0.299899995 0.001300002 0.173100010
0.332526654 0.001300001 0.177899987
0.373113364 0.001300001 0.180760011
0.412740022 0.016386669 0.187780008
0.450966686 0.015359994 0.189339995
0.495573282 0.053066611 0.193240002
0.557060003 0.079700001 0.197399989
0.003640004 0.054393332 0.072206669
0.022413338 0.047373340 0.073246665
0.074520007 0.046853337 0.095353343
0.104980022 0.046073336 0.111753345
0.135420009 0.042693339 0.131786674
0.171719998 0.042120002 0.156039998
0.205773354 0.029739995 0.166720003
0.244440004 0.021360001 0.169680014
0.273979932 0.023440003 0.174000010
0.305359989 0.019020002 0.176339999
0.339086622 0.021359999 0.182580024
0.380160004 0.025533339 0.185700014
0.420813352 0.034180004 0.191159993
0.459886700 0.046306685 0.190899983
0.504679859 0.068773307 0.199999988
0.565413356 0.108340003 0.208060011
0.037780013 0.078920014 0.127880007
0.065940015 0.078920014 0.131520003
0.087300010 0.074760012 0.138293341
0.113560013 0.073980004 0.150866672
0.151600018 0.070080005 0.161280006
0.182253361 0.062266678 0.165180013
0.217800006 0.057780012 0.169140011
0.250266671 0.057260007 0.175300002
0.280259967 0.055440009 0.175040007
0.311860025 0.052840009 0.177120000
0.344806612 0.055440001 0.181280002
0.382499993 0.065373339 0.185440019
0.425080031 0.073980004 0.191940010
0.473160028 0.083400011 0.199220002
0.518199921 0.100819990 0.201560006
0.572620034 0.127860010 0.201560006
0.090960003 0.104480006 0.168060020
0.099280015 0.103440002 0.167800024
0.119533345 0.100840002 0.171846658
0.141706675 0.097200006 0.168839991
0.171959996 0.092780001 0.171846658
0.197920024 0.094080009 0.176340014
0.228980020 0.091220006 0.179199994
0.258846641 0.092780009 0.177379996
0.293120027 0.089920007 0.182840005
0.322666675 0.090960011 0.183620006
0.356326640 0.094339997 0.185960010
0.397840023 0.098760001 0.189339995
0.439240009 0.103960000 0.193500012
0.481526732 0.115086682 0.198180005
0.535386562 0.141719967 0.204419985
0.591939986 0.161820024 0.205459982
0.126566678 0.130993351 0.177380010
0.132293329 0.128393352 0.178680018
0.147673339 0.130993322 0.179719999
0.168080032 0.128653347 0.181539997
0.195320010 0.127093345 0.181280002
0.218300000 0.121893339 0.181539997
0.243313327 0.127613336 0.184140012
0.270286649 0.124233335 0.187260017
0.303780019 0.124493331 0.186220005
0.340640008 0.128913343 0.188820004
0.372859985 0.133593351 0.192980006
0.410500020 0.137766674 0.195840001
0.454093367 0.145133361 0.198700011
0.502406716 0.157926694 0.204679996
0.554766595 0.181519985 0.204679996
0.613033295 0.199486688 0.208839998
0.157960027 0.162900016 0.188560009
0.166020006 0.161860034 0.191939995
0.176159993 0.161340043 0.185960010
0.195060015 0.163160011 0.190640002
0.215940014 0.162640020 0.191679999
0.240453348 0.160560012 0.191939995
0.266120017 0.159520030 0.190899998
0.293079972 0.161860019 0.192719996
0.325139999 0.162120014 0.195840001
0.359740019 0.166800007 0.197660014
0.396520019 0.173040032 0.198700011
0.439260036 0.180060044 0.200000003
0.483700037 0.189540014 0.206500024
0.533560097 0.205060035 0.208320007
0.584579945 0.224859998 0.208060011
0.646759987 0.240200028 0.209879994
0.192980006 0.198960006 0.196359992
0.200780004 0.196879998 0.197140008
0.212519988 0.197399989 0.196620002
0.225619987 0.195060000 0.196620002
0.244366661 0.197140008 0.197659999
0.267426670 0.200519994 0.198440000
0.294640034 0.201040015 0.201299995
0.321486652 0.200519994 0.199740008
0.353513300 0.202859983 0.202339992
0.390260011 0.212879986 0.204939991
0.429826677 0.220419973 0.209619999
0.474273354 0.227700025 0.207019985
0.521586716 0.238926679 0.211960003
0.569926739 0.255166680 0.210919991
0.627166569 0.277493298 0.210920021
0.697780013 0.299860001 0.209099993
0.234739989 0.238693312 0.206759989
0.242853343 0.240513325 0.202860013
0.249873325 0.238693312 0.206500009
0.265133351 0.241033316 0.206239998
0.283453315 0.238953337 0.205199987
0.306120008 0.243633330 0.207540020
0.334100008 0.244933322 0.204160020
0.363673300 0.246753305 0.209366664
0.398719996 0.254813313 0.210660011
0.432453334 0.259253293 0.208839998
0.475566626 0.271873325 0.213519990
0.521313310 0.283973336 0.217419982
0.565779924 0.293879986 0.217420012
0.621180058 0.313713312 0.211179987
0.686813235 0.337633282 0.198699996
0.758733273 0.364713311 0.183480024
0.294400007 0.293920010 0.216380000
0.300420016 0.293400019 0.212999985
0.304326683 0.291580021 0.214300007
0.319720030 0.291840017 0.214819998
0.342019975 0.294699997 0.213259995
0.363180012 0.296780020 0.213259995
0.384500027 0.299899995 0.214819998
0.420726687 0.305100024 0.213259995
0.450159997 0.312646687 0.217166647
0.495699972 0.324660003 0.214559987
0.534199953 0.331420034 0.215600014
0.580353379 0.349580020 0.217166662
0.632939994 0.362660021 0.208320007
0.691760063 0.386086673 0.182419971
0.759773195 0.406019986 0.164460018
0.822539985 0.437159985 0.128399998
0.366326600 0.359306633 0.222360015
0.372826666 0.355926633 0.221059978
0.378806591 0.355926633 0.218719989
0.396839976 0.359306604 0.218719989
0.415439963 0.361126631 0.219239995
0.431693316 0.363726646 0.220286667
0.454626650 0.367886633 0.218986675
0.483346641 0.372566611 0.218719989
0.523633301 0.382186621 0.218986675
0.564126611 0.394926667 0.214299977
0.619633257 0.410499930 0.190120012
0.656426668 0.419879973 0.181100026
0.711866617 0.442126632 0.155020058
0.773566723 0.465526670 0.132593304
0.839239895 0.490713239 0.112873398
0.898846686 0.528326571 0.112759985
0.453853309 0.429600030 0.221599996
0.460093349 0.431686670 0.220799983
0.476953328 0.436946660 0.216639996
0.492033362 0.440073371 0.209879994
0.509020030 0.439553380 0.202859983
0.523866713 0.441633373 0.202599972
0.552653372 0.448913336 0.192979991
0.580313325 0.456193328 0.180900007
0.618046701 0.466593325 0.168840006
0.660193384 0.481333315 0.147979975
0.705619931 0.497233331 0.134706676
0.760033429 0.513693392 0.111086652
0.807080030 0.531973362 0.113359958
0.857453465 0.560293376 0.127059996
0.906673253 0.594413221 0.149839997
0.962173402 0.634266675 0.197033346
0.573339939 0.523086667 0.145080000
0.574899971 0.524386644 0.144299984
0.594993353 0.531760037 0.145339996
0.610180020 0.537220001 0.133379996
0.620186627 0.534879982 0.128959998
0.633733332 0.535659969 0.124279991
0.663820028 0.548000038 0.119499981
0.699100018 0.564499974 0.108719997
0.726726592 0.568659961 0.103720009
0.763920009 0.580619931 0.110119961
0.798886716 0.594200015 0.124726661
0.836893380 0.615739942 0.141193300
0.883760035 0.644700050 0.178020000
0.915026784 0.669180095 0.219360039
0.951039851 0.699879885 0.267119944
0.994540036 0.732020020 0.318866670
0.694466829 0.639993489 0.116399989
0.691606760 0.630366743 0.105999984
0.699146748 0.641313493 0.121079989
0.714240074 0.646060109 0.124980018
0.722333431 0.651266813 0.128620028
0.734060049 0.653346777 0.125766680
0.756086707 0.657506764 0.137773365
0.775246739 0.671066761 0.155846715
0.804886699 0.686826766 0.185866758
0.834460020 0.697846770 0.208300114
0.862726748 0.718646824 0.238713458
0.888966739 0.738740146 0.277993470
0.915840030 0.757493436 0.317126811
0.949766755 0.782746851 0.360333562
0.979153275 0.811366737 0.414200097
1.000000000 0.834020078 0.456713498
0.760693192 0.753906488 0.241853163
0.760173261 0.766906500 0.252086461
0.762033224 0.771606505 0.257026464
0.771373272 0.768493176 0.255466491
0.779693246 0.766673207 0.261966497
0.790093303 0.771353126 0.276026458
0.807519913 0.780973136 0.294586509
0.823526561 0.798653185 0.324959815
0.843446553 0.807753146 0.346359789
0.864819944 0.816113174 0.370186478
0.886193275 0.833193243 0.397079796
0.912940025 0.854146481 0.432159811
0.935899973 0.869253218 0.466633171
0.970300078 0.885673225 0.497853160
0.997119963 0.902573228 0.534906447
1.000000000 0.919753253 0.565353274
0.780759990 0.885680020 0.420020014
0.788559973 0.883080006 0.421340019
0.788559973 0.882820010 0.421339989
0.790639997 0.883340001 0.423460007
0.803380013 0.889899969 0.442706674
0.814300001 0.902100027 0.464100003
0.822886705 0.903659999 0.470340014
0.840180039 0.911459982 0.485959977
0.861713350 0.919779956 0.504299998
0.882820010 0.932780027 0.532313347
0.906940043 0.946366668 0.554719985
0.928619981 0.951599956 0.563060045
0.955219984 0.959140003 0.580439985
0.977599978 0.970833302 0.598180056
0.998699963 0.972959995 0.607800007
1.000000000 0.992200017 0.639819980
0.000000000 0.000000000 0.059593339
0.015626669 0.000000000 0.073459998
0.059593339 0.000000000 0.061193336
0.095880009 0.000000000 0.079740018
0.126800016 0.002080002 0.108913340
0.151633337 0.005720001 0.139613330
0.187780038 0.004679996 0.169400021
0.228220001 0.000000000 0.185959995
0.262753338 0.000000000 0.187520012
0.295480013 0.000000000 0.188040003
0.329400003 0.000000000 0.194279999
0.369993329 0.000000000 0.201560006
0.408060014 0.000000000 0.202600002
0.446280032 0.010660012 0.205980003
0.498133272 0.041099958 0.213259995
0.549520016 0.069040000 0.210400000
0.000000000 0.017960001 0.072440006
0.005486672 0.016919998 0.079980001
0.056473337 0.010160002 0.082606681
0.095360011 0.011980006 0.104486682
0.127340004 0.021080002 0.132046685
0.155593321 0.021066669 0.154733360
0.193240017 0.017159989 0.176800013
0.232120022 0.003380001 0.184400007
0.263793349 0.001040001 0.187780008
0.298860013 0.001300001 0.195059985
0.334399998 0.003639999 0.200780004
0.371319979 0.009620001 0.202859998
0.408840001 0.019259999 0.203379989
0.453386694 0.021860003 0.205460012
0.495579958 0.057053275 0.213526666
0.549780011 0.073200010 0.211206675
0.003640004 0.050753336 0.097200014
0.031246670 0.047113340 0.105013341
0.069819994 0.046853337 0.120873339
0.096400008 0.046853337 0.139860004
0.130986661 0.044760004 0.156620011
0.163660020 0.043200001 0.180760011
0.203380018 0.033759996 0.188559994
0.238880008 0.022400003 0.188040003
0.270293355 0.019800005 0.191679999
0.304580003 0.021100003 0.196620002
0.338566631 0.024753338 0.199739993
0.378340006 0.025273340 0.202079996
0.416900009 0.034700006 0.206240013
0.461446702 0.052026693 0.207553327
0.504419863 0.072933301 0.213259995
0.562300026 0.100540005 0.217693344
0.035700012 0.082040004 0.158160001
0.051820014 0.078400008 0.151840001
0.082620010 0.078400008 0.168559983
0.109160028 0.073980011 0.171680033
0.144306675 0.070340000 0.178940013
0.175360009 0.064866669 0.186220005
0.213600025 0.060120013 0.194540009
0.246000007 0.055700008 0.193499997
0.274239957 0.054920007 0.195320010
0.307179987 0.054400008 0.197919995
0.342986643 0.057780009 0.201560006
0.381460011 0.069013342 0.206773341
0.425080031 0.075280011 0.205200016
0.470560044 0.084960006 0.210700020
0.518459916 0.100299992 0.214860022
0.575820029 0.131500006 0.221360013
0.082900010 0.101360001 0.183360010
0.091740005 0.101360008 0.185440019
0.111993343 0.100840002 0.188040003
0.139886677 0.097199999 0.191939995
0.167280018 0.096939996 0.190119997
0.197400004 0.093040004 0.193500012
0.223520041 0.088360012 0.194020018
0.255986661 0.090700008 0.196100011
0.286799997 0.091220006 0.198700011
0.316033363 0.093040004 0.200000003
0.355286688 0.095120005 0.204680011
0.397580028 0.101360001 0.209893346
0.437940031 0.107600011 0.212480024
0.483626723 0.120546699 0.214313343
0.535906613 0.140893325 0.218500003
0.590899944 0.160779998 0.218240008
0.117180012 0.134633332 0.197140008
0.124753334 0.130733341 0.193499997
0.143253356 0.132033333 0.194280013
0.164440021 0.128133342 0.197660014
0.188040003 0.125013337 0.197140023
0.216219991 0.125533342 0.198700011
0.243053362 0.124753334 0.202080011
0.271846682 0.124753334 0.203380004
0.305080026 0.126833335 0.204693332
0.338040024 0.129433334 0.205980003
0.375199974 0.133333340 0.208333343
0.415180027 0.140420020 0.211453348
0.455653340 0.148773342 0.213780031
0.503606737 0.160526678 0.215640023
0.558453262 0.180939972 0.220320001
0.608900011 0.197433338 0.220840007
0.156340048 0.164980009 0.203380004
0.159520030 0.161860004 0.201300010
0.172000021 0.164980024 0.204160005
0.193240032 0.161080033 0.203640014
0.209440023 0.162120029 0.207020000
0.234473348 0.159520015 0.204420000
0.267420024 0.163160026 0.208059996
0.293340057 0.161860034 0.207020029
0.323060006 0.161860019 0.208580002
0.361039996 0.167060018 0.212233350
0.397560000 0.174340010 0.211713344
0.442380041 0.183766693 0.215613350
0.484219998 0.191660017 0.218240008
0.531740069 0.205033377 0.220320001
0.585673332 0.227460012 0.220840007
0.645980000 0.248060018 0.223413318
0.194540009 0.197399989 0.210400000
0.196099982 0.197139978 0.207800001
0.206513330 0.198960006 0.208580002
0.222499982 0.197139993 0.209100008
0.240206674 0.197140008 0.210140005
0.263266683 0.199479997 0.213000000
0.293080062 0.200000003 0.211453333
0.323566645 0.202600002 0.212233335
0.356373340 0.206773326 0.215353340
0.387140036 0.209759995 0.216419995
0.427486658 0.219379991 0.220059991
0.473753363 0.229259998 0.220059991
0.521066666 0.236846685 0.222659990
0.574086666 0.256206691 0.224480003
0.628493249 0.278013289 0.226819992
0.693620026 0.302459985 0.221073329
0.234219983 0.238693312 0.215613335
0.235533342 0.238426641 0.212226674
0.246233329 0.239213318 0.216419995
0.265353322 0.241033331 0.216133326
0.279993325 0.238433316 0.218499988
0.303779960 0.243113324 0.219799995
0.334359974 0.243893310 0.221880004
0.367053300 0.250393301 0.224773318
0.396899968 0.254813313 0.220059991
0.432713330 0.258213282 0.222660005
0.474526614 0.272013307 0.224220008
0.517153323 0.281113297 0.225779995
0.566819966 0.294660002 0.227860004
0.624313354 0.314233303 0.226559997
0.687633216 0.333633274 0.216640025
0.756393313 0.364713311 0.196620017
0.291280001 0.291840017 0.222660020
0.295440048 0.290020019 0.219280005
0.302500010 0.291840017 0.222399995
0.321240038 0.290799975 0.220580012
0.338000000 0.293920010 0.226300001
0.360060036 0.296779990 0.226820007
