example_ofxGpuLutCube/bin/data/LUT/LateSunset.cube
TITLE "16x16x16 Adobe/IRIDAS cube 3D LUT exported with GrossGrade v0.1.027.1 (beta) 64 bit"
DOMAIN_MIN 0 0 0
DOMAIN_MAX 1 1 1
LUT_3D_SIZE 6
0.000000000 0.000000000 0.000000000
0.108340003 0.000000000 0.022680011
0.192200020 0.007019993 0.131740004
0.302760005 0.000000000 0.156800002
0.412479997 0.000000000 0.171900004
0.549000025 0.070600003 0.184400007
0.039860018 0.082300007 0.111480013
0.120060012 0.073720008 0.138000026
0.223520026 0.057260007 0.156060010
0.314460009 0.053360011 0.163859993
0.426640004 0.071380004 0.175799996
0.571060002 0.125500008 0.192980006
0.161600024 0.161600024 0.175820008
0.202340022 0.161600024 0.177380010
0.265080035 0.163160026 0.187519997
0.360000014 0.165500015 0.186739996
0.485520005 0.190620020 0.198440000
0.655719995 0.249300033 0.206239998
0.292580009 0.291840017 0.206239998
0.319200009 0.292620003 0.206239998
0.387400031 0.298860013 0.207800001
0.495700002 0.322320014 0.206239998
0.631379962 0.361620009 0.198440000
0.825139999 0.437680036 0.117559977
0.570999980 0.519179940 0.129480004
0.607060015 0.535640001 0.119880006
0.660319984 0.546660006 0.101159982
0.758459985 0.577240050 0.097959980
0.880120039 0.644699991 0.167099997
0.993739963 0.728619993 0.307420015
0.780499995 0.886200011 0.419499993
0.793760002 0.889320016 0.435400009
0.827419996 0.902700007 0.462020010
0.880740047 0.928620040 0.523939967
0.954439938 0.955240011 0.573419988
1.000000000 0.992200017 0.639299989
0.002340003 0.000000000 0.094840005
0.094840005 0.000780001 0.113040015
0.185180023 0.007019993 0.196100011
0.292620003 0.000000000 0.214060009
0.405460000 0.000000000 0.224240005
0.552120030 0.059680000 0.232040003
0.035180010 0.078400008 0.178860009
0.101100013 0.073720008 0.200020015
0.210940033 0.060380004 0.220339999
0.306660026 0.053360015 0.219560012
0.421900004 0.076840006 0.231260017
0.576600075 0.123960011 0.234460011
0.153740034 0.166280016 0.227360010
0.186740026 0.163940012 0.223460004
0.268980026 0.163160026 0.228140011
0.359999985 0.169400021 0.232100010
0.486300021 0.193740025 0.235240012
0.652599990 0.248580024 0.243959993
0.292580009 0.291840017 0.240780026
0.315260023 0.294959992 0.241659999
0.385080069 0.299640000 0.239300013
0.491020024 0.323880017 0.243980020
0.630600035 0.363959998 0.232160017
0.822799981 0.435339987 0.163899988
0.572559953 0.523880005 0.176480010
0.606999993 0.535660028 0.167800009
0.663560033 0.548260033 0.151340008
0.766260028 0.583480000 0.155319974
0.880060017 0.644720078 0.205440015
0.988240004 0.728619993 0.342799991
0.775820017 0.886200011 0.438520014
0.796100020 0.889379978 0.464359999
0.828199983 0.901140034 0.490999997
0.882300019 0.934860051 0.545840025
0.954439998 0.959919989 0.595320046
1.000000000 0.988300025 0.658039987
0.061239995 0.000000000 0.178760022
0.086980000 0.010920004 0.220400020
0.179540038 0.007019994 0.281520009
0.291060001 0.000000000 0.289440006
0.407779992 0.007800001 0.293340027
0.554459989 0.079179995 0.305040002
0.018800016 0.076840006 0.272940010
0.089380026 0.072160006 0.278400004
0.202340022 0.058040012 0.283200026
0.301980019 0.057260007 0.289440006
0.419560015 0.080020010 0.300359994
0.576600015 0.134880006 0.304259986
0.152960017 0.165500015 0.291000038
0.181100026 0.161600024 0.287040025
0.256380051 0.164720029 0.295679986
0.352980018 0.174080029 0.299580038
0.487080038 0.199220017 0.306600034
0.652599990 0.252600044 0.308940023
0.299640000 0.296520025 0.305040002
0.323860019 0.294959992 0.301919997
0.388180047 0.305880010 0.306600004
0.495700002 0.323100001 0.305819988
0.643859982 0.371760011 0.294840068
0.840800047 0.449380010 0.240800008
0.599139988 0.537999988 0.241540000
0.612600029 0.538779974 0.236860007
0.673759997 0.556180000 0.229840025
0.770160019 0.588939905 0.240840003
0.877539992 0.647060037 0.290920049
0.989859998 0.739539981 0.422820032
0.782059968 0.888540030 0.516139984
0.789080024 0.902100027 0.534119964
0.819540024 0.914579988 0.560819983
0.879180014 0.938020051 0.607060015
0.948980033 0.962260008 0.654160023
1.000000000 0.990640044 0.713799953
0.018839994 0.014820003 0.298860013
0.058860011 0.020279998 0.331019998
0.175640032 0.003119998 0.354420006
0.285420001 0.000000000 0.357660025
0.404680014 0.010140006 0.361599982
0.558359981 0.094780006 0.376480013
0.036860015 0.071380004 0.353639990
0.101100020 0.065140009 0.351339996
0.197660029 0.062740006 0.356020033
0.301200002 0.063540012 0.360859960
0.425940007 0.087820008 0.367900044
0.586739957 0.143500015 0.374920011
0.154520035 0.163940027 0.362419993
0.189840034 0.163160026 0.360040009
0.255600035 0.167840034 0.367100000
0.363180012 0.177200019 0.372579992
0.496439993 0.202380016 0.370240033
0.669780016 0.268200010 0.383619994
0.316080004 0.295740008 0.371019989
0.338839978 0.298079997 0.368680000
0.407020003 0.312120020 0.371019989
0.505120039 0.330900013 0.374920011
0.658859968 0.376439989 0.365420014
0.854060054 0.452500015 0.316139996
0.621959984 0.541900039 0.318439990
0.640039980 0.547419965 0.313740015
0.698060036 0.564759970 0.310620010
0.788160086 0.598360002 0.327899963
0.895719945 0.667340040 0.396920025
0.993760049 0.752220035 0.512160003
0.780499995 0.897239983 0.603900015
0.795320034 0.902880013 0.615619957
0.824220061 0.916139960 0.637660086
0.872160077 0.939540029 0.679180026
0.943520010 0.964639962 0.732580066
1.000000000 0.990640044 0.792860031
0.018719997 0.009360000 0.424260020
0.088600010 0.002339999 0.421079993
0.184360012 0.001560001 0.424219996
0.291839987 0.004679999 0.432159990
0.420360029 0.028160002 0.433779985
0.581260026 0.102880001 0.448599994
0.073720008 0.065920010 0.427379996
0.123960003 0.065140009 0.429100007
0.210200042 0.066700011 0.432999969
0.312900037 0.072940007 0.433779985
0.440040052 0.100300014 0.441580027
0.599219978 0.156859994 0.450179994
0.176500008 0.163160026 0.433779985
0.207860023 0.167060032 0.434559971
0.277680069 0.170180023 0.439239979
0.378020048 0.185880035 0.440019995
0.520020127 0.214940041 0.447820008
0.693340063 0.278460056 0.450219989
0.342780024 0.304320037 0.447819978
0.375660002 0.310559988 0.447040021
0.438440055 0.320740044 0.446259975
0.534180045 0.345960021 0.456540018
0.685519993 0.387380004 0.430559993
0.885560036 0.476080030 0.396879971
0.661880016 0.556180000 0.387519985
0.677779973 0.553839982 0.382840008
0.733380079 0.577239990 0.389079988
0.812580109 0.612580061 0.413240016
0.907480001 0.684780061 0.495719939
0.996880054 0.767880023 0.631439984
0.791420043 0.909900010 0.706719995
0.803120017 0.909120023 0.702820003
0.826640010 0.926280022 0.739580035
0.876060009 0.949000001 0.775759995
0.941959977 0.971080065 0.819500089
1.000000000 0.995320022 0.888540030
0.090099998 0.000000000 0.490099996
0.133320004 0.000780001 0.498740017
0.215600014 0.003120004 0.501139998
0.312900007 0.021900006 0.502099991
0.435340017 0.050180003 0.509119987
0.603900015 0.129400000 0.521600008
0.127059996 0.068260007 0.498740017
0.161540002 0.068259999 0.500479996
0.232900009 0.069040008 0.502879977
0.330239981 0.082360007 0.505219996
0.461939991 0.111400008 0.516140044
0.634400070 0.172460005 0.518480003
0.215720028 0.167060018 0.507559955
0.242280036 0.170960039 0.508339942
0.306640029 0.176420018 0.511459947
0.406240046 0.193760023 0.512239993
0.541980028 0.226680025 0.516920030
0.734120011 0.299580038 0.521600008
0.400660008 0.316799998 0.521600008
0.416580021 0.319160014 0.518480003
0.473680049 0.334800005 0.523160040
0.584300041 0.361620009 0.516920030
0.741980016 0.417280018 0.488659978
0.925440013 0.496480018 0.481519997
0.716840029 0.572559953 0.471379995
0.724659979 0.569439948 0.472159982
0.778860033 0.601479948 0.486200005
0.850220025 0.640020013 0.525500000
0.919200063 0.708979964 0.604600072
1.000000000 0.792119980 0.741099954
0.807799995 0.921599984 0.803900003
0.816379964 0.930960000 0.818740010
0.840860009 0.941100001 0.840080023
0.888540030 0.957579970 0.869780064
0.945080042 0.978940010 0.904380023
1.000000000 1.000000000 0.984399974
