example_ofxGpuLutCube/bin/data/LUT/Lord Kelvin.cube
TITLE "16x16x16 Adobe/IRIDAS cube 3D LUT exported with GrossGrade v0.1.027.1 (beta) 64 bit"
DOMAIN_MIN 0 0 0
DOMAIN_MAX 1 1 1
LUT_3D_SIZE 6
0.156900004 0.090200000 0.305900007
0.502740085 0.093319997 0.303559989
0.755320013 0.087860003 0.307460010
0.889419973 0.090200000 0.307460010
0.948220015 0.090200000 0.305900007
0.980400026 0.094099998 0.305900007
0.160019994 0.296480030 0.305119991
0.505080044 0.295680016 0.305120021
0.749820054 0.296480030 0.306680024
0.883920014 0.295680016 0.306679994
0.951340020 0.296480030 0.308239996
0.980400026 0.296480030 0.305900007
0.161579996 0.491800040 0.308239996
0.504299998 0.489400059 0.302780002
0.751380086 0.487840027 0.303559989
0.882359982 0.488640010 0.305900007
0.952120006 0.489440024 0.305900007
0.980400026 0.487840027 0.305900007
0.163139999 0.651740015 0.305900007
0.504300058 0.651740015 0.303559989
0.753720045 0.651740015 0.305900007
0.885480046 0.651740015 0.305900007
0.951340020 0.651740015 0.305900007
0.980400026 0.653299987 0.305900007
0.157680005 0.806299984 0.305900007
0.501180053 0.808640003 0.305900007
0.752940059 0.806299984 0.305900007
0.884700060 0.806299984 0.305900007
0.951340020 0.806299984 0.305900007
0.980400026 0.806299984 0.305900007
0.160799995 0.835300028 0.305900007
0.501180053 0.835300028 0.303559989
0.749820054 0.835300028 0.305900007
0.885480046 0.835300028 0.307460010
0.948220015 0.835300028 0.305900007
0.976499975 0.839200020 0.305900007
0.157680005 0.090200000 0.309019983
0.504300058 0.090980001 0.305900007
0.751380026 0.090200000 0.305900007
0.885480046 0.089419998 0.305900007
0.951340020 0.090200000 0.308239996
0.980400026 0.090200000 0.305900007
0.160799995 0.293360054 0.306679994
0.504300058 0.296480030 0.305900037
0.752940059 0.296480030 0.306680024
0.887080014 0.296480030 0.307460010
0.952120006 0.296480030 0.309019983
0.983520031 0.296480030 0.309019983
0.163139999 0.487840027 0.305900007
0.502740026 0.491020024 0.302780002
0.752160072 0.491020024 0.305119991
0.884700060 0.487840027 0.304340005
0.948220015 0.488640010 0.305120021
0.979620039 0.488620043 0.304340005
0.157680005 0.650960028 0.305900007
0.501960039 0.650960028 0.303559989
0.753720045 0.650179982 0.305900007
0.885480046 0.651740015 0.305900007
0.949000001 0.653299987 0.305900007
0.981959999 0.651740015 0.305900007
0.157680005 0.806299984 0.305900007
0.501180053 0.805519998 0.303560019
0.749020040 0.806299984 0.305900007
0.885480046 0.806299984 0.305900007
0.951340020 0.806299984 0.305900007
0.980400026 0.806299984 0.305900007
0.156900004 0.835300028 0.305900007
0.501180053 0.835300028 0.303559989
0.750600040 0.835300028 0.305900007
0.885480046 0.835300028 0.307460010
0.951340020 0.835300028 0.305900007
0.981180012 0.835300028 0.305900007
0.158460006 0.090200000 0.332560003
0.501960039 0.092539996 0.331760019
0.749820054 0.090200000 0.332560003
0.885480046 0.090200000 0.331780016
0.951340020 0.093319997 0.334120005
0.980400026 0.087860003 0.332560003
0.157680005 0.296480030 0.333340019
0.501180053 0.296460032 0.329420000
0.749819994 0.295700014 0.332560003
0.886260033 0.296480030 0.331759989
0.951340020 0.296480030 0.332540005
0.981180072 0.296480030 0.331759989
0.161579996 0.487839997 0.330960006
0.507420063 0.487040013 0.329420030
0.749819994 0.487840027 0.330220014
0.885480046 0.489400059 0.328620017
0.951340020 0.489400059 0.329440027
0.978839993 0.487840027 0.328620017
0.156079993 0.654139996 0.329439998
0.501180053 0.654100001 0.330220014
0.750600100 0.651739955 0.330220014
0.885480046 0.650959969 0.330220014
0.951340020 0.652520001 0.331000030
0.978060007 0.653299987 0.330220014
0.159239992 0.806299984 0.330220014
0.503520012 0.807080030 0.329420030
0.749820054 0.806299984 0.332560003
0.884700060 0.804699957 0.331780016
0.951340020 0.806299984 0.333340019
0.979620039 0.806299984 0.331000000
0.160799995 0.835300028 0.330220014
0.505859971 0.832960010 0.328620017
0.749819994 0.835300028 0.328620017
0.885480046 0.835300028 0.330180019
0.949779987 0.835300028 0.330220014
0.980400026 0.835300028 0.330220014
0.159240007 0.090200000 0.443940014
0.504300058 0.091760002 0.446280003
0.752160013 0.091759995 0.449400008
0.883920014 0.090200000 0.445500016
0.952120006 0.089420006 0.447840005
0.980400026 0.090200000 0.443940014
0.161579996 0.296480030 0.442380011
0.504300058 0.294920027 0.440780014
0.752160072 0.297260016 0.445500016
0.883920014 0.296480030 0.443160027
0.952939987 0.296480030 0.446280032
0.979620039 0.296480030 0.447060019
0.158459991 0.489400059 0.440000027
0.502740026 0.487840056 0.441560030
0.750600040 0.488640040 0.443159997
0.883140028 0.487060040 0.443940014
0.951340020 0.489400059 0.441560030
0.976499975 0.489400059 0.443940014
0.160799995 0.651740015 0.442340016
0.507459998 0.650179982 0.443120003
0.751380026 0.651740015 0.446280003
0.885480046 0.651740015 0.446280003
0.951340020 0.652520001 0.443140030
0.978060007 0.650959969 0.443940014
0.161579996 0.804679990 0.443160027
0.501179993 0.807079971 0.440780014
0.751380026 0.806299984 0.443160027
0.887040079 0.806299984 0.446280003
0.951340020 0.806299984 0.440800011
0.979620039 0.806299984 0.443140000
0.158459991 0.835300028 0.443940014
0.503520072 0.836080015 0.441560030
0.749820054 0.835300028 0.443940014
0.885480046 0.835300028 0.443940014
0.951340020 0.835300028 0.440000027
0.980400026 0.835300028 0.440000027
0.167820007 0.090200000 0.627479970
0.507420063 0.087860003 0.621940017
0.750600040 0.090200000 0.624360025
0.885480046 0.090200000 0.625139952
0.951340020 0.090200000 0.622779965
0.980400026 0.090200000 0.624360025
0.159240007 0.292560041 0.622759938
0.504300058 0.297260016 0.625899971
0.752940059 0.295680016 0.625899971
0.885480046 0.296480030 0.625139952
0.952120006 0.295700043 0.625899971
0.980400026 0.295700043 0.623559952
0.159239992 0.486280024 0.619579971
0.505860031 0.487840056 0.621160030
0.749819994 0.487839997 0.621959984
0.883140087 0.490200073 0.622779965
0.952120006 0.490240008 0.623559952
0.981959999 0.489400059 0.621959984
0.156099990 0.653299987 0.622779965
0.500400066 0.651740015 0.621160030
0.752160072 0.649399996 0.623559952
0.884700060 0.651740015 0.623560011
0.951340020 0.651740015 0.622779965
0.980400026 0.651740015 0.623560011
0.158459991 0.806299984 0.622779965
0.501960039 0.805519998 0.623560011
0.749820054 0.806299984 0.624360025
0.885480046 0.806299984 0.624360085
0.951340020 0.806299984 0.623559952
0.980400026 0.806299984 0.627480090
0.157680005 0.837640047 0.623559952
0.503540039 0.835300028 0.621940017
0.750600040 0.835300028 0.622779965
0.884700060 0.835300028 0.623559952
0.951340020 0.835300028 0.622779965
0.980400026 0.835300028 0.625899971
0.160799995 0.090200000 0.623499990
0.508200049 0.090980001 0.624300003
0.753720045 0.090200000 0.631399989
0.889419973 0.090200000 0.631399989
0.951340020 0.090200000 0.630620003
0.980400026 0.090200000 0.631399989
0.160799995 0.295680016 0.627499998
0.500400066 0.295680046 0.624300003
0.752940059 0.296480030 0.630620003
0.886300027 0.294120044 0.628259957
0.952120006 0.296480030 0.630620003
0.983520031 0.293360025 0.630620003
0.160020009 0.489400059 0.625100017
0.505080044 0.487840027 0.623499990
0.752160013 0.487840027 0.627499998
0.883920074 0.487840027 0.627499998
0.951340020 0.489400059 0.629060030
0.980400026 0.487840027 0.627499998
0.160799995 0.651740015 0.627499998
0.504300058 0.651740015 0.626679957
0.752160072 0.650960028 0.627499998
0.883920014 0.651740015 0.627499998
0.949000001 0.651740015 0.628279984
0.980400026 0.653299987 0.629059970
0.161579996 0.806299984 0.627499998
0.502740026 0.808640003 0.626699984
0.749820054 0.806299984 0.627499998
0.885480046 0.806299984 0.627499998
0.951340020 0.806299984 0.627499998
0.980400026 0.806299984 0.626699984
0.164700001 0.835300028 0.627499998
0.494940042 0.838420033 0.624300003
0.749820054 0.835300028 0.627499998
0.885480046 0.835300028 0.629059970
0.948220015 0.835300028 0.627499998
0.980400026 0.835300028 0.627499998
