example_ofxGpuLutCube/bin/data/LUT/Lord Kelvin.cube
TITLE "16x16x16 Adobe/IRIDAS cube 3D LUT exported with GrossGrade v0.1.027.1 (beta) 64 bit"
DOMAIN_MIN 0 0 0
DOMAIN_MAX 1 1 1
LUT_3D_SIZE 16
0.156900004 0.090200000 0.305900007
0.274780005 0.090460002 0.306160003
0.405746698 0.090719998 0.309280008
0.502740085 0.093319997 0.303559989
0.606553316 0.090200000 0.307980001
0.681066692 0.090200000 0.305900007
0.755320013 0.087860003 0.307460010
0.810966671 0.088380001 0.305900007
0.853553295 0.090200000 0.307980001
0.889419973 0.090200000 0.307460010
0.916366696 0.090200000 0.305900007
0.936233342 0.089160003 0.305900007
0.948220015 0.090200000 0.305900007
0.964179993 0.090200000 0.305900007
0.972240031 0.093839988 0.305900007
0.980400026 0.094099998 0.305900007
0.157420009 0.155520007 0.306160003
0.274780005 0.159253344 0.305900007
0.391620010 0.155520007 0.305900007
0.501446724 0.158453345 0.306160003
0.603433371 0.156320006 0.304340005
0.681066692 0.158186674 0.304859996
0.751380026 0.153180018 0.303819984
0.807066679 0.155520007 0.302519977
0.853293300 0.155253336 0.304080009
0.887080014 0.155253336 0.303819984
0.916100025 0.155253336 0.304600000
0.936233342 0.155520007 0.302259982
0.951340020 0.155253336 0.305120021
0.967559993 0.155520007 0.306160003
0.972240031 0.155520007 0.306160003
0.980400026 0.155253336 0.302259982
0.157420009 0.234533340 0.305900007
0.271926701 0.231413350 0.306160003
0.398466676 0.231153354 0.305900007
0.498840034 0.238173351 0.303559989
0.603173316 0.231153354 0.306940019
0.677666724 0.231673345 0.305900007
0.750860035 0.230633348 0.306940019
0.807066679 0.231153354 0.305900007
0.853033304 0.234533340 0.307460010
0.885480046 0.231153354 0.305380017
0.912933290 0.231153354 0.305900007
0.935193360 0.233493343 0.305380017
0.947960019 0.231673345 0.302519977
0.963660002 0.234533355 0.305900007
0.971980035 0.234793335 0.305640012
0.979880035 0.231153354 0.301999986
0.160019994 0.296480030 0.305119991
0.275300026 0.297260016 0.305119991
0.396046698 0.297000021 0.308239996
0.505080044 0.295680016 0.305120021
0.603433311 0.293620050 0.306940019
0.677933395 0.296480030 0.307719976
0.749820054 0.296480030 0.306680024
0.804986715 0.297520012 0.306940019
0.852773309 0.299600005 0.309019983
0.883920014 0.295680016 0.306679994
0.913199961 0.296480030 0.309019983
0.935193360 0.298560023 0.309019983
0.951340020 0.296480030 0.308239996
0.966780007 0.296480030 0.309799999
0.975173295 0.296220034 0.308759987
0.980400026 0.296480030 0.305900007
0.161840007 0.361273348 0.308759987
0.276600003 0.362053365 0.308759987
0.399520010 0.360753357 0.308759987
0.501440048 0.359193385 0.303559989
0.605513334 0.360233337 0.305900007
0.680000007 0.361540020 0.305900007
0.749820054 0.361273348 0.305900007
0.807066679 0.362073362 0.306679994
0.853340030 0.361273348 0.308759987
0.885480046 0.362313360 0.305900007
0.915066659 0.361273348 0.307459980
0.936233342 0.361273348 0.306940019
0.952120006 0.361273348 0.308759987
0.964179993 0.361273348 0.308759987
0.974906623 0.361273348 0.309799999
0.980400026 0.361273348 0.305900007
0.159500003 0.422233343 0.307200015
0.278686702 0.423566699 0.307200015
0.397100031 0.422233343 0.306680024
0.504300058 0.421713382 0.303559989
0.602653325 0.422233343 0.306940019
0.678466737 0.422233343 0.305900007
0.751120031 0.422233343 0.305900007
0.806546688 0.422233343 0.307200015
0.851473331 0.422233343 0.305900007
0.881579995 0.423273355 0.305900007
0.912399948 0.423533350 0.305900007
0.932260036 0.422233343 0.304340005
0.951340020 0.422233343 0.305900007
0.963660002 0.422233343 0.305900007
0.972240031 0.424573362 0.308239996
0.980400026 0.424833357 0.304600000
0.161579996 0.491800040 0.308239996
0.277646661 0.487840027 0.305900007
0.396880001 0.488360047 0.305900007
0.504299998 0.489400059 0.302780002
0.602653325 0.488360047 0.303039998
0.680806637 0.487840027 0.304340005
0.751380086 0.487840027 0.303559989
0.805506706 0.487840027 0.304340005
0.851473331 0.489706695 0.305900007
0.882359982 0.488640010 0.305900007
0.913466632 0.489173353 0.305900007
0.934633315 0.487840027 0.304340005
0.952120006 0.489440024 0.305900007
0.964179993 0.488373339 0.305900007
0.974373341 0.489400059 0.309540004
0.980400026 0.487840027 0.305900007
0.162880003 0.540153384 0.305900007
0.274780005 0.538806677 0.307980001
0.398693353 0.538286686 0.307460010
0.501440048 0.541166723 0.304860026
0.600813329 0.540366709 0.305120021
0.680546641 0.540366709 0.306679994
0.753460050 0.538026750 0.305640012
0.809146702 0.540366709 0.307980001
0.853340030 0.540366709 0.306160003
0.883660078 0.540366709 0.306160003
0.914499998 0.540366709 0.307980001
0.934366643 0.540366709 0.305120021
0.951340020 0.541453362 0.307200015
0.964179993 0.542233348 0.307460010
0.974106669 0.541973352 0.307720006
0.978579998 0.540366709 0.304080009
0.158720002 0.595013320 0.305900007
0.272960007 0.595013320 0.306160003
0.398166686 0.597366631 0.309280008
0.503000021 0.596833289 0.304600000
0.604473293 0.596833289 0.305120021
0.682886660 0.596833289 0.306679994
0.751640022 0.595013320 0.307980001
0.804986656 0.595013320 0.304080009
0.853553355 0.596833289 0.305900007
0.887560070 0.596833289 0.305900007
0.915833354 0.596313298 0.305380017
0.938313365 0.596833289 0.305900007
0.951340020 0.596833289 0.305900007
0.963660002 0.596833289 0.305900007
0.972240031 0.596833289 0.305900007
0.980400026 0.596833289 0.304080009
0.163139999 0.651740015 0.305900007
0.273486674 0.649399996 0.302259982
0.398466676 0.649919987 0.305900007
0.504300058 0.651740015 0.303559989
0.606553316 0.653299987 0.303039998
0.681066692 0.651740015 0.305900007
0.753720045 0.651740015 0.305900007
0.807066679 0.651740015 0.305900007
0.851473331 0.651740015 0.305900007
0.885480046 0.651740015 0.305900007
0.912399948 0.653039992 0.305900007
0.935193360 0.651740015 0.305900007
0.951340020 0.651740015 0.305900007
0.964179993 0.653299987 0.305900007
0.972240031 0.653299987 0.306160003
0.980400026 0.653299987 0.305900007
0.160799995 0.701966643 0.305900007
0.273746669 0.701966643 0.303559989
0.398466676 0.701966643 0.307200015
0.503780067 0.701966643 0.304080009
0.605253339 0.701966643 0.303039998
0.678466678 0.701966643 0.305900007
0.749820054 0.701966643 0.305900007
0.805766702 0.701966643 0.305900007
0.851473331 0.701966643 0.305900007
0.885480046 0.701966643 0.305900007
0.912399948 0.701966643 0.305900007
0.935193360 0.701966643 0.305900007
0.952120006 0.701966643 0.305900007
0.964179993 0.701966643 0.305900007
0.973566651 0.701966643 0.307200015
0.980400026 0.701966643 0.305900007
0.158979997 0.754533350 0.305900007
0.272180021 0.753466666 0.305119991
0.397946686 0.753466666 0.308239996
0.499360025 0.753753364 0.302780002
0.603693306 0.754533350 0.305900007
0.678173363 0.754533350 0.305900007
0.750860035 0.754533350 0.307200015
0.806286693 0.754533350 0.305900007
0.851473331 0.754533350 0.305900007
0.885480046 0.754533350 0.305900007
0.912399948 0.755573332 0.305900007
0.935193360 0.754533350 0.305900007
0.951340020 0.754533350 0.305900007
0.963660002 0.754533350 0.305900007
0.972240031 0.754533350 0.305900007
0.980400026 0.754533350 0.305900007
0.157680005 0.806299984 0.305900007
0.274780005 0.809419990 0.306160003
0.395000041 0.806039989 0.308500022
0.501180053 0.808640003 0.305900007
0.605773330 0.806299984 0.306940019
0.681066692 0.806299984 0.307720006
0.752940059 0.806299984 0.305900007
0.808106720 0.806299984 0.305120021
0.853553355 0.806299984 0.307980001
0.884700060 0.806299984 0.305900007
0.911599934 0.806299984 0.305120021
0.935193360 0.806299984 0.305900007
0.951340020 0.806299984 0.305900007
0.963660002 0.806299984 0.305900007
0.972240031 0.806299984 0.305900007
0.980400026 0.806299984 0.305900007
0.161319986 0.835300028 0.305900007
0.278686702 0.834780037 0.305900007
0.398986667 0.834780037 0.305900007
0.504300058 0.835300028 0.302780002
0.600253344 0.838680029 0.305900007
0.677653372 0.838680029 0.305119991
0.749820054 0.835300028 0.305900007
0.807066679 0.835300028 0.304339975
0.851473331 0.837380052 0.305900007
0.882099986 0.835300028 0.305900007
0.912399948 0.836080015 0.305900007
0.935193360 0.837640047 0.305900007
0.948740005 0.835300028 0.305900007
0.964179993 0.835300028 0.305900007
0.972500026 0.835300028 0.305900007
0.977019966 0.838680029 0.302519977
0.160539985 0.835300028 0.309540004
0.274520010 0.835300028 0.305900007
0.398200005 0.835300028 0.309799999
0.504040062 0.835300028 0.306419998
0.606293321 0.835300028 0.306940019
0.680806696 0.835300028 0.305900007
0.753460050 0.835300028 0.305900007
0.808886707 0.835300028 0.305900007
0.853553295 0.835300028 0.307980001
0.885480046 0.835300028 0.305900007
0.912399948 0.835300028 0.305900007
0.939093351 0.835300028 0.305900007
0.951600015 0.835300028 0.305900007
0.964179993 0.835300028 0.305900007
0.972500026 0.835300028 0.306160003
0.980400026 0.835300028 0.305900007
0.160799995 0.835300028 0.305900007
0.274520010 0.835300028 0.305900007
0.395000041 0.835300028 0.309280008
0.501180053 0.835300028 0.303559989
0.603693366 0.835300028 0.306940019
0.681066692 0.835300028 0.308499992
0.749820054 0.835300028 0.305900007
0.804986715 0.835300028 0.305900007
0.851473331 0.835300028 0.307980001
0.885480046 0.835300028 0.307460010
0.912399948 0.835300028 0.308499992
0.935193360 0.835300028 0.308759987
0.948220015 0.835300028 0.305900007
0.963660002 0.835300028 0.305900007
0.972240031 0.835300028 0.305900007
0.976499975 0.839200020 0.305900007
0.164179996 0.093839996 0.305900007
0.278420031 0.090459995 0.306160003
0.398993343 0.090459995 0.305900007
0.504300058 0.093839996 0.305900007
0.606293321 0.090460002 0.305900007
0.681066692 0.090200000 0.305640012
0.753720045 0.090200000 0.306679994
0.809146702 0.090200000 0.303559989
0.851473331 0.090200000 0.307720006
0.883660018 0.091759995 0.307460010
0.912399948 0.093839996 0.308239996
0.932526708 0.093060002 0.305900007
0.952120006 0.090200000 0.306160003
0.967559993 0.090200000 0.306160003
0.975966632 0.090200000 0.309540004
0.980400026 0.090200000 0.305900007
0.157419994 0.155520007 0.302259982
0.278420031 0.155253336 0.302259982
0.399253339 0.159253344 0.305900007
0.498580039 0.159253344 0.303039998
0.603693366 0.156320006 0.303039998
0.680260003 0.158186674 0.301999986
0.750080049 0.155520007 0.301999986
0.805766702 0.157653347 0.302259982
0.851473331 0.155253336 0.304080009
0.885740042 0.155253336 0.303819984
0.912666619 0.156586677 0.305900007
0.935193360 0.158186674 0.302259982
0.948480010 0.158186674 0.305900007
0.963660002 0.155520007 0.306160003
0.972246706 0.158986673 0.305900007
0.976759970 0.155253336 0.302259982
0.157420009 0.231153354 0.305640012
0.275306672 0.231153354 0.309280008
0.395260036 0.231413350 0.305639982
0.500920057 0.234013334 0.305900007
0.606033325 0.231153354 0.309280008
0.677933335 0.231673345 0.306680024
0.749820054 0.231413350 0.307980001
0.806546688 0.231153354 0.307200015
0.851473331 0.235053346 0.305900007
0.883400023 0.233493358 0.305640012
0.912399948 0.232453361 0.305640012
0.935193360 0.233753338 0.305640012
0.951080024 0.231413350 0.305900007
0.964179993 0.231413350 0.305640012
0.972240031 0.231673345 0.305900007
0.980140030 0.235053346 0.305380017
0.160799995 0.296740025 0.306420028
0.275046676 0.293086708 0.302780002
0.392400026 0.296480030 0.303299993
0.501700044 0.298800021 0.303040028
0.602913320 0.297260046 0.306680024
0.677666664 0.296480030 0.303299993
0.752940059 0.296480030 0.305120021
0.809146702 0.295946687 0.304340005
0.852773309 0.295440018 0.307980001
0.885220051 0.296480030 0.307200015
0.915833354 0.294919997 0.307460010
0.938046694 0.294400007 0.306940019
0.951340020 0.295700043 0.308239996
0.964179993 0.296480030 0.306940019
0.975439966 0.296220034 0.309540004
0.980400026 0.296480030 0.305900007
0.157159999 0.361273348 0.305900007
0.277640015 0.361533344 0.309019983
0.398726672 0.357893348 0.308759987
0.501700044 0.358153373 0.302780002
0.602913320 0.361273348 0.306160003
0.677400053 0.363940030 0.307719976
0.749820054 0.361273348 0.305900007
0.807066679 0.359713346 0.306160003
0.851473331 0.360233366 0.307720006
0.885480046 0.361273348 0.305900007
0.912399948 0.358933359 0.304340005
0.935193360 0.360233337 0.305900007
0.951340020 0.360493362 0.306679994
0.964179993 0.361273348 0.305900007
0.974906623 0.361533344 0.308499992
0.980400026 0.361013353 0.305640012
0.161059991 0.422233343 0.306160003
0.278420031 0.424573362 0.306940019
0.398726672 0.418786675 0.305900007
0.503780007 0.421713322 0.303039998
0.602653325 0.422233343 0.304080009
0.678200066 0.422233343 0.305640012
0.751120031 0.422233343 0.307200015
0.806806684 0.421973348 0.307460010
0.849653304 0.422233343 0.306940019
0.883400023 0.420126677 0.306419998
0.912139952 0.421973348 0.305640012
0.932526708 0.421193361 0.305900007
0.951340020 0.422233343 0.305900007
0.963660002 0.422233343 0.305900007
0.972240031 0.422233343 0.305900007
0.980400026 0.421193361 0.305900007
0.156900004 0.488100022 0.303299993
0.274520010 0.487840027 0.304340005
0.397139996 0.487840027 0.305380017
0.503520012 0.488360047 0.302780002
0.606293321 0.487840027 0.303039998
0.680800021 0.488100052 0.304600000
0.752420068 0.487840027 0.305900007
0.805766702 0.487840027 0.304600000
0.851473331 0.487840027 0.305900007
0.885480046 0.487840027 0.305119991
0.912399948 0.487840027 0.305900007
0.936233342 0.489400059 0.305900007
0.953719974 0.491000056 0.307460010
0.963660002 0.491266727 0.305900007
0.972240031 0.489400059 0.305900007
0.980140030 0.487840027 0.305900007
0.158979997 0.540366709 0.306419998
0.277126700 0.540633380 0.308239996
0.398206681 0.538286686 0.307720006
0.503260016 0.541433334 0.305379987
0.606033325 0.540366709 0.305120021
0.679733336 0.540366709 0.306679994
0.752160072 0.541700065 0.307980001
0.809146702 0.540366709 0.307980001
0.850173354 0.540373325 0.307720006
0.883920074 0.539846659 0.307460010
0.912399948 0.539853334 0.307200015
0.935966671 0.541966677 0.307720006
0.950559974 0.539853394 0.307980001
0.964179993 0.542233348 0.306419998
0.974106669 0.542233348 0.307720006
0.980400026 0.541966677 0.307980001
0.158720002 0.596833289 0.305900007
0.278733373 0.596833289 0.307720006
0.396866679 0.597099960 0.307720006
0.502220094 0.599186659 0.304600000
0.608373344 0.596833289 0.306940019
0.680000007 0.597899973 0.306679994
0.751900017 0.596833289 0.305900007
0.808886647 0.596833289 0.305900007
0.853553355 0.596833289 0.307980001
0.883660018 0.595013320 0.305900007
0.912933290 0.596833289 0.305900007
0.937013388 0.595793307 0.307720006
0.951340020 0.596833289 0.305380017
0.965740025 0.596833289 0.307980001
0.971980035 0.596833289 0.305640012
0.980400026 0.595013320 0.304080009
0.166519985 0.649659991 0.305900007
0.278679997 0.649659991 0.305900007
0.397646695 0.651740015 0.307720006
0.505860031 0.651220024 0.304600000
0.606553316 0.649659991 0.306940019
0.681066692 0.650699973 0.305900007
0.751900077 0.649659991 0.305900007
0.807066679 0.651220024 0.304340005
0.851213276 0.651740015 0.305900007
0.883140028 0.651740015 0.305119991
0.912399888 0.651740015 0.305900007
0.935193360 0.652260005 0.305900007
0.951340020 0.651740015 0.305900007
0.964179993 0.651740015 0.307980001
0.971720040 0.651740015 0.305640012
0.980400026 0.651740015 0.305900007
0.160799995 0.700666606 0.305900007
0.276346684 0.701966643 0.307460010
0.393440038 0.701966643 0.306940019
0.501180053 0.703266621 0.304080009
0.602913320 0.701966643 0.306940019
0.677400053 0.701966643 0.307200015
0.749820054 0.701966643 0.305900007
0.806026697 0.701966643 0.306160003
0.853826642 0.701966643 0.305900007
0.885480046 0.701966643 0.303819984
0.915066600 0.701966643 0.305900007
0.937533379 0.700926661 0.305900007
0.951340020 0.701966643 0.305900007
0.964179993 0.701966643 0.309020013
0.972240031 0.701966643 0.305900007
0.980400026 0.701966643 0.305900007
0.160273328 0.754533350 0.305900007
0.277120024 0.750866652 0.304859996
0.396326691 0.754533350 0.305900007
0.500140011 0.756093323 0.303039998
0.603693306 0.754533350 0.306680024
0.679239988 0.754533350 0.304600000
0.752160013 0.754533350 0.305900007
0.808106661 0.754533350 0.305900007
0.851473331 0.754533350 0.307980001
0.883400023 0.754533350 0.306420028
0.912399948 0.754273355 0.308239996
0.935193360 0.753466666 0.305900007
0.951340020 0.754533350 0.305120021
0.966260016 0.754533350 0.306160003
0.971980035 0.754533350 0.305640012
0.980400026 0.751933336 0.305900007
0.159759998 0.806299984 0.306160003
0.277380049 0.809419990 0.308760017
0.397666693 0.806299984 0.308500022
0.504040062 0.806033313 0.305640012
0.599979997 0.807079971 0.304079980
0.680286705 0.806299984 0.305640012
0.752680063 0.806299984 0.305900007
0.806286693 0.806299984 0.305900007
0.850433350 0.806299984 0.306160003
0.885480046 0.806299984 0.305900007
0.913446665 0.806299984 0.305900007
0.935973346 0.806299984 0.305900007
0.951340020 0.806299984 0.305900007
0.967299998 0.806299984 0.305900007
0.972240031 0.806299984 0.305900007
0.980400026 0.806299984 0.305120021
0.157159999 0.838420033 0.305640012
0.275566667 0.835300028 0.305900007
0.398726672 0.835040033 0.305900007
0.501960039 0.835820019 0.302780002
0.600253344 0.835300028 0.303559989
0.680800021 0.836340010 0.304600000
0.750340044 0.835560024 0.305900007
0.807066679 0.834780037 0.305640012
0.850173295 0.837380052 0.304600000
0.885220051 0.835560024 0.303559989
0.913179994 0.836340010 0.305900007
0.934926689 0.838160038 0.305379987
0.948220015 0.835300028 0.305900007
0.964179993 0.835300028 0.305900007
0.971980035 0.835300028 0.306160003
0.977019966 0.838680029 0.302519977
0.156633332 0.835300028 0.305900007
0.278160036 0.835560024 0.309280008
0.398726672 0.835040033 0.309540004
0.505080044 0.835300028 0.306419998
0.606293321 0.835300028 0.306680024
0.684446692 0.835300028 0.308239996
0.752420008 0.835300028 0.309540004
0.807326674 0.835300028 0.306160003
0.851473272 0.835300028 0.307980001
0.885480046 0.835300028 0.307200015
0.916366696 0.835300028 0.308239996
0.936233342 0.835040033 0.308499992
0.951340020 0.835300028 0.305900007
0.964179993 0.835300028 0.305900007
0.972240031 0.835300028 0.305900007
0.980400026 0.835300028 0.305900007
0.160799995 0.835300028 0.306160003
0.274780005 0.835300028 0.305900007
0.395000041 0.835300028 0.309280008
0.504560053 0.835300028 0.306420028
0.606293321 0.835300028 0.306940019
0.680800021 0.835300028 0.305900007
0.752160013 0.835300028 0.305900007
0.804986715 0.835300028 0.305900007
0.853293300 0.835300028 0.307980001
0.889159977 0.835300028 0.307460010
0.916100025 0.835300028 0.305900007
0.938833356 0.835300028 0.305900007
0.951340020 0.835300028 0.309020013
0.963660002 0.835300028 0.309020013
0.972240031 0.835300028 0.309799999
0.980400026 0.835300028 0.305900007
0.161320001 0.093580000 0.305900007
0.274520010 0.093319997 0.305113345
0.398466676 0.094099998 0.305380017
0.504040003 0.093839996 0.305639982
0.606033325 0.090200000 0.309279978
0.681066692 0.090200000 0.305900007
0.753200054 0.090200000 0.308759987
0.807066679 0.090200000 0.307200015
0.851473331 0.090200000 0.307980001
0.884960055 0.090200000 0.307460010
0.912933290 0.090200000 0.308499992
0.932793379 0.087859996 0.307460010
0.951873362 0.089419998 0.306419998
0.963660002 0.090200000 0.305900007
0.975973308 0.090200000 0.309540004
0.980400026 0.090200000 0.309280008
0.160799995 0.155253336 0.305380017
0.275306672 0.155520007 0.305640012
0.398733348 0.155520007 0.305640012
0.504820049 0.159253344 0.302780002
0.602913320 0.158453345 0.306160003
0.681326687 0.158453345 0.305640012
0.749820054 0.155253336 0.304600000
0.806026697 0.157920018 0.303819984
0.848353326 0.157120004 0.306160003
0.883920014 0.157386675 0.305640012
0.912933290 0.156853348 0.306160003
0.935193360 0.158986673 0.305640012
0.948740005 0.158186674 0.305900007
0.963660002 0.158720016 0.302259982
0.971980035 0.155519992 0.302519977
0.977019966 0.155520007 0.302519977
0.157419994 0.231153354 0.305900007
0.271400005 0.231153354 0.305900007
0.391620010 0.227686673 0.305900007
0.501180053 0.231413350 0.306160003
0.602653325 0.231153339 0.305900007
0.680533350 0.231673360 0.305900007
0.749300063 0.228753358 0.304859996
0.807066679 0.231673360 0.303819984
0.851473331 0.231153354 0.305900007
0.884960055 0.231153354 0.305380017
0.912399948 0.231153354 0.305900007
0.932260036 0.231673360 0.305900007
0.952120006 0.231673360 0.305900007
0.963140011 0.234013349 0.305380017
0.972240031 0.231153339 0.305640012
0.979880035 0.231153354 0.305900007
0.161059991 0.296480030 0.306680024
0.274259984 0.295946687 0.302520007
0.398719996 0.293093383 0.306160033
0.504820049 0.296480030 0.303040028
0.603693366 0.296480030 0.310319990
0.680266678 0.295693368 0.308239967
0.753200054 0.296480030 0.309539974
0.807326674 0.295680016 0.306940019
0.851213336 0.294660032 0.307460010
0.884960055 0.296480030 0.309019983
0.915566683 0.296480030 0.309019983
0.936233342 0.296480030 0.309019983
0.952120006 0.296480030 0.309019983
0.966780007 0.296480030 0.307980001
0.975706637 0.296480030 0.309279978
0.980400026 0.296480030 0.309019983
0.162619993 0.364206702 0.308239967
0.275300026 0.358673364 0.305900007
0.404706687 0.358413368 0.308759987
0.501440048 0.363946706 0.305900007
0.603173375 0.361793339 0.305900007
0.683653355 0.361273348 0.309280008
0.751393378 0.358413368 0.304079980
0.807586670 0.361793369 0.307980001
0.849653304 0.361273348 0.305900007
0.884440005 0.361273348 0.305900007
0.914233327 0.361273348 0.305900007
0.935193360 0.363660038 0.305900007
0.950820029 0.361273348 0.305380017
0.967040002 0.361793369 0.306420028
0.972773373 0.361533374 0.306420028
0.980400026 0.361273348 0.305900007
0.161320001 0.425633341 0.306419998
0.278686702 0.421453357 0.306160003
0.400546700 0.421453357 0.306419998
0.501966715 0.425366670 0.304079980
0.603693366 0.421973377 0.306160003
0.680266678 0.421453357 0.305900007
0.752939999 0.421713352 0.303559989
0.804986715 0.422233373 0.305900007
0.851473331 0.421453357 0.306419998
0.885480046 0.421453357 0.307460010
0.913199902 0.420900017 0.305380017
0.933593392 0.422233343 0.305900007
0.949000001 0.421713352 0.305900007
0.964439988 0.422233343 0.306680024
0.972240031 0.422233343 0.309020013
0.977800012 0.419566691 0.303299993
0.159239992 0.488360047 0.304859996
0.277380019 0.488360047 0.304859996
0.402600020 0.486020058 0.305900007
0.501180053 0.490240008 0.302780002
0.608373404 0.487826675 0.305380017
0.677926660 0.485500038 0.303039998
0.752680063 0.490240008 0.305900007
0.804986715 0.489666700 0.305900007
0.851473331 0.487840027 0.305900007
0.884440064 0.489960045 0.305639982
0.913466573 0.489946693 0.304600000
0.935166657 0.489173353 0.304340005
0.952120006 0.488640010 0.304859996
0.965999961 0.487840027 0.305900007
0.971980035 0.487580031 0.305640012
0.980400026 0.491800040 0.304859996
0.158446655 0.540366709 0.304600000
0.276080012 0.539886713 0.305900007
0.400286674 0.540900052 0.307980001
0.503520012 0.541433334 0.304860026
0.603433371 0.539620042 0.305379987
0.679213345 0.540646672 0.306940019
0.750340044 0.538553357 0.302519977
0.807066679 0.538820028 0.307200015
0.853340030 0.540366709 0.307980001
0.884180069 0.541700006 0.307460010
0.912399948 0.540366709 0.305900007
0.935193360 0.541700006 0.305900007
0.951340020 0.542233348 0.307980001
0.964439988 0.540900052 0.304600000
0.972240031 0.541440010 0.307720006
0.979880035 0.542233348 0.305380017
0.158720002 0.598433316 0.306419998
0.277640045 0.597099960 0.305900007
0.401326686 0.596833289 0.309799999
0.505386710 0.599466622 0.306419998
0.604473293 0.597379982 0.306940019
0.679733336 0.595813334 0.305900007
0.749820054 0.597366631 0.306419998
0.805506647 0.598699987 0.305900007
0.851473331 0.596833289 0.307460010
0.885480046 0.596833289 0.305640012
0.913699985 0.596833289 0.305900007
0.936233342 0.596833289 0.305900007
0.948740005 0.596833289 0.305120021
0.963660002 0.598133326 0.307460010
0.971980035 0.596833289 0.305120021
0.980400026 0.596313298 0.305900007
0.161839992 0.651220024 0.305900007
0.277126670 0.651480019 0.305900007
0.397386670 0.649399996 0.305900007
0.506940007 0.651740015 0.306160033
0.604993343 0.651220024 0.306940019
0.682106733 0.650699973 0.305900007
