example_ofxGpuLutCube/bin/data/LUT/lut21_FujiF125Adobe.cube
TITLE "16x16x16 Adobe/IRIDAS cube 3D LUT exported with GrossGrade v0.1.027.1 (beta) 64 bit"
DOMAIN_MIN 0 0 0
DOMAIN_MAX 1 1 1
LUT_3D_SIZE 6
0.144759998 0.120010003 0.100409999
0.387310416 0.146077812 0.098269932
0.651066601 0.150605157 0.082777031
0.790681481 0.136268780 0.070273355
0.870817363 0.121609673 0.071240708
0.920360029 0.112450004 0.082120001
0.147519737 0.238661319 0.120167747
0.241827190 0.220525891 0.116371490
0.456650436 0.235049620 0.109325804
0.702284575 0.244787753 0.093157224
0.840626538 0.240076467 0.084106386
0.926337481 0.233364403 0.085414127
0.010756628 0.444991589 0.127330914
0.201830193 0.410405636 0.129466012
0.438544065 0.416618884 0.121380001
0.716900945 0.433482111 0.100271478
0.878455281 0.431455404 0.087086767
0.978376508 0.424417973 0.092951350
0.000000000 0.607592404 0.118253864
0.019658376 0.587477624 0.129334256
0.390520960 0.597276092 0.124255866
0.700394750 0.626396418 0.103105165
0.900081038 0.637025416 0.088465929
1.014868736 0.635790527 0.092950448
0.000000000 0.715631187 0.116986580
0.000000000 0.712144256 0.142212719
0.306904912 0.732560456 0.141405150
0.660207868 0.772404253 0.120941810
0.895266235 0.796876192 0.105702966
1.030159116 0.804934025 0.115715303
0.000000000 0.790120006 0.139990002
0.000000000 0.795643747 0.167796969
0.172018558 0.824684262 0.178588137
0.608417153 0.875250518 0.170756653
0.878048539 0.913318336 0.160917222
1.030439973 0.930180013 0.167919993
0.141538516 0.132971093 0.266921461
0.351833999 0.151860580 0.300719917
0.621442854 0.157956436 0.303536475
0.793269932 0.141752645 0.299791932
0.888787925 0.122692190 0.299838543
0.945878327 0.109151937 0.306786418
0.140710846 0.222004533 0.169324845
0.239933565 0.216375262 0.194901884
0.439532280 0.232563049 0.213468283
0.686738133 0.243355185 0.227362648
0.840484142 0.239226073 0.239940360
0.940979719 0.231956854 0.257791907
0.010922303 0.422776878 0.184847832
0.198277682 0.401987821 0.210859641
0.419994771 0.407558292 0.226413906
0.691894710 0.423008710 0.236460924
0.866626382 0.423884571 0.246923894
0.976496339 0.418369204 0.261710614
0.000000000 0.600849032 0.191211045
0.010258612 0.587447464 0.223886713
0.370424747 0.596691608 0.240704328
0.679537535 0.624674678 0.249303058
0.887304187 0.636681616 0.257999569
1.013555527 0.637678385 0.275681436
0.000000000 0.721002340 0.203989699
0.000000000 0.721243560 0.239119709
0.276277900 0.739945233 0.257741421
0.641729653 0.778752685 0.266350865
0.885033011 0.804749608 0.278553188
1.028394818 0.813809216 0.297440737
0.000000000 0.801693618 0.227788404
0.000000000 0.808688045 0.263273060
0.117815711 0.837150872 0.286220640
0.590062797 0.886896312 0.302065372
0.868265152 0.925707757 0.315037757
1.027808785 0.943783045 0.334242404
0.174339369 0.128940716 0.476883978
0.350847185 0.138135150 0.516818225
0.601131082 0.139552772 0.541619897
0.784020245 0.119772576 0.548947394
0.890055597 0.093971856 0.550242424
0.956905127 0.071506374 0.552740693
0.126465932 0.226457313 0.328095943
0.245251954 0.224272192 0.370102346
0.442545563 0.236366332 0.409347475
0.684457541 0.243171111 0.443566173
0.846716702 0.236184850 0.469256490
0.948567033 0.226170406 0.491506666
0.002426318 0.423977762 0.337765247
0.189071551 0.409075707 0.376529396
0.413623422 0.412166387 0.411661595
0.680131376 0.424135238 0.442276776
0.860224426 0.423713058 0.466805667
0.977836847 0.417366743 0.488465101
0.000000000 0.611117244 0.348235726
0.001737816 0.600198865 0.388698250
0.350689292 0.608857095 0.423766226
0.665975928 0.633669317 0.454285085
0.878061891 0.644817054 0.478840828
1.011474848 0.643399715 0.501141310
0.000000000 0.740171671 0.359754860
0.000000000 0.740704238 0.401092619
0.227344230 0.758560896 0.436763972
0.623791516 0.794872105 0.466745704
0.873106599 0.818950355 0.491275728
1.023409009 0.827304482 0.514136016
0.000000000 0.824982941 0.378387630
0.000000000 0.832709014 0.419064105
0.029955182 0.860109508 0.454897523
0.568015754 0.906576037 0.484642923
0.854120731 0.943332195 0.509058356
1.020106792 0.958106041 0.532122493
0.225563869 0.109781548 0.618924022
0.374845445 0.112674966 0.654087543
0.593814850 0.106329285 0.686233401
0.772776723 0.076931551 0.703199148
0.883715451 0.035728056 0.710083067
0.956681430 0.004952711 0.714841425
0.154704884 0.222273633 0.515193284
0.268702447 0.222218528 0.548565865
0.463655651 0.229592010 0.588523865
0.687608838 0.230872005 0.624752104
0.846034944 0.220649883 0.650484920
0.946860433 0.208043039 0.670452952
0.000963608 0.421340555 0.527495205
0.199300840 0.411937863 0.562759221
0.426132977 0.412683487 0.598549128
0.678578615 0.419511020 0.632723212
0.854687870 0.416784316 0.657104433
0.974121392 0.408982754 0.676243782
0.000000000 0.616967320 0.539413869
0.000000000 0.611315608 0.575659633
0.350173295 0.618939817 0.615379930
0.662206829 0.638779461 0.650711477
0.869146466 0.645354033 0.676826715
1.005121469 0.642574072 0.696369112
0.000000000 0.756757498 0.546819985
0.000000000 0.759255052 0.583501756
0.192045227 0.775090337 0.622905433
0.615445793 0.807364106 0.660284400
0.861506343 0.827795148 0.687849104
1.014552832 0.832678556 0.708866358
0.000000000 0.845851898 0.555592299
0.000000000 0.856942713 0.591901183
0.026190527 0.881597519 0.631133318
0.554471731 0.924139440 0.668437004
0.840091407 0.956476748 0.696322203
1.009707332 0.966782093 0.717969775
0.286900073 0.087518319 0.711363137
0.417640597 0.085547276 0.741813362
0.602631807 0.070267864 0.773413777
0.768840909 0.027503151 0.794147015
0.879856408 0.000464513 0.805995107
0.955361068 0.000000000 0.813348591
0.210934535 0.213599354 0.653800428
0.315748006 0.213505358 0.680603445
0.500512660 0.217299566 0.717160463
0.700995088 0.214102060 0.749962389
0.849302053 0.201113999 0.773021877
0.945584774 0.186766192 0.789739668
0.051341075 0.413121104 0.673064888
0.249406710 0.406919152 0.699142635
0.461638570 0.407861918 0.735324264
0.690090477 0.410715073 0.768466473
0.855054557 0.406109214 0.791304946
0.971778393 0.397147328 0.808055580
0.000000000 0.616016150 0.694114745
0.011095543 0.614083290 0.719716549
0.387427151 0.621953845 0.754875004
0.673760056 0.637069583 0.792293072
0.867331684 0.640461922 0.819449544
1.000952363 0.636704803 0.837194443
0.000000000 0.765560031 0.704487264
0.000000000 0.769332707 0.730025113
0.236714244 0.784954250 0.764242053
0.627579093 0.812903881 0.801961005
0.857882857 0.829488873 0.831660271
1.008595705 0.831203580 0.853550971
0.000000000 0.863330781 0.710281193
0.000000000 0.873535395 0.735669494
0.034430031 0.896239460 0.769022107
0.565204382 0.935244203 0.806475401
0.835112751 0.960319161 0.836505711
1.002337813 0.969413280 0.860197306
0.354479998 0.065710001 0.776920021
0.469710380 0.060085416 0.800055444
0.624966145 0.038556125 0.825572968
0.774633348 0.001322323 0.845769048
0.879122376 0.000000000 0.858067513
0.955919981 0.000000000 0.867770016
0.279300570 0.204346463 0.749794841
0.373871952 0.204139754 0.772673845
0.545286179 0.204882920 0.807263374
0.721258163 0.197809696 0.837720811
0.858629763 0.182944983 0.856634498
0.947394133 0.167953178 0.869362772
0.184709832 0.403662115 0.780215442
0.319825590 0.400346309 0.799310923
0.513161480 0.401738822 0.829238772
0.712650597 0.402000964 0.859183550
0.862144291 0.395723939 0.881687224
0.972849667 0.385918498 0.899024069
0.000000000 0.613886297 0.811158895
0.146215662 0.614128590 0.830136061
0.448772609 0.622630358 0.859529972
0.696815312 0.632370949 0.890135348
0.872906685 0.633642912 0.913343012
1.000562191 0.629132390 0.931103587
0.000000000 0.771314979 0.826734900
0.000000000 0.776393116 0.845478237
0.331365436 0.792084992 0.874198735
0.655577362 0.815068603 0.906442344
0.862586617 0.825527906 0.931056201
1.007302761 0.826220155 0.949536741
0.000000000 0.877099991 0.833850026
0.000000000 0.886736453 0.852225721
0.133423984 0.909314871 0.880277753
0.596669972 0.942161262 0.912628055
0.839401543 0.960266888 0.938147604
1.000000000 0.967859983 0.957809985
