example_ofxGpuLutCube/bin/data/LUT/lut21_FujiF125Adobe.cube
TITLE "16x16x16 Adobe/IRIDAS cube 3D LUT exported with GrossGrade v0.1.027.1 (beta) 64 bit"
DOMAIN_MIN 0 0 0
DOMAIN_MAX 1 1 1
LUT_3D_SIZE 16
0.144759998 0.120010003 0.100409999
0.198286667 0.126233339 0.100673340
0.285086364 0.136443108 0.100356601
0.387310416 0.146077812 0.098269932
0.490496695 0.151786670 0.093956664
0.582909465 0.152735487 0.088148177
0.651066601 0.150605157 0.082777031
0.707309961 0.146586671 0.077693328
0.754643321 0.141419992 0.072966672
0.790681481 0.136268780 0.070273355
0.824193835 0.130507737 0.068419680
0.852140009 0.125239998 0.068676665
0.870817363 0.121609673 0.071240708
0.887318552 0.118160576 0.074051119
0.903853357 0.115183331 0.077856660
0.920360029 0.112450004 0.082120001
0.148343325 0.144456655 0.105883338
0.158773333 0.140123338 0.104969993
0.198021159 0.143432692 0.104547955
0.249351904 0.148984224 0.104229458
0.314008921 0.155900836 0.103352211
0.400639266 0.163839132 0.101060219
0.498408645 0.169925541 0.096851289
0.591186106 0.172305226 0.091177531
0.662159979 0.171706662 0.085830010
0.720383227 0.169385031 0.081152298
0.770354390 0.166129157 0.077737272
0.808696032 0.162889898 0.075356238
0.845224082 0.159207568 0.074652694
0.874187052 0.156148285 0.075630046
0.893889129 0.154422149 0.077929936
0.912440002 0.153029993 0.081603326
0.150998399 0.186766177 0.113593958
0.160462663 0.176946968 0.112051792
0.194021642 0.176536277 0.111070946
0.244217977 0.180397645 0.110281721
0.301968068 0.185675740 0.109182753
0.377583474 0.192618534 0.107098512
0.471416116 0.199909732 0.103337549
0.564989746 0.204456925 0.098084621
0.647327662 0.205839857 0.092116073
0.706455946 0.204974666 0.087779053
0.761676192 0.202865556 0.083493814
0.803431034 0.200340822 0.080475807
0.839296281 0.197588280 0.079523116
0.874059379 0.194486216 0.079152234
0.898555934 0.192240983 0.080239594
0.917121887 0.190752491 0.083197825
0.147519737 0.238661319 0.120167747
0.158381268 0.224284023 0.118701711
0.191441536 0.220385954 0.117580064
0.241827190 0.220525891 0.116371490
0.297641426 0.223455623 0.115000881
0.367973447 0.228484511 0.112931885
0.456650436 0.235049620 0.109325804
0.549155116 0.240808412 0.104175813
0.638843477 0.244305268 0.097853921
0.702284575 0.244787753 0.093157224
0.757372677 0.243916303 0.088659473
0.805170119 0.242180884 0.085130624
0.840626538 0.240076467 0.084106386
0.875375092 0.237633184 0.083275631
0.906013429 0.235144973 0.082973048
0.926337481 0.233364403 0.085414127
0.129026651 0.306120008 0.125366673
0.146394432 0.285540283 0.124714904
0.183096051 0.277623475 0.123673998
0.237189263 0.274197340 0.122234277
0.294990003 0.274946690 0.120746665
0.362931490 0.278853446 0.118603766
0.449610233 0.285187006 0.114884570
0.542252481 0.291113108 0.109689936
0.632696688 0.294923365 0.103299998
0.704608500 0.296192974 0.097411588
0.759769976 0.295706004 0.092967771
0.811619997 0.294480026 0.089236669
0.848925531 0.292445004 0.087744422
0.882665217 0.290154934 0.086583391
0.915970027 0.287686676 0.085863866
0.940339983 0.285409987 0.088006668
0.083092041 0.376834095 0.127736881
0.113609999 0.356242687 0.128769994
0.161247149 0.347714305 0.128257483
0.225120351 0.342929006 0.126916230
0.290357649 0.341635704 0.125290647
0.359656990 0.343203425 0.123098709
0.444921046 0.348115027 0.119220614
0.539221108 0.353922546 0.113647975
0.630003810 0.358071238 0.106653467
0.711341739 0.360157967 0.099929444
0.767501831 0.359750032 0.095711939
0.820476890 0.358779937 0.091688104
0.862744987 0.356871903 0.088966519
0.895751297 0.354430825 0.087958068
0.929067433 0.352003902 0.088440195
0.958940983 0.349637836 0.091252260
0.010756628 0.444991589 0.127330914
0.043963891 0.424922824 0.130137190
0.116755866 0.415996253 0.130321860
0.201830193 0.410405636 0.129466012
0.278458893 0.409370542 0.127829105
0.352424979 0.411303282 0.125456989
0.438544065 0.416618884 0.121380001
0.535533607 0.423824996 0.115206085
0.628224254 0.429614991 0.108349614
0.716900945 0.433482111 0.100271478
0.777442753 0.433604062 0.095114611
0.830696404 0.432822883 0.090569742
0.878455281 0.431455404 0.087086767
0.912451386 0.429105341 0.087975912
0.945496678 0.426758587 0.090207182
0.978376508 0.424417973 0.092951350
0.000000000 0.505073309 0.125240013
0.000000000 0.488133579 0.129526645
0.034227140 0.480590701 0.130652890
0.160674632 0.475492477 0.130000845
0.257741630 0.474691451 0.128388539
0.338973969 0.476866096 0.125992104
0.427452356 0.481986076 0.122227326
0.527526677 0.489730000 0.116066672
0.623019993 0.496513307 0.108423337
0.714372396 0.501985431 0.099337548
0.784106612 0.504237533 0.093021713
0.838550031 0.504570007 0.089000002
0.890623212 0.504621387 0.086875334
0.927491426 0.503131330 0.088390172
0.960603237 0.501386702 0.090749994
0.993983328 0.499643326 0.093116671
0.000000000 0.561793327 0.121366665
0.000000000 0.545639992 0.127713323
0.002641424 0.537483633 0.129495427
0.093425661 0.532584608 0.129666239
0.226680025 0.532926619 0.128433347
0.318782032 0.536112785 0.126407668
0.411046058 0.542259336 0.122437268
0.515100002 0.551626623 0.115676671
0.615226626 0.560696602 0.107826665
0.709263086 0.568033040 0.099247016
0.788046896 0.572631359 0.092372902
0.843687117 0.573533773 0.089944541
0.896883786 0.573882699 0.087745443
0.939065993 0.572899103 0.087873615
0.972449780 0.571070790 0.090030596
1.005683422 0.569289923 0.092730001
0.000000000 0.607592404 0.118253864
0.000000000 0.595503151 0.125560880
0.000000000 0.590305626 0.128712788
0.019658376 0.587477624 0.129334256
0.180337206 0.587978542 0.128507227
0.291657209 0.591355324 0.127251372
0.390520960 0.597276092 0.124255866
0.499006093 0.607439518 0.118521467
0.603306234 0.617630959 0.111423656
0.700394750 0.626396418 0.103105165
0.787180722 0.633082330 0.094951920
0.845480442 0.635350287 0.091502734
0.900081038 0.637025416 0.088465929
0.947566390 0.637700260 0.087088153
0.981681764 0.636751413 0.089618348
1.014868736 0.635790527 0.092950448
0.000000000 0.649195552 0.114843979
0.000000000 0.638361454 0.125347868
0.000000000 0.633478940 0.129864797
0.000000017 0.632426381 0.131578475
0.108140305 0.635910094 0.131521001
0.256575406 0.642084539 0.130618379
0.365606844 0.650000930 0.128603712
0.479382008 0.661161900 0.123324379
0.588914037 0.672837794 0.115675829
0.688945353 0.682795763 0.106796063
0.781516492 0.690509319 0.097307093
0.845170438 0.693610251 0.092937961
0.900507510 0.695606232 0.089951567
0.951418519 0.696991622 0.088545091
0.988004804 0.696439087 0.091012143
1.021287084 0.695696890 0.095161289
0.000000000 0.686219990 0.113143332
0.000000000 0.679348052 0.126846030
0.000000000 0.675295830 0.132922143
0.000000000 0.674147844 0.136051357
0.038396694 0.677540004 0.137170002
0.212696627 0.683645010 0.137070313
0.338866085 0.692435980 0.135047257
0.457459986 0.705153346 0.129700005
0.572557628 0.719375372 0.121284455
0.675512612 0.731777608 0.111879252
0.771857619 0.742229164 0.101901405
0.842856646 0.748139977 0.095930003
0.899045527 0.751472533 0.093164735
0.952354074 0.754623532 0.091807775
0.993183136 0.755654216 0.095558748
1.027116656 0.755093336 0.101840004
0.000000000 0.715631187 0.116986580
0.000000000 0.710755825 0.131687284
0.000000000 0.709582627 0.138930634
0.000000000 0.712144256 0.142212719
0.004823073 0.717599630 0.143259257
0.147346735 0.723855197 0.143209219
0.306904912 0.732560456 0.141405150
0.433419943 0.744850934 0.136599064
0.554221094 0.759486139 0.129019842
0.660207868 0.772404253 0.120941810
0.759991348 0.784212708 0.111294135
0.837663651 0.792121351 0.105741061
0.895266235 0.796876192 0.105702966
0.950791836 0.801262498 0.105916016
0.995455921 0.803912163 0.109372996
1.030159116 0.804934025 0.115715303
0.000000000 0.743111908 0.122398548
0.000000000 0.738914609 0.139036819
0.000000000 0.737840772 0.146566451
0.000000000 0.740871906 0.149951279
0.000000000 0.748047113 0.150897563
0.089408286 0.757504523 0.150676727
0.269477785 0.768998504 0.149184242
0.406185627 0.782290101 0.145955503
0.533363879 0.798449993 0.139633298
0.643778920 0.812600613 0.133355454
0.746505260 0.825184941 0.126834407
0.831001878 0.834437490 0.122351691
0.890504360 0.839485586 0.122676827
0.946907163 0.844073772 0.123584211
0.995373726 0.847344041 0.126330391
1.031199217 0.848659277 0.132288679
0.000000000 0.769939959 0.129993305
0.000000000 0.766461492 0.146552712
0.000000000 0.765320301 0.154023409
0.000000000 0.768236399 0.157811552
0.000000000 0.775329471 0.159800410
0.030647159 0.785016775 0.161603555
0.226828992 0.796874285 0.162509218
0.377656698 0.811910033 0.161029994
0.511261344 0.830420971 0.156622916
0.626305342 0.847323358 0.151314288
0.731386602 0.862234652 0.145326868
0.822234035 0.874198020 0.140232444
0.884948730 0.881062865 0.140092298
0.942002952 0.886184216 0.141341388
0.994076610 0.890039921 0.143756643
1.031406760 0.891529918 0.149503320
0.000000000 0.790120006 0.139990002
0.000000000 0.789279997 0.154820010
0.000000000 0.791079164 0.162077293
0.000000000 0.795643747 0.167796969
0.000000000 0.803103328 0.172813341
0.005812264 0.812921762 0.176411614
0.172018558 0.824684262 0.178588137
0.345636666 0.839296639 0.178526670
0.488423318 0.857836664 0.175193340
0.608417153 0.875250518 0.170756653
0.715703785 0.891105056 0.165768817
0.811653376 0.904883325 0.161156669
0.878048539 0.913318336 0.160917222
0.935751736 0.920197010 0.161965743
0.990426600 0.926463306 0.163470000
1.030439973 0.930180013 0.167919993
0.143299997 0.123050004 0.127939999
0.204843327 0.131173342 0.146306664
0.283353895 0.140327305 0.151608571
0.371853471 0.148534805 0.152279019
0.472016871 0.154389828 0.150491476
0.562328756 0.155984506 0.147862166
0.638599694 0.154214039 0.145185336
0.695482671 0.150659397 0.143226311
0.748506665 0.145299986 0.141653344
0.789379179 0.139739722 0.141125724
0.822953582 0.134087548 0.141485304
0.853680551 0.128259882 0.142549887
0.878137529 0.123200022 0.144603521
0.895236373 0.119406618 0.147607610
0.912099481 0.116095126 0.151183948
0.929043293 0.113096662 0.155223340
0.147263333 0.139820009 0.112220004
0.161453322 0.139143333 0.117096663
0.200919658 0.142895743 0.119633384
0.250117868 0.148417875 0.122109011
0.313253433 0.155280054 0.124262452
0.396244824 0.162942365 0.125464618
0.491078824 0.169043854 0.125452906
0.580355048 0.171699032 0.124637097
0.654606640 0.171523333 0.123910002
0.711413443 0.169655278 0.124111749
0.765733063 0.166421354 0.124721147
0.806350946 0.163276136 0.126430541
0.843218088 0.159786299 0.129151091
0.876942217 0.156217247 0.133046269
0.899238646 0.154229686 0.138066828
0.918506682 0.152836666 0.143516675
0.150046706 0.177563384 0.118603937
0.161816701 0.173483178 0.122602575
0.196578443 0.174150318 0.124035269
0.244631633 0.178130165 0.125980794
0.300837696 0.183426633 0.127857789
0.373662144 0.190213233 0.128932714
0.464790434 0.197403699 0.128676578
0.555884480 0.202020064 0.127290025
0.638548851 0.203720286 0.125926837
0.698138177 0.203193560 0.125384659
0.753287256 0.201517224 0.125667915
0.800063550 0.199142620 0.126755863
0.836825371 0.196634188 0.128749922
0.872519135 0.193761140 0.131707206
0.902400970 0.191199034 0.135938063
0.922058940 0.189798415 0.141365528
0.147913456 0.226800561 0.125367045
0.159466669 0.218442902 0.129033118
0.193214595 0.215395734 0.130085573
0.242166996 0.216012985 0.131339297
0.295658022 0.219004944 0.132821068
0.363643050 0.224288642 0.133643448
0.450100034 0.231613055 0.133237541
0.540833533 0.237771243 0.131625578
0.627910972 0.241381943 0.129642874
0.694242299 0.242285058 0.128644615
0.748754919 0.241742477 0.128778413
0.800437510 0.240281656 0.129203424
0.838050961 0.238384321 0.130880833
0.873281419 0.236177698 0.133277059
0.907339573 0.233761013 0.136671394
0.930566847 0.232055634 0.141581327
0.132991463 0.290733695 0.131685942
0.148245007 0.277227998 0.135711610
0.185584322 0.270399868 0.136753976
0.237647250 0.268396050 0.137851238
0.292914987 0.269420892 0.138994828
0.358537287 0.273273647 0.139540032
0.442337871 0.279403567 0.138800919
0.533406913 0.285541832 0.136811867
0.621526539 0.289865732 0.134571016
0.696126878 0.291838348 0.133096755
0.751159132 0.291689515 0.133061647
0.804192007 0.290792286 0.133065641
0.845846832 0.289143533 0.134144813
0.880116642 0.287143707 0.136461005
0.914279997 0.284978747 0.139543429
0.943565607 0.282876998 0.143568486
0.091606230 0.362866908 0.136095911
0.116641290 0.348654717 0.141281083
0.164916947 0.340722710 0.142998517
0.225931183 0.335971892 0.144140989
0.287974417 0.334748358 0.145024464
0.355539560 0.336370885 0.145209268
0.437645286 0.341001242 0.144163117
0.529882729 0.346755236 0.142171413
0.618885577 0.351142883 0.140147179
0.701993048 0.354219109 0.137995765
0.759272337 0.354373276 0.137519345
0.812048376 0.353753000 0.137291849
0.859175622 0.352474838 0.137705088
0.893148661 0.350463331 0.140184939
0.926950097 0.348373771 0.143259466
0.959368527 0.346245050 0.146749899
0.016361870 0.432613134 0.137762934
0.048122101 0.418213010 0.144568354
0.122386277 0.409632832 0.147256568
0.202832967 0.404552996 0.148554787
0.275892407 0.403590709 0.149348602
0.348079026 0.405570596 0.149540693
0.431473792 0.410681695 0.149056733
0.526543498 0.417738974 0.147246808
0.618116677 0.423208982 0.145049572
0.706543028 0.427305609 0.142032564
0.769991875 0.428182542 0.140700102
0.823056638 0.427755564 0.140276253
0.874230385 0.427030504 0.140369371
0.910027981 0.425149292 0.143090367
0.943304658 0.423034340 0.146245092
0.976523399 0.420863837 0.149580404
0.000000000 0.495738745 0.137466624
0.000000000 0.483298331 0.146353155
0.038361378 0.475883424 0.149664164
0.161615521 0.470839381 0.151320621
0.254715234 0.470246434 0.152579620
0.334280193 0.472229153 0.153383330
0.420198649 0.476920485 0.153422534
0.519181490 0.484699279 0.151542157
0.614049017 0.491649151 0.148821786
0.705175996 0.497369379 0.145202488
0.777624905 0.500284135 0.142726824
0.832010508 0.500882685 0.142338559
0.884671986 0.501208901 0.142656252
0.925286293 0.500295818 0.144888923
0.958633125 0.498736918 0.148060381
0.992094040 0.497128010 0.151349470
0.000000000 0.554146647 0.136170000
0.000000000 0.541429937 0.147203326
0.003348995 0.534033954 0.151612103
0.091169484 0.529764473 0.154214114
0.222360522 0.530371130 0.155902356
0.313450873 0.533662617 0.157182097
0.403766841 0.539365768 0.157203242
0.506892741 0.548540175 0.154931664
0.606893301 0.557623327 0.151440009
0.700659096 0.564827740 0.147510454
0.781959116 0.569406509 0.144316003
0.837725103 0.570257366 0.144327298
0.891303182 0.570837319 0.144777477
0.936864913 0.570445657 0.146346465
0.970471144 0.568830431 0.149716377
1.003983378 0.567303300 0.153873339
0.000000000 0.602921188 0.135668069
0.000000000 0.594068766 0.148309991
0.000000000 0.589482665 0.153621361
0.017944476 0.586075485 0.157025322
0.172860518 0.586739600 0.159260720
0.285109937 0.589752078 0.160713315
0.382996976 0.595322847 0.160827383
0.490984589 0.605262160 0.158503011
0.595457852 0.615419328 0.155040994
0.692215860 0.624179304 0.151334673
0.780365586 0.631147504 0.147338167
0.840161085 0.633697510 0.146849811
0.894649565 0.635498166 0.147037551
0.944733262 0.636690855 0.148073018
0.980269849 0.636204541 0.152658924
1.013923287 0.635573983 0.157946363
0.000000000 0.645940363 0.136449710
0.000000000 0.637929440 0.150266826
0.000000000 0.633788824 0.156966895
0.000000013 0.633076191 0.160697058
0.096562594 0.636533856 0.162848234
0.247521713 0.642142892 0.164232612
0.358560860 0.649396300 0.164441273
0.471695393 0.660121799 0.162373886
0.581531346 0.671687186 0.159036323
0.681271851 0.681032419 0.155335203
0.774736047 0.689038336 0.151140288
0.840209603 0.692614615 0.150179625
0.895590067 0.694869697 0.151440009
0.948298752 0.696791708 0.153653100
0.987148583 0.696840405 0.158216983
1.020790815 0.696372330 0.163811103
0.000000000 0.685743928 0.138287961
0.000000000 0.679919600 0.153291509
0.000000000 0.675917506 0.160680488
0.000000000 0.674981892 0.164821967
0.030808372 0.678447902 0.167589247
0.201746762 0.684457600 0.169539064
0.331064016 0.693173409 0.170122042
0.449441284 0.705578923 0.168415383
0.565284669 0.719839513 0.165051118
0.668274760 0.732031167 0.161515251
0.765785754 0.742662787 0.157431021
0.838671088 0.749170721 0.156691402
0.895122111 0.752792418 0.158394575
0.949954867 0.755945325 0.160310060
0.992497444 0.756683052 0.164433673
1.026528478 0.756106973 0.170280755
0.000000000 0.716313541 0.142880991
0.000000000 0.712759733 0.158196554
0.000000000 0.711808443 0.165644377
0.000000000 0.714455307 0.170021489
0.000077436 0.719039857 0.173327461
0.130551338 0.725219607 0.175924540
0.297781616 0.733788252 0.177141085
0.424843341 0.746019006 0.176987112
0.546915412 0.760817587 0.174737751
0.653596461 0.773903847 0.172127500
0.754290283 0.785994053 0.168608502
0.834099948 0.794352889 0.167096436
0.891761959 0.799044251 0.168640777
0.947563112 0.803422928 0.170452312
0.994365990 0.806277692 0.173808560
1.029472828 0.807259023 0.179332912
0.000000000 0.744169414 0.148761630
0.000000000 0.741037786 0.164919734
0.000000000 0.740400970 0.172932282
0.000000000 0.743804216 0.177898183
0.000000000 0.751161635 0.181656569
0.067668289 0.760750651 0.184954643
0.257200778 0.771883190 0.187425852
0.396881849 0.784942389 0.187974989
0.525902748 0.800974071 0.186174408
0.637498915 0.814676166 0.183879361
0.740525067 0.827104151 0.180802584
0.826844454 0.836558700 0.178894043
0.887007773 0.841643214 0.180519000
0.943440199 0.846158087 0.182597905
0.993708372 0.849644482 0.185519412
1.030251026 0.851008296 0.190748870
0.000000000 0.771495759 0.155086324
0.000000000 0.768702209 0.172035515
0.000000000 0.768238008 0.181274831
0.000000000 0.771800399 0.187936261
0.000000000 0.779281020 0.193206832
0.015940003 0.788945317 0.197363779
0.210418895 0.800743818 0.200277299
0.367717534 0.815512478 0.201156408
0.503844082 0.833767951 0.199486703
0.620168388 0.850318253 0.197169825
0.725653768 0.864958346 0.194293797
0.818090141 0.877080142 0.191950038
0.881455719 0.883553207 0.193236738
0.938534975 0.888201654 0.195456147
0.992260218 0.892335474 0.198750973
1.030343413 0.893958509 0.204492986
0.000000000 0.792603374 0.163860008
0.000000000 0.793046713 0.181279987
0.000000000 0.795465946 0.192334458
0.000000000 0.799913347 0.199867770
0.000000000 0.807243466 0.205592513
0.004895488 0.816817701 0.210178718
0.156829044 0.828399479 0.213527068
0.335310757 0.842700422 0.215094209
0.481093258 0.861036718 0.214289993
0.602388442 0.878327310 0.212540314
0.710141838 0.894026935 0.210197672
0.807632089 0.907908142 0.207734510
0.874681950 0.916399539 0.209012046
0.932523131 0.923339605 0.212010771
0.988623440 0.929850399 0.214848399
1.029439926 0.933723330 0.219903335
0.141140565 0.128444999 0.186788052
0.208314747 0.136414722 0.211820990
0.278922141 0.143934026 0.219325081
0.359163135 0.150985494 0.220515564
0.458015323 0.156819001 0.220402434
0.548531055 0.158746123 0.219027132
0.629367590 0.157172590 0.217078120
0.690141618 0.153592348 0.215356559
0.743688822 0.148301974 0.213912383
0.790854216 0.141905516 0.212887868
0.825453162 0.135981873 0.212612987
0.856312573 0.129996389 0.213106796
0.884108841 0.123968229 0.214565948
0.903438568 0.119361646 0.216986969
0.920432806 0.115739048 0.220381603
0.937534928 0.112443119 0.224503249
0.145572275 0.140798524 0.133072108
0.162931025 0.141480863 0.143915698
0.201502874 0.145212069 0.149754852
0.249238342 0.150513336 0.154927507
0.310409695 0.157059446 0.160171330
0.389923036 0.164358482 0.165365800
0.483610302 0.170482039 0.169507563
0.571500540 0.173317358 0.172548309
0.649467885 0.173303947 0.175202727
0.707713783 0.171491280 0.178141236
0.763200819 0.168191001 0.180842578
0.808279216 0.164578274 0.184040099
0.845491350 0.160977721 0.188265234
0.879862428 0.157164663 0.192811608
0.906026661 0.154321671 0.197972909
0.925479889 0.152748838 0.203787193
0.147817358 0.176263452 0.135840386
0.161661163 0.174079075 0.144633830
0.197116151 0.175134048 0.149753958
0.243358150 0.178987324 0.154083818
0.298283637 0.184086636 0.158151940
0.368733674 0.190502375 0.161901191
0.457563728 0.197504506 0.165550143
0.547667742 0.202218011 0.168289751
0.630346417 0.204210773 0.170661286
0.694270432 0.204130188 0.173383504
0.749299288 0.202646971 0.176108301
0.800164521 0.200148150 0.178842038
0.838310361 0.197594300 0.182422042
0.874203205 0.194680005 0.186853155
0.907054365 0.191705197 0.191850603
0.928165019 0.190082520 0.197855383
0.145034179 0.222994745 0.141383111
0.158528879 0.217022285 0.149464056
0.193398073 0.214540347 0.153706625
0.240719244 0.215282127 0.157420591
0.292580366 0.218297169 0.161036447
0.358959317 0.223922253 0.164382920
0.443409145 0.231277034 0.167168885
0.533572674 0.237498209 0.169475421
0.619169652 0.241186544 0.171380684
0.689723969 0.242403612 0.173587039
0.744575858 0.241948053 0.176119983
0.797988772 0.240529582 0.178534031
0.838798046 0.238598421 0.181775883
0.874201953 0.236366719 0.185570031
0.908949196 0.233885899 0.190162793
0.935649872 0.231913239 0.195727155
0.130604789 0.284080952 0.147605777
0.147093162 0.273725986 0.155734926
0.185479984 0.268139929 0.159629881
0.236311495 0.266880691 0.163108408
0.290136874 0.267935455 0.166372776
0.354127377 0.271576852 0.169314519
0.435570687 0.277515620 0.171531707
0.525904357 0.283932149 0.173297107
0.613187373 0.288354903 0.174703106
0.690613627 0.290635020 0.176211223
0.746580243 0.290617824 0.178442717
0.799481511 0.289782166 0.180652961
0.845288038 0.288240314 0.183420867
0.880216420 0.286238849 0.187061727
0.914602518 0.284079790 0.191424474
0.946836412 0.281871170 0.196381301
0.088729158 0.356151938 0.153052077
0.114524342 0.345059603 0.162104666
0.165012434 0.337492764 0.166214168
0.224554524 0.333054334 0.169576213
0.284907699 0.331967801 0.172629654
0.351317495 0.333542198 0.175256029
0.431030154 0.337842494 0.177162841
0.522205889 0.343698591 0.178645596
0.611035883 0.348543912 0.179671928
0.694228292 0.351750672 0.180545792
0.754454255 0.352297723 0.182313636
0.807113051 0.351773739 0.184363022
0.857059658 0.350719750 0.186681852
0.892591953 0.348826706 0.190312311
0.926689744 0.346830755 0.194681585
0.960227668 0.344800293 0.199403763
0.014354474 0.426292807 0.156421080
0.044662770 0.414802521 0.166619033
0.122370981 0.406921059 0.171436787
0.201055080 0.402324975 0.175052375
0.272192061 0.401464134 0.178134024
0.343469173 0.403406739 0.180760875
0.425120950 0.408235759 0.182912305
0.519300401 0.414783925 0.184101775
0.610602736 0.420144230 0.184824035
0.698555708 0.424318433 0.185141861
0.765064240 0.425721437 0.186332837
0.818124890 0.425430715 0.188240752
0.869876266 0.424846768 0.190402687
0.909140766 0.423320740 0.194114998
0.942748785 0.421302885 0.198583931
0.976281643 0.419262052 0.203303739
0.000000000 0.491144717 0.158154473
0.000000000 0.481237084 0.169692576
0.037035786 0.474168837 0.175307438
0.158672243 0.469324082 0.179215223
0.250239193 0.468638361 0.182368562
0.329214245 0.470315576 0.185367733
0.413767070 0.474735081 0.187809646
0.512116075 0.482404798 0.188833550
0.607095540 0.489452541 0.189239308
0.697817981 0.495223492 0.189205527
0.773052275 0.498669863 0.189615741
0.827448487 0.499395311 0.191505551
0.880395114 0.499871850 0.193988129
0.924516201 0.499420971 0.197516859
0.958263278 0.497949839 0.202131361
0.991985500 0.496308267 0.206962794
0.000000000 0.549984455 0.159335345
0.000000000 0.539779663 0.172007456
0.002148821 0.533013999 0.178270325
0.084568873 0.529139698 0.182446539
0.216693744 0.529838562 0.186047524
0.307813615 0.533013284 0.189629599
0.397185981 0.538254261 0.192230552
0.500065207 0.547345519 0.193122655
0.600086987 0.556463003 0.193080485
0.693435431 0.563221812 0.192808717
0.776476204 0.567901731 0.192755044
0.833416045 0.569074690 0.195010528
0.887096167 0.569808125 0.197691485
0.935525477 0.569879413 0.200890109
0.970111310 0.568531334 0.205601230
1.003877997 0.567117035 0.210608661
0.000000000 0.601264954 0.160437912
0.000000000 0.594217777 0.173963651
0.000000000 0.589239120 0.180788651
0.015053889 0.585792899 0.185634404
0.164492399 0.586597681 0.190101743
0.278587401 0.589629650 0.194043100
