example_ofxGpuLutCube/bin/data/LUT/lut32_Gotham.cube
TITLE "16x16x16 Adobe/IRIDAS cube 3D LUT exported with GrossGrade v0.1.027.1 (beta) 64 bit"
DOMAIN_MIN 0 0 0
DOMAIN_MAX 1 1 1
LUT_3D_SIZE 16
0.000000000 0.000000000 0.000000000
0.000000000 0.000000000 0.000000000
0.000000000 0.000000000 0.000000000
0.000000000 0.000000000 0.000000000
0.000000000 0.000000000 0.000000000
0.000000000 0.000000000 0.000000000
0.000000000 0.000000000 0.000000000
0.000000000 0.000000000 0.000000000
0.000000000 0.000000000 0.000000000
0.000000000 0.002340002 0.001559998
0.002599995 0.002599995 0.036599930
0.085746691 0.138826683 0.190040022
0.229000002 0.259640008 0.280019999
0.323653430 0.335973412 0.344813406
0.402073234 0.409706593 0.413606584
0.454899997 0.466699988 0.466699988
0.000000000 0.000000000 0.000000000
0.000000000 0.000000000 0.000000000
0.000000000 0.000000000 0.000000000
0.000000000 0.000000000 0.000000000
0.000000000 0.000000000 0.000000000
0.000000000 0.000000000 0.000000000
0.000000000 0.000000000 0.000000000
0.000000000 0.000000000 0.000000000
0.000000000 0.000000000 0.001820002
0.001819999 0.000260001 0.003119997
0.000260001 0.000000000 0.035299938
0.078460023 0.124713354 0.177033350
0.229780003 0.260399997 0.280779988
0.326513439 0.338820100 0.347673416
0.402333260 0.409439892 0.413606584
0.462700009 0.474500000 0.474500000
0.000000000 0.000000000 0.000000000
0.000000000 0.000000000 0.000000000
0.000000000 0.000000000 0.000000000
0.000000000 0.000000000 0.000000000
0.000000000 0.000000000 0.000000000
0.000000000 0.000000000 0.000000000
0.000000000 0.000000000 0.000000000
0.000000000 0.000000000 0.000000000
0.000000000 0.000000000 0.000000000
0.000000000 0.001820000 0.001559998
0.000000000 0.000000000 0.031399939
0.080226682 0.125506699 0.176720023
0.231353343 0.261973321 0.282353312
0.325226754 0.337533414 0.346386731
0.402073234 0.409446597 0.413606584
0.454899997 0.466699988 0.466699988
0.000000000 0.000000000 0.000000000
0.000000000 0.000000000 0.000000000
0.000000000 0.000000000 0.000000000
0.000000000 0.000000000 0.000000000
0.000000000 0.000000000 0.000000000
0.000000000 0.000000000 0.000000000
0.000000000 0.000000000 0.000000000
0.000000000 0.000000000 0.000000000
0.000000000 0.000000000 0.000000003
0.000780003 0.000780003 0.002340001
0.002080001 0.000780000 0.041279934
0.071086690 0.120266691 0.177273348
0.220420003 0.250200033 0.271360010
0.320013374 0.335453391 0.341186702
0.404666603 0.412306577 0.416206598
0.458019972 0.465899974 0.466699988
0.000000000 0.000000000 0.000000000
0.000000000 0.000000000 0.000000000
0.000000000 0.000000000 0.000000000
0.000000000 0.000000000 0.000000000
0.000000000 0.000000000 0.000000000
0.000000000 0.000000000 0.000000000
0.000000000 0.000000000 0.000000000
0.000000000 0.000000000 0.000000000
0.001820002 0.000000000 0.001040003
0.000000000 0.000000000 0.001040003
0.000000000 0.001559996 0.040239930
0.070046686 0.119226694 0.175453350
0.226946637 0.254386663 0.275806636
0.317933410 0.333633423 0.339613408
0.401806593 0.409446597 0.413606584
0.454899997 0.466699988 0.466699988
0.000000000 0.000000000 0.000000000
0.000000000 0.000000000 0.000000000
0.000000000 0.000000000 0.000000000
0.000000000 0.000000000 0.000000000
0.000000000 0.000000000 0.000000000
0.000000000 0.000000000 0.000000000
0.000000000 0.000000000 0.000000000
0.000000000 0.000000000 0.000000000
0.000000005 0.000000000 0.002599997
0.001039999 0.000000000 0.001039999
0.000000000 0.001299997 0.041799925
0.076580033 0.126800030 0.180653363
0.229293332 0.257493317 0.277140021
0.319720089 0.335420072 0.342993408
0.405713230 0.412046582 0.416206598
0.456233352 0.467933357 0.467933357
0.000000000 0.000000000 0.000000000
0.000000000 0.000000000 0.000000000
0.000000000 0.000000000 0.000000000
0.000000000 0.000000000 0.000000000
0.000000000 0.000000000 0.000000000
0.000000000 0.000000000 0.000000000
0.000000000 0.000000000 0.000000000
0.000000000 0.000000000 0.000000000
0.000000000 0.001560000 0.001560006
0.000779996 0.000779996 0.000000000
0.000000006 0.001560000 0.039719932
0.071606688 0.120266691 0.173080027
0.225100011 0.252560019 0.274499983
0.324420094 0.340120107 0.349020094
0.403886586 0.409446567 0.413606584
0.458020002 0.469819993 0.469819993
0.000000000 0.000000000 0.000000000
0.000000000 0.000000000 0.000000000
0.000000000 0.000000000 0.000000000
0.000000000 0.000000000 0.000000000
0.000000000 0.000000000 0.000000000
0.000000000 0.000000000 0.000000000
0.000000000 0.000000000 0.000000000
0.000000000 0.000000000 0.000000000
0.000000007 0.000000000 0.002079998
0.000000000 0.000000000 0.000000000
0.001299998 0.001299998 0.036859933
0.079193369 0.128373370 0.178833351
0.230346650 0.257766664 0.279479980
0.325746715 0.341966689 0.348726690
0.403893232 0.409706593 0.413866580
0.456979990 0.468780011 0.468780011
0.000000000 0.003900000 0.001820002
0.002079998 0.000000000 0.000000000
0.000000002 0.000000000 0.000520001
0.000000000 0.001299997 0.000000000
0.001039999 0.001039999 0.002080001
0.000000000 0.000000000 0.000780000
0.000000000 0.000000000 0.001560006
0.000000000 0.000000000 0.002079998
0.000000000 0.002079997 0.000000000
0.000000000 0.001559998 0.004160004
0.001300005 0.002079997 0.036599930
0.083413340 0.134906679 0.186120003
0.234540001 0.260939986 0.285479963
0.321573436 0.337273419 0.342733383
0.397906601 0.407313257 0.409706593
0.454899997 0.466699988 0.466699988
0.000000000 0.002340002 0.000000000
0.001559998 0.000000000 0.000000000
0.000000000 0.000000000 0.003900000
0.000000000 0.001559999 0.000000000
0.002600001 0.001040003 0.001040003
0.001559998 0.002860001 0.001559998
0.000000000 0.000000000 0.001560006
0.001039999 0.001039999 0.002599997
0.000000000 0.002079997 0.003380001
0.003119997 0.001559998 0.000000000
0.002860006 0.000000000 0.027966654
0.087553352 0.128613353 0.181420028
0.231399909 0.258839905 0.282339901
0.323133439 0.339353412 0.344293416
0.401026577 0.408919901 0.409179926
0.458020002 0.473719984 0.469779998
0.000000000 0.000000000 0.031399939
0.000000001 0.000000000 0.028733278
0.001300003 0.001300003 0.029266611
0.001819998 0.000000000 0.030599939
0.001039999 0.001039999 0.033739943
0.000000000 0.000000000 0.030066613
0.001560000 0.001560000 0.033193290
0.000000000 0.000000000 0.028213283
0.004159995 0.000000000 0.028213296
0.001559998 0.004679994 0.032706618
0.000000000 0.002599995 0.028733278
0.077400014 0.115260050 0.172046721
0.217246696 0.247333348 0.270833373
0.313186765 0.328886777 0.337013423
0.403133214 0.408333242 0.411259890
0.460100025 0.474499971 0.474499971
0.071086690 0.119226694 0.173560008
0.087046690 0.136486679 0.182760000
0.082600027 0.134640023 0.178833351
0.085466675 0.134646684 0.185079992
0.071086690 0.119226694 0.172546685
0.076840028 0.126020044 0.177013353
0.079726666 0.128906667 0.179859996
0.084420033 0.133600026 0.184033349
0.084186681 0.133866668 0.178840011
0.088086694 0.137786686 0.182760015
0.087853357 0.139086694 0.183020025
0.095653355 0.151100025 0.193446666
0.237633318 0.269053310 0.292553306
0.323133439 0.338820100 0.344293416
0.401806593 0.408646584 0.409706593
0.454899997 0.466699988 0.466699988
0.236120000 0.258859992 0.279240012
0.231346667 0.258060008 0.278439999
0.231646657 0.262219995 0.279480010
0.226659998 0.258839995 0.275320023
0.235053331 0.260940015 0.282360017
0.224320024 0.250993341 0.272673368
0.234520003 0.260419995 0.282360017
0.232426673 0.259099990 0.279480010
0.230846673 0.257540017 0.280000001
0.221160054 0.247880042 0.270600051
0.232179984 0.260140002 0.283119977
0.228980020 0.260399997 0.280000001
0.236120000 0.261979997 0.282359958
0.325986713 0.339086682 0.351146698
0.402066559 0.409966558 0.413346589
0.453340024 0.468259990 0.469040006
0.323653430 0.339353412 0.341966689
0.323133439 0.338820100 0.341693372
0.316880107 0.329646736 0.335713387
0.325733453 0.338573426 0.344566703
0.323133439 0.339353412 0.347673416
0.323133439 0.339353412 0.347673416
0.323133439 0.339353412 0.347673416
0.318146765 0.334366739 0.342733413
0.325213432 0.337520063 0.346373409
0.322326750 0.336206704 0.344553381
0.325733453 0.338820100 0.347673416
0.322093427 0.334920049 0.343773395
0.326253444 0.339093417 0.348193407
0.331020117 0.339873403 0.348193407
0.401546597 0.409706593 0.413866580
0.458279997 0.470080018 0.470080018
0.401806593 0.413086563 0.413606584
0.401806593 0.413086563 0.413606584
0.401806593 0.409699887 0.409966588
0.404666603 0.412819862 0.412826598
0.404406577 0.412046582 0.415946603
0.400773227 0.409966588 0.412566572
0.403886586 0.411526561 0.415686607
0.402073234 0.411526591 0.413606584
0.401806593 0.409446567 0.413606584
0.404413223 0.412046582 0.416206598
0.398166597 0.405713230 0.409966588
0.399466634 0.407026619 0.411266655
0.401546597 0.412566572 0.416726619
0.401286602 0.409446597 0.413346589
0.401546597 0.416986614 0.417246610
0.462180018 0.474240005 0.473980010
0.458799988 0.462700009 0.466699988
0.458799988 0.466699988 0.466699988
0.458279997 0.466166645 0.466166645
0.454899997 0.466699988 0.466699988
0.455940008 0.467739999 0.467739999
0.454899997 0.466699988 0.466699988
0.454899997 0.466699988 0.466699988
0.452820003 0.464566678 0.464566678
0.456979990 0.466699988 0.466699988
0.458799988 0.466699988 0.466699988
0.457499981 0.465366662 0.467966676
0.457759976 0.465633333 0.466699988
0.454120010 0.469820023 0.469820023
0.457760006 0.469546705 0.466166675
0.454640001 0.466433316 0.466433316
0.454899997 0.466699988 0.466699988
0.000000000 0.000000000 0.000000000
0.000000000 0.000000000 0.000000000
0.000000000 0.000000000 0.000000000
0.000000000 0.000000000 0.000000000
0.000000000 0.000000000 0.000000000
0.000000000 0.000000000 0.000000000
0.000000000 0.000000000 0.000000000
0.000000000 0.000000000 0.000000000
0.001819998 0.001820002 0.001819998
0.002600002 0.001559998 0.001559998
0.000000000 0.002339995 0.041539922
0.072393358 0.124173358 0.173306674
0.230300009 0.259359986 0.283380002
0.327033430 0.339093417 0.347413421
0.397646606 0.409966588 0.413346589
0.458799988 0.462700009 0.466699988
0.000000000 0.000000000 0.000000000
0.000000000 0.000000000 0.000000000
0.000000000 0.000000000 0.000000000
0.000000000 0.000000000 0.000000000
0.000000000 0.000000000 0.000000000
0.000000000 0.000000000 0.000000000
0.000000000 0.000000000 0.000000000
0.000000000 0.000000000 0.000000000
0.001820001 0.000260000 0.001819998
0.004420002 0.006006677 0.022460025
0.080259934 0.125753269 0.179639950
0.224333361 0.253866702 0.275026709
0.321553349 0.334913313 0.350606680
0.400246769 0.408393413 0.408913404
0.459586561 0.467739940 0.463746637
0.523953319 0.519693375 0.511893332
0.000000000 0.000000000 0.000000000
0.000000000 0.000000000 0.000000000
0.000000000 0.000000000 0.000000000
0.000000000 0.000000000 0.000000000
0.000000000 0.000000000 0.000000000
0.000000000 0.000000000 0.000000000
0.000000000 0.000000000 0.000000000
0.000000000 0.000000000 0.000000000
0.002079998 0.002080002 0.001820001
0.004160001 0.005740010 0.024846695
0.073479891 0.120786592 0.175186589
0.214646697 0.242106676 0.269826710
0.315840006 0.328086644 0.336739987
0.394526750 0.406240046 0.407020032
0.462713271 0.473979950 0.473713279
0.520219982 0.512939990 0.508513331
0.000000000 0.000000000 0.000000000
0.000000000 0.000000000 0.000000000
0.000000000 0.000000000 0.000000000
0.000000000 0.000000000 0.000000000
0.000000000 0.000000000 0.000000000
0.000000000 0.000000000 0.000000000
0.000000000 0.000000000 0.000000000
0.000000000 0.000000000 0.000000000
0.003119995 0.002079999 0.001820005
0.000520002 0.006266678 0.023760021
0.077673249 0.126019925 0.178799957
0.219613343 0.247866675 0.276320010
0.321033359 0.333859980 0.345593303
0.397900075 0.402860045 0.403640032
0.456726611 0.463239908 0.462446600
0.527066648 0.522893310 0.517873287
0.000000000 0.000000000 0.000000000
0.000000000 0.000000000 0.000000000
0.000000000 0.000000000 0.000000000
0.000000000 0.000000000 0.000000000
0.000000000 0.000000000 0.000000000
0.000000000 0.000000000 0.000000000
0.000000000 0.000000000 0.000000000
0.000000000 0.000000000 0.000000000
0.000260000 0.000000000 0.001039999
0.001560000 0.005480010 0.028500028
0.077886596 0.127059922 0.179599941
0.219873369 0.251766682 0.275806695
0.319233298 0.331993341 0.340653330
0.401286721 0.409180075 0.409420043
0.456726581 0.464286625 0.467473298
0.521326721 0.517353356 0.512133300
0.000000000 0.000000000 0.000000000
0.000000000 0.000000000 0.000000000
0.000000000 0.000000000 0.000000000
0.000000000 0.000000000 0.000000000
0.000000000 0.000000000 0.000000000
0.000000000 0.000000000 0.000000000
0.000000000 0.000000000 0.000000000
0.000000000 0.000000000 0.000000000
0.000260003 0.000780004 0.000000005
0.002600000 0.004960012 0.026153363
0.077879906 0.124979943 0.176193267
0.220913365 0.251773357 0.273186713
0.324180007 0.337013334 0.346113354
0.399466753 0.407313377 0.408353359
0.464593261 0.472159952 0.475013286
0.527326643 0.523426652 0.515533328
0.000000000 0.000000000 0.000000000
0.000000000 0.000000000 0.000000000
0.000000000 0.000000000 0.000000000
0.000000000 0.000000000 0.000000000
0.000000000 0.000000000 0.000000000
0.000000000 0.000000000 0.000000000
0.000000000 0.000000000 0.000000000
0.000000000 0.000000000 0.000000000
0.000260000 0.000000001 0.000000001
0.001559998 0.003920010 0.024593368
0.078139909 0.126013249 0.177239940
0.220619991 0.252559960 0.274233341
0.324173331 0.336213320 0.344553322
0.399466723 0.407313377 0.408873379
0.461666584 0.469033271 0.472153276
0.526553333 0.521286726 0.517093301
0.000000000 0.000000000 0.000000000
0.000000000 0.000000000 0.000000000
0.000000000 0.000000000 0.000000000
0.000000000 0.000000000 0.000000000
0.000000000 0.000000000 0.000000000
0.000000000 0.000000000 0.000000000
0.000000000 0.000000000 0.000000000
0.000000000 0.000000000 0.000000000
0.000260000 0.000000000 0.001819995
0.002340002 0.006000011 0.027980033
0.080493242 0.128626585 0.181146607
0.221953362 0.252826691 0.275800020
0.324433297 0.336473316 0.345333308
0.404160023 0.412046731 0.411540031
0.465093225 0.472419918 0.475273252
0.528113365 0.521826625 0.517353296
0.000260000 0.000000001 0.000000000
0.001819998 0.000260001 0.003639996
0.002080000 0.000000000 0.004419997
0.003119995 0.001819999 0.001300002
0.000260000 0.000779999 0.000260003
0.002080001 0.001039998 0.001820001
0.002080001 0.000000000 0.002079996
0.003639997 0.001559995 0.002080002
0.000000001 0.001819998 0.000260000
0.005199998 0.003913345 0.017253360
0.079719886 0.133339912 0.177259937
0.217533350 0.246800005 0.275046676
0.317393333 0.331226677 0.342473328
0.398680091 0.405460060 0.407313406
0.458026588 0.465086609 0.463006616
0.523953378 0.517873347 0.511893332
0.000260001 0.000000000 0.005199998
0.001559998 0.004446678 0.018560026
0.000260001 0.004180011 0.028493363
0.004953336 0.004966680 0.033740032
0.004166672 0.006006683 0.028500034
0.002080000 0.007046678 0.028753361
0.000260001 0.005480017 0.028233368
0.000260001 0.004700011 0.027713362
0.000260007 0.004180015 0.031353366
0.001306670 0.004966680 0.035780031
0.071873277 0.122866601 0.175179973
0.223773375 0.255173355 0.277413368
0.321033329 0.333073318 0.343253344
0.403640062 0.410486728 0.412566721
0.459066600 0.466439962 0.466173291
0.529673338 0.522086680 0.517613351
0.001300005 0.004679990 0.028999945
0.071346559 0.113986582 0.173853248
0.070319898 0.121346585 0.179346591
0.075299896 0.118699938 0.167339951
0.072933249 0.113473251 0.170733273
0.074246563 0.122346587 0.174146608
0.071873263 0.121046610 0.178046629
0.073446602 0.117926620 0.173066616
0.073733233 0.121566579 0.177513272
0.073439918 0.122093268 0.180646583
0.071873233 0.127806574 0.177266613
0.214626685 0.248886675 0.274006695
0.323639989 0.336739957 0.346373290
0.400506735 0.408120036 0.411760032
0.457759947 0.465106577 0.464846581
0.528366685 0.522093296 0.516313314
0.078173354 0.132293358 0.179613352
0.217273355 0.246026680 0.274533361
0.227700025 0.259613335 0.273973346
0.221680030 0.252826691 0.275853366
0.217820019 0.244986683 0.274800032
0.231933355 0.260133356 0.282073349
0.221973360 0.250213355 0.276859999
0.228780031 0.257013351 0.278426677
0.231933340 0.253593326 0.277153343
0.215960026 0.245506674 0.278193355
0.231640026 0.265100032 0.281586677
0.236893356 0.258860022 0.287033349
0.318720013 0.330966711 0.340400010
0.398686737 0.406773388 0.407553375
0.457766593 0.469039947 0.465066642
0.532266617 0.521319985 0.516833305
0.235853329 0.261979997 0.282360017
0.320773333 0.337773323 0.349826664
0.323913306 0.338573307 0.347420007
0.315793335 0.330693334 0.343006670
0.317626685 0.330459982 0.336959988
0.325733304 0.337773323 0.344293356
0.322613329 0.337013334 0.343253314
0.320539981 0.335159957 0.341433346
0.319993347 0.334886670 0.342473328
0.319493353 0.336753339 0.342993319
0.323399991 0.338293314 0.347160012
0.322613329 0.338033319 0.346893340
0.322339982 0.335433304 0.343773305
0.395826787 0.403120041 0.407286704
0.458539933 0.468499959 0.465639919
0.525773346 0.520753384 0.517113328
0.323393434 0.342733443 0.347413421
0.394266754 0.405973405 0.409706742
0.398426712 0.406500041 0.407546699
0.405186743 0.406506717 0.410746723
0.401820034 0.409686714 0.408066720
0.400500089 0.408893406 0.407853395
0.398686767 0.408393413 0.408113420
0.396346778 0.406793416 0.406286716
0.400506735 0.405206710 0.408113360
0.404926747 0.409706742 0.411786735
0.405186743 0.409706742 0.411266714
0.402326733 0.407593429 0.408646733
0.398933411 0.408646762 0.408906758
0.398166746 0.409706742 0.413346738
0.456733227 0.464539915 0.464013308
0.527593315 0.519953370 0.512673318
0.401546597 0.412826568 0.416986614
0.456733286 0.464013308 0.464013308
0.456473261 0.467479944 0.467746615
0.462446600 0.477099925 0.473719925
0.460893244 0.475279927 0.475019932
0.459619910 0.469559938 0.472413272
0.459586561 0.467213273 0.466953248
0.462226599 0.468259931 0.471379936
0.457506597 0.466699898 0.469813257
0.461673230 0.469299942 0.472413272
0.463773251 0.471633285 0.474753290
0.458546609 0.466153294 0.469553322
0.466433197 0.473459899 0.470333219
0.462706536 0.473459899 0.469806582
0.462966621 0.473719865 0.470073253
0.523946702 0.523159981 0.515273333
0.458799988 0.466699988 0.462966681
0.523953319 0.523426652 0.511633337
0.523953378 0.519953370 0.511893332
0.524726629 0.520486712 0.512153327
0.526286662 0.518913388 0.514493346
0.523686707 0.518653393 0.511893332
0.521053374 0.517093360 0.509293377
0.525506616 0.521826625 0.515273333
0.523426652 0.519433320 0.513453364
0.525766671 0.521826625 0.513713360
0.517353356 0.515013397 0.506953359
0.528886676 0.525219977 0.517093301
0.521326721 0.517873347 0.513713360
0.522893310 0.519173324 0.511113346
0.523160040 0.518913329 0.514493346
0.523426652 0.519693315 0.511633337
0.000000000 0.000000000 0.000000000
0.000000000 0.000000000 0.000000000
0.000000000 0.000000000 0.000000000
0.000000000 0.000000000 0.000000000
0.000000000 0.000000000 0.000000000
0.000000000 0.000000000 0.000000000
0.000000000 0.000000000 0.000000000
0.000000000 0.000000000 0.000000000
0.002079997 0.001820002 0.005213332
0.000000000 0.002080000 0.001040003
0.001300003 0.000000000 0.039219946
0.067186691 0.120266691 0.174093351
0.223053336 0.248913303 0.272673339
0.318973392 0.330700040 0.339626700
0.401286572 0.412293255 0.416726619
0.458279997 0.467219979 0.470080018
0.000000000 0.000000000 0.000000000
0.000000000 0.000000000 0.000000000
0.000000000 0.000000000 0.000000000
0.000000000 0.000000000 0.000000000
0.000000000 0.000000000 0.000000000
0.000000000 0.000000000 0.000000000
0.000000000 0.000000000 0.000000000
0.000000000 0.000000000 0.000000000
0.006539998 0.000260000 0.003119997
0.002080001 0.005740009 0.035826702
0.074506588 0.127586603 0.179379955
0.226146698 0.259093344 0.273713320
0.322613329 0.336233348 0.347153336
0.404933423 0.412566751 0.416726768
0.466173261 0.471119940 0.467479914
0.520746708 0.516573370 0.508513331
0.000000000 0.000000000 0.000000000
0.000000000 0.000000000 0.000000000
0.000000000 0.000000000 0.000000000
0.000000000 0.000000000 0.000000000
0.000000000 0.000000000 0.000000000
0.000000000 0.000000000 0.000000000
0.000000000 0.000000000 0.000000000
0.000000000 0.000000000 0.000000000
0.005226660 0.010713322 0.035546646
0.065626733 0.114013396 0.159220055
0.221719965 0.249433309 0.279760003
0.323886693 0.337260008 0.342473358
0.399973333 0.408633322 0.408633292
0.457240075 0.465126753 0.464086741
0.524733245 0.521006703 0.516066670
0.576686680 0.572786689 0.556566715
0.000000000 0.000000000 0.000000000
0.000000000 0.000000000 0.000000000
0.000000000 0.000000000 0.000000000
0.000000000 0.000000000 0.000000000
0.000000000 0.000000000 0.000000000
0.000000000 0.000000000 0.000000000
0.000000000 0.000000000 0.000000000
0.000000000 0.000000000 0.000000000
0.001820002 0.008359991 0.040513329
0.081033371 0.125233397 0.183006704
0.220893294 0.249919981 0.272693306
0.322093368 0.335953325 0.347726673
0.396866679 0.408113331 0.408913344
0.461413383 0.470860034 0.467993379
0.526799917 0.523413241 0.514486611
0.583266675 0.582486689 0.562626719
0.000000000 0.000000000 0.000000000
0.000000000 0.000000000 0.000000000
0.000000000 0.000000000 0.000000000
0.000000000 0.000000000 0.000000000
0.000000000 0.000000000 0.000000000
0.000000000 0.000000000 0.000000000
0.000000000 0.000000000 0.000000000
0.000000000 0.000000000 0.000000000
0.000000002 0.008879991 0.031373315
0.073973387 0.123400047 0.176720023
0.236093283 0.265619934 0.283139974
0.326006681 0.338313341 0.345866680
0.403106660 0.411513329 0.410733312
0.463246703 0.473993361 0.472940028
0.523426592 0.516853392 0.509286702
0.585873306 0.581439972 0.558459997
0.000000000 0.000000000 0.000000000
0.000000000 0.000000000 0.000000000
0.000000000 0.000000000 0.000000000
0.000000000 0.000000000 0.000000000
0.000000000 0.000000000 0.000000000
0.000000000 0.000000000 0.000000000
0.000000000 0.000000000 0.000000000
0.000000000 0.000000000 0.000000000
0.001299997 0.010179987 0.035533316
0.068740077 0.120780066 0.172786713
0.231359944 0.261719972 0.281319976
0.322613388 0.338313341 0.344293356
0.401026636 0.409413338 0.410206676
0.458306730 0.468520045 0.468246728
0.525779903 0.518660009 0.513719976
0.587433338 0.583013356 0.559513390
0.000000000 0.000000000 0.000000000
0.000000000 0.000000000 0.000000000
0.000000000 0.000000000 0.000000000
0.000000000 0.000000000 0.000000000
0.000000000 0.000000000 0.000000000
0.000000000 0.000000000 0.000000000
0.000000000 0.000000000 0.000000000
0.000000000 0.000000000 0.000000000
0.003913331 0.009933322 0.035806648
0.070586726 0.119993381 0.172293365
0.223019972 0.250726670 0.271626651
0.323393345 0.335673362 0.342720002
0.396346658 0.408086658 0.406806678
0.455173403 0.465860039 0.467726707
0.527586579 0.520479918 0.516059935
0.580353379 0.575933397 0.552953362
0.000000000 0.000000000 0.000000000
0.000000000 0.000000000 0.000000000
0.000000000 0.000000000 0.000000000
0.000000000 0.000000000 0.000000000
0.000000000 0.000000000 0.000000000
0.000000000 0.000000000 0.000000000
0.000000000 0.000000000 0.000000000
0.000000000 0.000000000 0.000000000
0.000519999 0.009139987 0.030333312
0.076573379 0.126820043 0.179093361
0.237386599 0.266399950 0.285479933
0.328386694 0.343526691 0.350053340
0.401286662 0.412293315 0.412306666
0.457513392 0.469300061 0.468780071
0.527066588 0.519993305 0.515539944
0.584833324 0.579079986 0.556100011
0.003899998 0.000000002 0.003393332
0.003119997 0.000260000 0.003639997
0.002340004 0.008359991 0.029813316
0.000780001 0.009659993 0.039206646
0.003653329 0.010973320 0.037639976
0.002599996 0.009919987 0.039193310
0.002859995 0.011219988 0.037106637
0.002613330 0.010193324 0.041299950
0.000519999 0.007839991 0.036613315
0.044433415 0.106900081 0.153726742
0.236859962 0.269779980 0.287833303
0.318440050 0.332006693 0.338820010
0.392433345 0.408113331 0.405486673
0.458553374 0.469286740 0.468766719
0.530186594 0.522346556 0.515266657
0.582233369 0.583013356 0.560033381
0.000000000 0.002080000 0.001820000
0.003379998 0.004446678 0.027453365
0.074253395 0.120253392 0.168626711
0.078166738 0.128360063 0.176180065
0.071346730 0.123426728 0.173066705
0.069020063 0.120773390 0.174626708
