example_ofxGpuLutCube/bin/data/LUT/lut32_Gotham.cube
TITLE "16x16x16 Adobe/IRIDAS cube 3D LUT exported with GrossGrade v0.1.027.1 (beta) 64 bit"
DOMAIN_MIN 0 0 0
DOMAIN_MAX 1 1 1
LUT_3D_SIZE 6
0.000000000 0.000000000 0.000000000
0.000000000 0.000000000 0.000000000
0.000000000 0.000000000 0.000000000
0.000000000 0.002340002 0.001559998
0.229000002 0.259640008 0.280019999
0.454899997 0.466699988 0.466699988
0.000000000 0.000000000 0.000000000
0.000000000 0.000000000 0.000000000
0.000000000 0.000000000 0.000000000
0.000780003 0.000780003 0.002340001
0.220420003 0.250200033 0.271360010
0.458019972 0.465899974 0.466699988
0.000000000 0.000000000 0.000000000
0.000000000 0.000000000 0.000000000
0.000000000 0.000000000 0.000000000
0.000779996 0.000779996 0.000000000
0.225100011 0.252560019 0.274499983
0.458020002 0.469819993 0.469819993
0.000000000 0.002340002 0.000000000
0.000000000 0.001559999 0.000000000
0.000000000 0.000000000 0.001560006
0.003119997 0.001559998 0.000000000
0.231399909 0.258839905 0.282339901
0.458020002 0.473719984 0.469779998
0.236120000 0.258859992 0.279240012
0.226659998 0.258839995 0.275320023
0.234520003 0.260419995 0.282360017
0.221160054 0.247880042 0.270600051
0.236120000 0.261979997 0.282359958
0.453340024 0.468259990 0.469040006
0.458799988 0.462700009 0.466699988
0.454899997 0.466699988 0.466699988
0.454899997 0.466699988 0.466699988
0.458799988 0.466699988 0.466699988
0.454120010 0.469820023 0.469820023
0.454899997 0.466699988 0.466699988
0.000000000 0.000000000 0.000000000
0.000000000 0.000000000 0.000000000
0.000000000 0.000000000 0.003119997
0.002340002 0.000000000 0.007019997
0.230580017 0.258059978 0.280000001
0.456459999 0.467480004 0.467480004
0.000000000 0.000000000 0.000000000
0.000000000 0.000000000 0.000000000
0.001560006 0.000000000 0.000000000
0.216440067 0.250960052 0.273720056
0.461179972 0.468239993 0.468239993
0.636879981 0.625100017 0.603920043
0.000000000 0.000000000 0.003119997
0.001560006 0.000000000 0.000000000
0.004700003 0.000000000 0.006239994
0.211800069 0.237660050 0.262720048
0.460379988 0.468240023 0.465900004
0.637660027 0.626660049 0.604700029
0.000780003 0.003119997 0.000000000
0.211760059 0.247840062 0.272980034
0.217260063 0.247860044 0.274520040
0.231380060 0.256480038 0.275320023
0.461960047 0.469020039 0.470580041
0.635340035 0.625100076 0.600020051
0.230560005 0.261179984 0.277660012
0.461180031 0.468240023 0.468240023
0.467480004 0.475279987 0.474480003
0.459600002 0.468240023 0.469800025
0.465919971 0.470580041 0.470580012
0.636900008 0.629020035 0.603139997
0.457239985 0.466699988 0.466699988
0.633759975 0.621980011 0.599260032
0.634540081 0.623539984 0.598460019
0.636880040 0.625880003 0.599240005
0.636880040 0.628220022 0.603920043
0.636880040 0.626660049 0.600799978
0.000000000 0.000000000 0.000000000
0.000000000 0.000000000 0.000000000
0.000000000 0.001560006 0.002339994
0.005460006 0.000000000 0.002339994
0.232919976 0.259619981 0.281579942
0.448660016 0.466699988 0.464300007
0.000000000 0.000000000 0.000000000
0.000000000 0.000000000 0.000000000
0.002340009 0.000000000 0.002360009
0.225860059 0.255680025 0.276860029
0.463519990 0.469819993 0.469819993
0.636880040 0.625100017 0.603139997
0.001560006 0.000000000 0.003900000
0.000000000 0.000780003 0.000780003
0.236080140 0.254900128 0.282320082
0.461960047 0.472140074 0.469800085
0.636080027 0.626680017 0.602339983
0.781940043 0.770200074 0.717640042
0.002340002 0.000000000 0.006240008
0.223560080 0.251020044 0.270600021
0.469820082 0.474540055 0.473760068
0.465120077 0.470580071 0.469780058
0.638440073 0.630580008 0.603920043
0.781159997 0.770200074 0.716859996
0.233699977 0.260419995 0.280799985
0.463539958 0.468200028 0.469000012
0.637639999 0.629800081 0.602360010
0.635300040 0.627460063 0.599219978
0.644720018 0.634520054 0.607040048
0.778820038 0.765480042 0.716859996
0.456459999 0.469819993 0.472160012
0.638460040 0.627439976 0.600020051
0.781940043 0.770200014 0.717640042
0.776480079 0.767080069 0.712960064
0.777260065 0.767860055 0.713740051
0.781160057 0.770200074 0.717640042
0.000000000 0.000000000 0.003900000
0.000000000 0.003900000 0.004679995
0.000000000 0.000000000 0.006280010
0.001559998 0.000000000 0.001559998
0.225920051 0.249420017 0.275280029
0.450219989 0.469040006 0.466699988
0.000000000 0.001559999 0.000780003
0.217260063 0.248640046 0.273720056
0.220380083 0.251780063 0.274500042
0.217240050 0.245520055 0.270600021
0.460399985 0.466640025 0.465860009
0.638440013 0.627439976 0.603140056
0.001559998 0.001559998 0.000000000
0.220380038 0.250220031 0.271360010
0.462740064 0.472160071 0.466660053
0.461140066 0.470560044 0.468220025
0.636860013 0.629040003 0.603139997
0.781159997 0.772540092 0.716080070
0.001559998 0.001559998 0.000000000
0.225120053 0.257260054 0.279219985
0.466700047 0.472940058 0.470560044
0.640000045 0.632160068 0.603920043
0.778840005 0.768639982 0.716859937
0.901960015 0.887820005 0.817219973
0.233700007 0.258859962 0.282359987
0.461179972 0.469039947 0.465860009
0.638420045 0.630580068 0.602360010
0.779619992 0.769419968 0.716079950
0.782739997 0.771759987 0.718419969
0.905080020 0.891780019 0.822759986
0.451000005 0.470600009 0.466699988
0.639220059 0.627440035 0.604700029
0.781940043 0.770200074 0.713739991
0.904300034 0.890160024 0.817219973
0.903520048 0.888599992 0.818059981
0.902740002 0.886260033 0.819620013
0.230560005 0.258859992 0.282360017
0.232140020 0.262760013 0.282339990
0.229780018 0.260399997 0.277660012
0.231339991 0.261979997 0.279240012
0.233760014 0.257279992 0.274540037
0.451000005 0.469820023 0.463499993
0.225860000 0.256480008 0.280759990
0.458039999 0.468259990 0.468259990
0.458819985 0.470579982 0.467459977
0.455700010 0.466680020 0.463540018
0.464300036 0.471380025 0.469040006
0.638440013 0.626660049 0.600799978
0.223540008 0.252560019 0.276840001
0.458820015 0.465920001 0.466680020
0.633700073 0.626680017 0.600020051
0.640760064 0.629820049 0.603920043
0.637639999 0.629800022 0.600799978
0.783540010 0.770200014 0.715300024
0.219640061 0.247860044 0.273700058
0.460380018 0.468260050 0.467460066
0.641580045 0.632160008 0.603919983
0.778060019 0.767859995 0.714519978
0.783520043 0.770200014 0.716859937
0.899619997 0.889380038 0.816439986
0.233699992 0.261979997 0.278459966
0.459620029 0.465860009 0.465059996
0.640760005 0.632960021 0.603139997
0.781180024 0.770200014 0.716860056
0.905860007 0.890940011 0.820440054
0.999220014 0.995300055 0.909780025
0.456459969 0.476840019 0.472940028
0.636100054 0.625880003 0.600800037
0.780380011 0.770200074 0.715300024
0.901960015 0.887820005 0.820419967
0.999220014 0.996080041 0.913680017
0.996879995 0.996079981 0.913679957
0.451000005 0.466699988 0.470600009
0.459580004 0.467480004 0.470600009
0.457239985 0.469040006 0.469040006
0.461140007 0.471379995 0.471379995
0.454899997 0.466699988 0.466699988
0.454899997 0.466699988 0.466699988
0.465119988 0.472939998 0.473720014
0.636880040 0.625880003 0.603920043
0.636880040 0.625880003 0.603920043
0.632980049 0.623539984 0.597679973
0.636880040 0.625880003 0.603920043
0.636880040 0.625880003 0.603920043
0.460359991 0.472160012 0.472160012
0.638460040 0.627439976 0.602360010
0.781939983 0.770200074 0.717640042
0.777260065 0.767860055 0.713740051
0.779600024 0.767860055 0.715300024
0.781940043 0.770200074 0.717640042
0.454899997 0.466699988 0.469040006
0.636880040 0.625880003 0.603920043
0.779600024 0.770200074 0.716859996
0.898060024 0.886259973 0.817219973
0.904300034 0.890160024 0.819620013
0.900400043 0.887820005 0.817219973
0.456459999 0.468259990 0.468259990
0.636880040 0.625880003 0.603140056
0.782760024 0.771760046 0.718420029
0.902740002 0.887040019 0.818019986
1.000000000 0.992180049 0.911360025
0.999220014 0.996079981 0.914479971
0.462700009 0.474500000 0.474500000
0.636880040 0.625880003 0.603920043
0.781940043 0.772540033 0.717640042
0.904300034 0.886260033 0.819620013
0.999220014 0.992960036 0.910560012
1.000000000 1.000000000 0.996100008
