example_ofxGpuLutCube/bin/data/LUT/threshold.cube
TITLE "16x16x16 Adobe/IRIDAS cube 3D LUT exported with GrossGrade v0.1.027.1 (beta) 64 bit"
DOMAIN_MIN 0 0 0
DOMAIN_MAX 1 1 1
LUT_3D_SIZE 6
0.000000000 1.000000000 0.535278022
0.000000000 1.000000000 0.535278022
0.000000000 1.000000000 0.535278022
1.000000000 1.000000000 1.000000000
1.000000000 1.000000000 1.000000000
1.000000000 1.000000000 1.000000000
0.200000763 1.000000000 0.628222764
1.000000000 1.000000000 1.000000000
1.000000000 1.000000000 1.000000000
1.000000000 1.000000000 1.000000000
1.000000000 1.000000000 1.000000000
1.000000000 1.000000000 1.000000000
1.000000000 1.000000000 1.000000000
1.000000000 1.000000000 1.000000000
1.000000000 1.000000000 1.000000000
1.000000000 1.000000000 1.000000000
1.000000000 1.000000000 1.000000000
1.000000000 1.000000000 1.000000000
1.000000000 1.000000000 1.000000000
1.000000000 1.000000000 1.000000000
1.000000000 1.000000000 1.000000000
1.000000000 1.000000000 1.000000000
1.000000000 1.000000000 1.000000000
1.000000000 1.000000000 1.000000000
1.000000000 1.000000000 1.000000000
1.000000000 1.000000000 1.000000000
1.000000000 1.000000000 1.000000000
1.000000000 1.000000000 1.000000000
1.000000000 1.000000000 1.000000000
1.000000000 1.000000000 1.000000000
1.000000000 1.000000000 1.000000000
1.000000000 1.000000000 1.000000000
1.000000000 1.000000000 1.000000000
1.000000000 1.000000000 1.000000000
1.000000000 1.000000000 1.000000000
1.000000000 1.000000000 1.000000000
0.000000000 1.000000000 0.535278022
0.000000000 1.000000000 0.535278022
1.000000000 1.000000000 1.000000000
1.000000000 1.000000000 1.000000000
1.000000000 1.000000000 1.000000000
1.000000000 1.000000000 1.000000000
1.000000000 1.000000000 1.000000000
1.000000000 1.000000000 1.000000000
1.000000000 1.000000000 1.000000000
1.000000000 1.000000000 1.000000000
1.000000000 1.000000000 1.000000000
1.000000000 1.000000000 1.000000000
1.000000000 1.000000000 1.000000000
1.000000000 1.000000000 1.000000000
1.000000000 1.000000000 1.000000000
1.000000000 1.000000000 1.000000000
1.000000000 1.000000000 1.000000000
1.000000000 1.000000000 1.000000000
1.000000000 1.000000000 1.000000000
1.000000000 1.000000000 1.000000000
1.000000000 1.000000000 1.000000000
1.000000000 1.000000000 1.000000000
1.000000000 1.000000000 1.000000000
1.000000000 1.000000000 1.000000000
1.000000000 1.000000000 1.000000000
1.000000000 1.000000000 1.000000000
1.000000000 1.000000000 1.000000000
1.000000000 1.000000000 1.000000000
1.000000000 1.000000000 1.000000000
1.000000000 1.000000000 1.000000000
1.000000000 1.000000000 1.000000000
1.000000000 1.000000000 1.000000000
1.000000000 1.000000000 1.000000000
1.000000000 1.000000000 1.000000000
1.000000000 1.000000000 1.000000000
1.000000000 1.000000000 1.000000000
0.000000000 1.000000000 0.535278022
0.000000000 1.000000000 0.535278022
1.000000000 1.000000000 1.000000000
1.000000000 1.000000000 1.000000000
1.000000000 1.000000000 1.000000000
1.000000000 1.000000000 1.000000000
1.000000000 1.000000000 1.000000000
1.000000000 1.000000000 1.000000000
1.000000000 1.000000000 1.000000000
1.000000000 1.000000000 1.000000000
1.000000000 1.000000000 1.000000000
1.000000000 1.000000000 1.000000000
1.000000000 1.000000000 1.000000000
1.000000000 1.000000000 1.000000000
1.000000000 1.000000000 1.000000000
1.000000000 1.000000000 1.000000000
1.000000000 1.000000000 1.000000000
1.000000000 1.000000000 1.000000000
1.000000000 1.000000000 1.000000000
1.000000000 1.000000000 1.000000000
1.000000000 1.000000000 1.000000000
1.000000000 1.000000000 1.000000000
1.000000000 1.000000000 1.000000000
1.000000000 1.000000000 1.000000000
1.000000000 1.000000000 1.000000000
1.000000000 1.000000000 1.000000000
1.000000000 1.000000000 1.000000000
1.000000000 1.000000000 1.000000000
1.000000000 1.000000000 1.000000000
1.000000000 1.000000000 1.000000000
1.000000000 1.000000000 1.000000000
1.000000000 1.000000000 1.000000000
1.000000000 1.000000000 1.000000000
1.000000000 1.000000000 1.000000000
1.000000000 1.000000000 1.000000000
1.000000000 1.000000000 1.000000000
0.000000000 1.000000000 0.535278022
0.200000763 1.000000000 0.628222764
1.000000000 1.000000000 1.000000000
1.000000000 1.000000000 1.000000000
1.000000000 1.000000000 1.000000000
1.000000000 1.000000000 1.000000000
1.000000000 1.000000000 1.000000000
1.000000000 1.000000000 1.000000000
1.000000000 1.000000000 1.000000000
1.000000000 1.000000000 1.000000000
1.000000000 1.000000000 1.000000000
1.000000000 1.000000000 1.000000000
1.000000000 1.000000000 1.000000000
1.000000000 1.000000000 1.000000000
1.000000000 1.000000000 1.000000000
1.000000000 1.000000000 1.000000000
1.000000000 1.000000000 1.000000000
1.000000000 1.000000000 1.000000000
1.000000000 1.000000000 1.000000000
1.000000000 1.000000000 1.000000000
1.000000000 1.000000000 1.000000000
1.000000000 1.000000000 1.000000000
1.000000000 1.000000000 1.000000000
1.000000000 1.000000000 1.000000000
1.000000000 1.000000000 1.000000000
1.000000000 1.000000000 1.000000000
1.000000000 1.000000000 1.000000000
1.000000000 1.000000000 1.000000000
1.000000000 1.000000000 1.000000000
1.000000000 1.000000000 1.000000000
1.000000000 1.000000000 1.000000000
1.000000000 1.000000000 1.000000000
1.000000000 1.000000000 1.000000000
1.000000000 1.000000000 1.000000000
1.000000000 1.000000000 1.000000000
1.000000000 1.000000000 1.000000000
0.000000000 1.000000000 0.535278022
1.000000000 1.000000000 1.000000000
1.000000000 1.000000000 1.000000000
1.000000000 1.000000000 1.000000000
1.000000000 1.000000000 1.000000000
1.000000000 1.000000000 1.000000000
1.000000000 1.000000000 1.000000000
1.000000000 1.000000000 1.000000000
1.000000000 1.000000000 1.000000000
1.000000000 1.000000000 1.000000000
1.000000000 1.000000000 1.000000000
1.000000000 1.000000000 1.000000000
1.000000000 1.000000000 1.000000000
1.000000000 1.000000000 1.000000000
1.000000000 1.000000000 1.000000000
1.000000000 1.000000000 1.000000000
1.000000000 1.000000000 1.000000000
1.000000000 1.000000000 1.000000000
1.000000000 1.000000000 1.000000000
1.000000000 1.000000000 1.000000000
1.000000000 1.000000000 1.000000000
1.000000000 1.000000000 1.000000000
1.000000000 1.000000000 1.000000000
1.000000000 1.000000000 1.000000000
1.000000000 1.000000000 1.000000000
1.000000000 1.000000000 1.000000000
1.000000000 1.000000000 1.000000000
1.000000000 1.000000000 1.000000000
1.000000000 1.000000000 1.000000000
1.000000000 1.000000000 1.000000000
1.000000000 1.000000000 1.000000000
1.000000000 1.000000000 1.000000000
1.000000000 1.000000000 1.000000000
1.000000000 1.000000000 1.000000000
1.000000000 1.000000000 1.000000000
1.000000000 1.000000000 1.000000000
0.000000000 1.000000000 0.535278022
1.000000000 1.000000000 1.000000000
1.000000000 1.000000000 1.000000000
1.000000000 1.000000000 1.000000000
1.000000000 1.000000000 1.000000000
1.000000000 1.000000000 1.000000000
1.000000000 1.000000000 1.000000000
1.000000000 1.000000000 1.000000000
1.000000000 1.000000000 1.000000000
1.000000000 1.000000000 1.000000000
1.000000000 1.000000000 1.000000000
1.000000000 1.000000000 1.000000000
1.000000000 1.000000000 1.000000000
1.000000000 1.000000000 1.000000000
1.000000000 1.000000000 1.000000000
1.000000000 1.000000000 1.000000000
1.000000000 1.000000000 1.000000000
1.000000000 1.000000000 1.000000000
1.000000000 1.000000000 1.000000000
1.000000000 1.000000000 1.000000000
1.000000000 1.000000000 1.000000000
1.000000000 1.000000000 1.000000000
1.000000000 1.000000000 1.000000000
1.000000000 1.000000000 1.000000000
1.000000000 1.000000000 1.000000000
1.000000000 1.000000000 1.000000000
1.000000000 1.000000000 1.000000000
1.000000000 1.000000000 1.000000000
1.000000000 1.000000000 1.000000000
1.000000000 1.000000000 1.000000000
1.000000000 1.000000000 1.000000000
1.000000000 1.000000000 1.000000000
1.000000000 1.000000000 1.000000000
1.000000000 1.000000000 1.000000000
1.000000000 1.000000000 1.000000000
1.000000000 1.000000000 1.000000000
