example_ofxGpuLutCube/bin/data/LUT/threshold.cube
TITLE "16x16x16 Adobe/IRIDAS cube 3D LUT exported with GrossGrade v0.1.027.1 (beta) 64 bit"
DOMAIN_MIN 0 0 0
DOMAIN_MAX 1 1 1
LUT_3D_SIZE 16
0.000000000 1.000000000 0.535278022
0.000000000 1.000000000 0.535278022
0.000000000 1.000000000 0.535278022
0.000000000 1.000000000 0.535278022
0.000000000 1.000000000 0.535278022
0.000000000 1.000000000 0.535278022
0.000000000 1.000000000 0.535278022
1.000000000 1.000000000 1.000000000
1.000000000 1.000000000 1.000000000
1.000000000 1.000000000 1.000000000
1.000000000 1.000000000 1.000000000
1.000000000 1.000000000 1.000000000
1.000000000 1.000000000 1.000000000
1.000000000 1.000000000 1.000000000
1.000000000 1.000000000 1.000000000
1.000000000 1.000000000 1.000000000
0.000000000 1.000000000 0.535278022
0.000000000 1.000000000 0.535278022
0.000000000 1.000000000 0.535278022
0.000000000 1.000000000 0.535278022
0.066666842 1.000000000 0.566259563
1.000000000 1.000000000 1.000000000
1.000000000 1.000000000 1.000000000
1.000000000 1.000000000 1.000000000
1.000000000 1.000000000 1.000000000
1.000000000 1.000000000 1.000000000
1.000000000 1.000000000 1.000000000
1.000000000 1.000000000 1.000000000
1.000000000 1.000000000 1.000000000
1.000000000 1.000000000 1.000000000
1.000000000 1.000000000 1.000000000
1.000000000 1.000000000 1.000000000
0.000000000 1.000000000 0.535278022
0.000000000 1.000000000 0.535278022
0.133333683 1.000000000 0.597241104
1.000000000 1.000000000 1.000000000
1.000000000 1.000000000 1.000000000
1.000000000 1.000000000 1.000000000
1.000000000 1.000000000 1.000000000
1.000000000 1.000000000 1.000000000
1.000000000 1.000000000 1.000000000
1.000000000 1.000000000 1.000000000
1.000000000 1.000000000 1.000000000
1.000000000 1.000000000 1.000000000
1.000000000 1.000000000 1.000000000
1.000000000 1.000000000 1.000000000
1.000000000 1.000000000 1.000000000
1.000000000 1.000000000 1.000000000
0.200000763 1.000000000 0.628222764
1.000000000 1.000000000 1.000000000
1.000000000 1.000000000 1.000000000
1.000000000 1.000000000 1.000000000
1.000000000 1.000000000 1.000000000
1.000000000 1.000000000 1.000000000
1.000000000 1.000000000 1.000000000
1.000000000 1.000000000 1.000000000
1.000000000 1.000000000 1.000000000
1.000000000 1.000000000 1.000000000
1.000000000 1.000000000 1.000000000
1.000000000 1.000000000 1.000000000
1.000000000 1.000000000 1.000000000
1.000000000 1.000000000 1.000000000
1.000000000 1.000000000 1.000000000
1.000000000 1.000000000 1.000000000
1.000000000 1.000000000 1.000000000
1.000000000 1.000000000 1.000000000
1.000000000 1.000000000 1.000000000
1.000000000 1.000000000 1.000000000
1.000000000 1.000000000 1.000000000
1.000000000 1.000000000 1.000000000
1.000000000 1.000000000 1.000000000
1.000000000 1.000000000 1.000000000
1.000000000 1.000000000 1.000000000
1.000000000 1.000000000 1.000000000
1.000000000 1.000000000 1.000000000
1.000000000 1.000000000 1.000000000
1.000000000 1.000000000 1.000000000
1.000000000 1.000000000 1.000000000
1.000000000 1.000000000 1.000000000
1.000000000 1.000000000 1.000000000
1.000000000 1.000000000 1.000000000
1.000000000 1.000000000 1.000000000
1.000000000 1.000000000 1.000000000
1.000000000 1.000000000 1.000000000
1.000000000 1.000000000 1.000000000
1.000000000 1.000000000 1.000000000
1.000000000 1.000000000 1.000000000
1.000000000 1.000000000 1.000000000
1.000000000 1.000000000 1.000000000
1.000000000 1.000000000 1.000000000
1.000000000 1.000000000 1.000000000
1.000000000 1.000000000 1.000000000
1.000000000 1.000000000 1.000000000
1.000000000 1.000000000 1.000000000
1.000000000 1.000000000 1.000000000
1.000000000 1.000000000 1.000000000
1.000000000 1.000000000 1.000000000
1.000000000 1.000000000 1.000000000
1.000000000 1.000000000 1.000000000
1.000000000 1.000000000 1.000000000
1.000000000 1.000000000 1.000000000
1.000000000 1.000000000 1.000000000
1.000000000 1.000000000 1.000000000
1.000000000 1.000000000 1.000000000
1.000000000 1.000000000 1.000000000
1.000000000 1.000000000 1.000000000
1.000000000 1.000000000 1.000000000
1.000000000 1.000000000 1.000000000
1.000000000 1.000000000 1.000000000
1.000000000 1.000000000 1.000000000
1.000000000 1.000000000 1.000000000
1.000000000 1.000000000 1.000000000
1.000000000 1.000000000 1.000000000
1.000000000 1.000000000 1.000000000
1.000000000 1.000000000 1.000000000
1.000000000 1.000000000 1.000000000
1.000000000 1.000000000 1.000000000
1.000000000 1.000000000 1.000000000
1.000000000 1.000000000 1.000000000
1.000000000 1.000000000 1.000000000
1.000000000 1.000000000 1.000000000
1.000000000 1.000000000 1.000000000
1.000000000 1.000000000 1.000000000
1.000000000 1.000000000 1.000000000
1.000000000 1.000000000 1.000000000
1.000000000 1.000000000 1.000000000
1.000000000 1.000000000 1.000000000
1.000000000 1.000000000 1.000000000
1.000000000 1.000000000 1.000000000
1.000000000 1.000000000 1.000000000
1.000000000 1.000000000 1.000000000
1.000000000 1.000000000 1.000000000
1.000000000 1.000000000 1.000000000
1.000000000 1.000000000 1.000000000
1.000000000 1.000000000 1.000000000
1.000000000 1.000000000 1.000000000
1.000000000 1.000000000 1.000000000
1.000000000 1.000000000 1.000000000
1.000000000 1.000000000 1.000000000
1.000000000 1.000000000 1.000000000
1.000000000 1.000000000 1.000000000
1.000000000 1.000000000 1.000000000
1.000000000 1.000000000 1.000000000
1.000000000 1.000000000 1.000000000
1.000000000 1.000000000 1.000000000
1.000000000 1.000000000 1.000000000
1.000000000 1.000000000 1.000000000
1.000000000 1.000000000 1.000000000
1.000000000 1.000000000 1.000000000
1.000000000 1.000000000 1.000000000
1.000000000 1.000000000 1.000000000
1.000000000 1.000000000 1.000000000
1.000000000 1.000000000 1.000000000
1.000000000 1.000000000 1.000000000
1.000000000 1.000000000 1.000000000
1.000000000 1.000000000 1.000000000
1.000000000 1.000000000 1.000000000
1.000000000 1.000000000 1.000000000
1.000000000 1.000000000 1.000000000
1.000000000 1.000000000 1.000000000
1.000000000 1.000000000 1.000000000
1.000000000 1.000000000 1.000000000
1.000000000 1.000000000 1.000000000
1.000000000 1.000000000 1.000000000
1.000000000 1.000000000 1.000000000
1.000000000 1.000000000 1.000000000
1.000000000 1.000000000 1.000000000
1.000000000 1.000000000 1.000000000
1.000000000 1.000000000 1.000000000
1.000000000 1.000000000 1.000000000
1.000000000 1.000000000 1.000000000
1.000000000 1.000000000 1.000000000
1.000000000 1.000000000 1.000000000
1.000000000 1.000000000 1.000000000
1.000000000 1.000000000 1.000000000
1.000000000 1.000000000 1.000000000
1.000000000 1.000000000 1.000000000
1.000000000 1.000000000 1.000000000
1.000000000 1.000000000 1.000000000
1.000000000 1.000000000 1.000000000
1.000000000 1.000000000 1.000000000
1.000000000 1.000000000 1.000000000
1.000000000 1.000000000 1.000000000
1.000000000 1.000000000 1.000000000
1.000000000 1.000000000 1.000000000
1.000000000 1.000000000 1.000000000
1.000000000 1.000000000 1.000000000
1.000000000 1.000000000 1.000000000
1.000000000 1.000000000 1.000000000
1.000000000 1.000000000 1.000000000
1.000000000 1.000000000 1.000000000
1.000000000 1.000000000 1.000000000
1.000000000 1.000000000 1.000000000
1.000000000 1.000000000 1.000000000
1.000000000 1.000000000 1.000000000
1.000000000 1.000000000 1.000000000
1.000000000 1.000000000 1.000000000
1.000000000 1.000000000 1.000000000
1.000000000 1.000000000 1.000000000
1.000000000 1.000000000 1.000000000
1.000000000 1.000000000 1.000000000
1.000000000 1.000000000 1.000000000
1.000000000 1.000000000 1.000000000
1.000000000 1.000000000 1.000000000
1.000000000 1.000000000 1.000000000
1.000000000 1.000000000 1.000000000
1.000000000 1.000000000 1.000000000
1.000000000 1.000000000 1.000000000
1.000000000 1.000000000 1.000000000
1.000000000 1.000000000 1.000000000
1.000000000 1.000000000 1.000000000
1.000000000 1.000000000 1.000000000
1.000000000 1.000000000 1.000000000
1.000000000 1.000000000 1.000000000
1.000000000 1.000000000 1.000000000
1.000000000 1.000000000 1.000000000
1.000000000 1.000000000 1.000000000
1.000000000 1.000000000 1.000000000
1.000000000 1.000000000 1.000000000
1.000000000 1.000000000 1.000000000
1.000000000 1.000000000 1.000000000
1.000000000 1.000000000 1.000000000
1.000000000 1.000000000 1.000000000
1.000000000 1.000000000 1.000000000
1.000000000 1.000000000 1.000000000
1.000000000 1.000000000 1.000000000
1.000000000 1.000000000 1.000000000
1.000000000 1.000000000 1.000000000
1.000000000 1.000000000 1.000000000
1.000000000 1.000000000 1.000000000
1.000000000 1.000000000 1.000000000
1.000000000 1.000000000 1.000000000
1.000000000 1.000000000 1.000000000
1.000000000 1.000000000 1.000000000
1.000000000 1.000000000 1.000000000
1.000000000 1.000000000 1.000000000
1.000000000 1.000000000 1.000000000
1.000000000 1.000000000 1.000000000
1.000000000 1.000000000 1.000000000
1.000000000 1.000000000 1.000000000
1.000000000 1.000000000 1.000000000
1.000000000 1.000000000 1.000000000
1.000000000 1.000000000 1.000000000
1.000000000 1.000000000 1.000000000
1.000000000 1.000000000 1.000000000
1.000000000 1.000000000 1.000000000
1.000000000 1.000000000 1.000000000
1.000000000 1.000000000 1.000000000
1.000000000 1.000000000 1.000000000
1.000000000 1.000000000 1.000000000
1.000000000 1.000000000 1.000000000
1.000000000 1.000000000 1.000000000
1.000000000 1.000000000 1.000000000
1.000000000 1.000000000 1.000000000
1.000000000 1.000000000 1.000000000
1.000000000 1.000000000 1.000000000
0.000000000 1.000000000 0.535278022
0.000000000 1.000000000 0.535278022
0.000000000 1.000000000 0.535278022
0.000000000 1.000000000 0.535278022
0.000000000 1.000000000 0.535278022
0.000000000 1.000000000 0.535278022
0.400001526 1.000000000 0.721167505
1.000000000 1.000000000 1.000000000
1.000000000 1.000000000 1.000000000
1.000000000 1.000000000 1.000000000
1.000000000 1.000000000 1.000000000
1.000000000 1.000000000 1.000000000
1.000000000 1.000000000 1.000000000
1.000000000 1.000000000 1.000000000
1.000000000 1.000000000 1.000000000
1.000000000 1.000000000 1.000000000
0.000000000 1.000000000 0.535278022
0.000000000 1.000000000 0.535278022
0.000000000 1.000000000 0.535278022
0.066666842 1.000000000 0.566259563
0.266667366 1.000000000 0.659204185
1.000000000 1.000000000 1.000000000
1.000000000 1.000000000 1.000000000
1.000000000 1.000000000 1.000000000
1.000000000 1.000000000 1.000000000
1.000000000 1.000000000 1.000000000
1.000000000 1.000000000 1.000000000
1.000000000 1.000000000 1.000000000
1.000000000 1.000000000 1.000000000
1.000000000 1.000000000 1.000000000
1.000000000 1.000000000 1.000000000
1.000000000 1.000000000 1.000000000
0.000000000 1.000000000 0.535278022
0.066666842 1.000000000 0.566259563
0.133333683 1.000000000 0.597241104
1.000000000 1.000000000 1.000000000
1.000000000 1.000000000 1.000000000
1.000000000 1.000000000 1.000000000
1.000000000 1.000000000 1.000000000
1.000000000 1.000000000 1.000000000
1.000000000 1.000000000 1.000000000
1.000000000 1.000000000 1.000000000
1.000000000 1.000000000 1.000000000
1.000000000 1.000000000 1.000000000
1.000000000 1.000000000 1.000000000
1.000000000 1.000000000 1.000000000
1.000000000 1.000000000 1.000000000
1.000000000 1.000000000 1.000000000
0.200000763 1.000000000 0.628222764
1.000000000 1.000000000 1.000000000
1.000000000 1.000000000 1.000000000
1.000000000 1.000000000 1.000000000
1.000000000 1.000000000 1.000000000
1.000000000 1.000000000 1.000000000
1.000000000 1.000000000 1.000000000
1.000000000 1.000000000 1.000000000
1.000000000 1.000000000 1.000000000
1.000000000 1.000000000 1.000000000
1.000000000 1.000000000 1.000000000
1.000000000 1.000000000 1.000000000
1.000000000 1.000000000 1.000000000
1.000000000 1.000000000 1.000000000
1.000000000 1.000000000 1.000000000
1.000000000 1.000000000 1.000000000
1.000000000 1.000000000 1.000000000
1.000000000 1.000000000 1.000000000
1.000000000 1.000000000 1.000000000
1.000000000 1.000000000 1.000000000
1.000000000 1.000000000 1.000000000
1.000000000 1.000000000 1.000000000
1.000000000 1.000000000 1.000000000
1.000000000 1.000000000 1.000000000
1.000000000 1.000000000 1.000000000
1.000000000 1.000000000 1.000000000
1.000000000 1.000000000 1.000000000
1.000000000 1.000000000 1.000000000
1.000000000 1.000000000 1.000000000
1.000000000 1.000000000 1.000000000
1.000000000 1.000000000 1.000000000
1.000000000 1.000000000 1.000000000
1.000000000 1.000000000 1.000000000
1.000000000 1.000000000 1.000000000
1.000000000 1.000000000 1.000000000
1.000000000 1.000000000 1.000000000
1.000000000 1.000000000 1.000000000
1.000000000 1.000000000 1.000000000
1.000000000 1.000000000 1.000000000
1.000000000 1.000000000 1.000000000
1.000000000 1.000000000 1.000000000
1.000000000 1.000000000 1.000000000
1.000000000 1.000000000 1.000000000
1.000000000 1.000000000 1.000000000
1.000000000 1.000000000 1.000000000
1.000000000 1.000000000 1.000000000
1.000000000 1.000000000 1.000000000
1.000000000 1.000000000 1.000000000
1.000000000 1.000000000 1.000000000
1.000000000 1.000000000 1.000000000
1.000000000 1.000000000 1.000000000
1.000000000 1.000000000 1.000000000
1.000000000 1.000000000 1.000000000
1.000000000 1.000000000 1.000000000
1.000000000 1.000000000 1.000000000
1.000000000 1.000000000 1.000000000
1.000000000 1.000000000 1.000000000
1.000000000 1.000000000 1.000000000
1.000000000 1.000000000 1.000000000
1.000000000 1.000000000 1.000000000
1.000000000 1.000000000 1.000000000
1.000000000 1.000000000 1.000000000
1.000000000 1.000000000 1.000000000
1.000000000 1.000000000 1.000000000
1.000000000 1.000000000 1.000000000
1.000000000 1.000000000 1.000000000
1.000000000 1.000000000 1.000000000
1.000000000 1.000000000 1.000000000
1.000000000 1.000000000 1.000000000
1.000000000 1.000000000 1.000000000
1.000000000 1.000000000 1.000000000
1.000000000 1.000000000 1.000000000
1.000000000 1.000000000 1.000000000
1.000000000 1.000000000 1.000000000
1.000000000 1.000000000 1.000000000
1.000000000 1.000000000 1.000000000
1.000000000 1.000000000 1.000000000
1.000000000 1.000000000 1.000000000
1.000000000 1.000000000 1.000000000
1.000000000 1.000000000 1.000000000
1.000000000 1.000000000 1.000000000
1.000000000 1.000000000 1.000000000
1.000000000 1.000000000 1.000000000
1.000000000 1.000000000 1.000000000
1.000000000 1.000000000 1.000000000
1.000000000 1.000000000 1.000000000
1.000000000 1.000000000 1.000000000
1.000000000 1.000000000 1.000000000
1.000000000 1.000000000 1.000000000
1.000000000 1.000000000 1.000000000
1.000000000 1.000000000 1.000000000
1.000000000 1.000000000 1.000000000
1.000000000 1.000000000 1.000000000
1.000000000 1.000000000 1.000000000
1.000000000 1.000000000 1.000000000
1.000000000 1.000000000 1.000000000
1.000000000 1.000000000 1.000000000
1.000000000 1.000000000 1.000000000
1.000000000 1.000000000 1.000000000
1.000000000 1.000000000 1.000000000
1.000000000 1.000000000 1.000000000
1.000000000 1.000000000 1.000000000
1.000000000 1.000000000 1.000000000
1.000000000 1.000000000 1.000000000
1.000000000 1.000000000 1.000000000
1.000000000 1.000000000 1.000000000
1.000000000 1.000000000 1.000000000
1.000000000 1.000000000 1.000000000
1.000000000 1.000000000 1.000000000
1.000000000 1.000000000 1.000000000
1.000000000 1.000000000 1.000000000
1.000000000 1.000000000 1.000000000
1.000000000 1.000000000 1.000000000
1.000000000 1.000000000 1.000000000
1.000000000 1.000000000 1.000000000
1.000000000 1.000000000 1.000000000
1.000000000 1.000000000 1.000000000
1.000000000 1.000000000 1.000000000
1.000000000 1.000000000 1.000000000
1.000000000 1.000000000 1.000000000
1.000000000 1.000000000 1.000000000
1.000000000 1.000000000 1.000000000
1.000000000 1.000000000 1.000000000
1.000000000 1.000000000 1.000000000
1.000000000 1.000000000 1.000000000
1.000000000 1.000000000 1.000000000
1.000000000 1.000000000 1.000000000
1.000000000 1.000000000 1.000000000
1.000000000 1.000000000 1.000000000
1.000000000 1.000000000 1.000000000
1.000000000 1.000000000 1.000000000
1.000000000 1.000000000 1.000000000
1.000000000 1.000000000 1.000000000
1.000000000 1.000000000 1.000000000
1.000000000 1.000000000 1.000000000
1.000000000 1.000000000 1.000000000
1.000000000 1.000000000 1.000000000
1.000000000 1.000000000 1.000000000
1.000000000 1.000000000 1.000000000
1.000000000 1.000000000 1.000000000
1.000000000 1.000000000 1.000000000
1.000000000 1.000000000 1.000000000
1.000000000 1.000000000 1.000000000
1.000000000 1.000000000 1.000000000
1.000000000 1.000000000 1.000000000
1.000000000 1.000000000 1.000000000
1.000000000 1.000000000 1.000000000
1.000000000 1.000000000 1.000000000
1.000000000 1.000000000 1.000000000
1.000000000 1.000000000 1.000000000
1.000000000 1.000000000 1.000000000
1.000000000 1.000000000 1.000000000
1.000000000 1.000000000 1.000000000
1.000000000 1.000000000 1.000000000
1.000000000 1.000000000 1.000000000
1.000000000 1.000000000 1.000000000
1.000000000 1.000000000 1.000000000
1.000000000 1.000000000 1.000000000
1.000000000 1.000000000 1.000000000
1.000000000 1.000000000 1.000000000
1.000000000 1.000000000 1.000000000
1.000000000 1.000000000 1.000000000
1.000000000 1.000000000 1.000000000
1.000000000 1.000000000 1.000000000
1.000000000 1.000000000 1.000000000
1.000000000 1.000000000 1.000000000
1.000000000 1.000000000 1.000000000
1.000000000 1.000000000 1.000000000
1.000000000 1.000000000 1.000000000
1.000000000 1.000000000 1.000000000
1.000000000 1.000000000 1.000000000
1.000000000 1.000000000 1.000000000
1.000000000 1.000000000 1.000000000
1.000000000 1.000000000 1.000000000
1.000000000 1.000000000 1.000000000
1.000000000 1.000000000 1.000000000
1.000000000 1.000000000 1.000000000
1.000000000 1.000000000 1.000000000
1.000000000 1.000000000 1.000000000
1.000000000 1.000000000 1.000000000
1.000000000 1.000000000 1.000000000
1.000000000 1.000000000 1.000000000
1.000000000 1.000000000 1.000000000
1.000000000 1.000000000 1.000000000
1.000000000 1.000000000 1.000000000
1.000000000 1.000000000 1.000000000
1.000000000 1.000000000 1.000000000
1.000000000 1.000000000 1.000000000
1.000000000 1.000000000 1.000000000
1.000000000 1.000000000 1.000000000
1.000000000 1.000000000 1.000000000
1.000000000 1.000000000 1.000000000
1.000000000 1.000000000 1.000000000
1.000000000 1.000000000 1.000000000
1.000000000 1.000000000 1.000000000
1.000000000 1.000000000 1.000000000
1.000000000 1.000000000 1.000000000
1.000000000 1.000000000 1.000000000
1.000000000 1.000000000 1.000000000
1.000000000 1.000000000 1.000000000
1.000000000 1.000000000 1.000000000
1.000000000 1.000000000 1.000000000
1.000000000 1.000000000 1.000000000
1.000000000 1.000000000 1.000000000
1.000000000 1.000000000 1.000000000
1.000000000 1.000000000 1.000000000
1.000000000 1.000000000 1.000000000
1.000000000 1.000000000 1.000000000
0.000000000 1.000000000 0.535278022
0.000000000 1.000000000 0.535278022
0.000000000 1.000000000 0.535278022
0.000000000 1.000000000 0.535278022
0.000000000 1.000000000 0.535278022
0.000000000 1.000000000 0.535278022
1.000000000 1.000000000 1.000000000
1.000000000 1.000000000 1.000000000
1.000000000 1.000000000 1.000000000
1.000000000 1.000000000 1.000000000
1.000000000 1.000000000 1.000000000
1.000000000 1.000000000 1.000000000
1.000000000 1.000000000 1.000000000
1.000000000 1.000000000 1.000000000
1.000000000 1.000000000 1.000000000
1.000000000 1.000000000 1.000000000
0.000000000 1.000000000 0.535278022
0.000000000 1.000000000 0.535278022
0.000000000 1.000000000 0.535278022
0.066666842 1.000000000 0.566259563
1.000000000 1.000000000 1.000000000
1.000000000 1.000000000 1.000000000
1.000000000 1.000000000 1.000000000
1.000000000 1.000000000 1.000000000
1.000000000 1.000000000 1.000000000
1.000000000 1.000000000 1.000000000
1.000000000 1.000000000 1.000000000
1.000000000 1.000000000 1.000000000
1.000000000 1.000000000 1.000000000
1.000000000 1.000000000 1.000000000
1.000000000 1.000000000 1.000000000
1.000000000 1.000000000 1.000000000
0.000000000 1.000000000 0.535278022
0.133333683 1.000000000 0.597241104
0.133333683 1.000000000 0.597241104
1.000000000 1.000000000 1.000000000
1.000000000 1.000000000 1.000000000
1.000000000 1.000000000 1.000000000
1.000000000 1.000000000 1.000000000
1.000000000 1.000000000 1.000000000
1.000000000 1.000000000 1.000000000
1.000000000 1.000000000 1.000000000
1.000000000 1.000000000 1.000000000
1.000000000 1.000000000 1.000000000
1.000000000 1.000000000 1.000000000
1.000000000 1.000000000 1.000000000
1.000000000 1.000000000 1.000000000
1.000000000 1.000000000 1.000000000
0.200000763 1.000000000 0.628222764
1.000000000 1.000000000 1.000000000
1.000000000 1.000000000 1.000000000
1.000000000 1.000000000 1.000000000
1.000000000 1.000000000 1.000000000
1.000000000 1.000000000 1.000000000
1.000000000 1.000000000 1.000000000
1.000000000 1.000000000 1.000000000
1.000000000 1.000000000 1.000000000
1.000000000 1.000000000 1.000000000
1.000000000 1.000000000 1.000000000
1.000000000 1.000000000 1.000000000
1.000000000 1.000000000 1.000000000
1.000000000 1.000000000 1.000000000
1.000000000 1.000000000 1.000000000
1.000000000 1.000000000 1.000000000
1.000000000 1.000000000 1.000000000
1.000000000 1.000000000 1.000000000
1.000000000 1.000000000 1.000000000
1.000000000 1.000000000 1.000000000
1.000000000 1.000000000 1.000000000
1.000000000 1.000000000 1.000000000
1.000000000 1.000000000 1.000000000
1.000000000 1.000000000 1.000000000
1.000000000 1.000000000 1.000000000
1.000000000 1.000000000 1.000000000
1.000000000 1.000000000 1.000000000
1.000000000 1.000000000 1.000000000
1.000000000 1.000000000 1.000000000
1.000000000 1.000000000 1.000000000
1.000000000 1.000000000 1.000000000
1.000000000 1.000000000 1.000000000
1.000000000 1.000000000 1.000000000
1.000000000 1.000000000 1.000000000
1.000000000 1.000000000 1.000000000
1.000000000 1.000000000 1.000000000
1.000000000 1.000000000 1.000000000
1.000000000 1.000000000 1.000000000
1.000000000 1.000000000 1.000000000
1.000000000 1.000000000 1.000000000
1.000000000 1.000000000 1.000000000
1.000000000 1.000000000 1.000000000
1.000000000 1.000000000 1.000000000
1.000000000 1.000000000 1.000000000
1.000000000 1.000000000 1.000000000
1.000000000 1.000000000 1.000000000
1.000000000 1.000000000 1.000000000
1.000000000 1.000000000 1.000000000
1.000000000 1.000000000 1.000000000
1.000000000 1.000000000 1.000000000
1.000000000 1.000000000 1.000000000
1.000000000 1.000000000 1.000000000
1.000000000 1.000000000 1.000000000
1.000000000 1.000000000 1.000000000
1.000000000 1.000000000 1.000000000
1.000000000 1.000000000 1.000000000
1.000000000 1.000000000 1.000000000
1.000000000 1.000000000 1.000000000
1.000000000 1.000000000 1.000000000
1.000000000 1.000000000 1.000000000
1.000000000 1.000000000 1.000000000
1.000000000 1.000000000 1.000000000
1.000000000 1.000000000 1.000000000
1.000000000 1.000000000 1.000000000
1.000000000 1.000000000 1.000000000
1.000000000 1.000000000 1.000000000
1.000000000 1.000000000 1.000000000
1.000000000 1.000000000 1.000000000
1.000000000 1.000000000 1.000000000
1.000000000 1.000000000 1.000000000
1.000000000 1.000000000 1.000000000
1.000000000 1.000000000 1.000000000
1.000000000 1.000000000 1.000000000
1.000000000 1.000000000 1.000000000
1.000000000 1.000000000 1.000000000
1.000000000 1.000000000 1.000000000
1.000000000 1.000000000 1.000000000
1.000000000 1.000000000 1.000000000
1.000000000 1.000000000 1.000000000
1.000000000 1.000000000 1.000000000
1.000000000 1.000000000 1.000000000
1.000000000 1.000000000 1.000000000
1.000000000 1.000000000 1.000000000
1.000000000 1.000000000 1.000000000
1.000000000 1.000000000 1.000000000
1.000000000 1.000000000 1.000000000
1.000000000 1.000000000 1.000000000
1.000000000 1.000000000 1.000000000
1.000000000 1.000000000 1.000000000
1.000000000 1.000000000 1.000000000
1.000000000 1.000000000 1.000000000
1.000000000 1.000000000 1.000000000
1.000000000 1.000000000 1.000000000
1.000000000 1.000000000 1.000000000
1.000000000 1.000000000 1.000000000
1.000000000 1.000000000 1.000000000
1.000000000 1.000000000 1.000000000
1.000000000 1.000000000 1.000000000
1.000000000 1.000000000 1.000000000
1.000000000 1.000000000 1.000000000
1.000000000 1.000000000 1.000000000
1.000000000 1.000000000 1.000000000
