example_ofxGpuLutCube/bin/data/LUT/X Pro II.cube
TITLE "16x16x16 Adobe/IRIDAS cube 3D LUT exported with GrossGrade v0.1.027.1 (beta) 64 bit"
DOMAIN_MIN 0 0 0
DOMAIN_MAX 1 1 1
LUT_3D_SIZE 16
0.000000000 0.000000000 0.188199997
0.000000000 0.000000000 0.188199997
0.000000000 0.000000000 0.184820011
0.000000000 0.000000000 0.187419996
0.000000000 0.000000000 0.183259994
0.001300002 0.002599997 0.180399999
0.204700217 0.000000000 0.186639994
0.403626710 0.001820002 0.182480007
0.533359945 0.000000000 0.184300005
0.628260016 0.000000000 0.184300005
0.724166632 0.000000000 0.184300005
0.780893385 0.000000000 0.185340002
0.827479959 0.000000000 0.187420011
0.860620022 0.000000000 0.184300005
0.877880037 0.000000000 0.187940001
0.894100010 0.000000000 0.184300005
0.003639999 0.000260001 0.184560001
0.003639999 0.000260001 0.184560001
0.000260001 0.000260001 0.184300005
0.003119997 0.000260001 0.187419996
0.001040003 0.000000000 0.184819996
0.002859998 0.000000000 0.184040010
0.188746899 0.000260001 0.185079992
0.404706717 0.000520001 0.187679991
0.529673278 0.000000000 0.184300005
0.624826670 0.000000000 0.187940001
0.719459951 0.000000000 0.184300005
0.774653316 0.000260001 0.185340002
0.824360013 0.000260001 0.184560001
0.860620022 0.000260001 0.184300005
0.877880037 0.000260001 0.184560001
0.894100010 0.000000000 0.184560001
0.000000000 0.030113339 0.184300005
0.000000000 0.030113339 0.184300005
0.000000000 0.030113339 0.184300005
0.000000000 0.030113339 0.184300005
0.000520001 0.030633342 0.188199997
0.000000000 0.030113339 0.184300005
0.194286898 0.030113339 0.186119989
0.392673373 0.029580005 0.183000013
0.533359945 0.029580005 0.184300005
0.624833345 0.029580005 0.184300005
0.720786631 0.030113339 0.180920005
0.775173306 0.029046673 0.181960002
0.824360013 0.030113339 0.184300005
0.860100031 0.030113339 0.183780000
0.877880037 0.030113339 0.184300005
0.894100010 0.030113339 0.184300005
0.000000000 0.076880023 0.184300005
0.000000000 0.076346688 0.184300005
0.000000000 0.076080024 0.184300005
0.003119997 0.076080024 0.184300005
0.000260000 0.079200022 0.184300005
0.000000000 0.079200022 0.183780000
0.191360235 0.076080024 0.183520004
0.401806712 0.076080024 0.184300005
0.533359945 0.077900022 0.186639994
0.628260016 0.076080024 0.187419996
0.721046627 0.076080024 0.184300005
0.774913311 0.075840019 0.184560001
0.824360013 0.076080024 0.184300005
0.860620022 0.076080024 0.184300005
0.877880037 0.076080024 0.184300005
0.894100010 0.076080024 0.184300005
0.000000000 0.134913355 0.184300005
0.000260001 0.135173351 0.184300005
0.000000000 0.134913355 0.183780000
0.000000000 0.135173351 0.183520004
0.002859997 0.132053360 0.184300005
0.001040003 0.134133354 0.181960002
0.187960222 0.137253359 0.181440011
0.397900015 0.135953352 0.184039995
0.533359945 0.134133369 0.185340002
0.626699984 0.133353353 0.182740003
0.723933280 0.134913355 0.183000013
0.776993394 0.133873358 0.184299991
0.827479959 0.134913355 0.184300005
0.856706679 0.134913355 0.183259994
0.879206717 0.134913355 0.184300005
0.894100010 0.134913355 0.184300005
0.000000000 0.207866684 0.184300005
0.000000000 0.207866684 0.184300005
0.000000000 0.207866684 0.182220012
0.000000000 0.207866684 0.184300005
0.000000000 0.205526680 0.181700006
0.000000000 0.215666682 0.184300005
0.194780201 0.207340002 0.182740003
0.405446708 0.209946692 0.186899990
0.531766593 0.209166691 0.186120003
0.627966702 0.209946692 0.185339987
0.726799905 0.211766690 0.185599998
0.775693357 0.206826687 0.184300005
0.827479959 0.207866684 0.186120003
0.855159998 0.209166691 0.182739988
0.881873310 0.207866684 0.185600013
0.896700025 0.206566691 0.184300005
0.001560006 0.297240078 0.185860008
0.001560006 0.297240078 0.184560001
0.000520001 0.296200067 0.184300005
0.000780003 0.297240078 0.185080007
0.002339994 0.300680101 0.185340002
0.001300002 0.297500074 0.180659994
0.197620243 0.297240078 0.183520004
0.404966712 0.297240078 0.182219997
0.530226588 0.299106747 0.185340002
0.626699984 0.296480060 0.183520004
0.726026595 0.298573405 0.184819996
0.775433362 0.293853402 0.182219982
0.827479959 0.295680076 0.184300005
0.855679989 0.298080057 0.184300005
0.880273342 0.295680076 0.184300005
0.894100010 0.295680076 0.184300005
0.000000000 0.392660022 0.184300005
0.000000000 0.390580028 0.184300005
0.000000000 0.388500005 0.182219997
0.000780003 0.392660022 0.184300005
0.000000000 0.391620010 0.185340002
0.000520000 0.389800012 0.181440011
0.197633550 0.386420012 0.182219997
0.402893394 0.390840024 0.184040010
0.525460005 0.392400026 0.182480007
0.626393378 0.390580028 0.184300005
0.722866595 0.387980014 0.180399999
0.775953352 0.389540017 0.184299991
0.825379968 0.390580028 0.184300005
0.859060049 0.392400026 0.186120003
0.879746675 0.390320033 0.185860008
0.895920038 0.388500005 0.184300005
0.000000000 0.501699924 0.182480007
0.001820001 0.505339921 0.186379999
0.000520001 0.504039943 0.183000013
0.000000000 0.503519952 0.183779985
0.001039999 0.507706642 0.185340017
0.000780000 0.508246601 0.183520019
0.196846902 0.501699984 0.180140018
0.405233353 0.505079925 0.185599998
0.527279913 0.505599916 0.184300005
0.630600035 0.507679939 0.184300005
0.720266640 0.501699924 0.183519989
0.777253330 0.503519952 0.184300005
0.828520000 0.504819930 0.185340017
0.859320045 0.509293318 0.186379999
0.880013347 0.511413276 0.187940001
0.893840015 0.509286642 0.181960016
0.001559998 0.617240012 0.185860008
0.001559998 0.615159988 0.181960002
0.000000000 0.613860011 0.182480007
0.001559998 0.617240012 0.184299991
0.001299999 0.618799984 0.185080007
0.000000000 0.616199970 0.184039995
0.199240223 0.614899993 0.184300005
0.394740045 0.620620012 0.184300005
0.530459940 0.614639997 0.184300005
0.629040003 0.614899993 0.184300005
0.719193280 0.613600016 0.184560001
0.777513325 0.619060040 0.186120003
0.827479959 0.615679979 0.186639994
0.859046698 0.616720021 0.186639994
0.880020022 0.618279994 0.186379999
0.898000002 0.616459966 0.184300005
0.000000000 0.718933284 0.184300005
0.000000000 0.716593266 0.184300005
0.000000000 0.716853261 0.185599998
0.000000000 0.718933284 0.184300005
0.001300005 0.719999969 0.183780000
0.000000000 0.721599936 0.182999998
0.188480228 0.722599924 0.184039995
0.402066708 0.720233321 0.182219997
0.528613269 0.716086626 0.181699976
0.626900017 0.722633243 0.181699991
0.717633307 0.717633307 0.182999998
0.779073358 0.723939955 0.186639979
0.824879944 0.720233321 0.184820011
0.857240021 0.722119927 0.184300005
0.877620041 0.721339941 0.184040010
0.895399988 0.718933284 0.181700006
0.001039999 0.792666674 0.184300005
0.000260001 0.794746697 0.187426671
0.000000000 0.792146683 0.183780015
0.003119997 0.796046674 0.188773319
0.001040003 0.791626692 0.184300005
0.001300002 0.795266688 0.182999998
0.190326869 0.799459994 0.182479978
0.406300068 0.792666674 0.186119989
0.531493306 0.792666674 0.182740003
0.628780007 0.801026702 0.182999998
0.716333270 0.798126698 0.185340002
0.776993394 0.801320016 0.187160000
0.827479959 0.792406678 0.184300005
0.857240021 0.795526683 0.184300005
0.878939986 0.792666674 0.182480007
0.895139992 0.792666674 0.181439996
0.000000000 0.863539994 0.184300005
0.000000000 0.863539994 0.184300005
0.000000000 0.863539994 0.184300005
0.000000000 0.863539994 0.184300005
0.000779996 0.864059985 0.185340002
0.003120005 0.862499952 0.186120003
0.187460214 0.865899980 0.185079992
0.407053381 0.862240016 0.188506678
0.529413283 0.865620017 0.186639994
0.626640022 0.863539994 0.187419996
0.722333312 0.863539994 0.186120018
0.776993394 0.863539994 0.187419996
0.821940005 0.864319980 0.187419996
0.860620022 0.864059985 0.187159985
0.877620041 0.863279998 0.186379984
0.894100010 0.863539994 0.187420011
0.003380008 0.907186687 0.187680006
0.003380008 0.907186687 0.187680006
0.003380008 0.903806686 0.187680006
0.003380008 0.906406701 0.187680006
0.001040003 0.906146705 0.181440011
0.003380008 0.903806686 0.182999998
0.195340231 0.907706678 0.182740003
0.410733402 0.905626655 0.186379999
0.530746639 0.907186687 0.184300005
0.631120026 0.905626714 0.183780015
0.724999964 0.904586673 0.183780015
0.779320002 0.907186687 0.184300005
0.827740014 0.907186687 0.184300005
0.860086679 0.903806686 0.180919990
0.881086648 0.907186687 0.184040010
0.896960020 0.907186687 0.184300005
0.000000000 0.944053292 0.184040010
0.000260000 0.944053292 0.184300005
0.000000000 0.944053292 0.184040010
0.002859990 0.944053292 0.186899975
0.002599991 0.944053292 0.185340002
0.000000000 0.944053292 0.183259994
0.200273529 0.944053292 0.187939987
0.399726719 0.941973329 0.184560001
0.529413283 0.943793297 0.186120018
0.628000021 0.943793297 0.186380014
0.722599924 0.944053233 0.184040010
0.776726723 0.943793297 0.185080007
0.824093342 0.943793297 0.184040010
0.860620022 0.944053292 0.184560001
0.881613314 0.944053292 0.187940001
0.893840015 0.944053292 0.184300005
0.000000000 0.945100009 0.180399999
0.000000000 0.945100009 0.184040010
0.000000000 0.945100009 0.184300005
0.000000000 0.945100009 0.181180000
0.000000000 0.945100009 0.184300005
0.000000000 0.945100009 0.182999998
0.200800225 0.945100009 0.188199997
0.401806712 0.945100009 0.186379999
0.529146612 0.946919978 0.186120003
0.628260016 0.947440028 0.186639994
0.721533298 0.945100009 0.184300005
0.776993394 0.945100009 0.185340002
0.824360013 0.944320023 0.184300005
0.860620022 0.945100009 0.184819996
0.881613314 0.945100009 0.187940001
0.894100010 0.941200018 0.184300005
0.003639999 0.000000000 0.196879998
0.003639999 0.000000000 0.196879998
0.003639999 0.000000000 0.196620002
0.003639999 0.000000000 0.200259998
0.000780002 0.000000000 0.203119993
0.000000000 0.002599997 0.199479997
0.192386895 0.000000000 0.196879998
0.402326703 0.001560001 0.200520009
0.533099949 0.000000000 0.195060000
0.632160068 0.000000000 0.198699996
0.724166632 0.000000000 0.196620002
0.778033376 0.000000000 0.201560006
0.824360013 0.000000000 0.200520009
0.857500017 0.000000000 0.196620002
0.877880037 0.000000000 0.196360007
0.894100010 0.000000000 0.193240002
0.000000000 0.000260001 0.192719996
0.000000000 0.000260001 0.196360007
0.000000000 0.000260001 0.192720011
0.000000000 0.000260001 0.196619987
0.001560004 0.000000000 0.196620002
0.001300002 0.005199995 0.192719996
0.188746870 0.001560006 0.193986654
0.393186718 0.001560001 0.191380009
0.533359945 0.000260001 0.193240002
0.630600035 0.000260001 0.192980006
0.720526636 0.000260000 0.193240002
0.778033376 0.000260001 0.194280013
0.828000009 0.000260001 0.196620002
0.861140013 0.000000000 0.193499997
0.881346643 0.000000000 0.192980006
0.897740006 0.000260001 0.192980006
0.000000000 0.030113339 0.192720011
0.000000000 0.030113339 0.193499997
0.000000000 0.030113339 0.192980006
0.000000000 0.029846672 0.193240017
0.000780002 0.029580005 0.192980006
0.000260001 0.030113339 0.192980006
0.186926886 0.031153345 0.193733320
0.392413378 0.031413339 0.191646680
0.533359945 0.030113338 0.193759993
0.628260016 0.030113339 0.192980006
0.720266640 0.031413343 0.193240017
0.778033376 0.030113339 0.190840006
0.824360013 0.030113339 0.192720011
0.857500017 0.030113339 0.193240002
0.877620041 0.030113339 0.196359992
0.894100010 0.030113339 0.196359992
0.000000000 0.076080024 0.192720011
0.000000000 0.076346688 0.196620002
0.000000000 0.076080024 0.192980006
0.000000000 0.076080024 0.192980006
0.006499995 0.073220022 0.192186669
0.002599997 0.076613359 0.193240017
0.191880241 0.076080024 0.194799989
0.402586699 0.076080024 0.195840001
0.531753302 0.076080024 0.194026679
0.628260016 0.075560026 0.192460001
0.721046627 0.076346688 0.191113323
0.776993394 0.078693360 0.192720011
0.824360013 0.076080024 0.195060015
0.860100031 0.076080024 0.192979991
0.877880037 0.076080024 0.195840001
0.894100010 0.076080024 0.196099997
0.002859997 0.137773350 0.195580006
0.000000000 0.135953352 0.193760008
0.000000000 0.134913355 0.192186683
0.000000000 0.134653345 0.195580006
0.000780002 0.134913355 0.196359992
0.000000000 0.135693356 0.196359992
0.194280222 0.135433346 0.194519997
0.406293392 0.136473373 0.197400004
0.529413283 0.133873358 0.193193331
0.628260016 0.135953352 0.192720011
0.721306622 0.133353353 0.194020003
0.778813362 0.137513369 0.195319995
0.827479959 0.135173351 0.193760008
0.857500017 0.134913355 0.192979991
0.881606638 0.134913355 0.195580006
0.896960020 0.134913355 0.192980006
0.000000000 0.210466683 0.192980006
0.002859998 0.210726678 0.197659999
0.000000000 0.211246684 0.196099997
0.000000000 0.207866684 0.198686674
0.000260001 0.210726678 0.199220002
0.000260001 0.205526695 0.196879998
0.199500218 0.208126679 0.197659999
0.403113395 0.208906695 0.194800004
0.527306676 0.207866684 0.193973318
0.625633299 0.210726693 0.194020018
0.722606599 0.207866684 0.196620002
0.777513325 0.207346708 0.197659999
0.829039991 0.209686697 0.198699981
0.857240021 0.207606688 0.194799989
0.881606638 0.208906695 0.197919995
0.896700025 0.207866684 0.199479997
0.003639999 0.299640089 0.194020003
0.000000000 0.294346750 0.191620007
0.000260001 0.292793423 0.192173332
0.002339994 0.299120069 0.200779989
0.000520003 0.299380094 0.195580006
0.005979991 0.296720058 0.195579991
0.197100237 0.294606715 0.192720011
0.399179995 0.297240078 0.193240002
0.528079927 0.293306738 0.191633344
0.629560053 0.298840076 0.195580006
0.720533252 0.293306768 0.193986684
0.780633330 0.298046738 0.197919995
0.827479959 0.297540069 0.196359992
0.857500017 0.299106777 0.195319995
0.880273342 0.297240078 0.196873322
0.895400047 0.297240078 0.196359992
0.000000000 0.390580028 0.190846667
0.000260001 0.388760000 0.196360007
0.000260001 0.390580028 0.198700011
0.001039999 0.391880006 0.197659999
0.000000000 0.390320033 0.193500012
0.002079998 0.389540017 0.195060000
0.191900223 0.389020026 0.194279999
0.393446684 0.392400026 0.198179990
0.532573283 0.389020026 0.198179990
0.627993345 0.392400026 0.197399989
0.722086668 0.392140031 0.196620002
0.775433302 0.393180013 0.195840001
0.825379968 0.390840024 0.196879983
0.858526707 0.393440038 0.198179990
0.879746675 0.391880035 0.199739993
0.894100010 0.390580028 0.196359992
0.000000000 0.503779948 0.190593332
0.000000001 0.503779948 0.192980021
0.000000001 0.504299939 0.187953338
0.002599995 0.508233309 0.195839986
0.001819998 0.503519952 0.193739995
0.002340002 0.506946623 0.195293337
0.197366878 0.503259957 0.196879998
0.392406762 0.510059953 0.196360007
0.533359945 0.504039943 0.195059985
0.626653373 0.503519952 0.191119999
0.720266640 0.505339921 0.191620007
0.774913371 0.502479970 0.190853328
0.825139999 0.502999902 0.193193331
0.856186688 0.507973373 0.195840031
0.876580000 0.505606592 0.191113338
0.894100010 0.503519952 0.191113338
0.000260001 0.612820029 0.194280013
0.000000000 0.611259997 0.194539994
0.000520001 0.613600016 0.193500012
0.002080001 0.616460025 0.198960006
0.002080001 0.612820029 0.193760008
0.001559998 0.616720021 0.194799989
0.188220218 0.616460025 0.196099997
0.401553363 0.617240012 0.198699996
0.529933274 0.614899993 0.195320010
0.628520012 0.617240012 0.197140008
0.721566617 0.615159988 0.194540009
0.776733398 0.616200030 0.195580006
0.824600041 0.614899993 0.195040017
0.857240021 0.615679979 0.196620002
0.877880037 0.616980016 0.194793358
0.893840015 0.613080025 0.194800004
0.000000000 0.717633188 0.188986659
0.000000000 0.718933284 0.193726644
0.000000000 0.717899859 0.193726644
0.000000000 0.719733298 0.195580006
0.000779999 0.717633247 0.190046668
0.000000000 0.718933284 0.190579996
0.192680240 0.718933284 0.193206653
0.404946715 0.716859937 0.192680016
0.529146612 0.720233321 0.194540009
0.626433313 0.720233321 0.196620002
0.720266640 0.718933225 0.192720011
0.776733339 0.718933284 0.192720011
0.826960027 0.720493257 0.192720011
0.856706679 0.718933284 0.192980006
0.877880037 0.719973326 0.192720011
0.896440029 0.718673289 0.195060000
0.001039999 0.792406678 0.190573335
0.000000000 0.791626692 0.193759993
0.000000000 0.790586710 0.198699996
0.001039999 0.794253349 0.198959991
0.000000000 0.792666674 0.193220004
0.001560003 0.795533359 0.194546685
0.188253537 0.794226706 0.193466648
0.407593369 0.793453336 0.196879998
0.529933333 0.798433363 0.198699981
0.623520017 0.793706715 0.193760008
0.723906577 0.798126698 0.198959991
0.774133325 0.791886687 0.196359992
0.828260005 0.792666674 0.196359992
0.855159998 0.795526683 0.190833330
0.877119958 0.793726683 0.191613331
0.896960020 0.790846705 0.198960006
0.000779999 0.867179990 0.197139978
0.000000000 0.863539994 0.196620002
0.000000001 0.864579976 0.193499997
0.000779997 0.866659999 0.196099997
0.003120002 0.861459970 0.197400004
0.000000000 0.863539994 0.191093326
0.190840229 0.863539994 0.193760008
0.406813353 0.861459970 0.192419991
0.529413283 0.864579976 0.196620002
0.626699984 0.865620017 0.195580006
0.722066581 0.862500012 0.196620002
0.777253389 0.863539994 0.192440018
0.824620008 0.863539994 0.192980006
0.858020008 0.864059985 0.193759993
0.877880037 0.864059985 0.193499997
0.891240001 0.863539994 0.193759993
0.003380008 0.907186687 0.195840001
0.003380008 0.907186687 0.200000018
0.000260001 0.903806686 0.195840001
0.003380008 0.906926692 0.196360007
0.000260001 0.909526706 0.196880013
0.001560003 0.907186687 0.194786683
0.204960242 0.905106664 0.199220017
0.405233413 0.907186687 0.198440015
0.534386635 0.905886710 0.196879998
0.629820049 0.905106664 0.196100011
0.723646641 0.906406701 0.197400004
0.780373394 0.906666696 0.195306674
0.827740014 0.906666696 0.196100011
0.860360026 0.904066682 0.196100011
0.881346643 0.907186687 0.196100011
0.893580019 0.903546691 0.192980006
0.000000000 0.944053292 0.196360007
0.000000000 0.944053292 0.196360007
0.000000000 0.944053292 0.196620002
0.000000000 0.944053292 0.197140008
0.002599991 0.944053292 0.194273338
0.000000000 0.942753255 0.196093336
0.189793572 0.944313288 0.192980006
0.401026666 0.943793297 0.197919995
0.532833338 0.944053292 0.196879998
0.628260016 0.944053292 0.194280013
0.723133266 0.944053292 0.197400004
0.777253389 0.946393251 0.198693320
0.824353337 0.944053292 0.196620002
0.856446683 0.944053233 0.196359977
0.877620041 0.944053292 0.196093351
0.893580019 0.943793237 0.196353316
0.000000000 0.945100009 0.189246669
0.003639999 0.945100009 0.192720011
0.000000000 0.945100009 0.192720011
0.000520002 0.945100009 0.193500012
0.000780002 0.944060028 0.190566659
0.002599997 0.945360005 0.196359992
0.197413549 0.946399987 0.191126660
0.391626716 0.945100009 0.191119999
0.532833278 0.943279982 0.194539994
0.630340040 0.945100009 0.190586656
0.722866595 0.945100009 0.192720011
0.778033376 0.945100009 0.196359992
0.824620008 0.945100009 0.191920027
0.857240021 0.945100009 0.192720011
0.878146708 0.945100009 0.192460001
0.894100010 0.945100009 0.196359992
0.000000000 0.000000000 0.212840006
0.000000000 0.000000000 0.212840006
0.000000000 0.000000000 0.212840006
0.000000000 0.000000000 0.212840006
0.000520001 0.000000000 0.209893346
0.000000000 0.000000000 0.210426673
0.203906879 0.000000000 0.212293342
0.405980051 0.000520001 0.211226672
0.533053339 0.001559998 0.211493328
0.628780007 0.000000000 0.212840006
0.724699974 0.000000000 0.212026656
0.778033376 0.000000000 0.212000012
0.825659990 0.000000000 0.213359997
0.860620022 0.000000000 0.212840006
0.881873310 0.000000000 0.212840006
0.894100010 0.000000000 0.212840006
0.003639999 0.000000000 0.209373340
0.003639999 0.000000000 0.209373340
0.003639999 0.000000000 0.209373340
0.003639999 0.000000000 0.209373340
0.000780002 0.000260001 0.213100001
0.007279999 0.000260001 0.214139998
0.189266875 0.001300005 0.213853329
0.401553363 0.002079998 0.212579995
0.526513278 0.002080000 0.209633335
0.626699984 0.000260001 0.210720003
0.720266640 0.000260001 0.209373340
0.777253389 0.002600000 0.213359997
0.825399995 0.000260001 0.212839991
0.860360026 0.000260001 0.209906667
0.878406703 0.000260001 0.212840006
0.894100010 0.000260001 0.213100001
0.000000000 0.030113339 0.208853334
0.000000000 0.030113339 0.208853334
0.000000000 0.030113339 0.208853334
0.000000000 0.030113339 0.208853334
0.000000000 0.032973338 0.209893331
0.000000000 0.030113339 0.209893331
0.193220228 0.030113339 0.210213318
0.402066708 0.030113339 0.209893346
0.525993288 0.030113339 0.210426673
0.624300003 0.030113339 0.208853334
0.720266640 0.030633338 0.209373340
0.776993394 0.031386673 0.209373340
0.823826671 0.030113339 0.211520001
0.860100031 0.030113339 0.208853334
0.881339967 0.030113339 0.208853334
0.893580019 0.030113339 0.212320000
0.000000000 0.076080024 0.209373340
0.000000000 0.076080024 0.209373340
0.000000000 0.076080024 0.209373340
0.000000000 0.076080024 0.209373340
0.000520003 0.072960019 0.212313339
0.000000000 0.075560018 0.212559998
0.180366904 0.079200022 0.211513340
0.395286709 0.076080024 0.211506665
0.527319968 0.075560026 0.209373340
0.626959980 0.076080024 0.209120005
0.720266640 0.076080024 0.208853334
0.774913311 0.076080024 0.209920004
0.823826671 0.076080024 0.209373340
0.856966674 0.076613359 0.209373340
0.877880037 0.076080024 0.208853334
0.893580019 0.076080024 0.208853334
0.000000000 0.135433346 0.208853334
0.000000000 0.134913355 0.209373340
0.000000000 0.135433361 0.208853334
0.000000000 0.135173351 0.208853334
0.001040003 0.134393349 0.209906682
0.000000000 0.135433361 0.209373325
0.201033548 0.134393364 0.214646667
0.401006699 0.133353353 0.209946677
0.532306612 0.136733353 0.211493328
0.631640017 0.134913355 0.208333328
0.723126590 0.135433346 0.210186660
0.777513385 0.135433346 0.209373340
0.826680005 0.134913355 0.212040007
0.856186688 0.136733353 0.208333328
0.878413379 0.135433346 0.208853334
0.897480011 0.135433361 0.212306663
0.000000000 0.207866684 0.209373340
0.000000000 0.207866684 0.209373340
0.000520001 0.208386689 0.209893346
0.003119997 0.210986689 0.212573335
0.002599997 0.208126679 0.210693344
0.003119999 0.205266699 0.209893346
0.200540215 0.207086682 0.212840006
0.401840031 0.209686682 0.213340014
0.533879936 0.207086682 0.212806657
0.630600035 0.207866684 0.210973337
0.722866595 0.207866684 0.212039992
0.778553367 0.208386689 0.212293327
0.826159954 0.207866699 0.209373340
0.854626656 0.207866684 0.207293332
0.877880037 0.207606688 0.209373340
0.894879997 0.205266699 0.209373340
0.000000000 0.295680076 0.208853334
0.000000000 0.292533427 0.208333343
0.000000000 0.296720088 0.209373340
0.002859995 0.295933396 0.212033331
0.000000000 0.293846756 0.209906667
0.003119995 0.295146734 0.209399998
0.191353545 0.298600048 0.212293342
0.401020050 0.296720088 0.212013334
0.528633356 0.298053414 0.209153339
0.626939952 0.299120098 0.209373340
0.718413234 0.297253430 0.208853334
0.775693357 0.299640089 0.210960001
0.827479959 0.297520041 0.209373340
0.857240021 0.296720088 0.209920004
0.877880037 0.295940071 0.209113345
0.897480011 0.297240078 0.209893346
0.002079998 0.392660022 0.210986659
0.000000000 0.390840024 0.207293332
0.000000000 0.390580028 0.209373340
0.000000000 0.392660022 0.212573335
0.002859997 0.389020026 0.211226672
0.001300002 0.392920017 0.212826669
0.196086869 0.389280021 0.211786658
0.403386712 0.389800042 0.210986659
0.532059908 0.390580028 0.209673330
0.629299998 0.393440008 0.210453331
0.720019937 0.390580028 0.210706666
0.779073358 0.391880035 0.211773336
0.826426625 0.391360015 0.208853334
0.859060049 0.390580028 0.211240008
0.879746675 0.390320033 0.212573320
0.894620001 0.390580028 0.208593339
0.000000002 0.505079925 0.205473334
0.000260001 0.507726610 0.209633335
0.000000002 0.503520012 0.208853334
0.002599995 0.506639898 0.211226672
0.002339999 0.502739966 0.208866686
0.000000003 0.506659985 0.207053334
0.193480209 0.508519948 0.208333343
0.406260014 0.510586619 0.213306665
0.532839954 0.505079925 0.212839991
0.625360012 0.502479970 0.206000000
0.722086608 0.505599916 0.212320000
0.776733339 0.502479970 0.208360001
0.826679945 0.505079925 0.208593354
0.858313322 0.507206678 0.209146664
0.881039977 0.506939948 0.212013319
0.894100010 0.501699924 0.208853334
0.000000000 0.616200030 0.208853334
0.000260001 0.615679979 0.208073348
0.000000000 0.612819970 0.208853334
0.002080000 0.618799984 0.214919999
0.003119999 0.615940034 0.211226672
0.000780001 0.619319975 0.210693344
