example_ofxGpuLutCube/bin/data/LUT/X Pro II.cube
TITLE "16x16x16 Adobe/IRIDAS cube 3D LUT exported with GrossGrade v0.1.027.1 (beta) 64 bit"
DOMAIN_MIN 0 0 0
DOMAIN_MAX 1 1 1
LUT_3D_SIZE 6
0.000000000 0.000000000 0.188199997
0.000000000 0.000000000 0.187419996
0.204700217 0.000000000 0.186639994
0.628260016 0.000000000 0.184300005
0.827479959 0.000000000 0.187420011
0.894100010 0.000000000 0.184300005
0.000000000 0.076880023 0.184300005
0.003119997 0.076080024 0.184300005
0.191360235 0.076080024 0.183520004
0.628260016 0.076080024 0.187419996
0.824360013 0.076080024 0.184300005
0.894100010 0.076080024 0.184300005
0.001560006 0.297240078 0.185860008
0.000780003 0.297240078 0.185080007
0.197620243 0.297240078 0.183520004
0.626699984 0.296480060 0.183520004
0.827479959 0.295680076 0.184300005
0.894100010 0.295680076 0.184300005
0.001559998 0.617240012 0.185860008
0.001559998 0.617240012 0.184299991
0.199240223 0.614899993 0.184300005
0.629040003 0.614899993 0.184300005
0.827479959 0.615679979 0.186639994
0.898000002 0.616459966 0.184300005
0.000000000 0.863539994 0.184300005
0.000000000 0.863539994 0.184300005
0.187460214 0.865899980 0.185079992
0.626640022 0.863539994 0.187419996
0.821940005 0.864319980 0.187419996
0.894100010 0.863539994 0.187420011
0.000000000 0.945100009 0.180399999
0.000000000 0.945100009 0.181180000
0.200800225 0.945100009 0.188199997
0.628260016 0.947440028 0.186639994
0.824360013 0.944320023 0.184300005
0.894100010 0.941200018 0.184300005
0.000000000 0.000000000 0.238440007
0.000000000 0.000000000 0.239220023
0.197680235 0.000000000 0.237660021
0.629820049 0.000000000 0.239220023
0.825139999 0.000000000 0.240780011
0.898000002 0.000000000 0.238440007
0.003119997 0.076080024 0.237660006
0.003119997 0.076080024 0.238440007
0.190580234 0.076080024 0.236100003
0.628260016 0.076080024 0.241559997
0.825139999 0.076080024 0.237660006
0.894879997 0.076080024 0.236860007
0.000000000 0.294880062 0.236860007
0.001560006 0.297240078 0.239220008
0.200020224 0.297240078 0.240000010
0.628260016 0.298840076 0.242340013
0.826700032 0.297260046 0.239220008
0.895660043 0.295680076 0.238440007
0.000000000 0.616460025 0.238440007
0.001559999 0.616460025 0.238440022
0.203140214 0.615679979 0.239220008
0.630600035 0.615679979 0.240780026
0.825899959 0.616460025 0.237660006
0.897220016 0.615679979 0.237660006
0.000000000 0.864319980 0.240780011
0.000000003 0.864319980 0.240780011
0.196860209 0.862760007 0.241560012
0.628260016 0.865099967 0.240780011
0.827479959 0.864319980 0.238440007
0.897220016 0.864319980 0.238440007
0.000000000 0.945100009 0.241559997
0.000000000 0.945100009 0.240779996
0.190580219 0.945879996 0.238419995
0.626699984 0.945879996 0.239219993
0.826699972 0.945100009 0.236880019
0.897220016 0.945879996 0.238440007
0.001560006 0.000000000 0.363900036
0.001560006 0.000000000 0.361560047
0.194520220 0.000000000 0.361560047
0.630600035 0.001559998 0.359220058
0.829820037 0.000000000 0.359220058
0.895660043 0.000000000 0.359220058
0.000000000 0.076080024 0.356860042
0.000000000 0.076080024 0.360000044
0.187440217 0.076080024 0.356860042
0.627479970 0.076080024 0.358440042
0.829039991 0.076080024 0.360000074
0.894879997 0.076080024 0.356060028
0.000000000 0.297240078 0.357660025
0.000000000 0.294880062 0.356060028
0.190620199 0.297240078 0.356060028
0.626699984 0.301200062 0.356840044
0.827479959 0.298800081 0.357660055
0.896440029 0.297240078 0.357660055
0.000779996 0.616459966 0.358440042
0.000780003 0.615679979 0.359220028
0.203140229 0.618019998 0.360780060
0.625899971 0.614120007 0.356100053
0.829040051 0.617239952 0.360000044
0.894880056 0.614899993 0.358440042
0.000000006 0.863539994 0.357660055
0.000000003 0.863539994 0.358420044
0.201580226 0.862760007 0.355280042
0.629040062 0.864319980 0.357660055
0.826699972 0.865100026 0.360780060
0.896440029 0.864319980 0.358440042
0.000000000 0.945100009 0.360000044
0.000000000 0.945100009 0.356060028
0.192180216 0.945100009 0.352160037
0.626660049 0.945100009 0.351380050
0.824319959 0.945100009 0.356060028
0.891759992 0.943539977 0.356060028
0.000000000 0.000000000 0.561560035
0.000000000 0.000000000 0.570179999
0.197640210 0.000000000 0.566240013
0.630600035 0.000000000 0.567059994
0.825920045 0.000000000 0.566280007
0.895659983 0.000000000 0.559220016
0.001559998 0.076080024 0.559980035
0.001559998 0.076080024 0.554500043
0.190600246 0.077660024 0.557640016
0.627440035 0.077640019 0.552959979
0.824360013 0.078420021 0.556060016
0.894100010 0.076080024 0.561580002
0.000000000 0.297240078 0.554499984
0.000780003 0.298060060 0.556079984
0.189000234 0.300380081 0.552139997
0.627460003 0.298060089 0.555260003
0.828259945 0.298840106 0.559220076
0.893320024 0.297240078 0.558420002
0.002340002 0.617240012 0.558420002
0.000000000 0.615679979 0.559180021
0.192920208 0.614120007 0.562379956
0.628260016 0.618799984 0.559199989
0.824360013 0.616459966 0.562359989
0.890200019 0.611000001 0.564719975
0.000780007 0.863539994 0.565500021
0.000000000 0.863539994 0.552940011
0.196880192 0.861980021 0.561579943
0.629040003 0.865099967 0.559199989
0.826699913 0.864319980 0.556060016
0.894879997 0.862760007 0.566280007
0.000000000 0.945100009 0.557659984
0.000000000 0.945100009 0.560779989
0.185100213 0.944320023 0.548240066
0.628260016 0.945100009 0.552139997
0.828260005 0.945100009 0.558400035
0.898000002 0.945100009 0.553740025
0.000000000 0.000000000 0.727819979
0.000000000 0.000000000 0.725479960
0.198460221 0.000779994 0.730199933
0.625859976 0.000000000 0.722359955
0.827480018 0.000000000 0.727819979
0.894100010 0.000000000 0.724699974
0.000000000 0.076080024 0.720799983
0.000000000 0.076080024 0.721579969
0.189800233 0.076080024 0.720019996
0.630600035 0.074520022 0.723919988
0.825139999 0.076100022 0.723919988
0.894100010 0.075300023 0.724699974
0.000000006 0.297240078 0.717679977
0.001560006 0.297240078 0.726279974
0.187480241 0.296480030 0.720799983
0.625100017 0.298840076 0.722359955
0.824360013 0.296480060 0.721579969
0.894100010 0.295680076 0.721579969
0.000779991 0.618019998 0.722359955
0.000000000 0.615679979 0.724699974
0.200780153 0.614120007 0.727059960
0.630600035 0.616479993 0.725479960
0.829019964 0.617240012 0.723919988
0.894100010 0.611779988 0.725479960
0.000000000 0.864319980 0.721579969
0.000000003 0.863539994 0.724699974
0.196060225 0.863539994 0.722360015
0.626700044 0.862760007 0.721579969
0.824359953 0.866659999 0.720799983
0.894100010 0.863539994 0.727819979
0.000780000 0.945879996 0.721579969
0.000000000 0.945879996 0.723919988
0.191360205 0.945879996 0.720019937
0.625080049 0.945100009 0.715259969
0.824360013 0.945100009 0.727039993
0.894100010 0.948220015 0.720799983
0.000000000 0.000000000 0.811800003
0.000000000 0.000000000 0.811800003
0.196900234 0.000000000 0.810199976
0.628260016 0.000000000 0.811800003
0.830600023 0.000000000 0.814920008
0.898000002 0.000000000 0.815699995
0.000000000 0.076080024 0.811800003
0.000000000 0.076080024 0.811800003
0.196100220 0.076080024 0.814139962
0.625100017 0.074520022 0.813359976
0.826679945 0.076080024 0.812579989
0.894879997 0.076080024 0.811800003
0.000000000 0.297240078 0.811800003
0.000000000 0.294880062 0.810999990
0.189000234 0.297240078 0.811800003
0.628260016 0.295680076 0.810199976
0.827479959 0.297240078 0.812559962
0.898000002 0.297240078 0.811800003
0.001559998 0.614899993 0.813359976
0.000000000 0.613340020 0.810200036
0.203920215 0.614120007 0.815699995
0.626699984 0.617240012 0.814140022
0.827479959 0.614899993 0.814920008
0.895659983 0.614899993 0.811800003
0.000000000 0.863539994 0.814119995
0.000000000 0.864319980 0.814140022
0.200800225 0.865899980 0.817259967
0.628260016 0.861979961 0.814920008
0.827479959 0.864319980 0.811800003
0.894100010 0.862760007 0.810999990
0.000000000 0.945100009 0.811800003
0.000000000 0.945100009 0.811800003
0.189780220 0.945100009 0.811800003
0.626699984 0.946659982 0.811800003
0.826679945 0.945100009 0.807799995
0.894100010 0.945100009 0.811800003
