example_ofxGpuLutCube/bin/data/ofxGpuLutCube/LUT/A1 (sunset warm).cube
LUT_3D_SIZE 6
0.013773 0.014270 0.015712
0.199753 0.000000 0.000000
0.400169 0.000000 0.000000
0.645215 0.000000 0.000000
0.851724 0.000000 0.000000
0.915365 0.000000 0.000000
0.000000 0.162658 0.000000
0.128390 0.142375 0.000000
0.407252 0.140546 0.000000
0.651719 0.092763 0.000000
0.852278 0.000000 0.000000
0.921518 0.000000 0.000000
0.000000 0.366669 0.000000
0.000000 0.366669 0.000000
0.338554 0.354209 0.000000
0.648226 0.342350 0.000000
0.858721 0.307928 0.000000
0.955526 0.303059 0.000000
0.000000 0.566190 0.000000
0.000000 0.566190 0.000000
0.000000 0.566190 0.000000
0.534441 0.576745 0.000000
0.845035 0.563209 0.000000
1.000020 0.581077 0.000000
0.000000 0.774226 0.000000
0.000000 0.774226 0.000000
0.000000 0.774226 0.000000
0.135228 0.783402 0.000000
0.722754 0.800104 0.000000
1.000020 0.785350 0.000000
0.000000 0.951123 0.000000
0.000000 0.951123 0.000000
0.000000 0.951123 0.000000
0.000000 0.951123 0.000000
0.468113 0.998001 0.000000
0.884588 0.996402 0.000000
0.017564 0.004036 0.095037
0.094437 0.000165 0.105449
0.372559 0.000000 0.112713
0.642312 0.000000 0.071248
0.856662 0.000000 0.000000
0.919371 0.000000 0.000000
0.000000 0.140242 0.099273
0.051997 0.088161 0.113496
0.383363 0.122014 0.102476
0.658473 0.048366 0.043153
0.860081 0.000000 0.000000
0.930413 0.000000 0.000000
0.003690 0.310456 0.104879
0.003690 0.310456 0.104879
0.285222 0.306811 0.111385
0.662755 0.336278 0.000000
0.868921 0.299328 0.000000
0.964998 0.279934 0.000000
0.000000 0.548187 0.095773
0.000000 0.548187 0.095773
0.000000 0.548187 0.095773
0.522731 0.562371 0.045182
0.856136 0.564616 0.000000
1.000020 0.571676 0.000000
0.000000 0.780857 0.037417
0.000000 0.780857 0.037417
0.000000 0.780857 0.037417
0.128939 0.770206 0.051600
0.719459 0.797036 0.048999
1.000020 0.786339 0.000000
0.000000 0.956566 0.000000
0.000000 0.956566 0.000000
0.000000 0.956566 0.000000
0.000000 0.956566 0.000000
0.460065 0.986391 0.030757
0.889653 1.000020 0.000000
0.127192 0.000000 0.303656
0.201792 0.000000 0.285843
0.429420 0.000000 0.276143
0.667291 0.000000 0.266016
0.857169 0.000000 0.269449
0.927417 0.000000 0.275205
0.079903 0.150989 0.308812
0.181052 0.135220 0.289093
0.420729 0.072702 0.276957
0.669828 0.000000 0.262141
0.864760 0.000000 0.260296
0.942758 0.000000 0.258366
0.000000 0.372933 0.347003
0.000000 0.372933 0.347003
0.317545 0.288694 0.288158
0.655875 0.297830 0.246492
0.887504 0.297689 0.277303
0.987832 0.285088 0.271528
0.000000 0.560403 0.327833
0.000000 0.560403 0.327833
0.030572 0.542202 0.328501
0.514920 0.508408 0.258582
0.870131 0.560919 0.265184
1.000020 0.565141 0.305680
0.000000 0.759968 0.307955
0.000000 0.759968 0.307955
0.000000 0.759968 0.307955
0.165731 0.704021 0.309825
0.721826 0.763208 0.312123
1.000020 0.779253 0.229549
0.000000 0.941002 0.269806
0.000000 0.941002 0.269806
0.000000 0.941002 0.269806
0.000000 0.941002 0.269805
0.421534 0.888798 0.275732
0.883950 0.984593 0.259545
0.296442 0.000000 0.560046
0.355797 0.000000 0.550523
0.535140 0.000000 0.506312
0.741706 0.000000 0.483596
0.926270 0.000000 0.515918
0.972783 0.000000 0.525786
0.270783 0.137888 0.558134
0.334941 0.111750 0.550718
0.524469 0.009535 0.503735
0.745479 0.000000 0.492707
0.932289 0.000000 0.519501
0.982741 0.000000 0.525385
0.000000 0.388019 0.602098
0.061324 0.377989 0.589769
0.457487 0.337973 0.502661
0.716769 0.293792 0.486581
0.942460 0.318511 0.542763
1.000020 0.274822 0.539843
0.000000 0.609079 0.604191
0.000000 0.609079 0.604191
0.000000 0.611757 0.607615
0.600859 0.533328 0.504772
0.909465 0.562202 0.524835
1.000020 0.542930 0.538110
0.000000 0.803019 0.572127
0.000000 0.803019 0.572127
0.000000 0.803019 0.572127
0.319262 0.769111 0.580044
0.764748 0.760665 0.508365
1.000020 0.764692 0.495139
0.000000 0.959805 0.522702
0.000000 0.959805 0.522702
0.000000 0.959805 0.522702
0.000000 0.959805 0.522702
0.495947 0.929838 0.521398
0.903162 0.978081 0.485923
0.470041 0.000000 0.805619
0.506389 0.000000 0.795683
0.639125 0.000000 0.782507
0.825240 0.000000 0.796093
0.979512 0.000000 0.776788
0.999908 0.000000 0.775818
0.448784 0.109335 0.803489
0.490530 0.100649 0.793532
0.629393 0.097401 0.781996
0.818301 0.145419 0.794555
0.980669 0.000000 0.781183
1.000020 0.000000 0.778126
0.303887 0.390363 0.817372
0.385039 0.393570 0.803164
0.585827 0.385530 0.776107
0.790188 0.387079 0.782875
0.968189 0.293502 0.780677
1.000020 0.223698 0.779723
0.000000 0.627001 0.857606
0.000000 0.627001 0.857606
0.233169 0.627094 0.857467
0.712595 0.598751 0.754666
0.924513 0.542857 0.773165
1.000020 0.496801 0.768172
0.000000 0.837771 0.843207
0.000000 0.837771 0.843207
0.000000 0.837771 0.843207
0.329405 0.833821 0.850077
0.800193 0.771739 0.760935
1.000020 0.753860 0.755150
0.000000 0.986930 0.769190
0.000000 0.986930 0.769190
0.000000 0.986930 0.769190
0.000000 0.986932 0.769191
0.582733 0.972841 0.774032
0.940694 0.992586 0.762327
0.628098 0.296311 1.000020
0.649773 0.287871 1.000043
0.727381 0.244367 1.000020
0.854490 0.052510 1.000020
1.000065 0.000000 0.997804
1.000020 0.000000 0.997804
0.615973 0.337917 1.000072
0.637810 0.331435 1.000072
0.718862 0.293309 1.000020
0.848328 0.170533 1.000020
1.000009 0.000000 0.998766
1.000020 0.000000 0.998766
0.563149 0.478733 1.000020
0.588377 0.471286 1.000020
0.678762 0.444779 1.000020
0.819642 0.385310 0.997284
0.985413 0.113690 1.000020
1.000020 0.062616 1.000020
0.301741 0.653082 1.000013
0.364573 0.648786 1.000072
0.549318 0.630033 1.000020
0.754799 0.597118 0.985934
0.948133 0.545353 0.998955
1.000020 0.506146 1.000020
0.215372 0.831899 1.000072
0.215372 0.831899 1.000072
0.236925 0.831404 1.000072
0.527016 0.818423 1.000020
0.860133 0.792358 0.990117
1.000020 0.779339 1.000020
0.000000 1.000020 1.000020
0.000000 1.000020 1.000020
0.000000 1.000020 1.000020
0.001174 1.000020 1.000020
0.619531 1.000020 1.000020
0.990956 1.000020 1.000020
