example_ofxGpuLutCube/bin/data/ofxGpuLutCube/LUT/A1 (sunset warm).cube
LUT_3D_SIZE 16
0.013773 0.014270 0.015712
0.085876 0.000000 0.000000
0.158344 0.000896 0.000805
0.199753 0.000000 0.000000
0.260829 0.000000 0.000000
0.316245 0.000000 0.000000
0.400169 0.000000 0.000000
0.493500 0.000000 0.000000
0.569970 0.000000 0.000000
0.645215 0.000000 0.000000
0.726402 0.000000 0.000000
0.793544 0.000000 0.000000
0.851724 0.000000 0.000000
0.907873 0.000000 0.000000
0.915365 0.000000 0.000000
0.915365 0.000000 0.000000
0.000655 0.082635 0.002130
0.053145 0.061737 0.000000
0.109176 0.027774 0.000492
0.159271 0.013650 0.000000
0.236648 0.014862 0.000000
0.312271 0.012491 0.000000
0.403285 0.007186 0.000000
0.494506 0.000000 0.000000
0.570767 0.000000 0.000000
0.646423 0.000000 0.000000
0.728987 0.000000 0.000000
0.793848 0.000000 0.000000
0.851907 0.000000 0.000000
0.908934 0.000000 0.000000
0.916420 0.000000 0.000000
0.916420 0.000000 0.000000
0.000000 0.111351 0.000000
0.000000 0.111351 0.000000
0.077878 0.093992 0.000000
0.156084 0.074724 0.000000
0.233873 0.072741 0.000000
0.313113 0.071996 0.000000
0.405480 0.070812 0.000000
0.494362 0.060436 0.000000
0.570694 0.027441 0.000000
0.648714 0.006234 0.000000
0.730817 0.000747 0.000000
0.794167 0.000697 0.000000
0.851814 0.000000 0.000000
0.910738 0.000000 0.000000
0.918281 0.000000 0.000000
0.918281 0.000000 0.000000
0.000000 0.162658 0.000000
0.000000 0.162658 0.000000
0.012507 0.157823 0.000000
0.128390 0.142375 0.000000
0.232605 0.143448 0.000000
0.314634 0.138858 0.000000
0.407252 0.140546 0.000000
0.492892 0.137888 0.000000
0.572664 0.125271 0.000000
0.651719 0.092763 0.000000
0.732782 0.038567 0.000000
0.795366 0.000658 0.000000
0.852278 0.000000 0.000000
0.911157 0.000000 0.000000
0.921518 0.000000 0.000000
0.921518 0.000000 0.000000
0.000000 0.239308 0.000000
0.000000 0.239308 0.000000
0.000000 0.239308 0.000000
0.046809 0.224788 0.000000
0.193129 0.206625 0.000000
0.303377 0.208761 0.000000
0.403434 0.210497 0.000000
0.494648 0.209715 0.000000
0.576855 0.202681 0.000000
0.654743 0.185308 0.000000
0.733037 0.156268 0.000000
0.794613 0.123494 0.000000
0.851995 0.094618 0.000000
0.910926 0.058979 0.000000
0.925995 0.050317 0.000000
0.925995 0.050317 0.000000
0.000000 0.312123 0.000000
0.000000 0.312123 0.000000
0.000000 0.312123 0.000000
0.000000 0.312123 0.000000
0.114008 0.279736 0.000000
0.262303 0.275419 0.000000
0.385389 0.282645 0.000000
0.485197 0.282193 0.000000
0.574232 0.276795 0.000000
0.657160 0.264817 0.000000
0.734263 0.246736 0.000000
0.794202 0.227023 0.000000
0.849737 0.210541 0.000000
0.913366 0.202807 0.000000
0.937879 0.201841 0.000000
0.937879 0.201841 0.000000
0.000000 0.366669 0.000000
0.000000 0.366669 0.000000
0.000000 0.366669 0.000000
0.000000 0.366669 0.000000
0.019910 0.361021 0.000000
0.198876 0.342943 0.000000
0.338554 0.354209 0.000000
0.459288 0.358508 0.000000
0.558464 0.352161 0.000000
0.648226 0.342350 0.000000
0.730092 0.327856 0.000000
0.799311 0.318050 0.000000
0.858721 0.307928 0.000000
0.923348 0.304041 0.000000
0.955526 0.303059 0.000000
0.955526 0.303059 0.000000
0.000000 0.420174 0.000000
0.000000 0.420174 0.000000
0.000000 0.420174 0.000000
0.000000 0.420174 0.000000
0.000586 0.420082 0.000000
0.000944 0.420360 0.000000
0.272306 0.423006 0.000000
0.408966 0.431064 0.000000
0.527341 0.430011 0.000000
0.630069 0.421022 0.000000
0.716723 0.408539 0.000000
0.800174 0.406399 0.000000
0.868668 0.402302 0.000000
0.931472 0.398436 0.000000
0.975215 0.397434 0.000000
0.975215 0.397434 0.000000
0.000000 0.489472 0.000000
0.000000 0.489472 0.000000
0.000000 0.489472 0.000000
0.000000 0.489472 0.000000
0.000989 0.490207 0.000000
0.000334 0.490345 0.000000
0.140583 0.493117 0.000000
0.345510 0.500130 0.000000
0.473407 0.502843 0.000000
0.592642 0.502660 0.000000
0.695608 0.490127 0.000000
0.783155 0.486024 0.000000
0.864280 0.484778 0.000000
0.940530 0.489705 0.000000
0.992910 0.490619 0.000000
0.997003 0.490685 0.000000
0.000000 0.566190 0.000000
0.000000 0.566190 0.000000
0.000000 0.566190 0.000000
0.000000 0.566190 0.000000
0.000000 0.566190 0.000000
0.000082 0.566626 0.000000
0.000000 0.566190 0.000000
0.212231 0.570564 0.000000
0.408382 0.574209 0.000000
0.534441 0.576745 0.000000
0.652099 0.574209 0.000000
0.757328 0.564959 0.000000
0.845035 0.563209 0.000000
0.932096 0.571266 0.000000
0.996219 0.581877 0.000000
1.000020 0.581077 0.000000
0.000000 0.634936 0.000000
0.000000 0.634936 0.000000
0.000000 0.634936 0.000000
0.000000 0.634936 0.000000
0.000000 0.634936 0.000000
0.000692 0.635518 0.000000
0.000000 0.634936 0.000000
0.034745 0.636499 0.000000
0.307621 0.647783 0.000000
0.471279 0.647225 0.000000
0.597993 0.647783 0.000000
0.713281 0.648238 0.000000
0.820845 0.643392 0.000000
0.914163 0.651216 0.000000
0.987487 0.657189 0.000000
1.000020 0.652193 0.000000
0.000000 0.705413 0.000000
0.000000 0.705413 0.000000
0.000000 0.705413 0.000000
0.000000 0.705413 0.000000
0.000000 0.705413 0.000000
0.000000 0.705413 0.000000
0.000000 0.705413 0.000000
0.000000 0.705413 0.000000
0.075461 0.708855 0.000000
0.373099 0.719003 0.000000
0.534966 0.721756 0.000000
0.657318 0.721933 0.000000
0.777146 0.724868 0.000000
0.888852 0.731015 0.000000
0.970316 0.726930 0.000000
1.000020 0.718230 0.000000
0.000000 0.774226 0.000000
0.000000 0.774226 0.000000
0.000000 0.774226 0.000000
0.000000 0.774226 0.000000
0.000000 0.774226 0.000000
0.000000 0.774226 0.000000
0.000000 0.774226 0.000000
0.000000 0.774226 0.000000
0.000000 0.774226 0.000000
0.135228 0.783402 0.000000
0.451554 0.795003 0.000000
0.596442 0.796260 0.000000
0.722754 0.800104 0.000000
0.846775 0.810092 0.000000
0.938840 0.798113 0.000000
1.000020 0.785350 0.000000
0.000000 0.845496 0.000000
0.000000 0.845496 0.000000
0.000000 0.845496 0.000000
0.000000 0.845496 0.000000
0.000000 0.845496 0.000000
0.000000 0.845496 0.000000
0.000000 0.845496 0.000000
0.000000 0.845496 0.000000
0.000000 0.845496 0.000000
0.014756 0.846273 0.000000
0.289194 0.860338 0.000000
0.518999 0.869998 0.000000
0.666430 0.875624 0.000000
0.788423 0.877733 0.000000
0.891067 0.868700 0.000000
0.982908 0.856956 0.000000
0.000000 0.897401 0.000000
0.000000 0.897401 0.000000
0.000000 0.897401 0.000000
0.000000 0.897401 0.000000
0.000000 0.897401 0.000000
0.000000 0.897401 0.000000
0.000000 0.897401 0.000000
0.000000 0.897401 0.000000
0.000000 0.897401 0.000000
0.000000 0.897401 0.000000
0.000000 0.898372 0.000000
0.360413 0.932022 0.000000
0.595235 0.950069 0.000000
0.729735 0.947182 0.000000
0.834124 0.936189 0.000000
0.935494 0.928396 0.000000
0.000000 0.951123 0.000000
0.000000 0.951123 0.000000
0.000000 0.951123 0.000000
0.000000 0.951123 0.000000
0.000000 0.951123 0.000000
0.000000 0.951123 0.000000
0.000000 0.951123 0.000000
0.000000 0.951123 0.000000
0.000000 0.951123 0.000000
0.000000 0.951123 0.000000
0.000000 0.951123 0.000000
0.125299 0.963859 0.000000
0.468113 0.998001 0.000000
0.659903 0.999379 0.000000
0.780516 1.000020 0.000000
0.884588 0.996402 0.000000
0.010214 0.007902 0.041973
0.038201 0.000846 0.030187
0.099345 0.000502 0.017466
0.170102 0.000846 0.016057
0.241645 0.000000 0.012715
0.308940 0.000000 0.007526
0.404188 0.000000 0.003340
0.496129 0.000000 0.000000
0.572093 0.000000 0.000000
0.647259 0.000000 0.000000
0.728415 0.000000 0.000000
0.793692 0.000000 0.000000
0.852287 0.000000 0.000000
0.909300 0.000000 0.000000
0.915877 0.000000 0.000000
0.915877 0.000000 0.000000
0.001725 0.052112 0.034801
0.024916 0.035152 0.031007
0.096002 0.018456 0.011246
0.161121 0.010168 0.009343
0.239093 0.009795 0.008007
0.313922 0.005764 0.003762
0.407624 0.001224 0.000699
0.497065 0.000000 0.000000
0.572926 0.000000 0.000000
0.648225 0.000000 0.000000
0.729289 0.000000 0.000000
0.793725 0.000000 0.000000
0.853213 0.000000 0.000000
0.910280 0.000000 0.000000
0.916893 0.000000 0.000000
0.916893 0.000000 0.000000
0.000000 0.095123 0.023098
0.000000 0.095123 0.023098
0.060286 0.075849 0.017448
0.160188 0.073925 0.006169
0.238299 0.070147 0.002822
0.318174 0.067156 0.000000
0.410811 0.063410 0.000000
0.497302 0.048865 0.000000
0.573274 0.018329 0.000000
0.651036 0.004163 0.000000
0.732385 0.000321 0.000000
0.795536 0.000581 0.000000
0.853706 0.000000 0.000000
0.911676 0.000000 0.000000
0.919206 0.000000 0.000000
0.919206 0.000000 0.000000
0.000000 0.142267 0.018366
0.000000 0.142267 0.018366
0.008340 0.137439 0.019307
0.117072 0.134541 0.015542
0.237795 0.143371 0.000000
0.321033 0.138025 0.000000
0.412276 0.138537 0.000000
0.496188 0.134162 0.000000
0.575477 0.119432 0.000000
0.654119 0.083641 0.000000
0.734475 0.021207 0.000000
0.795849 0.000937 0.000000
0.853961 0.000000 0.000000
0.911988 0.000000 0.000000
0.922361 0.000000 0.000000
0.922361 0.000000 0.000000
0.000000 0.223763 0.023209
0.000000 0.223763 0.023209
0.000000 0.223763 0.023209
0.035391 0.207303 0.024151
0.183043 0.199365 0.013173
0.307685 0.208349 0.000000
0.407531 0.210010 0.000000
0.497843 0.208349 0.000000
0.579435 0.200100 0.000000
0.657058 0.181128 0.000000
0.735594 0.149825 0.000000
0.795869 0.115451 0.000000
0.853021 0.081899 0.000000
0.911970 0.051088 0.000000
0.927038 0.046279 0.000000
0.927038 0.046279 0.000000
0.000000 0.302619 0.023571
0.000000 0.302619 0.023571
0.000000 0.302619 0.023571
0.000000 0.302619 0.023571
0.089756 0.258200 0.023535
0.257281 0.272244 0.011290
0.388846 0.283429 0.000000
0.488125 0.281949 0.000000
0.576566 0.275655 0.000000
0.659399 0.262821 0.000000
0.735595 0.243649 0.000000
0.795432 0.223086 0.000000
0.852201 0.208202 0.000000
0.914840 0.199425 0.000000
0.938405 0.197560 0.000000
0.938405 0.197494 0.000000
0.000000 0.365231 0.019092
0.000000 0.365231 0.019092
0.000000 0.365231 0.019092
0.000000 0.365231 0.019092
0.016201 0.356783 0.019342
0.184078 0.329730 0.018823
0.336977 0.352895 0.005243
0.461713 0.358874 0.000000
0.560560 0.351740 0.000000
0.650311 0.341420 0.000000
0.731258 0.326474 0.000000
0.800498 0.316134 0.000000
0.859425 0.305566 0.000000
0.924004 0.300702 0.000000
0.956210 0.300702 0.000000
0.956210 0.300702 0.000000
0.000000 0.420099 0.013407
0.000000 0.420099 0.013407
0.000000 0.420099 0.013407
0.000000 0.420099 0.013407
0.000383 0.420381 0.013768
0.006452 0.419138 0.015998
0.264044 0.416482 0.012826
0.410348 0.431849 0.000000
0.528946 0.430169 0.000000
0.631872 0.420776 0.000000
0.718362 0.408685 0.000000
0.801916 0.406172 0.000000
0.869304 0.400977 0.000000
0.932182 0.396113 0.000000
0.975945 0.396113 0.000000
0.975945 0.396113 0.000000
0.000000 0.490567 0.007865
0.000000 0.490567 0.007865
0.000000 0.490567 0.007865
0.000000 0.490567 0.007865
0.000561 0.491230 0.007815
0.000959 0.491131 0.007526
0.137861 0.491230 0.006876
0.346234 0.500929 0.000000
0.474438 0.503429 0.000000
0.593907 0.502749 0.000000
0.697594 0.489726 0.000000
0.783401 0.486119 0.000000
0.864906 0.484956 0.000000
0.940135 0.488942 0.000000
0.993569 0.489855 0.000000
0.997543 0.489922 0.000000
0.000000 0.567043 0.000565
0.000000 0.567043 0.000565
0.000000 0.567043 0.000565
0.000000 0.567043 0.000565
0.000000 0.567043 0.000565
0.001040 0.567341 0.000000
0.000000 0.567043 0.000565
0.214268 0.571264 0.000000
0.409041 0.574948 0.000000
0.535172 0.577178 0.000000
0.654635 0.574948 0.000000
0.759002 0.565390 0.000000
0.846548 0.563809 0.000000
0.932975 0.571693 0.000000
0.996831 0.581489 0.000000
1.000020 0.580535 0.000000
0.000000 0.635550 0.000000
0.000000 0.635550 0.000000
0.000000 0.635550 0.000000
0.000000 0.635550 0.000000
0.000000 0.635550 0.000000
0.000877 0.634989 0.000000
0.000000 0.635550 0.000000
0.035041 0.637003 0.000000
0.308149 0.648465 0.000000
0.471495 0.647565 0.000000
0.598530 0.648465 0.000000
0.714431 0.648589 0.000000
0.821351 0.644275 0.000000
0.915064 0.651020 0.000000
0.988080 0.657090 0.000000
1.000020 0.651972 0.000000
0.000000 0.705885 0.000000
0.000000 0.705885 0.000000
0.000000 0.705885 0.000000
0.000000 0.705885 0.000000
0.000000 0.705907 0.000000
0.000000 0.705907 0.000000
0.000000 0.705907 0.000000
0.000000 0.705907 0.000000
0.075679 0.709370 0.000000
0.373495 0.719661 0.000000
0.535151 0.723230 0.000000
0.656701 0.721658 0.000000
0.777446 0.725762 0.000000
0.888852 0.731009 0.000000
0.970726 0.726854 0.000000
1.000020 0.718308 0.000000
0.000000 0.774868 0.000000
0.000000 0.774868 0.000000
0.000000 0.774868 0.000000
0.000000 0.774868 0.000000
0.000000 0.774868 0.000000
0.000000 0.774868 0.000000
0.000000 0.774868 0.000000
0.000000 0.774868 0.000000
0.000000 0.774868 0.000000
0.138278 0.784099 0.000000
0.451554 0.795625 0.000000
0.597369 0.795986 0.000000
0.724263 0.800133 0.000000
0.847752 0.810209 0.000000
0.939483 0.798142 0.000000
1.000020 0.785443 0.000000
0.000000 0.845884 0.000000
0.000000 0.845884 0.000000
0.000000 0.845884 0.000000
0.000000 0.845884 0.000000
0.000000 0.845884 0.000000
0.000000 0.845884 0.000000
0.000000 0.845884 0.000000
0.000000 0.845884 0.000000
0.000000 0.845884 0.000000
0.014879 0.846578 0.000000
0.290201 0.860774 0.000000
0.520098 0.870380 0.000000
0.666667 0.875862 0.000000
0.788647 0.878789 0.000000
0.891287 0.868918 0.000000
0.983112 0.857023 0.000000
0.000000 0.897684 0.000000
0.000000 0.897684 0.000000
0.000000 0.897684 0.000000
0.000000 0.897684 0.000000
0.000000 0.897684 0.000000
0.000000 0.897684 0.000000
0.000000 0.897684 0.000000
0.000000 0.897684 0.000000
0.000000 0.897684 0.000000
0.000000 0.897684 0.000000
0.000000 0.898698 0.000000
0.361443 0.931320 0.000000
0.596573 0.950224 0.000000
0.729831 0.947339 0.000000
0.834498 0.936347 0.000000
0.935706 0.928545 0.000000
0.000000 0.951571 0.000000
0.000000 0.951571 0.000000
0.000000 0.951571 0.000000
0.000000 0.951571 0.000000
0.000000 0.951571 0.000000
0.000000 0.951571 0.000000
0.000000 0.951571 0.000000
0.000000 0.951571 0.000000
0.000000 0.951571 0.000000
0.000000 0.951571 0.000000
0.000000 0.951571 0.000000
0.125299 0.964358 0.000000
0.467329 0.998001 0.000000
0.660199 0.999464 0.000000
0.780628 1.000020 0.000000
0.884880 0.996597 0.000000
0.012280 0.005142 0.063945
0.016163 0.001479 0.062058
0.050723 0.000600 0.052605
0.118614 0.000673 0.054498
0.204278 0.000000 0.056019
0.287649 0.000000 0.055275
0.388537 0.000000 0.055078
0.482354 0.000000 0.044891
0.571102 0.000000 0.016490
0.651001 0.000000 0.003901
0.733047 0.000000 0.000712
0.795526 0.000000 0.000399
0.853674 0.000000 0.000000
0.909739 0.000000 0.000000
0.917286 0.000000 0.000000
0.917286 0.000000 0.000000
0.005504 0.035571 0.059711
0.012905 0.024276 0.059668
0.051226 0.011537 0.054985
0.126714 0.008907 0.053054
0.210685 0.003843 0.051990
0.293297 0.000000 0.051086
0.394792 0.000000 0.049151
0.487816 0.000000 0.035987
0.573539 0.000000 0.013012
0.653341 0.000000 0.002213
0.734562 0.000000 0.000866
0.796884 0.000000 0.000561
0.853496 0.000000 0.000000
0.910546 0.000000 0.000000
0.918059 0.000000 0.000000
0.918059 0.000000 0.000000
0.000000 0.082005 0.054156
0.000627 0.080689 0.053857
0.028115 0.049267 0.058879
0.129717 0.063355 0.052908
0.216836 0.062798 0.048679
0.299909 0.058815 0.046784
0.400760 0.053173 0.043018
0.492251 0.033799 0.026978
0.576065 0.012302 0.009444
0.657070 0.001299 0.000637
0.736941 0.000873 0.000236
0.798702 0.000537 0.000637
0.856206 0.000000 0.000000
0.914243 0.000000 0.000000
0.921746 0.000000 0.000000
0.921746 0.000000 0.000000
0.000000 0.125341 0.050114
0.000000 0.125341 0.050114
0.005214 0.117621 0.053894
0.082013 0.106047 0.062397
0.217760 0.130132 0.041541
0.310619 0.133534 0.034694
0.407620 0.133990 0.030225
0.496785 0.128708 0.017733
0.580332 0.110549 0.006845
0.660087 0.069203 0.000000
0.738405 0.000898 0.000535
0.799841 0.000942 0.000000
0.856681 0.000000 0.000000
0.915704 0.000000 0.000000
0.925982 0.000000 0.000000
0.925982 0.000000 0.000000
0.000000 0.188517 0.054058
0.000000 0.188517 0.054058
0.000000 0.188517 0.054058
0.015631 0.169193 0.064455
0.149598 0.172275 0.059660
0.304667 0.203726 0.022404
0.411810 0.208060 0.010624
0.501735 0.205646 0.008288
0.585038 0.195934 0.002575
0.662770 0.174514 0.000000
0.739213 0.138935 0.000803
0.798782 0.093434 0.000000
0.856682 0.048245 0.000000
0.915704 0.035738 0.000000
0.930748 0.031891 0.000000
0.930748 0.031891 0.000000
0.000000 0.264031 0.058491
0.000000 0.264031 0.058491
0.000000 0.264031 0.058491
0.000000 0.264031 0.058491
0.056689 0.213187 0.072544
0.227294 0.249330 0.064340
0.393815 0.282968 0.007446
0.495378 0.281331 0.000509
0.581815 0.273475 0.000000
0.664526 0.259298 0.000000
0.737908 0.237607 0.000000
0.797694 0.215696 0.000000
0.854948 0.194908 0.000000
0.918595 0.181370 0.000000
0.941241 0.178450 0.000000
0.941241 0.178450 0.000000
0.000817 0.339461 0.059747
0.000817 0.339461 0.059747
0.000817 0.339461 0.059747
0.000817 0.339461 0.059747
0.008717 0.328338 0.061508
0.136249 0.287573 0.077240
0.311684 0.332241 0.052062
0.467878 0.359478 0.000885
0.565857 0.350510 0.000000
0.655421 0.339387 0.000000
0.735434 0.324274 0.000000
0.804597 0.313165 0.000000
0.863133 0.298932 0.000000
0.926861 0.292138 0.000000
0.959085 0.290191 0.000000
0.959085 0.290191 0.000000
0.000901 0.408210 0.055663
0.000901 0.408210 0.055663
0.000901 0.408210 0.055663
0.000901 0.408210 0.055663
0.000746 0.407922 0.056429
0.009824 0.383371 0.065057
0.220831 0.376779 0.073448
0.391707 0.417469 0.040497
0.533314 0.430080 0.000783
0.636449 0.419780 0.000000
0.723552 0.407652 0.000783
0.805503 0.404164 0.000000
0.873161 0.397386 0.000000
0.936083 0.391535 0.000000
0.978980 0.389595 0.000000
0.978980 0.389595 0.000000
0.000336 0.489616 0.051816
0.000336 0.489616 0.051816
0.000336 0.489616 0.051816
0.000336 0.489616 0.051816
0.000576 0.490240 0.051126
0.000719 0.489526 0.051271
0.101867 0.457965 0.063411
0.313742 0.470948 0.054098
0.471716 0.500495 0.011768
0.597732 0.502614 0.000000
0.701527 0.489728 0.000701
0.788093 0.484997 0.000000
0.870011 0.484062 0.000000
0.943707 0.486119 0.000000
0.995900 0.486026 0.000000
0.998388 0.486119 0.000000
0.000000 0.568291 0.041379
0.000000 0.568291 0.041379
0.000000 0.568291 0.041379
0.000000 0.568291 0.041379
0.000000 0.568291 0.041379
0.000794 0.568105 0.040764
0.000000 0.568291 0.041379
0.184217 0.547508 0.043596
0.403644 0.569965 0.013878
0.537292 0.577390 0.000814
0.657109 0.575849 0.000829
0.761976 0.565585 0.000814
0.851432 0.563769 0.000000
0.936820 0.571640 0.000000
0.998924 0.579483 0.000000
1.000020 0.577532 0.000000
0.000000 0.637739 0.013476
0.000000 0.637739 0.013476
0.000000 0.637739 0.013476
0.000000 0.637739 0.013476
0.000000 0.637739 0.013476
0.000532 0.638423 0.013299
0.000000 0.637739 0.013476
0.033524 0.637442 0.013299
0.304560 0.644433 0.008309
0.472852 0.648465 0.000000
0.599900 0.650323 0.000866
0.717668 0.649443 0.000000
0.825944 0.645226 0.000000
0.918881 0.651894 0.000000
0.989999 0.656066 0.000000
1.000020 0.650917 0.000000
0.000000 0.707340 0.002618
0.000000 0.707340 0.002618
0.000000 0.707340 0.002618
0.000000 0.707340 0.002618
0.000000 0.707340 0.002618
0.000000 0.707340 0.002618
0.000000 0.707340 0.002618
0.000000 0.707340 0.002618
0.075903 0.709661 0.001655
0.375954 0.721199 0.000000
0.535402 0.723511 0.000798
0.660065 0.724035 0.000000
0.780548 0.727487 0.000000
0.892574 0.732620 0.000000
0.972963 0.726559 0.000000
1.000020 0.717784 0.000000
0.000000 0.777326 0.000000
0.000000 0.777326 0.000000
0.000000 0.777326 0.000000
0.000000 0.777326 0.000000
0.000000 0.777326 0.000000
0.000000 0.777326 0.000000
0.000000 0.777326 0.000000
0.000000 0.777326 0.000000
0.000000 0.777326 0.000000
0.151071 0.786378 0.000000
0.453527 0.797045 0.000000
0.597816 0.798174 0.000000
0.725684 0.802698 0.000000
0.850558 0.812562 0.000000
0.941757 0.798739 0.000000
1.000020 0.785818 0.000000
0.000000 0.847764 0.000000
0.000000 0.847764 0.000000
0.000000 0.847764 0.000000
0.000000 0.847764 0.000000
0.000000 0.847764 0.000000
0.000000 0.847764 0.000000
0.000000 0.847764 0.000000
0.000000 0.847764 0.000000
0.000000 0.847764 0.000000
0.015439 0.848372 0.000000
0.294222 0.862562 0.000000
0.522529 0.873140 0.000000
0.667742 0.878163 0.005643
0.789728 0.879764 0.001881
0.893286 0.870224 0.000000
0.985241 0.857978 0.000000
0.000000 0.899630 0.000000
0.000000 0.899630 0.000000
0.000000 0.899630 0.000000
0.000000 0.899630 0.000000
0.000000 0.899630 0.000000
0.000000 0.899630 0.000000
0.000000 0.899630 0.000000
0.000000 0.899630 0.000000
0.000000 0.899630 0.000000
0.000000 0.899630 0.000000
0.000000 0.900669 0.000000
0.366387 0.933275 0.000000
0.593219 0.949151 0.011290
0.729139 0.948607 0.010349
0.835896 0.938371 0.000000
0.937707 0.929871 0.000000
0.000000 0.953584 0.000000
0.000000 0.953584 0.000000
0.000000 0.953584 0.000000
0.000000 0.953584 0.000000
0.000000 0.953584 0.000000
0.000000 0.953584 0.000000
0.000000 0.953584 0.000000
0.000000 0.953584 0.000000
0.000000 0.953584 0.000000
0.000000 0.953584 0.000000
0.000000 0.953584 0.000000
0.128390 0.966421 0.000000
0.467356 0.998955 0.000000
0.657841 0.998311 0.008467
0.781657 1.000020 0.000000
0.886337 0.998311 0.000000
0.017564 0.004036 0.095037
0.020875 0.001940 0.097873
0.035238 0.000466 0.104518
0.094437 0.000165 0.105449
0.176714 0.000000 0.107015
0.272844 0.000000 0.107588
0.372559 0.000000 0.112713
0.461166 0.000000 0.110435
0.549266 0.000000 0.099321
0.642312 0.000000 0.071248
0.737107 0.000000 0.021819
0.800112 0.000000 0.000724
0.856662 0.000000 0.000000
0.912730 0.000000 0.000000
0.919371 0.000000 0.000000
0.919371 0.000000 0.000000
0.015879 0.026678 0.092725
0.019886 0.023617 0.096584
0.034594 0.018027 0.105999
0.096555 0.009210 0.107011
0.184125 0.000000 0.104878
0.277264 0.000000 0.106002
0.375817 0.000000 0.110566
0.464470 0.000000 0.106956
0.553579 0.000000 0.094390
0.646765 0.000000 0.063157
0.740447 0.000000 0.007509
0.800763 0.000000 0.000933
0.856736 0.000000 0.000000
0.913890 0.000000 0.000000
0.920463 0.000000 0.000000
0.920463 0.000000 0.000000
0.000000 0.083245 0.090733
0.008757 0.074340 0.094080
0.028115 0.057240 0.104003
0.092732 0.053157 0.109251
0.188101 0.052124 0.103635
0.283064 0.046918 0.104461
0.379671 0.033848 0.107433
0.468161 0.016145 0.102556
0.559741 0.006293 0.088352
0.653388 0.000000 0.052592
0.742609 0.000733 0.000758
0.803448 0.000000 0.000859
0.859727 0.000000 0.000000
0.917820 0.000000 0.000000
0.924388 0.000000 0.000000
0.924388 0.000000 0.000000
0.000000 0.140242 0.099273
0.000000 0.140242 0.099273
0.006256 0.129621 0.102115
0.051997 0.088161 0.113496
0.182675 0.111405 0.101527
0.285712 0.121028 0.099952
0.383363 0.122014 0.102476
0.473644 0.116202 0.099009
0.565234 0.094191 0.082175
0.658473 0.048366 0.043153
0.743329 0.000916 0.000326
0.803883 0.000585 0.000857
0.860081 0.000000 0.000000
0.920977 0.000000 0.000000
0.930413 0.000000 0.000000
0.930413 0.000000 0.000000
0.000000 0.187045 0.093356
0.000000 0.187045 0.093356
0.000000 0.187045 0.093356
0.017713 0.152265 0.107577
0.119586 0.147558 0.112526
0.275567 0.182614 0.093586
0.383827 0.192984 0.089772
0.479443 0.194227 0.085057
0.572385 0.185988 0.068611
0.664536 0.164190 0.028847
0.742781 0.125122 0.000833
0.802355 0.076404 0.000777
0.859704 0.043783 0.000000
0.921515 0.019746 0.000000
0.935712 0.010143 0.000000
0.935712 0.010143 0.000000
0.000000 0.241154 0.094439
0.000000 0.241154 0.094439
0.000000 0.241154 0.094439
0.000000 0.241154 0.094439
0.050649 0.193834 0.119995
0.204942 0.227097 0.115088
0.367129 0.262588 0.080170
0.481750 0.269752 0.058260
0.577238 0.266154 0.039983
0.671588 0.254108 0.004508
0.740966 0.231244 0.000668
0.800889 0.209549 0.000842
0.858963 0.189834 0.000000
0.924610 0.168578 0.000000
0.947255 0.159875 0.000000
0.947255 0.159875 0.000000
0.003690 0.310456 0.104879
0.003690 0.310456 0.104879
0.003690 0.310456 0.104879
0.003690 0.310456 0.104879
0.008392 0.300959 0.109484
0.106544 0.256859 0.128809
0.285222 0.306811 0.111385
0.453307 0.346188 0.053947
0.572588 0.347682 0.005350
0.662755 0.336278 0.000000
0.742002 0.322397 0.000791
0.809953 0.312956 0.000000
0.868921 0.299328 0.000000
0.933693 0.286723 0.000000
0.964998 0.279934 0.000000
0.964998 0.279934 0.000000
0.003690 0.379013 0.104002
0.003690 0.379013 0.104002
0.003690 0.379013 0.104002
0.003690 0.379013 0.104002
0.003446 0.378175 0.104321
0.021727 0.350625 0.118677
0.190103 0.344143 0.129009
0.363269 0.390515 0.103495
