example_ofxGpuLutCube/bin/data/ofxGpuLutCube/LUT/A10 (teal orange).cube
LUT_3D_SIZE 16
0.042444 0.053085 0.081706
0.041646 0.062242 0.086212
0.078725 0.070895 0.089949
0.122601 0.087660 0.092869
0.171996 0.098977 0.091783
0.227494 0.110799 0.089871
0.290680 0.119799 0.086413
0.344211 0.137978 0.090605
0.412225 0.146677 0.106499
0.481743 0.155861 0.124306
0.552319 0.166351 0.146840
0.615497 0.174886 0.164524
0.678960 0.187662 0.182349
0.740738 0.202411 0.193153
0.800332 0.219303 0.201212
0.867739 0.240623 0.207052
0.042661 0.075232 0.083293
0.040737 0.073919 0.090383
0.082914 0.077216 0.084875
0.121386 0.093899 0.090809
0.174594 0.105008 0.093922
0.232620 0.107174 0.090877
0.294071 0.115724 0.090205
0.350058 0.130085 0.098538
0.417029 0.142054 0.111712
0.485324 0.154485 0.126723
0.556128 0.166309 0.147356
0.619639 0.177529 0.162850
0.681791 0.193914 0.175107
0.745013 0.208243 0.186036
0.805524 0.225200 0.194476
0.872562 0.247879 0.200142
0.043137 0.106445 0.083595
0.035950 0.118395 0.081718
0.068984 0.110241 0.089705
0.140751 0.098810 0.078186
0.194025 0.118763 0.076668
0.248254 0.135069 0.073362
0.312930 0.146947 0.072069
0.370215 0.159828 0.079451
0.439681 0.167719 0.097667
0.507906 0.175976 0.116139
0.574678 0.183620 0.135414
0.637777 0.196582 0.149459
0.700840 0.208924 0.162488
0.760520 0.225369 0.173542
0.818143 0.241753 0.180738
0.883581 0.265276 0.186265
0.043607 0.140810 0.079851
0.031209 0.160974 0.064444
0.072450 0.157100 0.078002
0.130534 0.144839 0.093967
0.208624 0.126109 0.069364
0.283170 0.144600 0.047897
0.340778 0.163847 0.061482
0.404419 0.179245 0.074143
0.467196 0.192862 0.086735
0.533820 0.204622 0.102977
0.601859 0.221303 0.114712
0.666984 0.240619 0.123471
0.730722 0.254559 0.134961
0.789888 0.270037 0.147188
0.846416 0.283536 0.154702
0.907390 0.304763 0.160383
0.043861 0.178857 0.078097
0.029665 0.196631 0.061494
0.062617 0.204106 0.059118
0.137826 0.187302 0.108486
0.211508 0.180516 0.079658
0.291035 0.159993 0.051012
0.369623 0.176443 0.053776
0.451096 0.193418 0.079361
0.519043 0.208232 0.094457
0.585090 0.225432 0.105834
0.647137 0.244029 0.114350
0.706461 0.264029 0.121575
0.767576 0.288225 0.122390
0.826008 0.317015 0.121789
0.879479 0.345171 0.116379
0.923712 0.365819 0.115376
0.043927 0.210924 0.078173
0.031264 0.226790 0.061529
0.052028 0.247605 0.041760
0.139339 0.231161 0.086039
0.234810 0.225544 0.083499
0.293829 0.201231 0.088123
0.379929 0.192086 0.041802
0.469844 0.206748 0.069080
0.559853 0.227441 0.092991
0.634788 0.250091 0.104010
0.692497 0.268642 0.109960
0.745949 0.289972 0.114464
0.801713 0.312337 0.117006
0.857877 0.340068 0.112545
0.913311 0.376495 0.102952
0.940222 0.394743 0.096931
0.043927 0.246486 0.074523
0.029201 0.255279 0.061687
0.048944 0.272950 0.049445
0.145122 0.284053 0.049873
0.228801 0.265997 0.101184
0.326063 0.281929 0.038495
0.399877 0.250813 0.059174
0.495792 0.242173 0.048784
0.582363 0.251355 0.072178
0.655490 0.270443 0.091981
0.721770 0.292961 0.100787
0.784136 0.316463 0.104426
0.832277 0.341606 0.102025
0.883428 0.371527 0.093852
0.941268 0.407591 0.083822
0.963438 0.422846 0.077582
0.043858 0.278554 0.076042
0.015988 0.283162 0.065628
0.059926 0.302617 0.049016
0.160897 0.326447 0.043618
0.249436 0.309783 0.094653
0.354028 0.329941 0.044866
0.442192 0.351468 0.049667
0.526002 0.305167 0.057450
0.608822 0.299586 0.053391
0.677567 0.301777 0.056914
0.741563 0.320375 0.076265
0.799917 0.341131 0.084916
0.857721 0.370731 0.084316
0.912153 0.401571 0.073811
0.965901 0.439993 0.054265
0.965768 0.452325 0.042015
0.042693 0.302758 0.089488
-0.031708 0.322055 0.056197
0.085762 0.340195 0.049410
0.184409 0.361761 0.044403
0.275736 0.352951 0.085182
0.360891 0.371238 0.062345
0.471621 0.388703 0.048857
0.556490 0.422334 0.051738
0.634218 0.368137 0.059872
0.700303 0.362629 0.055876
0.760210 0.361893 0.053374
0.816021 0.375029 0.051827
0.872368 0.398537 0.052016
0.927432 0.429803 0.048986
0.970713 0.471877 0.048812
0.963534 0.477232 0.050948
0.039824 0.342348 0.074712
0.037332 0.358066 0.048269
0.113379 0.372322 0.050703
0.209390 0.392532 0.047949
0.297935 0.390123 0.078888
0.373019 0.404449 0.078679
0.486835 0.437784 0.046839
0.562176 0.455325 0.052011
0.641516 0.500030 0.050948
0.714022 0.443009 0.062290
0.778201 0.432019 0.053929
0.830666 0.429040 0.055205
0.884183 0.436793 0.053537
0.939892 0.462256 0.050704
0.968334 0.496761 0.051319
0.963202 0.496675 0.051421
0.033801 0.388060 0.066712
0.040216 0.401464 0.046014
0.120455 0.420000 0.043543
0.222441 0.426151 0.064534
0.312014 0.427782 0.084773
0.388983 0.443504 0.079120
0.479532 0.474863 0.044626
0.584764 0.508615 0.052235
0.636496 0.530009 0.052096
0.710967 0.584021 0.051577
0.784453 0.529912 0.055109
0.840629 0.504988 0.055343
0.895539 0.496650 0.049587
0.947921 0.499437 0.050611
0.967095 0.527713 0.051244
0.963245 0.523734 0.051359
0.039286 0.422992 0.076277
0.054038 0.428245 0.065796
0.133777 0.448975 0.059206
0.237921 0.455658 0.080881
0.326913 0.465158 0.093893
0.402948 0.475524 0.093105
0.488624 0.511569 0.046213
0.582546 0.549153 0.052658
0.663313 0.581542 0.052962
0.703046 0.605534 0.052993
0.771609 0.667335 0.052496
0.839732 0.614674 0.052170
0.897184 0.575763 0.062996
0.952927 0.564087 0.053562
0.967092 0.562178 0.050007
0.964257 0.560162 0.050230
0.074729 0.431764 0.106942
0.090523 0.438882 0.097932
0.164294 0.460351 0.091851
0.257981 0.465868 0.112389
0.348660 0.483488 0.120967
0.428396 0.501190 0.113828
0.510445 0.544280 0.058296
0.582785 0.579882 0.051551
0.660039 0.620508 0.053228
0.730434 0.658157 0.053999
0.761173 0.677644 0.054907
0.823831 0.746574 0.053703
0.894159 0.693473 0.050818
0.956344 0.644280 0.059939
0.955770 0.624301 0.063330
0.954606 0.616509 0.061557
0.076093 0.490511 0.096098
0.094658 0.506341 0.085120
0.154966 0.547403 0.056496
0.251596 0.565871 0.049152
0.341528 0.570327 0.035844
0.425987 0.594707 0.031910
0.514302 0.639671 0.045728
0.588076 0.669272 0.052584
0.653507 0.697806 0.052862
0.710540 0.717639 0.052825
0.774828 0.742828 0.052635
0.813089 0.757179 0.052814
0.878629 0.813331 0.053115
0.948073 0.759147 0.053417
0.966616 0.701607 0.051750
0.961936 0.694778 0.052736
0.019140 0.565601 0.037003
0.090674 0.572946 0.041406
0.172388 0.597281 0.045508
0.250048 0.625189 0.053054
0.328071 0.661821 0.058156
0.422774 0.705779 0.052270
0.515595 0.743580 0.051404
0.595314 0.771696 0.051250
0.658887 0.788359 0.053319
0.714502 0.803411 0.053148
0.768398 0.818585 0.053113
0.817677 0.823751 0.053085
0.857470 0.829492 0.053098
0.927283 0.876002 0.053060
0.966599 0.803378 0.054702
0.960645 0.766778 0.054699
0.043906 0.788342 0.041210
-0.048431 0.795843 0.039579
-0.038054 0.812192 0.039163
0.226431 0.832468 0.045973
0.341318 0.847893 0.045643
0.448796 0.861008 0.031841
0.549192 0.874561 0.033480
0.630380 0.885225 0.025520
0.696456 0.893637 -0.019520
0.750497 0.900844 -0.041219
0.800084 0.909313 -0.058207
0.851097 0.920462 -0.069012
0.896012 0.921761 -0.076915
0.948113 0.956120 -0.083146
0.992092 0.962829 -0.088102
0.981125 0.922776 -0.090991
0.041053 -0.350228 0.101281
0.049515 -0.353514 0.111511
0.084997 -0.360298 0.111289
0.105661 -0.368350 0.112272
0.120207 -0.376993 0.103975
0.154839 -0.381400 0.100065
0.206274 -0.386188 0.099340
0.260570 -0.389297 0.109323
0.337878 -0.391345 0.125208
0.418601 -0.392262 0.143393
0.493024 -0.393686 0.167476
0.562819 -0.393602 0.187474
0.631875 -0.394244 0.199839
0.698055 -0.396201 0.210291
0.765203 -0.387993 0.220463
0.841195 -0.368017 0.226638
0.042189 0.073736 0.108304
0.038476 0.074527 0.109678
0.073374 0.087690 0.114814
0.121357 0.102076 0.116087
0.177327 0.114396 0.113735
0.236382 0.124107 0.100753
0.302246 0.134072 0.087662
0.358214 0.146714 0.086126
0.423231 0.153770 0.103739
0.491635 0.161225 0.122798
0.560292 0.168056 0.144112
0.622192 0.177157 0.163856
0.685936 0.192437 0.177266
0.747298 0.207724 0.190219
0.806712 0.223867 0.196735
0.873417 0.245903 0.202403
0.043016 0.112165 0.108003
0.041950 0.113427 0.109223
0.069393 0.111498 0.114094
0.134722 0.107284 0.107473
0.184437 0.128489 0.109654
0.246884 0.135416 0.098866
0.316809 0.140927 0.086434
0.374702 0.152563 0.086705
0.441732 0.161640 0.103535
0.508761 0.170120 0.121297
0.575766 0.180891 0.140082
0.638166 0.191049 0.151732
0.697741 0.205631 0.165555
0.758676 0.221160 0.174169
0.816994 0.238614 0.183679
0.883020 0.262400 0.188741
0.043597 0.142748 0.090522
0.033397 0.159880 0.096502
0.056458 0.159124 0.102809
0.131430 0.150054 0.116878
0.215796 0.132240 0.081885
0.277740 0.151695 0.069840
0.342725 0.168362 0.061706
0.400779 0.184499 0.065221
0.464736 0.196433 0.081900
0.533898 0.205610 0.101640
0.601681 0.221307 0.114891
0.665036 0.235344 0.127052
0.726553 0.247283 0.140066
0.783509 0.259715 0.151694
0.840252 0.275708 0.158888
0.902913 0.297546 0.164338
0.043907 0.176240 0.079517
0.036378 0.192726 0.089423
0.037408 0.205900 0.074819
0.129407 0.195868 0.116196
0.216701 0.184079 0.096119
0.302499 0.163815 0.052017
0.373603 0.180663 0.044989
0.442644 0.196398 0.072722
0.513884 0.212184 0.088976
0.580392 0.228836 0.100907
0.639735 0.247489 0.108698
0.698514 0.267126 0.114258
0.758149 0.289221 0.117810
0.816903 0.313431 0.119946
0.872775 0.337874 0.119798
0.924112 0.362160 0.118407
0.043927 0.212113 0.080034
0.038035 0.221890 0.084104
-0.021332 0.249527 0.044226
0.130750 0.238804 0.090150
0.235264 0.231595 0.097949
0.304412 0.210773 0.099527
0.395119 0.196228 0.038486
0.493049 0.212685 0.073450
0.566474 0.232212 0.091380
0.629427 0.252229 0.100021
0.686617 0.270982 0.105994
0.741596 0.293081 0.109680
0.798532 0.314801 0.111592
0.852055 0.343455 0.107932
0.906633 0.377760 0.098313
0.936583 0.399260 0.089703
0.043927 0.247048 0.079395
0.036932 0.250679 0.081485
-0.027721 0.280452 0.040607
0.134161 0.290756 0.052770
0.226079 0.267478 0.113990
0.322461 0.283891 0.043188
0.412247 0.260302 0.064320
0.511008 0.247794 0.048511
0.602478 0.258098 0.073948
0.676580 0.277785 0.093760
0.727273 0.298586 0.096862
0.778012 0.319797 0.098618
0.829853 0.343631 0.097921
0.881784 0.374017 0.089428
0.938022 0.412879 0.075946
0.960048 0.428081 0.069342
0.043927 0.278949 0.083391
0.030757 0.279432 0.083484
0.030704 0.309928 0.044297
0.149562 0.332539 0.043001
0.247501 0.315067 0.102410
0.352408 0.334609 0.050122
0.439854 0.353502 0.048070
0.538468 0.315325 0.057850
0.622427 0.307362 0.053423
0.690256 0.308878 0.055191
0.755340 0.329751 0.074038
0.813219 0.350428 0.081376
0.858116 0.376067 0.077616
0.907440 0.405515 0.066922
0.963902 0.444552 0.046843
0.966570 0.456579 0.045256
0.043697 0.303386 0.100432
-0.014469 0.318610 0.075716
0.066818 0.344320 0.044784
0.169751 0.368806 0.045588
0.269970 0.357642 0.093159
0.357648 0.374551 0.082940
0.475236 0.393663 0.044343
0.554666 0.425024 0.051208
0.641845 0.378458 0.060627
0.710979 0.371543 0.055845
0.765193 0.367876 0.054887
0.825329 0.383799 0.052996
0.883247 0.407804 0.049805
0.930559 0.438749 0.048987
0.970086 0.475712 0.050022
0.963644 0.482181 0.051278
0.042846 0.338046 0.093733
-0.024534 0.364379 0.044194
0.097646 0.378386 0.048202
0.197236 0.397657 0.050872
0.292630 0.394984 0.086263
0.372848 0.408703 0.094392
0.487609 0.442526 0.040210
0.566228 0.460519 0.051858
0.641507 0.504358 0.050968
0.716387 0.450655 0.061661
0.786737 0.442037 0.053927
0.836583 0.435656 0.054557
0.889727 0.442638 0.053802
0.951740 0.471177 0.050933
0.967093 0.503772 0.051370
0.963211 0.503534 0.051421
0.038422 0.386340 0.088220
-0.028306 0.407793 0.039838
0.102250 0.423487 0.040780
0.208266 0.427488 0.065593
0.305300 0.432168 0.094841
0.385873 0.443989 0.097982
0.478796 0.478261 0.040628
0.587629 0.514591 0.050801
0.637069 0.532972 0.052106
0.711207 0.587594 0.051607
0.782821 0.532671 0.055031
0.847476 0.515658 0.057066
0.900408 0.503154 0.049344
0.954994 0.507113 0.050546
0.965946 0.530598 0.051244
0.963245 0.526314 0.051359
0.042490 0.425239 0.092631
0.045617 0.426692 0.071708
0.125357 0.448248 0.066588
0.224178 0.454462 0.083487
0.318083 0.463685 0.103219
0.401428 0.478266 0.107871
0.489284 0.514972 0.071455
0.583596 0.553198 0.048560
0.665870 0.586866 0.053131
0.702848 0.606993 0.053099
0.769655 0.668670 0.052602
0.837264 0.617822 0.052028
0.901734 0.585464 0.064568
0.958967 0.569951 0.053354
0.966155 0.565676 0.049910
0.964315 0.563024 0.050100
0.079398 0.432159 0.123549
0.087563 0.437025 0.104735
0.155680 0.459791 0.097690
0.248034 0.466880 0.113749
0.339795 0.480375 0.128290
0.425004 0.501512 0.124404
0.508357 0.545536 0.085189
0.583633 0.587692 0.047180
0.658719 0.625541 0.053028
0.730705 0.662420 0.053840
0.761877 0.681033 0.054710
0.821140 0.744468 0.053461
0.891354 0.691374 0.050848
0.965408 0.654970 0.060878
0.954672 0.626065 0.063428
0.953692 0.616414 0.062493
0.069447 0.503951 0.102497
0.083598 0.513381 0.084482
0.148259 0.546888 0.063900
0.241470 0.567890 0.055636
0.334035 0.580017 0.050365
0.420453 0.590312 0.013361
0.509828 0.636185 0.040325
0.586556 0.672937 0.051153
0.654466 0.703203 0.052923
0.711348 0.722336 0.052847
0.775414 0.744604 0.052698
0.814294 0.757755 0.052814
0.875336 0.808848 0.053176
0.947875 0.759705 0.053316
0.966275 0.707282 0.051767
0.962107 0.694908 0.052605
0.020624 0.577451 0.034306
0.067647 0.579825 0.039242
0.163905 0.599148 0.045040
0.246097 0.621828 0.051613
0.322610 0.648876 0.057032
0.412281 0.688596 0.051756
0.507863 0.732119 0.051389
0.591986 0.769372 0.051257
0.659000 0.791395 0.053335
0.713837 0.805053 0.053163
0.767638 0.819042 0.053130
0.818430 0.822146 0.053087
0.856497 0.827811 0.053120
0.926199 0.872896 0.053057
0.966873 0.802444 0.054719
0.960616 0.767365 0.054704
0.047386 0.798911 0.018566
-0.039154 0.800170 -0.013477
-0.074636 0.813968 -0.024454
0.218671 0.829345 -0.021738
0.330779 0.848809 0.017312
0.432175 0.865181 -0.034346
0.533857 0.879175 -0.025049
0.620023 0.889407 -0.027705
0.690866 0.898607 -0.037884
0.748703 0.905980 -0.050014
0.797159 0.913141 -0.063048
0.849444 0.923347 -0.071753
0.895876 0.924933 -0.079659
0.943864 0.953783 -0.086332
0.992459 0.965816 -0.091531
0.981636 0.925702 -0.094692
0.041547 -0.352028 0.128079
0.035652 -0.354261 0.127567
0.102055 -0.358720 0.147172
0.129584 -0.365318 0.140010
0.167527 -0.372847 0.141721
0.214638 -0.381075 0.131240
0.273212 -0.387404 0.125411
0.305680 -0.391341 0.124058
0.368134 -0.393515 0.137606
0.437995 -0.394463 0.154391
0.507995 -0.394871 0.173840
0.574697 -0.394060 0.188828
0.636881 -0.395111 0.203679
0.699115 -0.395817 0.215711
0.763291 -0.389819 0.225678
0.836230 -0.372258 0.233451
0.042637 0.083869 0.119949
0.036181 0.093212 0.129719
0.087670 0.096300 0.145099
0.144583 0.103018 0.140578
0.198412 0.104164 0.135852
0.255894 0.095762 0.112788
0.318054 0.101068 0.111067
0.365623 0.115959 0.115352
0.429302 0.130591 0.129732
0.495252 0.144749 0.145461
0.557996 0.157759 0.161402
0.617979 0.170237 0.177615
0.680112 0.183194 0.190384
0.741311 0.198584 0.201552
0.799157 0.213907 0.208168
0.866559 0.234595 0.213750
0.043296 0.101527 0.140890
0.036289 0.107810 0.146788
0.069062 0.108839 0.153176
0.121246 0.125203 0.155823
0.180438 0.140038 0.152157
0.251523 0.149375 0.128618
0.322789 0.154122 0.108020
0.397761 0.156637 0.093207
0.450325 0.161967 0.103451
0.514610 0.165044 0.127683
0.577586 0.171793 0.147213
0.638967 0.186005 0.160685
0.699326 0.199988 0.172096
0.757219 0.215414 0.180830
0.817025 0.232648 0.189117
0.882866 0.256424 0.193864
0.043878 0.157481 0.165960
0.035483 0.156427 0.144371
0.055839 0.159334 0.148796
0.122332 0.154999 0.152155
0.203557 0.150150 0.141664
0.263596 0.165564 0.125267
0.333149 0.175449 0.109494
0.408161 0.180996 0.092786
0.469184 0.185790 0.090555
0.531468 0.189948 0.112946
0.596843 0.200009 0.127228
0.658007 0.216957 0.138892
0.718238 0.231455 0.149483
0.777768 0.246223 0.158715
0.833986 0.263789 0.166188
0.898345 0.287828 0.170897
0.043907 0.194003 0.139291
0.040609 0.183727 0.118206
-0.022240 0.211244 0.121592
0.101392 0.211559 0.128776
0.216603 0.190207 0.125505
0.301317 0.170658 0.085543
0.370619 0.188966 0.069677
0.440128 0.204253 0.066902
0.501861 0.220565 0.074143
0.562345 0.234731 0.087373
0.623427 0.249104 0.097536
0.684633 0.265714 0.108469
0.744562 0.284502 0.116667
0.803696 0.304955 0.122770
0.860500 0.323671 0.126179
0.923273 0.346624 0.130690
0.043927 0.224147 0.123354
0.043147 0.212568 0.092611
-0.039701 0.250437 0.099530
0.087620 0.256033 0.090490
0.222674 0.239491 0.136380
0.300940 0.219567 0.128130
0.398753 0.202879 0.056975
0.480717 0.219518 0.050689
0.554651 0.238508 0.079822
0.619011 0.257575 0.090651
0.675915 0.276845 0.097791
0.729864 0.296407 0.099046
0.785435 0.320252 0.101367
0.836675 0.345859 0.098686
0.890540 0.378293 0.089160
0.935544 0.403554 0.083322
0.043927 0.250091 0.099549
0.043786 0.244481 0.092649
-0.045674 0.280509 0.088459
0.088050 0.306776 0.050711
0.219002 0.280756 0.127278
0.329966 0.292463 0.074245
0.408794 0.269700 0.096522
0.507907 0.254362 0.045530
0.599391 0.261920 0.066064
0.666644 0.283826 0.082844
0.721465 0.304724 0.090028
0.770372 0.326075 0.090005
0.823269 0.350323 0.090293
0.874499 0.379558 0.081135
0.927576 0.416728 0.065081
0.953505 0.436313 0.052966
0.043927 0.275401 0.093658
0.043184 0.275883 0.105354
-0.055360 0.317904 0.072487
0.111318 0.345673 0.042795
0.237215 0.327517 0.115900
0.343660 0.341662 0.101956
0.435309 0.356725 0.048361
0.533697 0.324392 0.057336
0.619099 0.315120 0.055210
0.688372 0.315525 0.052502
0.755538 0.333545 0.066232
0.805708 0.356153 0.070386
0.852776 0.383476 0.065198
0.901325 0.412199 0.051437
0.957542 0.451558 0.047394
0.968295 0.464169 0.048844
0.043927 0.302051 0.110934
0.039437 0.301542 0.120506
-0.058565 0.363819 0.030426
0.138234 0.378695 0.052288
0.258233 0.367726 0.108363
0.347469 0.376544 0.127978
0.477213 0.403031 -0.018342
0.554310 0.431155 0.049851
0.638139 0.388062 0.061592
0.709181 0.380438 0.056276
0.765246 0.373778 0.055707
0.822900 0.387740 0.055224
0.878351 0.413040 0.052903
0.926233 0.444470 0.051378
0.970540 0.483103 0.050961
0.963887 0.489913 0.051387
0.043908 0.322813 0.125546
0.029213 0.338236 0.113848
0.031579 0.396436 0.017766
0.167692 0.403084 0.059957
0.276200 0.401804 0.104231
0.364373 0.412325 0.123978
0.481090 0.449036 0.011853
0.574123 0.470676 0.047371
0.641715 0.511921 0.050953
0.715624 0.461219 0.061337
0.783598 0.449184 0.054113
0.834003 0.439949 0.054237
0.888500 0.446979 0.051990
0.948269 0.474659 0.051045
0.967773 0.511594 0.051370
0.963245 0.513300 0.051421
0.043137 0.342669 0.143165
-0.023252 0.394464 0.103094
0.065446 0.422062 0.055419
0.183417 0.433231 0.073282
0.288973 0.435666 0.109053
0.378300 0.446574 0.125848
0.471489 0.482789 0.104612
0.586106 0.521895 0.035952
0.644672 0.543394 0.051986
0.710471 0.592962 0.051672
0.783901 0.541360 0.053026
0.840724 0.518542 0.058939
0.895826 0.506005 0.049470
0.953132 0.509743 0.050630
0.966526 0.533758 0.051104
0.963426 0.533423 0.051204
0.036294 0.393473 0.147489
0.010786 0.430923 0.109410
0.094737 0.444981 0.079754
0.203352 0.460137 0.089410
0.301851 0.464988 0.116700
0.392568 0.482242 0.125359
0.484535 0.517608 0.116983
0.579841 0.556499 0.026376
0.666887 0.593883 0.052162
0.709105 0.615083 0.053166
0.767841 0.670944 0.054645
0.837165 0.617510 0.051975
0.897914 0.585992 0.063390
0.954625 0.569601 0.052422
0.964584 0.568214 0.052345
0.963772 0.567710 0.050861
0.055195 0.427308 0.156918
0.076522 0.433212 0.141454
0.135235 0.452654 0.112221
0.231401 0.470746 0.119023
0.322355 0.478837 0.137673
0.412108 0.497190 0.140581
0.499874 0.541688 0.128380
0.581755 0.595358 0.067529
0.654914 0.631851 0.050638
0.730375 0.668342 0.053454
0.765477 0.687269 0.054343
0.818131 0.740530 0.054900
0.891223 0.690588 0.050605
0.962926 0.655270 0.060948
0.955475 0.627209 0.063082
0.953804 0.617080 0.062410
0.041514 0.497032 0.150487
0.038009 0.525284 0.106672
0.120880 0.550779 0.075966
0.219087 0.572769 0.068390
0.319760 0.579578 0.078234
0.416072 0.604987 0.044609
0.499609 0.624880 0.014335
0.580848 0.672657 0.044089
0.652324 0.709222 0.051914
0.710959 0.728292 0.052876
0.773416 0.746217 0.052675
0.815132 0.757954 0.052739
0.872833 0.805928 0.053181
0.949983 0.757779 0.053324
0.966447 0.709809 0.051827
0.962087 0.696714 0.052611
0.040332 0.578608 0.056335
-0.049524 0.593853 0.020692
0.137538 0.608118 0.035276
0.233393 0.623077 0.048148
0.313758 0.640862 0.052879
0.401252 0.671191 0.050473
0.495963 0.715144 0.050289
0.584069 0.761310 0.051213
0.654443 0.791495 0.053401
0.711377 0.806106 0.053169
0.766007 0.817562 0.053091
0.816640 0.819729 0.053055
0.855578 0.824061 0.053131
0.923329 0.870268 0.053055
0.967053 0.801570 0.054735
0.960606 0.766758 0.054704
0.050744 0.806526 -0.050079
0.030764 0.812779 -0.049755
-0.097760 0.819085 -0.056331
0.194971 0.831653 -0.057473
0.313237 0.842906 -0.050820
0.416174 0.863719 -0.057705
0.518185 0.885888 -0.052258
0.604264 0.895957 -0.048211
0.678567 0.906228 -0.048032
0.739907 0.912383 -0.052272
0.791970 0.919358 -0.063072
0.843602 0.930205 -0.071355
0.894158 0.932999 -0.078421
0.939599 0.953307 -0.084656
0.991180 0.969625 -0.089583
0.980628 0.930501 -0.092564
0.041329 -0.352843 0.157620
0.047996 -0.355579 0.154662
0.060773 -0.358139 0.172643
0.166739 -0.362365 0.180434
0.197316 -0.368626 0.167604
0.247986 -0.376475 0.160562
0.308613 -0.384565 0.155787
0.373158 -0.390584 0.149076
0.431533 -0.394063 0.144759
0.476894 -0.394865 0.155677
0.544227 -0.395187 0.174885
0.602165 -0.395172 0.188433
0.659146 -0.394614 0.200734
0.714567 -0.395048 0.212670
0.775116 -0.388694 0.221283
0.845091 -0.371410 0.228620
0.042645 0.103071 0.148076
0.043223 0.111575 0.158546
0.055130 0.114189 0.162746
0.169672 0.120189 0.179301
0.214890 0.122913 0.163453
0.284723 0.127210 0.158641
0.348862 0.131076 0.144920
0.419062 0.138247 0.140836
0.484663 0.145055 0.135899
0.527107 0.157204 0.144610
0.589277 0.169292 0.162352
0.644004 0.180598 0.174152
0.697844 0.191840 0.187464
0.751327 0.203536 0.197028
0.806111 0.218424 0.206598
0.868662 0.236371 0.213972
0.043385 0.108662 0.154464
0.037911 0.118545 0.164477
0.053203 0.128610 0.175991
0.144427 0.134417 0.195454
0.209089 0.140693 0.180328
0.280365 0.131806 0.157106
0.352677 0.132140 0.143978
0.426446 0.140201 0.141220
0.499021 0.147173 0.138538
0.535648 0.160160 0.142196
0.591018 0.169303 0.158925
0.643995 0.179183 0.173458
0.696253 0.189503 0.186699
0.750127 0.201755 0.196811
0.806234 0.215166 0.206867
0.871406 0.235860 0.212732
0.043954 0.139756 0.180167
0.038533 0.147865 0.187598
0.046845 0.154536 0.200761
0.109050 0.158155 0.213561
0.182973 0.175109 0.212520
0.257874 0.181955 0.191335
0.337011 0.182155 0.166314
0.414138 0.176530 0.148390
0.492418 0.168509 0.135719
0.547262 0.167662 0.128428
0.595090 0.178965 0.145310
0.655094 0.193149 0.156890
0.714503 0.211138 0.164846
0.774330 0.230153 0.171462
0.832438 0.251006 0.176255
0.897642 0.275619 0.180170
0.044279 0.191804 0.208173
0.042665 0.210337 0.211448
-0.023261 0.213630 0.195848
0.062661 0.218044 0.192388
0.202168 0.208234 0.187472
0.283294 0.197376 0.179642
0.352137 0.214981 0.171214
0.425483 0.226698 0.161338
0.501451 0.230287 0.146598
0.572510 0.232595 0.134058
0.638421 0.234163 0.122698
0.675216 0.245607 0.119294
0.733606 0.258470 0.130843
0.794449 0.278805 0.138504
0.853730 0.300811 0.141765
0.918858 0.327043 0.144572
0.043882 0.258842 0.214509
0.043836 0.245439 0.176077
0.030412 0.233139 0.159540
-0.065776 0.268598 0.147560
0.179221 0.262290 0.163652
0.299460 0.236909 0.164516
0.393511 0.214380 0.123976
0.472637 0.235034 0.106805
0.548339 0.253105 0.096515
0.615353 0.270009 0.090788
0.662911 0.287761 0.089775
0.718777 0.303664 0.084729
0.763750 0.319738 0.091452
0.822170 0.343043 0.093255
0.880745 0.370804 0.089611
0.937547 0.402726 0.081125
0.043927 0.278428 0.182956
0.043927 0.270004 0.162319
0.034927 0.254523 0.138470
-0.077513 0.314318 0.113798
0.179934 0.311360 0.128864
0.327577 0.309077 0.142684
0.401758 0.287435 0.149690
0.505204 0.265054 0.096071
0.593814 0.270727 0.023840
0.650176 0.294154 0.053610
0.706880 0.314997 0.067367
0.757729 0.334730 0.071722
0.808951 0.358876 0.071802
0.859514 0.386676 0.061134
0.909858 0.421433 0.043232
0.945728 0.447382 0.039179
0.043927 0.303250 0.180348
0.043927 0.291517 0.148303
0.025772 0.278912 0.136104
-0.068714 0.353101 0.087007
