example_ofxGpuLutCube/bin/data/ofxGpuLutCube/LUT/A10 (teal orange).cube
LUT_3D_SIZE 6
0.042444 0.053085 0.081706
0.122601 0.087660 0.092869
0.290680 0.119799 0.086413
0.481743 0.155861 0.124306
0.678960 0.187662 0.182349
0.867739 0.240623 0.207052
0.043607 0.140810 0.079851
0.130534 0.144839 0.093967
0.340778 0.163847 0.061482
0.533820 0.204622 0.102977
0.730722 0.254559 0.134961
0.907390 0.304763 0.160383
0.043927 0.246486 0.074523
0.145122 0.284053 0.049873
0.399877 0.250813 0.059174
0.655490 0.270443 0.091981
0.832277 0.341606 0.102025
0.963438 0.422846 0.077582
0.039824 0.342348 0.074712
0.209390 0.392532 0.047949
0.486835 0.437784 0.046839
0.714022 0.443009 0.062290
0.884183 0.436793 0.053537
0.963202 0.496675 0.051421
0.074729 0.431764 0.106942
0.257981 0.465868 0.112389
0.510445 0.544280 0.058296
0.730434 0.658157 0.053999
0.894159 0.693473 0.050818
0.954606 0.616509 0.061557
0.043906 0.788342 0.041210
0.226431 0.832468 0.045973
0.549192 0.874561 0.033480
0.750497 0.900844 -0.041219
0.896012 0.921761 -0.076915
0.981125 0.922776 -0.090991
0.041329 -0.352843 0.157620
0.166739 -0.362365 0.180434
0.308613 -0.384565 0.155787
0.476894 -0.394865 0.155677
0.659146 -0.394614 0.200734
0.845091 -0.371410 0.228620
0.043954 0.139756 0.180167
0.109050 0.158155 0.213561
0.337011 0.182155 0.166314
0.547262 0.167662 0.128428
0.714503 0.211138 0.164846
0.897642 0.275619 0.180170
0.043927 0.278428 0.182956
-0.077513 0.314318 0.113798
0.401758 0.287435 0.149690
0.650176 0.294154 0.053610
0.808951 0.358876 0.071802
0.945728 0.447382 0.039179
0.043927 0.332309 0.168016
0.106313 0.414661 0.069468
0.459512 0.454429 0.136642
0.713782 0.474564 0.057093
0.885446 0.452798 0.052041
0.963466 0.524662 0.051421
0.043670 0.359862 0.222634
0.192921 0.474446 0.133377
0.484387 0.532578 0.166061
0.726222 0.673743 0.047970
0.893720 0.688959 0.050851
0.952726 0.619799 0.063790
0.050723 0.806927 -0.091328
0.122516 0.838453 -0.081895
0.499217 0.888723 -0.074028
0.726937 0.919619 -0.068183
0.892267 0.939502 -0.075966
0.979181 0.935493 -0.088752
0.044020 -0.330966 0.241835
0.114281 -0.346901 0.270070
0.413880 -0.373352 0.255690
0.610989 -0.395536 0.226468
0.758896 -0.381012 0.237310
0.905245 -0.353764 0.237292
0.044223 0.176855 0.246864
0.052259 0.216252 0.302153
0.415722 0.224377 0.279979
0.627404 0.218798 0.245951
0.778023 0.248153 0.250804
0.914345 0.291476 0.252086
0.044326 0.272914 0.327586
0.036846 0.318018 0.370795
0.296654 0.356608 0.434693
0.600951 0.368793 0.398530
0.781833 0.362861 0.353454
0.940989 0.413667 0.324944
0.044934 0.494019 0.463628
0.044413 0.458503 0.389656
0.301508 0.496348 0.289533
0.680706 0.528349 0.281065
0.854226 0.518840 0.270799
0.967331 0.582364 0.280286
0.044037 0.500588 0.426269
0.031155 0.451018 0.383354
0.399981 0.564232 0.283248
0.681720 0.679407 0.307680
0.888029 0.699644 0.035936
0.961785 0.641937 0.229751
0.043871 0.825065 0.378451
-0.045209 0.831001 0.216207
0.328703 1.007243 -0.115054
0.674659 0.973065 0.205137
0.868409 0.961344 0.284505
0.972657 0.951578 0.297175
0.044365 -0.339272 0.269299
0.101138 -0.339573 0.287384
0.387391 -0.335752 0.337492
0.697491 -0.394065 0.226255
0.800321 -0.362105 0.187763
0.894992 -0.283536 0.327192
0.044387 0.243911 0.343490
-0.027867 0.271119 0.387179
0.335903 0.263198 0.410464
0.680837 0.276877 0.290019
0.805106 0.303183 0.304364
0.898324 0.372949 0.407889
0.044404 0.295902 0.394850
0.043389 0.343638 0.452447
0.194195 0.385168 0.529178
0.653230 0.386119 0.461489
0.793820 0.409715 0.481652
0.900839 0.450568 0.502411
0.044672 0.427082 0.508073
0.044479 0.469624 0.539120
0.100275 0.532098 0.610883
0.619735 0.580369 0.637336
0.804201 0.604483 0.636140
0.939779 0.611043 0.609553
0.045044 0.636695 0.639839
0.045074 0.680105 0.678532
-0.099579 0.628824 0.601921
0.626465 0.692177 0.544674
0.859595 0.740117 0.476962
0.965197 0.724517 0.538581
0.043825 0.917771 0.745309
-0.019631 0.913664 0.614763
-0.178468 0.906622 0.519703
0.560324 1.013377 0.434981
0.827899 0.975317 0.554210
0.974350 0.966395 0.529846
0.044336 -0.268657 0.268430
0.067925 -0.310572 0.221885
0.287726 -0.315672 0.321782
0.658655 -0.326236 0.290430
0.834863 -0.293493 0.342970
0.876671 -0.118514 0.455675
0.044539 0.310964 0.440739
0.033200 0.330261 0.474212
0.172542 0.321231 0.459064
0.599925 0.363991 0.448595
0.823394 0.382685 0.481113
0.892539 0.440736 0.553668
0.044589 0.353213 0.485808
0.044603 0.389456 0.535525
0.130801 0.416755 0.605970
0.605618 0.407950 0.621852
0.831276 0.450565 0.616696
0.907620 0.515364 0.657200
0.044887 0.437131 0.579507
0.044797 0.487709 0.632282
-0.029288 0.522526 0.678949
0.496702 0.578154 0.755180
0.840056 0.586796 0.734987
0.919575 0.641194 0.747156
0.045115 0.585470 0.699321
0.045099 0.614212 0.716019
-0.036040 0.656250 0.755512
0.385573 0.714659 0.801922
0.822696 0.776866 0.802132
0.949145 0.786462 0.801810
0.045464 0.828636 0.874079
0.034280 0.887499 0.890429
-0.141444 0.945657 0.905944
-0.179908 0.992151 0.813851
0.787067 1.010199 0.729595
0.977030 0.982898 0.740817
0.044678 0.244935 0.446063
0.032345 0.204975 0.402744
0.220763 0.139710 0.343126
0.637244 0.222882 0.458088
0.819576 0.218427 0.549418
0.927485 0.341732 0.706971
0.044786 0.396955 0.567272
0.043130 0.409402 0.592969
0.165965 0.404512 0.562408
0.550770 0.404902 0.637525
0.814504 0.444442 0.674855
0.941306 0.516049 0.771608
0.044899 0.423948 0.596453
0.044864 0.448002 0.633240
-0.080300 0.470302 0.689220
0.360941 0.430882 0.715767
0.807776 0.477425 0.786016
0.953671 0.551889 0.825520
0.045105 0.502075 0.683602
0.045072 0.544748 0.728297
-0.053138 0.556614 0.749304
0.348368 0.595283 0.826846
0.760467 0.583237 0.840343
0.960207 0.633367 0.868514
0.045194 0.591250 0.766702
0.045307 0.627580 0.797531
0.042135 0.644791 0.815139
0.313746 0.673625 0.844648
0.777854 0.762246 0.875864
0.961987 0.759189 0.899019
0.045435 0.721231 0.859140
0.045426 0.754219 0.875731
0.045426 0.785744 0.891110
0.199830 0.825203 0.911741
0.696131 0.883953 0.922947
0.967064 0.949057 0.918274
