example_ofxGpuLutCube/bin/data/ofxGpuLutCube/LUT/A11 (teal pink).cube
LUT_3D_SIZE 16
0.002533 0.072266 0.001617
0.036666 0.064095 0.001617
0.071676 0.055717 0.001617
0.108899 0.046820 0.001617
0.149683 0.037048 0.001617
0.195709 0.026042 0.001617
0.248950 0.013305 0.001617
0.310307 0.001139 0.001617
0.378019 0.000000 0.001617
0.449225 0.000000 0.001617
0.521037 0.000000 0.001617
0.592153 0.000000 0.001617
0.660260 0.000000 0.001617
0.722730 0.000000 0.001617
0.779295 0.000000 0.001617
0.830628 0.000000 0.001617
0.003547 0.108651 0.001617
0.037679 0.100480 0.001617
0.072688 0.092098 0.001617
0.109912 0.083205 0.001617
0.150696 0.073425 0.001617
0.196723 0.062417 0.001617
0.249963 0.049691 0.001617
0.311320 0.035004 0.001617
0.379032 0.018797 0.001617
0.450238 0.003339 0.001617
0.522050 0.000163 0.001617
0.593166 0.000000 0.001617
0.661274 0.000000 0.001617
0.723743 0.000000 0.001617
0.780308 0.000000 0.001617
0.831641 0.000000 0.001617
0.004685 0.147986 0.001617
0.038818 0.139816 0.001617
0.073828 0.131437 0.001617
0.111052 0.122541 0.001617
0.151835 0.112791 0.001617
0.197862 0.101762 0.001617
0.251103 0.089026 0.001617
0.312459 0.074340 0.001617
0.380172 0.058148 0.001617
0.451377 0.041120 0.001617
0.523189 0.023922 0.001617
0.594305 0.006909 0.001617
0.662412 0.001108 0.001617
0.724882 0.000000 0.001617
0.781447 0.000000 0.001617
0.832780 0.000000 0.001617
0.005926 0.191852 0.001617
0.040059 0.183681 0.001617
0.075069 0.175303 0.001617
0.112293 0.166402 0.001617
0.153076 0.156651 0.001617
0.199103 0.145642 0.001617
0.252344 0.132892 0.001617
0.313700 0.118216 0.001617
0.381413 0.102022 0.001617
0.452619 0.084979 0.001617
0.524430 0.067788 0.001617
0.595546 0.050775 0.001617
0.663653 0.034485 0.001617
0.726123 0.019536 0.001617
0.782962 0.006123 0.001657
0.836532 0.003164 0.001987
0.007344 0.242021 0.001617
0.041477 0.233858 0.001617
0.076487 0.225476 0.001617
0.113711 0.216558 0.001617
0.154494 0.206804 0.001617
0.200521 0.195795 0.001617
0.253762 0.183064 0.001617
0.315119 0.168382 0.001617
0.382831 0.152175 0.001617
0.454036 0.135132 0.001617
0.525849 0.117965 0.001617
0.596965 0.100950 0.001617
0.665417 0.084797 0.001656
0.730573 0.071178 0.001988
0.793312 0.061231 0.002848
0.850913 0.053556 0.003865
0.009013 0.300384 0.001617
0.043146 0.292214 0.001617
0.078155 0.283835 0.001617
0.115379 0.274931 0.001617
0.156163 0.265179 0.001617
0.202189 0.254171 0.001617
0.255430 0.241425 0.001617
0.316787 0.226747 0.001617
0.384499 0.210551 0.001617
0.455705 0.193508 0.001617
0.527842 0.176490 0.001651
0.602151 0.160926 0.001980
0.677688 0.148548 0.002838
0.747477 0.138870 0.003843
0.810913 0.131695 0.004938
0.868815 0.126802 0.006098
0.010876 0.366180 0.001617
0.045009 0.358010 0.001617
0.080019 0.349628 0.001617
0.117243 0.340720 0.001617
0.158026 0.330955 0.001617
0.204053 0.319946 0.001617
0.257294 0.307220 0.001617
0.318650 0.292533 0.001617
0.386616 0.276450 0.001650
0.461183 0.261093 0.001982
0.541205 0.247988 0.002808
0.621815 0.236301 0.003796
0.698669 0.226572 0.004894
0.768541 0.219589 0.006073
0.831718 0.215083 0.007325
0.889362 0.212565 0.008690
0.012891 0.436824 0.001617
0.047024 0.428655 0.001617
0.082034 0.420286 0.001617
0.119256 0.411379 0.001617
0.160040 0.401613 0.001617
0.206067 0.390605 0.001617
0.259462 0.377990 0.001640
0.323834 0.365101 0.001969
0.399683 0.353163 0.002762
0.481383 0.341485 0.003771
0.564589 0.330538 0.004846
0.646748 0.320790 0.006018
0.723378 0.313229 0.007272
0.792417 0.308394 0.008653
0.854743 0.305717 0.010086
0.911654 0.304815 0.011539
0.014972 0.509426 0.001617
0.049105 0.501255 0.001617
0.084115 0.492877 0.001617
0.121337 0.483981 0.001617
0.162191 0.474280 0.001626
0.210500 0.465196 0.001951
0.270544 0.456951 0.002729
0.342410 0.447618 0.003708
0.422882 0.437312 0.004807
0.507406 0.426929 0.005985
0.592640 0.417362 0.007245
0.675103 0.409113 0.008607
0.750459 0.403269 0.010011
0.817976 0.399843 0.011519
0.879045 0.398292 0.013089
0.934880 0.398188 0.014661
0.017023 0.581940 0.001617
0.051156 0.573770 0.001617
0.086185 0.565427 0.001619
0.125135 0.558460 0.001944
0.170915 0.553405 0.002690
0.225165 0.548189 0.003678
0.290496 0.541328 0.004762
0.366950 0.532650 0.005956
0.450970 0.523000 0.007219
0.537668 0.513368 0.008557
0.623995 0.504433 0.009985
0.705515 0.496964 0.011460
0.778708 0.491815 0.013003
0.844219 0.488650 0.014623
0.903672 0.487072 0.016296
0.958223 0.486378 0.017991
0.019033 0.652730 0.001617
0.054567 0.646274 0.001922
0.093607 0.642493 0.002665
0.136906 0.639437 0.003652
0.186301 0.635790 0.004724
0.244764 0.630859 0.005917
0.315123 0.623734 0.007147
0.396063 0.614633 0.008492
0.482935 0.604526 0.009912
0.571010 0.594490 0.011404
0.657226 0.585154 0.012973
0.736481 0.577493 0.014563
0.807042 0.571954 0.016235
0.870276 0.568134 0.017935
0.927953 0.565593 0.019696
0.981099 0.563708 0.021455
0.025848 0.724304 0.002649
0.064910 0.721518 0.003617
0.106414 0.719108 0.004689
0.152257 0.716251 0.005857
0.205145 0.712345 0.007122
0.268354 0.706485 0.008449
0.343986 0.698101 0.009877
0.428765 0.687811 0.011357
0.517478 0.676710 0.012906
0.606107 0.665844 0.014522
0.690807 0.655893 0.016178
0.767096 0.647953 0.017890
0.834701 0.641911 0.019612
0.895494 0.637365 0.021393
0.951260 0.633865 0.023205
0.998624 0.630893 0.024979
0.037634 0.793604 0.004651
0.078191 0.791314 0.005801
0.121753 0.788904 0.007075
0.170469 0.785617 0.008398
0.227366 0.780794 0.009811
0.295848 0.773466 0.011294
0.376263 0.763562 0.012854
0.464020 0.751992 0.014453
0.553608 0.740039 0.016138
0.641794 0.728368 0.017825
0.723689 0.718146 0.019566
0.796482 0.710035 0.021353
0.861085 0.703606 0.023098
0.919436 0.698438 0.024908
0.973188 0.694065 0.026725
0.999983 0.690222 0.028568
0.051577 0.857267 0.007013
0.093657 0.854859 0.008355
0.139365 0.852002 0.009748
0.191339 0.848076 0.011250
0.252796 0.841916 0.012781
0.326732 0.832924 0.014407
0.411233 0.821552 0.016068
0.500620 0.808943 0.017765
0.590384 0.796233 0.019507
0.676762 0.784196 0.021287
0.754990 0.774017 0.023044
0.824100 0.765789 0.024861
0.885780 0.759020 0.026672
0.941753 0.753354 0.028494
0.993553 0.748289 0.030373
1.000000 0.747058 0.032199
0.067285 0.915880 0.009709
0.110978 0.913278 0.011214
0.159234 0.909712 0.012737
0.214866 0.904655 0.014333
0.281328 0.897070 0.016014
0.360304 0.886444 0.017705
0.447591 0.873792 0.019440
0.537648 0.860489 0.021205
0.626605 0.847340 0.022988
0.709931 0.835326 0.024781
0.784042 0.825227 0.026638
0.849534 0.816944 0.028465
0.908378 0.810005 0.030336
0.961999 0.803422 0.032168
0.999316 0.792287 0.033948
1.000000 0.788485 0.035708
0.084449 0.970321 0.012680
0.129968 0.967178 0.014287
0.180929 0.962893 0.015951
0.240619 0.956553 0.017653
0.312389 0.947408 0.019377
0.395357 0.935435 0.021122
0.484191 0.919750 0.022908
0.573611 0.898406 0.024734
0.660467 0.877672 0.026562
0.739616 0.858781 0.028377
0.809453 0.842049 0.030235
0.871341 0.827203 0.032043
0.927196 0.813803 0.033870
0.978390 0.801512 0.035662
0.999999 0.790023 0.037432
1.000000 0.789276 0.039160
0.002533 0.071635 0.033576
0.036666 0.063464 0.033576
0.071676 0.055086 0.033576
0.108899 0.046189 0.033576
0.149683 0.036440 0.033576
0.195709 0.025431 0.033576
0.248950 0.012675 0.033576
0.310307 0.000803 0.033576
0.378019 0.000000 0.033576
0.449225 0.000000 0.033576
0.521037 0.000000 0.033576
0.592153 0.000000 0.033576
0.660260 0.000000 0.033576
0.722730 0.000000 0.033576
0.779295 0.000000 0.033576
0.830628 0.000000 0.033576
0.003547 0.108020 0.033576
0.037679 0.099849 0.033576
0.072688 0.091471 0.033576
0.109912 0.082574 0.033576
0.150696 0.072804 0.033576
0.196723 0.061798 0.033576
0.249963 0.049060 0.033576
0.311320 0.034374 0.033576
0.379032 0.018168 0.033576
0.450238 0.003062 0.033576
0.522050 0.000149 0.033576
0.593166 0.000000 0.033576
0.661274 0.000000 0.033576
0.723743 0.000000 0.033576
0.780308 0.000000 0.033576
0.831641 0.000000 0.033576
0.004685 0.147355 0.033576
0.038818 0.139184 0.033576
0.073828 0.130810 0.033576
0.111052 0.121909 0.033576
0.151835 0.112160 0.033576
0.197862 0.101151 0.033576
0.251103 0.088395 0.033576
0.312459 0.073723 0.033576
0.380172 0.057532 0.033576
0.451377 0.040489 0.033576
0.523189 0.023311 0.033576
0.594305 0.006279 0.033576
0.662412 0.001024 0.033576
0.724882 0.000000 0.033576
0.781447 0.000000 0.033576
0.832780 0.000000 0.033576
0.005926 0.191221 0.033576
0.040059 0.183052 0.033576
0.075069 0.174693 0.033576
0.112293 0.165775 0.033576
0.153076 0.156022 0.033576
0.199103 0.145012 0.033576
0.252344 0.132271 0.033576
0.313700 0.117599 0.033576
0.381413 0.101391 0.033576
0.452619 0.084351 0.033576
0.524430 0.067181 0.033576
0.595546 0.050163 0.033576
0.663653 0.033854 0.033576
0.726123 0.018925 0.033576
0.783387 0.005720 0.033665
0.838685 0.003308 0.034245
0.007344 0.241398 0.033576
0.041477 0.233228 0.033576
0.076487 0.224848 0.033576
0.113711 0.215952 0.033576
0.154494 0.206178 0.033576
0.200521 0.195164 0.033576
0.253762 0.182438 0.033576
0.315119 0.167751 0.033576
0.382831 0.151544 0.033576
0.454036 0.134513 0.033576
0.525849 0.117334 0.033576
0.596965 0.100321 0.033576
0.666014 0.084439 0.033681
0.732961 0.071677 0.034222
0.796003 0.062075 0.035143
0.853666 0.054729 0.036195
0.009013 0.299754 0.033576
0.043146 0.291604 0.033576
0.078155 0.283223 0.033576
0.115379 0.274309 0.033576
0.156163 0.264552 0.033576
0.202189 0.253540 0.033576
0.255430 0.240802 0.033576
0.316787 0.226127 0.033576
0.384499 0.209920 0.033576
0.455705 0.192881 0.033576
0.528570 0.176183 0.033672
0.604754 0.161478 0.034178
0.680925 0.149626 0.035117
0.750777 0.140288 0.036168
0.814210 0.133497 0.037321
0.872098 0.128899 0.038558
0.010876 0.365550 0.033576
0.045009 0.357379 0.033576
0.080019 0.348999 0.033576
0.117243 0.340104 0.033576
0.158026 0.330341 0.033576
0.204053 0.319320 0.033576
0.257294 0.306590 0.033576
0.318650 0.291903 0.033576
0.387299 0.276173 0.033670
0.463673 0.261708 0.034172
0.544750 0.249167 0.035091
0.625816 0.237800 0.036131
0.702655 0.228421 0.037275
0.772397 0.221803 0.038520
0.835499 0.217585 0.039840
0.893021 0.215383 0.041240
0.012891 0.436207 0.033576
0.047024 0.428037 0.033576
0.082034 0.419658 0.033576
0.119256 0.410751 0.033576
0.160040 0.400987 0.033576
0.206067 0.389979 0.033576
0.259931 0.377685 0.033644
0.325972 0.365765 0.034143
0.403183 0.354435 0.035071
0.485532 0.343052 0.036108
0.569076 0.332359 0.037237
0.651450 0.322896 0.038476
0.727877 0.315700 0.039794
0.796681 0.311170 0.041202
0.858812 0.308731 0.042707
0.915549 0.308083 0.044223
0.014972 0.508795 0.033576
0.049105 0.500638 0.033576
0.084115 0.492259 0.033576
0.121337 0.483350 0.033576
0.162466 0.473935 0.033629
0.212076 0.465936 0.034124
0.273510 0.458361 0.035034
0.346197 0.449199 0.036067
0.427429 0.439125 0.037216
0.512436 0.429020 0.038445
0.597865 0.419616 0.039768
0.680290 0.411619 0.041169
0.755268 0.406062 0.042653
0.822473 0.402896 0.044219
0.883187 0.401515 0.045795
0.938861 0.401551 0.047473
0.017023 0.581327 0.033576
0.051156 0.573157 0.033576
0.086325 0.564967 0.033604
0.126355 0.559243 0.034103
0.173132 0.554931 0.035009
0.228105 0.549950 0.036029
0.294362 0.543221 0.037177
0.371691 0.534668 0.038397
0.456376 0.525146 0.039709
0.543281 0.515646 0.041105
0.629737 0.506817 0.042605
0.710932 0.499576 0.044131
0.783658 0.494577 0.045732
0.848822 0.491590 0.047426
0.907890 0.489988 0.049139
0.962229 0.489354 0.050922
0.019049 0.652124 0.033578
0.055678 0.647038 0.034081
0.095418 0.644000 0.034974
0.139193 0.641177 0.035998
0.189199 0.637703 0.037127
0.248518 0.632836 0.038346
0.319932 0.625694 0.039667
0.401587 0.616552 0.041064
0.488892 0.606487 0.042534
0.577132 0.596510 0.044081
0.663207 0.587237 0.045683
0.741952 0.579717 0.047343
0.811979 0.574325 0.049082
0.874766 0.570540 0.050855
0.932063 0.567992 0.052683
0.984931 0.566071 0.054490
0.027514 0.725611 0.034933
0.066856 0.723084 0.035962
0.108749 0.720808 0.037103
0.155160 0.718092 0.038306
0.208752 0.714239 0.039615
0.272958 0.708312 0.041028
0.349437 0.699793 0.042474
0.434866 0.689412 0.044020
0.523806 0.678340 0.045623
0.612492 0.667468 0.047291
0.696835 0.657622 0.049030
0.772355 0.649785 0.050815
0.839405 0.643867 0.052591
0.899811 0.639281 0.054420
0.955184 0.635791 0.056306
0.999619 0.632795 0.058175
0.039789 0.795107 0.037044
0.080630 0.792899 0.038273
0.124581 0.790550 0.039574
0.173887 0.787361 0.040964
0.231555 0.782430 0.042428
0.301071 0.774982 0.043972
0.382334 0.764895 0.045584
0.470543 0.753299 0.047248
0.560176 0.741254 0.048960
0.648205 0.729699 0.050727
0.729458 0.719555 0.052543
0.801519 0.711539 0.054361
0.865559 0.705138 0.056262
0.923499 0.699947 0.058144
0.976943 0.695652 0.060067
0.999991 0.692081 0.061936
0.054088 0.858850 0.039540
0.096466 0.856524 0.040923
0.142714 0.853698 0.042395
0.195301 0.849556 0.043908
0.257641 0.843304 0.045544
0.332552 0.834133 0.047165
0.417675 0.822611 0.048909
0.507400 0.809945 0.050677
0.596926 0.797220 0.052485
0.682907 0.785253 0.054301
0.760333 0.775169 0.056186
0.828822 0.766963 0.058082
0.889887 0.760293 0.059958
0.945496 0.754586 0.061882
0.996839 0.749466 0.063802
1.000000 0.748813 0.065670
0.070145 0.917419 0.042334
0.114221 0.914774 0.043876
0.162873 0.911194 0.045485
0.219226 0.906042 0.047142
0.286770 0.898123 0.048844
0.366536 0.887356 0.050611
0.454363 0.874635 0.052440
0.544276 0.861277 0.054241
0.632933 0.848108 0.056154
0.715622 0.836112 0.058016
0.788951 0.826195 0.059901
0.853858 0.817980 0.061817
0.912125 0.811002 0.063753
0.965240 0.802488 0.065615
0.999517 0.791106 0.067507
1.000000 0.787969 0.069396
0.087594 0.971743 0.045407
0.133481 0.968572 0.047032
0.184989 0.964176 0.048765
0.245516 0.957743 0.050535
0.318215 0.948269 0.052348
0.401754 0.936134 0.054194
0.490715 0.917582 0.056032
0.579950 0.896273 0.057915
0.666278 0.875666 0.059825
0.744684 0.856927 0.061752
0.813745 0.840366 0.063672
0.875058 0.825670 0.065519
0.930407 0.812377 0.067432
0.981164 0.800207 0.069297
1.000000 0.789004 0.071163
1.000000 0.788613 0.072980
0.002533 0.071000 0.066441
0.036666 0.062830 0.066441
0.071676 0.054455 0.066441
0.108899 0.045555 0.066441
0.149683 0.035786 0.066441
0.195709 0.024770 0.066441
0.248950 0.012041 0.066441
0.310307 0.000465 0.066441
0.378019 0.000000 0.066441
0.449225 0.000000 0.066441
0.521037 0.000000 0.066441
0.592153 0.000000 0.066441
0.660260 0.000000 0.066441
0.722730 0.000000 0.066441
0.779295 0.000000 0.066441
0.830628 0.000000 0.066441
0.003547 0.107385 0.066441
0.037679 0.099215 0.066441
0.072688 0.090833 0.066441
0.109912 0.081920 0.066441
0.150696 0.072165 0.066441
0.196723 0.061153 0.066441
0.249963 0.048425 0.066441
0.311320 0.033740 0.066441
0.379032 0.017535 0.066441
0.450238 0.002772 0.066441
0.522050 0.000135 0.066441
0.593166 0.000000 0.066441
0.661274 0.000000 0.066441
0.723743 0.000000 0.066441
0.780308 0.000000 0.066441
0.831641 0.000000 0.066441
0.004685 0.146720 0.066441
0.038818 0.138551 0.066441
0.073828 0.130175 0.066441
0.111052 0.121275 0.066441
0.151835 0.111508 0.066441
0.197862 0.100499 0.066441
0.251103 0.087762 0.066441
0.312459 0.073078 0.066441
0.380172 0.056872 0.066441
0.451377 0.039854 0.066441
0.523189 0.022659 0.066441
0.594305 0.005647 0.066441
0.662412 0.000940 0.066441
0.724882 0.000000 0.066441
0.781447 0.000000 0.066441
0.832820 0.000000 0.066447
0.005926 0.190584 0.066441
0.040059 0.182419 0.066441
0.075069 0.174040 0.066441
0.112293 0.165137 0.066441
0.153076 0.155385 0.066441
0.199103 0.144377 0.066441
0.252344 0.131630 0.066441
0.313700 0.116952 0.066441
0.381413 0.100757 0.066441
0.452619 0.083714 0.066441
0.524430 0.066526 0.066441
0.595546 0.049513 0.066441
0.663653 0.033221 0.066441
0.726149 0.018283 0.066444
0.784000 0.005494 0.066621
0.840936 0.003454 0.067530
0.007344 0.240757 0.066441
0.041477 0.232587 0.066441
0.076487 0.224211 0.066441
0.113711 0.215295 0.066441
0.154494 0.205541 0.066441
0.200521 0.194530 0.066441
0.253762 0.181799 0.066441
0.315119 0.167116 0.066441
0.382831 0.150911 0.066441
0.454036 0.133870 0.066441
0.525849 0.116697 0.066441
0.596992 0.099695 0.066444
0.666853 0.084155 0.066650
0.735634 0.072325 0.067475
0.798785 0.063043 0.068502
0.856611 0.056036 0.069642
0.009013 0.299122 0.066441
0.043146 0.290951 0.066441
0.078155 0.282571 0.066441
0.115379 0.273667 0.066441
0.156163 0.263915 0.066441
0.202189 0.252906 0.066441
0.255430 0.240162 0.066441
0.316787 0.225483 0.066441
0.384499 0.209286 0.066441
0.455727 0.192253 0.066443
0.529638 0.176000 0.066665
0.607932 0.162272 0.067455
0.684300 0.150736 0.068480
0.754212 0.141780 0.069609
0.817598 0.135361 0.070821
0.875434 0.131114 0.072156
0.010876 0.364899 0.066441
0.045009 0.356744 0.066441
0.080019 0.348363 0.066441
0.117243 0.339457 0.066441
0.158026 0.329692 0.066441
0.204053 0.318683 0.066441
0.257294 0.305955 0.066441
0.318665 0.291276 0.066442
0.388494 0.276163 0.066668
0.466950 0.262666 0.067430
0.548520 0.250427 0.068465
0.629906 0.239369 0.069576
0.706854 0.230415 0.070804
0.776405 0.224112 0.072144
0.839326 0.220221 0.073572
0.896722 0.218364 0.075082
0.012891 0.435561 0.066441
0.047024 0.427390 0.066441
0.082034 0.419010 0.066441
0.119256 0.410104 0.066441
0.160040 0.400350 0.066441
0.206073 0.389345 0.066442
0.261060 0.377851 0.066671
0.328929 0.366888 0.067384
0.406911 0.355820 0.068420
0.489760 0.344705 0.069539
0.573773 0.334231 0.070749
0.656268 0.325120 0.072098
0.732464 0.318200 0.073515
0.800996 0.313984 0.075038
0.862902 0.311831 0.076613
0.919434 0.311378 0.078293
0.014972 0.508162 0.066441
0.049105 0.499992 0.066441
0.084115 0.491615 0.066441
0.121338 0.482716 0.066441
0.163387 0.474215 0.066649
0.214347 0.467203 0.067352
0.276604 0.459877 0.068368
0.350189 0.450921 0.069500
0.432058 0.441005 0.070725
0.517537 0.431118 0.072049
0.603227 0.421892 0.073480
0.685563 0.414221 0.074994
0.760134 0.408878 0.076585
0.826994 0.405924 0.078260
0.887468 0.404757 0.079969
0.942872 0.404883 0.081753
0.017023 0.580677 0.066441
0.051156 0.572506 0.066441
0.087072 0.565250 0.066623
0.128055 0.560499 0.067337
0.175469 0.556616 0.068332
0.231226 0.551773 0.069463
0.298411 0.545165 0.070692
0.376582 0.536666 0.072008
0.461828 0.527252 0.073440
0.549137 0.517908 0.074960
0.635509 0.509210 0.076543
0.716355 0.502140 0.078184
0.788601 0.497299 0.079925
0.853375 0.494429 0.081736
0.912113 0.492890 0.083579
0.966179 0.492245 0.085467
0.019731 0.652335 0.066597
0.057129 0.648195 0.067300
0.097340 0.645543 0.068317
0.141584 0.642932 0.069419
0.192237 0.639616 0.070642
0.252453 0.634804 0.071964
0.324818 0.627650 0.073386
0.407222 0.618476 0.074898
0.494964 0.608452 0.076477
0.583286 0.598473 0.078129
0.669166 0.589298 0.079859
0.747382 0.581954 0.081650
0.816882 0.576654 0.083523
0.879334 0.572930 0.085441
0.936171 0.570332 0.087390
0.988785 0.568428 0.089358
0.029339 0.726923 0.068262
0.068963 0.724667 0.069380
0.111185 0.722561 0.070618
0.158121 0.719973 0.071917
0.212449 0.716096 0.073326
0.277656 0.710106 0.074855
0.355061 0.701459 0.076439
0.441084 0.690996 0.078080
0.530222 0.679925 0.079797
0.618863 0.669068 0.081612
0.702759 0.659309 0.083453
0.777626 0.651618 0.085351
0.844159 0.645720 0.087309
0.904099 0.641183 0.089270
0.959094 0.637659 0.091308
0.999860 0.634614 0.093319
0.042022 0.796611 0.070562
0.083155 0.794580 0.071869
0.127527 0.792341 0.073286
0.177398 0.789094 0.074802
0.235885 0.784087 0.076364
0.306475 0.776445 0.078027
0.388507 0.766245 0.079759
0.477061 0.754535 0.081554
0.566801 0.742539 0.083402
0.654499 0.730996 0.085283
0.735189 0.720978 0.087243
0.806500 0.713014 0.089197
0.870015 0.706637 0.091234
0.927493 0.701457 0.093247
0.980603 0.697053 0.095322
0.999998 0.694055 0.097332
0.056731 0.860372 0.073253
0.099387 0.858161 0.074698
0.146076 0.855332 0.076339
0.199310 0.851114 0.077962
0.262608 0.844637 0.079700
0.338501 0.835270 0.081477
0.424199 0.823615 0.083335
0.514014 0.810903 0.085229
0.603496 0.798138 0.087182
0.688985 0.786275 0.089135
0.765669 0.776216 0.091158
0.833416 0.768172 0.093176
0.894001 0.761427 0.095228
0.949073 0.755727 0.097273
0.997754 0.750597 0.099354
1.000000 0.750539 0.101393
0.073073 0.918907 0.076223
0.117453 0.916269 0.077947
0.166746 0.912694 0.079659
0.223755 0.907275 0.081396
0.292280 0.899221 0.083270
0.372837 0.888207 0.085151
0.460994 0.875368 0.087098
0.550967 0.861990 0.089089
0.639226 0.848814 0.091089
0.721220 0.836910 0.093090
0.793760 0.827060 0.095166
0.858037 0.818882 0.097234
0.915729 0.811901 0.099271
0.968420 0.801220 0.101304
0.999713 0.789875 0.103363
1.000000 0.787414 0.105356
0.090723 0.973211 0.079583
0.137010 0.970014 0.081341
0.189106 0.965432 0.083186
0.250473 0.958787 0.085084
0.324088 0.949075 0.087032
0.408184 0.935902 0.088986
0.497308 0.915353 0.090999
0.586176 0.894133 0.093018
0.672032 0.873617 0.095067
0.749650 0.855058 0.097115
0.817941 0.838661 0.099188
0.878727 0.824088 0.101232
0.933499 0.810943 0.103257
0.983858 0.798853 0.105282
1.000000 0.788260 0.107283
1.000000 0.787915 0.109243
0.002533 0.070307 0.101422
0.036666 0.062137 0.101422
0.071676 0.053779 0.101422
0.108899 0.044861 0.101422
0.149683 0.035107 0.101422
0.195709 0.024099 0.101422
0.248950 0.011346 0.101422
0.310307 0.000104 0.101422
0.378019 0.000000 0.101422
0.449225 0.000000 0.101422
0.521037 0.000000 0.101422
0.592153 0.000000 0.101422
0.660260 0.000000 0.101422
0.722730 0.000000 0.101422
0.779295 0.000000 0.101422
0.830628 0.000000 0.101422
0.003547 0.106692 0.101422
0.037679 0.098521 0.101422
0.072688 0.090144 0.101422
0.109912 0.081242 0.101422
0.150696 0.071491 0.101422
0.196723 0.060482 0.101422
0.249963 0.047732 0.101422
0.311320 0.033056 0.101422
0.379032 0.016862 0.101422
0.450238 0.002477 0.101422
0.522050 0.000119 0.101422
0.593166 0.000000 0.101422
0.661274 0.000000 0.101422
0.723743 0.000000 0.101422
0.780308 0.000000 0.101422
0.831641 0.000000 0.101422
0.004685 0.146027 0.101422
0.038818 0.137880 0.101422
0.073828 0.129499 0.101422
0.111052 0.120581 0.101422
0.151835 0.110832 0.101422
0.197862 0.099819 0.101422
0.251103 0.087076 0.101422
0.312459 0.072404 0.101422
0.380172 0.056200 0.101422
0.451377 0.039160 0.101422
0.523189 0.021987 0.101422
0.594305 0.004995 0.101422
0.662412 0.000847 0.101422
0.724882 0.000000 0.101422
0.781447 0.000000 0.101422
0.833076 0.000000 0.101474
0.005926 0.189912 0.101422
0.040059 0.181741 0.101422
0.075069 0.173361 0.101422
0.112293 0.164450 0.101422
0.153076 0.154697 0.101422
0.199103 0.143685 0.101422
0.252344 0.130952 0.101422
0.313700 0.116267 0.101422
0.381413 0.100065 0.101422
0.452619 0.083025 0.101422
0.524430 0.065848 0.101422
0.595546 0.048836 0.101422
0.663653 0.032545 0.101422
0.726558 0.017769 0.101485
0.786110 0.005565 0.101960
0.843325 0.003611 0.102989
0.007344 0.240068 0.101422
0.041477 0.231899 0.101422
0.076487 0.223520 0.101422
0.113711 0.214619 0.101422
0.154494 0.204864 0.101422
0.200521 0.193844 0.101422
0.253762 0.181109 0.101422
0.315119 0.166431 0.101422
0.382831 0.150224 0.101422
0.454036 0.133197 0.101422
0.525849 0.116005 0.101422
0.597491 0.099192 0.101483
0.669114 0.084393 0.101948
0.738478 0.072966 0.102959
0.801745 0.064082 0.104119
0.859611 0.057399 0.105403
0.009013 0.298442 0.101422
0.043146 0.290271 0.101422
0.078155 0.281890 0.101422
0.115379 0.272981 0.101422
0.156163 0.263228 0.101422
0.202189 0.252214 0.101422
0.255430 0.239482 0.101422
0.316787 0.224800 0.101422
0.384499 0.208600 0.101422
0.456206 0.191782 0.101478
0.531826 0.176263 0.101927
0.611259 0.163107 0.102915
0.687833 0.151960 0.104094
0.757753 0.143344 0.105359
0.821121 0.137252 0.106729
0.878971 0.133399 0.108260
0.010876 0.364221 0.101422
0.045009 0.356051 0.101422
0.080019 0.347672 0.101422
0.117243 0.338772 0.101422
0.158026 0.329020 0.101422
0.204053 0.318002 0.101422
0.257294 0.305261 0.101422
0.319042 0.290795 0.101469
0.390511 0.276503 0.101911
0.470394 0.263676 0.102898
0.552478 0.251777 0.104051
0.634132 0.240991 0.105311
0.711059 0.232442 0.106685
0.780414 0.226445 0.108174
0.843219 0.222884 0.109780
0.900480 0.221296 0.111453
0.012891 0.434877 0.101422
0.047024 0.426706 0.101422
0.082034 0.418329 0.101422
0.119256 0.409431 0.101422
0.160040 0.399667 0.101422
0.206299 0.388852 0.101460
0.262628 0.378261 0.101894
0.332090 0.368099 0.102856
