example_ofxGpuLutCube/bin/data/ofxGpuLutCube/LUT/A11 (teal pink).cube
LUT_3D_SIZE 6
0.002533 0.072266 0.001617
0.108899 0.046820 0.001617
0.248950 0.013305 0.001617
0.449225 0.000000 0.001617
0.660260 0.000000 0.001617
0.830628 0.000000 0.001617
0.005926 0.191852 0.001617
0.112293 0.166402 0.001617
0.252344 0.132892 0.001617
0.452619 0.084979 0.001617
0.663653 0.034485 0.001617
0.836532 0.003164 0.001987
0.010876 0.366180 0.001617
0.117243 0.340720 0.001617
0.257294 0.307220 0.001617
0.461183 0.261093 0.001982
0.698669 0.226572 0.004894
0.889362 0.212565 0.008690
0.017023 0.581940 0.001617
0.125135 0.558460 0.001944
0.290496 0.541328 0.004762
0.537668 0.513368 0.008557
0.778708 0.491815 0.013003
0.958223 0.486378 0.017991
0.037634 0.793604 0.004651
0.170469 0.785617 0.008398
0.376263 0.763562 0.012854
0.641794 0.728368 0.017825
0.861085 0.703606 0.023098
0.999983 0.690222 0.028568
0.084449 0.970321 0.012680
0.240619 0.956553 0.017653
0.484191 0.919750 0.022908
0.739616 0.858781 0.028377
0.927196 0.813803 0.033870
1.000000 0.789276 0.039160
0.002533 0.070307 0.101422
0.108899 0.044861 0.101422
0.248950 0.011346 0.101422
0.449225 0.000000 0.101422
0.660260 0.000000 0.101422
0.830628 0.000000 0.101422
0.005926 0.189912 0.101422
0.112293 0.164450 0.101422
0.252344 0.130952 0.101422
0.452619 0.083025 0.101422
0.663653 0.032545 0.101422
0.843325 0.003611 0.102989
0.010876 0.364221 0.101422
0.117243 0.338772 0.101422
0.257294 0.305261 0.101422
0.470394 0.263676 0.102898
0.711059 0.232442 0.106685
0.900480 0.221296 0.111453
0.017023 0.579995 0.101422
0.129967 0.561987 0.102799
0.302614 0.547113 0.106552
0.554970 0.520191 0.111326
0.793543 0.500015 0.116843
0.970113 0.495057 0.123002
0.044298 0.798217 0.106417
0.181023 0.790796 0.111116
0.394729 0.767497 0.116622
0.660802 0.732140 0.122807
0.874382 0.708048 0.129361
1.000000 0.695908 0.136138
0.093954 0.974594 0.116418
0.255477 0.959728 0.122559
0.503712 0.913100 0.129113
0.754465 0.853151 0.135904
0.936477 0.809454 0.142757
1.000000 0.787122 0.149377
0.002533 0.067724 0.233545
0.108899 0.042279 0.233545
0.248950 0.008765 0.233545
0.449225 0.000000 0.233545
0.660260 0.000000 0.233545
0.830628 0.000000 0.233545
0.005926 0.187335 0.233545
0.112293 0.161870 0.233545
0.252344 0.128375 0.233545
0.452619 0.080444 0.233545
0.664263 0.030177 0.233658
0.851197 0.004079 0.237773
0.010876 0.361639 0.233545
0.117243 0.336194 0.233545
0.257764 0.302981 0.233638
0.481924 0.266871 0.237607
0.724206 0.238387 0.243865
0.912113 0.230043 0.251487
0.017023 0.577417 0.233545
0.136344 0.566532 0.237415
0.316193 0.552807 0.243628
0.573031 0.526450 0.251227
0.808476 0.507574 0.259986
0.981868 0.502631 0.269534
0.051689 0.802595 0.243380
0.192451 0.795397 0.250968
0.413986 0.770588 0.259663
0.679427 0.735043 0.269218
0.887115 0.711398 0.279358
1.000000 0.700850 0.289683
0.103888 0.978149 0.259322
0.270894 0.961913 0.268887
0.522641 0.905739 0.278973
0.768263 0.846838 0.289317
0.944880 0.804383 0.299554
1.000000 0.783944 0.312230
0.002533 0.064038 0.422595
0.108899 0.038592 0.422595
0.248950 0.005078 0.422595
0.449225 0.000000 0.422595
0.660260 0.000000 0.422595
0.830628 0.000000 0.422595
0.005926 0.183624 0.422595
0.112293 0.158179 0.422595
0.252344 0.124668 0.422595
0.452619 0.076754 0.422595
0.669294 0.028059 0.423949
0.860055 0.004481 0.430512
0.010876 0.357953 0.422595
0.117243 0.332507 0.422595
0.261827 0.301973 0.423777
0.495070 0.269853 0.430277
0.738104 0.244044 0.438547
0.923848 0.238085 0.448218
0.019359 0.576762 0.423610
0.143777 0.570896 0.430023
0.331212 0.557869 0.438254
0.591766 0.531851 0.447909
0.823121 0.513896 0.458568
0.993373 0.508898 0.469862
0.059711 0.806346 0.437942
0.204729 0.798901 0.447550
0.433622 0.772432 0.458217
0.697448 0.736733 0.469473
0.899275 0.713475 0.480950
1.000000 0.704264 0.492304
0.114163 0.980647 0.457808
0.286856 0.958292 0.469029
0.541006 0.897477 0.480520
0.780898 0.839863 0.491911
0.952295 0.798631 0.502826
1.000000 0.779295 0.550351
0.002533 0.060205 0.619116
0.108899 0.034760 0.619116
0.248950 0.002359 0.619116
0.449225 0.000000 0.619116
0.660260 0.000000 0.619116
0.830628 0.000000 0.619116
0.005926 0.179791 0.619116
0.112293 0.154341 0.619116
0.252344 0.120831 0.619116
0.452619 0.072919 0.619116
0.678569 0.027238 0.622267
0.869665 0.005023 0.628649
0.010876 0.354120 0.619116
0.117243 0.328660 0.619116
0.270194 0.303643 0.622074
0.509619 0.273488 0.628411
0.752526 0.250420 0.636152
0.935894 0.246640 0.644847
0.024185 0.579401 0.621899
0.152210 0.575970 0.628186
0.347395 0.563168 0.635874
0.610883 0.537256 0.644557
0.837568 0.520193 0.653885
0.999227 0.514752 0.663403
0.068184 0.810232 0.635574
0.217857 0.802369 0.644248
0.453602 0.774146 0.653565
0.714648 0.738429 0.663109
0.910644 0.715407 0.672640
1.000000 0.707254 0.681818
0.124689 0.983072 0.653211
0.302946 0.950751 0.662778
0.558612 0.889528 0.672299
0.792394 0.833409 0.681520
0.958684 0.793459 0.690073
1.000000 0.775355 0.751457
0.002533 0.057133 0.776234
0.108899 0.031688 0.776234
0.248950 0.000515 0.776234
0.449225 0.000000 0.776234
0.660260 0.000000 0.776234
0.830927 0.000000 0.776294
0.005926 0.176720 0.776234
0.112293 0.151274 0.776234
0.252344 0.117760 0.776234
0.453785 0.070186 0.776403
0.689285 0.027842 0.780210
0.880011 0.005888 0.785454
0.010876 0.351048 0.776234
0.118016 0.326417 0.776438
0.280231 0.307094 0.780084
0.525395 0.278702 0.785296
0.767201 0.258164 0.791425
0.947898 0.256251 0.798236
0.029939 0.583957 0.779937
0.161616 0.582571 0.785101
0.364670 0.569422 0.791229
0.630013 0.543483 0.798008
0.851592 0.527026 0.805210
0.999913 0.521060 0.812535
0.077243 0.815213 0.791024
0.231691 0.806499 0.797758
0.473548 0.776535 0.804955
0.731127 0.740821 0.812292
0.921271 0.717832 0.819539
1.000000 0.710371 0.826470
0.135382 0.986195 0.804661
0.319192 0.944009 0.811994
0.575239 0.882681 0.819296
0.802619 0.828136 0.826245
0.975712 0.786464 0.839752
1.000000 0.772770 0.884636
