example_ofxGpuLutCube/bin/data/ofxGpuLutCube/LUT/A12 (smooth violet fade).cube
LUT_3D_SIZE 6
0.000000 0.000000 0.000000
0.175672 0.000000 0.000000
0.378048 0.000000 0.000000
0.557064 0.000000 0.000000
0.723245 0.000000 0.000000
0.881474 0.000000 0.000000
0.000000 0.199203 0.000000
0.175672 0.199203 0.000000
0.378048 0.199203 0.000000
0.557064 0.199203 0.000000
0.723245 0.199203 0.000000
0.881474 0.199203 0.000000
0.000000 0.371619 0.000000
0.175672 0.371619 0.000000
0.378048 0.371619 0.000000
0.557064 0.371619 0.000000
0.723245 0.371619 0.000000
0.881474 0.371619 0.000000
0.000000 0.526994 0.000000
0.175672 0.526994 0.000000
0.378048 0.526994 0.000000
0.557064 0.526994 0.000000
0.723245 0.526994 0.000000
0.881474 0.526994 0.000000
0.000000 0.672590 0.000000
0.175672 0.672590 0.000000
0.378048 0.672590 0.000000
0.557064 0.672590 0.000000
0.723245 0.672590 0.000000
0.881474 0.672590 0.000000
0.000000 0.810827 0.000000
0.175672 0.810827 0.000000
0.378048 0.810827 0.000000
0.557064 0.810827 0.000000
0.723245 0.810827 0.000000
0.881474 0.810827 0.000000
0.000000 0.000000 0.252957
0.175672 0.000000 0.252957
0.378048 0.000000 0.252957
0.557064 0.000000 0.252957
0.723245 0.000000 0.252957
0.881474 0.000000 0.252957
0.000000 0.199203 0.252957
0.175672 0.199203 0.252957
0.378048 0.199203 0.252957
0.557064 0.199203 0.252957
0.723245 0.199203 0.252957
0.881474 0.199203 0.252957
0.000000 0.371619 0.252957
0.175672 0.371619 0.252957
0.378048 0.371619 0.252957
0.557064 0.371619 0.252957
0.723245 0.371619 0.252957
0.881474 0.371619 0.252957
0.000000 0.526994 0.252957
0.175672 0.526994 0.252957
0.378048 0.526994 0.252957
0.557064 0.526994 0.252957
0.723245 0.526994 0.252957
0.881474 0.526994 0.252957
0.000000 0.672590 0.252957
0.175672 0.672590 0.252957
0.378048 0.672590 0.252957
0.557064 0.672590 0.252957
0.723245 0.672590 0.252957
0.881474 0.672590 0.252957
0.000000 0.810827 0.252957
0.175672 0.810827 0.252957
0.378048 0.810827 0.252957
0.557064 0.810827 0.252957
0.723245 0.810827 0.252957
0.881474 0.810827 0.252957
0.000000 0.000000 0.419422
0.175672 0.000000 0.419422
0.378048 0.000000 0.419422
0.557064 0.000000 0.419422
0.723245 0.000000 0.419422
0.881474 0.000000 0.419422
0.000000 0.199203 0.419422
0.175672 0.199203 0.419422
0.378048 0.199203 0.419422
0.557064 0.199203 0.419422
0.723245 0.199203 0.419422
0.881474 0.199203 0.419422
0.000000 0.371619 0.419422
0.175672 0.371619 0.419422
0.378048 0.371619 0.419422
0.557064 0.371619 0.419422
0.723245 0.371619 0.419422
0.881474 0.371619 0.419422
0.000000 0.526994 0.419422
0.175672 0.526994 0.419422
0.378048 0.526994 0.419422
0.557064 0.526994 0.419422
0.723245 0.526994 0.419422
0.881474 0.526994 0.419422
0.000000 0.672590 0.419422
0.175672 0.672590 0.419422
0.378048 0.672590 0.419422
0.557064 0.672590 0.419422
0.723245 0.672590 0.419422
0.881474 0.672590 0.419422
0.000000 0.810827 0.419422
0.175672 0.810827 0.419422
0.378048 0.810827 0.419422
0.557064 0.810827 0.419422
0.723245 0.810827 0.419422
0.881474 0.810827 0.419422
0.000000 0.000000 0.563533
0.175672 0.000000 0.563533
0.378048 0.000000 0.563533
0.557064 0.000000 0.563533
0.723245 0.000000 0.563533
0.881474 0.000000 0.563533
0.000000 0.199203 0.563533
0.175672 0.199203 0.563533
0.378048 0.199203 0.563533
0.557064 0.199203 0.563533
0.723245 0.199203 0.563533
0.881474 0.199203 0.563533
0.000000 0.371619 0.563533
0.175672 0.371619 0.563533
0.378048 0.371619 0.563533
0.557064 0.371619 0.563533
0.723245 0.371619 0.563533
0.881474 0.371619 0.563533
0.000000 0.526994 0.563533
0.175672 0.526994 0.563533
0.378048 0.526994 0.563533
0.557064 0.526994 0.563533
0.723245 0.526994 0.563533
0.881474 0.526994 0.563533
0.000000 0.672590 0.563533
0.175672 0.672590 0.563533
0.378048 0.672590 0.563533
0.557064 0.672590 0.563533
0.723245 0.672590 0.563533
0.881474 0.672590 0.563533
0.000000 0.810827 0.563533
0.175672 0.810827 0.563533
0.378048 0.810827 0.563533
0.557064 0.810827 0.563533
0.723245 0.810827 0.563533
0.881474 0.810827 0.563533
0.000000 0.000000 0.694754
0.175672 0.000000 0.694754
0.378048 0.000000 0.694754
0.557064 0.000000 0.694754
0.723245 0.000000 0.694754
0.881474 0.000000 0.694754
0.000000 0.199203 0.694754
0.175672 0.199203 0.694754
0.378048 0.199203 0.694754
0.557064 0.199203 0.694754
0.723245 0.199203 0.694754
0.881474 0.199203 0.694754
0.000000 0.371619 0.694754
0.175672 0.371619 0.694754
0.378048 0.371619 0.694754
0.557064 0.371619 0.694754
0.723245 0.371619 0.694754
0.881474 0.371619 0.694754
0.000000 0.526994 0.694754
0.175672 0.526994 0.694754
0.378048 0.526994 0.694754
0.557064 0.526994 0.694754
0.723245 0.526994 0.694754
0.881474 0.526994 0.694754
0.000000 0.672590 0.694754
0.175672 0.672590 0.694754
0.378048 0.672590 0.694754
0.557064 0.672590 0.694754
0.723245 0.672590 0.694754
0.881474 0.672590 0.694754
0.000000 0.810827 0.694754
0.175672 0.810827 0.694754
0.378048 0.810827 0.694754
0.557064 0.810827 0.694754
0.723245 0.810827 0.694754
0.881474 0.810827 0.694754
0.000000 0.000000 0.816763
0.175672 0.000000 0.816763
0.378048 0.000000 0.816763
0.557064 0.000000 0.816763
0.723245 0.000000 0.816763
0.881474 0.000000 0.816763
0.000000 0.199203 0.816763
0.175672 0.199203 0.816763
0.378048 0.199203 0.816763
0.557064 0.199203 0.816763
0.723245 0.199203 0.816763
0.881474 0.199203 0.816763
0.000000 0.371619 0.816763
0.175672 0.371619 0.816763
0.378048 0.371619 0.816763
0.557064 0.371619 0.816763
0.723245 0.371619 0.816763
0.881474 0.371619 0.816763
0.000000 0.526994 0.816763
0.175672 0.526994 0.816763
0.378048 0.526994 0.816763
0.557064 0.526994 0.816763
0.723245 0.526994 0.816763
0.881474 0.526994 0.816763
0.000000 0.672590 0.816763
0.175672 0.672590 0.816763
0.378048 0.672590 0.816763
0.557064 0.672590 0.816763
0.723245 0.672590 0.816763
0.881474 0.672590 0.816763
0.000000 0.810827 0.816763
0.175672 0.810827 0.816763
0.378048 0.810827 0.816763
0.557064 0.810827 0.816763
0.723245 0.810827 0.816763
0.881474 0.810827 0.816763
