example_ofxGpuLutCube/bin/data/ofxGpuLutCube/LUT/A12 (smooth violet fade).cube
LUT_3D_SIZE 16
0.000000 0.000000 0.000000
0.036980 0.000000 0.000000
0.099691 0.000000 0.000000
0.175672 0.000000 0.000000
0.246966 0.000000 0.000000
0.314741 0.000000 0.000000
0.378048 0.000000 0.000000
0.439476 0.000000 0.000000
0.499046 0.000000 0.000000
0.557064 0.000000 0.000000
0.614096 0.000000 0.000000
0.668809 0.000000 0.000000
0.723245 0.000000 0.000000
0.777852 0.000000 0.000000
0.829962 0.000000 0.000000
0.881474 0.000000 0.000000
0.000000 0.065902 0.000000
0.036980 0.065902 0.000000
0.099691 0.065902 0.000000
0.175672 0.065902 0.000000
0.246966 0.065902 0.000000
0.314741 0.065902 0.000000
0.378048 0.065902 0.000000
0.439476 0.065902 0.000000
0.499046 0.065902 0.000000
0.557064 0.065902 0.000000
0.614096 0.065902 0.000000
0.668809 0.065902 0.000000
0.723245 0.065902 0.000000
0.777852 0.065902 0.000000
0.829962 0.065902 0.000000
0.881474 0.065902 0.000000
0.000000 0.134471 0.000000
0.036980 0.134471 0.000000
0.099691 0.134471 0.000000
0.175672 0.134471 0.000000
0.246966 0.134471 0.000000
0.314741 0.134471 0.000000
0.378048 0.134471 0.000000
0.439476 0.134471 0.000000
0.499046 0.134471 0.000000
0.557064 0.134471 0.000000
0.614096 0.134471 0.000000
0.668809 0.134471 0.000000
0.723245 0.134471 0.000000
0.777852 0.134471 0.000000
0.829962 0.134471 0.000000
0.881474 0.134471 0.000000
0.000000 0.199203 0.000000
0.036980 0.199203 0.000000
0.099691 0.199203 0.000000
0.175672 0.199203 0.000000
0.246966 0.199203 0.000000
0.314741 0.199203 0.000000
0.378048 0.199203 0.000000
0.439476 0.199203 0.000000
0.499046 0.199203 0.000000
0.557064 0.199203 0.000000
0.614096 0.199203 0.000000
0.668809 0.199203 0.000000
0.723245 0.199203 0.000000
0.777852 0.199203 0.000000
0.829962 0.199203 0.000000
0.881474 0.199203 0.000000
0.000000 0.259425 0.000000
0.036980 0.259425 0.000000
0.099691 0.259425 0.000000
0.175672 0.259425 0.000000
0.246966 0.259425 0.000000
0.314741 0.259425 0.000000
0.378048 0.259425 0.000000
0.439476 0.259425 0.000000
0.499046 0.259425 0.000000
0.557064 0.259425 0.000000
0.614096 0.259425 0.000000
0.668809 0.259425 0.000000
0.723245 0.259425 0.000000
0.777852 0.259425 0.000000
0.829962 0.259425 0.000000
0.881474 0.259425 0.000000
0.000000 0.316637 0.000000
0.036980 0.316637 0.000000
0.099691 0.316637 0.000000
0.175672 0.316637 0.000000
0.246966 0.316637 0.000000
0.314741 0.316637 0.000000
0.378048 0.316637 0.000000
0.439476 0.316637 0.000000
0.499046 0.316637 0.000000
0.557064 0.316637 0.000000
0.614096 0.316637 0.000000
0.668809 0.316637 0.000000
0.723245 0.316637 0.000000
0.777852 0.316637 0.000000
0.829962 0.316637 0.000000
0.881474 0.316637 0.000000
0.000000 0.371619 0.000000
0.036980 0.371619 0.000000
0.099691 0.371619 0.000000
0.175672 0.371619 0.000000
0.246966 0.371619 0.000000
0.314741 0.371619 0.000000
0.378048 0.371619 0.000000
0.439476 0.371619 0.000000
0.499046 0.371619 0.000000
0.557064 0.371619 0.000000
0.614096 0.371619 0.000000
0.668809 0.371619 0.000000
0.723245 0.371619 0.000000
0.777852 0.371619 0.000000
0.829962 0.371619 0.000000
0.881474 0.371619 0.000000
0.000000 0.424753 0.000000
0.036980 0.424753 0.000000
0.099691 0.424753 0.000000
0.175672 0.424753 0.000000
0.246966 0.424753 0.000000
0.314741 0.424753 0.000000
0.378048 0.424753 0.000000
0.439476 0.424753 0.000000
0.499046 0.424753 0.000000
0.557064 0.424753 0.000000
0.614096 0.424753 0.000000
0.668809 0.424753 0.000000
0.723245 0.424753 0.000000
0.777852 0.424753 0.000000
0.829962 0.424753 0.000000
0.881474 0.424753 0.000000
0.000000 0.476514 0.000000
0.036980 0.476514 0.000000
0.099691 0.476514 0.000000
0.175672 0.476514 0.000000
0.246966 0.476514 0.000000
0.314741 0.476514 0.000000
0.378048 0.476514 0.000000
0.439476 0.476514 0.000000
0.499046 0.476514 0.000000
0.557064 0.476514 0.000000
0.614096 0.476514 0.000000
0.668809 0.476514 0.000000
0.723245 0.476514 0.000000
0.777852 0.476514 0.000000
0.829962 0.476514 0.000000
0.881474 0.476514 0.000000
0.000000 0.526994 0.000000
0.036980 0.526994 0.000000
0.099691 0.526994 0.000000
0.175672 0.526994 0.000000
0.246966 0.526994 0.000000
0.314741 0.526994 0.000000
0.378048 0.526994 0.000000
0.439476 0.526994 0.000000
0.499046 0.526994 0.000000
0.557064 0.526994 0.000000
0.614096 0.526994 0.000000
0.668809 0.526994 0.000000
0.723245 0.526994 0.000000
0.777852 0.526994 0.000000
0.829962 0.526994 0.000000
0.881474 0.526994 0.000000
0.000000 0.576421 0.000000
0.036980 0.576421 0.000000
0.099691 0.576421 0.000000
0.175672 0.576421 0.000000
0.246966 0.576421 0.000000
0.314741 0.576421 0.000000
0.378048 0.576421 0.000000
0.439476 0.576421 0.000000
0.499046 0.576421 0.000000
0.557064 0.576421 0.000000
0.614096 0.576421 0.000000
0.668809 0.576421 0.000000
0.723245 0.576421 0.000000
0.777852 0.576421 0.000000
0.829962 0.576421 0.000000
0.881474 0.576421 0.000000
0.000000 0.624947 0.000000
0.036980 0.624947 0.000000
0.099691 0.624947 0.000000
0.175672 0.624947 0.000000
0.246966 0.624947 0.000000
0.314741 0.624947 0.000000
0.378048 0.624947 0.000000
0.439476 0.624947 0.000000
0.499046 0.624947 0.000000
0.557064 0.624947 0.000000
0.614096 0.624947 0.000000
0.668809 0.624947 0.000000
0.723245 0.624947 0.000000
0.777852 0.624947 0.000000
0.829962 0.624947 0.000000
0.881474 0.624947 0.000000
0.000000 0.672590 0.000000
0.036980 0.672590 0.000000
0.099691 0.672590 0.000000
0.175672 0.672590 0.000000
0.246966 0.672590 0.000000
0.314741 0.672590 0.000000
0.378048 0.672590 0.000000
0.439476 0.672590 0.000000
0.499046 0.672590 0.000000
0.557064 0.672590 0.000000
0.614096 0.672590 0.000000
0.668809 0.672590 0.000000
0.723245 0.672590 0.000000
0.777852 0.672590 0.000000
0.829962 0.672590 0.000000
0.881474 0.672590 0.000000
0.000000 0.719444 0.000000
0.036980 0.719444 0.000000
0.099691 0.719444 0.000000
0.175672 0.719444 0.000000
0.246966 0.719444 0.000000
0.314741 0.719444 0.000000
0.378048 0.719444 0.000000
0.439476 0.719444 0.000000
0.499046 0.719444 0.000000
0.557064 0.719444 0.000000
0.614096 0.719444 0.000000
0.668809 0.719444 0.000000
0.723245 0.719444 0.000000
0.777852 0.719444 0.000000
0.829962 0.719444 0.000000
0.881474 0.719444 0.000000
0.000000 0.765658 0.000000
0.036980 0.765658 0.000000
0.099691 0.765658 0.000000
0.175672 0.765658 0.000000
0.246966 0.765658 0.000000
0.314741 0.765658 0.000000
0.378048 0.765658 0.000000
0.439476 0.765658 0.000000
0.499046 0.765658 0.000000
0.557064 0.765658 0.000000
0.614096 0.765658 0.000000
0.668809 0.765658 0.000000
0.723245 0.765658 0.000000
0.777852 0.765658 0.000000
0.829962 0.765658 0.000000
0.881474 0.765658 0.000000
0.000000 0.810827 0.000000
0.036980 0.810827 0.000000
0.099691 0.810827 0.000000
0.175672 0.810827 0.000000
0.246966 0.810827 0.000000
0.314741 0.810827 0.000000
0.378048 0.810827 0.000000
0.439476 0.810827 0.000000
0.499046 0.810827 0.000000
0.557064 0.810827 0.000000
0.614096 0.810827 0.000000
0.668809 0.810827 0.000000
0.723245 0.810827 0.000000
0.777852 0.810827 0.000000
0.829962 0.810827 0.000000
0.881474 0.810827 0.000000
0.000000 0.000000 0.112987
0.036980 0.000000 0.112987
0.099691 0.000000 0.112987
0.175672 0.000000 0.112987
0.246966 0.000000 0.112987
0.314741 0.000000 0.112987
0.378048 0.000000 0.112987
0.439476 0.000000 0.112987
0.499046 0.000000 0.112987
0.557064 0.000000 0.112987
0.614096 0.000000 0.112987
0.668809 0.000000 0.112987
0.723245 0.000000 0.112987
0.777852 0.000000 0.112987
0.829962 0.000000 0.112987
0.881474 0.000000 0.112987
0.000000 0.065902 0.112987
0.036980 0.065902 0.112987
0.099691 0.065902 0.112987
0.175672 0.065902 0.112987
0.246966 0.065902 0.112987
0.314741 0.065902 0.112987
0.378048 0.065902 0.112987
0.439476 0.065902 0.112987
0.499046 0.065902 0.112987
0.557064 0.065902 0.112987
0.614096 0.065902 0.112987
0.668809 0.065902 0.112987
0.723245 0.065902 0.112987
0.777852 0.065902 0.112987
0.829962 0.065902 0.112987
0.881474 0.065902 0.112987
0.000000 0.134471 0.112987
0.036980 0.134471 0.112987
0.099691 0.134471 0.112987
0.175672 0.134471 0.112987
0.246966 0.134471 0.112987
0.314741 0.134471 0.112987
0.378048 0.134471 0.112987
0.439476 0.134471 0.112987
0.499046 0.134471 0.112987
0.557064 0.134471 0.112987
0.614096 0.134471 0.112987
0.668809 0.134471 0.112987
0.723245 0.134471 0.112987
0.777852 0.134471 0.112987
0.829962 0.134471 0.112987
0.881474 0.134471 0.112987
0.000000 0.199203 0.112987
0.036980 0.199203 0.112987
0.099691 0.199203 0.112987
0.175672 0.199203 0.112987
0.246966 0.199203 0.112987
0.314741 0.199203 0.112987
0.378048 0.199203 0.112987
0.439476 0.199203 0.112987
0.499046 0.199203 0.112987
0.557064 0.199203 0.112987
0.614096 0.199203 0.112987
0.668809 0.199203 0.112987
0.723245 0.199203 0.112987
0.777852 0.199203 0.112987
0.829962 0.199203 0.112987
0.881474 0.199203 0.112987
0.000000 0.259425 0.112987
0.036980 0.259425 0.112987
0.099691 0.259425 0.112987
0.175672 0.259425 0.112987
0.246966 0.259425 0.112987
0.314741 0.259425 0.112987
0.378048 0.259425 0.112987
0.439476 0.259425 0.112987
0.499046 0.259425 0.112987
0.557064 0.259425 0.112987
0.614096 0.259425 0.112987
0.668809 0.259425 0.112987
0.723245 0.259425 0.112987
0.777852 0.259425 0.112987
0.829962 0.259425 0.112987
0.881474 0.259425 0.112987
0.000000 0.316637 0.112987
0.036980 0.316637 0.112987
0.099691 0.316637 0.112987
0.175672 0.316637 0.112987
0.246966 0.316637 0.112987
0.314741 0.316637 0.112987
0.378048 0.316637 0.112987
0.439476 0.316637 0.112987
0.499046 0.316637 0.112987
0.557064 0.316637 0.112987
0.614096 0.316637 0.112987
0.668809 0.316637 0.112987
0.723245 0.316637 0.112987
0.777852 0.316637 0.112987
0.829962 0.316637 0.112987
0.881474 0.316637 0.112987
0.000000 0.371619 0.112987
0.036980 0.371619 0.112987
0.099691 0.371619 0.112987
0.175672 0.371619 0.112987
0.246966 0.371619 0.112987
0.314741 0.371619 0.112987
0.378048 0.371619 0.112987
0.439476 0.371619 0.112987
0.499046 0.371619 0.112987
0.557064 0.371619 0.112987
0.614096 0.371619 0.112987
0.668809 0.371619 0.112987
0.723245 0.371619 0.112987
0.777852 0.371619 0.112987
0.829962 0.371619 0.112987
0.881474 0.371619 0.112987
0.000000 0.424753 0.112987
0.036980 0.424753 0.112987
0.099691 0.424753 0.112987
0.175672 0.424753 0.112987
0.246966 0.424753 0.112987
0.314741 0.424753 0.112987
0.378048 0.424753 0.112987
0.439476 0.424753 0.112987
0.499046 0.424753 0.112987
0.557064 0.424753 0.112987
0.614096 0.424753 0.112987
0.668809 0.424753 0.112987
0.723245 0.424753 0.112987
0.777852 0.424753 0.112987
0.829962 0.424753 0.112987
0.881474 0.424753 0.112987
0.000000 0.476514 0.112987
0.036980 0.476514 0.112987
0.099691 0.476514 0.112987
0.175672 0.476514 0.112987
0.246966 0.476514 0.112987
0.314741 0.476514 0.112987
0.378048 0.476514 0.112987
0.439476 0.476514 0.112987
0.499046 0.476514 0.112987
0.557064 0.476514 0.112987
0.614096 0.476514 0.112987
0.668809 0.476514 0.112987
0.723245 0.476514 0.112987
0.777852 0.476514 0.112987
0.829962 0.476514 0.112987
0.881474 0.476514 0.112987
0.000000 0.526994 0.112987
0.036980 0.526994 0.112987
0.099691 0.526994 0.112987
0.175672 0.526994 0.112987
0.246966 0.526994 0.112987
0.314741 0.526994 0.112987
0.378048 0.526994 0.112987
0.439476 0.526994 0.112987
0.499046 0.526994 0.112987
0.557064 0.526994 0.112987
0.614096 0.526994 0.112987
0.668809 0.526994 0.112987
0.723245 0.526994 0.112987
0.777852 0.526994 0.112987
0.829962 0.526994 0.112987
0.881474 0.526994 0.112987
0.000000 0.576421 0.112987
0.036980 0.576421 0.112987
0.099691 0.576421 0.112987
0.175672 0.576421 0.112987
0.246966 0.576421 0.112987
0.314741 0.576421 0.112987
0.378048 0.576421 0.112987
0.439476 0.576421 0.112987
0.499046 0.576421 0.112987
0.557064 0.576421 0.112987
0.614096 0.576421 0.112987
0.668809 0.576421 0.112987
0.723245 0.576421 0.112987
0.777852 0.576421 0.112987
0.829962 0.576421 0.112987
0.881474 0.576421 0.112987
0.000000 0.624947 0.112987
0.036980 0.624947 0.112987
0.099691 0.624947 0.112987
0.175672 0.624947 0.112987
0.246966 0.624947 0.112987
0.314741 0.624947 0.112987
0.378048 0.624947 0.112987
0.439476 0.624947 0.112987
0.499046 0.624947 0.112987
0.557064 0.624947 0.112987
0.614096 0.624947 0.112987
0.668809 0.624947 0.112987
0.723245 0.624947 0.112987
0.777852 0.624947 0.112987
0.829962 0.624947 0.112987
0.881474 0.624947 0.112987
0.000000 0.672590 0.112987
0.036980 0.672590 0.112987
0.099691 0.672590 0.112987
0.175672 0.672590 0.112987
0.246966 0.672590 0.112987
0.314741 0.672590 0.112987
0.378048 0.672590 0.112987
0.439476 0.672590 0.112987
0.499046 0.672590 0.112987
0.557064 0.672590 0.112987
0.614096 0.672590 0.112987
0.668809 0.672590 0.112987
0.723245 0.672590 0.112987
0.777852 0.672590 0.112987
0.829962 0.672590 0.112987
0.881474 0.672590 0.112987
0.000000 0.719444 0.112987
0.036980 0.719444 0.112987
0.099691 0.719444 0.112987
0.175672 0.719444 0.112987
0.246966 0.719444 0.112987
0.314741 0.719444 0.112987
0.378048 0.719444 0.112987
0.439476 0.719444 0.112987
0.499046 0.719444 0.112987
0.557064 0.719444 0.112987
0.614096 0.719444 0.112987
0.668809 0.719444 0.112987
0.723245 0.719444 0.112987
0.777852 0.719444 0.112987
0.829962 0.719444 0.112987
0.881474 0.719444 0.112987
0.000000 0.765658 0.112987
0.036980 0.765658 0.112987
0.099691 0.765658 0.112987
0.175672 0.765658 0.112987
0.246966 0.765658 0.112987
0.314741 0.765658 0.112987
0.378048 0.765658 0.112987
0.439476 0.765658 0.112987
0.499046 0.765658 0.112987
0.557064 0.765658 0.112987
0.614096 0.765658 0.112987
0.668809 0.765658 0.112987
0.723245 0.765658 0.112987
0.777852 0.765658 0.112987
0.829962 0.765658 0.112987
0.881474 0.765658 0.112987
0.000000 0.810827 0.112987
0.036980 0.810827 0.112987
0.099691 0.810827 0.112987
0.175672 0.810827 0.112987
0.246966 0.810827 0.112987
0.314741 0.810827 0.112987
0.378048 0.810827 0.112987
0.439476 0.810827 0.112987
0.499046 0.810827 0.112987
0.557064 0.810827 0.112987
0.614096 0.810827 0.112987
0.668809 0.810827 0.112987
0.723245 0.810827 0.112987
0.777852 0.810827 0.112987
0.829962 0.810827 0.112987
0.881474 0.810827 0.112987
0.000000 0.000000 0.187993
0.036980 0.000000 0.187993
0.099691 0.000000 0.187993
0.175672 0.000000 0.187993
0.246966 0.000000 0.187993
0.314741 0.000000 0.187993
0.378048 0.000000 0.187993
0.439476 0.000000 0.187993
0.499046 0.000000 0.187993
0.557064 0.000000 0.187993
0.614096 0.000000 0.187993
0.668809 0.000000 0.187993
0.723245 0.000000 0.187993
0.777852 0.000000 0.187993
0.829962 0.000000 0.187993
0.881474 0.000000 0.187993
0.000000 0.065902 0.187993
0.036980 0.065902 0.187993
0.099691 0.065902 0.187993
0.175672 0.065902 0.187993
0.246966 0.065902 0.187993
0.314741 0.065902 0.187993
0.378048 0.065902 0.187993
0.439476 0.065902 0.187993
0.499046 0.065902 0.187993
0.557064 0.065902 0.187993
0.614096 0.065902 0.187993
0.668809 0.065902 0.187993
0.723245 0.065902 0.187993
0.777852 0.065902 0.187993
0.829962 0.065902 0.187993
0.881474 0.065902 0.187993
0.000000 0.134471 0.187993
0.036980 0.134471 0.187993
0.099691 0.134471 0.187993
0.175672 0.134471 0.187993
0.246966 0.134471 0.187993
0.314741 0.134471 0.187993
0.378048 0.134471 0.187993
0.439476 0.134471 0.187993
0.499046 0.134471 0.187993
0.557064 0.134471 0.187993
0.614096 0.134471 0.187993
0.668809 0.134471 0.187993
0.723245 0.134471 0.187993
0.777852 0.134471 0.187993
0.829962 0.134471 0.187993
0.881474 0.134471 0.187993
0.000000 0.199203 0.187993
0.036980 0.199203 0.187993
0.099691 0.199203 0.187993
0.175672 0.199203 0.187993
0.246966 0.199203 0.187993
0.314741 0.199203 0.187993
0.378048 0.199203 0.187993
0.439476 0.199203 0.187993
0.499046 0.199203 0.187993
0.557064 0.199203 0.187993
0.614096 0.199203 0.187993
0.668809 0.199203 0.187993
0.723245 0.199203 0.187993
0.777852 0.199203 0.187993
0.829962 0.199203 0.187993
0.881474 0.199203 0.187993
0.000000 0.259425 0.187993
0.036980 0.259425 0.187993
0.099691 0.259425 0.187993
0.175672 0.259425 0.187993
0.246966 0.259425 0.187993
0.314741 0.259425 0.187993
0.378048 0.259425 0.187993
0.439476 0.259425 0.187993
0.499046 0.259425 0.187993
0.557064 0.259425 0.187993
0.614096 0.259425 0.187993
0.668809 0.259425 0.187993
0.723245 0.259425 0.187993
0.777852 0.259425 0.187993
0.829962 0.259425 0.187993
0.881474 0.259425 0.187993
0.000000 0.316637 0.187993
0.036980 0.316637 0.187993
0.099691 0.316637 0.187993
0.175672 0.316637 0.187993
0.246966 0.316637 0.187993
0.314741 0.316637 0.187993
0.378048 0.316637 0.187993
0.439476 0.316637 0.187993
0.499046 0.316637 0.187993
0.557064 0.316637 0.187993
0.614096 0.316637 0.187993
0.668809 0.316637 0.187993
0.723245 0.316637 0.187993
0.777852 0.316637 0.187993
0.829962 0.316637 0.187993
0.881474 0.316637 0.187993
0.000000 0.371619 0.187993
0.036980 0.371619 0.187993
0.099691 0.371619 0.187993
0.175672 0.371619 0.187993
0.246966 0.371619 0.187993
0.314741 0.371619 0.187993
0.378048 0.371619 0.187993
0.439476 0.371619 0.187993
0.499046 0.371619 0.187993
0.557064 0.371619 0.187993
0.614096 0.371619 0.187993
0.668809 0.371619 0.187993
0.723245 0.371619 0.187993
0.777852 0.371619 0.187993
0.829962 0.371619 0.187993
0.881474 0.371619 0.187993
0.000000 0.424753 0.187993
0.036980 0.424753 0.187993
0.099691 0.424753 0.187993
0.175672 0.424753 0.187993
0.246966 0.424753 0.187993
0.314741 0.424753 0.187993
0.378048 0.424753 0.187993
0.439476 0.424753 0.187993
0.499046 0.424753 0.187993
0.557064 0.424753 0.187993
0.614096 0.424753 0.187993
0.668809 0.424753 0.187993
0.723245 0.424753 0.187993
0.777852 0.424753 0.187993
0.829962 0.424753 0.187993
0.881474 0.424753 0.187993
0.000000 0.476514 0.187993
0.036980 0.476514 0.187993
0.099691 0.476514 0.187993
0.175672 0.476514 0.187993
0.246966 0.476514 0.187993
0.314741 0.476514 0.187993
0.378048 0.476514 0.187993
0.439476 0.476514 0.187993
0.499046 0.476514 0.187993
0.557064 0.476514 0.187993
0.614096 0.476514 0.187993
0.668809 0.476514 0.187993
0.723245 0.476514 0.187993
0.777852 0.476514 0.187993
0.829962 0.476514 0.187993
0.881474 0.476514 0.187993
0.000000 0.526994 0.187993
0.036980 0.526994 0.187993
0.099691 0.526994 0.187993
0.175672 0.526994 0.187993
0.246966 0.526994 0.187993
0.314741 0.526994 0.187993
0.378048 0.526994 0.187993
0.439476 0.526994 0.187993
0.499046 0.526994 0.187993
0.557064 0.526994 0.187993
0.614096 0.526994 0.187993
0.668809 0.526994 0.187993
0.723245 0.526994 0.187993
0.777852 0.526994 0.187993
0.829962 0.526994 0.187993
0.881474 0.526994 0.187993
0.000000 0.576421 0.187993
0.036980 0.576421 0.187993
0.099691 0.576421 0.187993
0.175672 0.576421 0.187993
0.246966 0.576421 0.187993
0.314741 0.576421 0.187993
0.378048 0.576421 0.187993
0.439476 0.576421 0.187993
0.499046 0.576421 0.187993
0.557064 0.576421 0.187993
0.614096 0.576421 0.187993
0.668809 0.576421 0.187993
0.723245 0.576421 0.187993
0.777852 0.576421 0.187993
0.829962 0.576421 0.187993
0.881474 0.576421 0.187993
0.000000 0.624947 0.187993
0.036980 0.624947 0.187993
0.099691 0.624947 0.187993
0.175672 0.624947 0.187993
0.246966 0.624947 0.187993
0.314741 0.624947 0.187993
0.378048 0.624947 0.187993
0.439476 0.624947 0.187993
0.499046 0.624947 0.187993
0.557064 0.624947 0.187993
0.614096 0.624947 0.187993
0.668809 0.624947 0.187993
0.723245 0.624947 0.187993
0.777852 0.624947 0.187993
0.829962 0.624947 0.187993
0.881474 0.624947 0.187993
0.000000 0.672590 0.187993
0.036980 0.672590 0.187993
0.099691 0.672590 0.187993
0.175672 0.672590 0.187993
0.246966 0.672590 0.187993
0.314741 0.672590 0.187993
0.378048 0.672590 0.187993
0.439476 0.672590 0.187993
0.499046 0.672590 0.187993
0.557064 0.672590 0.187993
0.614096 0.672590 0.187993
0.668809 0.672590 0.187993
0.723245 0.672590 0.187993
0.777852 0.672590 0.187993
0.829962 0.672590 0.187993
0.881474 0.672590 0.187993
0.000000 0.719444 0.187993
0.036980 0.719444 0.187993
0.099691 0.719444 0.187993
0.175672 0.719444 0.187993
0.246966 0.719444 0.187993
0.314741 0.719444 0.187993
0.378048 0.719444 0.187993
0.439476 0.719444 0.187993
0.499046 0.719444 0.187993
0.557064 0.719444 0.187993
0.614096 0.719444 0.187993
0.668809 0.719444 0.187993
0.723245 0.719444 0.187993
0.777852 0.719444 0.187993
0.829962 0.719444 0.187993
0.881474 0.719444 0.187993
0.000000 0.765658 0.187993
0.036980 0.765658 0.187993
0.099691 0.765658 0.187993
0.175672 0.765658 0.187993
0.246966 0.765658 0.187993
0.314741 0.765658 0.187993
0.378048 0.765658 0.187993
0.439476 0.765658 0.187993
0.499046 0.765658 0.187993
0.557064 0.765658 0.187993
0.614096 0.765658 0.187993
0.668809 0.765658 0.187993
0.723245 0.765658 0.187993
0.777852 0.765658 0.187993
0.829962 0.765658 0.187993
0.881474 0.765658 0.187993
0.000000 0.810827 0.187993
0.036980 0.810827 0.187993
0.099691 0.810827 0.187993
0.175672 0.810827 0.187993
0.246966 0.810827 0.187993
0.314741 0.810827 0.187993
0.378048 0.810827 0.187993
0.439476 0.810827 0.187993
0.499046 0.810827 0.187993
0.557064 0.810827 0.187993
0.614096 0.810827 0.187993
0.668809 0.810827 0.187993
0.723245 0.810827 0.187993
0.777852 0.810827 0.187993
0.829962 0.810827 0.187993
0.881474 0.810827 0.187993
0.000000 0.000000 0.252957
0.036980 0.000000 0.252957
0.099691 0.000000 0.252957
0.175672 0.000000 0.252957
0.246966 0.000000 0.252957
0.314741 0.000000 0.252957
0.378048 0.000000 0.252957
0.439476 0.000000 0.252957
0.499046 0.000000 0.252957
0.557064 0.000000 0.252957
0.614096 0.000000 0.252957
0.668809 0.000000 0.252957
0.723245 0.000000 0.252957
0.777852 0.000000 0.252957
0.829962 0.000000 0.252957
0.881474 0.000000 0.252957
0.000000 0.065902 0.252957
0.036980 0.065902 0.252957
0.099691 0.065902 0.252957
0.175672 0.065902 0.252957
0.246966 0.065902 0.252957
0.314741 0.065902 0.252957
0.378048 0.065902 0.252957
0.439476 0.065902 0.252957
0.499046 0.065902 0.252957
0.557064 0.065902 0.252957
0.614096 0.065902 0.252957
0.668809 0.065902 0.252957
0.723245 0.065902 0.252957
0.777852 0.065902 0.252957
0.829962 0.065902 0.252957
0.881474 0.065902 0.252957
0.000000 0.134471 0.252957
0.036980 0.134471 0.252957
0.099691 0.134471 0.252957
0.175672 0.134471 0.252957
0.246966 0.134471 0.252957
0.314741 0.134471 0.252957
0.378048 0.134471 0.252957
0.439476 0.134471 0.252957
0.499046 0.134471 0.252957
0.557064 0.134471 0.252957
0.614096 0.134471 0.252957
0.668809 0.134471 0.252957
0.723245 0.134471 0.252957
0.777852 0.134471 0.252957
0.829962 0.134471 0.252957
0.881474 0.134471 0.252957
0.000000 0.199203 0.252957
0.036980 0.199203 0.252957
0.099691 0.199203 0.252957
0.175672 0.199203 0.252957
0.246966 0.199203 0.252957
0.314741 0.199203 0.252957
0.378048 0.199203 0.252957
0.439476 0.199203 0.252957
0.499046 0.199203 0.252957
0.557064 0.199203 0.252957
0.614096 0.199203 0.252957
0.668809 0.199203 0.252957
0.723245 0.199203 0.252957
0.777852 0.199203 0.252957
0.829962 0.199203 0.252957
0.881474 0.199203 0.252957
0.000000 0.259425 0.252957
0.036980 0.259425 0.252957
0.099691 0.259425 0.252957
0.175672 0.259425 0.252957
0.246966 0.259425 0.252957
0.314741 0.259425 0.252957
0.378048 0.259425 0.252957
0.439476 0.259425 0.252957
0.499046 0.259425 0.252957
0.557064 0.259425 0.252957
0.614096 0.259425 0.252957
0.668809 0.259425 0.252957
0.723245 0.259425 0.252957
0.777852 0.259425 0.252957
0.829962 0.259425 0.252957
0.881474 0.259425 0.252957
0.000000 0.316637 0.252957
0.036980 0.316637 0.252957
0.099691 0.316637 0.252957
0.175672 0.316637 0.252957
0.246966 0.316637 0.252957
0.314741 0.316637 0.252957
0.378048 0.316637 0.252957
0.439476 0.316637 0.252957
0.499046 0.316637 0.252957
0.557064 0.316637 0.252957
0.614096 0.316637 0.252957
0.668809 0.316637 0.252957
0.723245 0.316637 0.252957
0.777852 0.316637 0.252957
0.829962 0.316637 0.252957
0.881474 0.316637 0.252957
0.000000 0.371619 0.252957
0.036980 0.371619 0.252957
0.099691 0.371619 0.252957
0.175672 0.371619 0.252957
0.246966 0.371619 0.252957
0.314741 0.371619 0.252957
0.378048 0.371619 0.252957
0.439476 0.371619 0.252957
0.499046 0.371619 0.252957
0.557064 0.371619 0.252957
0.614096 0.371619 0.252957
0.668809 0.371619 0.252957
0.723245 0.371619 0.252957
0.777852 0.371619 0.252957
0.829962 0.371619 0.252957
0.881474 0.371619 0.252957
0.000000 0.424753 0.252957
0.036980 0.424753 0.252957
0.099691 0.424753 0.252957
0.175672 0.424753 0.252957
0.246966 0.424753 0.252957
0.314741 0.424753 0.252957
0.378048 0.424753 0.252957
0.439476 0.424753 0.252957
