example_ofxGpuLutCube/bin/data/ofxGpuLutCube/LUT/A13 (warm greenish fade).cube
LUT_3D_SIZE 16
0.000000 0.000000 0.000000
0.058560 0.000000 0.000000
0.144099 0.000000 0.000000
0.238463 0.000000 0.000000
0.326478 0.000000 0.000000
0.411197 0.000000 0.000000
0.491033 0.000000 0.000000
0.568913 0.000000 0.000000
0.644810 0.000000 0.000000
0.719081 0.000000 0.000000
0.792349 0.000000 0.000000
0.862875 0.000000 0.000000
0.932061 0.000000 0.000000
0.977669 0.000000 0.000000
0.996555 0.000000 0.000000
1.000000 0.000000 0.000000
0.000000 0.016792 0.000000
0.058560 0.016792 0.000000
0.144099 0.016792 0.000000
0.238463 0.016792 0.000000
0.326478 0.016792 0.000000
0.411197 0.016792 0.000000
0.491033 0.016792 0.000000
0.568913 0.016792 0.000000
0.644810 0.016792 0.000000
0.719081 0.016792 0.000000
0.792349 0.016792 0.000000
0.862875 0.016792 0.000000
0.932061 0.016792 0.000000
0.977669 0.016792 0.000000
0.996555 0.016792 0.000000
1.000000 0.016792 0.000000
0.000000 0.058971 0.000000
0.058560 0.058971 0.000000
0.144099 0.058971 0.000000
0.238463 0.058971 0.000000
0.326478 0.058971 0.000000
0.411197 0.058971 0.000000
0.491033 0.058971 0.000000
0.568913 0.058971 0.000000
0.644810 0.058971 0.000000
0.719081 0.058971 0.000000
0.792349 0.058971 0.000000
0.862875 0.058971 0.000000
0.932061 0.058971 0.000000
0.977669 0.058971 0.000000
0.996555 0.058971 0.000000
1.000000 0.058971 0.000000
0.000000 0.117549 0.000000
0.058560 0.117549 0.000000
0.144099 0.117549 0.000000
0.238463 0.117549 0.000000
0.326478 0.117549 0.000000
0.411197 0.117549 0.000000
0.491033 0.117549 0.000000
0.568913 0.117549 0.000000
0.644810 0.117549 0.000000
0.719081 0.117549 0.000000
0.792349 0.117549 0.000000
0.862875 0.117549 0.000000
0.932061 0.117549 0.000000
0.977669 0.117549 0.000000
0.996555 0.117549 0.000000
1.000000 0.117549 0.000000
0.000000 0.183241 0.000000
0.058560 0.183241 0.000000
0.144099 0.183241 0.000000
0.238463 0.183241 0.000000
0.326478 0.183241 0.000000
0.411197 0.183241 0.000000
0.491033 0.183241 0.000000
0.568913 0.183241 0.000000
0.644810 0.183241 0.000000
0.719081 0.183241 0.000000
0.792349 0.183241 0.000000
0.862875 0.183241 0.000000
0.932061 0.183241 0.000000
0.977669 0.183241 0.000000
0.996555 0.183241 0.000000
1.000000 0.183241 0.000000
0.000000 0.254390 0.000000
0.058560 0.254390 0.000000
0.144099 0.254390 0.000000
0.238463 0.254390 0.000000
0.326478 0.254390 0.000000
0.411197 0.254390 0.000000
0.491033 0.254390 0.000000
0.568913 0.254390 0.000000
0.644810 0.254390 0.000000
0.719081 0.254390 0.000000
0.792349 0.254390 0.000000
0.862875 0.254390 0.000000
0.932061 0.254390 0.000000
0.977669 0.254390 0.000000
0.996555 0.254390 0.000000
1.000000 0.254390 0.000000
0.000000 0.330044 0.000000
0.058560 0.330044 0.000000
0.144099 0.330044 0.000000
0.238463 0.330044 0.000000
0.326478 0.330044 0.000000
0.411197 0.330044 0.000000
0.491033 0.330044 0.000000
0.568913 0.330044 0.000000
0.644810 0.330044 0.000000
0.719081 0.330044 0.000000
0.792349 0.330044 0.000000
0.862875 0.330044 0.000000
0.932061 0.330044 0.000000
0.977669 0.330044 0.000000
0.996555 0.330044 0.000000
1.000000 0.330044 0.000000
0.000000 0.409487 0.000000
0.058560 0.409487 0.000000
0.144099 0.409487 0.000000
0.238463 0.409487 0.000000
0.326478 0.409487 0.000000
0.411197 0.409487 0.000000
0.491033 0.409487 0.000000
0.568913 0.409487 0.000000
0.644810 0.409487 0.000000
0.719081 0.409487 0.000000
0.792349 0.409487 0.000000
0.862875 0.409487 0.000000
0.932061 0.409487 0.000000
0.977669 0.409487 0.000000
0.996555 0.409487 0.000000
1.000000 0.409487 0.000000
0.000000 0.492348 0.000000
0.058560 0.492348 0.000000
0.144099 0.492348 0.000000
0.238463 0.492348 0.000000
0.326478 0.492348 0.000000
0.411197 0.492348 0.000000
0.491033 0.492348 0.000000
0.568913 0.492348 0.000000
0.644810 0.492348 0.000000
0.719081 0.492348 0.000000
0.792349 0.492348 0.000000
0.862875 0.492348 0.000000
0.932061 0.492348 0.000000
0.977669 0.492348 0.000000
0.996555 0.492348 0.000000
1.000000 0.492348 0.000000
0.000000 0.578293 0.000000
0.058560 0.578293 0.000000
0.144099 0.578293 0.000000
0.238463 0.578293 0.000000
0.326478 0.578293 0.000000
0.411197 0.578293 0.000000
0.491033 0.578293 0.000000
0.568913 0.578293 0.000000
0.644810 0.578293 0.000000
0.719081 0.578293 0.000000
0.792349 0.578293 0.000000
0.862875 0.578293 0.000000
0.932061 0.578293 0.000000
0.977669 0.578293 0.000000
0.996555 0.578293 0.000000
1.000000 0.578293 0.000000
0.000000 0.666914 0.000000
0.058560 0.666914 0.000000
0.144099 0.666914 0.000000
0.238463 0.666914 0.000000
0.326478 0.666914 0.000000
0.411197 0.666914 0.000000
0.491033 0.666914 0.000000
0.568913 0.666914 0.000000
0.644810 0.666914 0.000000
0.719081 0.666914 0.000000
0.792349 0.666914 0.000000
0.862875 0.666914 0.000000
0.932061 0.666914 0.000000
0.977669 0.666914 0.000000
0.996555 0.666914 0.000000
1.000000 0.666914 0.000000
0.000000 0.758204 0.000000
0.058560 0.758204 0.000000
0.144099 0.758204 0.000000
0.238463 0.758204 0.000000
0.326478 0.758204 0.000000
0.411197 0.758204 0.000000
0.491033 0.758204 0.000000
0.568913 0.758204 0.000000
0.644810 0.758204 0.000000
0.719081 0.758204 0.000000
0.792349 0.758204 0.000000
0.862875 0.758204 0.000000
0.932061 0.758204 0.000000
0.977669 0.758204 0.000000
0.996555 0.758204 0.000000
1.000000 0.758204 0.000000
0.000000 0.851712 0.000000
0.058560 0.851712 0.000000
0.144099 0.851712 0.000000
0.238463 0.851712 0.000000
0.326478 0.851712 0.000000
0.411197 0.851712 0.000000
0.491033 0.851712 0.000000
0.568913 0.851712 0.000000
0.644810 0.851712 0.000000
0.719081 0.851712 0.000000
0.792349 0.851712 0.000000
0.862875 0.851712 0.000000
0.932061 0.851712 0.000000
0.977669 0.851712 0.000000
0.996555 0.851712 0.000000
1.000000 0.851712 0.000000
0.000000 0.936549 0.000000
0.058560 0.936549 0.000000
0.144099 0.936549 0.000000
0.238463 0.936549 0.000000
0.326478 0.936549 0.000000
0.411197 0.936549 0.000000
0.491033 0.936549 0.000000
0.568913 0.936549 0.000000
0.644810 0.936549 0.000000
0.719081 0.936549 0.000000
0.792349 0.936549 0.000000
0.862875 0.936549 0.000000
0.932061 0.936549 0.000000
0.977669 0.936549 0.000000
0.996555 0.936549 0.000000
1.000000 0.936549 0.000000
0.000000 0.985461 0.000000
0.058560 0.985461 0.000000
0.144099 0.985461 0.000000
0.238463 0.985461 0.000000
0.326478 0.985461 0.000000
0.411197 0.985461 0.000000
0.491033 0.985461 0.000000
0.568913 0.985461 0.000000
0.644810 0.985461 0.000000
0.719081 0.985461 0.000000
0.792349 0.985461 0.000000
0.862875 0.985461 0.000000
0.932061 0.985461 0.000000
0.977669 0.985461 0.000000
0.996555 0.985461 0.000000
1.000000 0.985461 0.000000
0.000000 1.000000 0.000000
0.058560 1.000000 0.000000
0.144099 1.000000 0.000000
0.238463 1.000000 0.000000
0.326478 1.000000 0.000000
0.411197 1.000000 0.000000
0.491033 1.000000 0.000000
0.568913 1.000000 0.000000
0.644810 1.000000 0.000000
0.719081 1.000000 0.000000
0.792349 1.000000 0.000000
0.862875 1.000000 0.000000
0.932061 1.000000 0.000000
0.977669 1.000000 0.000000
0.996555 1.000000 0.000000
1.000000 1.000000 0.000000
0.000000 0.000000 0.010417
0.058560 0.000000 0.010417
0.144099 0.000000 0.010417
0.238463 0.000000 0.010417
0.326478 0.000000 0.010417
0.411197 0.000000 0.010417
0.491033 0.000000 0.010417
0.568913 0.000000 0.010417
0.644810 0.000000 0.010417
0.719081 0.000000 0.010417
0.792349 0.000000 0.010417
0.862875 0.000000 0.010417
0.932061 0.000000 0.010417
0.977669 0.000000 0.010417
0.996555 0.000000 0.010417
1.000000 0.000000 0.010417
0.000000 0.016792 0.010417
0.058560 0.016792 0.010417
0.144099 0.016792 0.010417
0.238463 0.016792 0.010417
0.326478 0.016792 0.010417
0.411197 0.016792 0.010417
0.491033 0.016792 0.010417
0.568913 0.016792 0.010417
0.644810 0.016792 0.010417
0.719081 0.016792 0.010417
0.792349 0.016792 0.010417
0.862875 0.016792 0.010417
0.932061 0.016792 0.010417
0.977669 0.016792 0.010417
0.996555 0.016792 0.010417
1.000000 0.016792 0.010417
0.000000 0.058971 0.010417
0.058560 0.058971 0.010417
0.144099 0.058971 0.010417
0.238463 0.058971 0.010417
0.326478 0.058971 0.010417
0.411197 0.058971 0.010417
0.491033 0.058971 0.010417
0.568913 0.058971 0.010417
0.644810 0.058971 0.010417
0.719081 0.058971 0.010417
0.792349 0.058971 0.010417
0.862875 0.058971 0.010417
0.932061 0.058971 0.010417
0.977669 0.058971 0.010417
0.996555 0.058971 0.010417
1.000000 0.058971 0.010417
0.000000 0.117549 0.010417
0.058560 0.117549 0.010417
0.144099 0.117549 0.010417
0.238463 0.117549 0.010417
0.326478 0.117549 0.010417
0.411197 0.117549 0.010417
0.491033 0.117549 0.010417
0.568913 0.117549 0.010417
0.644810 0.117549 0.010417
0.719081 0.117549 0.010417
0.792349 0.117549 0.010417
0.862875 0.117549 0.010417
0.932061 0.117549 0.010417
0.977669 0.117549 0.010417
0.996555 0.117549 0.010417
1.000000 0.117549 0.010417
0.000000 0.183241 0.010417
0.058560 0.183241 0.010417
0.144099 0.183241 0.010417
0.238463 0.183241 0.010417
0.326478 0.183241 0.010417
0.411197 0.183241 0.010417
0.491033 0.183241 0.010417
0.568913 0.183241 0.010417
0.644810 0.183241 0.010417
0.719081 0.183241 0.010417
0.792349 0.183241 0.010417
0.862875 0.183241 0.010417
0.932061 0.183241 0.010417
0.977669 0.183241 0.010417
0.996555 0.183241 0.010417
1.000000 0.183241 0.010417
0.000000 0.254390 0.010417
0.058560 0.254390 0.010417
0.144099 0.254390 0.010417
0.238463 0.254390 0.010417
0.326478 0.254390 0.010417
0.411197 0.254390 0.010417
0.491033 0.254390 0.010417
0.568913 0.254390 0.010417
0.644810 0.254390 0.010417
0.719081 0.254390 0.010417
0.792349 0.254390 0.010417
0.862875 0.254390 0.010417
0.932061 0.254390 0.010417
0.977669 0.254390 0.010417
0.996555 0.254390 0.010417
1.000000 0.254390 0.010417
0.000000 0.330044 0.010417
0.058560 0.330044 0.010417
0.144099 0.330044 0.010417
0.238463 0.330044 0.010417
0.326478 0.330044 0.010417
0.411197 0.330044 0.010417
0.491033 0.330044 0.010417
0.568913 0.330044 0.010417
0.644810 0.330044 0.010417
0.719081 0.330044 0.010417
0.792349 0.330044 0.010417
0.862875 0.330044 0.010417
0.932061 0.330044 0.010417
0.977669 0.330044 0.010417
0.996555 0.330044 0.010417
1.000000 0.330044 0.010417
0.000000 0.409487 0.010417
0.058560 0.409487 0.010417
0.144099 0.409487 0.010417
0.238463 0.409487 0.010417
0.326478 0.409487 0.010417
0.411197 0.409487 0.010417
0.491033 0.409487 0.010417
0.568913 0.409487 0.010417
0.644810 0.409487 0.010417
0.719081 0.409487 0.010417
0.792349 0.409487 0.010417
0.862875 0.409487 0.010417
0.932061 0.409487 0.010417
0.977669 0.409487 0.010417
0.996555 0.409487 0.010417
1.000000 0.409487 0.010417
0.000000 0.492348 0.010417
0.058560 0.492348 0.010417
0.144099 0.492348 0.010417
0.238463 0.492348 0.010417
0.326478 0.492348 0.010417
0.411197 0.492348 0.010417
0.491033 0.492348 0.010417
0.568913 0.492348 0.010417
0.644810 0.492348 0.010417
0.719081 0.492348 0.010417
0.792349 0.492348 0.010417
0.862875 0.492348 0.010417
0.932061 0.492348 0.010417
0.977669 0.492348 0.010417
0.996555 0.492348 0.010417
1.000000 0.492348 0.010417
0.000000 0.578293 0.010417
0.058560 0.578293 0.010417
0.144099 0.578293 0.010417
0.238463 0.578293 0.010417
0.326478 0.578293 0.010417
0.411197 0.578293 0.010417
0.491033 0.578293 0.010417
0.568913 0.578293 0.010417
0.644810 0.578293 0.010417
0.719081 0.578293 0.010417
0.792349 0.578293 0.010417
0.862875 0.578293 0.010417
0.932061 0.578293 0.010417
0.977669 0.578293 0.010417
0.996555 0.578293 0.010417
1.000000 0.578293 0.010417
0.000000 0.666914 0.010417
0.058560 0.666914 0.010417
0.144099 0.666914 0.010417
0.238463 0.666914 0.010417
0.326478 0.666914 0.010417
0.411197 0.666914 0.010417
0.491033 0.666914 0.010417
0.568913 0.666914 0.010417
0.644810 0.666914 0.010417
0.719081 0.666914 0.010417
0.792349 0.666914 0.010417
0.862875 0.666914 0.010417
0.932061 0.666914 0.010417
0.977669 0.666914 0.010417
0.996555 0.666914 0.010417
1.000000 0.666914 0.010417
0.000000 0.758204 0.010417
0.058560 0.758204 0.010417
0.144099 0.758204 0.010417
0.238463 0.758204 0.010417
0.326478 0.758204 0.010417
0.411197 0.758204 0.010417
0.491033 0.758204 0.010417
0.568913 0.758204 0.010417
0.644810 0.758204 0.010417
0.719081 0.758204 0.010417
0.792349 0.758204 0.010417
0.862875 0.758204 0.010417
0.932061 0.758204 0.010417
0.977669 0.758204 0.010417
0.996555 0.758204 0.010417
1.000000 0.758204 0.010417
0.000000 0.851712 0.010417
0.058560 0.851712 0.010417
0.144099 0.851712 0.010417
0.238463 0.851712 0.010417
0.326478 0.851712 0.010417
0.411197 0.851712 0.010417
0.491033 0.851712 0.010417
0.568913 0.851712 0.010417
0.644810 0.851712 0.010417
0.719081 0.851712 0.010417
0.792349 0.851712 0.010417
0.862875 0.851712 0.010417
0.932061 0.851712 0.010417
0.977669 0.851712 0.010417
0.996555 0.851712 0.010417
1.000000 0.851712 0.010417
0.000000 0.936549 0.010417
0.058560 0.936549 0.010417
0.144099 0.936549 0.010417
0.238463 0.936549 0.010417
0.326478 0.936549 0.010417
0.411197 0.936549 0.010417
0.491033 0.936549 0.010417
0.568913 0.936549 0.010417
0.644810 0.936549 0.010417
0.719081 0.936549 0.010417
0.792349 0.936549 0.010417
0.862875 0.936549 0.010417
0.932061 0.936549 0.010417
0.977669 0.936549 0.010417
0.996555 0.936549 0.010417
1.000000 0.936549 0.010417
0.000000 0.985461 0.010417
0.058560 0.985461 0.010417
0.144099 0.985461 0.010417
0.238463 0.985461 0.010417
0.326478 0.985461 0.010417
0.411197 0.985461 0.010417
0.491033 0.985461 0.010417
0.568913 0.985461 0.010417
0.644810 0.985461 0.010417
0.719081 0.985461 0.010417
0.792349 0.985461 0.010417
0.862875 0.985461 0.010417
0.932061 0.985461 0.010417
0.977669 0.985461 0.010417
0.996555 0.985461 0.010417
1.000000 0.985461 0.010417
0.000000 1.000000 0.010417
0.058560 1.000000 0.010417
0.144099 1.000000 0.010417
0.238463 1.000000 0.010417
0.326478 1.000000 0.010417
0.411197 1.000000 0.010417
0.491033 1.000000 0.010417
0.568913 1.000000 0.010417
0.644810 1.000000 0.010417
0.719081 1.000000 0.010417
0.792349 1.000000 0.010417
0.862875 1.000000 0.010417
0.932061 1.000000 0.010417
0.977669 1.000000 0.010417
0.996555 1.000000 0.010417
1.000000 1.000000 0.010417
0.000000 0.000000 0.039747
0.058560 0.000000 0.039747
0.144099 0.000000 0.039747
0.238463 0.000000 0.039747
0.326478 0.000000 0.039747
0.411197 0.000000 0.039747
0.491033 0.000000 0.039747
0.568913 0.000000 0.039747
0.644810 0.000000 0.039747
0.719081 0.000000 0.039747
0.792349 0.000000 0.039747
0.862875 0.000000 0.039747
0.932061 0.000000 0.039747
0.977669 0.000000 0.039747
0.996555 0.000000 0.039747
1.000000 0.000000 0.039747
0.000000 0.016792 0.039747
0.058560 0.016792 0.039747
0.144099 0.016792 0.039747
0.238463 0.016792 0.039747
0.326478 0.016792 0.039747
0.411197 0.016792 0.039747
0.491033 0.016792 0.039747
0.568913 0.016792 0.039747
0.644810 0.016792 0.039747
0.719081 0.016792 0.039747
0.792349 0.016792 0.039747
0.862875 0.016792 0.039747
0.932061 0.016792 0.039747
0.977669 0.016792 0.039747
0.996555 0.016792 0.039747
1.000000 0.016792 0.039747
0.000000 0.058971 0.039747
0.058560 0.058971 0.039747
0.144099 0.058971 0.039747
0.238463 0.058971 0.039747
0.326478 0.058971 0.039747
0.411197 0.058971 0.039747
0.491033 0.058971 0.039747
0.568913 0.058971 0.039747
0.644810 0.058971 0.039747
0.719081 0.058971 0.039747
0.792349 0.058971 0.039747
0.862875 0.058971 0.039747
0.932061 0.058971 0.039747
0.977669 0.058971 0.039747
0.996555 0.058971 0.039747
1.000000 0.058971 0.039747
0.000000 0.117549 0.039747
0.058560 0.117549 0.039747
0.144099 0.117549 0.039747
0.238463 0.117549 0.039747
0.326478 0.117549 0.039747
0.411197 0.117549 0.039747
0.491033 0.117549 0.039747
0.568913 0.117549 0.039747
0.644810 0.117549 0.039747
0.719081 0.117549 0.039747
0.792349 0.117549 0.039747
0.862875 0.117549 0.039747
0.932061 0.117549 0.039747
0.977669 0.117549 0.039747
0.996555 0.117549 0.039747
1.000000 0.117549 0.039747
0.000000 0.183241 0.039747
0.058560 0.183241 0.039747
0.144099 0.183241 0.039747
0.238463 0.183241 0.039747
0.326478 0.183241 0.039747
0.411197 0.183241 0.039747
0.491033 0.183241 0.039747
0.568913 0.183241 0.039747
0.644810 0.183241 0.039747
0.719081 0.183241 0.039747
0.792349 0.183241 0.039747
0.862875 0.183241 0.039747
0.932061 0.183241 0.039747
0.977669 0.183241 0.039747
0.996555 0.183241 0.039747
1.000000 0.183241 0.039747
0.000000 0.254390 0.039747
0.058560 0.254390 0.039747
0.144099 0.254390 0.039747
0.238463 0.254390 0.039747
0.326478 0.254390 0.039747
0.411197 0.254390 0.039747
0.491033 0.254390 0.039747
0.568913 0.254390 0.039747
0.644810 0.254390 0.039747
0.719081 0.254390 0.039747
0.792349 0.254390 0.039747
0.862875 0.254390 0.039747
0.932061 0.254390 0.039747
0.977669 0.254390 0.039747
0.996555 0.254390 0.039747
1.000000 0.254390 0.039747
0.000000 0.330044 0.039747
0.058560 0.330044 0.039747
0.144099 0.330044 0.039747
0.238463 0.330044 0.039747
0.326478 0.330044 0.039747
0.411197 0.330044 0.039747
0.491033 0.330044 0.039747
0.568913 0.330044 0.039747
0.644810 0.330044 0.039747
0.719081 0.330044 0.039747
0.792349 0.330044 0.039747
0.862875 0.330044 0.039747
0.932061 0.330044 0.039747
0.977669 0.330044 0.039747
0.996555 0.330044 0.039747
1.000000 0.330044 0.039747
0.000000 0.409487 0.039747
0.058560 0.409487 0.039747
0.144099 0.409487 0.039747
0.238463 0.409487 0.039747
0.326478 0.409487 0.039747
0.411197 0.409487 0.039747
0.491033 0.409487 0.039747
0.568913 0.409487 0.039747
0.644810 0.409487 0.039747
0.719081 0.409487 0.039747
0.792349 0.409487 0.039747
0.862875 0.409487 0.039747
0.932061 0.409487 0.039747
0.977669 0.409487 0.039747
0.996555 0.409487 0.039747
1.000000 0.409487 0.039747
0.000000 0.492348 0.039747
0.058560 0.492348 0.039747
0.144099 0.492348 0.039747
0.238463 0.492348 0.039747
0.326478 0.492348 0.039747
0.411197 0.492348 0.039747
0.491033 0.492348 0.039747
0.568913 0.492348 0.039747
0.644810 0.492348 0.039747
0.719081 0.492348 0.039747
0.792349 0.492348 0.039747
0.862875 0.492348 0.039747
0.932061 0.492348 0.039747
0.977669 0.492348 0.039747
0.996555 0.492348 0.039747
1.000000 0.492348 0.039747
0.000000 0.578293 0.039747
0.058560 0.578293 0.039747
0.144099 0.578293 0.039747
0.238463 0.578293 0.039747
0.326478 0.578293 0.039747
0.411197 0.578293 0.039747
0.491033 0.578293 0.039747
0.568913 0.578293 0.039747
0.644810 0.578293 0.039747
0.719081 0.578293 0.039747
0.792349 0.578293 0.039747
0.862875 0.578293 0.039747
0.932061 0.578293 0.039747
0.977669 0.578293 0.039747
0.996555 0.578293 0.039747
1.000000 0.578293 0.039747
0.000000 0.666914 0.039747
0.058560 0.666914 0.039747
0.144099 0.666914 0.039747
0.238463 0.666914 0.039747
0.326478 0.666914 0.039747
0.411197 0.666914 0.039747
0.491033 0.666914 0.039747
0.568913 0.666914 0.039747
0.644810 0.666914 0.039747
0.719081 0.666914 0.039747
0.792349 0.666914 0.039747
0.862875 0.666914 0.039747
0.932061 0.666914 0.039747
0.977669 0.666914 0.039747
0.996555 0.666914 0.039747
1.000000 0.666914 0.039747
0.000000 0.758204 0.039747
0.058560 0.758204 0.039747
0.144099 0.758204 0.039747
0.238463 0.758204 0.039747
0.326478 0.758204 0.039747
0.411197 0.758204 0.039747
0.491033 0.758204 0.039747
0.568913 0.758204 0.039747
0.644810 0.758204 0.039747
0.719081 0.758204 0.039747
0.792349 0.758204 0.039747
0.862875 0.758204 0.039747
0.932061 0.758204 0.039747
0.977669 0.758204 0.039747
0.996555 0.758204 0.039747
1.000000 0.758204 0.039747
0.000000 0.851712 0.039747
0.058560 0.851712 0.039747
0.144099 0.851712 0.039747
0.238463 0.851712 0.039747
0.326478 0.851712 0.039747
0.411197 0.851712 0.039747
0.491033 0.851712 0.039747
0.568913 0.851712 0.039747
0.644810 0.851712 0.039747
0.719081 0.851712 0.039747
0.792349 0.851712 0.039747
0.862875 0.851712 0.039747
0.932061 0.851712 0.039747
0.977669 0.851712 0.039747
0.996555 0.851712 0.039747
1.000000 0.851712 0.039747
0.000000 0.936549 0.039747
0.058560 0.936549 0.039747
0.144099 0.936549 0.039747
0.238463 0.936549 0.039747
0.326478 0.936549 0.039747
0.411197 0.936549 0.039747
0.491033 0.936549 0.039747
0.568913 0.936549 0.039747
0.644810 0.936549 0.039747
0.719081 0.936549 0.039747
0.792349 0.936549 0.039747
0.862875 0.936549 0.039747
0.932061 0.936549 0.039747
0.977669 0.936549 0.039747
0.996555 0.936549 0.039747
1.000000 0.936549 0.039747
0.000000 0.985461 0.039747
0.058560 0.985461 0.039747
0.144099 0.985461 0.039747
0.238463 0.985461 0.039747
0.326478 0.985461 0.039747
0.411197 0.985461 0.039747
0.491033 0.985461 0.039747
0.568913 0.985461 0.039747
0.644810 0.985461 0.039747
0.719081 0.985461 0.039747
0.792349 0.985461 0.039747
0.862875 0.985461 0.039747
0.932061 0.985461 0.039747
0.977669 0.985461 0.039747
0.996555 0.985461 0.039747
1.000000 0.985461 0.039747
0.000000 1.000000 0.039747
0.058560 1.000000 0.039747
0.144099 1.000000 0.039747
0.238463 1.000000 0.039747
0.326478 1.000000 0.039747
0.411197 1.000000 0.039747
0.491033 1.000000 0.039747
0.568913 1.000000 0.039747
0.644810 1.000000 0.039747
0.719081 1.000000 0.039747
0.792349 1.000000 0.039747
0.862875 1.000000 0.039747
0.932061 1.000000 0.039747
0.977669 1.000000 0.039747
0.996555 1.000000 0.039747
1.000000 1.000000 0.039747
0.000000 0.000000 0.082898
0.058560 0.000000 0.082898
0.144099 0.000000 0.082898
0.238463 0.000000 0.082898
0.326478 0.000000 0.082898
0.411197 0.000000 0.082898
0.491033 0.000000 0.082898
0.568913 0.000000 0.082898
0.644810 0.000000 0.082898
0.719081 0.000000 0.082898
0.792349 0.000000 0.082898
0.862875 0.000000 0.082898
0.932061 0.000000 0.082898
0.977669 0.000000 0.082898
0.996555 0.000000 0.082898
1.000000 0.000000 0.082898
0.000000 0.016792 0.082898
0.058560 0.016792 0.082898
0.144099 0.016792 0.082898
0.238463 0.016792 0.082898
0.326478 0.016792 0.082898
0.411197 0.016792 0.082898
0.491033 0.016792 0.082898
0.568913 0.016792 0.082898
0.644810 0.016792 0.082898
0.719081 0.016792 0.082898
0.792349 0.016792 0.082898
0.862875 0.016792 0.082898
0.932061 0.016792 0.082898
0.977669 0.016792 0.082898
0.996555 0.016792 0.082898
1.000000 0.016792 0.082898
0.000000 0.058971 0.082898
0.058560 0.058971 0.082898
0.144099 0.058971 0.082898
0.238463 0.058971 0.082898
0.326478 0.058971 0.082898
0.411197 0.058971 0.082898
0.491033 0.058971 0.082898
0.568913 0.058971 0.082898
0.644810 0.058971 0.082898
0.719081 0.058971 0.082898
0.792349 0.058971 0.082898
0.862875 0.058971 0.082898
0.932061 0.058971 0.082898
0.977669 0.058971 0.082898
0.996555 0.058971 0.082898
1.000000 0.058971 0.082898
0.000000 0.117549 0.082898
0.058560 0.117549 0.082898
0.144099 0.117549 0.082898
0.238463 0.117549 0.082898
0.326478 0.117549 0.082898
0.411197 0.117549 0.082898
0.491033 0.117549 0.082898
0.568913 0.117549 0.082898
0.644810 0.117549 0.082898
0.719081 0.117549 0.082898
0.792349 0.117549 0.082898
0.862875 0.117549 0.082898
0.932061 0.117549 0.082898
0.977669 0.117549 0.082898
0.996555 0.117549 0.082898
1.000000 0.117549 0.082898
0.000000 0.183241 0.082898
0.058560 0.183241 0.082898
0.144099 0.183241 0.082898
0.238463 0.183241 0.082898
0.326478 0.183241 0.082898
0.411197 0.183241 0.082898
0.491033 0.183241 0.082898
0.568913 0.183241 0.082898
0.644810 0.183241 0.082898
0.719081 0.183241 0.082898
0.792349 0.183241 0.082898
0.862875 0.183241 0.082898
0.932061 0.183241 0.082898
0.977669 0.183241 0.082898
0.996555 0.183241 0.082898
1.000000 0.183241 0.082898
0.000000 0.254390 0.082898
0.058560 0.254390 0.082898
0.144099 0.254390 0.082898
0.238463 0.254390 0.082898
0.326478 0.254390 0.082898
0.411197 0.254390 0.082898
0.491033 0.254390 0.082898
0.568913 0.254390 0.082898
0.644810 0.254390 0.082898
0.719081 0.254390 0.082898
0.792349 0.254390 0.082898
0.862875 0.254390 0.082898
0.932061 0.254390 0.082898
0.977669 0.254390 0.082898
0.996555 0.254390 0.082898
1.000000 0.254390 0.082898
0.000000 0.330044 0.082898
0.058560 0.330044 0.082898
0.144099 0.330044 0.082898
0.238463 0.330044 0.082898
0.326478 0.330044 0.082898
0.411197 0.330044 0.082898
0.491033 0.330044 0.082898
0.568913 0.330044 0.082898
0.644810 0.330044 0.082898
0.719081 0.330044 0.082898
0.792349 0.330044 0.082898
0.862875 0.330044 0.082898
0.932061 0.330044 0.082898
0.977669 0.330044 0.082898
0.996555 0.330044 0.082898
1.000000 0.330044 0.082898
0.000000 0.409487 0.082898
0.058560 0.409487 0.082898
0.144099 0.409487 0.082898
0.238463 0.409487 0.082898
0.326478 0.409487 0.082898
0.411197 0.409487 0.082898
0.491033 0.409487 0.082898
0.568913 0.409487 0.082898
