example_ofxGpuLutCube/bin/data/ofxGpuLutCube/LUT/A13 (warm greenish fade).cube
LUT_3D_SIZE 6
0.000000 0.000000 0.000000
0.238463 0.000000 0.000000
0.491033 0.000000 0.000000
0.719081 0.000000 0.000000
0.932061 0.000000 0.000000
1.000000 0.000000 0.000000
0.000000 0.117549 0.000000
0.238463 0.117549 0.000000
0.491033 0.117549 0.000000
0.719081 0.117549 0.000000
0.932061 0.117549 0.000000
1.000000 0.117549 0.000000
0.000000 0.330044 0.000000
0.238463 0.330044 0.000000
0.491033 0.330044 0.000000
0.719081 0.330044 0.000000
0.932061 0.330044 0.000000
1.000000 0.330044 0.000000
0.000000 0.578293 0.000000
0.238463 0.578293 0.000000
0.491033 0.578293 0.000000
0.719081 0.578293 0.000000
0.932061 0.578293 0.000000
1.000000 0.578293 0.000000
0.000000 0.851712 0.000000
0.238463 0.851712 0.000000
0.491033 0.851712 0.000000
0.719081 0.851712 0.000000
0.932061 0.851712 0.000000
1.000000 0.851712 0.000000
0.000000 1.000000 0.000000
0.238463 1.000000 0.000000
0.491033 1.000000 0.000000
0.719081 1.000000 0.000000
0.932061 1.000000 0.000000
1.000000 1.000000 0.000000
0.000000 0.000000 0.082898
0.238463 0.000000 0.082898
0.491033 0.000000 0.082898
0.719081 0.000000 0.082898
0.932061 0.000000 0.082898
1.000000 0.000000 0.082898
0.000000 0.117549 0.082898
0.238463 0.117549 0.082898
0.491033 0.117549 0.082898
0.719081 0.117549 0.082898
0.932061 0.117549 0.082898
1.000000 0.117549 0.082898
0.000000 0.330044 0.082898
0.238463 0.330044 0.082898
0.491033 0.330044 0.082898
0.719081 0.330044 0.082898
0.932061 0.330044 0.082898
1.000000 0.330044 0.082898
0.000000 0.578293 0.082898
0.238463 0.578293 0.082898
0.491033 0.578293 0.082898
0.719081 0.578293 0.082898
0.932061 0.578293 0.082898
1.000000 0.578293 0.082898
0.000000 0.851712 0.082898
0.238463 0.851712 0.082898
0.491033 0.851712 0.082898
0.719081 0.851712 0.082898
0.932061 0.851712 0.082898
1.000000 0.851712 0.082898
0.000000 1.000000 0.082898
0.238463 1.000000 0.082898
0.491033 1.000000 0.082898
0.719081 1.000000 0.082898
0.932061 1.000000 0.082898
1.000000 1.000000 0.082898
0.000000 0.000000 0.261559
0.238463 0.000000 0.261559
0.491033 0.000000 0.261559
0.719081 0.000000 0.261559
0.932061 0.000000 0.261559
1.000000 0.000000 0.261559
0.000000 0.117549 0.261559
0.238463 0.117549 0.261559
0.491033 0.117549 0.261559
0.719081 0.117549 0.261559
0.932061 0.117549 0.261559
1.000000 0.117549 0.261559
0.000000 0.330044 0.261559
0.238463 0.330044 0.261559
0.491033 0.330044 0.261559
0.719081 0.330044 0.261559
0.932061 0.330044 0.261559
1.000000 0.330044 0.261559
0.000000 0.578293 0.261559
0.238463 0.578293 0.261559
0.491033 0.578293 0.261559
0.719081 0.578293 0.261559
0.932061 0.578293 0.261559
1.000000 0.578293 0.261559
0.000000 0.851712 0.261559
0.238463 0.851712 0.261559
0.491033 0.851712 0.261559
0.719081 0.851712 0.261559
0.932061 0.851712 0.261559
1.000000 0.851712 0.261559
0.000000 1.000000 0.261559
0.238463 1.000000 0.261559
0.491033 1.000000 0.261559
0.719081 1.000000 0.261559
0.932061 1.000000 0.261559
1.000000 1.000000 0.261559
0.000000 0.000000 0.495384
0.238463 0.000000 0.495384
0.491033 0.000000 0.495384
0.719081 0.000000 0.495384
0.932061 0.000000 0.495384
1.000000 0.000000 0.495384
0.000000 0.117549 0.495384
0.238463 0.117549 0.495384
0.491033 0.117549 0.495384
0.719081 0.117549 0.495384
0.932061 0.117549 0.495384
1.000000 0.117549 0.495384
0.000000 0.330044 0.495384
0.238463 0.330044 0.495384
0.491033 0.330044 0.495384
0.719081 0.330044 0.495384
0.932061 0.330044 0.495384
1.000000 0.330044 0.495384
0.000000 0.578293 0.495384
0.238463 0.578293 0.495384
0.491033 0.578293 0.495384
0.719081 0.578293 0.495384
0.932061 0.578293 0.495384
1.000000 0.578293 0.495384
0.000000 0.851712 0.495384
0.238463 0.851712 0.495384
0.491033 0.851712 0.495384
0.719081 0.851712 0.495384
0.932061 0.851712 0.495384
1.000000 0.851712 0.495384
0.000000 1.000000 0.495384
0.238463 1.000000 0.495384
0.491033 1.000000 0.495384
0.719081 1.000000 0.495384
0.932061 1.000000 0.495384
1.000000 1.000000 0.495384
0.000000 0.000000 0.772703
0.238463 0.000000 0.772703
0.491033 0.000000 0.772703
0.719081 0.000000 0.772703
0.932061 0.000000 0.772703
1.000000 0.000000 0.772703
0.000000 0.117549 0.772703
0.238463 0.117549 0.772703
0.491033 0.117549 0.772703
0.719081 0.117549 0.772703
0.932061 0.117549 0.772703
1.000000 0.117549 0.772703
0.000000 0.330044 0.772703
0.238463 0.330044 0.772703
0.491033 0.330044 0.772703
0.719081 0.330044 0.772703
0.932061 0.330044 0.772703
1.000000 0.330044 0.772703
0.000000 0.578293 0.772703
0.238463 0.578293 0.772703
0.491033 0.578293 0.772703
0.719081 0.578293 0.772703
0.932061 0.578293 0.772703
1.000000 0.578293 0.772703
0.000000 0.851712 0.772703
0.238463 0.851712 0.772703
0.491033 0.851712 0.772703
0.719081 0.851712 0.772703
0.932061 0.851712 0.772703
1.000000 0.851712 0.772703
0.000000 1.000000 0.772703
0.238463 1.000000 0.772703
0.491033 1.000000 0.772703
0.719081 1.000000 0.772703
0.932061 1.000000 0.772703
1.000000 1.000000 0.772703
0.000000 0.000000 1.000000
0.238463 0.000000 1.000000
0.491033 0.000000 1.000000
0.719081 0.000000 1.000000
0.932061 0.000000 1.000000
1.000000 0.000000 1.000000
0.000000 0.117549 1.000000
0.238463 0.117549 1.000000
0.491033 0.117549 1.000000
0.719081 0.117549 1.000000
0.932061 0.117549 1.000000
1.000000 0.117549 1.000000
0.000000 0.330044 1.000000
0.238463 0.330044 1.000000
0.491033 0.330044 1.000000
0.719081 0.330044 1.000000
0.932061 0.330044 1.000000
1.000000 0.330044 1.000000
0.000000 0.578293 1.000000
0.238463 0.578293 1.000000
0.491033 0.578293 1.000000
0.719081 0.578293 1.000000
0.932061 0.578293 1.000000
1.000000 0.578293 1.000000
0.000000 0.851712 1.000000
0.238463 0.851712 1.000000
0.491033 0.851712 1.000000
0.719081 0.851712 1.000000
0.932061 0.851712 1.000000
1.000000 0.851712 1.000000
0.000000 1.000000 1.000000
0.238463 1.000000 1.000000
0.491033 1.000000 1.000000
0.719081 1.000000 1.000000
0.932061 1.000000 1.000000
1.000000 1.000000 1.000000
