example_ofxGpuLutCube/bin/data/ofxGpuLutCube/LUT/A14 (smooth magenta fade).cube
LUT_3D_SIZE 6
0.000000 0.000000 0.000000
0.206785 0.000000 0.000000
0.447930 0.000000 0.000000
0.640485 0.000000 0.000000
0.810088 0.000000 0.000000
0.965775 0.000000 0.000000
0.000000 0.136903 0.000000
0.206785 0.136903 0.000000
0.447930 0.136903 0.000000
0.640485 0.136903 0.000000
0.810088 0.136903 0.000000
0.965775 0.136903 0.000000
0.000000 0.343937 0.000000
0.206785 0.343937 0.000000
0.447930 0.343937 0.000000
0.640485 0.343937 0.000000
0.810088 0.343937 0.000000
0.965775 0.343937 0.000000
0.000000 0.536974 0.000000
0.206785 0.536974 0.000000
0.447930 0.536974 0.000000
0.640485 0.536974 0.000000
0.810088 0.536974 0.000000
0.965775 0.536974 0.000000
0.000000 0.722359 0.000000
0.206785 0.722359 0.000000
0.447930 0.722359 0.000000
0.640485 0.722359 0.000000
0.810088 0.722359 0.000000
0.965775 0.722359 0.000000
0.000000 0.901829 0.000000
0.206785 0.901829 0.000000
0.447930 0.901829 0.000000
0.640485 0.901829 0.000000
0.810088 0.901829 0.000000
0.965775 0.901829 0.000000
0.000000 0.000000 0.122761
0.206785 0.000000 0.122761
0.447930 0.000000 0.122761
0.640485 0.000000 0.122761
0.810088 0.000000 0.122761
0.965775 0.000000 0.122761
0.000000 0.136903 0.122761
0.206785 0.136903 0.122761
0.447930 0.136903 0.122761
0.640485 0.136903 0.122761
0.810088 0.136903 0.122761
0.965775 0.136903 0.122761
0.000000 0.343937 0.122761
0.206785 0.343937 0.122761
0.447930 0.343937 0.122761
0.640485 0.343937 0.122761
0.810088 0.343937 0.122761
0.965775 0.343937 0.122761
0.000000 0.536974 0.122761
0.206785 0.536974 0.122761
0.447930 0.536974 0.122761
0.640485 0.536974 0.122761
0.810088 0.536974 0.122761
0.965775 0.536974 0.122761
0.000000 0.722359 0.122761
0.206785 0.722359 0.122761
0.447930 0.722359 0.122761
0.640485 0.722359 0.122761
0.810088 0.722359 0.122761
0.965775 0.722359 0.122761
0.000000 0.901829 0.122761
0.206785 0.901829 0.122761
0.447930 0.901829 0.122761
0.640485 0.901829 0.122761
0.810088 0.901829 0.122761
0.965775 0.901829 0.122761
0.000000 0.000000 0.328715
0.206785 0.000000 0.328715
0.447930 0.000000 0.328715
0.640485 0.000000 0.328715
0.810088 0.000000 0.328715
0.965775 0.000000 0.328715
0.000000 0.136903 0.328715
0.206785 0.136903 0.328715
0.447930 0.136903 0.328715
0.640485 0.136903 0.328715
0.810088 0.136903 0.328715
0.965775 0.136903 0.328715
0.000000 0.343937 0.328715
0.206785 0.343937 0.328715
0.447930 0.343937 0.328715
0.640485 0.343937 0.328715
0.810088 0.343937 0.328715
0.965775 0.343937 0.328715
0.000000 0.536974 0.328715
0.206785 0.536974 0.328715
0.447930 0.536974 0.328715
0.640485 0.536974 0.328715
0.810088 0.536974 0.328715
0.965775 0.536974 0.328715
0.000000 0.722359 0.328715
0.206785 0.722359 0.328715
0.447930 0.722359 0.328715
0.640485 0.722359 0.328715
0.810088 0.722359 0.328715
0.965775 0.722359 0.328715
0.000000 0.901829 0.328715
0.206785 0.901829 0.328715
0.447930 0.901829 0.328715
0.640485 0.901829 0.328715
0.810088 0.901829 0.328715
0.965775 0.901829 0.328715
0.000000 0.000000 0.526034
0.206785 0.000000 0.526034
0.447930 0.000000 0.526034
0.640485 0.000000 0.526034
0.810088 0.000000 0.526034
0.965775 0.000000 0.526034
0.000000 0.136903 0.526034
0.206785 0.136903 0.526034
0.447930 0.136903 0.526034
0.640485 0.136903 0.526034
0.810088 0.136903 0.526034
0.965775 0.136903 0.526034
0.000000 0.343937 0.526034
0.206785 0.343937 0.526034
0.447930 0.343937 0.526034
0.640485 0.343937 0.526034
0.810088 0.343937 0.526034
0.965775 0.343937 0.526034
0.000000 0.536974 0.526034
0.206785 0.536974 0.526034
0.447930 0.536974 0.526034
0.640485 0.536974 0.526034
0.810088 0.536974 0.526034
0.965775 0.536974 0.526034
0.000000 0.722359 0.526034
0.206785 0.722359 0.526034
0.447930 0.722359 0.526034
0.640485 0.722359 0.526034
0.810088 0.722359 0.526034
0.965775 0.722359 0.526034
0.000000 0.901829 0.526034
0.206785 0.901829 0.526034
0.447930 0.901829 0.526034
0.640485 0.901829 0.526034
0.810088 0.901829 0.526034
0.965775 0.901829 0.526034
0.000000 0.000000 0.718534
0.206785 0.000000 0.718534
0.447930 0.000000 0.718534
0.640485 0.000000 0.718534
0.810088 0.000000 0.718534
0.965775 0.000000 0.718534
0.000000 0.136903 0.718534
0.206785 0.136903 0.718534
0.447930 0.136903 0.718534
0.640485 0.136903 0.718534
0.810088 0.136903 0.718534
0.965775 0.136903 0.718534
0.000000 0.343937 0.718534
0.206785 0.343937 0.718534
0.447930 0.343937 0.718534
0.640485 0.343937 0.718534
0.810088 0.343937 0.718534
0.965775 0.343937 0.718534
0.000000 0.536974 0.718534
0.206785 0.536974 0.718534
0.447930 0.536974 0.718534
0.640485 0.536974 0.718534
0.810088 0.536974 0.718534
0.965775 0.536974 0.718534
0.000000 0.722359 0.718534
0.206785 0.722359 0.718534
0.447930 0.722359 0.718534
0.640485 0.722359 0.718534
0.810088 0.722359 0.718534
0.965775 0.722359 0.718534
0.000000 0.901829 0.718534
0.206785 0.901829 0.718534
0.447930 0.901829 0.718534
0.640485 0.901829 0.718534
0.810088 0.901829 0.718534
0.965775 0.901829 0.718534
0.000000 0.000000 0.907146
0.206785 0.000000 0.907146
0.447930 0.000000 0.907146
0.640485 0.000000 0.907146
0.810088 0.000000 0.907146
0.965775 0.000000 0.907146
0.000000 0.136903 0.907146
0.206785 0.136903 0.907146
0.447930 0.136903 0.907146
0.640485 0.136903 0.907146
0.810088 0.136903 0.907146
0.965775 0.136903 0.907146
0.000000 0.343937 0.907146
0.206785 0.343937 0.907146
0.447930 0.343937 0.907146
0.640485 0.343937 0.907146
0.810088 0.343937 0.907146
0.965775 0.343937 0.907146
0.000000 0.536974 0.907146
0.206785 0.536974 0.907146
0.447930 0.536974 0.907146
0.640485 0.536974 0.907146
0.810088 0.536974 0.907146
0.965775 0.536974 0.907146
0.000000 0.722359 0.907146
0.206785 0.722359 0.907146
0.447930 0.722359 0.907146
0.640485 0.722359 0.907146
0.810088 0.722359 0.907146
0.965775 0.722359 0.907146
0.000000 0.901829 0.907146
0.206785 0.901829 0.907146
0.447930 0.901829 0.907146
0.640485 0.901829 0.907146
0.810088 0.901829 0.907146
0.965775 0.901829 0.907146
