example_ofxGpuLutCube/bin/data/ofxGpuLutCube/LUT/A14 (smooth magenta fade).cube
LUT_3D_SIZE 16
0.000000 0.000000 0.000000
0.040933 0.000000 0.000000
0.113498 0.000000 0.000000
0.206785 0.000000 0.000000
0.296191 0.000000 0.000000
0.376174 0.000000 0.000000
0.447930 0.000000 0.000000
0.515452 0.000000 0.000000
0.579415 0.000000 0.000000
0.640485 0.000000 0.000000
0.699495 0.000000 0.000000
0.755315 0.000000 0.000000
0.810088 0.000000 0.000000
0.864368 0.000000 0.000000
0.915685 0.000000 0.000000
0.965775 0.000000 0.000000
0.000000 0.019830 0.000000
0.040933 0.019830 0.000000
0.113498 0.019830 0.000000
0.206785 0.019830 0.000000
0.296191 0.019830 0.000000
0.376174 0.019830 0.000000
0.447930 0.019830 0.000000
0.515452 0.019830 0.000000
0.579415 0.019830 0.000000
0.640485 0.019830 0.000000
0.699495 0.019830 0.000000
0.755315 0.019830 0.000000
0.810088 0.019830 0.000000
0.864368 0.019830 0.000000
0.915685 0.019830 0.000000
0.965775 0.019830 0.000000
0.000000 0.067496 0.000000
0.040933 0.067496 0.000000
0.113498 0.067496 0.000000
0.206785 0.067496 0.000000
0.296191 0.067496 0.000000
0.376174 0.067496 0.000000
0.447930 0.067496 0.000000
0.515452 0.067496 0.000000
0.579415 0.067496 0.000000
0.640485 0.067496 0.000000
0.699495 0.067496 0.000000
0.755315 0.067496 0.000000
0.810088 0.067496 0.000000
0.864368 0.067496 0.000000
0.915685 0.067496 0.000000
0.965775 0.067496 0.000000
0.000000 0.136903 0.000000
0.040933 0.136903 0.000000
0.113498 0.136903 0.000000
0.206785 0.136903 0.000000
0.296191 0.136903 0.000000
0.376174 0.136903 0.000000
0.447930 0.136903 0.000000
0.515452 0.136903 0.000000
0.579415 0.136903 0.000000
0.640485 0.136903 0.000000
0.699495 0.136903 0.000000
0.755315 0.136903 0.000000
0.810088 0.136903 0.000000
0.864368 0.136903 0.000000
0.915685 0.136903 0.000000
0.965775 0.136903 0.000000
0.000000 0.208317 0.000000
0.040933 0.208317 0.000000
0.113498 0.208317 0.000000
0.206785 0.208317 0.000000
0.296191 0.208317 0.000000
0.376174 0.208317 0.000000
0.447930 0.208317 0.000000
0.515452 0.208317 0.000000
0.579415 0.208317 0.000000
0.640485 0.208317 0.000000
0.699495 0.208317 0.000000
0.755315 0.208317 0.000000
0.810088 0.208317 0.000000
0.864368 0.208317 0.000000
0.915685 0.208317 0.000000
0.965775 0.208317 0.000000
0.000000 0.277035 0.000000
0.040933 0.277035 0.000000
0.113498 0.277035 0.000000
0.206785 0.277035 0.000000
0.296191 0.277035 0.000000
0.376174 0.277035 0.000000
0.447930 0.277035 0.000000
0.515452 0.277035 0.000000
0.579415 0.277035 0.000000
0.640485 0.277035 0.000000
0.699495 0.277035 0.000000
0.755315 0.277035 0.000000
0.810088 0.277035 0.000000
0.864368 0.277035 0.000000
0.915685 0.277035 0.000000
0.965775 0.277035 0.000000
0.000000 0.343937 0.000000
0.040933 0.343937 0.000000
0.113498 0.343937 0.000000
0.206785 0.343937 0.000000
0.296191 0.343937 0.000000
0.376174 0.343937 0.000000
0.447930 0.343937 0.000000
0.515452 0.343937 0.000000
0.579415 0.343937 0.000000
0.640485 0.343937 0.000000
0.699495 0.343937 0.000000
0.755315 0.343937 0.000000
0.810088 0.343937 0.000000
0.864368 0.343937 0.000000
0.915685 0.343937 0.000000
0.965775 0.343937 0.000000
0.000000 0.409294 0.000000
0.040933 0.409294 0.000000
0.113498 0.409294 0.000000
0.206785 0.409294 0.000000
0.296191 0.409294 0.000000
0.376174 0.409294 0.000000
0.447930 0.409294 0.000000
0.515452 0.409294 0.000000
0.579415 0.409294 0.000000
0.640485 0.409294 0.000000
0.699495 0.409294 0.000000
0.755315 0.409294 0.000000
0.810088 0.409294 0.000000
0.864368 0.409294 0.000000
0.915685 0.409294 0.000000
0.965775 0.409294 0.000000
0.000000 0.473616 0.000000
0.040933 0.473616 0.000000
0.113498 0.473616 0.000000
0.206785 0.473616 0.000000
0.296191 0.473616 0.000000
0.376174 0.473616 0.000000
0.447930 0.473616 0.000000
0.515452 0.473616 0.000000
0.579415 0.473616 0.000000
0.640485 0.473616 0.000000
0.699495 0.473616 0.000000
0.755315 0.473616 0.000000
0.810088 0.473616 0.000000
0.864368 0.473616 0.000000
0.915685 0.473616 0.000000
0.965775 0.473616 0.000000
0.000000 0.536974 0.000000
0.040933 0.536974 0.000000
0.113498 0.536974 0.000000
0.206785 0.536974 0.000000
0.296191 0.536974 0.000000
0.376174 0.536974 0.000000
0.447930 0.536974 0.000000
0.515452 0.536974 0.000000
0.579415 0.536974 0.000000
0.640485 0.536974 0.000000
0.699495 0.536974 0.000000
0.755315 0.536974 0.000000
0.810088 0.536974 0.000000
0.864368 0.536974 0.000000
0.915685 0.536974 0.000000
0.965775 0.536974 0.000000
0.000000 0.599411 0.000000
0.040933 0.599411 0.000000
0.113498 0.599411 0.000000
0.206785 0.599411 0.000000
0.296191 0.599411 0.000000
0.376174 0.599411 0.000000
0.447930 0.599411 0.000000
0.515452 0.599411 0.000000
0.579415 0.599411 0.000000
0.640485 0.599411 0.000000
0.699495 0.599411 0.000000
0.755315 0.599411 0.000000
0.810088 0.599411 0.000000
0.864368 0.599411 0.000000
0.915685 0.599411 0.000000
0.965775 0.599411 0.000000
0.000000 0.661225 0.000000
0.040933 0.661225 0.000000
0.113498 0.661225 0.000000
0.206785 0.661225 0.000000
0.296191 0.661225 0.000000
0.376174 0.661225 0.000000
0.447930 0.661225 0.000000
0.515452 0.661225 0.000000
0.579415 0.661225 0.000000
0.640485 0.661225 0.000000
0.699495 0.661225 0.000000
0.755315 0.661225 0.000000
0.810088 0.661225 0.000000
0.864368 0.661225 0.000000
0.915685 0.661225 0.000000
0.965775 0.661225 0.000000
0.000000 0.722359 0.000000
0.040933 0.722359 0.000000
0.113498 0.722359 0.000000
0.206785 0.722359 0.000000
0.296191 0.722359 0.000000
0.376174 0.722359 0.000000
0.447930 0.722359 0.000000
0.515452 0.722359 0.000000
0.579415 0.722359 0.000000
0.640485 0.722359 0.000000
0.699495 0.722359 0.000000
0.755315 0.722359 0.000000
0.810088 0.722359 0.000000
0.864368 0.722359 0.000000
0.915685 0.722359 0.000000
0.965775 0.722359 0.000000
0.000000 0.783014 0.000000
0.040933 0.783014 0.000000
0.113498 0.783014 0.000000
0.206785 0.783014 0.000000
0.296191 0.783014 0.000000
0.376174 0.783014 0.000000
0.447930 0.783014 0.000000
0.515452 0.783014 0.000000
0.579415 0.783014 0.000000
0.640485 0.783014 0.000000
0.699495 0.783014 0.000000
0.755315 0.783014 0.000000
0.810088 0.783014 0.000000
0.864368 0.783014 0.000000
0.915685 0.783014 0.000000
0.965775 0.783014 0.000000
0.000000 0.842911 0.000000
0.040933 0.842911 0.000000
0.113498 0.842911 0.000000
0.206785 0.842911 0.000000
0.296191 0.842911 0.000000
0.376174 0.842911 0.000000
0.447930 0.842911 0.000000
0.515452 0.842911 0.000000
0.579415 0.842911 0.000000
0.640485 0.842911 0.000000
0.699495 0.842911 0.000000
0.755315 0.842911 0.000000
0.810088 0.842911 0.000000
0.864368 0.842911 0.000000
0.915685 0.842911 0.000000
0.965775 0.842911 0.000000
0.000000 0.901829 0.000000
0.040933 0.901829 0.000000
0.113498 0.901829 0.000000
0.206785 0.901829 0.000000
0.296191 0.901829 0.000000
0.376174 0.901829 0.000000
0.447930 0.901829 0.000000
0.515452 0.901829 0.000000
0.579415 0.901829 0.000000
0.640485 0.901829 0.000000
0.699495 0.901829 0.000000
0.755315 0.901829 0.000000
0.810088 0.901829 0.000000
0.864368 0.901829 0.000000
0.915685 0.901829 0.000000
0.965775 0.901829 0.000000
0.000000 0.000000 0.015456
0.040933 0.000000 0.015456
0.113498 0.000000 0.015456
0.206785 0.000000 0.015456
0.296191 0.000000 0.015456
0.376174 0.000000 0.015456
0.447930 0.000000 0.015456
0.515452 0.000000 0.015456
0.579415 0.000000 0.015456
0.640485 0.000000 0.015456
0.699495 0.000000 0.015456
0.755315 0.000000 0.015456
0.810088 0.000000 0.015456
0.864368 0.000000 0.015456
0.915685 0.000000 0.015456
0.965775 0.000000 0.015456
0.000000 0.019830 0.015456
0.040933 0.019830 0.015456
0.113498 0.019830 0.015456
0.206785 0.019830 0.015456
0.296191 0.019830 0.015456
0.376174 0.019830 0.015456
0.447930 0.019830 0.015456
0.515452 0.019830 0.015456
0.579415 0.019830 0.015456
0.640485 0.019830 0.015456
0.699495 0.019830 0.015456
0.755315 0.019830 0.015456
0.810088 0.019830 0.015456
0.864368 0.019830 0.015456
0.915685 0.019830 0.015456
0.965775 0.019830 0.015456
0.000000 0.067496 0.015456
0.040933 0.067496 0.015456
0.113498 0.067496 0.015456
0.206785 0.067496 0.015456
0.296191 0.067496 0.015456
0.376174 0.067496 0.015456
0.447930 0.067496 0.015456
0.515452 0.067496 0.015456
0.579415 0.067496 0.015456
0.640485 0.067496 0.015456
0.699495 0.067496 0.015456
0.755315 0.067496 0.015456
0.810088 0.067496 0.015456
0.864368 0.067496 0.015456
0.915685 0.067496 0.015456
0.965775 0.067496 0.015456
0.000000 0.136903 0.015456
0.040933 0.136903 0.015456
0.113498 0.136903 0.015456
0.206785 0.136903 0.015456
0.296191 0.136903 0.015456
0.376174 0.136903 0.015456
0.447930 0.136903 0.015456
0.515452 0.136903 0.015456
0.579415 0.136903 0.015456
0.640485 0.136903 0.015456
0.699495 0.136903 0.015456
0.755315 0.136903 0.015456
0.810088 0.136903 0.015456
0.864368 0.136903 0.015456
0.915685 0.136903 0.015456
0.965775 0.136903 0.015456
0.000000 0.208317 0.015456
0.040933 0.208317 0.015456
0.113498 0.208317 0.015456
0.206785 0.208317 0.015456
0.296191 0.208317 0.015456
0.376174 0.208317 0.015456
0.447930 0.208317 0.015456
0.515452 0.208317 0.015456
0.579415 0.208317 0.015456
0.640485 0.208317 0.015456
0.699495 0.208317 0.015456
0.755315 0.208317 0.015456
0.810088 0.208317 0.015456
0.864368 0.208317 0.015456
0.915685 0.208317 0.015456
0.965775 0.208317 0.015456
0.000000 0.277035 0.015456
0.040933 0.277035 0.015456
0.113498 0.277035 0.015456
0.206785 0.277035 0.015456
0.296191 0.277035 0.015456
0.376174 0.277035 0.015456
0.447930 0.277035 0.015456
0.515452 0.277035 0.015456
0.579415 0.277035 0.015456
0.640485 0.277035 0.015456
0.699495 0.277035 0.015456
0.755315 0.277035 0.015456
0.810088 0.277035 0.015456
0.864368 0.277035 0.015456
0.915685 0.277035 0.015456
0.965775 0.277035 0.015456
0.000000 0.343937 0.015456
0.040933 0.343937 0.015456
0.113498 0.343937 0.015456
0.206785 0.343937 0.015456
0.296191 0.343937 0.015456
0.376174 0.343937 0.015456
0.447930 0.343937 0.015456
0.515452 0.343937 0.015456
0.579415 0.343937 0.015456
0.640485 0.343937 0.015456
0.699495 0.343937 0.015456
0.755315 0.343937 0.015456
0.810088 0.343937 0.015456
0.864368 0.343937 0.015456
0.915685 0.343937 0.015456
0.965775 0.343937 0.015456
0.000000 0.409294 0.015456
0.040933 0.409294 0.015456
0.113498 0.409294 0.015456
0.206785 0.409294 0.015456
0.296191 0.409294 0.015456
0.376174 0.409294 0.015456
0.447930 0.409294 0.015456
0.515452 0.409294 0.015456
0.579415 0.409294 0.015456
0.640485 0.409294 0.015456
0.699495 0.409294 0.015456
0.755315 0.409294 0.015456
0.810088 0.409294 0.015456
0.864368 0.409294 0.015456
0.915685 0.409294 0.015456
0.965775 0.409294 0.015456
0.000000 0.473616 0.015456
0.040933 0.473616 0.015456
0.113498 0.473616 0.015456
0.206785 0.473616 0.015456
0.296191 0.473616 0.015456
0.376174 0.473616 0.015456
0.447930 0.473616 0.015456
0.515452 0.473616 0.015456
0.579415 0.473616 0.015456
0.640485 0.473616 0.015456
0.699495 0.473616 0.015456
0.755315 0.473616 0.015456
0.810088 0.473616 0.015456
0.864368 0.473616 0.015456
0.915685 0.473616 0.015456
0.965775 0.473616 0.015456
0.000000 0.536974 0.015456
0.040933 0.536974 0.015456
0.113498 0.536974 0.015456
0.206785 0.536974 0.015456
0.296191 0.536974 0.015456
0.376174 0.536974 0.015456
0.447930 0.536974 0.015456
0.515452 0.536974 0.015456
0.579415 0.536974 0.015456
0.640485 0.536974 0.015456
0.699495 0.536974 0.015456
0.755315 0.536974 0.015456
0.810088 0.536974 0.015456
0.864368 0.536974 0.015456
0.915685 0.536974 0.015456
0.965775 0.536974 0.015456
0.000000 0.599411 0.015456
0.040933 0.599411 0.015456
0.113498 0.599411 0.015456
0.206785 0.599411 0.015456
0.296191 0.599411 0.015456
0.376174 0.599411 0.015456
0.447930 0.599411 0.015456
0.515452 0.599411 0.015456
0.579415 0.599411 0.015456
0.640485 0.599411 0.015456
0.699495 0.599411 0.015456
0.755315 0.599411 0.015456
0.810088 0.599411 0.015456
0.864368 0.599411 0.015456
0.915685 0.599411 0.015456
0.965775 0.599411 0.015456
0.000000 0.661225 0.015456
0.040933 0.661225 0.015456
0.113498 0.661225 0.015456
0.206785 0.661225 0.015456
0.296191 0.661225 0.015456
0.376174 0.661225 0.015456
0.447930 0.661225 0.015456
0.515452 0.661225 0.015456
0.579415 0.661225 0.015456
0.640485 0.661225 0.015456
0.699495 0.661225 0.015456
0.755315 0.661225 0.015456
0.810088 0.661225 0.015456
0.864368 0.661225 0.015456
0.915685 0.661225 0.015456
0.965775 0.661225 0.015456
0.000000 0.722359 0.015456
0.040933 0.722359 0.015456
0.113498 0.722359 0.015456
0.206785 0.722359 0.015456
0.296191 0.722359 0.015456
0.376174 0.722359 0.015456
0.447930 0.722359 0.015456
0.515452 0.722359 0.015456
0.579415 0.722359 0.015456
0.640485 0.722359 0.015456
0.699495 0.722359 0.015456
0.755315 0.722359 0.015456
0.810088 0.722359 0.015456
0.864368 0.722359 0.015456
0.915685 0.722359 0.015456
0.965775 0.722359 0.015456
0.000000 0.783014 0.015456
0.040933 0.783014 0.015456
0.113498 0.783014 0.015456
0.206785 0.783014 0.015456
0.296191 0.783014 0.015456
0.376174 0.783014 0.015456
0.447930 0.783014 0.015456
0.515452 0.783014 0.015456
0.579415 0.783014 0.015456
0.640485 0.783014 0.015456
0.699495 0.783014 0.015456
0.755315 0.783014 0.015456
0.810088 0.783014 0.015456
0.864368 0.783014 0.015456
0.915685 0.783014 0.015456
0.965775 0.783014 0.015456
0.000000 0.842911 0.015456
0.040933 0.842911 0.015456
0.113498 0.842911 0.015456
0.206785 0.842911 0.015456
0.296191 0.842911 0.015456
0.376174 0.842911 0.015456
0.447930 0.842911 0.015456
0.515452 0.842911 0.015456
0.579415 0.842911 0.015456
0.640485 0.842911 0.015456
0.699495 0.842911 0.015456
0.755315 0.842911 0.015456
0.810088 0.842911 0.015456
0.864368 0.842911 0.015456
0.915685 0.842911 0.015456
0.965775 0.842911 0.015456
0.000000 0.901829 0.015456
0.040933 0.901829 0.015456
0.113498 0.901829 0.015456
0.206785 0.901829 0.015456
0.296191 0.901829 0.015456
0.376174 0.901829 0.015456
0.447930 0.901829 0.015456
0.515452 0.901829 0.015456
0.579415 0.901829 0.015456
0.640485 0.901829 0.015456
0.699495 0.901829 0.015456
0.755315 0.901829 0.015456
0.810088 0.901829 0.015456
0.864368 0.901829 0.015456
0.915685 0.901829 0.015456
0.965775 0.901829 0.015456
0.000000 0.000000 0.057391
0.040933 0.000000 0.057391
0.113498 0.000000 0.057391
0.206785 0.000000 0.057391
0.296191 0.000000 0.057391
0.376174 0.000000 0.057391
0.447930 0.000000 0.057391
0.515452 0.000000 0.057391
0.579415 0.000000 0.057391
0.640485 0.000000 0.057391
0.699495 0.000000 0.057391
0.755315 0.000000 0.057391
0.810088 0.000000 0.057391
0.864368 0.000000 0.057391
0.915685 0.000000 0.057391
0.965775 0.000000 0.057391
0.000000 0.019830 0.057391
0.040933 0.019830 0.057391
0.113498 0.019830 0.057391
0.206785 0.019830 0.057391
0.296191 0.019830 0.057391
0.376174 0.019830 0.057391
0.447930 0.019830 0.057391
0.515452 0.019830 0.057391
0.579415 0.019830 0.057391
0.640485 0.019830 0.057391
0.699495 0.019830 0.057391
0.755315 0.019830 0.057391
0.810088 0.019830 0.057391
0.864368 0.019830 0.057391
0.915685 0.019830 0.057391
0.965775 0.019830 0.057391
0.000000 0.067496 0.057391
0.040933 0.067496 0.057391
0.113498 0.067496 0.057391
0.206785 0.067496 0.057391
0.296191 0.067496 0.057391
0.376174 0.067496 0.057391
0.447930 0.067496 0.057391
0.515452 0.067496 0.057391
0.579415 0.067496 0.057391
0.640485 0.067496 0.057391
0.699495 0.067496 0.057391
0.755315 0.067496 0.057391
0.810088 0.067496 0.057391
0.864368 0.067496 0.057391
0.915685 0.067496 0.057391
0.965775 0.067496 0.057391
0.000000 0.136903 0.057391
0.040933 0.136903 0.057391
0.113498 0.136903 0.057391
0.206785 0.136903 0.057391
0.296191 0.136903 0.057391
0.376174 0.136903 0.057391
0.447930 0.136903 0.057391
0.515452 0.136903 0.057391
0.579415 0.136903 0.057391
0.640485 0.136903 0.057391
0.699495 0.136903 0.057391
0.755315 0.136903 0.057391
0.810088 0.136903 0.057391
0.864368 0.136903 0.057391
0.915685 0.136903 0.057391
0.965775 0.136903 0.057391
0.000000 0.208317 0.057391
0.040933 0.208317 0.057391
0.113498 0.208317 0.057391
0.206785 0.208317 0.057391
0.296191 0.208317 0.057391
0.376174 0.208317 0.057391
0.447930 0.208317 0.057391
0.515452 0.208317 0.057391
0.579415 0.208317 0.057391
0.640485 0.208317 0.057391
0.699495 0.208317 0.057391
0.755315 0.208317 0.057391
0.810088 0.208317 0.057391
0.864368 0.208317 0.057391
0.915685 0.208317 0.057391
0.965775 0.208317 0.057391
0.000000 0.277035 0.057391
0.040933 0.277035 0.057391
0.113498 0.277035 0.057391
0.206785 0.277035 0.057391
0.296191 0.277035 0.057391
0.376174 0.277035 0.057391
0.447930 0.277035 0.057391
0.515452 0.277035 0.057391
0.579415 0.277035 0.057391
0.640485 0.277035 0.057391
0.699495 0.277035 0.057391
0.755315 0.277035 0.057391
0.810088 0.277035 0.057391
0.864368 0.277035 0.057391
0.915685 0.277035 0.057391
0.965775 0.277035 0.057391
0.000000 0.343937 0.057391
0.040933 0.343937 0.057391
0.113498 0.343937 0.057391
0.206785 0.343937 0.057391
0.296191 0.343937 0.057391
0.376174 0.343937 0.057391
0.447930 0.343937 0.057391
0.515452 0.343937 0.057391
0.579415 0.343937 0.057391
0.640485 0.343937 0.057391
0.699495 0.343937 0.057391
0.755315 0.343937 0.057391
0.810088 0.343937 0.057391
0.864368 0.343937 0.057391
0.915685 0.343937 0.057391
0.965775 0.343937 0.057391
0.000000 0.409294 0.057391
0.040933 0.409294 0.057391
0.113498 0.409294 0.057391
0.206785 0.409294 0.057391
0.296191 0.409294 0.057391
0.376174 0.409294 0.057391
0.447930 0.409294 0.057391
0.515452 0.409294 0.057391
0.579415 0.409294 0.057391
0.640485 0.409294 0.057391
0.699495 0.409294 0.057391
0.755315 0.409294 0.057391
0.810088 0.409294 0.057391
0.864368 0.409294 0.057391
0.915685 0.409294 0.057391
0.965775 0.409294 0.057391
0.000000 0.473616 0.057391
0.040933 0.473616 0.057391
0.113498 0.473616 0.057391
0.206785 0.473616 0.057391
0.296191 0.473616 0.057391
0.376174 0.473616 0.057391
0.447930 0.473616 0.057391
0.515452 0.473616 0.057391
0.579415 0.473616 0.057391
0.640485 0.473616 0.057391
0.699495 0.473616 0.057391
0.755315 0.473616 0.057391
0.810088 0.473616 0.057391
0.864368 0.473616 0.057391
0.915685 0.473616 0.057391
0.965775 0.473616 0.057391
0.000000 0.536974 0.057391
0.040933 0.536974 0.057391
0.113498 0.536974 0.057391
0.206785 0.536974 0.057391
0.296191 0.536974 0.057391
0.376174 0.536974 0.057391
0.447930 0.536974 0.057391
0.515452 0.536974 0.057391
0.579415 0.536974 0.057391
0.640485 0.536974 0.057391
0.699495 0.536974 0.057391
0.755315 0.536974 0.057391
0.810088 0.536974 0.057391
0.864368 0.536974 0.057391
0.915685 0.536974 0.057391
0.965775 0.536974 0.057391
0.000000 0.599411 0.057391
0.040933 0.599411 0.057391
0.113498 0.599411 0.057391
0.206785 0.599411 0.057391
0.296191 0.599411 0.057391
0.376174 0.599411 0.057391
0.447930 0.599411 0.057391
0.515452 0.599411 0.057391
0.579415 0.599411 0.057391
0.640485 0.599411 0.057391
0.699495 0.599411 0.057391
0.755315 0.599411 0.057391
0.810088 0.599411 0.057391
0.864368 0.599411 0.057391
0.915685 0.599411 0.057391
0.965775 0.599411 0.057391
0.000000 0.661225 0.057391
0.040933 0.661225 0.057391
0.113498 0.661225 0.057391
0.206785 0.661225 0.057391
0.296191 0.661225 0.057391
0.376174 0.661225 0.057391
0.447930 0.661225 0.057391
0.515452 0.661225 0.057391
0.579415 0.661225 0.057391
0.640485 0.661225 0.057391
0.699495 0.661225 0.057391
0.755315 0.661225 0.057391
0.810088 0.661225 0.057391
0.864368 0.661225 0.057391
0.915685 0.661225 0.057391
0.965775 0.661225 0.057391
0.000000 0.722359 0.057391
0.040933 0.722359 0.057391
0.113498 0.722359 0.057391
0.206785 0.722359 0.057391
0.296191 0.722359 0.057391
0.376174 0.722359 0.057391
0.447930 0.722359 0.057391
0.515452 0.722359 0.057391
0.579415 0.722359 0.057391
0.640485 0.722359 0.057391
0.699495 0.722359 0.057391
0.755315 0.722359 0.057391
0.810088 0.722359 0.057391
0.864368 0.722359 0.057391
0.915685 0.722359 0.057391
0.965775 0.722359 0.057391
0.000000 0.783014 0.057391
0.040933 0.783014 0.057391
0.113498 0.783014 0.057391
0.206785 0.783014 0.057391
0.296191 0.783014 0.057391
0.376174 0.783014 0.057391
0.447930 0.783014 0.057391
0.515452 0.783014 0.057391
0.579415 0.783014 0.057391
0.640485 0.783014 0.057391
0.699495 0.783014 0.057391
0.755315 0.783014 0.057391
0.810088 0.783014 0.057391
0.864368 0.783014 0.057391
0.915685 0.783014 0.057391
0.965775 0.783014 0.057391
0.000000 0.842911 0.057391
0.040933 0.842911 0.057391
0.113498 0.842911 0.057391
0.206785 0.842911 0.057391
0.296191 0.842911 0.057391
0.376174 0.842911 0.057391
0.447930 0.842911 0.057391
0.515452 0.842911 0.057391
0.579415 0.842911 0.057391
0.640485 0.842911 0.057391
0.699495 0.842911 0.057391
0.755315 0.842911 0.057391
0.810088 0.842911 0.057391
0.864368 0.842911 0.057391
0.915685 0.842911 0.057391
0.965775 0.842911 0.057391
0.000000 0.901829 0.057391
0.040933 0.901829 0.057391
0.113498 0.901829 0.057391
0.206785 0.901829 0.057391
0.296191 0.901829 0.057391
0.376174 0.901829 0.057391
0.447930 0.901829 0.057391
0.515452 0.901829 0.057391
0.579415 0.901829 0.057391
0.640485 0.901829 0.057391
0.699495 0.901829 0.057391
0.755315 0.901829 0.057391
0.810088 0.901829 0.057391
0.864368 0.901829 0.057391
0.915685 0.901829 0.057391
0.965775 0.901829 0.057391
0.000000 0.000000 0.122761
0.040933 0.000000 0.122761
0.113498 0.000000 0.122761
0.206785 0.000000 0.122761
0.296191 0.000000 0.122761
0.376174 0.000000 0.122761
0.447930 0.000000 0.122761
0.515452 0.000000 0.122761
0.579415 0.000000 0.122761
0.640485 0.000000 0.122761
0.699495 0.000000 0.122761
0.755315 0.000000 0.122761
0.810088 0.000000 0.122761
0.864368 0.000000 0.122761
0.915685 0.000000 0.122761
0.965775 0.000000 0.122761
0.000000 0.019830 0.122761
0.040933 0.019830 0.122761
0.113498 0.019830 0.122761
0.206785 0.019830 0.122761
0.296191 0.019830 0.122761
0.376174 0.019830 0.122761
0.447930 0.019830 0.122761
0.515452 0.019830 0.122761
0.579415 0.019830 0.122761
0.640485 0.019830 0.122761
0.699495 0.019830 0.122761
0.755315 0.019830 0.122761
0.810088 0.019830 0.122761
0.864368 0.019830 0.122761
0.915685 0.019830 0.122761
0.965775 0.019830 0.122761
0.000000 0.067496 0.122761
0.040933 0.067496 0.122761
0.113498 0.067496 0.122761
0.206785 0.067496 0.122761
0.296191 0.067496 0.122761
0.376174 0.067496 0.122761
0.447930 0.067496 0.122761
0.515452 0.067496 0.122761
0.579415 0.067496 0.122761
0.640485 0.067496 0.122761
0.699495 0.067496 0.122761
0.755315 0.067496 0.122761
0.810088 0.067496 0.122761
0.864368 0.067496 0.122761
0.915685 0.067496 0.122761
0.965775 0.067496 0.122761
0.000000 0.136903 0.122761
0.040933 0.136903 0.122761
0.113498 0.136903 0.122761
0.206785 0.136903 0.122761
0.296191 0.136903 0.122761
0.376174 0.136903 0.122761
0.447930 0.136903 0.122761
0.515452 0.136903 0.122761
0.579415 0.136903 0.122761
0.640485 0.136903 0.122761
0.699495 0.136903 0.122761
0.755315 0.136903 0.122761
0.810088 0.136903 0.122761
0.864368 0.136903 0.122761
0.915685 0.136903 0.122761
0.965775 0.136903 0.122761
0.000000 0.208317 0.122761
0.040933 0.208317 0.122761
0.113498 0.208317 0.122761
0.206785 0.208317 0.122761
0.296191 0.208317 0.122761
0.376174 0.208317 0.122761
0.447930 0.208317 0.122761
0.515452 0.208317 0.122761
0.579415 0.208317 0.122761
0.640485 0.208317 0.122761
0.699495 0.208317 0.122761
0.755315 0.208317 0.122761
0.810088 0.208317 0.122761
0.864368 0.208317 0.122761
0.915685 0.208317 0.122761
0.965775 0.208317 0.122761
0.000000 0.277035 0.122761
0.040933 0.277035 0.122761
0.113498 0.277035 0.122761
0.206785 0.277035 0.122761
0.296191 0.277035 0.122761
0.376174 0.277035 0.122761
0.447930 0.277035 0.122761
0.515452 0.277035 0.122761
0.579415 0.277035 0.122761
0.640485 0.277035 0.122761
0.699495 0.277035 0.122761
0.755315 0.277035 0.122761
0.810088 0.277035 0.122761
0.864368 0.277035 0.122761
0.915685 0.277035 0.122761
0.965775 0.277035 0.122761
0.000000 0.343937 0.122761
0.040933 0.343937 0.122761
0.113498 0.343937 0.122761
0.206785 0.343937 0.122761
0.296191 0.343937 0.122761
0.376174 0.343937 0.122761
0.447930 0.343937 0.122761
0.515452 0.343937 0.122761
0.579415 0.343937 0.122761
0.640485 0.343937 0.122761
0.699495 0.343937 0.122761
0.755315 0.343937 0.122761
0.810088 0.343937 0.122761
0.864368 0.343937 0.122761
0.915685 0.343937 0.122761
0.965775 0.343937 0.122761
0.000000 0.409294 0.122761
0.040933 0.409294 0.122761
0.113498 0.409294 0.122761
0.206785 0.409294 0.122761
0.296191 0.409294 0.122761
0.376174 0.409294 0.122761
0.447930 0.409294 0.122761
0.515452 0.409294 0.122761
