example_ofxGpuLutCube/bin/data/ofxGpuLutCube/LUT/A15 (smooth sunset fade).cube
LUT_3D_SIZE 16
0.000000 0.000000 0.000000
0.049429 0.000000 0.000000
0.121555 0.000000 0.000000
0.202215 0.000000 0.000000
0.275817 0.000000 0.000000
0.345207 0.000000 0.000000
0.409532 0.000000 0.000000
0.471591 0.000000 0.000000
0.531445 0.000000 0.000000
0.589548 0.000000 0.000000
0.646428 0.000000 0.000000
0.700863 0.000000 0.000000
0.754731 0.000000 0.000000
0.808674 0.000000 0.000000
0.859966 0.000000 0.000000
0.910638 0.000000 0.000000
0.000000 0.027077 0.000000
0.049429 0.027077 0.000000
0.121555 0.027077 0.000000
0.202215 0.027077 0.000000
0.275817 0.027077 0.000000
0.345207 0.027077 0.000000
0.409532 0.027077 0.000000
0.471591 0.027077 0.000000
0.531445 0.027077 0.000000
0.589548 0.027077 0.000000
0.646428 0.027077 0.000000
0.700863 0.027077 0.000000
0.754731 0.027077 0.000000
0.808674 0.027077 0.000000
0.859966 0.027077 0.000000
0.910638 0.027077 0.000000
0.000000 0.076528 0.000000
0.049429 0.076528 0.000000
0.121555 0.076528 0.000000
0.202215 0.076528 0.000000
0.275817 0.076528 0.000000
0.345207 0.076528 0.000000
0.409532 0.076528 0.000000
0.471591 0.076528 0.000000
0.531445 0.076528 0.000000
0.589548 0.076528 0.000000
0.646428 0.076528 0.000000
0.700863 0.076528 0.000000
0.754731 0.076528 0.000000
0.808674 0.076528 0.000000
0.859966 0.076528 0.000000
0.910638 0.076528 0.000000
0.000000 0.137413 0.000000
0.049429 0.137413 0.000000
0.121555 0.137413 0.000000
0.202215 0.137413 0.000000
0.275817 0.137413 0.000000
0.345207 0.137413 0.000000
0.409532 0.137413 0.000000
0.471591 0.137413 0.000000
0.531445 0.137413 0.000000
0.589548 0.137413 0.000000
0.646428 0.137413 0.000000
0.700863 0.137413 0.000000
0.754731 0.137413 0.000000
0.808674 0.137413 0.000000
0.859966 0.137413 0.000000
0.910638 0.137413 0.000000
0.000000 0.195840 0.000000
0.049429 0.195840 0.000000
0.121555 0.195840 0.000000
0.202215 0.195840 0.000000
0.275817 0.195840 0.000000
0.345207 0.195840 0.000000
0.409532 0.195840 0.000000
0.471591 0.195840 0.000000
0.531445 0.195840 0.000000
0.589548 0.195840 0.000000
0.646428 0.195840 0.000000
0.700863 0.195840 0.000000
0.754731 0.195840 0.000000
0.808674 0.195840 0.000000
0.859966 0.195840 0.000000
0.910638 0.195840 0.000000
0.000000 0.251801 0.000000
0.049429 0.251801 0.000000
0.121555 0.251801 0.000000
0.202215 0.251801 0.000000
0.275817 0.251801 0.000000
0.345207 0.251801 0.000000
0.409532 0.251801 0.000000
0.471591 0.251801 0.000000
0.531445 0.251801 0.000000
0.589548 0.251801 0.000000
0.646428 0.251801 0.000000
0.700863 0.251801 0.000000
0.754731 0.251801 0.000000
0.808674 0.251801 0.000000
0.859966 0.251801 0.000000
0.910638 0.251801 0.000000
0.000000 0.305991 0.000000
0.049429 0.305991 0.000000
0.121555 0.305991 0.000000
0.202215 0.305991 0.000000
0.275817 0.305991 0.000000
0.345207 0.305991 0.000000
0.409532 0.305991 0.000000
0.471591 0.305991 0.000000
0.531445 0.305991 0.000000
0.589548 0.305991 0.000000
0.646428 0.305991 0.000000
0.700863 0.305991 0.000000
0.754731 0.305991 0.000000
0.808674 0.305991 0.000000
0.859966 0.305991 0.000000
0.910638 0.305991 0.000000
0.000000 0.358773 0.000000
0.049429 0.358773 0.000000
0.121555 0.358773 0.000000
0.202215 0.358773 0.000000
0.275817 0.358773 0.000000
0.345207 0.358773 0.000000
0.409532 0.358773 0.000000
0.471591 0.358773 0.000000
0.531445 0.358773 0.000000
0.589548 0.358773 0.000000
0.646428 0.358773 0.000000
0.700863 0.358773 0.000000
0.754731 0.358773 0.000000
0.808674 0.358773 0.000000
0.859966 0.358773 0.000000
0.910638 0.358773 0.000000
0.000000 0.410502 0.000000
0.049429 0.410502 0.000000
0.121555 0.410502 0.000000
0.202215 0.410502 0.000000
0.275817 0.410502 0.000000
0.345207 0.410502 0.000000
0.409532 0.410502 0.000000
0.471591 0.410502 0.000000
0.531445 0.410502 0.000000
0.589548 0.410502 0.000000
0.646428 0.410502 0.000000
0.700863 0.410502 0.000000
0.754731 0.410502 0.000000
0.808674 0.410502 0.000000
0.859966 0.410502 0.000000
0.910638 0.410502 0.000000
0.000000 0.461262 0.000000
0.049429 0.461262 0.000000
0.121555 0.461262 0.000000
0.202215 0.461262 0.000000
0.275817 0.461262 0.000000
0.345207 0.461262 0.000000
0.409532 0.461262 0.000000
0.471591 0.461262 0.000000
0.531445 0.461262 0.000000
0.589548 0.461262 0.000000
0.646428 0.461262 0.000000
0.700863 0.461262 0.000000
0.754731 0.461262 0.000000
0.808674 0.461262 0.000000
0.859966 0.461262 0.000000
0.910638 0.461262 0.000000
0.000000 0.511225 0.000000
0.049429 0.511225 0.000000
0.121555 0.511225 0.000000
0.202215 0.511225 0.000000
0.275817 0.511225 0.000000
0.345207 0.511225 0.000000
0.409532 0.511225 0.000000
0.471591 0.511225 0.000000
0.531445 0.511225 0.000000
0.589548 0.511225 0.000000
0.646428 0.511225 0.000000
0.700863 0.511225 0.000000
0.754731 0.511225 0.000000
0.808674 0.511225 0.000000
0.859966 0.511225 0.000000
0.910638 0.511225 0.000000
0.000000 0.560498 0.000000
0.049429 0.560498 0.000000
0.121555 0.560498 0.000000
0.202215 0.560498 0.000000
0.275817 0.560498 0.000000
0.345207 0.560498 0.000000
0.409532 0.560498 0.000000
0.471591 0.560498 0.000000
0.531445 0.560498 0.000000
0.589548 0.560498 0.000000
0.646428 0.560498 0.000000
0.700863 0.560498 0.000000
0.754731 0.560498 0.000000
0.808674 0.560498 0.000000
0.859966 0.560498 0.000000
0.910638 0.560498 0.000000
0.000000 0.609070 0.000000
0.049429 0.609070 0.000000
0.121555 0.609070 0.000000
0.202215 0.609070 0.000000
0.275817 0.609070 0.000000
0.345207 0.609070 0.000000
0.409532 0.609070 0.000000
0.471591 0.609070 0.000000
0.531445 0.609070 0.000000
0.589548 0.609070 0.000000
0.646428 0.609070 0.000000
0.700863 0.609070 0.000000
0.754731 0.609070 0.000000
0.808674 0.609070 0.000000
0.859966 0.609070 0.000000
0.910638 0.609070 0.000000
0.000000 0.657245 0.000000
0.049429 0.657245 0.000000
0.121555 0.657245 0.000000
0.202215 0.657245 0.000000
0.275817 0.657245 0.000000
0.345207 0.657245 0.000000
0.409532 0.657245 0.000000
0.471591 0.657245 0.000000
0.531445 0.657245 0.000000
0.589548 0.657245 0.000000
0.646428 0.657245 0.000000
0.700863 0.657245 0.000000
0.754731 0.657245 0.000000
0.808674 0.657245 0.000000
0.859966 0.657245 0.000000
0.910638 0.657245 0.000000
0.000000 0.704643 0.000000
0.049429 0.704643 0.000000
0.121555 0.704643 0.000000
0.202215 0.704643 0.000000
0.275817 0.704643 0.000000
0.345207 0.704643 0.000000
0.409532 0.704643 0.000000
0.471591 0.704643 0.000000
0.531445 0.704643 0.000000
0.589548 0.704643 0.000000
0.646428 0.704643 0.000000
0.700863 0.704643 0.000000
0.754731 0.704643 0.000000
0.808674 0.704643 0.000000
0.859966 0.704643 0.000000
0.910638 0.704643 0.000000
0.000000 0.751245 0.000000
0.049429 0.751245 0.000000
0.121555 0.751245 0.000000
0.202215 0.751245 0.000000
0.275817 0.751245 0.000000
0.345207 0.751245 0.000000
0.409532 0.751245 0.000000
0.471591 0.751245 0.000000
0.531445 0.751245 0.000000
0.589548 0.751245 0.000000
0.646428 0.751245 0.000000
0.700863 0.751245 0.000000
0.754731 0.751245 0.000000
0.808674 0.751245 0.000000
0.859966 0.751245 0.000000
0.910638 0.751245 0.000000
0.000000 0.000000 0.019519
0.049429 0.000000 0.019519
0.121555 0.000000 0.019519
0.202215 0.000000 0.019519
0.275817 0.000000 0.019519
0.345207 0.000000 0.019519
0.409532 0.000000 0.019519
0.471591 0.000000 0.019519
0.531445 0.000000 0.019519
0.589548 0.000000 0.019519
0.646428 0.000000 0.019519
0.700863 0.000000 0.019519
0.754731 0.000000 0.019519
0.808674 0.000000 0.019519
0.859966 0.000000 0.019519
0.910638 0.000000 0.019519
0.000000 0.027077 0.019519
0.049429 0.027077 0.019519
0.121555 0.027077 0.019519
0.202215 0.027077 0.019519
0.275817 0.027077 0.019519
0.345207 0.027077 0.019519
0.409532 0.027077 0.019519
0.471591 0.027077 0.019519
0.531445 0.027077 0.019519
0.589548 0.027077 0.019519
0.646428 0.027077 0.019519
0.700863 0.027077 0.019519
0.754731 0.027077 0.019519
0.808674 0.027077 0.019519
0.859966 0.027077 0.019519
0.910638 0.027077 0.019519
0.000000 0.076528 0.019519
0.049429 0.076528 0.019519
0.121555 0.076528 0.019519
0.202215 0.076528 0.019519
0.275817 0.076528 0.019519
0.345207 0.076528 0.019519
0.409532 0.076528 0.019519
0.471591 0.076528 0.019519
0.531445 0.076528 0.019519
0.589548 0.076528 0.019519
0.646428 0.076528 0.019519
0.700863 0.076528 0.019519
0.754731 0.076528 0.019519
0.808674 0.076528 0.019519
0.859966 0.076528 0.019519
0.910638 0.076528 0.019519
0.000000 0.137413 0.019519
0.049429 0.137413 0.019519
0.121555 0.137413 0.019519
0.202215 0.137413 0.019519
0.275817 0.137413 0.019519
0.345207 0.137413 0.019519
0.409532 0.137413 0.019519
0.471591 0.137413 0.019519
0.531445 0.137413 0.019519
0.589548 0.137413 0.019519
0.646428 0.137413 0.019519
0.700863 0.137413 0.019519
0.754731 0.137413 0.019519
0.808674 0.137413 0.019519
0.859966 0.137413 0.019519
0.910638 0.137413 0.019519
0.000000 0.195840 0.019519
0.049429 0.195840 0.019519
0.121555 0.195840 0.019519
0.202215 0.195840 0.019519
0.275817 0.195840 0.019519
0.345207 0.195840 0.019519
0.409532 0.195840 0.019519
0.471591 0.195840 0.019519
0.531445 0.195840 0.019519
0.589548 0.195840 0.019519
0.646428 0.195840 0.019519
0.700863 0.195840 0.019519
0.754731 0.195840 0.019519
0.808674 0.195840 0.019519
0.859966 0.195840 0.019519
0.910638 0.195840 0.019519
0.000000 0.251801 0.019519
0.049429 0.251801 0.019519
0.121555 0.251801 0.019519
0.202215 0.251801 0.019519
0.275817 0.251801 0.019519
0.345207 0.251801 0.019519
0.409532 0.251801 0.019519
0.471591 0.251801 0.019519
0.531445 0.251801 0.019519
0.589548 0.251801 0.019519
0.646428 0.251801 0.019519
0.700863 0.251801 0.019519
0.754731 0.251801 0.019519
0.808674 0.251801 0.019519
0.859966 0.251801 0.019519
0.910638 0.251801 0.019519
0.000000 0.305991 0.019519
0.049429 0.305991 0.019519
0.121555 0.305991 0.019519
0.202215 0.305991 0.019519
0.275817 0.305991 0.019519
0.345207 0.305991 0.019519
0.409532 0.305991 0.019519
0.471591 0.305991 0.019519
0.531445 0.305991 0.019519
0.589548 0.305991 0.019519
0.646428 0.305991 0.019519
0.700863 0.305991 0.019519
0.754731 0.305991 0.019519
0.808674 0.305991 0.019519
0.859966 0.305991 0.019519
0.910638 0.305991 0.019519
0.000000 0.358773 0.019519
0.049429 0.358773 0.019519
0.121555 0.358773 0.019519
0.202215 0.358773 0.019519
0.275817 0.358773 0.019519
0.345207 0.358773 0.019519
0.409532 0.358773 0.019519
0.471591 0.358773 0.019519
0.531445 0.358773 0.019519
0.589548 0.358773 0.019519
0.646428 0.358773 0.019519
0.700863 0.358773 0.019519
0.754731 0.358773 0.019519
0.808674 0.358773 0.019519
0.859966 0.358773 0.019519
0.910638 0.358773 0.019519
0.000000 0.410502 0.019519
0.049429 0.410502 0.019519
0.121555 0.410502 0.019519
0.202215 0.410502 0.019519
0.275817 0.410502 0.019519
0.345207 0.410502 0.019519
0.409532 0.410502 0.019519
0.471591 0.410502 0.019519
0.531445 0.410502 0.019519
0.589548 0.410502 0.019519
0.646428 0.410502 0.019519
0.700863 0.410502 0.019519
0.754731 0.410502 0.019519
0.808674 0.410502 0.019519
0.859966 0.410502 0.019519
0.910638 0.410502 0.019519
0.000000 0.461262 0.019519
0.049429 0.461262 0.019519
0.121555 0.461262 0.019519
0.202215 0.461262 0.019519
0.275817 0.461262 0.019519
0.345207 0.461262 0.019519
0.409532 0.461262 0.019519
0.471591 0.461262 0.019519
0.531445 0.461262 0.019519
0.589548 0.461262 0.019519
0.646428 0.461262 0.019519
0.700863 0.461262 0.019519
0.754731 0.461262 0.019519
0.808674 0.461262 0.019519
0.859966 0.461262 0.019519
0.910638 0.461262 0.019519
0.000000 0.511225 0.019519
0.049429 0.511225 0.019519
0.121555 0.511225 0.019519
0.202215 0.511225 0.019519
0.275817 0.511225 0.019519
0.345207 0.511225 0.019519
0.409532 0.511225 0.019519
0.471591 0.511225 0.019519
0.531445 0.511225 0.019519
0.589548 0.511225 0.019519
0.646428 0.511225 0.019519
0.700863 0.511225 0.019519
0.754731 0.511225 0.019519
0.808674 0.511225 0.019519
0.859966 0.511225 0.019519
0.910638 0.511225 0.019519
0.000000 0.560498 0.019519
0.049429 0.560498 0.019519
0.121555 0.560498 0.019519
0.202215 0.560498 0.019519
0.275817 0.560498 0.019519
0.345207 0.560498 0.019519
0.409532 0.560498 0.019519
0.471591 0.560498 0.019519
0.531445 0.560498 0.019519
0.589548 0.560498 0.019519
0.646428 0.560498 0.019519
0.700863 0.560498 0.019519
0.754731 0.560498 0.019519
0.808674 0.560498 0.019519
0.859966 0.560498 0.019519
0.910638 0.560498 0.019519
0.000000 0.609070 0.019519
0.049429 0.609070 0.019519
0.121555 0.609070 0.019519
0.202215 0.609070 0.019519
0.275817 0.609070 0.019519
0.345207 0.609070 0.019519
0.409532 0.609070 0.019519
0.471591 0.609070 0.019519
0.531445 0.609070 0.019519
0.589548 0.609070 0.019519
0.646428 0.609070 0.019519
0.700863 0.609070 0.019519
0.754731 0.609070 0.019519
0.808674 0.609070 0.019519
0.859966 0.609070 0.019519
0.910638 0.609070 0.019519
0.000000 0.657245 0.019519
0.049429 0.657245 0.019519
0.121555 0.657245 0.019519
0.202215 0.657245 0.019519
0.275817 0.657245 0.019519
0.345207 0.657245 0.019519
0.409532 0.657245 0.019519
0.471591 0.657245 0.019519
0.531445 0.657245 0.019519
0.589548 0.657245 0.019519
0.646428 0.657245 0.019519
0.700863 0.657245 0.019519
0.754731 0.657245 0.019519
0.808674 0.657245 0.019519
0.859966 0.657245 0.019519
0.910638 0.657245 0.019519
0.000000 0.704643 0.019519
0.049429 0.704643 0.019519
0.121555 0.704643 0.019519
0.202215 0.704643 0.019519
0.275817 0.704643 0.019519
0.345207 0.704643 0.019519
0.409532 0.704643 0.019519
0.471591 0.704643 0.019519
0.531445 0.704643 0.019519
0.589548 0.704643 0.019519
0.646428 0.704643 0.019519
0.700863 0.704643 0.019519
0.754731 0.704643 0.019519
0.808674 0.704643 0.019519
0.859966 0.704643 0.019519
0.910638 0.704643 0.019519
0.000000 0.751245 0.019519
0.049429 0.751245 0.019519
0.121555 0.751245 0.019519
0.202215 0.751245 0.019519
0.275817 0.751245 0.019519
0.345207 0.751245 0.019519
0.409532 0.751245 0.019519
0.471591 0.751245 0.019519
0.531445 0.751245 0.019519
0.589548 0.751245 0.019519
0.646428 0.751245 0.019519
0.700863 0.751245 0.019519
0.754731 0.751245 0.019519
0.808674 0.751245 0.019519
0.859966 0.751245 0.019519
0.910638 0.751245 0.019519
0.000000 0.000000 0.057442
0.049429 0.000000 0.057442
0.121555 0.000000 0.057442
0.202215 0.000000 0.057442
0.275817 0.000000 0.057442
0.345207 0.000000 0.057442
0.409532 0.000000 0.057442
0.471591 0.000000 0.057442
0.531445 0.000000 0.057442
0.589548 0.000000 0.057442
0.646428 0.000000 0.057442
0.700863 0.000000 0.057442
0.754731 0.000000 0.057442
0.808674 0.000000 0.057442
0.859966 0.000000 0.057442
0.910638 0.000000 0.057442
0.000000 0.027077 0.057442
0.049429 0.027077 0.057442
0.121555 0.027077 0.057442
0.202215 0.027077 0.057442
0.275817 0.027077 0.057442
0.345207 0.027077 0.057442
0.409532 0.027077 0.057442
0.471591 0.027077 0.057442
0.531445 0.027077 0.057442
0.589548 0.027077 0.057442
0.646428 0.027077 0.057442
0.700863 0.027077 0.057442
0.754731 0.027077 0.057442
0.808674 0.027077 0.057442
0.859966 0.027077 0.057442
0.910638 0.027077 0.057442
0.000000 0.076528 0.057442
0.049429 0.076528 0.057442
0.121555 0.076528 0.057442
0.202215 0.076528 0.057442
0.275817 0.076528 0.057442
0.345207 0.076528 0.057442
0.409532 0.076528 0.057442
0.471591 0.076528 0.057442
0.531445 0.076528 0.057442
0.589548 0.076528 0.057442
0.646428 0.076528 0.057442
0.700863 0.076528 0.057442
0.754731 0.076528 0.057442
0.808674 0.076528 0.057442
0.859966 0.076528 0.057442
0.910638 0.076528 0.057442
0.000000 0.137413 0.057442
0.049429 0.137413 0.057442
0.121555 0.137413 0.057442
0.202215 0.137413 0.057442
0.275817 0.137413 0.057442
0.345207 0.137413 0.057442
0.409532 0.137413 0.057442
0.471591 0.137413 0.057442
0.531445 0.137413 0.057442
0.589548 0.137413 0.057442
0.646428 0.137413 0.057442
0.700863 0.137413 0.057442
0.754731 0.137413 0.057442
0.808674 0.137413 0.057442
0.859966 0.137413 0.057442
0.910638 0.137413 0.057442
0.000000 0.195840 0.057442
0.049429 0.195840 0.057442
0.121555 0.195840 0.057442
0.202215 0.195840 0.057442
0.275817 0.195840 0.057442
0.345207 0.195840 0.057442
0.409532 0.195840 0.057442
0.471591 0.195840 0.057442
0.531445 0.195840 0.057442
0.589548 0.195840 0.057442
0.646428 0.195840 0.057442
0.700863 0.195840 0.057442
0.754731 0.195840 0.057442
0.808674 0.195840 0.057442
0.859966 0.195840 0.057442
0.910638 0.195840 0.057442
0.000000 0.251801 0.057442
0.049429 0.251801 0.057442
0.121555 0.251801 0.057442
0.202215 0.251801 0.057442
0.275817 0.251801 0.057442
0.345207 0.251801 0.057442
0.409532 0.251801 0.057442
0.471591 0.251801 0.057442
0.531445 0.251801 0.057442
0.589548 0.251801 0.057442
0.646428 0.251801 0.057442
0.700863 0.251801 0.057442
0.754731 0.251801 0.057442
0.808674 0.251801 0.057442
0.859966 0.251801 0.057442
0.910638 0.251801 0.057442
0.000000 0.305991 0.057442
0.049429 0.305991 0.057442
0.121555 0.305991 0.057442
0.202215 0.305991 0.057442
0.275817 0.305991 0.057442
0.345207 0.305991 0.057442
0.409532 0.305991 0.057442
0.471591 0.305991 0.057442
0.531445 0.305991 0.057442
0.589548 0.305991 0.057442
0.646428 0.305991 0.057442
0.700863 0.305991 0.057442
0.754731 0.305991 0.057442
0.808674 0.305991 0.057442
0.859966 0.305991 0.057442
0.910638 0.305991 0.057442
0.000000 0.358773 0.057442
0.049429 0.358773 0.057442
0.121555 0.358773 0.057442
0.202215 0.358773 0.057442
0.275817 0.358773 0.057442
0.345207 0.358773 0.057442
0.409532 0.358773 0.057442
0.471591 0.358773 0.057442
0.531445 0.358773 0.057442
0.589548 0.358773 0.057442
0.646428 0.358773 0.057442
0.700863 0.358773 0.057442
0.754731 0.358773 0.057442
0.808674 0.358773 0.057442
0.859966 0.358773 0.057442
0.910638 0.358773 0.057442
0.000000 0.410502 0.057442
0.049429 0.410502 0.057442
0.121555 0.410502 0.057442
0.202215 0.410502 0.057442
0.275817 0.410502 0.057442
0.345207 0.410502 0.057442
0.409532 0.410502 0.057442
0.471591 0.410502 0.057442
0.531445 0.410502 0.057442
0.589548 0.410502 0.057442
0.646428 0.410502 0.057442
0.700863 0.410502 0.057442
0.754731 0.410502 0.057442
0.808674 0.410502 0.057442
0.859966 0.410502 0.057442
0.910638 0.410502 0.057442
0.000000 0.461262 0.057442
0.049429 0.461262 0.057442
0.121555 0.461262 0.057442
0.202215 0.461262 0.057442
0.275817 0.461262 0.057442
0.345207 0.461262 0.057442
0.409532 0.461262 0.057442
0.471591 0.461262 0.057442
0.531445 0.461262 0.057442
0.589548 0.461262 0.057442
0.646428 0.461262 0.057442
0.700863 0.461262 0.057442
0.754731 0.461262 0.057442
0.808674 0.461262 0.057442
0.859966 0.461262 0.057442
0.910638 0.461262 0.057442
0.000000 0.511225 0.057442
0.049429 0.511225 0.057442
0.121555 0.511225 0.057442
0.202215 0.511225 0.057442
0.275817 0.511225 0.057442
0.345207 0.511225 0.057442
0.409532 0.511225 0.057442
0.471591 0.511225 0.057442
0.531445 0.511225 0.057442
0.589548 0.511225 0.057442
0.646428 0.511225 0.057442
0.700863 0.511225 0.057442
0.754731 0.511225 0.057442
0.808674 0.511225 0.057442
0.859966 0.511225 0.057442
0.910638 0.511225 0.057442
0.000000 0.560498 0.057442
0.049429 0.560498 0.057442
0.121555 0.560498 0.057442
0.202215 0.560498 0.057442
0.275817 0.560498 0.057442
0.345207 0.560498 0.057442
0.409532 0.560498 0.057442
0.471591 0.560498 0.057442
0.531445 0.560498 0.057442
0.589548 0.560498 0.057442
0.646428 0.560498 0.057442
0.700863 0.560498 0.057442
0.754731 0.560498 0.057442
0.808674 0.560498 0.057442
0.859966 0.560498 0.057442
0.910638 0.560498 0.057442
0.000000 0.609070 0.057442
0.049429 0.609070 0.057442
0.121555 0.609070 0.057442
0.202215 0.609070 0.057442
0.275817 0.609070 0.057442
0.345207 0.609070 0.057442
0.409532 0.609070 0.057442
0.471591 0.609070 0.057442
0.531445 0.609070 0.057442
0.589548 0.609070 0.057442
0.646428 0.609070 0.057442
0.700863 0.609070 0.057442
0.754731 0.609070 0.057442
0.808674 0.609070 0.057442
0.859966 0.609070 0.057442
0.910638 0.609070 0.057442
0.000000 0.657245 0.057442
0.049429 0.657245 0.057442
0.121555 0.657245 0.057442
0.202215 0.657245 0.057442
0.275817 0.657245 0.057442
0.345207 0.657245 0.057442
0.409532 0.657245 0.057442
0.471591 0.657245 0.057442
0.531445 0.657245 0.057442
0.589548 0.657245 0.057442
0.646428 0.657245 0.057442
0.700863 0.657245 0.057442
0.754731 0.657245 0.057442
0.808674 0.657245 0.057442
0.859966 0.657245 0.057442
0.910638 0.657245 0.057442
0.000000 0.704643 0.057442
0.049429 0.704643 0.057442
0.121555 0.704643 0.057442
0.202215 0.704643 0.057442
0.275817 0.704643 0.057442
0.345207 0.704643 0.057442
0.409532 0.704643 0.057442
0.471591 0.704643 0.057442
0.531445 0.704643 0.057442
0.589548 0.704643 0.057442
0.646428 0.704643 0.057442
0.700863 0.704643 0.057442
0.754731 0.704643 0.057442
0.808674 0.704643 0.057442
0.859966 0.704643 0.057442
0.910638 0.704643 0.057442
0.000000 0.751245 0.057442
0.049429 0.751245 0.057442
0.121555 0.751245 0.057442
0.202215 0.751245 0.057442
0.275817 0.751245 0.057442
0.345207 0.751245 0.057442
0.409532 0.751245 0.057442
0.471591 0.751245 0.057442
0.531445 0.751245 0.057442
0.589548 0.751245 0.057442
0.646428 0.751245 0.057442
0.700863 0.751245 0.057442
0.754731 0.751245 0.057442
0.808674 0.751245 0.057442
0.859966 0.751245 0.057442
0.910638 0.751245 0.057442
0.000000 0.000000 0.104838
0.049429 0.000000 0.104838
0.121555 0.000000 0.104838
0.202215 0.000000 0.104838
0.275817 0.000000 0.104838
0.345207 0.000000 0.104838
0.409532 0.000000 0.104838
0.471591 0.000000 0.104838
0.531445 0.000000 0.104838
0.589548 0.000000 0.104838
0.646428 0.000000 0.104838
0.700863 0.000000 0.104838
0.754731 0.000000 0.104838
0.808674 0.000000 0.104838
0.859966 0.000000 0.104838
0.910638 0.000000 0.104838
0.000000 0.027077 0.104838
0.049429 0.027077 0.104838
0.121555 0.027077 0.104838
0.202215 0.027077 0.104838
0.275817 0.027077 0.104838
0.345207 0.027077 0.104838
0.409532 0.027077 0.104838
0.471591 0.027077 0.104838
0.531445 0.027077 0.104838
0.589548 0.027077 0.104838
0.646428 0.027077 0.104838
0.700863 0.027077 0.104838
0.754731 0.027077 0.104838
0.808674 0.027077 0.104838
0.859966 0.027077 0.104838
0.910638 0.027077 0.104838
0.000000 0.076528 0.104838
0.049429 0.076528 0.104838
0.121555 0.076528 0.104838
0.202215 0.076528 0.104838
0.275817 0.076528 0.104838
0.345207 0.076528 0.104838
0.409532 0.076528 0.104838
0.471591 0.076528 0.104838
0.531445 0.076528 0.104838
0.589548 0.076528 0.104838
0.646428 0.076528 0.104838
0.700863 0.076528 0.104838
0.754731 0.076528 0.104838
0.808674 0.076528 0.104838
0.859966 0.076528 0.104838
0.910638 0.076528 0.104838
0.000000 0.137413 0.104838
0.049429 0.137413 0.104838
0.121555 0.137413 0.104838
0.202215 0.137413 0.104838
0.275817 0.137413 0.104838
0.345207 0.137413 0.104838
0.409532 0.137413 0.104838
0.471591 0.137413 0.104838
0.531445 0.137413 0.104838
0.589548 0.137413 0.104838
0.646428 0.137413 0.104838
0.700863 0.137413 0.104838
0.754731 0.137413 0.104838
0.808674 0.137413 0.104838
0.859966 0.137413 0.104838
0.910638 0.137413 0.104838
0.000000 0.195840 0.104838
0.049429 0.195840 0.104838
0.121555 0.195840 0.104838
0.202215 0.195840 0.104838
0.275817 0.195840 0.104838
0.345207 0.195840 0.104838
0.409532 0.195840 0.104838
0.471591 0.195840 0.104838
0.531445 0.195840 0.104838
0.589548 0.195840 0.104838
0.646428 0.195840 0.104838
0.700863 0.195840 0.104838
0.754731 0.195840 0.104838
0.808674 0.195840 0.104838
0.859966 0.195840 0.104838
0.910638 0.195840 0.104838
0.000000 0.251801 0.104838
0.049429 0.251801 0.104838
0.121555 0.251801 0.104838
0.202215 0.251801 0.104838
0.275817 0.251801 0.104838
0.345207 0.251801 0.104838
0.409532 0.251801 0.104838
0.471591 0.251801 0.104838
0.531445 0.251801 0.104838
0.589548 0.251801 0.104838
0.646428 0.251801 0.104838
0.700863 0.251801 0.104838
0.754731 0.251801 0.104838
0.808674 0.251801 0.104838
0.859966 0.251801 0.104838
0.910638 0.251801 0.104838
0.000000 0.305991 0.104838
0.049429 0.305991 0.104838
0.121555 0.305991 0.104838
0.202215 0.305991 0.104838
0.275817 0.305991 0.104838
0.345207 0.305991 0.104838
0.409532 0.305991 0.104838
0.471591 0.305991 0.104838
0.531445 0.305991 0.104838
0.589548 0.305991 0.104838
0.646428 0.305991 0.104838
0.700863 0.305991 0.104838
0.754731 0.305991 0.104838
0.808674 0.305991 0.104838
0.859966 0.305991 0.104838
0.910638 0.305991 0.104838
0.000000 0.358773 0.104838
0.049429 0.358773 0.104838
0.121555 0.358773 0.104838
0.202215 0.358773 0.104838
0.275817 0.358773 0.104838
0.345207 0.358773 0.104838
0.409532 0.358773 0.104838
0.471591 0.358773 0.104838
