example_ofxGpuLutCube/bin/data/ofxGpuLutCube/LUT/A15 (smooth sunset fade).cube
LUT_3D_SIZE 6
0.000000 0.000000 0.000000
0.202215 0.000000 0.000000
0.409532 0.000000 0.000000
0.589548 0.000000 0.000000
0.754731 0.000000 0.000000
0.910638 0.000000 0.000000
0.000000 0.137413 0.000000
0.202215 0.137413 0.000000
0.409532 0.137413 0.000000
0.589548 0.137413 0.000000
0.754731 0.137413 0.000000
0.910638 0.137413 0.000000
0.000000 0.305991 0.000000
0.202215 0.305991 0.000000
0.409532 0.305991 0.000000
0.589548 0.305991 0.000000
0.754731 0.305991 0.000000
0.910638 0.305991 0.000000
0.000000 0.461262 0.000000
0.202215 0.461262 0.000000
0.409532 0.461262 0.000000
0.589548 0.461262 0.000000
0.754731 0.461262 0.000000
0.910638 0.461262 0.000000
0.000000 0.609070 0.000000
0.202215 0.609070 0.000000
0.409532 0.609070 0.000000
0.589548 0.609070 0.000000
0.754731 0.609070 0.000000
0.910638 0.609070 0.000000
0.000000 0.751245 0.000000
0.202215 0.751245 0.000000
0.409532 0.751245 0.000000
0.589548 0.751245 0.000000
0.754731 0.751245 0.000000
0.910638 0.751245 0.000000
0.000000 0.000000 0.104838
0.202215 0.000000 0.104838
0.409532 0.000000 0.104838
0.589548 0.000000 0.104838
0.754731 0.000000 0.104838
0.910638 0.000000 0.104838
0.000000 0.137413 0.104838
0.202215 0.137413 0.104838
0.409532 0.137413 0.104838
0.589548 0.137413 0.104838
0.754731 0.137413 0.104838
0.910638 0.137413 0.104838
0.000000 0.305991 0.104838
0.202215 0.305991 0.104838
0.409532 0.305991 0.104838
0.589548 0.305991 0.104838
0.754731 0.305991 0.104838
0.910638 0.305991 0.104838
0.000000 0.461262 0.104838
0.202215 0.461262 0.104838
0.409532 0.461262 0.104838
0.589548 0.461262 0.104838
0.754731 0.461262 0.104838
0.910638 0.461262 0.104838
0.000000 0.609070 0.104838
0.202215 0.609070 0.104838
0.409532 0.609070 0.104838
0.589548 0.609070 0.104838
0.754731 0.609070 0.104838
0.910638 0.609070 0.104838
0.000000 0.751245 0.104838
0.202215 0.751245 0.104838
0.409532 0.751245 0.104838
0.589548 0.751245 0.104838
0.754731 0.751245 0.104838
0.910638 0.751245 0.104838
0.000000 0.000000 0.244490
0.202215 0.000000 0.244490
0.409532 0.000000 0.244490
0.589548 0.000000 0.244490
0.754731 0.000000 0.244490
0.910638 0.000000 0.244490
0.000000 0.137413 0.244490
0.202215 0.137413 0.244490
0.409532 0.137413 0.244490
0.589548 0.137413 0.244490
0.754731 0.137413 0.244490
0.910638 0.137413 0.244490
0.000000 0.305991 0.244490
0.202215 0.305991 0.244490
0.409532 0.305991 0.244490
0.589548 0.305991 0.244490
0.754731 0.305991 0.244490
0.910638 0.305991 0.244490
0.000000 0.461262 0.244490
0.202215 0.461262 0.244490
0.409532 0.461262 0.244490
0.589548 0.461262 0.244490
0.754731 0.461262 0.244490
0.910638 0.461262 0.244490
0.000000 0.609070 0.244490
0.202215 0.609070 0.244490
0.409532 0.609070 0.244490
0.589548 0.609070 0.244490
0.754731 0.609070 0.244490
0.910638 0.609070 0.244490
0.000000 0.751245 0.244490
0.202215 0.751245 0.244490
0.409532 0.751245 0.244490
0.589548 0.751245 0.244490
0.754731 0.751245 0.244490
0.910638 0.751245 0.244490
0.000000 0.000000 0.380922
0.202215 0.000000 0.380922
0.409532 0.000000 0.380922
0.589548 0.000000 0.380922
0.754731 0.000000 0.380922
0.910638 0.000000 0.380922
0.000000 0.137413 0.380922
0.202215 0.137413 0.380922
0.409532 0.137413 0.380922
0.589548 0.137413 0.380922
0.754731 0.137413 0.380922
0.910638 0.137413 0.380922
0.000000 0.305991 0.380922
0.202215 0.305991 0.380922
0.409532 0.305991 0.380922
0.589548 0.305991 0.380922
0.754731 0.305991 0.380922
0.910638 0.305991 0.380922
0.000000 0.461262 0.380922
0.202215 0.461262 0.380922
0.409532 0.461262 0.380922
0.589548 0.461262 0.380922
0.754731 0.461262 0.380922
0.910638 0.461262 0.380922
0.000000 0.609070 0.380922
0.202215 0.609070 0.380922
0.409532 0.609070 0.380922
0.589548 0.609070 0.380922
0.754731 0.609070 0.380922
0.910638 0.609070 0.380922
0.000000 0.751245 0.380922
0.202215 0.751245 0.380922
0.409532 0.751245 0.380922
0.589548 0.751245 0.380922
0.754731 0.751245 0.380922
0.910638 0.751245 0.380922
0.000000 0.000000 0.515404
0.202215 0.000000 0.515404
0.409532 0.000000 0.515404
0.589548 0.000000 0.515404
0.754731 0.000000 0.515404
0.910638 0.000000 0.515404
0.000000 0.137413 0.515404
0.202215 0.137413 0.515404
0.409532 0.137413 0.515404
0.589548 0.137413 0.515404
0.754731 0.137413 0.515404
0.910638 0.137413 0.515404
0.000000 0.305991 0.515404
0.202215 0.305991 0.515404
0.409532 0.305991 0.515404
0.589548 0.305991 0.515404
0.754731 0.305991 0.515404
0.910638 0.305991 0.515404
0.000000 0.461262 0.515404
0.202215 0.461262 0.515404
0.409532 0.461262 0.515404
0.589548 0.461262 0.515404
0.754731 0.461262 0.515404
0.910638 0.461262 0.515404
0.000000 0.609070 0.515404
0.202215 0.609070 0.515404
0.409532 0.609070 0.515404
0.589548 0.609070 0.515404
0.754731 0.609070 0.515404
0.910638 0.609070 0.515404
0.000000 0.751245 0.515404
0.202215 0.751245 0.515404
0.409532 0.751245 0.515404
0.589548 0.751245 0.515404
0.754731 0.751245 0.515404
0.910638 0.751245 0.515404
0.000000 0.000000 0.648038
0.202215 0.000000 0.648038
0.409532 0.000000 0.648038
0.589548 0.000000 0.648038
0.754731 0.000000 0.648038
0.910638 0.000000 0.648038
0.000000 0.137413 0.648038
0.202215 0.137413 0.648038
0.409532 0.137413 0.648038
0.589548 0.137413 0.648038
0.754731 0.137413 0.648038
0.910638 0.137413 0.648038
0.000000 0.305991 0.648038
0.202215 0.305991 0.648038
0.409532 0.305991 0.648038
0.589548 0.305991 0.648038
0.754731 0.305991 0.648038
0.910638 0.305991 0.648038
0.000000 0.461262 0.648038
0.202215 0.461262 0.648038
0.409532 0.461262 0.648038
0.589548 0.461262 0.648038
0.754731 0.461262 0.648038
0.910638 0.461262 0.648038
0.000000 0.609070 0.648038
0.202215 0.609070 0.648038
0.409532 0.609070 0.648038
0.589548 0.609070 0.648038
0.754731 0.609070 0.648038
0.910638 0.609070 0.648038
0.000000 0.751245 0.648038
0.202215 0.751245 0.648038
0.409532 0.751245 0.648038
0.589548 0.751245 0.648038
0.754731 0.751245 0.648038
0.910638 0.751245 0.648038
