example_ofxGpuLutCube/bin/data/ofxGpuLutCube/LUT/A16 (sunset bright fade).cube
LUT_3D_SIZE 16
0.000000 0.000000 0.000000
0.053924 0.000000 0.000000
0.138572 0.000000 0.000000
0.241070 0.000000 0.000000
0.335325 0.000000 0.000000
0.418650 0.000000 0.000000
0.492800 0.000000 0.000000
0.562014 0.000000 0.000000
0.627191 0.000000 0.000000
0.689125 0.000000 0.000000
0.748767 0.000000 0.000000
0.804806 0.000000 0.000000
0.859588 0.000000 0.000000
0.913837 0.000000 0.000000
0.963276 0.000000 0.000000
1.000000 0.000000 0.000000
0.000000 0.034609 0.000000
0.053924 0.034609 0.000000
0.138572 0.034609 0.000000
0.241070 0.034609 0.000000
0.335325 0.034609 0.000000
0.418650 0.034609 0.000000
0.492800 0.034609 0.000000
0.562014 0.034609 0.000000
0.627191 0.034609 0.000000
0.689125 0.034609 0.000000
0.748767 0.034609 0.000000
0.804806 0.034609 0.000000
0.859588 0.034609 0.000000
0.913837 0.034609 0.000000
0.963276 0.034609 0.000000
1.000000 0.034609 0.000000
0.000000 0.100349 0.000000
0.053924 0.100349 0.000000
0.138572 0.100349 0.000000
0.241070 0.100349 0.000000
0.335325 0.100349 0.000000
0.418650 0.100349 0.000000
0.492800 0.100349 0.000000
0.562014 0.100349 0.000000
0.627191 0.100349 0.000000
0.689125 0.100349 0.000000
0.748767 0.100349 0.000000
0.804806 0.100349 0.000000
0.859588 0.100349 0.000000
0.913837 0.100349 0.000000
0.963276 0.100349 0.000000
1.000000 0.100349 0.000000
0.000000 0.183940 0.000000
0.053924 0.183940 0.000000
0.138572 0.183940 0.000000
0.241070 0.183940 0.000000
0.335325 0.183940 0.000000
0.418650 0.183940 0.000000
0.492800 0.183940 0.000000
0.562014 0.183940 0.000000
0.627191 0.183940 0.000000
0.689125 0.183940 0.000000
0.748767 0.183940 0.000000
0.804806 0.183940 0.000000
0.859588 0.183940 0.000000
0.913837 0.183940 0.000000
0.963276 0.183940 0.000000
1.000000 0.183940 0.000000
0.000000 0.264290 0.000000
0.053924 0.264290 0.000000
0.138572 0.264290 0.000000
0.241070 0.264290 0.000000
0.335325 0.264290 0.000000
0.418650 0.264290 0.000000
0.492800 0.264290 0.000000
0.562014 0.264290 0.000000
0.627191 0.264290 0.000000
0.689125 0.264290 0.000000
0.748767 0.264290 0.000000
0.804806 0.264290 0.000000
0.859588 0.264290 0.000000
0.913837 0.264290 0.000000
0.963276 0.264290 0.000000
1.000000 0.264290 0.000000
0.000000 0.340377 0.000000
0.053924 0.340377 0.000000
0.138572 0.340377 0.000000
0.241070 0.340377 0.000000
0.335325 0.340377 0.000000
0.418650 0.340377 0.000000
0.492800 0.340377 0.000000
0.562014 0.340377 0.000000
0.627191 0.340377 0.000000
0.689125 0.340377 0.000000
0.748767 0.340377 0.000000
0.804806 0.340377 0.000000
0.859588 0.340377 0.000000
0.913837 0.340377 0.000000
0.963276 0.340377 0.000000
1.000000 0.340377 0.000000
0.000000 0.413444 0.000000
0.053924 0.413444 0.000000
0.138572 0.413444 0.000000
0.241070 0.413444 0.000000
0.335325 0.413444 0.000000
0.418650 0.413444 0.000000
0.492800 0.413444 0.000000
0.562014 0.413444 0.000000
0.627191 0.413444 0.000000
0.689125 0.413444 0.000000
0.748767 0.413444 0.000000
0.804806 0.413444 0.000000
0.859588 0.413444 0.000000
0.913837 0.413444 0.000000
0.963276 0.413444 0.000000
1.000000 0.413444 0.000000
0.000000 0.484194 0.000000
0.053924 0.484194 0.000000
0.138572 0.484194 0.000000
0.241070 0.484194 0.000000
0.335325 0.484194 0.000000
0.418650 0.484194 0.000000
0.492800 0.484194 0.000000
0.562014 0.484194 0.000000
0.627191 0.484194 0.000000
0.689125 0.484194 0.000000
0.748767 0.484194 0.000000
0.804806 0.484194 0.000000
0.859588 0.484194 0.000000
0.913837 0.484194 0.000000
0.963276 0.484194 0.000000
1.000000 0.484194 0.000000
0.000000 0.553168 0.000000
0.053924 0.553168 0.000000
0.138572 0.553168 0.000000
0.241070 0.553168 0.000000
0.335325 0.553168 0.000000
0.418650 0.553168 0.000000
0.492800 0.553168 0.000000
0.562014 0.553168 0.000000
0.627191 0.553168 0.000000
0.689125 0.553168 0.000000
0.748767 0.553168 0.000000
0.804806 0.553168 0.000000
0.859588 0.553168 0.000000
0.913837 0.553168 0.000000
0.963276 0.553168 0.000000
1.000000 0.553168 0.000000
0.000000 0.620646 0.000000
0.053924 0.620646 0.000000
0.138572 0.620646 0.000000
0.241070 0.620646 0.000000
0.335325 0.620646 0.000000
0.418650 0.620646 0.000000
0.492800 0.620646 0.000000
0.562014 0.620646 0.000000
0.627191 0.620646 0.000000
0.689125 0.620646 0.000000
0.748767 0.620646 0.000000
0.804806 0.620646 0.000000
0.859588 0.620646 0.000000
0.913837 0.620646 0.000000
0.963276 0.620646 0.000000
1.000000 0.620646 0.000000
0.000000 0.686683 0.000000
0.053924 0.686683 0.000000
0.138572 0.686683 0.000000
0.241070 0.686683 0.000000
0.335325 0.686683 0.000000
0.418650 0.686683 0.000000
0.492800 0.686683 0.000000
0.562014 0.686683 0.000000
0.627191 0.686683 0.000000
0.689125 0.686683 0.000000
0.748767 0.686683 0.000000
0.804806 0.686683 0.000000
0.859588 0.686683 0.000000
0.913837 0.686683 0.000000
0.963276 0.686683 0.000000
1.000000 0.686683 0.000000
0.000000 0.751773 0.000000
0.053924 0.751773 0.000000
0.138572 0.751773 0.000000
0.241070 0.751773 0.000000
0.335325 0.751773 0.000000
0.418650 0.751773 0.000000
0.492800 0.751773 0.000000
0.562014 0.751773 0.000000
0.627191 0.751773 0.000000
0.689125 0.751773 0.000000
0.748767 0.751773 0.000000
0.804806 0.751773 0.000000
0.859588 0.751773 0.000000
0.913837 0.751773 0.000000
0.963276 0.751773 0.000000
1.000000 0.751773 0.000000
0.000000 0.815647 0.000000
0.053924 0.815647 0.000000
0.138572 0.815647 0.000000
0.241070 0.815647 0.000000
0.335325 0.815647 0.000000
0.418650 0.815647 0.000000
0.492800 0.815647 0.000000
0.562014 0.815647 0.000000
0.627191 0.815647 0.000000
0.689125 0.815647 0.000000
0.748767 0.815647 0.000000
0.804806 0.815647 0.000000
0.859588 0.815647 0.000000
0.913837 0.815647 0.000000
0.963276 0.815647 0.000000
1.000000 0.815647 0.000000
0.000000 0.878829 0.000000
0.053924 0.878829 0.000000
0.138572 0.878829 0.000000
0.241070 0.878829 0.000000
0.335325 0.878829 0.000000
0.418650 0.878829 0.000000
0.492800 0.878829 0.000000
0.562014 0.878829 0.000000
0.627191 0.878829 0.000000
0.689125 0.878829 0.000000
0.748767 0.878829 0.000000
0.804806 0.878829 0.000000
0.859588 0.878829 0.000000
0.913837 0.878829 0.000000
0.963276 0.878829 0.000000
1.000000 0.878829 0.000000
0.000000 0.940814 0.000000
0.053924 0.940814 0.000000
0.138572 0.940814 0.000000
0.241070 0.940814 0.000000
0.335325 0.940814 0.000000
0.418650 0.940814 0.000000
0.492800 0.940814 0.000000
0.562014 0.940814 0.000000
0.627191 0.940814 0.000000
0.689125 0.940814 0.000000
0.748767 0.940814 0.000000
0.804806 0.940814 0.000000
0.859588 0.940814 0.000000
0.913837 0.940814 0.000000
0.963276 0.940814 0.000000
1.000000 0.940814 0.000000
0.000000 1.000000 0.000000
0.053924 1.000000 0.000000
0.138572 1.000000 0.000000
0.241070 1.000000 0.000000
0.335325 1.000000 0.000000
0.418650 1.000000 0.000000
0.492800 1.000000 0.000000
0.562014 1.000000 0.000000
0.627191 1.000000 0.000000
0.689125 1.000000 0.000000
0.748767 1.000000 0.000000
0.804806 1.000000 0.000000
0.859588 1.000000 0.000000
0.913837 1.000000 0.000000
0.963276 1.000000 0.000000
1.000000 1.000000 0.000000
0.000000 0.000000 0.042805
0.053924 0.000000 0.042805
0.138572 0.000000 0.042805
0.241070 0.000000 0.042805
0.335325 0.000000 0.042805
0.418650 0.000000 0.042805
0.492800 0.000000 0.042805
0.562014 0.000000 0.042805
0.627191 0.000000 0.042805
0.689125 0.000000 0.042805
0.748767 0.000000 0.042805
0.804806 0.000000 0.042805
0.859588 0.000000 0.042805
0.913837 0.000000 0.042805
0.963276 0.000000 0.042805
1.000000 0.000000 0.042805
0.000000 0.034609 0.042805
0.053924 0.034609 0.042805
0.138572 0.034609 0.042805
0.241070 0.034609 0.042805
0.335325 0.034609 0.042805
0.418650 0.034609 0.042805
0.492800 0.034609 0.042805
0.562014 0.034609 0.042805
0.627191 0.034609 0.042805
0.689125 0.034609 0.042805
0.748767 0.034609 0.042805
0.804806 0.034609 0.042805
0.859588 0.034609 0.042805
0.913837 0.034609 0.042805
0.963276 0.034609 0.042805
1.000000 0.034609 0.042805
0.000000 0.100349 0.042805
0.053924 0.100349 0.042805
0.138572 0.100349 0.042805
0.241070 0.100349 0.042805
0.335325 0.100349 0.042805
0.418650 0.100349 0.042805
0.492800 0.100349 0.042805
0.562014 0.100349 0.042805
0.627191 0.100349 0.042805
0.689125 0.100349 0.042805
0.748767 0.100349 0.042805
0.804806 0.100349 0.042805
0.859588 0.100349 0.042805
0.913837 0.100349 0.042805
0.963276 0.100349 0.042805
1.000000 0.100349 0.042805
0.000000 0.183940 0.042805
0.053924 0.183940 0.042805
0.138572 0.183940 0.042805
0.241070 0.183940 0.042805
0.335325 0.183940 0.042805
0.418650 0.183940 0.042805
0.492800 0.183940 0.042805
0.562014 0.183940 0.042805
0.627191 0.183940 0.042805
0.689125 0.183940 0.042805
0.748767 0.183940 0.042805
0.804806 0.183940 0.042805
0.859588 0.183940 0.042805
0.913837 0.183940 0.042805
0.963276 0.183940 0.042805
1.000000 0.183940 0.042805
0.000000 0.264290 0.042805
0.053924 0.264290 0.042805
0.138572 0.264290 0.042805
0.241070 0.264290 0.042805
0.335325 0.264290 0.042805
0.418650 0.264290 0.042805
0.492800 0.264290 0.042805
0.562014 0.264290 0.042805
0.627191 0.264290 0.042805
0.689125 0.264290 0.042805
0.748767 0.264290 0.042805
0.804806 0.264290 0.042805
0.859588 0.264290 0.042805
0.913837 0.264290 0.042805
0.963276 0.264290 0.042805
1.000000 0.264290 0.042805
0.000000 0.340377 0.042805
0.053924 0.340377 0.042805
0.138572 0.340377 0.042805
0.241070 0.340377 0.042805
0.335325 0.340377 0.042805
0.418650 0.340377 0.042805
0.492800 0.340377 0.042805
0.562014 0.340377 0.042805
0.627191 0.340377 0.042805
0.689125 0.340377 0.042805
0.748767 0.340377 0.042805
0.804806 0.340377 0.042805
0.859588 0.340377 0.042805
0.913837 0.340377 0.042805
0.963276 0.340377 0.042805
1.000000 0.340377 0.042805
0.000000 0.413444 0.042805
0.053924 0.413444 0.042805
0.138572 0.413444 0.042805
0.241070 0.413444 0.042805
0.335325 0.413444 0.042805
0.418650 0.413444 0.042805
0.492800 0.413444 0.042805
0.562014 0.413444 0.042805
0.627191 0.413444 0.042805
0.689125 0.413444 0.042805
0.748767 0.413444 0.042805
0.804806 0.413444 0.042805
0.859588 0.413444 0.042805
0.913837 0.413444 0.042805
0.963276 0.413444 0.042805
1.000000 0.413444 0.042805
0.000000 0.484194 0.042805
0.053924 0.484194 0.042805
0.138572 0.484194 0.042805
0.241070 0.484194 0.042805
0.335325 0.484194 0.042805
0.418650 0.484194 0.042805
0.492800 0.484194 0.042805
0.562014 0.484194 0.042805
0.627191 0.484194 0.042805
0.689125 0.484194 0.042805
0.748767 0.484194 0.042805
0.804806 0.484194 0.042805
0.859588 0.484194 0.042805
0.913837 0.484194 0.042805
0.963276 0.484194 0.042805
1.000000 0.484194 0.042805
0.000000 0.553168 0.042805
0.053924 0.553168 0.042805
0.138572 0.553168 0.042805
0.241070 0.553168 0.042805
0.335325 0.553168 0.042805
0.418650 0.553168 0.042805
0.492800 0.553168 0.042805
0.562014 0.553168 0.042805
0.627191 0.553168 0.042805
0.689125 0.553168 0.042805
0.748767 0.553168 0.042805
0.804806 0.553168 0.042805
0.859588 0.553168 0.042805
0.913837 0.553168 0.042805
0.963276 0.553168 0.042805
1.000000 0.553168 0.042805
0.000000 0.620646 0.042805
0.053924 0.620646 0.042805
0.138572 0.620646 0.042805
0.241070 0.620646 0.042805
0.335325 0.620646 0.042805
0.418650 0.620646 0.042805
0.492800 0.620646 0.042805
0.562014 0.620646 0.042805
0.627191 0.620646 0.042805
0.689125 0.620646 0.042805
0.748767 0.620646 0.042805
0.804806 0.620646 0.042805
0.859588 0.620646 0.042805
0.913837 0.620646 0.042805
0.963276 0.620646 0.042805
1.000000 0.620646 0.042805
0.000000 0.686683 0.042805
0.053924 0.686683 0.042805
0.138572 0.686683 0.042805
0.241070 0.686683 0.042805
0.335325 0.686683 0.042805
0.418650 0.686683 0.042805
0.492800 0.686683 0.042805
0.562014 0.686683 0.042805
0.627191 0.686683 0.042805
0.689125 0.686683 0.042805
0.748767 0.686683 0.042805
0.804806 0.686683 0.042805
0.859588 0.686683 0.042805
0.913837 0.686683 0.042805
0.963276 0.686683 0.042805
1.000000 0.686683 0.042805
0.000000 0.751773 0.042805
0.053924 0.751773 0.042805
0.138572 0.751773 0.042805
0.241070 0.751773 0.042805
0.335325 0.751773 0.042805
0.418650 0.751773 0.042805
0.492800 0.751773 0.042805
0.562014 0.751773 0.042805
0.627191 0.751773 0.042805
0.689125 0.751773 0.042805
0.748767 0.751773 0.042805
0.804806 0.751773 0.042805
0.859588 0.751773 0.042805
0.913837 0.751773 0.042805
0.963276 0.751773 0.042805
1.000000 0.751773 0.042805
0.000000 0.815647 0.042805
0.053924 0.815647 0.042805
0.138572 0.815647 0.042805
0.241070 0.815647 0.042805
0.335325 0.815647 0.042805
0.418650 0.815647 0.042805
0.492800 0.815647 0.042805
0.562014 0.815647 0.042805
0.627191 0.815647 0.042805
0.689125 0.815647 0.042805
0.748767 0.815647 0.042805
0.804806 0.815647 0.042805
0.859588 0.815647 0.042805
0.913837 0.815647 0.042805
0.963276 0.815647 0.042805
1.000000 0.815647 0.042805
0.000000 0.878829 0.042805
0.053924 0.878829 0.042805
0.138572 0.878829 0.042805
0.241070 0.878829 0.042805
0.335325 0.878829 0.042805
0.418650 0.878829 0.042805
0.492800 0.878829 0.042805
0.562014 0.878829 0.042805
0.627191 0.878829 0.042805
0.689125 0.878829 0.042805
0.748767 0.878829 0.042805
0.804806 0.878829 0.042805
0.859588 0.878829 0.042805
0.913837 0.878829 0.042805
0.963276 0.878829 0.042805
1.000000 0.878829 0.042805
0.000000 0.940814 0.042805
0.053924 0.940814 0.042805
0.138572 0.940814 0.042805
0.241070 0.940814 0.042805
0.335325 0.940814 0.042805
0.418650 0.940814 0.042805
0.492800 0.940814 0.042805
0.562014 0.940814 0.042805
0.627191 0.940814 0.042805
0.689125 0.940814 0.042805
0.748767 0.940814 0.042805
0.804806 0.940814 0.042805
0.859588 0.940814 0.042805
0.913837 0.940814 0.042805
0.963276 0.940814 0.042805
1.000000 0.940814 0.042805
0.000000 1.000000 0.042805
0.053924 1.000000 0.042805
0.138572 1.000000 0.042805
0.241070 1.000000 0.042805
0.335325 1.000000 0.042805
0.418650 1.000000 0.042805
0.492800 1.000000 0.042805
0.562014 1.000000 0.042805
0.627191 1.000000 0.042805
0.689125 1.000000 0.042805
0.748767 1.000000 0.042805
0.804806 1.000000 0.042805
0.859588 1.000000 0.042805
0.913837 1.000000 0.042805
0.963276 1.000000 0.042805
1.000000 1.000000 0.042805
0.000000 0.000000 0.111540
0.053924 0.000000 0.111540
0.138572 0.000000 0.111540
0.241070 0.000000 0.111540
0.335325 0.000000 0.111540
0.418650 0.000000 0.111540
0.492800 0.000000 0.111540
0.562014 0.000000 0.111540
0.627191 0.000000 0.111540
0.689125 0.000000 0.111540
0.748767 0.000000 0.111540
0.804806 0.000000 0.111540
0.859588 0.000000 0.111540
0.913837 0.000000 0.111540
0.963276 0.000000 0.111540
1.000000 0.000000 0.111540
0.000000 0.034609 0.111540
0.053924 0.034609 0.111540
0.138572 0.034609 0.111540
0.241070 0.034609 0.111540
0.335325 0.034609 0.111540
0.418650 0.034609 0.111540
0.492800 0.034609 0.111540
0.562014 0.034609 0.111540
0.627191 0.034609 0.111540
0.689125 0.034609 0.111540
0.748767 0.034609 0.111540
0.804806 0.034609 0.111540
0.859588 0.034609 0.111540
0.913837 0.034609 0.111540
0.963276 0.034609 0.111540
1.000000 0.034609 0.111540
0.000000 0.100349 0.111540
0.053924 0.100349 0.111540
0.138572 0.100349 0.111540
0.241070 0.100349 0.111540
0.335325 0.100349 0.111540
0.418650 0.100349 0.111540
0.492800 0.100349 0.111540
0.562014 0.100349 0.111540
0.627191 0.100349 0.111540
0.689125 0.100349 0.111540
0.748767 0.100349 0.111540
0.804806 0.100349 0.111540
0.859588 0.100349 0.111540
0.913837 0.100349 0.111540
0.963276 0.100349 0.111540
1.000000 0.100349 0.111540
0.000000 0.183940 0.111540
0.053924 0.183940 0.111540
0.138572 0.183940 0.111540
0.241070 0.183940 0.111540
0.335325 0.183940 0.111540
0.418650 0.183940 0.111540
0.492800 0.183940 0.111540
0.562014 0.183940 0.111540
0.627191 0.183940 0.111540
0.689125 0.183940 0.111540
0.748767 0.183940 0.111540
0.804806 0.183940 0.111540
0.859588 0.183940 0.111540
0.913837 0.183940 0.111540
0.963276 0.183940 0.111540
1.000000 0.183940 0.111540
0.000000 0.264290 0.111540
0.053924 0.264290 0.111540
0.138572 0.264290 0.111540
0.241070 0.264290 0.111540
0.335325 0.264290 0.111540
0.418650 0.264290 0.111540
0.492800 0.264290 0.111540
0.562014 0.264290 0.111540
0.627191 0.264290 0.111540
0.689125 0.264290 0.111540
0.748767 0.264290 0.111540
0.804806 0.264290 0.111540
0.859588 0.264290 0.111540
0.913837 0.264290 0.111540
0.963276 0.264290 0.111540
1.000000 0.264290 0.111540
0.000000 0.340377 0.111540
0.053924 0.340377 0.111540
0.138572 0.340377 0.111540
0.241070 0.340377 0.111540
0.335325 0.340377 0.111540
0.418650 0.340377 0.111540
0.492800 0.340377 0.111540
0.562014 0.340377 0.111540
0.627191 0.340377 0.111540
0.689125 0.340377 0.111540
0.748767 0.340377 0.111540
0.804806 0.340377 0.111540
0.859588 0.340377 0.111540
0.913837 0.340377 0.111540
0.963276 0.340377 0.111540
1.000000 0.340377 0.111540
0.000000 0.413444 0.111540
0.053924 0.413444 0.111540
0.138572 0.413444 0.111540
0.241070 0.413444 0.111540
0.335325 0.413444 0.111540
0.418650 0.413444 0.111540
0.492800 0.413444 0.111540
0.562014 0.413444 0.111540
0.627191 0.413444 0.111540
0.689125 0.413444 0.111540
0.748767 0.413444 0.111540
0.804806 0.413444 0.111540
0.859588 0.413444 0.111540
0.913837 0.413444 0.111540
0.963276 0.413444 0.111540
1.000000 0.413444 0.111540
0.000000 0.484194 0.111540
0.053924 0.484194 0.111540
0.138572 0.484194 0.111540
0.241070 0.484194 0.111540
0.335325 0.484194 0.111540
0.418650 0.484194 0.111540
0.492800 0.484194 0.111540
0.562014 0.484194 0.111540
0.627191 0.484194 0.111540
0.689125 0.484194 0.111540
0.748767 0.484194 0.111540
0.804806 0.484194 0.111540
0.859588 0.484194 0.111540
0.913837 0.484194 0.111540
0.963276 0.484194 0.111540
1.000000 0.484194 0.111540
0.000000 0.553168 0.111540
0.053924 0.553168 0.111540
0.138572 0.553168 0.111540
0.241070 0.553168 0.111540
0.335325 0.553168 0.111540
0.418650 0.553168 0.111540
0.492800 0.553168 0.111540
0.562014 0.553168 0.111540
0.627191 0.553168 0.111540
0.689125 0.553168 0.111540
0.748767 0.553168 0.111540
0.804806 0.553168 0.111540
0.859588 0.553168 0.111540
0.913837 0.553168 0.111540
0.963276 0.553168 0.111540
1.000000 0.553168 0.111540
0.000000 0.620646 0.111540
0.053924 0.620646 0.111540
0.138572 0.620646 0.111540
0.241070 0.620646 0.111540
0.335325 0.620646 0.111540
0.418650 0.620646 0.111540
0.492800 0.620646 0.111540
0.562014 0.620646 0.111540
0.627191 0.620646 0.111540
0.689125 0.620646 0.111540
0.748767 0.620646 0.111540
0.804806 0.620646 0.111540
0.859588 0.620646 0.111540
0.913837 0.620646 0.111540
0.963276 0.620646 0.111540
1.000000 0.620646 0.111540
0.000000 0.686683 0.111540
0.053924 0.686683 0.111540
0.138572 0.686683 0.111540
0.241070 0.686683 0.111540
0.335325 0.686683 0.111540
0.418650 0.686683 0.111540
0.492800 0.686683 0.111540
0.562014 0.686683 0.111540
0.627191 0.686683 0.111540
0.689125 0.686683 0.111540
0.748767 0.686683 0.111540
0.804806 0.686683 0.111540
0.859588 0.686683 0.111540
0.913837 0.686683 0.111540
0.963276 0.686683 0.111540
1.000000 0.686683 0.111540
0.000000 0.751773 0.111540
0.053924 0.751773 0.111540
0.138572 0.751773 0.111540
0.241070 0.751773 0.111540
0.335325 0.751773 0.111540
0.418650 0.751773 0.111540
0.492800 0.751773 0.111540
0.562014 0.751773 0.111540
0.627191 0.751773 0.111540
0.689125 0.751773 0.111540
0.748767 0.751773 0.111540
0.804806 0.751773 0.111540
0.859588 0.751773 0.111540
0.913837 0.751773 0.111540
0.963276 0.751773 0.111540
1.000000 0.751773 0.111540
0.000000 0.815647 0.111540
0.053924 0.815647 0.111540
0.138572 0.815647 0.111540
0.241070 0.815647 0.111540
0.335325 0.815647 0.111540
0.418650 0.815647 0.111540
0.492800 0.815647 0.111540
0.562014 0.815647 0.111540
0.627191 0.815647 0.111540
0.689125 0.815647 0.111540
0.748767 0.815647 0.111540
0.804806 0.815647 0.111540
0.859588 0.815647 0.111540
0.913837 0.815647 0.111540
0.963276 0.815647 0.111540
1.000000 0.815647 0.111540
0.000000 0.878829 0.111540
0.053924 0.878829 0.111540
0.138572 0.878829 0.111540
0.241070 0.878829 0.111540
0.335325 0.878829 0.111540
0.418650 0.878829 0.111540
0.492800 0.878829 0.111540
0.562014 0.878829 0.111540
0.627191 0.878829 0.111540
0.689125 0.878829 0.111540
0.748767 0.878829 0.111540
0.804806 0.878829 0.111540
0.859588 0.878829 0.111540
0.913837 0.878829 0.111540
0.963276 0.878829 0.111540
1.000000 0.878829 0.111540
0.000000 0.940814 0.111540
0.053924 0.940814 0.111540
0.138572 0.940814 0.111540
0.241070 0.940814 0.111540
0.335325 0.940814 0.111540
0.418650 0.940814 0.111540
0.492800 0.940814 0.111540
0.562014 0.940814 0.111540
0.627191 0.940814 0.111540
0.689125 0.940814 0.111540
0.748767 0.940814 0.111540
0.804806 0.940814 0.111540
0.859588 0.940814 0.111540
0.913837 0.940814 0.111540
0.963276 0.940814 0.111540
1.000000 0.940814 0.111540
0.000000 1.000000 0.111540
0.053924 1.000000 0.111540
0.138572 1.000000 0.111540
0.241070 1.000000 0.111540
0.335325 1.000000 0.111540
0.418650 1.000000 0.111540
0.492800 1.000000 0.111540
0.562014 1.000000 0.111540
0.627191 1.000000 0.111540
0.689125 1.000000 0.111540
0.748767 1.000000 0.111540
0.804806 1.000000 0.111540
0.859588 1.000000 0.111540
0.913837 1.000000 0.111540
0.963276 1.000000 0.111540
1.000000 1.000000 0.111540
0.000000 0.000000 0.189706
0.053924 0.000000 0.189706
0.138572 0.000000 0.189706
0.241070 0.000000 0.189706
0.335325 0.000000 0.189706
0.418650 0.000000 0.189706
0.492800 0.000000 0.189706
0.562014 0.000000 0.189706
0.627191 0.000000 0.189706
0.689125 0.000000 0.189706
0.748767 0.000000 0.189706
0.804806 0.000000 0.189706
0.859588 0.000000 0.189706
0.913837 0.000000 0.189706
0.963276 0.000000 0.189706
1.000000 0.000000 0.189706
0.000000 0.034609 0.189706
0.053924 0.034609 0.189706
0.138572 0.034609 0.189706
0.241070 0.034609 0.189706
0.335325 0.034609 0.189706
0.418650 0.034609 0.189706
0.492800 0.034609 0.189706
0.562014 0.034609 0.189706
0.627191 0.034609 0.189706
0.689125 0.034609 0.189706
0.748767 0.034609 0.189706
0.804806 0.034609 0.189706
0.859588 0.034609 0.189706
0.913837 0.034609 0.189706
0.963276 0.034609 0.189706
1.000000 0.034609 0.189706
0.000000 0.100349 0.189706
0.053924 0.100349 0.189706
0.138572 0.100349 0.189706
0.241070 0.100349 0.189706
0.335325 0.100349 0.189706
0.418650 0.100349 0.189706
0.492800 0.100349 0.189706
0.562014 0.100349 0.189706
0.627191 0.100349 0.189706
0.689125 0.100349 0.189706
0.748767 0.100349 0.189706
0.804806 0.100349 0.189706
0.859588 0.100349 0.189706
0.913837 0.100349 0.189706
0.963276 0.100349 0.189706
1.000000 0.100349 0.189706
0.000000 0.183940 0.189706
0.053924 0.183940 0.189706
0.138572 0.183940 0.189706
0.241070 0.183940 0.189706
0.335325 0.183940 0.189706
0.418650 0.183940 0.189706
0.492800 0.183940 0.189706
0.562014 0.183940 0.189706
0.627191 0.183940 0.189706
0.689125 0.183940 0.189706
0.748767 0.183940 0.189706
0.804806 0.183940 0.189706
0.859588 0.183940 0.189706
0.913837 0.183940 0.189706
0.963276 0.183940 0.189706
1.000000 0.183940 0.189706
0.000000 0.264290 0.189706
0.053924 0.264290 0.189706
0.138572 0.264290 0.189706
0.241070 0.264290 0.189706
0.335325 0.264290 0.189706
0.418650 0.264290 0.189706
0.492800 0.264290 0.189706
0.562014 0.264290 0.189706
0.627191 0.264290 0.189706
0.689125 0.264290 0.189706
0.748767 0.264290 0.189706
0.804806 0.264290 0.189706
0.859588 0.264290 0.189706
0.913837 0.264290 0.189706
0.963276 0.264290 0.189706
1.000000 0.264290 0.189706
0.000000 0.340377 0.189706
0.053924 0.340377 0.189706
0.138572 0.340377 0.189706
0.241070 0.340377 0.189706
0.335325 0.340377 0.189706
0.418650 0.340377 0.189706
0.492800 0.340377 0.189706
0.562014 0.340377 0.189706
0.627191 0.340377 0.189706
0.689125 0.340377 0.189706
0.748767 0.340377 0.189706
0.804806 0.340377 0.189706
0.859588 0.340377 0.189706
0.913837 0.340377 0.189706
0.963276 0.340377 0.189706
1.000000 0.340377 0.189706
0.000000 0.413444 0.189706
0.053924 0.413444 0.189706
0.138572 0.413444 0.189706
0.241070 0.413444 0.189706
0.335325 0.413444 0.189706
0.418650 0.413444 0.189706
0.492800 0.413444 0.189706
0.562014 0.413444 0.189706
0.627191 0.413444 0.189706
0.689125 0.413444 0.189706
0.748767 0.413444 0.189706
0.804806 0.413444 0.189706
0.859588 0.413444 0.189706
0.913837 0.413444 0.189706
0.963276 0.413444 0.189706
1.000000 0.413444 0.189706
0.000000 0.484194 0.189706
0.053924 0.484194 0.189706
0.138572 0.484194 0.189706
0.241070 0.484194 0.189706
0.335325 0.484194 0.189706
0.418650 0.484194 0.189706
0.492800 0.484194 0.189706
0.562014 0.484194 0.189706
