example_ofxGpuLutCube/bin/data/ofxGpuLutCube/LUT/A16 (sunset bright fade).cube
LUT_3D_SIZE 6
0.000000 0.000000 0.000000
0.241070 0.000000 0.000000
0.492800 0.000000 0.000000
0.689125 0.000000 0.000000
0.859588 0.000000 0.000000
1.000000 0.000000 0.000000
0.000000 0.183940 0.000000
0.241070 0.183940 0.000000
0.492800 0.183940 0.000000
0.689125 0.183940 0.000000
0.859588 0.183940 0.000000
1.000000 0.183940 0.000000
0.000000 0.413444 0.000000
0.241070 0.413444 0.000000
0.492800 0.413444 0.000000
0.689125 0.413444 0.000000
0.859588 0.413444 0.000000
1.000000 0.413444 0.000000
0.000000 0.620646 0.000000
0.241070 0.620646 0.000000
0.492800 0.620646 0.000000
0.689125 0.620646 0.000000
0.859588 0.620646 0.000000
1.000000 0.620646 0.000000
0.000000 0.815647 0.000000
0.241070 0.815647 0.000000
0.492800 0.815647 0.000000
0.689125 0.815647 0.000000
0.859588 0.815647 0.000000
1.000000 0.815647 0.000000
0.000000 1.000000 0.000000
0.241070 1.000000 0.000000
0.492800 1.000000 0.000000
0.689125 1.000000 0.000000
0.859588 1.000000 0.000000
1.000000 1.000000 0.000000
0.000000 0.000000 0.189706
0.241070 0.000000 0.189706
0.492800 0.000000 0.189706
0.689125 0.000000 0.189706
0.859588 0.000000 0.189706
1.000000 0.000000 0.189706
0.000000 0.183940 0.189706
0.241070 0.183940 0.189706
0.492800 0.183940 0.189706
0.689125 0.183940 0.189706
0.859588 0.183940 0.189706
1.000000 0.183940 0.189706
0.000000 0.413444 0.189706
0.241070 0.413444 0.189706
0.492800 0.413444 0.189706
0.689125 0.413444 0.189706
0.859588 0.413444 0.189706
1.000000 0.413444 0.189706
0.000000 0.620646 0.189706
0.241070 0.620646 0.189706
0.492800 0.620646 0.189706
0.689125 0.620646 0.189706
0.859588 0.620646 0.189706
1.000000 0.620646 0.189706
0.000000 0.815647 0.189706
0.241070 0.815647 0.189706
0.492800 0.815647 0.189706
0.689125 0.815647 0.189706
0.859588 0.815647 0.189706
1.000000 0.815647 0.189706
0.000000 1.000000 0.189706
0.241070 1.000000 0.189706
0.492800 1.000000 0.189706
0.689125 1.000000 0.189706
0.859588 1.000000 0.189706
1.000000 1.000000 0.189706
0.000000 0.000000 0.405615
0.241070 0.000000 0.405615
0.492800 0.000000 0.405615
0.689125 0.000000 0.405615
0.859588 0.000000 0.405615
1.000000 0.000000 0.405615
0.000000 0.183940 0.405615
0.241070 0.183940 0.405615
0.492800 0.183940 0.405615
0.689125 0.183940 0.405615
0.859588 0.183940 0.405615
1.000000 0.183940 0.405615
0.000000 0.413444 0.405615
0.241070 0.413444 0.405615
0.492800 0.413444 0.405615
0.689125 0.413444 0.405615
0.859588 0.413444 0.405615
1.000000 0.413444 0.405615
0.000000 0.620646 0.405615
0.241070 0.620646 0.405615
0.492800 0.620646 0.405615
0.689125 0.620646 0.405615
0.859588 0.620646 0.405615
1.000000 0.620646 0.405615
0.000000 0.815647 0.405615
0.241070 0.815647 0.405615
0.492800 0.815647 0.405615
0.689125 0.815647 0.405615
0.859588 0.815647 0.405615
1.000000 0.815647 0.405615
0.000000 1.000000 0.405615
0.241070 1.000000 0.405615
0.492800 1.000000 0.405615
0.689125 1.000000 0.405615
0.859588 1.000000 0.405615
1.000000 1.000000 0.405615
0.000000 0.000000 0.606481
0.241070 0.000000 0.606481
0.492800 0.000000 0.606481
0.689125 0.000000 0.606481
0.859588 0.000000 0.606481
1.000000 0.000000 0.606481
0.000000 0.183940 0.606481
0.241070 0.183940 0.606481
0.492800 0.183940 0.606481
0.689125 0.183940 0.606481
0.859588 0.183940 0.606481
1.000000 0.183940 0.606481
0.000000 0.413444 0.606481
0.241070 0.413444 0.606481
0.492800 0.413444 0.606481
0.689125 0.413444 0.606481
0.859588 0.413444 0.606481
1.000000 0.413444 0.606481
0.000000 0.620646 0.606481
0.241070 0.620646 0.606481
0.492800 0.620646 0.606481
0.689125 0.620646 0.606481
0.859588 0.620646 0.606481
1.000000 0.620646 0.606481
0.000000 0.815647 0.606481
0.241070 0.815647 0.606481
0.492800 0.815647 0.606481
0.689125 0.815647 0.606481
0.859588 0.815647 0.606481
1.000000 0.815647 0.606481
0.000000 1.000000 0.606481
0.241070 1.000000 0.606481
0.492800 1.000000 0.606481
0.689125 1.000000 0.606481
0.859588 1.000000 0.606481
1.000000 1.000000 0.606481
0.000000 0.000000 0.798705
0.241070 0.000000 0.798705
0.492800 0.000000 0.798705
0.689125 0.000000 0.798705
0.859588 0.000000 0.798705
1.000000 0.000000 0.798705
0.000000 0.183940 0.798705
0.241070 0.183940 0.798705
0.492800 0.183940 0.798705
0.689125 0.183940 0.798705
0.859588 0.183940 0.798705
1.000000 0.183940 0.798705
0.000000 0.413444 0.798705
0.241070 0.413444 0.798705
0.492800 0.413444 0.798705
0.689125 0.413444 0.798705
0.859588 0.413444 0.798705
1.000000 0.413444 0.798705
0.000000 0.620646 0.798705
0.241070 0.620646 0.798705
0.492800 0.620646 0.798705
0.689125 0.620646 0.798705
0.859588 0.620646 0.798705
1.000000 0.620646 0.798705
0.000000 0.815647 0.798705
0.241070 0.815647 0.798705
0.492800 0.815647 0.798705
0.689125 0.815647 0.798705
0.859588 0.815647 0.798705
1.000000 0.815647 0.798705
0.000000 1.000000 0.798705
0.241070 1.000000 0.798705
0.492800 1.000000 0.798705
0.689125 1.000000 0.798705
0.859588 1.000000 0.798705
1.000000 1.000000 0.798705
0.000000 0.000000 0.984265
0.241070 0.000000 0.984265
0.492800 0.000000 0.984265
0.689125 0.000000 0.984265
0.859588 0.000000 0.984265
1.000000 0.000000 0.984265
0.000000 0.183940 0.984265
0.241070 0.183940 0.984265
0.492800 0.183940 0.984265
0.689125 0.183940 0.984265
0.859588 0.183940 0.984265
1.000000 0.183940 0.984265
0.000000 0.413444 0.984265
0.241070 0.413444 0.984265
0.492800 0.413444 0.984265
0.689125 0.413444 0.984265
0.859588 0.413444 0.984265
1.000000 0.413444 0.984265
0.000000 0.620646 0.984265
0.241070 0.620646 0.984265
0.492800 0.620646 0.984265
0.689125 0.620646 0.984265
0.859588 0.620646 0.984265
1.000000 0.620646 0.984265
0.000000 0.815647 0.984265
0.241070 0.815647 0.984265
0.492800 0.815647 0.984265
0.689125 0.815647 0.984265
0.859588 0.815647 0.984265
1.000000 0.815647 0.984265
0.000000 1.000000 0.984265
0.241070 1.000000 0.984265
0.492800 1.000000 0.984265
0.689125 1.000000 0.984265
0.859588 1.000000 0.984265
1.000000 1.000000 0.984265
