example_ofxGpuLutCube/bin/data/ofxGpuLutCube/LUT/A17 (clear cold fade).cube
LUT_3D_SIZE 16
0.000000 0.000000 0.000000
0.030722 0.000000 0.000000
0.086471 0.000000 0.000000
0.153952 0.000000 0.000000
0.221345 0.000000 0.000000
0.289462 0.000000 0.000000
0.356043 0.000000 0.000000
0.422840 0.000000 0.000000
0.489621 0.000000 0.000000
0.556285 0.000000 0.000000
0.623324 0.000000 0.000000
0.688874 0.000000 0.000000
0.755230 0.000000 0.000000
0.822899 0.000000 0.000000
0.888430 0.000000 0.000000
0.954027 0.000000 0.000000
0.000000 0.065334 0.000000
0.030722 0.065334 0.000000
0.086471 0.065334 0.000000
0.153952 0.065334 0.000000
0.221345 0.065334 0.000000
0.289462 0.065334 0.000000
0.356043 0.065334 0.000000
0.422840 0.065334 0.000000
0.489621 0.065334 0.000000
0.556285 0.065334 0.000000
0.623324 0.065334 0.000000
0.688874 0.065334 0.000000
0.755230 0.065334 0.000000
0.822899 0.065334 0.000000
0.888430 0.065334 0.000000
0.954027 0.065334 0.000000
0.000000 0.146032 0.000000
0.030722 0.146032 0.000000
0.086471 0.146032 0.000000
0.153952 0.146032 0.000000
0.221345 0.146032 0.000000
0.289462 0.146032 0.000000
0.356043 0.146032 0.000000
0.422840 0.146032 0.000000
0.489621 0.146032 0.000000
0.556285 0.146032 0.000000
0.623324 0.146032 0.000000
0.688874 0.146032 0.000000
0.755230 0.146032 0.000000
0.822899 0.146032 0.000000
0.888430 0.146032 0.000000
0.954027 0.146032 0.000000
0.000000 0.227145 0.000000
0.030722 0.227145 0.000000
0.086471 0.227145 0.000000
0.153952 0.227145 0.000000
0.221345 0.227145 0.000000
0.289462 0.227145 0.000000
0.356043 0.227145 0.000000
0.422840 0.227145 0.000000
0.489621 0.227145 0.000000
0.556285 0.227145 0.000000
0.623324 0.227145 0.000000
0.688874 0.227145 0.000000
0.755230 0.227145 0.000000
0.822899 0.227145 0.000000
0.888430 0.227145 0.000000
0.954027 0.227145 0.000000
0.000000 0.301799 0.000000
0.030722 0.301799 0.000000
0.086471 0.301799 0.000000
0.153952 0.301799 0.000000
0.221345 0.301799 0.000000
0.289462 0.301799 0.000000
0.356043 0.301799 0.000000
0.422840 0.301799 0.000000
0.489621 0.301799 0.000000
0.556285 0.301799 0.000000
0.623324 0.301799 0.000000
0.688874 0.301799 0.000000
0.755230 0.301799 0.000000
0.822899 0.301799 0.000000
0.888430 0.301799 0.000000
0.954027 0.301799 0.000000
0.000000 0.372334 0.000000
0.030722 0.372334 0.000000
0.086471 0.372334 0.000000
0.153952 0.372334 0.000000
0.221345 0.372334 0.000000
0.289462 0.372334 0.000000
0.356043 0.372334 0.000000
0.422840 0.372334 0.000000
0.489621 0.372334 0.000000
0.556285 0.372334 0.000000
0.623324 0.372334 0.000000
0.688874 0.372334 0.000000
0.755230 0.372334 0.000000
0.822899 0.372334 0.000000
0.888430 0.372334 0.000000
0.954027 0.372334 0.000000
0.000000 0.439819 0.000000
0.030722 0.439819 0.000000
0.086471 0.439819 0.000000
0.153952 0.439819 0.000000
0.221345 0.439819 0.000000
0.289462 0.439819 0.000000
0.356043 0.439819 0.000000
0.422840 0.439819 0.000000
0.489621 0.439819 0.000000
0.556285 0.439819 0.000000
0.623324 0.439819 0.000000
0.688874 0.439819 0.000000
0.755230 0.439819 0.000000
0.822899 0.439819 0.000000
0.888430 0.439819 0.000000
0.954027 0.439819 0.000000
0.000000 0.504893 0.000000
0.030722 0.504893 0.000000
0.086471 0.504893 0.000000
0.153952 0.504893 0.000000
0.221345 0.504893 0.000000
0.289462 0.504893 0.000000
0.356043 0.504893 0.000000
0.422840 0.504893 0.000000
0.489621 0.504893 0.000000
0.556285 0.504893 0.000000
0.623324 0.504893 0.000000
0.688874 0.504893 0.000000
0.755230 0.504893 0.000000
0.822899 0.504893 0.000000
0.888430 0.504893 0.000000
0.954027 0.504893 0.000000
0.000000 0.568103 0.000000
0.030722 0.568103 0.000000
0.086471 0.568103 0.000000
0.153952 0.568103 0.000000
0.221345 0.568103 0.000000
0.289462 0.568103 0.000000
0.356043 0.568103 0.000000
0.422840 0.568103 0.000000
0.489621 0.568103 0.000000
0.556285 0.568103 0.000000
0.623324 0.568103 0.000000
0.688874 0.568103 0.000000
0.755230 0.568103 0.000000
0.822899 0.568103 0.000000
0.888430 0.568103 0.000000
0.954027 0.568103 0.000000
0.000000 0.629716 0.000000
0.030722 0.629716 0.000000
0.086471 0.629716 0.000000
0.153952 0.629716 0.000000
0.221345 0.629716 0.000000
0.289462 0.629716 0.000000
0.356043 0.629716 0.000000
0.422840 0.629716 0.000000
0.489621 0.629716 0.000000
0.556285 0.629716 0.000000
0.623324 0.629716 0.000000
0.688874 0.629716 0.000000
0.755230 0.629716 0.000000
0.822899 0.629716 0.000000
0.888430 0.629716 0.000000
0.954027 0.629716 0.000000
0.000000 0.689867 0.000000
0.030722 0.689867 0.000000
0.086471 0.689867 0.000000
0.153952 0.689867 0.000000
0.221345 0.689867 0.000000
0.289462 0.689867 0.000000
0.356043 0.689867 0.000000
0.422840 0.689867 0.000000
0.489621 0.689867 0.000000
0.556285 0.689867 0.000000
0.623324 0.689867 0.000000
0.688874 0.689867 0.000000
0.755230 0.689867 0.000000
0.822899 0.689867 0.000000
0.888430 0.689867 0.000000
0.954027 0.689867 0.000000
0.000000 0.748858 0.000000
0.030722 0.748858 0.000000
0.086471 0.748858 0.000000
0.153952 0.748858 0.000000
0.221345 0.748858 0.000000
0.289462 0.748858 0.000000
0.356043 0.748858 0.000000
0.422840 0.748858 0.000000
0.489621 0.748858 0.000000
0.556285 0.748858 0.000000
0.623324 0.748858 0.000000
0.688874 0.748858 0.000000
0.755230 0.748858 0.000000
0.822899 0.748858 0.000000
0.888430 0.748858 0.000000
0.954027 0.748858 0.000000
0.000000 0.806787 0.000000
0.030722 0.806787 0.000000
0.086471 0.806787 0.000000
0.153952 0.806787 0.000000
0.221345 0.806787 0.000000
0.289462 0.806787 0.000000
0.356043 0.806787 0.000000
0.422840 0.806787 0.000000
0.489621 0.806787 0.000000
0.556285 0.806787 0.000000
0.623324 0.806787 0.000000
0.688874 0.806787 0.000000
0.755230 0.806787 0.000000
0.822899 0.806787 0.000000
0.888430 0.806787 0.000000
0.954027 0.806787 0.000000
0.000000 0.863796 0.000000
0.030722 0.863796 0.000000
0.086471 0.863796 0.000000
0.153952 0.863796 0.000000
0.221345 0.863796 0.000000
0.289462 0.863796 0.000000
0.356043 0.863796 0.000000
0.422840 0.863796 0.000000
0.489621 0.863796 0.000000
0.556285 0.863796 0.000000
0.623324 0.863796 0.000000
0.688874 0.863796 0.000000
0.755230 0.863796 0.000000
0.822899 0.863796 0.000000
0.888430 0.863796 0.000000
0.954027 0.863796 0.000000
0.000000 0.919718 0.000000
0.030722 0.919718 0.000000
0.086471 0.919718 0.000000
0.153952 0.919718 0.000000
0.221345 0.919718 0.000000
0.289462 0.919718 0.000000
0.356043 0.919718 0.000000
0.422840 0.919718 0.000000
0.489621 0.919718 0.000000
0.556285 0.919718 0.000000
0.623324 0.919718 0.000000
0.688874 0.919718 0.000000
0.755230 0.919718 0.000000
0.822899 0.919718 0.000000
0.888430 0.919718 0.000000
0.954027 0.919718 0.000000
0.000000 0.974477 0.000000
0.030722 0.974477 0.000000
0.086471 0.974477 0.000000
0.153952 0.974477 0.000000
0.221345 0.974477 0.000000
0.289462 0.974477 0.000000
0.356043 0.974477 0.000000
0.422840 0.974477 0.000000
0.489621 0.974477 0.000000
0.556285 0.974477 0.000000
0.623324 0.974477 0.000000
0.688874 0.974477 0.000000
0.755230 0.974477 0.000000
0.822899 0.974477 0.000000
0.888430 0.974477 0.000000
0.954027 0.974477 0.000000
0.000000 0.000000 0.060110
0.030722 0.000000 0.060110
0.086471 0.000000 0.060110
0.153952 0.000000 0.060110
0.221345 0.000000 0.060110
0.289462 0.000000 0.060110
0.356043 0.000000 0.060110
0.422840 0.000000 0.060110
0.489621 0.000000 0.060110
0.556285 0.000000 0.060110
0.623324 0.000000 0.060110
0.688874 0.000000 0.060110
0.755230 0.000000 0.060110
0.822899 0.000000 0.060110
0.888430 0.000000 0.060110
0.954027 0.000000 0.060110
0.000000 0.065334 0.060110
0.030722 0.065334 0.060110
0.086471 0.065334 0.060110
0.153952 0.065334 0.060110
0.221345 0.065334 0.060110
0.289462 0.065334 0.060110
0.356043 0.065334 0.060110
0.422840 0.065334 0.060110
0.489621 0.065334 0.060110
0.556285 0.065334 0.060110
0.623324 0.065334 0.060110
0.688874 0.065334 0.060110
0.755230 0.065334 0.060110
0.822899 0.065334 0.060110
0.888430 0.065334 0.060110
0.954027 0.065334 0.060110
0.000000 0.146032 0.060110
0.030722 0.146032 0.060110
0.086471 0.146032 0.060110
0.153952 0.146032 0.060110
0.221345 0.146032 0.060110
0.289462 0.146032 0.060110
0.356043 0.146032 0.060110
0.422840 0.146032 0.060110
0.489621 0.146032 0.060110
0.556285 0.146032 0.060110
0.623324 0.146032 0.060110
0.688874 0.146032 0.060110
0.755230 0.146032 0.060110
0.822899 0.146032 0.060110
0.888430 0.146032 0.060110
0.954027 0.146032 0.060110
0.000000 0.227145 0.060110
0.030722 0.227145 0.060110
0.086471 0.227145 0.060110
0.153952 0.227145 0.060110
0.221345 0.227145 0.060110
0.289462 0.227145 0.060110
0.356043 0.227145 0.060110
0.422840 0.227145 0.060110
0.489621 0.227145 0.060110
0.556285 0.227145 0.060110
0.623324 0.227145 0.060110
0.688874 0.227145 0.060110
0.755230 0.227145 0.060110
0.822899 0.227145 0.060110
0.888430 0.227145 0.060110
0.954027 0.227145 0.060110
0.000000 0.301799 0.060110
0.030722 0.301799 0.060110
0.086471 0.301799 0.060110
0.153952 0.301799 0.060110
0.221345 0.301799 0.060110
0.289462 0.301799 0.060110
0.356043 0.301799 0.060110
0.422840 0.301799 0.060110
0.489621 0.301799 0.060110
0.556285 0.301799 0.060110
0.623324 0.301799 0.060110
0.688874 0.301799 0.060110
0.755230 0.301799 0.060110
0.822899 0.301799 0.060110
0.888430 0.301799 0.060110
0.954027 0.301799 0.060110
0.000000 0.372334 0.060110
0.030722 0.372334 0.060110
0.086471 0.372334 0.060110
0.153952 0.372334 0.060110
0.221345 0.372334 0.060110
0.289462 0.372334 0.060110
0.356043 0.372334 0.060110
0.422840 0.372334 0.060110
0.489621 0.372334 0.060110
0.556285 0.372334 0.060110
0.623324 0.372334 0.060110
0.688874 0.372334 0.060110
0.755230 0.372334 0.060110
0.822899 0.372334 0.060110
0.888430 0.372334 0.060110
0.954027 0.372334 0.060110
0.000000 0.439819 0.060110
0.030722 0.439819 0.060110
0.086471 0.439819 0.060110
0.153952 0.439819 0.060110
0.221345 0.439819 0.060110
0.289462 0.439819 0.060110
0.356043 0.439819 0.060110
0.422840 0.439819 0.060110
0.489621 0.439819 0.060110
0.556285 0.439819 0.060110
0.623324 0.439819 0.060110
0.688874 0.439819 0.060110
0.755230 0.439819 0.060110
0.822899 0.439819 0.060110
0.888430 0.439819 0.060110
0.954027 0.439819 0.060110
0.000000 0.504893 0.060110
0.030722 0.504893 0.060110
0.086471 0.504893 0.060110
0.153952 0.504893 0.060110
0.221345 0.504893 0.060110
0.289462 0.504893 0.060110
0.356043 0.504893 0.060110
0.422840 0.504893 0.060110
0.489621 0.504893 0.060110
0.556285 0.504893 0.060110
0.623324 0.504893 0.060110
0.688874 0.504893 0.060110
0.755230 0.504893 0.060110
0.822899 0.504893 0.060110
0.888430 0.504893 0.060110
0.954027 0.504893 0.060110
0.000000 0.568103 0.060110
0.030722 0.568103 0.060110
0.086471 0.568103 0.060110
0.153952 0.568103 0.060110
0.221345 0.568103 0.060110
0.289462 0.568103 0.060110
0.356043 0.568103 0.060110
0.422840 0.568103 0.060110
0.489621 0.568103 0.060110
0.556285 0.568103 0.060110
0.623324 0.568103 0.060110
0.688874 0.568103 0.060110
0.755230 0.568103 0.060110
0.822899 0.568103 0.060110
0.888430 0.568103 0.060110
0.954027 0.568103 0.060110
0.000000 0.629716 0.060110
0.030722 0.629716 0.060110
0.086471 0.629716 0.060110
0.153952 0.629716 0.060110
0.221345 0.629716 0.060110
0.289462 0.629716 0.060110
0.356043 0.629716 0.060110
0.422840 0.629716 0.060110
0.489621 0.629716 0.060110
0.556285 0.629716 0.060110
0.623324 0.629716 0.060110
0.688874 0.629716 0.060110
0.755230 0.629716 0.060110
0.822899 0.629716 0.060110
0.888430 0.629716 0.060110
0.954027 0.629716 0.060110
0.000000 0.689867 0.060110
0.030722 0.689867 0.060110
0.086471 0.689867 0.060110
0.153952 0.689867 0.060110
0.221345 0.689867 0.060110
0.289462 0.689867 0.060110
0.356043 0.689867 0.060110
0.422840 0.689867 0.060110
0.489621 0.689867 0.060110
0.556285 0.689867 0.060110
0.623324 0.689867 0.060110
0.688874 0.689867 0.060110
0.755230 0.689867 0.060110
0.822899 0.689867 0.060110
0.888430 0.689867 0.060110
0.954027 0.689867 0.060110
0.000000 0.748858 0.060110
0.030722 0.748858 0.060110
0.086471 0.748858 0.060110
0.153952 0.748858 0.060110
0.221345 0.748858 0.060110
0.289462 0.748858 0.060110
0.356043 0.748858 0.060110
0.422840 0.748858 0.060110
0.489621 0.748858 0.060110
0.556285 0.748858 0.060110
0.623324 0.748858 0.060110
0.688874 0.748858 0.060110
0.755230 0.748858 0.060110
0.822899 0.748858 0.060110
0.888430 0.748858 0.060110
0.954027 0.748858 0.060110
0.000000 0.806787 0.060110
0.030722 0.806787 0.060110
0.086471 0.806787 0.060110
0.153952 0.806787 0.060110
0.221345 0.806787 0.060110
0.289462 0.806787 0.060110
0.356043 0.806787 0.060110
0.422840 0.806787 0.060110
0.489621 0.806787 0.060110
0.556285 0.806787 0.060110
0.623324 0.806787 0.060110
0.688874 0.806787 0.060110
0.755230 0.806787 0.060110
0.822899 0.806787 0.060110
0.888430 0.806787 0.060110
0.954027 0.806787 0.060110
0.000000 0.863796 0.060110
0.030722 0.863796 0.060110
0.086471 0.863796 0.060110
0.153952 0.863796 0.060110
0.221345 0.863796 0.060110
0.289462 0.863796 0.060110
0.356043 0.863796 0.060110
0.422840 0.863796 0.060110
0.489621 0.863796 0.060110
0.556285 0.863796 0.060110
0.623324 0.863796 0.060110
0.688874 0.863796 0.060110
0.755230 0.863796 0.060110
0.822899 0.863796 0.060110
0.888430 0.863796 0.060110
0.954027 0.863796 0.060110
0.000000 0.919718 0.060110
0.030722 0.919718 0.060110
0.086471 0.919718 0.060110
0.153952 0.919718 0.060110
0.221345 0.919718 0.060110
0.289462 0.919718 0.060110
0.356043 0.919718 0.060110
0.422840 0.919718 0.060110
0.489621 0.919718 0.060110
0.556285 0.919718 0.060110
0.623324 0.919718 0.060110
0.688874 0.919718 0.060110
0.755230 0.919718 0.060110
0.822899 0.919718 0.060110
0.888430 0.919718 0.060110
0.954027 0.919718 0.060110
0.000000 0.974477 0.060110
0.030722 0.974477 0.060110
0.086471 0.974477 0.060110
0.153952 0.974477 0.060110
0.221345 0.974477 0.060110
0.289462 0.974477 0.060110
0.356043 0.974477 0.060110
0.422840 0.974477 0.060110
0.489621 0.974477 0.060110
0.556285 0.974477 0.060110
0.623324 0.974477 0.060110
0.688874 0.974477 0.060110
0.755230 0.974477 0.060110
0.822899 0.974477 0.060110
0.888430 0.974477 0.060110
0.954027 0.974477 0.060110
0.000000 0.000000 0.137088
0.030722 0.000000 0.137088
0.086471 0.000000 0.137088
0.153952 0.000000 0.137088
0.221345 0.000000 0.137088
0.289462 0.000000 0.137088
0.356043 0.000000 0.137088
0.422840 0.000000 0.137088
0.489621 0.000000 0.137088
0.556285 0.000000 0.137088
0.623324 0.000000 0.137088
0.688874 0.000000 0.137088
0.755230 0.000000 0.137088
0.822899 0.000000 0.137088
0.888430 0.000000 0.137088
0.954027 0.000000 0.137088
0.000000 0.065334 0.137088
0.030722 0.065334 0.137088
0.086471 0.065334 0.137088
0.153952 0.065334 0.137088
0.221345 0.065334 0.137088
0.289462 0.065334 0.137088
0.356043 0.065334 0.137088
0.422840 0.065334 0.137088
0.489621 0.065334 0.137088
0.556285 0.065334 0.137088
0.623324 0.065334 0.137088
0.688874 0.065334 0.137088
0.755230 0.065334 0.137088
0.822899 0.065334 0.137088
0.888430 0.065334 0.137088
0.954027 0.065334 0.137088
0.000000 0.146032 0.137088
0.030722 0.146032 0.137088
0.086471 0.146032 0.137088
0.153952 0.146032 0.137088
0.221345 0.146032 0.137088
0.289462 0.146032 0.137088
0.356043 0.146032 0.137088
0.422840 0.146032 0.137088
0.489621 0.146032 0.137088
0.556285 0.146032 0.137088
0.623324 0.146032 0.137088
0.688874 0.146032 0.137088
0.755230 0.146032 0.137088
0.822899 0.146032 0.137088
0.888430 0.146032 0.137088
0.954027 0.146032 0.137088
0.000000 0.227145 0.137088
0.030722 0.227145 0.137088
0.086471 0.227145 0.137088
0.153952 0.227145 0.137088
0.221345 0.227145 0.137088
0.289462 0.227145 0.137088
0.356043 0.227145 0.137088
0.422840 0.227145 0.137088
0.489621 0.227145 0.137088
0.556285 0.227145 0.137088
0.623324 0.227145 0.137088
0.688874 0.227145 0.137088
0.755230 0.227145 0.137088
0.822899 0.227145 0.137088
0.888430 0.227145 0.137088
0.954027 0.227145 0.137088
0.000000 0.301799 0.137088
0.030722 0.301799 0.137088
0.086471 0.301799 0.137088
0.153952 0.301799 0.137088
0.221345 0.301799 0.137088
0.289462 0.301799 0.137088
0.356043 0.301799 0.137088
0.422840 0.301799 0.137088
0.489621 0.301799 0.137088
0.556285 0.301799 0.137088
0.623324 0.301799 0.137088
0.688874 0.301799 0.137088
0.755230 0.301799 0.137088
0.822899 0.301799 0.137088
0.888430 0.301799 0.137088
0.954027 0.301799 0.137088
0.000000 0.372334 0.137088
0.030722 0.372334 0.137088
0.086471 0.372334 0.137088
0.153952 0.372334 0.137088
0.221345 0.372334 0.137088
0.289462 0.372334 0.137088
0.356043 0.372334 0.137088
0.422840 0.372334 0.137088
0.489621 0.372334 0.137088
0.556285 0.372334 0.137088
0.623324 0.372334 0.137088
0.688874 0.372334 0.137088
0.755230 0.372334 0.137088
0.822899 0.372334 0.137088
0.888430 0.372334 0.137088
0.954027 0.372334 0.137088
0.000000 0.439819 0.137088
0.030722 0.439819 0.137088
0.086471 0.439819 0.137088
0.153952 0.439819 0.137088
0.221345 0.439819 0.137088
0.289462 0.439819 0.137088
0.356043 0.439819 0.137088
0.422840 0.439819 0.137088
0.489621 0.439819 0.137088
0.556285 0.439819 0.137088
0.623324 0.439819 0.137088
0.688874 0.439819 0.137088
0.755230 0.439819 0.137088
0.822899 0.439819 0.137088
0.888430 0.439819 0.137088
0.954027 0.439819 0.137088
0.000000 0.504893 0.137088
0.030722 0.504893 0.137088
0.086471 0.504893 0.137088
0.153952 0.504893 0.137088
0.221345 0.504893 0.137088
0.289462 0.504893 0.137088
0.356043 0.504893 0.137088
0.422840 0.504893 0.137088
0.489621 0.504893 0.137088
0.556285 0.504893 0.137088
0.623324 0.504893 0.137088
0.688874 0.504893 0.137088
0.755230 0.504893 0.137088
0.822899 0.504893 0.137088
0.888430 0.504893 0.137088
0.954027 0.504893 0.137088
0.000000 0.568103 0.137088
0.030722 0.568103 0.137088
0.086471 0.568103 0.137088
0.153952 0.568103 0.137088
0.221345 0.568103 0.137088
0.289462 0.568103 0.137088
0.356043 0.568103 0.137088
0.422840 0.568103 0.137088
0.489621 0.568103 0.137088
0.556285 0.568103 0.137088
0.623324 0.568103 0.137088
0.688874 0.568103 0.137088
0.755230 0.568103 0.137088
0.822899 0.568103 0.137088
0.888430 0.568103 0.137088
0.954027 0.568103 0.137088
0.000000 0.629716 0.137088
0.030722 0.629716 0.137088
0.086471 0.629716 0.137088
0.153952 0.629716 0.137088
0.221345 0.629716 0.137088
0.289462 0.629716 0.137088
0.356043 0.629716 0.137088
0.422840 0.629716 0.137088
0.489621 0.629716 0.137088
0.556285 0.629716 0.137088
0.623324 0.629716 0.137088
0.688874 0.629716 0.137088
0.755230 0.629716 0.137088
0.822899 0.629716 0.137088
0.888430 0.629716 0.137088
0.954027 0.629716 0.137088
0.000000 0.689867 0.137088
0.030722 0.689867 0.137088
0.086471 0.689867 0.137088
0.153952 0.689867 0.137088
0.221345 0.689867 0.137088
0.289462 0.689867 0.137088
0.356043 0.689867 0.137088
0.422840 0.689867 0.137088
0.489621 0.689867 0.137088
0.556285 0.689867 0.137088
0.623324 0.689867 0.137088
0.688874 0.689867 0.137088
0.755230 0.689867 0.137088
0.822899 0.689867 0.137088
0.888430 0.689867 0.137088
0.954027 0.689867 0.137088
0.000000 0.748858 0.137088
0.030722 0.748858 0.137088
0.086471 0.748858 0.137088
0.153952 0.748858 0.137088
0.221345 0.748858 0.137088
0.289462 0.748858 0.137088
0.356043 0.748858 0.137088
0.422840 0.748858 0.137088
0.489621 0.748858 0.137088
0.556285 0.748858 0.137088
0.623324 0.748858 0.137088
0.688874 0.748858 0.137088
0.755230 0.748858 0.137088
0.822899 0.748858 0.137088
0.888430 0.748858 0.137088
0.954027 0.748858 0.137088
0.000000 0.806787 0.137088
0.030722 0.806787 0.137088
0.086471 0.806787 0.137088
0.153952 0.806787 0.137088
0.221345 0.806787 0.137088
0.289462 0.806787 0.137088
0.356043 0.806787 0.137088
0.422840 0.806787 0.137088
0.489621 0.806787 0.137088
0.556285 0.806787 0.137088
0.623324 0.806787 0.137088
0.688874 0.806787 0.137088
0.755230 0.806787 0.137088
0.822899 0.806787 0.137088
0.888430 0.806787 0.137088
0.954027 0.806787 0.137088
0.000000 0.863796 0.137088
0.030722 0.863796 0.137088
0.086471 0.863796 0.137088
0.153952 0.863796 0.137088
0.221345 0.863796 0.137088
0.289462 0.863796 0.137088
0.356043 0.863796 0.137088
0.422840 0.863796 0.137088
0.489621 0.863796 0.137088
0.556285 0.863796 0.137088
0.623324 0.863796 0.137088
0.688874 0.863796 0.137088
0.755230 0.863796 0.137088
0.822899 0.863796 0.137088
0.888430 0.863796 0.137088
0.954027 0.863796 0.137088
0.000000 0.919718 0.137088
0.030722 0.919718 0.137088
0.086471 0.919718 0.137088
0.153952 0.919718 0.137088
0.221345 0.919718 0.137088
0.289462 0.919718 0.137088
0.356043 0.919718 0.137088
0.422840 0.919718 0.137088
0.489621 0.919718 0.137088
0.556285 0.919718 0.137088
0.623324 0.919718 0.137088
0.688874 0.919718 0.137088
0.755230 0.919718 0.137088
0.822899 0.919718 0.137088
0.888430 0.919718 0.137088
0.954027 0.919718 0.137088
0.000000 0.974477 0.137088
0.030722 0.974477 0.137088
0.086471 0.974477 0.137088
0.153952 0.974477 0.137088
0.221345 0.974477 0.137088
0.289462 0.974477 0.137088
0.356043 0.974477 0.137088
0.422840 0.974477 0.137088
0.489621 0.974477 0.137088
0.556285 0.974477 0.137088
0.623324 0.974477 0.137088
0.688874 0.974477 0.137088
0.755230 0.974477 0.137088
0.822899 0.974477 0.137088
0.888430 0.974477 0.137088
0.954027 0.974477 0.137088
0.000000 0.000000 0.215505
0.030722 0.000000 0.215505
0.086471 0.000000 0.215505
0.153952 0.000000 0.215505
0.221345 0.000000 0.215505
0.289462 0.000000 0.215505
0.356043 0.000000 0.215505
0.422840 0.000000 0.215505
0.489621 0.000000 0.215505
0.556285 0.000000 0.215505
0.623324 0.000000 0.215505
0.688874 0.000000 0.215505
0.755230 0.000000 0.215505
0.822899 0.000000 0.215505
0.888430 0.000000 0.215505
0.954027 0.000000 0.215505
0.000000 0.065334 0.215505
0.030722 0.065334 0.215505
0.086471 0.065334 0.215505
0.153952 0.065334 0.215505
0.221345 0.065334 0.215505
0.289462 0.065334 0.215505
0.356043 0.065334 0.215505
0.422840 0.065334 0.215505
0.489621 0.065334 0.215505
0.556285 0.065334 0.215505
0.623324 0.065334 0.215505
0.688874 0.065334 0.215505
0.755230 0.065334 0.215505
0.822899 0.065334 0.215505
0.888430 0.065334 0.215505
0.954027 0.065334 0.215505
0.000000 0.146032 0.215505
0.030722 0.146032 0.215505
0.086471 0.146032 0.215505
0.153952 0.146032 0.215505
0.221345 0.146032 0.215505
0.289462 0.146032 0.215505
0.356043 0.146032 0.215505
0.422840 0.146032 0.215505
0.489621 0.146032 0.215505
0.556285 0.146032 0.215505
0.623324 0.146032 0.215505
0.688874 0.146032 0.215505
0.755230 0.146032 0.215505
0.822899 0.146032 0.215505
0.888430 0.146032 0.215505
0.954027 0.146032 0.215505
0.000000 0.227145 0.215505
0.030722 0.227145 0.215505
0.086471 0.227145 0.215505
0.153952 0.227145 0.215505
0.221345 0.227145 0.215505
0.289462 0.227145 0.215505
0.356043 0.227145 0.215505
0.422840 0.227145 0.215505
0.489621 0.227145 0.215505
0.556285 0.227145 0.215505
0.623324 0.227145 0.215505
0.688874 0.227145 0.215505
0.755230 0.227145 0.215505
0.822899 0.227145 0.215505
0.888430 0.227145 0.215505
0.954027 0.227145 0.215505
0.000000 0.301799 0.215505
0.030722 0.301799 0.215505
0.086471 0.301799 0.215505
0.153952 0.301799 0.215505
0.221345 0.301799 0.215505
0.289462 0.301799 0.215505
0.356043 0.301799 0.215505
0.422840 0.301799 0.215505
0.489621 0.301799 0.215505
0.556285 0.301799 0.215505
0.623324 0.301799 0.215505
0.688874 0.301799 0.215505
0.755230 0.301799 0.215505
0.822899 0.301799 0.215505
0.888430 0.301799 0.215505
0.954027 0.301799 0.215505
0.000000 0.372334 0.215505
0.030722 0.372334 0.215505
0.086471 0.372334 0.215505
0.153952 0.372334 0.215505
0.221345 0.372334 0.215505
0.289462 0.372334 0.215505
0.356043 0.372334 0.215505
0.422840 0.372334 0.215505
0.489621 0.372334 0.215505
0.556285 0.372334 0.215505
0.623324 0.372334 0.215505
0.688874 0.372334 0.215505
0.755230 0.372334 0.215505
0.822899 0.372334 0.215505
0.888430 0.372334 0.215505
0.954027 0.372334 0.215505
0.000000 0.439819 0.215505
0.030722 0.439819 0.215505
0.086471 0.439819 0.215505
0.153952 0.439819 0.215505
0.221345 0.439819 0.215505
0.289462 0.439819 0.215505
0.356043 0.439819 0.215505
0.422840 0.439819 0.215505
0.489621 0.439819 0.215505
0.556285 0.439819 0.215505
0.623324 0.439819 0.215505
0.688874 0.439819 0.215505
0.755230 0.439819 0.215505
0.822899 0.439819 0.215505
0.888430 0.439819 0.215505
0.954027 0.439819 0.215505
0.000000 0.504893 0.215505
0.030722 0.504893 0.215505
0.086471 0.504893 0.215505
0.153952 0.504893 0.215505
0.221345 0.504893 0.215505
0.289462 0.504893 0.215505
0.356043 0.504893 0.215505
0.422840 0.504893 0.215505
