example_ofxGpuLutCube/bin/data/ofxGpuLutCube/LUT/A17 (clear cold fade).cube
LUT_3D_SIZE 6
0.000000 0.000000 0.000000
0.153952 0.000000 0.000000
0.356043 0.000000 0.000000
0.556285 0.000000 0.000000
0.755230 0.000000 0.000000
0.954027 0.000000 0.000000
0.000000 0.227145 0.000000
0.153952 0.227145 0.000000
0.356043 0.227145 0.000000
0.556285 0.227145 0.000000
0.755230 0.227145 0.000000
0.954027 0.227145 0.000000
0.000000 0.439819 0.000000
0.153952 0.439819 0.000000
0.356043 0.439819 0.000000
0.556285 0.439819 0.000000
0.755230 0.439819 0.000000
0.954027 0.439819 0.000000
0.000000 0.629716 0.000000
0.153952 0.629716 0.000000
0.356043 0.629716 0.000000
0.556285 0.629716 0.000000
0.755230 0.629716 0.000000
0.954027 0.629716 0.000000
0.000000 0.806787 0.000000
0.153952 0.806787 0.000000
0.356043 0.806787 0.000000
0.556285 0.806787 0.000000
0.755230 0.806787 0.000000
0.954027 0.806787 0.000000
0.000000 0.974477 0.000000
0.153952 0.974477 0.000000
0.356043 0.974477 0.000000
0.556285 0.974477 0.000000
0.755230 0.974477 0.000000
0.954027 0.974477 0.000000
0.000000 0.000000 0.215505
0.153952 0.000000 0.215505
0.356043 0.000000 0.215505
0.556285 0.000000 0.215505
0.755230 0.000000 0.215505
0.954027 0.000000 0.215505
0.000000 0.227145 0.215505
0.153952 0.227145 0.215505
0.356043 0.227145 0.215505
0.556285 0.227145 0.215505
0.755230 0.227145 0.215505
0.954027 0.227145 0.215505
0.000000 0.439819 0.215505
0.153952 0.439819 0.215505
0.356043 0.439819 0.215505
0.556285 0.439819 0.215505
0.755230 0.439819 0.215505
0.954027 0.439819 0.215505
0.000000 0.629716 0.215505
0.153952 0.629716 0.215505
0.356043 0.629716 0.215505
0.556285 0.629716 0.215505
0.755230 0.629716 0.215505
0.954027 0.629716 0.215505
0.000000 0.806787 0.215505
0.153952 0.806787 0.215505
0.356043 0.806787 0.215505
0.556285 0.806787 0.215505
0.755230 0.806787 0.215505
0.954027 0.806787 0.215505
0.000000 0.974477 0.215505
0.153952 0.974477 0.215505
0.356043 0.974477 0.215505
0.556285 0.974477 0.215505
0.755230 0.974477 0.215505
0.954027 0.974477 0.215505
0.000000 0.000000 0.425740
0.153952 0.000000 0.425740
0.356043 0.000000 0.425740
0.556285 0.000000 0.425740
0.755230 0.000000 0.425740
0.954027 0.000000 0.425740
0.000000 0.227145 0.425740
0.153952 0.227145 0.425740
0.356043 0.227145 0.425740
0.556285 0.227145 0.425740
0.755230 0.227145 0.425740
0.954027 0.227145 0.425740
0.000000 0.439819 0.425740
0.153952 0.439819 0.425740
0.356043 0.439819 0.425740
0.556285 0.439819 0.425740
0.755230 0.439819 0.425740
0.954027 0.439819 0.425740
0.000000 0.629716 0.425740
0.153952 0.629716 0.425740
0.356043 0.629716 0.425740
0.556285 0.629716 0.425740
0.755230 0.629716 0.425740
0.954027 0.629716 0.425740
0.000000 0.806787 0.425740
0.153952 0.806787 0.425740
0.356043 0.806787 0.425740
0.556285 0.806787 0.425740
0.755230 0.806787 0.425740
0.954027 0.806787 0.425740
0.000000 0.974477 0.425740
0.153952 0.974477 0.425740
0.356043 0.974477 0.425740
0.556285 0.974477 0.425740
0.755230 0.974477 0.425740
0.954027 0.974477 0.425740
0.000000 0.000000 0.616882
0.153952 0.000000 0.616882
0.356043 0.000000 0.616882
0.556285 0.000000 0.616882
0.755230 0.000000 0.616882
0.954027 0.000000 0.616882
0.000000 0.227145 0.616882
0.153952 0.227145 0.616882
0.356043 0.227145 0.616882
0.556285 0.227145 0.616882
0.755230 0.227145 0.616882
0.954027 0.227145 0.616882
0.000000 0.439819 0.616882
0.153952 0.439819 0.616882
0.356043 0.439819 0.616882
0.556285 0.439819 0.616882
0.755230 0.439819 0.616882
0.954027 0.439819 0.616882
0.000000 0.629716 0.616882
0.153952 0.629716 0.616882
0.356043 0.629716 0.616882
0.556285 0.629716 0.616882
0.755230 0.629716 0.616882
0.954027 0.629716 0.616882
0.000000 0.806787 0.616882
0.153952 0.806787 0.616882
0.356043 0.806787 0.616882
0.556285 0.806787 0.616882
0.755230 0.806787 0.616882
0.954027 0.806787 0.616882
0.000000 0.974477 0.616882
0.153952 0.974477 0.616882
0.356043 0.974477 0.616882
0.556285 0.974477 0.616882
0.755230 0.974477 0.616882
0.954027 0.974477 0.616882
0.000000 0.000000 0.797197
0.153952 0.000000 0.797197
0.356043 0.000000 0.797197
0.556285 0.000000 0.797197
0.755230 0.000000 0.797197
0.954027 0.000000 0.797197
0.000000 0.227145 0.797197
0.153952 0.227145 0.797197
0.356043 0.227145 0.797197
0.556285 0.227145 0.797197
0.755230 0.227145 0.797197
0.954027 0.227145 0.797197
0.000000 0.439819 0.797197
0.153952 0.439819 0.797197
0.356043 0.439819 0.797197
0.556285 0.439819 0.797197
0.755230 0.439819 0.797197
0.954027 0.439819 0.797197
0.000000 0.629716 0.797197
0.153952 0.629716 0.797197
0.356043 0.629716 0.797197
0.556285 0.629716 0.797197
0.755230 0.629716 0.797197
0.954027 0.629716 0.797197
0.000000 0.806787 0.797197
0.153952 0.806787 0.797197
0.356043 0.806787 0.797197
0.556285 0.806787 0.797197
0.755230 0.806787 0.797197
0.954027 0.806787 0.797197
0.000000 0.974477 0.797197
0.153952 0.974477 0.797197
0.356043 0.974477 0.797197
0.556285 0.974477 0.797197
0.755230 0.974477 0.797197
0.954027 0.974477 0.797197
0.000000 0.000000 0.969309
0.153952 0.000000 0.969309
0.356043 0.000000 0.969309
0.556285 0.000000 0.969309
0.755230 0.000000 0.969309
0.954027 0.000000 0.969309
0.000000 0.227145 0.969309
0.153952 0.227145 0.969309
0.356043 0.227145 0.969309
0.556285 0.227145 0.969309
0.755230 0.227145 0.969309
0.954027 0.227145 0.969309
0.000000 0.439819 0.969309
0.153952 0.439819 0.969309
0.356043 0.439819 0.969309
0.556285 0.439819 0.969309
0.755230 0.439819 0.969309
0.954027 0.439819 0.969309
0.000000 0.629716 0.969309
0.153952 0.629716 0.969309
0.356043 0.629716 0.969309
0.556285 0.629716 0.969309
0.755230 0.629716 0.969309
0.954027 0.629716 0.969309
0.000000 0.806787 0.969309
0.153952 0.806787 0.969309
0.356043 0.806787 0.969309
0.556285 0.806787 0.969309
0.755230 0.806787 0.969309
0.954027 0.806787 0.969309
0.000000 0.974477 0.969309
0.153952 0.974477 0.969309
0.356043 0.974477 0.969309
0.556285 0.974477 0.969309
0.755230 0.974477 0.969309
0.954027 0.974477 0.969309
