example_ofxGpuLutCube/bin/data/ofxGpuLutCube/LUT/A18 (sunset greenish fade).cube
LUT_3D_SIZE 6
0.000000 0.000000 0.000000
0.191760 0.000000 0.000000
0.426745 0.000000 0.000000
0.630932 0.000000 0.000000
0.818949 0.000000 0.000000
0.996944 0.000000 0.000000
0.000000 0.149814 0.000000
0.191760 0.149814 0.000000
0.426745 0.149814 0.000000
0.630932 0.149814 0.000000
0.818949 0.149814 0.000000
0.996944 0.149814 0.000000
0.000000 0.371622 0.000000
0.191760 0.371622 0.000000
0.426745 0.371622 0.000000
0.630932 0.371622 0.000000
0.818949 0.371622 0.000000
0.996944 0.371622 0.000000
0.000000 0.584617 0.000000
0.191760 0.584617 0.000000
0.426745 0.584617 0.000000
0.630932 0.584617 0.000000
0.818949 0.584617 0.000000
0.996944 0.584617 0.000000
0.000000 0.792591 0.000000
0.191760 0.792591 0.000000
0.426745 0.792591 0.000000
0.630932 0.792591 0.000000
0.818949 0.792591 0.000000
0.996944 0.792591 0.000000
0.000000 0.996362 0.000000
0.191760 0.996362 0.000000
0.426745 0.996362 0.000000
0.630932 0.996362 0.000000
0.818949 0.996362 0.000000
0.996944 0.996362 0.000000
0.000000 0.000000 0.078187
0.191760 0.000000 0.078187
0.426745 0.000000 0.078187
0.630932 0.000000 0.078187
0.818949 0.000000 0.078187
0.996944 0.000000 0.078187
0.000000 0.149814 0.078187
0.191760 0.149814 0.078187
0.426745 0.149814 0.078187
0.630932 0.149814 0.078187
0.818949 0.149814 0.078187
0.996944 0.149814 0.078187
0.000000 0.371622 0.078187
0.191760 0.371622 0.078187
0.426745 0.371622 0.078187
0.630932 0.371622 0.078187
0.818949 0.371622 0.078187
0.996944 0.371622 0.078187
0.000000 0.584617 0.078187
0.191760 0.584617 0.078187
0.426745 0.584617 0.078187
0.630932 0.584617 0.078187
0.818949 0.584617 0.078187
0.996944 0.584617 0.078187
0.000000 0.792591 0.078187
0.191760 0.792591 0.078187
0.426745 0.792591 0.078187
0.630932 0.792591 0.078187
0.818949 0.792591 0.078187
0.996944 0.792591 0.078187
0.000000 0.996362 0.078187
0.191760 0.996362 0.078187
0.426745 0.996362 0.078187
0.630932 0.996362 0.078187
0.818949 0.996362 0.078187
0.996944 0.996362 0.078187
0.000000 0.000000 0.249885
0.191760 0.000000 0.249885
0.426745 0.000000 0.249885
0.630932 0.000000 0.249885
0.818949 0.000000 0.249885
0.996944 0.000000 0.249885
0.000000 0.149814 0.249885
0.191760 0.149814 0.249885
0.426745 0.149814 0.249885
0.630932 0.149814 0.249885
0.818949 0.149814 0.249885
0.996944 0.149814 0.249885
0.000000 0.371622 0.249885
0.191760 0.371622 0.249885
0.426745 0.371622 0.249885
0.630932 0.371622 0.249885
0.818949 0.371622 0.249885
0.996944 0.371622 0.249885
0.000000 0.584617 0.249885
0.191760 0.584617 0.249885
0.426745 0.584617 0.249885
0.630932 0.584617 0.249885
0.818949 0.584617 0.249885
0.996944 0.584617 0.249885
0.000000 0.792591 0.249885
0.191760 0.792591 0.249885
0.426745 0.792591 0.249885
0.630932 0.792591 0.249885
0.818949 0.792591 0.249885
0.996944 0.792591 0.249885
0.000000 0.996362 0.249885
0.191760 0.996362 0.249885
0.426745 0.996362 0.249885
0.630932 0.996362 0.249885
0.818949 0.996362 0.249885
0.996944 0.996362 0.249885
0.000000 0.000000 0.448128
0.191760 0.000000 0.448128
0.426745 0.000000 0.448128
0.630932 0.000000 0.448128
0.818949 0.000000 0.448128
0.996944 0.000000 0.448128
0.000000 0.149814 0.448128
0.191760 0.149814 0.448128
0.426745 0.149814 0.448128
0.630932 0.149814 0.448128
0.818949 0.149814 0.448128
0.996944 0.149814 0.448128
0.000000 0.371622 0.448128
0.191760 0.371622 0.448128
0.426745 0.371622 0.448128
0.630932 0.371622 0.448128
0.818949 0.371622 0.448128
0.996944 0.371622 0.448128
0.000000 0.584617 0.448128
0.191760 0.584617 0.448128
0.426745 0.584617 0.448128
0.630932 0.584617 0.448128
0.818949 0.584617 0.448128
0.996944 0.584617 0.448128
0.000000 0.792591 0.448128
0.191760 0.792591 0.448128
0.426745 0.792591 0.448128
0.630932 0.792591 0.448128
0.818949 0.792591 0.448128
0.996944 0.792591 0.448128
0.000000 0.996362 0.448128
0.191760 0.996362 0.448128
0.426745 0.996362 0.448128
0.630932 0.996362 0.448128
0.818949 0.996362 0.448128
0.996944 0.996362 0.448128
0.000000 0.000000 0.664004
0.191760 0.000000 0.664004
0.426745 0.000000 0.664004
0.630932 0.000000 0.664004
0.818949 0.000000 0.664004
0.996944 0.000000 0.664004
0.000000 0.149814 0.664004
0.191760 0.149814 0.664004
0.426745 0.149814 0.664004
0.630932 0.149814 0.664004
0.818949 0.149814 0.664004
0.996944 0.149814 0.664004
0.000000 0.371622 0.664004
0.191760 0.371622 0.664004
0.426745 0.371622 0.664004
0.630932 0.371622 0.664004
0.818949 0.371622 0.664004
0.996944 0.371622 0.664004
0.000000 0.584617 0.664004
0.191760 0.584617 0.664004
0.426745 0.584617 0.664004
0.630932 0.584617 0.664004
0.818949 0.584617 0.664004
0.996944 0.584617 0.664004
0.000000 0.792591 0.664004
0.191760 0.792591 0.664004
0.426745 0.792591 0.664004
0.630932 0.792591 0.664004
0.818949 0.792591 0.664004
0.996944 0.792591 0.664004
0.000000 0.996362 0.664004
0.191760 0.996362 0.664004
0.426745 0.996362 0.664004
0.630932 0.996362 0.664004
0.818949 0.996362 0.664004
0.996944 0.996362 0.664004
0.000000 0.000000 0.892737
0.191760 0.000000 0.892737
0.426745 0.000000 0.892737
0.630932 0.000000 0.892737
0.818949 0.000000 0.892737
0.996944 0.000000 0.892737
0.000000 0.149814 0.892737
0.191760 0.149814 0.892737
0.426745 0.149814 0.892737
0.630932 0.149814 0.892737
0.818949 0.149814 0.892737
0.996944 0.149814 0.892737
0.000000 0.371622 0.892737
0.191760 0.371622 0.892737
0.426745 0.371622 0.892737
0.630932 0.371622 0.892737
0.818949 0.371622 0.892737
0.996944 0.371622 0.892737
0.000000 0.584617 0.892737
0.191760 0.584617 0.892737
0.426745 0.584617 0.892737
0.630932 0.584617 0.892737
0.818949 0.584617 0.892737
0.996944 0.584617 0.892737
0.000000 0.792591 0.892737
0.191760 0.792591 0.892737
0.426745 0.792591 0.892737
0.630932 0.792591 0.892737
0.818949 0.792591 0.892737
0.996944 0.792591 0.892737
0.000000 0.996362 0.892737
0.191760 0.996362 0.892737
0.426745 0.996362 0.892737
0.630932 0.996362 0.892737
0.818949 0.996362 0.892737
0.996944 0.996362 0.892737
