example_ofxGpuLutCube/bin/data/ofxGpuLutCube/LUT/A18 (sunset greenish fade).cube
LUT_3D_SIZE 16
0.000000 0.000000 0.000000
0.036514 0.000000 0.000000
0.104353 0.000000 0.000000
0.191760 0.000000 0.000000
0.275279 0.000000 0.000000
0.353826 0.000000 0.000000
0.426745 0.000000 0.000000
0.497015 0.000000 0.000000
0.564961 0.000000 0.000000
0.630932 0.000000 0.000000
0.695565 0.000000 0.000000
0.757478 0.000000 0.000000
0.818949 0.000000 0.000000
0.880480 0.000000 0.000000
0.939026 0.000000 0.000000
0.996944 0.000000 0.000000
0.000000 0.022861 0.000000
0.036514 0.022861 0.000000
0.104353 0.022861 0.000000
0.191760 0.022861 0.000000
0.275279 0.022861 0.000000
0.353826 0.022861 0.000000
0.426745 0.022861 0.000000
0.497015 0.022861 0.000000
0.564961 0.022861 0.000000
0.630932 0.022861 0.000000
0.695565 0.022861 0.000000
0.757478 0.022861 0.000000
0.818949 0.022861 0.000000
0.880480 0.022861 0.000000
0.939026 0.022861 0.000000
0.996944 0.022861 0.000000
0.000000 0.075676 0.000000
0.036514 0.075676 0.000000
0.104353 0.075676 0.000000
0.191760 0.075676 0.000000
0.275279 0.075676 0.000000
0.353826 0.075676 0.000000
0.426745 0.075676 0.000000
0.497015 0.075676 0.000000
0.564961 0.075676 0.000000
0.630932 0.075676 0.000000
0.695565 0.075676 0.000000
0.757478 0.075676 0.000000
0.818949 0.075676 0.000000
0.880480 0.075676 0.000000
0.939026 0.075676 0.000000
0.996944 0.075676 0.000000
0.000000 0.149814 0.000000
0.036514 0.149814 0.000000
0.104353 0.149814 0.000000
0.191760 0.149814 0.000000
0.275279 0.149814 0.000000
0.353826 0.149814 0.000000
0.426745 0.149814 0.000000
0.497015 0.149814 0.000000
0.564961 0.149814 0.000000
0.630932 0.149814 0.000000
0.695565 0.149814 0.000000
0.757478 0.149814 0.000000
0.818949 0.149814 0.000000
0.880480 0.149814 0.000000
0.939026 0.149814 0.000000
0.996944 0.149814 0.000000
0.000000 0.225208 0.000000
0.036514 0.225208 0.000000
0.104353 0.225208 0.000000
0.191760 0.225208 0.000000
0.275279 0.225208 0.000000
0.353826 0.225208 0.000000
0.426745 0.225208 0.000000
0.497015 0.225208 0.000000
0.564961 0.225208 0.000000
0.630932 0.225208 0.000000
0.695565 0.225208 0.000000
0.757478 0.225208 0.000000
0.818949 0.225208 0.000000
0.880480 0.225208 0.000000
0.939026 0.225208 0.000000
0.996944 0.225208 0.000000
0.000000 0.298967 0.000000
0.036514 0.298967 0.000000
0.104353 0.298967 0.000000
0.191760 0.298967 0.000000
0.275279 0.298967 0.000000
0.353826 0.298967 0.000000
0.426745 0.298967 0.000000
0.497015 0.298967 0.000000
0.564961 0.298967 0.000000
0.630932 0.298967 0.000000
0.695565 0.298967 0.000000
0.757478 0.298967 0.000000
0.818949 0.298967 0.000000
0.880480 0.298967 0.000000
0.939026 0.298967 0.000000
0.996944 0.298967 0.000000
0.000000 0.371622 0.000000
0.036514 0.371622 0.000000
0.104353 0.371622 0.000000
0.191760 0.371622 0.000000
0.275279 0.371622 0.000000
0.353826 0.371622 0.000000
0.426745 0.371622 0.000000
0.497015 0.371622 0.000000
0.564961 0.371622 0.000000
0.630932 0.371622 0.000000
0.695565 0.371622 0.000000
0.757478 0.371622 0.000000
0.818949 0.371622 0.000000
0.880480 0.371622 0.000000
0.939026 0.371622 0.000000
0.996944 0.371622 0.000000
0.000000 0.443274 0.000000
0.036514 0.443274 0.000000
0.104353 0.443274 0.000000
0.191760 0.443274 0.000000
0.275279 0.443274 0.000000
0.353826 0.443274 0.000000
0.426745 0.443274 0.000000
0.497015 0.443274 0.000000
0.564961 0.443274 0.000000
0.630932 0.443274 0.000000
0.695565 0.443274 0.000000
0.757478 0.443274 0.000000
0.818949 0.443274 0.000000
0.880480 0.443274 0.000000
0.939026 0.443274 0.000000
0.996944 0.443274 0.000000
0.000000 0.514256 0.000000
0.036514 0.514256 0.000000
0.104353 0.514256 0.000000
0.191760 0.514256 0.000000
0.275279 0.514256 0.000000
0.353826 0.514256 0.000000
0.426745 0.514256 0.000000
0.497015 0.514256 0.000000
0.564961 0.514256 0.000000
0.630932 0.514256 0.000000
0.695565 0.514256 0.000000
0.757478 0.514256 0.000000
0.818949 0.514256 0.000000
0.880480 0.514256 0.000000
0.939026 0.514256 0.000000
0.996944 0.514256 0.000000
0.000000 0.584617 0.000000
0.036514 0.584617 0.000000
0.104353 0.584617 0.000000
0.191760 0.584617 0.000000
0.275279 0.584617 0.000000
0.353826 0.584617 0.000000
0.426745 0.584617 0.000000
0.497015 0.584617 0.000000
0.564961 0.584617 0.000000
0.630932 0.584617 0.000000
0.695565 0.584617 0.000000
0.757478 0.584617 0.000000
0.818949 0.584617 0.000000
0.880480 0.584617 0.000000
0.939026 0.584617 0.000000
0.996944 0.584617 0.000000
0.000000 0.654376 0.000000
0.036514 0.654376 0.000000
0.104353 0.654376 0.000000
0.191760 0.654376 0.000000
0.275279 0.654376 0.000000
0.353826 0.654376 0.000000
0.426745 0.654376 0.000000
0.497015 0.654376 0.000000
0.564961 0.654376 0.000000
0.630932 0.654376 0.000000
0.695565 0.654376 0.000000
0.757478 0.654376 0.000000
0.818949 0.654376 0.000000
0.880480 0.654376 0.000000
0.939026 0.654376 0.000000
0.996944 0.654376 0.000000
0.000000 0.723708 0.000000
0.036514 0.723708 0.000000
0.104353 0.723708 0.000000
0.191760 0.723708 0.000000
0.275279 0.723708 0.000000
0.353826 0.723708 0.000000
0.426745 0.723708 0.000000
0.497015 0.723708 0.000000
0.564961 0.723708 0.000000
0.630932 0.723708 0.000000
0.695565 0.723708 0.000000
0.757478 0.723708 0.000000
0.818949 0.723708 0.000000
0.880480 0.723708 0.000000
0.939026 0.723708 0.000000
0.996944 0.723708 0.000000
0.000000 0.792591 0.000000
0.036514 0.792591 0.000000
0.104353 0.792591 0.000000
0.191760 0.792591 0.000000
0.275279 0.792591 0.000000
0.353826 0.792591 0.000000
0.426745 0.792591 0.000000
0.497015 0.792591 0.000000
0.564961 0.792591 0.000000
0.630932 0.792591 0.000000
0.695565 0.792591 0.000000
0.757478 0.792591 0.000000
0.818949 0.792591 0.000000
0.880480 0.792591 0.000000
0.939026 0.792591 0.000000
0.996944 0.792591 0.000000
0.000000 0.861214 0.000000
0.036514 0.861214 0.000000
0.104353 0.861214 0.000000
0.191760 0.861214 0.000000
0.275279 0.861214 0.000000
0.353826 0.861214 0.000000
0.426745 0.861214 0.000000
0.497015 0.861214 0.000000
0.564961 0.861214 0.000000
0.630932 0.861214 0.000000
0.695565 0.861214 0.000000
0.757478 0.861214 0.000000
0.818949 0.861214 0.000000
0.880480 0.861214 0.000000
0.939026 0.861214 0.000000
0.996944 0.861214 0.000000
0.000000 0.929164 0.000000
0.036514 0.929164 0.000000
0.104353 0.929164 0.000000
0.191760 0.929164 0.000000
0.275279 0.929164 0.000000
0.353826 0.929164 0.000000
0.426745 0.929164 0.000000
0.497015 0.929164 0.000000
0.564961 0.929164 0.000000
0.630932 0.929164 0.000000
0.695565 0.929164 0.000000
0.757478 0.929164 0.000000
0.818949 0.929164 0.000000
0.880480 0.929164 0.000000
0.939026 0.929164 0.000000
0.996944 0.929164 0.000000
0.000000 0.996362 0.000000
0.036514 0.996362 0.000000
0.104353 0.996362 0.000000
0.191760 0.996362 0.000000
0.275279 0.996362 0.000000
0.353826 0.996362 0.000000
0.426745 0.996362 0.000000
0.497015 0.996362 0.000000
0.564961 0.996362 0.000000
0.630932 0.996362 0.000000
0.695565 0.996362 0.000000
0.757478 0.996362 0.000000
0.818949 0.996362 0.000000
0.880480 0.996362 0.000000
0.939026 0.996362 0.000000
0.996944 0.996362 0.000000
0.000000 0.000000 0.007143
0.036514 0.000000 0.007143
0.104353 0.000000 0.007143
0.191760 0.000000 0.007143
0.275279 0.000000 0.007143
0.353826 0.000000 0.007143
0.426745 0.000000 0.007143
0.497015 0.000000 0.007143
0.564961 0.000000 0.007143
0.630932 0.000000 0.007143
0.695565 0.000000 0.007143
0.757478 0.000000 0.007143
0.818949 0.000000 0.007143
0.880480 0.000000 0.007143
0.939026 0.000000 0.007143
0.996944 0.000000 0.007143
0.000000 0.022861 0.007143
0.036514 0.022861 0.007143
0.104353 0.022861 0.007143
0.191760 0.022861 0.007143
0.275279 0.022861 0.007143
0.353826 0.022861 0.007143
0.426745 0.022861 0.007143
0.497015 0.022861 0.007143
0.564961 0.022861 0.007143
0.630932 0.022861 0.007143
0.695565 0.022861 0.007143
0.757478 0.022861 0.007143
0.818949 0.022861 0.007143
0.880480 0.022861 0.007143
0.939026 0.022861 0.007143
0.996944 0.022861 0.007143
0.000000 0.075676 0.007143
0.036514 0.075676 0.007143
0.104353 0.075676 0.007143
0.191760 0.075676 0.007143
0.275279 0.075676 0.007143
0.353826 0.075676 0.007143
0.426745 0.075676 0.007143
0.497015 0.075676 0.007143
0.564961 0.075676 0.007143
0.630932 0.075676 0.007143
0.695565 0.075676 0.007143
0.757478 0.075676 0.007143
0.818949 0.075676 0.007143
0.880480 0.075676 0.007143
0.939026 0.075676 0.007143
0.996944 0.075676 0.007143
0.000000 0.149814 0.007143
0.036514 0.149814 0.007143
0.104353 0.149814 0.007143
0.191760 0.149814 0.007143
0.275279 0.149814 0.007143
0.353826 0.149814 0.007143
0.426745 0.149814 0.007143
0.497015 0.149814 0.007143
0.564961 0.149814 0.007143
0.630932 0.149814 0.007143
0.695565 0.149814 0.007143
0.757478 0.149814 0.007143
0.818949 0.149814 0.007143
0.880480 0.149814 0.007143
0.939026 0.149814 0.007143
0.996944 0.149814 0.007143
0.000000 0.225208 0.007143
0.036514 0.225208 0.007143
0.104353 0.225208 0.007143
0.191760 0.225208 0.007143
0.275279 0.225208 0.007143
0.353826 0.225208 0.007143
0.426745 0.225208 0.007143
0.497015 0.225208 0.007143
0.564961 0.225208 0.007143
0.630932 0.225208 0.007143
0.695565 0.225208 0.007143
0.757478 0.225208 0.007143
0.818949 0.225208 0.007143
0.880480 0.225208 0.007143
0.939026 0.225208 0.007143
0.996944 0.225208 0.007143
0.000000 0.298967 0.007143
0.036514 0.298967 0.007143
0.104353 0.298967 0.007143
0.191760 0.298967 0.007143
0.275279 0.298967 0.007143
0.353826 0.298967 0.007143
0.426745 0.298967 0.007143
0.497015 0.298967 0.007143
0.564961 0.298967 0.007143
0.630932 0.298967 0.007143
0.695565 0.298967 0.007143
0.757478 0.298967 0.007143
0.818949 0.298967 0.007143
0.880480 0.298967 0.007143
0.939026 0.298967 0.007143
0.996944 0.298967 0.007143
0.000000 0.371622 0.007143
0.036514 0.371622 0.007143
0.104353 0.371622 0.007143
0.191760 0.371622 0.007143
0.275279 0.371622 0.007143
0.353826 0.371622 0.007143
0.426745 0.371622 0.007143
0.497015 0.371622 0.007143
0.564961 0.371622 0.007143
0.630932 0.371622 0.007143
0.695565 0.371622 0.007143
0.757478 0.371622 0.007143
0.818949 0.371622 0.007143
0.880480 0.371622 0.007143
0.939026 0.371622 0.007143
0.996944 0.371622 0.007143
0.000000 0.443274 0.007143
0.036514 0.443274 0.007143
0.104353 0.443274 0.007143
0.191760 0.443274 0.007143
0.275279 0.443274 0.007143
0.353826 0.443274 0.007143
0.426745 0.443274 0.007143
0.497015 0.443274 0.007143
0.564961 0.443274 0.007143
0.630932 0.443274 0.007143
0.695565 0.443274 0.007143
0.757478 0.443274 0.007143
0.818949 0.443274 0.007143
0.880480 0.443274 0.007143
0.939026 0.443274 0.007143
0.996944 0.443274 0.007143
0.000000 0.514256 0.007143
0.036514 0.514256 0.007143
0.104353 0.514256 0.007143
0.191760 0.514256 0.007143
0.275279 0.514256 0.007143
0.353826 0.514256 0.007143
0.426745 0.514256 0.007143
0.497015 0.514256 0.007143
0.564961 0.514256 0.007143
0.630932 0.514256 0.007143
0.695565 0.514256 0.007143
0.757478 0.514256 0.007143
0.818949 0.514256 0.007143
0.880480 0.514256 0.007143
0.939026 0.514256 0.007143
0.996944 0.514256 0.007143
0.000000 0.584617 0.007143
0.036514 0.584617 0.007143
0.104353 0.584617 0.007143
0.191760 0.584617 0.007143
0.275279 0.584617 0.007143
0.353826 0.584617 0.007143
0.426745 0.584617 0.007143
0.497015 0.584617 0.007143
0.564961 0.584617 0.007143
0.630932 0.584617 0.007143
0.695565 0.584617 0.007143
0.757478 0.584617 0.007143
0.818949 0.584617 0.007143
0.880480 0.584617 0.007143
0.939026 0.584617 0.007143
0.996944 0.584617 0.007143
0.000000 0.654376 0.007143
0.036514 0.654376 0.007143
0.104353 0.654376 0.007143
0.191760 0.654376 0.007143
0.275279 0.654376 0.007143
0.353826 0.654376 0.007143
0.426745 0.654376 0.007143
0.497015 0.654376 0.007143
0.564961 0.654376 0.007143
0.630932 0.654376 0.007143
0.695565 0.654376 0.007143
0.757478 0.654376 0.007143
0.818949 0.654376 0.007143
0.880480 0.654376 0.007143
0.939026 0.654376 0.007143
0.996944 0.654376 0.007143
0.000000 0.723708 0.007143
0.036514 0.723708 0.007143
0.104353 0.723708 0.007143
0.191760 0.723708 0.007143
0.275279 0.723708 0.007143
0.353826 0.723708 0.007143
0.426745 0.723708 0.007143
0.497015 0.723708 0.007143
0.564961 0.723708 0.007143
0.630932 0.723708 0.007143
0.695565 0.723708 0.007143
0.757478 0.723708 0.007143
0.818949 0.723708 0.007143
0.880480 0.723708 0.007143
0.939026 0.723708 0.007143
0.996944 0.723708 0.007143
0.000000 0.792591 0.007143
0.036514 0.792591 0.007143
0.104353 0.792591 0.007143
0.191760 0.792591 0.007143
0.275279 0.792591 0.007143
0.353826 0.792591 0.007143
0.426745 0.792591 0.007143
0.497015 0.792591 0.007143
0.564961 0.792591 0.007143
0.630932 0.792591 0.007143
0.695565 0.792591 0.007143
0.757478 0.792591 0.007143
0.818949 0.792591 0.007143
0.880480 0.792591 0.007143
0.939026 0.792591 0.007143
0.996944 0.792591 0.007143
0.000000 0.861214 0.007143
0.036514 0.861214 0.007143
0.104353 0.861214 0.007143
0.191760 0.861214 0.007143
0.275279 0.861214 0.007143
0.353826 0.861214 0.007143
0.426745 0.861214 0.007143
0.497015 0.861214 0.007143
0.564961 0.861214 0.007143
0.630932 0.861214 0.007143
0.695565 0.861214 0.007143
0.757478 0.861214 0.007143
0.818949 0.861214 0.007143
0.880480 0.861214 0.007143
0.939026 0.861214 0.007143
0.996944 0.861214 0.007143
0.000000 0.929164 0.007143
0.036514 0.929164 0.007143
0.104353 0.929164 0.007143
0.191760 0.929164 0.007143
0.275279 0.929164 0.007143
0.353826 0.929164 0.007143
0.426745 0.929164 0.007143
0.497015 0.929164 0.007143
0.564961 0.929164 0.007143
0.630932 0.929164 0.007143
0.695565 0.929164 0.007143
0.757478 0.929164 0.007143
0.818949 0.929164 0.007143
0.880480 0.929164 0.007143
0.939026 0.929164 0.007143
0.996944 0.929164 0.007143
0.000000 0.996362 0.007143
0.036514 0.996362 0.007143
0.104353 0.996362 0.007143
0.191760 0.996362 0.007143
0.275279 0.996362 0.007143
0.353826 0.996362 0.007143
0.426745 0.996362 0.007143
0.497015 0.996362 0.007143
0.564961 0.996362 0.007143
0.630932 0.996362 0.007143
0.695565 0.996362 0.007143
0.757478 0.996362 0.007143
0.818949 0.996362 0.007143
0.880480 0.996362 0.007143
0.939026 0.996362 0.007143
0.996944 0.996362 0.007143
0.000000 0.000000 0.032840
0.036514 0.000000 0.032840
0.104353 0.000000 0.032840
0.191760 0.000000 0.032840
0.275279 0.000000 0.032840
0.353826 0.000000 0.032840
0.426745 0.000000 0.032840
0.497015 0.000000 0.032840
0.564961 0.000000 0.032840
0.630932 0.000000 0.032840
0.695565 0.000000 0.032840
0.757478 0.000000 0.032840
0.818949 0.000000 0.032840
0.880480 0.000000 0.032840
0.939026 0.000000 0.032840
0.996944 0.000000 0.032840
0.000000 0.022861 0.032840
0.036514 0.022861 0.032840
0.104353 0.022861 0.032840
0.191760 0.022861 0.032840
0.275279 0.022861 0.032840
0.353826 0.022861 0.032840
0.426745 0.022861 0.032840
0.497015 0.022861 0.032840
0.564961 0.022861 0.032840
0.630932 0.022861 0.032840
0.695565 0.022861 0.032840
0.757478 0.022861 0.032840
0.818949 0.022861 0.032840
0.880480 0.022861 0.032840
0.939026 0.022861 0.032840
0.996944 0.022861 0.032840
0.000000 0.075676 0.032840
0.036514 0.075676 0.032840
0.104353 0.075676 0.032840
0.191760 0.075676 0.032840
0.275279 0.075676 0.032840
0.353826 0.075676 0.032840
0.426745 0.075676 0.032840
0.497015 0.075676 0.032840
0.564961 0.075676 0.032840
0.630932 0.075676 0.032840
0.695565 0.075676 0.032840
0.757478 0.075676 0.032840
0.818949 0.075676 0.032840
0.880480 0.075676 0.032840
0.939026 0.075676 0.032840
0.996944 0.075676 0.032840
0.000000 0.149814 0.032840
0.036514 0.149814 0.032840
0.104353 0.149814 0.032840
0.191760 0.149814 0.032840
0.275279 0.149814 0.032840
0.353826 0.149814 0.032840
0.426745 0.149814 0.032840
0.497015 0.149814 0.032840
0.564961 0.149814 0.032840
0.630932 0.149814 0.032840
0.695565 0.149814 0.032840
0.757478 0.149814 0.032840
0.818949 0.149814 0.032840
0.880480 0.149814 0.032840
0.939026 0.149814 0.032840
0.996944 0.149814 0.032840
0.000000 0.225208 0.032840
0.036514 0.225208 0.032840
0.104353 0.225208 0.032840
0.191760 0.225208 0.032840
0.275279 0.225208 0.032840
0.353826 0.225208 0.032840
0.426745 0.225208 0.032840
0.497015 0.225208 0.032840
0.564961 0.225208 0.032840
0.630932 0.225208 0.032840
0.695565 0.225208 0.032840
0.757478 0.225208 0.032840
0.818949 0.225208 0.032840
0.880480 0.225208 0.032840
0.939026 0.225208 0.032840
0.996944 0.225208 0.032840
0.000000 0.298967 0.032840
0.036514 0.298967 0.032840
0.104353 0.298967 0.032840
0.191760 0.298967 0.032840
0.275279 0.298967 0.032840
0.353826 0.298967 0.032840
0.426745 0.298967 0.032840
0.497015 0.298967 0.032840
0.564961 0.298967 0.032840
0.630932 0.298967 0.032840
0.695565 0.298967 0.032840
0.757478 0.298967 0.032840
0.818949 0.298967 0.032840
0.880480 0.298967 0.032840
0.939026 0.298967 0.032840
0.996944 0.298967 0.032840
0.000000 0.371622 0.032840
0.036514 0.371622 0.032840
0.104353 0.371622 0.032840
0.191760 0.371622 0.032840
0.275279 0.371622 0.032840
0.353826 0.371622 0.032840
0.426745 0.371622 0.032840
0.497015 0.371622 0.032840
0.564961 0.371622 0.032840
0.630932 0.371622 0.032840
0.695565 0.371622 0.032840
0.757478 0.371622 0.032840
0.818949 0.371622 0.032840
0.880480 0.371622 0.032840
0.939026 0.371622 0.032840
0.996944 0.371622 0.032840
0.000000 0.443274 0.032840
0.036514 0.443274 0.032840
0.104353 0.443274 0.032840
0.191760 0.443274 0.032840
0.275279 0.443274 0.032840
0.353826 0.443274 0.032840
0.426745 0.443274 0.032840
0.497015 0.443274 0.032840
0.564961 0.443274 0.032840
0.630932 0.443274 0.032840
0.695565 0.443274 0.032840
0.757478 0.443274 0.032840
0.818949 0.443274 0.032840
0.880480 0.443274 0.032840
0.939026 0.443274 0.032840
0.996944 0.443274 0.032840
0.000000 0.514256 0.032840
0.036514 0.514256 0.032840
0.104353 0.514256 0.032840
0.191760 0.514256 0.032840
0.275279 0.514256 0.032840
0.353826 0.514256 0.032840
0.426745 0.514256 0.032840
0.497015 0.514256 0.032840
0.564961 0.514256 0.032840
0.630932 0.514256 0.032840
0.695565 0.514256 0.032840
0.757478 0.514256 0.032840
0.818949 0.514256 0.032840
0.880480 0.514256 0.032840
0.939026 0.514256 0.032840
0.996944 0.514256 0.032840
0.000000 0.584617 0.032840
0.036514 0.584617 0.032840
0.104353 0.584617 0.032840
0.191760 0.584617 0.032840
0.275279 0.584617 0.032840
0.353826 0.584617 0.032840
0.426745 0.584617 0.032840
0.497015 0.584617 0.032840
0.564961 0.584617 0.032840
0.630932 0.584617 0.032840
0.695565 0.584617 0.032840
0.757478 0.584617 0.032840
0.818949 0.584617 0.032840
0.880480 0.584617 0.032840
0.939026 0.584617 0.032840
0.996944 0.584617 0.032840
0.000000 0.654376 0.032840
0.036514 0.654376 0.032840
0.104353 0.654376 0.032840
0.191760 0.654376 0.032840
0.275279 0.654376 0.032840
0.353826 0.654376 0.032840
0.426745 0.654376 0.032840
0.497015 0.654376 0.032840
0.564961 0.654376 0.032840
0.630932 0.654376 0.032840
0.695565 0.654376 0.032840
0.757478 0.654376 0.032840
0.818949 0.654376 0.032840
0.880480 0.654376 0.032840
0.939026 0.654376 0.032840
0.996944 0.654376 0.032840
0.000000 0.723708 0.032840
0.036514 0.723708 0.032840
0.104353 0.723708 0.032840
0.191760 0.723708 0.032840
0.275279 0.723708 0.032840
0.353826 0.723708 0.032840
0.426745 0.723708 0.032840
0.497015 0.723708 0.032840
0.564961 0.723708 0.032840
0.630932 0.723708 0.032840
0.695565 0.723708 0.032840
0.757478 0.723708 0.032840
0.818949 0.723708 0.032840
0.880480 0.723708 0.032840
0.939026 0.723708 0.032840
0.996944 0.723708 0.032840
0.000000 0.792591 0.032840
0.036514 0.792591 0.032840
0.104353 0.792591 0.032840
0.191760 0.792591 0.032840
0.275279 0.792591 0.032840
0.353826 0.792591 0.032840
0.426745 0.792591 0.032840
0.497015 0.792591 0.032840
0.564961 0.792591 0.032840
0.630932 0.792591 0.032840
0.695565 0.792591 0.032840
0.757478 0.792591 0.032840
0.818949 0.792591 0.032840
0.880480 0.792591 0.032840
0.939026 0.792591 0.032840
0.996944 0.792591 0.032840
0.000000 0.861214 0.032840
0.036514 0.861214 0.032840
0.104353 0.861214 0.032840
0.191760 0.861214 0.032840
0.275279 0.861214 0.032840
0.353826 0.861214 0.032840
0.426745 0.861214 0.032840
0.497015 0.861214 0.032840
0.564961 0.861214 0.032840
0.630932 0.861214 0.032840
0.695565 0.861214 0.032840
0.757478 0.861214 0.032840
0.818949 0.861214 0.032840
0.880480 0.861214 0.032840
0.939026 0.861214 0.032840
0.996944 0.861214 0.032840
0.000000 0.929164 0.032840
0.036514 0.929164 0.032840
0.104353 0.929164 0.032840
0.191760 0.929164 0.032840
0.275279 0.929164 0.032840
0.353826 0.929164 0.032840
0.426745 0.929164 0.032840
0.497015 0.929164 0.032840
0.564961 0.929164 0.032840
0.630932 0.929164 0.032840
0.695565 0.929164 0.032840
0.757478 0.929164 0.032840
0.818949 0.929164 0.032840
0.880480 0.929164 0.032840
0.939026 0.929164 0.032840
0.996944 0.929164 0.032840
0.000000 0.996362 0.032840
0.036514 0.996362 0.032840
0.104353 0.996362 0.032840
0.191760 0.996362 0.032840
0.275279 0.996362 0.032840
0.353826 0.996362 0.032840
0.426745 0.996362 0.032840
0.497015 0.996362 0.032840
0.564961 0.996362 0.032840
0.630932 0.996362 0.032840
0.695565 0.996362 0.032840
0.757478 0.996362 0.032840
0.818949 0.996362 0.032840
0.880480 0.996362 0.032840
0.939026 0.996362 0.032840
0.996944 0.996362 0.032840
0.000000 0.000000 0.078187
0.036514 0.000000 0.078187
0.104353 0.000000 0.078187
0.191760 0.000000 0.078187
0.275279 0.000000 0.078187
0.353826 0.000000 0.078187
0.426745 0.000000 0.078187
0.497015 0.000000 0.078187
0.564961 0.000000 0.078187
0.630932 0.000000 0.078187
0.695565 0.000000 0.078187
0.757478 0.000000 0.078187
0.818949 0.000000 0.078187
0.880480 0.000000 0.078187
0.939026 0.000000 0.078187
0.996944 0.000000 0.078187
0.000000 0.022861 0.078187
0.036514 0.022861 0.078187
0.104353 0.022861 0.078187
0.191760 0.022861 0.078187
0.275279 0.022861 0.078187
0.353826 0.022861 0.078187
0.426745 0.022861 0.078187
0.497015 0.022861 0.078187
0.564961 0.022861 0.078187
0.630932 0.022861 0.078187
0.695565 0.022861 0.078187
0.757478 0.022861 0.078187
0.818949 0.022861 0.078187
0.880480 0.022861 0.078187
0.939026 0.022861 0.078187
0.996944 0.022861 0.078187
0.000000 0.075676 0.078187
0.036514 0.075676 0.078187
0.104353 0.075676 0.078187
0.191760 0.075676 0.078187
0.275279 0.075676 0.078187
0.353826 0.075676 0.078187
0.426745 0.075676 0.078187
0.497015 0.075676 0.078187
0.564961 0.075676 0.078187
0.630932 0.075676 0.078187
0.695565 0.075676 0.078187
0.757478 0.075676 0.078187
0.818949 0.075676 0.078187
0.880480 0.075676 0.078187
0.939026 0.075676 0.078187
0.996944 0.075676 0.078187
0.000000 0.149814 0.078187
0.036514 0.149814 0.078187
0.104353 0.149814 0.078187
0.191760 0.149814 0.078187
0.275279 0.149814 0.078187
0.353826 0.149814 0.078187
0.426745 0.149814 0.078187
0.497015 0.149814 0.078187
0.564961 0.149814 0.078187
0.630932 0.149814 0.078187
0.695565 0.149814 0.078187
0.757478 0.149814 0.078187
0.818949 0.149814 0.078187
0.880480 0.149814 0.078187
0.939026 0.149814 0.078187
0.996944 0.149814 0.078187
0.000000 0.225208 0.078187
0.036514 0.225208 0.078187
0.104353 0.225208 0.078187
0.191760 0.225208 0.078187
0.275279 0.225208 0.078187
0.353826 0.225208 0.078187
0.426745 0.225208 0.078187
0.497015 0.225208 0.078187
0.564961 0.225208 0.078187
0.630932 0.225208 0.078187
0.695565 0.225208 0.078187
0.757478 0.225208 0.078187
0.818949 0.225208 0.078187
0.880480 0.225208 0.078187
0.939026 0.225208 0.078187
0.996944 0.225208 0.078187
0.000000 0.298967 0.078187
0.036514 0.298967 0.078187
0.104353 0.298967 0.078187
0.191760 0.298967 0.078187
0.275279 0.298967 0.078187
0.353826 0.298967 0.078187
0.426745 0.298967 0.078187
0.497015 0.298967 0.078187
0.564961 0.298967 0.078187
0.630932 0.298967 0.078187
0.695565 0.298967 0.078187
0.757478 0.298967 0.078187
0.818949 0.298967 0.078187
0.880480 0.298967 0.078187
0.939026 0.298967 0.078187
0.996944 0.298967 0.078187
0.000000 0.371622 0.078187
0.036514 0.371622 0.078187
0.104353 0.371622 0.078187
0.191760 0.371622 0.078187
0.275279 0.371622 0.078187
0.353826 0.371622 0.078187
0.426745 0.371622 0.078187
0.497015 0.371622 0.078187
0.564961 0.371622 0.078187
0.630932 0.371622 0.078187
0.695565 0.371622 0.078187
0.757478 0.371622 0.078187
0.818949 0.371622 0.078187
0.880480 0.371622 0.078187
0.939026 0.371622 0.078187
0.996944 0.371622 0.078187
0.000000 0.443274 0.078187
0.036514 0.443274 0.078187
0.104353 0.443274 0.078187
0.191760 0.443274 0.078187
0.275279 0.443274 0.078187
0.353826 0.443274 0.078187
0.426745 0.443274 0.078187
0.497015 0.443274 0.078187
