example_ofxGpuLutCube/bin/data/ofxGpuLutCube/LUT/A19 (very warm sunset fade).cube
LUT_3D_SIZE 16
0.000000 0.000000 0.000000
0.049263 0.000000 0.000000
0.130137 0.000000 0.000000
0.230475 0.000000 0.000000
0.324735 0.000000 0.000000
0.407702 0.000000 0.000000
0.481337 0.000000 0.000000
0.549987 0.000000 0.000000
0.614658 0.000000 0.000000
0.676029 0.000000 0.000000
0.735001 0.000000 0.000000
0.790519 0.000000 0.000000
0.844801 0.000000 0.000000
0.898462 0.000000 0.000000
0.948944 0.000000 0.000000
0.998127 0.000000 0.000000
0.000000 0.031484 0.000000
0.049263 0.031484 0.000000
0.130137 0.031484 0.000000
0.230475 0.031484 0.000000
0.324735 0.031484 0.000000
0.407702 0.031484 0.000000
0.481337 0.031484 0.000000
0.549987 0.031484 0.000000
0.614658 0.031484 0.000000
0.676029 0.031484 0.000000
0.735001 0.031484 0.000000
0.790519 0.031484 0.000000
0.844801 0.031484 0.000000
0.898462 0.031484 0.000000
0.948944 0.031484 0.000000
0.998127 0.031484 0.000000
0.000000 0.092630 0.000000
0.049263 0.092630 0.000000
0.130137 0.092630 0.000000
0.230475 0.092630 0.000000
0.324735 0.092630 0.000000
0.407702 0.092630 0.000000
0.481337 0.092630 0.000000
0.549987 0.092630 0.000000
0.614658 0.092630 0.000000
0.676029 0.092630 0.000000
0.735001 0.092630 0.000000
0.790519 0.092630 0.000000
0.844801 0.092630 0.000000
0.898462 0.092630 0.000000
0.948944 0.092630 0.000000
0.998127 0.092630 0.000000
0.000000 0.171311 0.000000
0.049263 0.171311 0.000000
0.130137 0.171311 0.000000
0.230475 0.171311 0.000000
0.324735 0.171311 0.000000
0.407702 0.171311 0.000000
0.481337 0.171311 0.000000
0.549987 0.171311 0.000000
0.614658 0.171311 0.000000
0.676029 0.171311 0.000000
0.735001 0.171311 0.000000
0.790519 0.171311 0.000000
0.844801 0.171311 0.000000
0.898462 0.171311 0.000000
0.948944 0.171311 0.000000
0.998127 0.171311 0.000000
0.000000 0.247376 0.000000
0.049263 0.247376 0.000000
0.130137 0.247376 0.000000
0.230475 0.247376 0.000000
0.324735 0.247376 0.000000
0.407702 0.247376 0.000000
0.481337 0.247376 0.000000
0.549987 0.247376 0.000000
0.614658 0.247376 0.000000
0.676029 0.247376 0.000000
0.735001 0.247376 0.000000
0.790519 0.247376 0.000000
0.844801 0.247376 0.000000
0.898462 0.247376 0.000000
0.948944 0.247376 0.000000
0.998127 0.247376 0.000000
0.000000 0.319537 0.000000
0.049263 0.319537 0.000000
0.130137 0.319537 0.000000
0.230475 0.319537 0.000000
0.324735 0.319537 0.000000
0.407702 0.319537 0.000000
0.481337 0.319537 0.000000
0.549987 0.319537 0.000000
0.614658 0.319537 0.000000
0.676029 0.319537 0.000000
0.735001 0.319537 0.000000
0.790519 0.319537 0.000000
0.844801 0.319537 0.000000
0.898462 0.319537 0.000000
0.948944 0.319537 0.000000
0.998127 0.319537 0.000000
0.000000 0.388995 0.000000
0.049263 0.388995 0.000000
0.130137 0.388995 0.000000
0.230475 0.388995 0.000000
0.324735 0.388995 0.000000
0.407702 0.388995 0.000000
0.481337 0.388995 0.000000
0.549987 0.388995 0.000000
0.614658 0.388995 0.000000
0.676029 0.388995 0.000000
0.735001 0.388995 0.000000
0.790519 0.388995 0.000000
0.844801 0.388995 0.000000
0.898462 0.388995 0.000000
0.948944 0.388995 0.000000
0.998127 0.388995 0.000000
0.000000 0.456285 0.000000
0.049263 0.456285 0.000000
0.130137 0.456285 0.000000
0.230475 0.456285 0.000000
0.324735 0.456285 0.000000
0.407702 0.456285 0.000000
0.481337 0.456285 0.000000
0.549987 0.456285 0.000000
0.614658 0.456285 0.000000
0.676029 0.456285 0.000000
0.735001 0.456285 0.000000
0.790519 0.456285 0.000000
0.844801 0.456285 0.000000
0.898462 0.456285 0.000000
0.948944 0.456285 0.000000
0.998127 0.456285 0.000000
0.000000 0.521996 0.000000
0.049263 0.521996 0.000000
0.130137 0.521996 0.000000
0.230475 0.521996 0.000000
0.324735 0.521996 0.000000
0.407702 0.521996 0.000000
0.481337 0.521996 0.000000
0.549987 0.521996 0.000000
0.614658 0.521996 0.000000
0.676029 0.521996 0.000000
0.735001 0.521996 0.000000
0.790519 0.521996 0.000000
0.844801 0.521996 0.000000
0.898462 0.521996 0.000000
0.948944 0.521996 0.000000
0.998127 0.521996 0.000000
0.000000 0.586272 0.000000
0.049263 0.586272 0.000000
0.130137 0.586272 0.000000
0.230475 0.586272 0.000000
0.324735 0.586272 0.000000
0.407702 0.586272 0.000000
0.481337 0.586272 0.000000
0.549987 0.586272 0.000000
0.614658 0.586272 0.000000
0.676029 0.586272 0.000000
0.735001 0.586272 0.000000
0.790519 0.586272 0.000000
0.844801 0.586272 0.000000
0.898462 0.586272 0.000000
0.948944 0.586272 0.000000
0.998127 0.586272 0.000000
0.000000 0.649316 0.000000
0.049263 0.649316 0.000000
0.130137 0.649316 0.000000
0.230475 0.649316 0.000000
0.324735 0.649316 0.000000
0.407702 0.649316 0.000000
0.481337 0.649316 0.000000
0.549987 0.649316 0.000000
0.614658 0.649316 0.000000
0.676029 0.649316 0.000000
0.735001 0.649316 0.000000
0.790519 0.649316 0.000000
0.844801 0.649316 0.000000
0.898462 0.649316 0.000000
0.948944 0.649316 0.000000
0.998127 0.649316 0.000000
0.000000 0.711397 0.000000
0.049263 0.711397 0.000000
0.130137 0.711397 0.000000
0.230475 0.711397 0.000000
0.324735 0.711397 0.000000
0.407702 0.711397 0.000000
0.481337 0.711397 0.000000
0.549987 0.711397 0.000000
0.614658 0.711397 0.000000
0.676029 0.711397 0.000000
0.735001 0.711397 0.000000
0.790519 0.711397 0.000000
0.844801 0.711397 0.000000
0.898462 0.711397 0.000000
0.948944 0.711397 0.000000
0.998127 0.711397 0.000000
0.000000 0.772466 0.000000
0.049263 0.772466 0.000000
0.130137 0.772466 0.000000
0.230475 0.772466 0.000000
0.324735 0.772466 0.000000
0.407702 0.772466 0.000000
0.481337 0.772466 0.000000
0.549987 0.772466 0.000000
0.614658 0.772466 0.000000
0.676029 0.772466 0.000000
0.735001 0.772466 0.000000
0.790519 0.772466 0.000000
0.844801 0.772466 0.000000
0.898462 0.772466 0.000000
0.948944 0.772466 0.000000
0.998127 0.772466 0.000000
0.000000 0.832906 0.000000
0.049263 0.832906 0.000000
0.130137 0.832906 0.000000
0.230475 0.832906 0.000000
0.324735 0.832906 0.000000
0.407702 0.832906 0.000000
0.481337 0.832906 0.000000
0.549987 0.832906 0.000000
0.614658 0.832906 0.000000
0.676029 0.832906 0.000000
0.735001 0.832906 0.000000
0.790519 0.832906 0.000000
0.844801 0.832906 0.000000
0.898462 0.832906 0.000000
0.948944 0.832906 0.000000
0.998127 0.832906 0.000000
0.000000 0.892264 0.000000
0.049263 0.892264 0.000000
0.130137 0.892264 0.000000
0.230475 0.892264 0.000000
0.324735 0.892264 0.000000
0.407702 0.892264 0.000000
0.481337 0.892264 0.000000
0.549987 0.892264 0.000000
0.614658 0.892264 0.000000
0.676029 0.892264 0.000000
0.735001 0.892264 0.000000
0.790519 0.892264 0.000000
0.844801 0.892264 0.000000
0.898462 0.892264 0.000000
0.948944 0.892264 0.000000
0.998127 0.892264 0.000000
0.000000 0.950557 0.000000
0.049263 0.950557 0.000000
0.130137 0.950557 0.000000
0.230475 0.950557 0.000000
0.324735 0.950557 0.000000
0.407702 0.950557 0.000000
0.481337 0.950557 0.000000
0.549987 0.950557 0.000000
0.614658 0.950557 0.000000
0.676029 0.950557 0.000000
0.735001 0.950557 0.000000
0.790519 0.950557 0.000000
0.844801 0.950557 0.000000
0.898462 0.950557 0.000000
0.948944 0.950557 0.000000
0.998127 0.950557 0.000000
0.000000 0.000000 0.004502
0.049263 0.000000 0.004502
0.130137 0.000000 0.004502
0.230475 0.000000 0.004502
0.324735 0.000000 0.004502
0.407702 0.000000 0.004502
0.481337 0.000000 0.004502
0.549987 0.000000 0.004502
0.614658 0.000000 0.004502
0.676029 0.000000 0.004502
0.735001 0.000000 0.004502
0.790519 0.000000 0.004502
0.844801 0.000000 0.004502
0.898462 0.000000 0.004502
0.948944 0.000000 0.004502
0.998127 0.000000 0.004502
0.000000 0.031484 0.004502
0.049263 0.031484 0.004502
0.130137 0.031484 0.004502
0.230475 0.031484 0.004502
0.324735 0.031484 0.004502
0.407702 0.031484 0.004502
0.481337 0.031484 0.004502
0.549987 0.031484 0.004502
0.614658 0.031484 0.004502
0.676029 0.031484 0.004502
0.735001 0.031484 0.004502
0.790519 0.031484 0.004502
0.844801 0.031484 0.004502
0.898462 0.031484 0.004502
0.948944 0.031484 0.004502
0.998127 0.031484 0.004502
0.000000 0.092630 0.004502
0.049263 0.092630 0.004502
0.130137 0.092630 0.004502
0.230475 0.092630 0.004502
0.324735 0.092630 0.004502
0.407702 0.092630 0.004502
0.481337 0.092630 0.004502
0.549987 0.092630 0.004502
0.614658 0.092630 0.004502
0.676029 0.092630 0.004502
0.735001 0.092630 0.004502
0.790519 0.092630 0.004502
0.844801 0.092630 0.004502
0.898462 0.092630 0.004502
0.948944 0.092630 0.004502
0.998127 0.092630 0.004502
0.000000 0.171311 0.004502
0.049263 0.171311 0.004502
0.130137 0.171311 0.004502
0.230475 0.171311 0.004502
0.324735 0.171311 0.004502
0.407702 0.171311 0.004502
0.481337 0.171311 0.004502
0.549987 0.171311 0.004502
0.614658 0.171311 0.004502
0.676029 0.171311 0.004502
0.735001 0.171311 0.004502
0.790519 0.171311 0.004502
0.844801 0.171311 0.004502
0.898462 0.171311 0.004502
0.948944 0.171311 0.004502
0.998127 0.171311 0.004502
0.000000 0.247376 0.004502
0.049263 0.247376 0.004502
0.130137 0.247376 0.004502
0.230475 0.247376 0.004502
0.324735 0.247376 0.004502
0.407702 0.247376 0.004502
0.481337 0.247376 0.004502
0.549987 0.247376 0.004502
0.614658 0.247376 0.004502
0.676029 0.247376 0.004502
0.735001 0.247376 0.004502
0.790519 0.247376 0.004502
0.844801 0.247376 0.004502
0.898462 0.247376 0.004502
0.948944 0.247376 0.004502
0.998127 0.247376 0.004502
0.000000 0.319537 0.004502
0.049263 0.319537 0.004502
0.130137 0.319537 0.004502
0.230475 0.319537 0.004502
0.324735 0.319537 0.004502
0.407702 0.319537 0.004502
0.481337 0.319537 0.004502
0.549987 0.319537 0.004502
0.614658 0.319537 0.004502
0.676029 0.319537 0.004502
0.735001 0.319537 0.004502
0.790519 0.319537 0.004502
0.844801 0.319537 0.004502
0.898462 0.319537 0.004502
0.948944 0.319537 0.004502
0.998127 0.319537 0.004502
0.000000 0.388995 0.004502
0.049263 0.388995 0.004502
0.130137 0.388995 0.004502
0.230475 0.388995 0.004502
0.324735 0.388995 0.004502
0.407702 0.388995 0.004502
0.481337 0.388995 0.004502
0.549987 0.388995 0.004502
0.614658 0.388995 0.004502
0.676029 0.388995 0.004502
0.735001 0.388995 0.004502
0.790519 0.388995 0.004502
0.844801 0.388995 0.004502
0.898462 0.388995 0.004502
0.948944 0.388995 0.004502
0.998127 0.388995 0.004502
0.000000 0.456285 0.004502
0.049263 0.456285 0.004502
0.130137 0.456285 0.004502
0.230475 0.456285 0.004502
0.324735 0.456285 0.004502
0.407702 0.456285 0.004502
0.481337 0.456285 0.004502
0.549987 0.456285 0.004502
0.614658 0.456285 0.004502
0.676029 0.456285 0.004502
0.735001 0.456285 0.004502
0.790519 0.456285 0.004502
0.844801 0.456285 0.004502
0.898462 0.456285 0.004502
0.948944 0.456285 0.004502
0.998127 0.456285 0.004502
0.000000 0.521996 0.004502
0.049263 0.521996 0.004502
0.130137 0.521996 0.004502
0.230475 0.521996 0.004502
0.324735 0.521996 0.004502
0.407702 0.521996 0.004502
0.481337 0.521996 0.004502
0.549987 0.521996 0.004502
0.614658 0.521996 0.004502
0.676029 0.521996 0.004502
0.735001 0.521996 0.004502
0.790519 0.521996 0.004502
0.844801 0.521996 0.004502
0.898462 0.521996 0.004502
0.948944 0.521996 0.004502
0.998127 0.521996 0.004502
0.000000 0.586272 0.004502
0.049263 0.586272 0.004502
0.130137 0.586272 0.004502
0.230475 0.586272 0.004502
0.324735 0.586272 0.004502
0.407702 0.586272 0.004502
0.481337 0.586272 0.004502
0.549987 0.586272 0.004502
0.614658 0.586272 0.004502
0.676029 0.586272 0.004502
0.735001 0.586272 0.004502
0.790519 0.586272 0.004502
0.844801 0.586272 0.004502
0.898462 0.586272 0.004502
0.948944 0.586272 0.004502
0.998127 0.586272 0.004502
0.000000 0.649316 0.004502
0.049263 0.649316 0.004502
0.130137 0.649316 0.004502
0.230475 0.649316 0.004502
0.324735 0.649316 0.004502
0.407702 0.649316 0.004502
0.481337 0.649316 0.004502
0.549987 0.649316 0.004502
0.614658 0.649316 0.004502
0.676029 0.649316 0.004502
0.735001 0.649316 0.004502
0.790519 0.649316 0.004502
0.844801 0.649316 0.004502
0.898462 0.649316 0.004502
0.948944 0.649316 0.004502
0.998127 0.649316 0.004502
0.000000 0.711397 0.004502
0.049263 0.711397 0.004502
0.130137 0.711397 0.004502
0.230475 0.711397 0.004502
0.324735 0.711397 0.004502
0.407702 0.711397 0.004502
0.481337 0.711397 0.004502
0.549987 0.711397 0.004502
0.614658 0.711397 0.004502
0.676029 0.711397 0.004502
0.735001 0.711397 0.004502
0.790519 0.711397 0.004502
0.844801 0.711397 0.004502
0.898462 0.711397 0.004502
0.948944 0.711397 0.004502
0.998127 0.711397 0.004502
0.000000 0.772466 0.004502
0.049263 0.772466 0.004502
0.130137 0.772466 0.004502
0.230475 0.772466 0.004502
0.324735 0.772466 0.004502
0.407702 0.772466 0.004502
0.481337 0.772466 0.004502
0.549987 0.772466 0.004502
0.614658 0.772466 0.004502
0.676029 0.772466 0.004502
0.735001 0.772466 0.004502
0.790519 0.772466 0.004502
0.844801 0.772466 0.004502
0.898462 0.772466 0.004502
0.948944 0.772466 0.004502
0.998127 0.772466 0.004502
0.000000 0.832906 0.004502
0.049263 0.832906 0.004502
0.130137 0.832906 0.004502
0.230475 0.832906 0.004502
0.324735 0.832906 0.004502
0.407702 0.832906 0.004502
0.481337 0.832906 0.004502
0.549987 0.832906 0.004502
0.614658 0.832906 0.004502
0.676029 0.832906 0.004502
0.735001 0.832906 0.004502
0.790519 0.832906 0.004502
0.844801 0.832906 0.004502
0.898462 0.832906 0.004502
0.948944 0.832906 0.004502
0.998127 0.832906 0.004502
0.000000 0.892264 0.004502
0.049263 0.892264 0.004502
0.130137 0.892264 0.004502
0.230475 0.892264 0.004502
0.324735 0.892264 0.004502
0.407702 0.892264 0.004502
0.481337 0.892264 0.004502
0.549987 0.892264 0.004502
0.614658 0.892264 0.004502
0.676029 0.892264 0.004502
0.735001 0.892264 0.004502
0.790519 0.892264 0.004502
0.844801 0.892264 0.004502
0.898462 0.892264 0.004502
0.948944 0.892264 0.004502
0.998127 0.892264 0.004502
0.000000 0.950557 0.004502
0.049263 0.950557 0.004502
0.130137 0.950557 0.004502
0.230475 0.950557 0.004502
0.324735 0.950557 0.004502
0.407702 0.950557 0.004502
0.481337 0.950557 0.004502
0.549987 0.950557 0.004502
0.614658 0.950557 0.004502
0.676029 0.950557 0.004502
0.735001 0.950557 0.004502
0.790519 0.950557 0.004502
0.844801 0.950557 0.004502
0.898462 0.950557 0.004502
0.948944 0.950557 0.004502
0.998127 0.950557 0.004502
0.000000 0.000000 0.024348
0.049263 0.000000 0.024348
0.130137 0.000000 0.024348
0.230475 0.000000 0.024348
0.324735 0.000000 0.024348
0.407702 0.000000 0.024348
0.481337 0.000000 0.024348
0.549987 0.000000 0.024348
0.614658 0.000000 0.024348
0.676029 0.000000 0.024348
0.735001 0.000000 0.024348
0.790519 0.000000 0.024348
0.844801 0.000000 0.024348
0.898462 0.000000 0.024348
0.948944 0.000000 0.024348
0.998127 0.000000 0.024348
0.000000 0.031484 0.024348
0.049263 0.031484 0.024348
0.130137 0.031484 0.024348
0.230475 0.031484 0.024348
0.324735 0.031484 0.024348
0.407702 0.031484 0.024348
0.481337 0.031484 0.024348
0.549987 0.031484 0.024348
0.614658 0.031484 0.024348
0.676029 0.031484 0.024348
0.735001 0.031484 0.024348
0.790519 0.031484 0.024348
0.844801 0.031484 0.024348
0.898462 0.031484 0.024348
0.948944 0.031484 0.024348
0.998127 0.031484 0.024348
0.000000 0.092630 0.024348
0.049263 0.092630 0.024348
0.130137 0.092630 0.024348
0.230475 0.092630 0.024348
0.324735 0.092630 0.024348
0.407702 0.092630 0.024348
0.481337 0.092630 0.024348
0.549987 0.092630 0.024348
0.614658 0.092630 0.024348
0.676029 0.092630 0.024348
0.735001 0.092630 0.024348
0.790519 0.092630 0.024348
0.844801 0.092630 0.024348
0.898462 0.092630 0.024348
0.948944 0.092630 0.024348
0.998127 0.092630 0.024348
0.000000 0.171311 0.024348
0.049263 0.171311 0.024348
0.130137 0.171311 0.024348
0.230475 0.171311 0.024348
0.324735 0.171311 0.024348
0.407702 0.171311 0.024348
0.481337 0.171311 0.024348
0.549987 0.171311 0.024348
0.614658 0.171311 0.024348
0.676029 0.171311 0.024348
0.735001 0.171311 0.024348
0.790519 0.171311 0.024348
0.844801 0.171311 0.024348
0.898462 0.171311 0.024348
0.948944 0.171311 0.024348
0.998127 0.171311 0.024348
0.000000 0.247376 0.024348
0.049263 0.247376 0.024348
0.130137 0.247376 0.024348
0.230475 0.247376 0.024348
0.324735 0.247376 0.024348
0.407702 0.247376 0.024348
0.481337 0.247376 0.024348
0.549987 0.247376 0.024348
0.614658 0.247376 0.024348
0.676029 0.247376 0.024348
0.735001 0.247376 0.024348
0.790519 0.247376 0.024348
0.844801 0.247376 0.024348
0.898462 0.247376 0.024348
0.948944 0.247376 0.024348
0.998127 0.247376 0.024348
0.000000 0.319537 0.024348
0.049263 0.319537 0.024348
0.130137 0.319537 0.024348
0.230475 0.319537 0.024348
0.324735 0.319537 0.024348
0.407702 0.319537 0.024348
0.481337 0.319537 0.024348
0.549987 0.319537 0.024348
0.614658 0.319537 0.024348
0.676029 0.319537 0.024348
0.735001 0.319537 0.024348
0.790519 0.319537 0.024348
0.844801 0.319537 0.024348
0.898462 0.319537 0.024348
0.948944 0.319537 0.024348
0.998127 0.319537 0.024348
0.000000 0.388995 0.024348
0.049263 0.388995 0.024348
0.130137 0.388995 0.024348
0.230475 0.388995 0.024348
0.324735 0.388995 0.024348
0.407702 0.388995 0.024348
0.481337 0.388995 0.024348
0.549987 0.388995 0.024348
0.614658 0.388995 0.024348
0.676029 0.388995 0.024348
0.735001 0.388995 0.024348
0.790519 0.388995 0.024348
0.844801 0.388995 0.024348
0.898462 0.388995 0.024348
0.948944 0.388995 0.024348
0.998127 0.388995 0.024348
0.000000 0.456285 0.024348
0.049263 0.456285 0.024348
0.130137 0.456285 0.024348
0.230475 0.456285 0.024348
0.324735 0.456285 0.024348
0.407702 0.456285 0.024348
0.481337 0.456285 0.024348
0.549987 0.456285 0.024348
0.614658 0.456285 0.024348
0.676029 0.456285 0.024348
0.735001 0.456285 0.024348
0.790519 0.456285 0.024348
0.844801 0.456285 0.024348
0.898462 0.456285 0.024348
0.948944 0.456285 0.024348
0.998127 0.456285 0.024348
0.000000 0.521996 0.024348
0.049263 0.521996 0.024348
0.130137 0.521996 0.024348
0.230475 0.521996 0.024348
0.324735 0.521996 0.024348
0.407702 0.521996 0.024348
0.481337 0.521996 0.024348
0.549987 0.521996 0.024348
0.614658 0.521996 0.024348
0.676029 0.521996 0.024348
0.735001 0.521996 0.024348
0.790519 0.521996 0.024348
0.844801 0.521996 0.024348
0.898462 0.521996 0.024348
0.948944 0.521996 0.024348
0.998127 0.521996 0.024348
0.000000 0.586272 0.024348
0.049263 0.586272 0.024348
0.130137 0.586272 0.024348
0.230475 0.586272 0.024348
0.324735 0.586272 0.024348
0.407702 0.586272 0.024348
0.481337 0.586272 0.024348
0.549987 0.586272 0.024348
0.614658 0.586272 0.024348
0.676029 0.586272 0.024348
0.735001 0.586272 0.024348
0.790519 0.586272 0.024348
0.844801 0.586272 0.024348
0.898462 0.586272 0.024348
0.948944 0.586272 0.024348
0.998127 0.586272 0.024348
0.000000 0.649316 0.024348
0.049263 0.649316 0.024348
0.130137 0.649316 0.024348
0.230475 0.649316 0.024348
0.324735 0.649316 0.024348
0.407702 0.649316 0.024348
0.481337 0.649316 0.024348
0.549987 0.649316 0.024348
0.614658 0.649316 0.024348
0.676029 0.649316 0.024348
0.735001 0.649316 0.024348
0.790519 0.649316 0.024348
0.844801 0.649316 0.024348
0.898462 0.649316 0.024348
0.948944 0.649316 0.024348
0.998127 0.649316 0.024348
0.000000 0.711397 0.024348
0.049263 0.711397 0.024348
0.130137 0.711397 0.024348
0.230475 0.711397 0.024348
0.324735 0.711397 0.024348
0.407702 0.711397 0.024348
0.481337 0.711397 0.024348
0.549987 0.711397 0.024348
0.614658 0.711397 0.024348
0.676029 0.711397 0.024348
0.735001 0.711397 0.024348
0.790519 0.711397 0.024348
0.844801 0.711397 0.024348
0.898462 0.711397 0.024348
0.948944 0.711397 0.024348
0.998127 0.711397 0.024348
0.000000 0.772466 0.024348
0.049263 0.772466 0.024348
0.130137 0.772466 0.024348
0.230475 0.772466 0.024348
0.324735 0.772466 0.024348
0.407702 0.772466 0.024348
0.481337 0.772466 0.024348
0.549987 0.772466 0.024348
0.614658 0.772466 0.024348
0.676029 0.772466 0.024348
0.735001 0.772466 0.024348
0.790519 0.772466 0.024348
0.844801 0.772466 0.024348
0.898462 0.772466 0.024348
0.948944 0.772466 0.024348
0.998127 0.772466 0.024348
0.000000 0.832906 0.024348
0.049263 0.832906 0.024348
0.130137 0.832906 0.024348
0.230475 0.832906 0.024348
0.324735 0.832906 0.024348
0.407702 0.832906 0.024348
0.481337 0.832906 0.024348
0.549987 0.832906 0.024348
0.614658 0.832906 0.024348
0.676029 0.832906 0.024348
0.735001 0.832906 0.024348
0.790519 0.832906 0.024348
0.844801 0.832906 0.024348
0.898462 0.832906 0.024348
0.948944 0.832906 0.024348
0.998127 0.832906 0.024348
0.000000 0.892264 0.024348
0.049263 0.892264 0.024348
0.130137 0.892264 0.024348
0.230475 0.892264 0.024348
0.324735 0.892264 0.024348
0.407702 0.892264 0.024348
0.481337 0.892264 0.024348
0.549987 0.892264 0.024348
0.614658 0.892264 0.024348
0.676029 0.892264 0.024348
0.735001 0.892264 0.024348
0.790519 0.892264 0.024348
0.844801 0.892264 0.024348
0.898462 0.892264 0.024348
0.948944 0.892264 0.024348
0.998127 0.892264 0.024348
0.000000 0.950557 0.024348
0.049263 0.950557 0.024348
0.130137 0.950557 0.024348
0.230475 0.950557 0.024348
0.324735 0.950557 0.024348
0.407702 0.950557 0.024348
0.481337 0.950557 0.024348
0.549987 0.950557 0.024348
0.614658 0.950557 0.024348
0.676029 0.950557 0.024348
0.735001 0.950557 0.024348
0.790519 0.950557 0.024348
0.844801 0.950557 0.024348
0.898462 0.950557 0.024348
0.948944 0.950557 0.024348
0.998127 0.950557 0.024348
0.000000 0.000000 0.064576
0.049263 0.000000 0.064576
0.130137 0.000000 0.064576
0.230475 0.000000 0.064576
0.324735 0.000000 0.064576
0.407702 0.000000 0.064576
0.481337 0.000000 0.064576
0.549987 0.000000 0.064576
0.614658 0.000000 0.064576
0.676029 0.000000 0.064576
0.735001 0.000000 0.064576
0.790519 0.000000 0.064576
0.844801 0.000000 0.064576
0.898462 0.000000 0.064576
0.948944 0.000000 0.064576
0.998127 0.000000 0.064576
0.000000 0.031484 0.064576
0.049263 0.031484 0.064576
0.130137 0.031484 0.064576
0.230475 0.031484 0.064576
0.324735 0.031484 0.064576
0.407702 0.031484 0.064576
0.481337 0.031484 0.064576
0.549987 0.031484 0.064576
0.614658 0.031484 0.064576
0.676029 0.031484 0.064576
0.735001 0.031484 0.064576
0.790519 0.031484 0.064576
0.844801 0.031484 0.064576
0.898462 0.031484 0.064576
0.948944 0.031484 0.064576
0.998127 0.031484 0.064576
0.000000 0.092630 0.064576
0.049263 0.092630 0.064576
0.130137 0.092630 0.064576
0.230475 0.092630 0.064576
0.324735 0.092630 0.064576
0.407702 0.092630 0.064576
0.481337 0.092630 0.064576
0.549987 0.092630 0.064576
0.614658 0.092630 0.064576
0.676029 0.092630 0.064576
0.735001 0.092630 0.064576
0.790519 0.092630 0.064576
0.844801 0.092630 0.064576
0.898462 0.092630 0.064576
0.948944 0.092630 0.064576
0.998127 0.092630 0.064576
0.000000 0.171311 0.064576
0.049263 0.171311 0.064576
0.130137 0.171311 0.064576
0.230475 0.171311 0.064576
0.324735 0.171311 0.064576
0.407702 0.171311 0.064576
0.481337 0.171311 0.064576
0.549987 0.171311 0.064576
0.614658 0.171311 0.064576
0.676029 0.171311 0.064576
0.735001 0.171311 0.064576
0.790519 0.171311 0.064576
0.844801 0.171311 0.064576
0.898462 0.171311 0.064576
0.948944 0.171311 0.064576
0.998127 0.171311 0.064576
0.000000 0.247376 0.064576
0.049263 0.247376 0.064576
0.130137 0.247376 0.064576
0.230475 0.247376 0.064576
0.324735 0.247376 0.064576
0.407702 0.247376 0.064576
0.481337 0.247376 0.064576
0.549987 0.247376 0.064576
0.614658 0.247376 0.064576
0.676029 0.247376 0.064576
0.735001 0.247376 0.064576
0.790519 0.247376 0.064576
0.844801 0.247376 0.064576
0.898462 0.247376 0.064576
0.948944 0.247376 0.064576
0.998127 0.247376 0.064576
0.000000 0.319537 0.064576
0.049263 0.319537 0.064576
0.130137 0.319537 0.064576
0.230475 0.319537 0.064576
0.324735 0.319537 0.064576
0.407702 0.319537 0.064576
0.481337 0.319537 0.064576
0.549987 0.319537 0.064576
0.614658 0.319537 0.064576
0.676029 0.319537 0.064576
0.735001 0.319537 0.064576
0.790519 0.319537 0.064576
0.844801 0.319537 0.064576
0.898462 0.319537 0.064576
0.948944 0.319537 0.064576
0.998127 0.319537 0.064576
0.000000 0.388995 0.064576
0.049263 0.388995 0.064576
0.130137 0.388995 0.064576
0.230475 0.388995 0.064576
0.324735 0.388995 0.064576
0.407702 0.388995 0.064576
0.481337 0.388995 0.064576
0.549987 0.388995 0.064576
0.614658 0.388995 0.064576
0.676029 0.388995 0.064576
0.735001 0.388995 0.064576
0.790519 0.388995 0.064576
0.844801 0.388995 0.064576
0.898462 0.388995 0.064576
0.948944 0.388995 0.064576
0.998127 0.388995 0.064576
0.000000 0.456285 0.064576
0.049263 0.456285 0.064576
0.130137 0.456285 0.064576
0.230475 0.456285 0.064576
0.324735 0.456285 0.064576
0.407702 0.456285 0.064576
0.481337 0.456285 0.064576
0.549987 0.456285 0.064576
