example_ofxGpuLutCube/bin/data/ofxGpuLutCube/LUT/A19 (very warm sunset fade).cube
LUT_3D_SIZE 6
0.000000 0.000000 0.000000
0.230475 0.000000 0.000000
0.481337 0.000000 0.000000
0.676029 0.000000 0.000000
0.844801 0.000000 0.000000
0.998127 0.000000 0.000000
0.000000 0.171311 0.000000
0.230475 0.171311 0.000000
0.481337 0.171311 0.000000
0.676029 0.171311 0.000000
0.844801 0.171311 0.000000
0.998127 0.171311 0.000000
0.000000 0.388995 0.000000
0.230475 0.388995 0.000000
0.481337 0.388995 0.000000
0.676029 0.388995 0.000000
0.844801 0.388995 0.000000
0.998127 0.388995 0.000000
0.000000 0.586272 0.000000
0.230475 0.586272 0.000000
0.481337 0.586272 0.000000
0.676029 0.586272 0.000000
0.844801 0.586272 0.000000
0.998127 0.586272 0.000000
0.000000 0.772466 0.000000
0.230475 0.772466 0.000000
0.481337 0.772466 0.000000
0.676029 0.772466 0.000000
0.844801 0.772466 0.000000
0.998127 0.772466 0.000000
0.000000 0.950557 0.000000
0.230475 0.950557 0.000000
0.481337 0.950557 0.000000
0.676029 0.950557 0.000000
0.844801 0.950557 0.000000
0.998127 0.950557 0.000000
0.000000 0.000000 0.064576
0.230475 0.000000 0.064576
0.481337 0.000000 0.064576
0.676029 0.000000 0.064576
0.844801 0.000000 0.064576
0.998127 0.000000 0.064576
0.000000 0.171311 0.064576
0.230475 0.171311 0.064576
0.481337 0.171311 0.064576
0.676029 0.171311 0.064576
0.844801 0.171311 0.064576
0.998127 0.171311 0.064576
0.000000 0.388995 0.064576
0.230475 0.388995 0.064576
0.481337 0.388995 0.064576
0.676029 0.388995 0.064576
0.844801 0.388995 0.064576
0.998127 0.388995 0.064576
0.000000 0.586272 0.064576
0.230475 0.586272 0.064576
0.481337 0.586272 0.064576
0.676029 0.586272 0.064576
0.844801 0.586272 0.064576
0.998127 0.586272 0.064576
0.000000 0.772466 0.064576
0.230475 0.772466 0.064576
0.481337 0.772466 0.064576
0.676029 0.772466 0.064576
0.844801 0.772466 0.064576
0.998127 0.772466 0.064576
0.000000 0.950557 0.064576
0.230475 0.950557 0.064576
0.481337 0.950557 0.064576
0.676029 0.950557 0.064576
0.844801 0.950557 0.064576
0.998127 0.950557 0.064576
0.000000 0.000000 0.229690
0.230475 0.000000 0.229690
0.481337 0.000000 0.229690
0.676029 0.000000 0.229690
0.844801 0.000000 0.229690
0.998127 0.000000 0.229690
0.000000 0.171311 0.229690
0.230475 0.171311 0.229690
0.481337 0.171311 0.229690
0.676029 0.171311 0.229690
0.844801 0.171311 0.229690
0.998127 0.171311 0.229690
0.000000 0.388995 0.229690
0.230475 0.388995 0.229690
0.481337 0.388995 0.229690
0.676029 0.388995 0.229690
0.844801 0.388995 0.229690
0.998127 0.388995 0.229690
0.000000 0.586272 0.229690
0.230475 0.586272 0.229690
0.481337 0.586272 0.229690
0.676029 0.586272 0.229690
0.844801 0.586272 0.229690
0.998127 0.586272 0.229690
0.000000 0.772466 0.229690
0.230475 0.772466 0.229690
0.481337 0.772466 0.229690
0.676029 0.772466 0.229690
0.844801 0.772466 0.229690
0.998127 0.772466 0.229690
0.000000 0.950557 0.229690
0.230475 0.950557 0.229690
0.481337 0.950557 0.229690
0.676029 0.950557 0.229690
0.844801 0.950557 0.229690
0.998127 0.950557 0.229690
0.000000 0.000000 0.423561
0.230475 0.000000 0.423561
0.481337 0.000000 0.423561
0.676029 0.000000 0.423561
0.844801 0.000000 0.423561
0.998127 0.000000 0.423561
0.000000 0.171311 0.423561
0.230475 0.171311 0.423561
0.481337 0.171311 0.423561
0.676029 0.171311 0.423561
0.844801 0.171311 0.423561
0.998127 0.171311 0.423561
0.000000 0.388995 0.423561
0.230475 0.388995 0.423561
0.481337 0.388995 0.423561
0.676029 0.388995 0.423561
0.844801 0.388995 0.423561
0.998127 0.388995 0.423561
0.000000 0.586272 0.423561
0.230475 0.586272 0.423561
0.481337 0.586272 0.423561
0.676029 0.586272 0.423561
0.844801 0.586272 0.423561
0.998127 0.586272 0.423561
0.000000 0.772466 0.423561
0.230475 0.772466 0.423561
0.481337 0.772466 0.423561
0.676029 0.772466 0.423561
0.844801 0.772466 0.423561
0.998127 0.772466 0.423561
0.000000 0.950557 0.423561
0.230475 0.950557 0.423561
0.481337 0.950557 0.423561
0.676029 0.950557 0.423561
0.844801 0.950557 0.423561
0.998127 0.950557 0.423561
0.000000 0.000000 0.636357
0.230475 0.000000 0.636357
0.481337 0.000000 0.636357
0.676029 0.000000 0.636357
0.844801 0.000000 0.636357
0.998127 0.000000 0.636357
0.000000 0.171311 0.636357
0.230475 0.171311 0.636357
0.481337 0.171311 0.636357
0.676029 0.171311 0.636357
0.844801 0.171311 0.636357
0.998127 0.171311 0.636357
0.000000 0.388995 0.636357
0.230475 0.388995 0.636357
0.481337 0.388995 0.636357
0.676029 0.388995 0.636357
0.844801 0.388995 0.636357
0.998127 0.388995 0.636357
0.000000 0.586272 0.636357
0.230475 0.586272 0.636357
0.481337 0.586272 0.636357
0.676029 0.586272 0.636357
0.844801 0.586272 0.636357
0.998127 0.586272 0.636357
0.000000 0.772466 0.636357
0.230475 0.772466 0.636357
0.481337 0.772466 0.636357
0.676029 0.772466 0.636357
0.844801 0.772466 0.636357
0.998127 0.772466 0.636357
0.000000 0.950557 0.636357
0.230475 0.950557 0.636357
0.481337 0.950557 0.636357
0.676029 0.950557 0.636357
0.844801 0.950557 0.636357
0.998127 0.950557 0.636357
0.000000 0.000000 0.862900
0.230475 0.000000 0.862900
0.481337 0.000000 0.862900
0.676029 0.000000 0.862900
0.844801 0.000000 0.862900
0.998127 0.000000 0.862900
0.000000 0.171311 0.862900
0.230475 0.171311 0.862900
0.481337 0.171311 0.862900
0.676029 0.171311 0.862900
0.844801 0.171311 0.862900
0.998127 0.171311 0.862900
0.000000 0.388995 0.862900
0.230475 0.388995 0.862900
0.481337 0.388995 0.862900
0.676029 0.388995 0.862900
0.844801 0.388995 0.862900
0.998127 0.388995 0.862900
0.000000 0.586272 0.862900
0.230475 0.586272 0.862900
0.481337 0.586272 0.862900
0.676029 0.586272 0.862900
0.844801 0.586272 0.862900
0.998127 0.586272 0.862900
0.000000 0.772466 0.862900
0.230475 0.772466 0.862900
0.481337 0.772466 0.862900
0.676029 0.772466 0.862900
0.844801 0.772466 0.862900
0.998127 0.772466 0.862900
0.000000 0.950557 0.862900
0.230475 0.950557 0.862900
0.481337 0.950557 0.862900
0.676029 0.950557 0.862900
0.844801 0.950557 0.862900
0.998127 0.950557 0.862900
