example_ofxGpuLutCube/bin/data/ofxGpuLutCube/LUT/A2 (bright warm).cube
LUT_3D_SIZE 6
0.000000 0.000610 0.024873
0.169559 0.000000 0.014920
0.347882 0.014754 0.020749
0.598716 0.056499 0.048975
0.909758 0.164157 0.135918
1.000030 0.265591 0.221467
0.008279 0.149208 0.020730
0.154532 0.150601 0.018291
0.346686 0.153106 0.018350
0.602270 0.191502 0.046772
0.909758 0.266976 0.137932
1.000030 0.336859 0.222797
0.040420 0.307275 0.034998
0.142565 0.318036 0.050903
0.360614 0.336524 0.038823
0.621094 0.369310 0.033192
0.901956 0.429939 0.133563
1.000077 0.478020 0.225656
0.095968 0.517987 0.067448
0.176466 0.521101 0.079679
0.363474 0.548578 0.119697
0.650605 0.593679 0.088612
0.912707 0.622866 0.161635
1.000003 0.653147 0.256067
0.182398 0.781793 0.116109
0.254811 0.782760 0.124258
0.421284 0.790832 0.157083
0.649318 0.822588 0.224460
0.923482 0.835902 0.265542
1.000024 0.840755 0.337082
0.351829 0.991203 0.238047
0.400129 0.991357 0.246420
0.536986 0.992773 0.275309
0.717201 0.995139 0.310753
0.922477 0.999993 0.406692
1.000043 0.999993 0.450179
0.000000 0.000000 0.140428
0.122869 0.004926 0.118989
0.336610 0.012888 0.122989
0.597718 0.051899 0.154894
0.908799 0.167397 0.222105
1.000030 0.273064 0.286016
0.000000 0.161217 0.140107
0.097892 0.144470 0.135153
0.340264 0.148251 0.120582
0.599195 0.188605 0.153384
0.907819 0.267779 0.222055
1.000030 0.341326 0.285804
0.000000 0.327155 0.145732
0.094238 0.321783 0.142064
0.348448 0.336379 0.138634
0.621996 0.368318 0.152577
0.899968 0.429429 0.216614
1.000030 0.480529 0.286698
0.015425 0.533688 0.172770
0.135168 0.523697 0.165798
0.348460 0.557245 0.196572
0.645897 0.596276 0.187645
0.913633 0.624728 0.238329
1.000076 0.655992 0.312000
0.155716 0.783368 0.201270
0.235540 0.784988 0.205593
0.410224 0.795779 0.229579
0.643355 0.827763 0.285913
0.921525 0.836952 0.317712
1.000024 0.841860 0.379314
0.346455 0.991752 0.295222
0.396974 0.992464 0.302633
0.536221 0.993314 0.326030
0.713495 0.995513 0.356972
0.919557 0.999993 0.440664
1.000030 0.999993 0.478304
0.000000 0.000000 0.264028
0.000000 0.000000 0.264028
0.300004 0.052385 0.267809
0.581364 0.081499 0.309129
0.899028 0.170168 0.368746
1.000030 0.295802 0.418379
0.000000 0.160621 0.272222
0.000000 0.159644 0.273079
0.303256 0.171274 0.277419
0.588094 0.197286 0.310341
0.898034 0.265182 0.367031
1.000079 0.357769 0.417620
0.000000 0.349723 0.294729
0.000000 0.350696 0.295562
0.271110 0.353608 0.319273
0.624761 0.377157 0.318512
0.893162 0.428780 0.361485
1.000030 0.492532 0.419105
0.000000 0.575563 0.326714
0.000000 0.578498 0.330141
0.266635 0.595654 0.342885
0.630483 0.611208 0.344925
0.911768 0.629791 0.381861
1.000030 0.664521 0.436869
0.000000 0.817299 0.376650
0.077922 0.814366 0.371409
0.363413 0.814051 0.373978
0.617832 0.843325 0.420230
0.908799 0.844700 0.440657
1.000030 0.844919 0.483764
0.310298 0.993473 0.426367
0.373273 0.994002 0.431364
0.525030 0.994691 0.446331
0.700993 0.995703 0.471005
0.907819 0.999993 0.529979
1.000030 0.999993 0.558728
0.000000 0.000914 0.433389
0.000000 0.000914 0.433389
0.201334 0.044649 0.435558
0.554195 0.123413 0.498688
0.849588 0.228300 0.545670
1.000030 0.347352 0.588541
0.000000 0.169033 0.447069
0.000000 0.169033 0.447069
0.185442 0.166944 0.455516
0.557798 0.233018 0.507377
0.852247 0.303345 0.545324
1.000024 0.400251 0.588413
0.000000 0.381789 0.476867
0.000000 0.381785 0.476867
0.106169 0.379893 0.504009
0.565489 0.412896 0.531086
0.866140 0.457542 0.554607
1.000030 0.524746 0.591593
0.000000 0.611199 0.527022
0.000000 0.611199 0.527022
0.005465 0.635662 0.547504
0.528356 0.625442 0.580544
0.893713 0.640686 0.564143
1.000030 0.680671 0.598855
0.000000 0.864737 0.567407
0.000000 0.864737 0.567407
0.149215 0.867003 0.565896
0.553413 0.872415 0.591693
0.884848 0.853210 0.599496
1.000030 0.850772 0.627588
0.310323 0.994565 0.598319
0.310323 0.994565 0.598319
0.476116 0.995483 0.607212
0.680798 0.997097 0.623934
0.886721 0.999993 0.656351
1.000030 0.999993 0.674456
0.005495 0.031539 0.674511
0.005495 0.031539 0.674511
0.005637 0.031671 0.674511
0.466105 0.130090 0.708621
0.814784 0.274772 0.753554
1.000003 0.453702 0.776184
0.000000 0.197472 0.689352
0.000000 0.197473 0.689369
0.000000 0.197429 0.689368
0.463205 0.236453 0.716459
0.816999 0.346769 0.756811
1.000031 0.491566 0.776016
0.000000 0.417095 0.715085
0.000000 0.417095 0.715085
0.000000 0.417095 0.715085
0.440875 0.414367 0.745245
0.819414 0.500728 0.766596
1.000030 0.588136 0.774476
0.000000 0.635296 0.743884
0.000000 0.635296 0.743884
0.000000 0.635296 0.743884
0.384702 0.640884 0.796601
0.827219 0.678711 0.780094
1.000030 0.717419 0.778499
0.017811 0.862552 0.778848
0.017811 0.862552 0.778848
0.017811 0.862552 0.778848
0.431288 0.882897 0.793362
0.823204 0.857530 0.805697
1.000030 0.861415 0.784204
0.378897 0.998170 0.784271
0.378918 0.998170 0.784271
0.395140 0.997591 0.784896
0.649728 0.999128 0.792231
0.862333 0.999993 0.798386
1.000030 0.999993 0.802061
0.164456 0.174673 0.922339
0.164456 0.174673 0.922339
0.164615 0.174860 0.922346
0.324808 0.202389 0.938538
0.744642 0.349964 0.999733
0.997920 0.541945 0.982479
0.153418 0.268382 0.935912
0.153417 0.268382 0.935912
0.153365 0.268382 0.935912
0.327897 0.287337 0.953962
0.746625 0.404880 0.999733
0.997522 0.567759 0.967961
0.123509 0.449695 0.999733
0.123577 0.449695 0.999733
0.123672 0.449695 0.999733
0.313245 0.452368 0.999733
0.753555 0.535512 0.986082
0.996921 0.640296 0.957175
0.122972 0.664881 0.999733
0.122972 0.664881 0.999733
0.123138 0.664881 0.999733
0.335703 0.671251 0.999733
0.762040 0.694621 0.981616
0.997401 0.751894 0.951133
0.305217 0.855880 0.999733
0.305217 0.855880 0.999733
0.305152 0.855880 0.999733
0.445037 0.860809 0.999733
0.768006 0.865070 0.980591
0.999221 0.879062 0.952471
0.545750 0.999993 0.999733
0.545750 0.999993 0.999733
0.545750 0.999993 0.999733
0.645391 0.999993 0.999733
0.848061 0.999993 0.995332
1.000030 0.999993 0.937352
