example_ofxGpuLutCube/bin/data/ofxGpuLutCube/LUT/A2 (bright warm).cube
LUT_3D_SIZE 16
0.000000 0.000610 0.024873
0.051706 0.000000 0.017377
0.108885 0.000610 0.015865
0.169559 0.000000 0.014920
0.222309 0.000974 0.014200
0.279066 0.006574 0.015971
0.347882 0.014754 0.020749
0.424348 0.026260 0.027436
0.504435 0.038161 0.036176
0.598716 0.056499 0.048975
0.700677 0.079537 0.066507
0.807662 0.113635 0.095750
0.909758 0.164157 0.135918
0.987424 0.219320 0.182280
1.000030 0.265591 0.221467
1.000030 0.265591 0.221467
0.000000 0.049073 0.018247
0.041147 0.046722 0.017887
0.107888 0.038238 0.015792
0.163989 0.037851 0.015430
0.219682 0.040087 0.014043
0.279468 0.045973 0.016372
0.348256 0.055850 0.020594
0.423759 0.066659 0.027020
0.504742 0.077669 0.035801
0.599716 0.093588 0.048865
0.701974 0.113129 0.066131
0.808620 0.143826 0.095639
0.909758 0.188120 0.135995
0.986637 0.236388 0.182410
1.000030 0.279714 0.221520
1.000030 0.279714 0.221577
0.002663 0.097484 0.018275
0.031513 0.106051 0.019991
0.100506 0.102397 0.017455
0.163341 0.091274 0.015079
0.218158 0.090443 0.013522
0.277762 0.094741 0.015528
0.347719 0.103246 0.020071
0.423056 0.112472 0.026175
0.505713 0.123507 0.035118
0.601070 0.138979 0.048220
0.701988 0.156004 0.066271
0.808989 0.183305 0.095822
0.909758 0.222090 0.136457
0.985885 0.263443 0.182008
1.000030 0.302796 0.222003
1.000030 0.302796 0.222020
0.008279 0.149208 0.020730
0.032686 0.155524 0.022384
0.085186 0.160036 0.025644
0.154532 0.150601 0.018291
0.221097 0.143259 0.013438
0.281162 0.146306 0.013457
0.346686 0.153106 0.018350
0.422495 0.163059 0.024922
0.507496 0.175874 0.033885
0.602270 0.191502 0.046772
0.702788 0.208391 0.064214
0.810176 0.234831 0.096009
0.909758 0.266976 0.137932
0.985067 0.302418 0.181941
1.000030 0.336859 0.222652
1.000030 0.336859 0.222797
0.014778 0.196467 0.023668
0.033973 0.201238 0.025461
0.083703 0.208284 0.030220
0.138853 0.207151 0.035292
0.214440 0.204368 0.022937
0.286814 0.201041 0.012557
0.353968 0.207322 0.015565
0.427122 0.216795 0.021562
0.509145 0.230065 0.030947
0.602736 0.246668 0.044074
0.704395 0.265511 0.063734
0.810667 0.290958 0.096600
0.907819 0.318173 0.136426
0.983444 0.349665 0.182704
1.000030 0.379146 0.223644
1.000030 0.379144 0.223562
0.025210 0.248593 0.028258
0.041417 0.252923 0.030257
0.084139 0.259419 0.034811
0.138300 0.261783 0.045006
0.201375 0.263650 0.050504
0.282081 0.267641 0.028656
0.362867 0.266609 0.014456
0.438267 0.275506 0.018008
0.518032 0.288124 0.025152
0.606358 0.304368 0.038869
0.708230 0.326505 0.062033
0.811330 0.348645 0.094665
0.904854 0.373491 0.134685
0.981772 0.401015 0.182831
1.000030 0.426545 0.224388
1.000030 0.426547 0.224526
0.040420 0.307275 0.034998
0.054669 0.311141 0.036971
0.090369 0.316123 0.043193
0.142565 0.318036 0.050903
0.200167 0.322763 0.064236
0.272479 0.329808 0.065298
0.360614 0.336524 0.038823
0.449546 0.341621 0.018590
0.532457 0.352930 0.020477
0.621094 0.369310 0.033192
0.713760 0.387371 0.056532
0.809417 0.406633 0.090603
0.901956 0.429939 0.133563
0.979204 0.456436 0.183941
1.000077 0.478022 0.225764
1.000077 0.478020 0.225656
0.058013 0.371518 0.044045
0.070133 0.373233 0.045727
0.100966 0.375454 0.052240
0.149035 0.378114 0.060481
0.207835 0.384173 0.071113
0.268768 0.393378 0.086401
0.357327 0.402840 0.076857
0.450798 0.416945 0.049476
0.546487 0.424663 0.023003
0.637896 0.439124 0.031690
0.726693 0.454099 0.056599
0.811558 0.468549 0.087461
0.899028 0.487998 0.130076
0.977421 0.512511 0.185558
1.000047 0.532109 0.229754
1.000047 0.532109 0.229794
0.076100 0.442841 0.055720
0.087813 0.443434 0.056624
0.117052 0.445769 0.060641
0.160717 0.447356 0.069745
0.217206 0.452440 0.079819
0.281429 0.461014 0.092963
0.351759 0.475013 0.106943
0.448543 0.488474 0.096255
0.548981 0.505368 0.065060
0.650395 0.513336 0.043649
0.738890 0.522980 0.061776
0.821100 0.534904 0.094516
0.903861 0.551101 0.138812
0.978340 0.574607 0.196841
1.000030 0.592185 0.242002
1.000030 0.592185 0.241999
0.095968 0.517987 0.067448
0.106578 0.518160 0.068188
0.135911 0.518955 0.071552
0.176466 0.521101 0.079679
0.228916 0.526021 0.090073
0.294118 0.534696 0.101473
0.363474 0.548578 0.119697
0.445271 0.566988 0.132772
0.550568 0.580188 0.115423
0.650605 0.593679 0.088612
0.747359 0.595823 0.078431
0.830855 0.606405 0.109170
0.912707 0.622866 0.161635
0.980942 0.639476 0.214944
1.000003 0.653146 0.255978
1.000003 0.653147 0.256067
0.118016 0.597779 0.079433
0.127379 0.597779 0.080038
0.155946 0.597779 0.082720
0.198262 0.600724 0.089893
0.247342 0.606971 0.101045
0.309178 0.613532 0.111915
0.382805 0.628443 0.128215
0.458274 0.646720 0.151518
0.543965 0.662134 0.161638
0.646284 0.669378 0.142636
0.742739 0.677700 0.121174
0.840249 0.681059 0.139331
0.920575 0.693399 0.188685
0.984288 0.706104 0.240399
1.000030 0.715797 0.276740
1.000030 0.715796 0.276656
0.146689 0.690276 0.095550
0.155352 0.690542 0.096406
0.182614 0.692165 0.099667
0.226208 0.693500 0.104633
0.273714 0.696683 0.115047
0.330711 0.700864 0.126855
0.401178 0.710348 0.141438
0.476669 0.724204 0.161558
0.551304 0.736963 0.184680
0.640624 0.746554 0.189860
0.744045 0.754550 0.180540
0.841442 0.760272 0.186540
0.926422 0.763721 0.221242
0.986637 0.772492 0.270863
1.000066 0.779300 0.305683
1.000066 0.779301 0.305693
0.182398 0.781793 0.116109
0.189952 0.781805 0.116839
0.214337 0.781793 0.119405
0.254811 0.782760 0.124258
0.305884 0.783939 0.131466
0.359013 0.786848 0.144408
0.421284 0.790832 0.157083
0.492924 0.799468 0.174207
0.567771 0.809399 0.196170
0.649318 0.822588 0.224460
0.741880 0.832787 0.237967
0.839331 0.835301 0.242916
0.923482 0.835902 0.265542
0.987424 0.836878 0.306212
1.000024 0.840755 0.337155
1.000024 0.840755 0.337082
0.226255 0.869700 0.143956
0.232729 0.869608 0.144720
0.254177 0.869700 0.146428
0.291545 0.869608 0.150509
0.339980 0.869692 0.157314
0.393104 0.869550 0.165485
0.449290 0.871615 0.178866
0.513959 0.875370 0.193705
0.590275 0.885659 0.219648
0.668673 0.895614 0.251020
0.748680 0.901283 0.281953
0.835316 0.903471 0.300968
0.921525 0.900311 0.317766
0.983444 0.901309 0.348807
1.000032 0.900311 0.373201
1.000032 0.900311 0.373239
0.283298 0.955044 0.184883
0.288711 0.955066 0.185519
0.307217 0.955044 0.188209
0.339523 0.955066 0.192158
0.383467 0.954342 0.197619
0.436457 0.954888 0.206813
0.492531 0.955276 0.219316
0.550057 0.955879 0.233578
0.616689 0.957240 0.250665
0.691188 0.962021 0.279777
0.766060 0.963850 0.311704
0.841179 0.963857 0.344784
0.917566 0.960951 0.370547
0.980051 0.960059 0.395324
1.000026 0.959116 0.414971
1.000026 0.959116 0.415002
0.351829 0.991203 0.238047
0.356329 0.991357 0.238861
0.371714 0.991203 0.241404
0.400129 0.991357 0.246420
0.440151 0.991233 0.254205
0.485387 0.992465 0.264492
0.536986 0.992773 0.275309
0.592766 0.993271 0.286503
0.651723 0.994004 0.297901
0.717201 0.995139 0.310753
0.787341 0.995803 0.339866
0.855437 1.000023 0.373046
0.922477 0.999993 0.406692
0.981772 0.999993 0.435614
1.000043 0.999993 0.450098
1.000043 0.999993 0.450179
0.000000 0.000000 0.061387
0.030884 0.000000 0.051409
0.098897 0.000000 0.044176
0.162730 0.000000 0.042396
0.218613 0.000590 0.042047
0.277031 0.005334 0.043641
0.346184 0.014091 0.050246
0.422338 0.025015 0.057576
0.503604 0.036940 0.065938
0.598507 0.055566 0.077473
0.700866 0.078316 0.092200
0.808390 0.113688 0.118580
0.909758 0.165447 0.155183
0.986637 0.219656 0.197550
1.000030 0.266865 0.234283
1.000030 0.266915 0.234316
0.000000 0.056379 0.055715
0.025582 0.048289 0.053482
0.100894 0.037661 0.042600
0.160410 0.035481 0.040371
0.215869 0.038529 0.040197
0.276592 0.046072 0.044045
0.346445 0.055275 0.050037
0.421896 0.065774 0.057160
0.503927 0.077010 0.065685
0.599397 0.093085 0.077350
0.701189 0.111491 0.091963
0.809317 0.143320 0.118457
0.909758 0.187314 0.156056
0.986637 0.236584 0.197563
1.000030 0.280834 0.234330
1.000030 0.280878 0.234331
0.000000 0.112470 0.053635
0.015496 0.115369 0.053845
0.091904 0.099665 0.047078
0.160323 0.088762 0.038274
0.215814 0.088752 0.039298
0.275963 0.094110 0.043191
0.345409 0.102551 0.049137
0.421272 0.111835 0.056305
0.504916 0.123114 0.065177
0.600602 0.138538 0.076895
0.702088 0.156599 0.091449
0.808534 0.183844 0.118832
0.909758 0.222020 0.155384
0.985885 0.264359 0.196888
1.000030 0.303732 0.234485
1.000030 0.303732 0.234485
0.000812 0.158127 0.054641
0.017877 0.160941 0.054608
0.071541 0.158127 0.054641
0.149719 0.149129 0.044771
0.218749 0.142442 0.038117
0.278605 0.145652 0.040918
0.345319 0.152292 0.047135
0.420918 0.162397 0.054851
0.506867 0.175592 0.064270
0.601478 0.191006 0.075646
0.703147 0.208065 0.090532
0.809438 0.235305 0.118393
0.909758 0.268771 0.155870
0.985067 0.303213 0.197384
1.000030 0.337685 0.234993
1.000030 0.337685 0.234993
0.003265 0.203073 0.055808
0.020878 0.205972 0.055521
0.071165 0.205056 0.056629
0.132749 0.204992 0.061265
0.210378 0.203491 0.049681
0.284885 0.200289 0.040440
0.352924 0.206456 0.044761
0.426179 0.216030 0.051915
0.508140 0.229460 0.061668
0.601961 0.246170 0.073288
0.703408 0.265887 0.089581
0.810885 0.291456 0.118498
0.907819 0.318747 0.154762
0.983444 0.350241 0.197086
1.000030 0.379725 0.235524
1.000030 0.379725 0.235526
0.011431 0.255793 0.059474
0.028043 0.257812 0.059519
0.074356 0.256772 0.060295
0.129923 0.258793 0.066902
0.195998 0.262050 0.070519
0.279402 0.266866 0.056194
0.361459 0.265988 0.044282
0.437590 0.274724 0.048814
0.517515 0.287515 0.057412
0.606111 0.303850 0.069504
0.708726 0.326879 0.087772
0.810131 0.349131 0.116354
0.904854 0.374076 0.152836
0.981772 0.401561 0.196814
1.000030 0.427132 0.236102
1.000030 0.427132 0.236102
0.026623 0.312806 0.063995
0.041794 0.313497 0.064195
0.081560 0.313786 0.065637
0.136681 0.314491 0.070758
0.195697 0.320316 0.082783
0.268489 0.328256 0.084385
0.358171 0.336035 0.064728
0.448545 0.341055 0.049926
0.531962 0.352379 0.053850
0.621062 0.368744 0.065621
0.713232 0.386801 0.084213
0.808359 0.407132 0.111631
0.901956 0.429314 0.150241
0.979204 0.455814 0.197536
1.000078 0.478378 0.236821
1.000078 0.478378 0.236821
0.046415 0.373776 0.069282
0.059385 0.373882 0.069777
0.093361 0.373776 0.072568
0.143288 0.375889 0.077985
0.203222 0.382716 0.086934
0.264943 0.392015 0.101269
0.354719 0.402377 0.094333
0.448995 0.416588 0.074163
0.545655 0.424108 0.055726
0.637766 0.438650 0.064162
0.726960 0.454549 0.082803
0.811369 0.469061 0.108520
0.899028 0.487641 0.146383
0.977421 0.512114 0.197812
1.000050 0.532722 0.240464
1.000050 0.532722 0.240464
0.068493 0.443331 0.076233
0.079404 0.443074 0.076558
0.109443 0.443331 0.078696
0.154312 0.445041 0.085594
0.212714 0.449935 0.093558
0.277893 0.459791 0.105868
0.349273 0.474455 0.119887
0.446997 0.488246 0.111629
0.547761 0.505287 0.087091
0.649952 0.513144 0.071570
0.738715 0.522889 0.086265
0.820529 0.534645 0.113484
0.904854 0.552663 0.153830
0.978340 0.575163 0.207831
1.000030 0.592742 0.251399
1.000030 0.592742 0.251399
0.090872 0.517122 0.082691
0.101022 0.516760 0.082960
0.130834 0.517122 0.085973
0.170914 0.519703 0.092814
0.226146 0.524335 0.101873
0.292152 0.533557 0.112515
0.361669 0.548810 0.130703
0.444320 0.567805 0.143854
0.549921 0.580333 0.128529
0.649679 0.593521 0.104486
0.746702 0.595978 0.095597
0.830947 0.606221 0.124248
0.912707 0.622215 0.173173
0.980942 0.638806 0.223152
1.000003 0.653444 0.263481
1.000003 0.653444 0.263481
0.113376 0.596246 0.092666
0.122984 0.596129 0.093085
0.152327 0.596246 0.095127
0.192872 0.600036 0.102120
0.244321 0.604606 0.112586
0.307104 0.612523 0.122940
0.381796 0.629039 0.138959
0.457175 0.647679 0.161755
0.543221 0.662855 0.171613
0.645732 0.669725 0.154123
0.741934 0.677519 0.134388
0.839799 0.681403 0.150820
0.920575 0.693637 0.198413
0.984288 0.707303 0.248606
1.000030 0.716035 0.283261
1.000030 0.716034 0.283229
0.142777 0.688527 0.107175
0.151567 0.688735 0.107895
0.179721 0.689516 0.110468
0.222428 0.691676 0.116121
0.270689 0.695607 0.126795
0.328919 0.700446 0.137700
0.400106 0.711153 0.151572
0.475916 0.724797 0.170792
0.550393 0.737532 0.193222
0.639971 0.746993 0.198707
0.743266 0.754095 0.189884
0.840809 0.760646 0.195359
0.926422 0.763815 0.229193
0.985885 0.772586 0.278062
1.000062 0.779382 0.311238
1.000062 0.779382 0.311230
0.179289 0.780165 0.126224
0.187067 0.780265 0.126949
0.212236 0.780165 0.129514
0.253921 0.781188 0.134371
0.303807 0.783392 0.142022
0.357180 0.787095 0.154310
0.420206 0.791213 0.166010
0.492106 0.799781 0.182489
0.567174 0.809672 0.203769
0.648757 0.823220 0.231760
0.741347 0.832146 0.244794
0.837918 0.835009 0.250238
0.923482 0.835871 0.272693
0.987424 0.836890 0.310061
1.000024 0.840767 0.341849
1.000024 0.840767 0.341833
0.224788 0.869438 0.153161
0.231363 0.869457 0.153739
0.252704 0.869438 0.155641
0.291176 0.869457 0.159529
0.339113 0.869238 0.165834
0.392539 0.868962 0.173575
0.448413 0.872212 0.186595
0.513392 0.875793 0.201017
0.589874 0.886312 0.226286
0.668360 0.895788 0.256851
0.748182 0.902962 0.287810
0.835022 0.903643 0.306021
0.921525 0.900352 0.322281
0.983444 0.901349 0.352468
1.000032 0.900352 0.376988
1.000032 0.900352 0.376977
0.282418 0.955041 0.191832
0.287869 0.955024 0.192449
0.306352 0.955041 0.194339
0.339680 0.955024 0.199100
0.383980 0.954519 0.204533
0.435093 0.955043 0.214249
0.492062 0.955451 0.225408
0.549722 0.956051 0.239375
0.616255 0.957593 0.256021
0.690883 0.962352 0.284606
0.765687 0.965071 0.316291
0.839854 0.964186 0.348003
0.917566 0.960946 0.374259
0.980051 0.960054 0.399078
1.000028 0.959111 0.417889
1.000028 0.959111 0.417877
0.351377 0.991263 0.242789
0.355910 0.991376 0.243612
0.371282 0.991263 0.246992
0.400666 0.991376 0.252023
0.439081 0.991950 0.259240
0.486118 0.992399 0.268636
0.536932 0.992751 0.279531
0.592498 0.993313 0.290677
0.651640 0.994158 0.301930
0.716750 0.995147 0.314338
0.787205 0.995858 0.343986
0.856003 0.997088 0.376745
0.922477 0.999993 0.409728
0.980942 0.999993 0.437723
1.000043 0.999993 0.452276
1.000043 0.999993 0.452321
0.000000 0.000000 0.098349
0.011050 0.000000 0.095587
0.077922 0.000000 0.086020
0.144894 0.001970 0.079977
0.208580 0.001486 0.077674
0.271849 0.004245 0.079728
0.343145 0.013207 0.085059
0.419141 0.022937 0.092048
0.502069 0.034785 0.100414
0.597874 0.053784 0.112277
0.699373 0.076163 0.126764
0.808777 0.113880 0.151046
0.909758 0.165434 0.183772
0.985885 0.219963 0.221544
1.000030 0.268807 0.254874
1.000030 0.269198 0.255125
0.000000 0.046725 0.098811
0.004204 0.044020 0.100317
0.073929 0.040813 0.088952
0.144022 0.041065 0.079773
0.208410 0.037702 0.076365
0.273489 0.044068 0.079316
0.342970 0.053463 0.084571
0.418828 0.063771 0.091633
0.502509 0.075416 0.100228
0.598590 0.091648 0.112159
0.700808 0.110878 0.125750
0.808510 0.141887 0.150927
0.909758 0.188005 0.183805
0.985885 0.237574 0.220714
1.000030 0.282533 0.254905
1.000030 0.282857 0.255132
0.000000 0.111201 0.099657
0.000000 0.113704 0.100847
0.057944 0.098391 0.095546
0.145837 0.087109 0.079490
0.210049 0.086920 0.075443
0.272004 0.091648 0.077866
0.341633 0.100708 0.083651
0.418295 0.110363 0.091007
0.503531 0.122098 0.100021
0.599551 0.137539 0.111898
0.700846 0.155591 0.126365
0.808487 0.183826 0.150667
0.909758 0.222432 0.184681
0.985885 0.264047 0.220757
1.000030 0.305135 0.254953
1.000030 0.305409 0.255181
0.000000 0.166191 0.096524
0.000000 0.166866 0.096760
0.040960 0.164241 0.094051
0.135852 0.145197 0.081151
0.213547 0.140738 0.075121
0.276030 0.143307 0.077715
0.343131 0.150587 0.082511
0.418373 0.161030 0.090027
0.505245 0.174603 0.099579
0.600004 0.190000 0.110945
0.701511 0.207096 0.125090
0.809861 0.235284 0.150545
0.908799 0.266957 0.184252
0.984288 0.303533 0.220302
1.000030 0.338802 0.255364
1.000030 0.338952 0.255552
0.000000 0.213193 0.094940
0.003050 0.213776 0.095801
0.044958 0.210215 0.094121
0.113925 0.204910 0.091687
0.203402 0.201513 0.083494
0.282368 0.198945 0.077438
0.350945 0.204459 0.081845
0.424690 0.214713 0.088935
0.506941 0.228327 0.097890
0.600617 0.245184 0.109406
0.704173 0.265738 0.125050
0.810480 0.291453 0.150636
0.906866 0.318769 0.183115
0.982636 0.350314 0.221504
1.000030 0.380756 0.255889
1.000030 0.380850 0.255933
0.000000 0.264996 0.099256
0.006870 0.265297 0.099550
0.052949 0.259086 0.095969
0.113747 0.257426 0.097083
0.185406 0.261473 0.099623
0.274217 0.264280 0.089792
0.358855 0.264423 0.083196
0.436414 0.273137 0.088141
0.516905 0.286551 0.096470
0.605523 0.303159 0.107373
0.707149 0.325897 0.124456
0.808564 0.348422 0.149427
0.903861 0.372986 0.181175
0.980942 0.402540 0.220338
1.000030 0.428035 0.256425
1.000030 0.428069 0.256434
0.002895 0.320235 0.104640
0.015675 0.320214 0.104066
0.062811 0.316302 0.101349
0.122546 0.312337 0.100771
0.183181 0.318583 0.109870
0.260382 0.327167 0.111724
0.353639 0.335309 0.099181
0.446434 0.339970 0.091160
0.531345 0.351215 0.095963
0.620870 0.368094 0.106500
0.713756 0.386601 0.121470
0.808164 0.406431 0.146069
0.900963 0.430088 0.178511
0.979204 0.456583 0.220173
1.000030 0.479144 0.257117
1.000030 0.479144 0.257117
0.016880 0.380587 0.110044
0.031920 0.379952 0.109192
0.074819 0.376650 0.106755
0.130800 0.374069 0.106719
0.192938 0.380219 0.114581
0.257473 0.391818 0.126648
0.348459 0.402827 0.123648
0.445530 0.416384 0.110180
0.544323 0.423303 0.100077
0.637430 0.437675 0.107620
0.726543 0.453754 0.122301
0.812026 0.468120 0.143891
0.899028 0.487875 0.176132
0.977421 0.513347 0.221947
1.000054 0.533920 0.261443
1.000054 0.533920 0.261443
0.040292 0.449593 0.116741
0.054843 0.448510 0.115939
0.091232 0.445669 0.114276
0.141735 0.442611 0.115116
0.203784 0.448084 0.121995
0.269591 0.460214 0.134327
0.344341 0.476539 0.147580
0.443706 0.489633 0.142582
0.545243 0.505511 0.124801
0.648684 0.512518 0.115254
0.738139 0.522157 0.126445
0.820309 0.535047 0.148248
0.904854 0.551865 0.184857
0.978340 0.575381 0.232419
1.000030 0.593916 0.272008
1.000030 0.593916 0.272008
0.069652 0.521371 0.123262
0.080745 0.520350 0.122676
0.112598 0.517463 0.121609
0.157647 0.517397 0.124328
0.216343 0.522233 0.131953
0.285908 0.533663 0.141598
0.356893 0.551637 0.160043
0.441076 0.570824 0.173046
0.548242 0.581496 0.161693
0.647764 0.593942 0.143192
0.745960 0.595179 0.136897
0.831020 0.605707 0.160563
0.913633 0.623257 0.202563
0.980942 0.639860 0.246942
1.000030 0.654467 0.284103
1.000030 0.654467 0.284103
0.099897 0.598531 0.130112
0.109428 0.597328 0.129632
0.135853 0.595609 0.129290
0.180317 0.597328 0.134581
0.233863 0.605389 0.143383
0.302383 0.615193 0.153125
0.378339 0.631711 0.168209
0.453510 0.650319 0.189635
0.540437 0.664961 0.199249
0.644243 0.670766 0.185003
0.740226 0.678613 0.168508
0.840148 0.682496 0.183340
0.920575 0.693502 0.223641
0.984288 0.707085 0.269046
1.000078 0.716906 0.302148
1.000078 0.716906 0.302148
0.131972 0.689131 0.142412
0.140894 0.688151 0.142052
0.168921 0.688164 0.143239
0.211768 0.692057 0.149488
0.264285 0.697630 0.158656
0.324142 0.703193 0.168409
0.396763 0.713231 0.180207
0.473138 0.726603 0.197489
0.547397 0.739371 0.218443
0.637653 0.748820 0.224346
0.743185 0.755986 0.218443
0.840429 0.762444 0.222673
0.925446 0.765369 0.252597
0.985885 0.774202 0.296616
1.000048 0.779992 0.328229
1.000048 0.779992 0.328229
0.171125 0.779900 0.159077
0.179248 0.779935 0.159477
0.205057 0.780901 0.161570
0.248093 0.781862 0.165278
0.298170 0.784128 0.172859
0.351613 0.789428 0.184101
0.416592 0.792888 0.193646
0.489548 0.801135 0.208245
0.565389 0.811330 0.227936
0.646852 0.824939 0.254731
0.739617 0.834737 0.267470
0.836947 0.836641 0.271604
0.922477 0.837434 0.291017
0.986637 0.837434 0.326873
1.000024 0.841380 0.357160
1.000024 0.841380 0.357160
0.219313 0.869550 0.183132
0.226128 0.869561 0.183621
0.248249 0.869550 0.185624
0.286949 0.869561 0.188622
0.336050 0.870744 0.194007
0.389531 0.871620 0.201778
0.445387 0.873672 0.213175
0.511382 0.877510 0.226005
0.588385 0.887554 0.249171
0.667026 0.896834 0.277396
0.746757 0.903222 0.306774
0.833665 0.904673 0.322539
0.919557 0.901324 0.338762
0.983444 0.901324 0.367435
1.000032 0.900411 0.390400
1.000032 0.900411 0.390381
0.279423 0.955262 0.218139
0.285013 0.955315 0.218726
0.304347 0.955262 0.220631
0.337799 0.955315 0.224586
0.382713 0.955486 0.229482
0.433847 0.955306 0.237913
0.490798 0.956406 0.248791
0.548431 0.957233 0.261475
0.614835 0.958510 0.276752
0.689641 0.963044 0.303461
0.764214 0.964995 0.332196
0.838620 0.964873 0.363762
0.916645 0.961113 0.388381
0.980051 0.960227 0.410677
1.000033 0.959242 0.429580
1.000033 0.959242 0.429580
0.350029 0.991365 0.264644
0.354650 0.991401 0.265389
0.370907 0.991365 0.268015
0.399423 0.992200 0.273005
0.439102 0.992252 0.279931
0.485696 0.992014 0.288969
0.536958 0.992998 0.298616
0.592091 0.993684 0.309396
0.651019 0.994272 0.319836
0.715778 0.995343 0.331428
0.785625 0.995988 0.359575
0.855021 0.997704 0.390838
0.921525 0.999993 0.422581
0.980942 0.999993 0.448910
1.000030 0.999993 0.462665
1.000030 0.999993 0.462665
0.000000 0.000000 0.140428
0.000000 0.000000 0.140433
0.039963 0.000000 0.132176
0.122869 0.004926 0.118989
0.189041 0.013873 0.116397
0.259634 0.012797 0.118180
0.336610 0.012888 0.122989
0.414934 0.020677 0.130544
0.500476 0.032844 0.141217
0.597718 0.051899 0.154894
0.700655 0.074223 0.171006
0.808641 0.113964 0.193070
0.908799 0.167397 0.222105
0.985067 0.221867 0.254716
1.000030 0.271767 0.285302
1.000030 0.273064 0.286016
0.000000 0.041976 0.141097
0.000000 0.041985 0.141076
0.029972 0.035079 0.138624
0.120874 0.043954 0.120451
0.188858 0.050371 0.117207
0.259738 0.047996 0.117631
0.336395 0.051360 0.122154
0.415059 0.060807 0.129990
0.501288 0.073071 0.140968
0.598552 0.089339 0.154618
0.700498 0.107545 0.169931
0.808463 0.142535 0.192782
0.909758 0.188771 0.222060
0.985067 0.239010 0.254616
1.000030 0.285270 0.285249
1.000030 0.286256 0.285907
0.000000 0.105565 0.140836
0.000000 0.105565 0.140836
0.015985 0.098670 0.142495
0.114882 0.088816 0.125164
0.190528 0.095120 0.117761
0.260823 0.094120 0.118613
0.336097 0.098071 0.121064
0.415122 0.107906 0.129334
0.502631 0.120478 0.140828
0.599068 0.135649 0.154210
0.700897 0.152977 0.169777
0.809950 0.182913 0.193213
0.908799 0.222887 0.221994
0.984288 0.265105 0.253741
1.000030 0.307544 0.285159
1.000030 0.308393 0.285876
0.000000 0.161217 0.140107
0.000000 0.161217 0.140107
0.005994 0.165150 0.142590
0.097892 0.144470 0.135153
0.194716 0.139394 0.120582
0.268963 0.141322 0.117970
0.340264 0.148251 0.120582
0.416294 0.159045 0.128682
0.503457 0.173093 0.140322
0.599195 0.188605 0.153384
0.702673 0.207546 0.170106
0.811033 0.234904 0.193207
0.907819 0.267779 0.222055
0.983444 0.304912 0.254513
1.000030 0.340613 0.285245
1.000030 0.341326 0.285804
0.000000 0.219265 0.139400
0.000000 0.219202 0.139511
0.005994 0.223211 0.140222
0.075923 0.218243 0.134565
0.185118 0.197299 0.126859
0.274566 0.196585 0.116668
0.348624 0.202210 0.121086
0.423854 0.213326 0.129031
0.506099 0.227251 0.139268
0.600043 0.244328 0.152150
0.705343 0.265662 0.169868
0.810842 0.290599 0.191982
0.905846 0.318275 0.220679
0.981772 0.351196 0.253898
1.000030 0.382215 0.285529
1.000030 0.382671 0.286044
0.000000 0.272143 0.141432
0.000000 0.272333 0.141677
0.012988 0.272143 0.141432
0.083916 0.266427 0.137557
0.165104 0.263965 0.135145
0.268422 0.263810 0.126404
0.355512 0.262984 0.123601
0.435604 0.271693 0.129699
0.517163 0.286132 0.139728
0.606739 0.303171 0.151523
0.706487 0.324518 0.167853
0.808835 0.348431 0.190497
0.902979 0.372395 0.218625
0.980051 0.402317 0.254308
1.000030 0.429412 0.286022
1.000030 0.429798 0.286447
0.000000 0.327155 0.145732
0.000633 0.327682 0.146193
0.020980 0.328145 0.146557
0.094238 0.321783 0.142064
0.163983 0.323610 0.145242
0.248558 0.331866 0.147513
0.348448 0.336379 0.138634
0.444591 0.339740 0.134301
0.531784 0.350719 0.140884
0.621996 0.368318 0.152577
0.714086 0.386172 0.167359
0.807379 0.405672 0.188239
0.899968 0.429429 0.216614
0.977421 0.456991 0.252883
1.000030 0.480440 0.286507
1.000030 0.480529 0.286698
0.000370 0.389041 0.153191
0.002381 0.389740 0.153794
0.036060 0.388044 0.152369
0.106211 0.380898 0.147180
0.174317 0.384017 0.151277
0.245543 0.397745 0.163477
0.338844 0.408556 0.162857
0.442574 0.418363 0.151890
