example_ofxGpuLutCube/bin/data/ofxGpuLutCube/LUT/A20 (cold blue fade).cube
LUT_3D_SIZE 16
0.000000 0.000000 0.000000
0.006509 0.000000 0.000000
0.032206 0.000000 0.000000
0.081325 0.000000 0.000000
0.141028 0.000000 0.000000
0.206741 0.000000 0.000000
0.275087 0.000000 0.000000
0.347107 0.000000 0.000000
0.422004 0.000000 0.000000
0.499442 0.000000 0.000000
0.579614 0.000000 0.000000
0.660124 0.000000 0.000000
0.743416 0.000000 0.000000
0.830390 0.000000 0.000000
0.916053 0.000000 0.000000
1.000000 0.000000 0.000000
0.000000 0.037657 0.000000
0.006509 0.037657 0.000000
0.032206 0.037657 0.000000
0.081325 0.037657 0.000000
0.141028 0.037657 0.000000
0.206741 0.037657 0.000000
0.275087 0.037657 0.000000
0.347107 0.037657 0.000000
0.422004 0.037657 0.000000
0.499442 0.037657 0.000000
0.579614 0.037657 0.000000
0.660124 0.037657 0.000000
0.743416 0.037657 0.000000
0.830390 0.037657 0.000000
0.916053 0.037657 0.000000
1.000000 0.037657 0.000000
0.000000 0.107382 0.000000
0.006509 0.107382 0.000000
0.032206 0.107382 0.000000
0.081325 0.107382 0.000000
0.141028 0.107382 0.000000
0.206741 0.107382 0.000000
0.275087 0.107382 0.000000
0.347107 0.107382 0.000000
0.422004 0.107382 0.000000
0.499442 0.107382 0.000000
0.579614 0.107382 0.000000
0.660124 0.107382 0.000000
0.743416 0.107382 0.000000
0.830390 0.107382 0.000000
0.916053 0.107382 0.000000
1.000000 0.107382 0.000000
0.000000 0.195961 0.000000
0.006509 0.195961 0.000000
0.032206 0.195961 0.000000
0.081325 0.195961 0.000000
0.141028 0.195961 0.000000
0.206741 0.195961 0.000000
0.275087 0.195961 0.000000
0.347107 0.195961 0.000000
0.422004 0.195961 0.000000
0.499442 0.195961 0.000000
0.579614 0.195961 0.000000
0.660124 0.195961 0.000000
0.743416 0.195961 0.000000
0.830390 0.195961 0.000000
0.916053 0.195961 0.000000
1.000000 0.195961 0.000000
0.000000 0.280226 0.000000
0.006509 0.280226 0.000000
0.032206 0.280226 0.000000
0.081325 0.280226 0.000000
0.141028 0.280226 0.000000
0.206741 0.280226 0.000000
0.275087 0.280226 0.000000
0.347107 0.280226 0.000000
0.422004 0.280226 0.000000
0.499442 0.280226 0.000000
0.579614 0.280226 0.000000
0.660124 0.280226 0.000000
0.743416 0.280226 0.000000
0.830390 0.280226 0.000000
0.916053 0.280226 0.000000
1.000000 0.280226 0.000000
0.000000 0.358327 0.000000
0.006509 0.358327 0.000000
0.032206 0.358327 0.000000
0.081325 0.358327 0.000000
0.141028 0.358327 0.000000
0.206741 0.358327 0.000000
0.275087 0.358327 0.000000
0.347107 0.358327 0.000000
0.422004 0.358327 0.000000
0.499442 0.358327 0.000000
0.579614 0.358327 0.000000
0.660124 0.358327 0.000000
0.743416 0.358327 0.000000
0.830390 0.358327 0.000000
0.916053 0.358327 0.000000
1.000000 0.358327 0.000000
0.000000 0.432266 0.000000
0.006509 0.432266 0.000000
0.032206 0.432266 0.000000
0.081325 0.432266 0.000000
0.141028 0.432266 0.000000
0.206741 0.432266 0.000000
0.275087 0.432266 0.000000
0.347107 0.432266 0.000000
0.422004 0.432266 0.000000
0.499442 0.432266 0.000000
0.579614 0.432266 0.000000
0.660124 0.432266 0.000000
0.743416 0.432266 0.000000
0.830390 0.432266 0.000000
0.916053 0.432266 0.000000
1.000000 0.432266 0.000000
0.000000 0.503024 0.000000
0.006509 0.503024 0.000000
0.032206 0.503024 0.000000
0.081325 0.503024 0.000000
0.141028 0.503024 0.000000
0.206741 0.503024 0.000000
0.275087 0.503024 0.000000
0.347107 0.503024 0.000000
0.422004 0.503024 0.000000
0.499442 0.503024 0.000000
0.579614 0.503024 0.000000
0.660124 0.503024 0.000000
0.743416 0.503024 0.000000
0.830390 0.503024 0.000000
0.916053 0.503024 0.000000
1.000000 0.503024 0.000000
0.000000 0.571363 0.000000
0.006509 0.571363 0.000000
0.032206 0.571363 0.000000
0.081325 0.571363 0.000000
0.141028 0.571363 0.000000
0.206741 0.571363 0.000000
0.275087 0.571363 0.000000
0.347107 0.571363 0.000000
0.422004 0.571363 0.000000
0.499442 0.571363 0.000000
0.579614 0.571363 0.000000
0.660124 0.571363 0.000000
0.743416 0.571363 0.000000
0.830390 0.571363 0.000000
0.916053 0.571363 0.000000
1.000000 0.571363 0.000000
0.000000 0.637665 0.000000
0.006509 0.637665 0.000000
0.032206 0.637665 0.000000
0.081325 0.637665 0.000000
0.141028 0.637665 0.000000
0.206741 0.637665 0.000000
0.275087 0.637665 0.000000
0.347107 0.637665 0.000000
0.422004 0.637665 0.000000
0.499442 0.637665 0.000000
0.579614 0.637665 0.000000
0.660124 0.637665 0.000000
0.743416 0.637665 0.000000
0.830390 0.637665 0.000000
0.916053 0.637665 0.000000
1.000000 0.637665 0.000000
0.000000 0.702135 0.000000
0.006509 0.702135 0.000000
0.032206 0.702135 0.000000
0.081325 0.702135 0.000000
0.141028 0.702135 0.000000
0.206741 0.702135 0.000000
0.275087 0.702135 0.000000
0.347107 0.702135 0.000000
0.422004 0.702135 0.000000
0.499442 0.702135 0.000000
0.579614 0.702135 0.000000
0.660124 0.702135 0.000000
0.743416 0.702135 0.000000
0.830390 0.702135 0.000000
0.916053 0.702135 0.000000
1.000000 0.702135 0.000000
0.000000 0.765322 0.000000
0.006509 0.765322 0.000000
0.032206 0.765322 0.000000
0.081325 0.765322 0.000000
0.141028 0.765322 0.000000
0.206741 0.765322 0.000000
0.275087 0.765322 0.000000
0.347107 0.765322 0.000000
0.422004 0.765322 0.000000
0.499442 0.765322 0.000000
0.579614 0.765322 0.000000
0.660124 0.765322 0.000000
0.743416 0.765322 0.000000
0.830390 0.765322 0.000000
0.916053 0.765322 0.000000
1.000000 0.765322 0.000000
0.000000 0.827003 0.000000
0.006509 0.827003 0.000000
0.032206 0.827003 0.000000
0.081325 0.827003 0.000000
0.141028 0.827003 0.000000
0.206741 0.827003 0.000000
0.275087 0.827003 0.000000
0.347107 0.827003 0.000000
0.422004 0.827003 0.000000
0.499442 0.827003 0.000000
0.579614 0.827003 0.000000
0.660124 0.827003 0.000000
0.743416 0.827003 0.000000
0.830390 0.827003 0.000000
0.916053 0.827003 0.000000
1.000000 0.827003 0.000000
0.000000 0.887706 0.000000
0.006509 0.887706 0.000000
0.032206 0.887706 0.000000
0.081325 0.887706 0.000000
0.141028 0.887706 0.000000
0.206741 0.887706 0.000000
0.275087 0.887706 0.000000
0.347107 0.887706 0.000000
0.422004 0.887706 0.000000
0.499442 0.887706 0.000000
0.579614 0.887706 0.000000
0.660124 0.887706 0.000000
0.743416 0.887706 0.000000
0.830390 0.887706 0.000000
0.916053 0.887706 0.000000
1.000000 0.887706 0.000000
0.000000 0.946715 0.000000
0.006509 0.946715 0.000000
0.032206 0.946715 0.000000
0.081325 0.946715 0.000000
0.141028 0.946715 0.000000
0.206741 0.946715 0.000000
0.275087 0.946715 0.000000
0.347107 0.946715 0.000000
0.422004 0.946715 0.000000
0.499442 0.946715 0.000000
0.579614 0.946715 0.000000
0.660124 0.946715 0.000000
0.743416 0.946715 0.000000
0.830390 0.946715 0.000000
0.916053 0.946715 0.000000
1.000000 0.946715 0.000000
0.000000 1.000000 0.000000
0.006509 1.000000 0.000000
0.032206 1.000000 0.000000
0.081325 1.000000 0.000000
0.141028 1.000000 0.000000
0.206741 1.000000 0.000000
0.275087 1.000000 0.000000
0.347107 1.000000 0.000000
0.422004 1.000000 0.000000
0.499442 1.000000 0.000000
0.579614 1.000000 0.000000
0.660124 1.000000 0.000000
0.743416 1.000000 0.000000
0.830390 1.000000 0.000000
0.916053 1.000000 0.000000
1.000000 1.000000 0.000000
0.000000 0.000000 0.053072
0.006509 0.000000 0.053072
0.032206 0.000000 0.053072
0.081325 0.000000 0.053072
0.141028 0.000000 0.053072
0.206741 0.000000 0.053072
0.275087 0.000000 0.053072
0.347107 0.000000 0.053072
0.422004 0.000000 0.053072
0.499442 0.000000 0.053072
0.579614 0.000000 0.053072
0.660124 0.000000 0.053072
0.743416 0.000000 0.053072
0.830390 0.000000 0.053072
0.916053 0.000000 0.053072
1.000000 0.000000 0.053072
0.000000 0.037657 0.053072
0.006509 0.037657 0.053072
0.032206 0.037657 0.053072
0.081325 0.037657 0.053072
0.141028 0.037657 0.053072
0.206741 0.037657 0.053072
0.275087 0.037657 0.053072
0.347107 0.037657 0.053072
0.422004 0.037657 0.053072
0.499442 0.037657 0.053072
0.579614 0.037657 0.053072
0.660124 0.037657 0.053072
0.743416 0.037657 0.053072
0.830390 0.037657 0.053072
0.916053 0.037657 0.053072
1.000000 0.037657 0.053072
0.000000 0.107382 0.053072
0.006509 0.107382 0.053072
0.032206 0.107382 0.053072
0.081325 0.107382 0.053072
0.141028 0.107382 0.053072
0.206741 0.107382 0.053072
0.275087 0.107382 0.053072
0.347107 0.107382 0.053072
0.422004 0.107382 0.053072
0.499442 0.107382 0.053072
0.579614 0.107382 0.053072
0.660124 0.107382 0.053072
0.743416 0.107382 0.053072
0.830390 0.107382 0.053072
0.916053 0.107382 0.053072
1.000000 0.107382 0.053072
0.000000 0.195961 0.053072
0.006509 0.195961 0.053072
0.032206 0.195961 0.053072
0.081325 0.195961 0.053072
0.141028 0.195961 0.053072
0.206741 0.195961 0.053072
0.275087 0.195961 0.053072
0.347107 0.195961 0.053072
0.422004 0.195961 0.053072
0.499442 0.195961 0.053072
0.579614 0.195961 0.053072
0.660124 0.195961 0.053072
0.743416 0.195961 0.053072
0.830390 0.195961 0.053072
0.916053 0.195961 0.053072
1.000000 0.195961 0.053072
0.000000 0.280226 0.053072
0.006509 0.280226 0.053072
0.032206 0.280226 0.053072
0.081325 0.280226 0.053072
0.141028 0.280226 0.053072
0.206741 0.280226 0.053072
0.275087 0.280226 0.053072
0.347107 0.280226 0.053072
0.422004 0.280226 0.053072
0.499442 0.280226 0.053072
0.579614 0.280226 0.053072
0.660124 0.280226 0.053072
0.743416 0.280226 0.053072
0.830390 0.280226 0.053072
0.916053 0.280226 0.053072
1.000000 0.280226 0.053072
0.000000 0.358327 0.053072
0.006509 0.358327 0.053072
0.032206 0.358327 0.053072
0.081325 0.358327 0.053072
0.141028 0.358327 0.053072
0.206741 0.358327 0.053072
0.275087 0.358327 0.053072
0.347107 0.358327 0.053072
0.422004 0.358327 0.053072
0.499442 0.358327 0.053072
0.579614 0.358327 0.053072
0.660124 0.358327 0.053072
0.743416 0.358327 0.053072
0.830390 0.358327 0.053072
0.916053 0.358327 0.053072
1.000000 0.358327 0.053072
0.000000 0.432266 0.053072
0.006509 0.432266 0.053072
0.032206 0.432266 0.053072
0.081325 0.432266 0.053072
0.141028 0.432266 0.053072
0.206741 0.432266 0.053072
0.275087 0.432266 0.053072
0.347107 0.432266 0.053072
0.422004 0.432266 0.053072
0.499442 0.432266 0.053072
0.579614 0.432266 0.053072
0.660124 0.432266 0.053072
0.743416 0.432266 0.053072
0.830390 0.432266 0.053072
0.916053 0.432266 0.053072
1.000000 0.432266 0.053072
0.000000 0.503024 0.053072
0.006509 0.503024 0.053072
0.032206 0.503024 0.053072
0.081325 0.503024 0.053072
0.141028 0.503024 0.053072
0.206741 0.503024 0.053072
0.275087 0.503024 0.053072
0.347107 0.503024 0.053072
0.422004 0.503024 0.053072
0.499442 0.503024 0.053072
0.579614 0.503024 0.053072
0.660124 0.503024 0.053072
0.743416 0.503024 0.053072
0.830390 0.503024 0.053072
0.916053 0.503024 0.053072
1.000000 0.503024 0.053072
0.000000 0.571363 0.053072
0.006509 0.571363 0.053072
0.032206 0.571363 0.053072
0.081325 0.571363 0.053072
0.141028 0.571363 0.053072
0.206741 0.571363 0.053072
0.275087 0.571363 0.053072
0.347107 0.571363 0.053072
0.422004 0.571363 0.053072
0.499442 0.571363 0.053072
0.579614 0.571363 0.053072
0.660124 0.571363 0.053072
0.743416 0.571363 0.053072
0.830390 0.571363 0.053072
0.916053 0.571363 0.053072
1.000000 0.571363 0.053072
0.000000 0.637665 0.053072
0.006509 0.637665 0.053072
0.032206 0.637665 0.053072
0.081325 0.637665 0.053072
0.141028 0.637665 0.053072
0.206741 0.637665 0.053072
0.275087 0.637665 0.053072
0.347107 0.637665 0.053072
0.422004 0.637665 0.053072
0.499442 0.637665 0.053072
0.579614 0.637665 0.053072
0.660124 0.637665 0.053072
0.743416 0.637665 0.053072
0.830390 0.637665 0.053072
0.916053 0.637665 0.053072
1.000000 0.637665 0.053072
0.000000 0.702135 0.053072
0.006509 0.702135 0.053072
0.032206 0.702135 0.053072
0.081325 0.702135 0.053072
0.141028 0.702135 0.053072
0.206741 0.702135 0.053072
0.275087 0.702135 0.053072
0.347107 0.702135 0.053072
0.422004 0.702135 0.053072
0.499442 0.702135 0.053072
0.579614 0.702135 0.053072
0.660124 0.702135 0.053072
0.743416 0.702135 0.053072
0.830390 0.702135 0.053072
0.916053 0.702135 0.053072
1.000000 0.702135 0.053072
0.000000 0.765322 0.053072
0.006509 0.765322 0.053072
0.032206 0.765322 0.053072
0.081325 0.765322 0.053072
0.141028 0.765322 0.053072
0.206741 0.765322 0.053072
0.275087 0.765322 0.053072
0.347107 0.765322 0.053072
0.422004 0.765322 0.053072
0.499442 0.765322 0.053072
0.579614 0.765322 0.053072
0.660124 0.765322 0.053072
0.743416 0.765322 0.053072
0.830390 0.765322 0.053072
0.916053 0.765322 0.053072
1.000000 0.765322 0.053072
0.000000 0.827003 0.053072
0.006509 0.827003 0.053072
0.032206 0.827003 0.053072
0.081325 0.827003 0.053072
0.141028 0.827003 0.053072
0.206741 0.827003 0.053072
0.275087 0.827003 0.053072
0.347107 0.827003 0.053072
0.422004 0.827003 0.053072
0.499442 0.827003 0.053072
0.579614 0.827003 0.053072
0.660124 0.827003 0.053072
0.743416 0.827003 0.053072
0.830390 0.827003 0.053072
0.916053 0.827003 0.053072
1.000000 0.827003 0.053072
0.000000 0.887706 0.053072
0.006509 0.887706 0.053072
0.032206 0.887706 0.053072
0.081325 0.887706 0.053072
0.141028 0.887706 0.053072
0.206741 0.887706 0.053072
0.275087 0.887706 0.053072
0.347107 0.887706 0.053072
0.422004 0.887706 0.053072
0.499442 0.887706 0.053072
0.579614 0.887706 0.053072
0.660124 0.887706 0.053072
0.743416 0.887706 0.053072
0.830390 0.887706 0.053072
0.916053 0.887706 0.053072
1.000000 0.887706 0.053072
0.000000 0.946715 0.053072
0.006509 0.946715 0.053072
0.032206 0.946715 0.053072
0.081325 0.946715 0.053072
0.141028 0.946715 0.053072
0.206741 0.946715 0.053072
0.275087 0.946715 0.053072
0.347107 0.946715 0.053072
0.422004 0.946715 0.053072
0.499442 0.946715 0.053072
0.579614 0.946715 0.053072
0.660124 0.946715 0.053072
0.743416 0.946715 0.053072
0.830390 0.946715 0.053072
0.916053 0.946715 0.053072
1.000000 0.946715 0.053072
0.000000 1.000000 0.053072
0.006509 1.000000 0.053072
0.032206 1.000000 0.053072
0.081325 1.000000 0.053072
0.141028 1.000000 0.053072
0.206741 1.000000 0.053072
0.275087 1.000000 0.053072
0.347107 1.000000 0.053072
0.422004 1.000000 0.053072
0.499442 1.000000 0.053072
0.579614 1.000000 0.053072
0.660124 1.000000 0.053072
0.743416 1.000000 0.053072
0.830390 1.000000 0.053072
0.916053 1.000000 0.053072
1.000000 1.000000 0.053072
0.000000 0.000000 0.135325
0.006509 0.000000 0.135325
0.032206 0.000000 0.135325
0.081325 0.000000 0.135325
0.141028 0.000000 0.135325
0.206741 0.000000 0.135325
0.275087 0.000000 0.135325
0.347107 0.000000 0.135325
0.422004 0.000000 0.135325
0.499442 0.000000 0.135325
0.579614 0.000000 0.135325
0.660124 0.000000 0.135325
0.743416 0.000000 0.135325
0.830390 0.000000 0.135325
0.916053 0.000000 0.135325
1.000000 0.000000 0.135325
0.000000 0.037657 0.135325
0.006509 0.037657 0.135325
0.032206 0.037657 0.135325
0.081325 0.037657 0.135325
0.141028 0.037657 0.135325
0.206741 0.037657 0.135325
0.275087 0.037657 0.135325
0.347107 0.037657 0.135325
0.422004 0.037657 0.135325
0.499442 0.037657 0.135325
0.579614 0.037657 0.135325
0.660124 0.037657 0.135325
0.743416 0.037657 0.135325
0.830390 0.037657 0.135325
0.916053 0.037657 0.135325
1.000000 0.037657 0.135325
0.000000 0.107382 0.135325
0.006509 0.107382 0.135325
0.032206 0.107382 0.135325
0.081325 0.107382 0.135325
0.141028 0.107382 0.135325
0.206741 0.107382 0.135325
0.275087 0.107382 0.135325
0.347107 0.107382 0.135325
0.422004 0.107382 0.135325
0.499442 0.107382 0.135325
0.579614 0.107382 0.135325
0.660124 0.107382 0.135325
0.743416 0.107382 0.135325
0.830390 0.107382 0.135325
0.916053 0.107382 0.135325
1.000000 0.107382 0.135325
0.000000 0.195961 0.135325
0.006509 0.195961 0.135325
0.032206 0.195961 0.135325
0.081325 0.195961 0.135325
0.141028 0.195961 0.135325
0.206741 0.195961 0.135325
0.275087 0.195961 0.135325
0.347107 0.195961 0.135325
0.422004 0.195961 0.135325
0.499442 0.195961 0.135325
0.579614 0.195961 0.135325
0.660124 0.195961 0.135325
0.743416 0.195961 0.135325
0.830390 0.195961 0.135325
0.916053 0.195961 0.135325
1.000000 0.195961 0.135325
0.000000 0.280226 0.135325
0.006509 0.280226 0.135325
0.032206 0.280226 0.135325
0.081325 0.280226 0.135325
0.141028 0.280226 0.135325
0.206741 0.280226 0.135325
0.275087 0.280226 0.135325
0.347107 0.280226 0.135325
0.422004 0.280226 0.135325
0.499442 0.280226 0.135325
0.579614 0.280226 0.135325
0.660124 0.280226 0.135325
0.743416 0.280226 0.135325
0.830390 0.280226 0.135325
0.916053 0.280226 0.135325
1.000000 0.280226 0.135325
0.000000 0.358327 0.135325
0.006509 0.358327 0.135325
0.032206 0.358327 0.135325
0.081325 0.358327 0.135325
0.141028 0.358327 0.135325
0.206741 0.358327 0.135325
0.275087 0.358327 0.135325
0.347107 0.358327 0.135325
0.422004 0.358327 0.135325
0.499442 0.358327 0.135325
0.579614 0.358327 0.135325
0.660124 0.358327 0.135325
0.743416 0.358327 0.135325
0.830390 0.358327 0.135325
0.916053 0.358327 0.135325
1.000000 0.358327 0.135325
0.000000 0.432266 0.135325
0.006509 0.432266 0.135325
0.032206 0.432266 0.135325
0.081325 0.432266 0.135325
0.141028 0.432266 0.135325
0.206741 0.432266 0.135325
0.275087 0.432266 0.135325
0.347107 0.432266 0.135325
0.422004 0.432266 0.135325
0.499442 0.432266 0.135325
0.579614 0.432266 0.135325
0.660124 0.432266 0.135325
0.743416 0.432266 0.135325
0.830390 0.432266 0.135325
0.916053 0.432266 0.135325
1.000000 0.432266 0.135325
0.000000 0.503024 0.135325
0.006509 0.503024 0.135325
0.032206 0.503024 0.135325
0.081325 0.503024 0.135325
0.141028 0.503024 0.135325
0.206741 0.503024 0.135325
0.275087 0.503024 0.135325
0.347107 0.503024 0.135325
0.422004 0.503024 0.135325
0.499442 0.503024 0.135325
0.579614 0.503024 0.135325
0.660124 0.503024 0.135325
0.743416 0.503024 0.135325
0.830390 0.503024 0.135325
0.916053 0.503024 0.135325
1.000000 0.503024 0.135325
0.000000 0.571363 0.135325
0.006509 0.571363 0.135325
0.032206 0.571363 0.135325
0.081325 0.571363 0.135325
0.141028 0.571363 0.135325
0.206741 0.571363 0.135325
0.275087 0.571363 0.135325
0.347107 0.571363 0.135325
0.422004 0.571363 0.135325
0.499442 0.571363 0.135325
0.579614 0.571363 0.135325
0.660124 0.571363 0.135325
0.743416 0.571363 0.135325
0.830390 0.571363 0.135325
0.916053 0.571363 0.135325
1.000000 0.571363 0.135325
0.000000 0.637665 0.135325
0.006509 0.637665 0.135325
0.032206 0.637665 0.135325
0.081325 0.637665 0.135325
0.141028 0.637665 0.135325
0.206741 0.637665 0.135325
0.275087 0.637665 0.135325
0.347107 0.637665 0.135325
0.422004 0.637665 0.135325
0.499442 0.637665 0.135325
0.579614 0.637665 0.135325
0.660124 0.637665 0.135325
0.743416 0.637665 0.135325
0.830390 0.637665 0.135325
0.916053 0.637665 0.135325
1.000000 0.637665 0.135325
0.000000 0.702135 0.135325
0.006509 0.702135 0.135325
0.032206 0.702135 0.135325
0.081325 0.702135 0.135325
0.141028 0.702135 0.135325
0.206741 0.702135 0.135325
0.275087 0.702135 0.135325
0.347107 0.702135 0.135325
0.422004 0.702135 0.135325
0.499442 0.702135 0.135325
0.579614 0.702135 0.135325
0.660124 0.702135 0.135325
0.743416 0.702135 0.135325
0.830390 0.702135 0.135325
0.916053 0.702135 0.135325
1.000000 0.702135 0.135325
0.000000 0.765322 0.135325
0.006509 0.765322 0.135325
0.032206 0.765322 0.135325
0.081325 0.765322 0.135325
0.141028 0.765322 0.135325
0.206741 0.765322 0.135325
0.275087 0.765322 0.135325
0.347107 0.765322 0.135325
0.422004 0.765322 0.135325
0.499442 0.765322 0.135325
0.579614 0.765322 0.135325
0.660124 0.765322 0.135325
0.743416 0.765322 0.135325
0.830390 0.765322 0.135325
0.916053 0.765322 0.135325
1.000000 0.765322 0.135325
0.000000 0.827003 0.135325
0.006509 0.827003 0.135325
0.032206 0.827003 0.135325
0.081325 0.827003 0.135325
0.141028 0.827003 0.135325
0.206741 0.827003 0.135325
0.275087 0.827003 0.135325
0.347107 0.827003 0.135325
0.422004 0.827003 0.135325
0.499442 0.827003 0.135325
0.579614 0.827003 0.135325
0.660124 0.827003 0.135325
0.743416 0.827003 0.135325
0.830390 0.827003 0.135325
0.916053 0.827003 0.135325
1.000000 0.827003 0.135325
0.000000 0.887706 0.135325
0.006509 0.887706 0.135325
0.032206 0.887706 0.135325
0.081325 0.887706 0.135325
0.141028 0.887706 0.135325
0.206741 0.887706 0.135325
0.275087 0.887706 0.135325
0.347107 0.887706 0.135325
0.422004 0.887706 0.135325
0.499442 0.887706 0.135325
0.579614 0.887706 0.135325
0.660124 0.887706 0.135325
0.743416 0.887706 0.135325
0.830390 0.887706 0.135325
0.916053 0.887706 0.135325
1.000000 0.887706 0.135325
0.000000 0.946715 0.135325
0.006509 0.946715 0.135325
0.032206 0.946715 0.135325
0.081325 0.946715 0.135325
0.141028 0.946715 0.135325
0.206741 0.946715 0.135325
0.275087 0.946715 0.135325
0.347107 0.946715 0.135325
0.422004 0.946715 0.135325
0.499442 0.946715 0.135325
0.579614 0.946715 0.135325
0.660124 0.946715 0.135325
0.743416 0.946715 0.135325
0.830390 0.946715 0.135325
0.916053 0.946715 0.135325
1.000000 0.946715 0.135325
0.000000 1.000000 0.135325
0.006509 1.000000 0.135325
0.032206 1.000000 0.135325
0.081325 1.000000 0.135325
0.141028 1.000000 0.135325
0.206741 1.000000 0.135325
0.275087 1.000000 0.135325
0.347107 1.000000 0.135325
0.422004 1.000000 0.135325
0.499442 1.000000 0.135325
0.579614 1.000000 0.135325
0.660124 1.000000 0.135325
0.743416 1.000000 0.135325
0.830390 1.000000 0.135325
0.916053 1.000000 0.135325
1.000000 1.000000 0.135325
0.000000 0.000000 0.231600
0.006509 0.000000 0.231600
0.032206 0.000000 0.231600
0.081325 0.000000 0.231600
0.141028 0.000000 0.231600
0.206741 0.000000 0.231600
0.275087 0.000000 0.231600
0.347107 0.000000 0.231600
0.422004 0.000000 0.231600
0.499442 0.000000 0.231600
0.579614 0.000000 0.231600
0.660124 0.000000 0.231600
0.743416 0.000000 0.231600
0.830390 0.000000 0.231600
0.916053 0.000000 0.231600
1.000000 0.000000 0.231600
0.000000 0.037657 0.231600
0.006509 0.037657 0.231600
0.032206 0.037657 0.231600
0.081325 0.037657 0.231600
0.141028 0.037657 0.231600
0.206741 0.037657 0.231600
0.275087 0.037657 0.231600
0.347107 0.037657 0.231600
0.422004 0.037657 0.231600
0.499442 0.037657 0.231600
0.579614 0.037657 0.231600
0.660124 0.037657 0.231600
0.743416 0.037657 0.231600
0.830390 0.037657 0.231600
0.916053 0.037657 0.231600
1.000000 0.037657 0.231600
0.000000 0.107382 0.231600
0.006509 0.107382 0.231600
0.032206 0.107382 0.231600
0.081325 0.107382 0.231600
0.141028 0.107382 0.231600
0.206741 0.107382 0.231600
0.275087 0.107382 0.231600
0.347107 0.107382 0.231600
0.422004 0.107382 0.231600
0.499442 0.107382 0.231600
0.579614 0.107382 0.231600
0.660124 0.107382 0.231600
0.743416 0.107382 0.231600
0.830390 0.107382 0.231600
0.916053 0.107382 0.231600
1.000000 0.107382 0.231600
0.000000 0.195961 0.231600
0.006509 0.195961 0.231600
0.032206 0.195961 0.231600
0.081325 0.195961 0.231600
0.141028 0.195961 0.231600
0.206741 0.195961 0.231600
0.275087 0.195961 0.231600
0.347107 0.195961 0.231600
0.422004 0.195961 0.231600
0.499442 0.195961 0.231600
0.579614 0.195961 0.231600
0.660124 0.195961 0.231600
0.743416 0.195961 0.231600
0.830390 0.195961 0.231600
0.916053 0.195961 0.231600
1.000000 0.195961 0.231600
0.000000 0.280226 0.231600
0.006509 0.280226 0.231600
0.032206 0.280226 0.231600
0.081325 0.280226 0.231600
0.141028 0.280226 0.231600
0.206741 0.280226 0.231600
0.275087 0.280226 0.231600
0.347107 0.280226 0.231600
0.422004 0.280226 0.231600
0.499442 0.280226 0.231600
0.579614 0.280226 0.231600
0.660124 0.280226 0.231600
0.743416 0.280226 0.231600
0.830390 0.280226 0.231600
0.916053 0.280226 0.231600
1.000000 0.280226 0.231600
0.000000 0.358327 0.231600
0.006509 0.358327 0.231600
0.032206 0.358327 0.231600
0.081325 0.358327 0.231600
0.141028 0.358327 0.231600
0.206741 0.358327 0.231600
0.275087 0.358327 0.231600
0.347107 0.358327 0.231600
0.422004 0.358327 0.231600
0.499442 0.358327 0.231600
0.579614 0.358327 0.231600
0.660124 0.358327 0.231600
0.743416 0.358327 0.231600
0.830390 0.358327 0.231600
0.916053 0.358327 0.231600
1.000000 0.358327 0.231600
0.000000 0.432266 0.231600
0.006509 0.432266 0.231600
0.032206 0.432266 0.231600
0.081325 0.432266 0.231600
0.141028 0.432266 0.231600
0.206741 0.432266 0.231600
0.275087 0.432266 0.231600
0.347107 0.432266 0.231600
0.422004 0.432266 0.231600
0.499442 0.432266 0.231600
0.579614 0.432266 0.231600
0.660124 0.432266 0.231600
0.743416 0.432266 0.231600
0.830390 0.432266 0.231600
0.916053 0.432266 0.231600
1.000000 0.432266 0.231600
0.000000 0.503024 0.231600
0.006509 0.503024 0.231600
0.032206 0.503024 0.231600
0.081325 0.503024 0.231600
0.141028 0.503024 0.231600
0.206741 0.503024 0.231600
0.275087 0.503024 0.231600
0.347107 0.503024 0.231600
