example_ofxGpuLutCube/bin/data/ofxGpuLutCube/LUT/A20 (cold blue fade).cube
LUT_3D_SIZE 6
0.000000 0.000000 0.000000
0.081325 0.000000 0.000000
0.275087 0.000000 0.000000
0.499442 0.000000 0.000000
0.743416 0.000000 0.000000
1.000000 0.000000 0.000000
0.000000 0.195961 0.000000
0.081325 0.195961 0.000000
0.275087 0.195961 0.000000
0.499442 0.195961 0.000000
0.743416 0.195961 0.000000
1.000000 0.195961 0.000000
0.000000 0.432266 0.000000
0.081325 0.432266 0.000000
0.275087 0.432266 0.000000
0.499442 0.432266 0.000000
0.743416 0.432266 0.000000
1.000000 0.432266 0.000000
0.000000 0.637665 0.000000
0.081325 0.637665 0.000000
0.275087 0.637665 0.000000
0.499442 0.637665 0.000000
0.743416 0.637665 0.000000
1.000000 0.637665 0.000000
0.000000 0.827003 0.000000
0.081325 0.827003 0.000000
0.275087 0.827003 0.000000
0.499442 0.827003 0.000000
0.743416 0.827003 0.000000
1.000000 0.827003 0.000000
0.000000 1.000000 0.000000
0.081325 1.000000 0.000000
0.275087 1.000000 0.000000
0.499442 1.000000 0.000000
0.743416 1.000000 0.000000
1.000000 1.000000 0.000000
0.000000 0.000000 0.231600
0.081325 0.000000 0.231600
0.275087 0.000000 0.231600
0.499442 0.000000 0.231600
0.743416 0.000000 0.231600
1.000000 0.000000 0.231600
0.000000 0.195961 0.231600
0.081325 0.195961 0.231600
0.275087 0.195961 0.231600
0.499442 0.195961 0.231600
0.743416 0.195961 0.231600
1.000000 0.195961 0.231600
0.000000 0.432266 0.231600
0.081325 0.432266 0.231600
0.275087 0.432266 0.231600
0.499442 0.432266 0.231600
0.743416 0.432266 0.231600
1.000000 0.432266 0.231600
0.000000 0.637665 0.231600
0.081325 0.637665 0.231600
0.275087 0.637665 0.231600
0.499442 0.637665 0.231600
0.743416 0.637665 0.231600
1.000000 0.637665 0.231600
0.000000 0.827003 0.231600
0.081325 0.827003 0.231600
0.275087 0.827003 0.231600
0.499442 0.827003 0.231600
0.743416 0.827003 0.231600
1.000000 0.827003 0.231600
0.000000 1.000000 0.231600
0.081325 1.000000 0.231600
0.275087 1.000000 0.231600
0.499442 1.000000 0.231600
0.743416 1.000000 0.231600
1.000000 1.000000 0.231600
0.000000 0.000000 0.469418
0.081325 0.000000 0.469418
0.275087 0.000000 0.469418
0.499442 0.000000 0.469418
0.743416 0.000000 0.469418
1.000000 0.000000 0.469418
0.000000 0.195961 0.469418
0.081325 0.195961 0.469418
0.275087 0.195961 0.469418
0.499442 0.195961 0.469418
0.743416 0.195961 0.469418
1.000000 0.195961 0.469418
0.000000 0.432266 0.469418
0.081325 0.432266 0.469418
0.275087 0.432266 0.469418
0.499442 0.432266 0.469418
0.743416 0.432266 0.469418
1.000000 0.432266 0.469418
0.000000 0.637665 0.469418
0.081325 0.637665 0.469418
0.275087 0.637665 0.469418
0.499442 0.637665 0.469418
0.743416 0.637665 0.469418
1.000000 0.637665 0.469418
0.000000 0.827003 0.469418
0.081325 0.827003 0.469418
0.275087 0.827003 0.469418
0.499442 0.827003 0.469418
0.743416 0.827003 0.469418
1.000000 0.827003 0.469418
0.000000 1.000000 0.469418
0.081325 1.000000 0.469418
0.275087 1.000000 0.469418
0.499442 1.000000 0.469418
0.743416 1.000000 0.469418
1.000000 1.000000 0.469418
0.000000 0.000000 0.664336
0.081325 0.000000 0.664336
0.275087 0.000000 0.664336
0.499442 0.000000 0.664336
0.743416 0.000000 0.664336
1.000000 0.000000 0.664336
0.000000 0.195961 0.664336
0.081325 0.195961 0.664336
0.275087 0.195961 0.664336
0.499442 0.195961 0.664336
0.743416 0.195961 0.664336
1.000000 0.195961 0.664336
0.000000 0.432266 0.664336
0.081325 0.432266 0.664336
0.275087 0.432266 0.664336
0.499442 0.432266 0.664336
0.743416 0.432266 0.664336
1.000000 0.432266 0.664336
0.000000 0.637665 0.664336
0.081325 0.637665 0.664336
0.275087 0.637665 0.664336
0.499442 0.637665 0.664336
0.743416 0.637665 0.664336
1.000000 0.637665 0.664336
0.000000 0.827003 0.664336
0.081325 0.827003 0.664336
0.275087 0.827003 0.664336
0.499442 0.827003 0.664336
0.743416 0.827003 0.664336
1.000000 0.827003 0.664336
0.000000 1.000000 0.664336
0.081325 1.000000 0.664336
0.275087 1.000000 0.664336
0.499442 1.000000 0.664336
0.743416 1.000000 0.664336
1.000000 1.000000 0.664336
0.000000 0.000000 0.837978
0.081325 0.000000 0.837978
0.275087 0.000000 0.837978
0.499442 0.000000 0.837978
0.743416 0.000000 0.837978
1.000000 0.000000 0.837978
0.000000 0.195961 0.837978
0.081325 0.195961 0.837978
0.275087 0.195961 0.837978
0.499442 0.195961 0.837978
0.743416 0.195961 0.837978
1.000000 0.195961 0.837978
0.000000 0.432266 0.837978
0.081325 0.432266 0.837978
0.275087 0.432266 0.837978
0.499442 0.432266 0.837978
0.743416 0.432266 0.837978
1.000000 0.432266 0.837978
0.000000 0.637665 0.837978
0.081325 0.637665 0.837978
0.275087 0.637665 0.837978
0.499442 0.637665 0.837978
0.743416 0.637665 0.837978
1.000000 0.637665 0.837978
0.000000 0.827003 0.837978
0.081325 0.827003 0.837978
0.275087 0.827003 0.837978
0.499442 0.827003 0.837978
0.743416 0.827003 0.837978
1.000000 0.827003 0.837978
0.000000 1.000000 0.837978
0.081325 1.000000 0.837978
0.275087 1.000000 0.837978
0.499442 1.000000 0.837978
0.743416 1.000000 0.837978
1.000000 1.000000 0.837978
0.000000 0.000000 0.997482
0.081325 0.000000 0.997482
0.275087 0.000000 0.997482
0.499442 0.000000 0.997482
0.743416 0.000000 0.997482
1.000000 0.000000 0.997482
0.000000 0.195961 0.997482
0.081325 0.195961 0.997482
0.275087 0.195961 0.997482
0.499442 0.195961 0.997482
0.743416 0.195961 0.997482
1.000000 0.195961 0.997482
0.000000 0.432266 0.997482
0.081325 0.432266 0.997482
0.275087 0.432266 0.997482
0.499442 0.432266 0.997482
0.743416 0.432266 0.997482
1.000000 0.432266 0.997482
0.000000 0.637665 0.997482
0.081325 0.637665 0.997482
0.275087 0.637665 0.997482
0.499442 0.637665 0.997482
0.743416 0.637665 0.997482
1.000000 0.637665 0.997482
0.000000 0.827003 0.997482
0.081325 0.827003 0.997482
0.275087 0.827003 0.997482
0.499442 0.827003 0.997482
0.743416 0.827003 0.997482
1.000000 0.827003 0.997482
0.000000 1.000000 0.997482
0.081325 1.000000 0.997482
0.275087 1.000000 0.997482
0.499442 1.000000 0.997482
0.743416 1.000000 0.997482
1.000000 1.000000 0.997482
