example_ofxGpuLutCube/bin/data/ofxGpuLutCube/LUT/A21 (teal blue fade).cube
LUT_3D_SIZE 16
0.002350 0.017792 0.021942
0.008673 0.023975 0.028211
0.065619 0.030170 0.033899
0.132245 0.036469 0.038946
0.215820 0.042871 0.043378
0.309143 0.049347 0.047119
0.393402 0.055957 0.050238
0.469031 0.062750 0.052624
0.538653 0.069702 0.054321
0.604077 0.076776 0.055322
0.665527 0.084076 0.055542
0.722907 0.091608 0.055072
0.776111 0.099334 0.053870
0.825091 0.107312 0.051947
0.869726 0.115539 0.049334
0.909973 0.124034 0.046059
0.002350 0.051465 0.029571
0.002350 0.051724 0.029806
0.044320 0.058153 0.035588
0.106890 0.064977 0.041004
0.184447 0.071969 0.045824
0.277765 0.079138 0.049945
0.366486 0.086491 0.053456
0.445450 0.094074 0.056223
0.517489 0.101908 0.058317
0.584965 0.109940 0.059668
0.648474 0.118256 0.060285
0.707970 0.126851 0.060156
0.763312 0.135781 0.059327
0.814486 0.144999 0.057749
0.861294 0.154536 0.055437
0.903773 0.164331 0.052437
0.002350 0.088916 0.037274
0.002350 0.088916 0.037274
0.025718 0.089334 0.037619
0.083823 0.096555 0.043090
0.155934 0.104454 0.048279
0.246198 0.112610 0.052802
0.339069 0.121022 0.056667
0.421606 0.129719 0.059875
0.496319 0.138703 0.062337
0.565901 0.147986 0.064081
0.631451 0.157641 0.065088
0.693074 0.167606 0.065344
0.750563 0.177977 0.064855
0.803893 0.188775 0.063624
0.852884 0.199831 0.061644
0.897505 0.211209 0.058949
0.002350 0.132581 0.045172
0.003319 0.132581 0.045172
0.031136 0.132581 0.045172
0.064161 0.133071 0.045502
0.130070 0.141661 0.050751
0.215301 0.151081 0.055670
0.310942 0.160813 0.059957
0.397463 0.170944 0.063552
0.475077 0.181439 0.066443
0.546863 0.192268 0.068569
0.614465 0.203473 0.069989
0.678166 0.215064 0.070646
0.737781 0.226834 0.070527
0.793273 0.238844 0.069635
0.844449 0.251030 0.068008
0.891305 0.263131 0.065595
0.002350 0.184833 0.053228
0.008401 0.184833 0.053228
0.038158 0.184833 0.053228
0.070269 0.184833 0.053228
0.107688 0.185234 0.053448
0.186127 0.195843 0.058576
0.282145 0.207108 0.063255
0.372934 0.218783 0.067271
0.453717 0.230677 0.070610
0.527857 0.242706 0.073153
0.597492 0.254895 0.074957
0.663279 0.267195 0.076030
0.725018 0.279424 0.076279
0.782700 0.291643 0.075778
0.836040 0.303704 0.074495
0.885049 0.315604 0.072430
0.002350 0.246643 0.061493
0.015186 0.246643 0.061493
0.045319 0.246643 0.061493
0.078216 0.246643 0.061493
0.115662 0.246643 0.061493
0.159393 0.246643 0.061493
0.253003 0.258820 0.066602
0.347937 0.271094 0.071057
0.432177 0.283386 0.074786
0.508826 0.295581 0.077814
0.580536 0.307587 0.080078
0.648395 0.319501 0.081494
0.712280 0.331305 0.082177
0.772100 0.343005 0.082068
0.827643 0.354578 0.081146
0.878819 0.365940 0.079412
0.002350 0.311395 0.070020
0.021999 0.311395 0.070020
0.052638 0.311395 0.070020
0.086405 0.311395 0.070020
0.125094 0.311395 0.070020
0.170593 0.311395 0.070020
0.225859 0.311859 0.070215
0.322447 0.323313 0.074883
0.410402 0.335088 0.079077
0.489799 0.346719 0.082550
0.563653 0.358240 0.085211
0.633582 0.369677 0.087104
0.699567 0.381021 0.088198
0.761505 0.392244 0.088476
0.819209 0.403466 0.087956
0.872600 0.414386 0.086595
0.002350 0.373352 0.078796
0.028905 0.373352 0.078796
0.060105 0.373352 0.078796
0.094870 0.373352 0.078796
0.135001 0.373352 0.078796
0.182281 0.373352 0.078796
0.237633 0.373352 0.078796
0.298649 0.374004 0.079075
0.388338 0.384659 0.083435
0.470703 0.395856 0.087348
0.546790 0.406952 0.090509
0.618760 0.417997 0.092806
0.686819 0.429055 0.094395
0.750893 0.439987 0.095092
0.810785 0.450831 0.094960
0.866381 0.461711 0.094015
0.006238 0.432538 0.087866
0.035888 0.432538 0.087866
0.067777 0.432538 0.087866
0.103637 0.432538 0.087866
0.145243 0.432538 0.087866
0.194507 0.432538 0.087866
0.251208 0.432538 0.087866
0.309860 0.432538 0.087866
0.368032 0.433161 0.088137
0.451509 0.443473 0.092255
0.529926 0.454309 0.095880
0.603943 0.465137 0.098679
0.674117 0.475883 0.100709
0.740330 0.486666 0.101880
0.802388 0.497405 0.102184
0.860145 0.508080 0.101613
0.012982 0.490106 0.097241
0.042998 0.490106 0.097241
0.075625 0.490106 0.097241
0.112682 0.490106 0.097241
0.155886 0.490106 0.097241
0.207086 0.490106 0.097241
0.264821 0.490106 0.097241
0.323088 0.490106 0.097241
0.378680 0.490106 0.097241
0.433373 0.490511 0.097407
0.513092 0.500830 0.101385
0.589160 0.511551 0.104710
0.661426 0.522219 0.107198
0.729771 0.532913 0.108833
0.793983 0.543600 0.109579
0.853914 0.554350 0.109456
0.019775 0.547028 0.107025
0.050263 0.547028 0.107025
0.083752 0.547028 0.107025
0.122076 0.547028 0.107025
0.166974 0.547028 0.107025
0.220062 0.547028 0.107025
0.278448 0.547028 0.107025
0.336151 0.547028 0.107025
0.391217 0.547028 0.107025
0.444330 0.547028 0.107025
0.496246 0.547028 0.107025
0.574396 0.557751 0.110846
0.648718 0.568463 0.113849
0.719208 0.579236 0.115991
0.785565 0.589966 0.117212
0.847635 0.600744 0.117524
0.026667 0.604174 0.117157
0.057649 0.604174 0.117157
0.092076 0.604174 0.117157
0.131834 0.604174 0.117157
0.178537 0.604174 0.117157
0.233295 0.604174 0.117157
0.292040 0.604174 0.117157
0.349082 0.604174 0.117157
0.403653 0.604174 0.117157
0.456440 0.604174 0.117157
0.508191 0.604174 0.117157
0.560675 0.604589 0.117304
0.636059 0.614945 0.120671
0.708658 0.625758 0.123336
0.777183 0.636587 0.125082
0.841477 0.647344 0.125896
0.033618 0.661627 0.127722
0.065274 0.661627 0.127722
0.100757 0.661627 0.127722
0.141936 0.661627 0.127722
0.190545 0.661627 0.127722
0.246789 0.661627 0.127722
0.305532 0.661627 0.127722
0.361973 0.661627 0.127722
0.415969 0.661627 0.127722
0.468480 0.661627 0.127722
0.520099 0.661627 0.127722
0.571634 0.661627 0.127722
0.624841 0.662242 0.127927
0.698130 0.672487 0.130918
0.768801 0.683310 0.133207
0.835235 0.694157 0.134526
0.040680 0.719397 0.138745
0.073084 0.719397 0.138745
0.109742 0.719397 0.138745
0.152452 0.719397 0.138745
0.203036 0.719397 0.138745
0.260413 0.719397 0.138745
0.318824 0.719397 0.138745
0.374672 0.719397 0.138745
0.428262 0.719397 0.138745
0.480464 0.719397 0.138745
0.532025 0.719397 0.138745
0.583615 0.719397 0.138745
0.635506 0.719397 0.138745
0.688883 0.720005 0.138936
0.760410 0.730233 0.141567
0.829021 0.741161 0.143417
0.047900 0.777325 0.150232
0.081137 0.777325 0.150232
0.118999 0.777325 0.150232
0.163431 0.777325 0.150232
0.215861 0.777325 0.150232
0.274091 0.777325 0.150232
0.332051 0.777325 0.150232
0.387196 0.777325 0.150232
0.440461 0.777325 0.150232
0.492420 0.777325 0.150232
0.543945 0.777325 0.150232
0.595639 0.777325 0.150232
0.647520 0.777325 0.150232
0.699661 0.777325 0.150232
0.752842 0.777750 0.150339
0.822845 0.788255 0.152681
0.055220 0.835342 0.162172
0.089348 0.835342 0.162172
0.128554 0.835342 0.162172
0.174717 0.835342 0.162172
0.228961 0.835342 0.162172
0.287596 0.835342 0.162172
0.344850 0.835342 0.162172
0.399726 0.835342 0.162172
0.452547 0.835342 0.162172
0.504407 0.835342 0.162172
0.555880 0.835342 0.162172
0.607607 0.835342 0.162172
0.659578 0.835342 0.162172
0.711818 0.835342 0.162172
0.764199 0.835342 0.162172
0.816661 0.835367 0.162178
0.002350 0.023975 0.064240
0.002350 0.024209 0.064450
0.044320 0.030170 0.069290
0.106890 0.036469 0.073660
0.184447 0.042871 0.077319
0.277765 0.049347 0.080206
0.366486 0.055957 0.082356
0.445450 0.062750 0.083688
0.517489 0.069702 0.084260
0.584965 0.076776 0.083980
0.648474 0.084076 0.082934
0.707970 0.091608 0.081056
0.763312 0.099334 0.078451
0.814486 0.107312 0.075082
0.861294 0.115539 0.071000
0.903773 0.124034 0.066186
0.002350 0.051178 0.063867
0.002844 0.058309 0.072929
0.050320 0.064733 0.077487
0.114194 0.071695 0.081616
0.193857 0.078845 0.084973
0.287930 0.086212 0.087580
0.375610 0.093797 0.089448
0.453827 0.101599 0.090427
0.525433 0.109650 0.090613
0.592618 0.117954 0.089960
0.655909 0.126567 0.088509
0.715153 0.135441 0.086233
0.770168 0.144637 0.083185
0.821033 0.154144 0.079389
0.867551 0.164004 0.074868
0.909708 0.174226 0.069655
0.002350 0.088306 0.072824
0.003319 0.096283 0.081366
0.032681 0.097018 0.081994
0.091921 0.104462 0.086275
0.166244 0.112604 0.090103
0.258393 0.121002 0.093172
0.350255 0.129713 0.095388
0.431758 0.138704 0.096797
0.505805 0.148018 0.097365
0.574985 0.157653 0.097102
0.640252 0.167659 0.096008
0.701456 0.178035 0.094052
0.758569 0.188731 0.091281
0.811497 0.199851 0.087739
0.860110 0.211270 0.083448
0.904336 0.223045 0.078434
0.002350 0.132189 0.081805
0.008135 0.141330 0.090518
0.038161 0.141682 0.090887
0.071928 0.142202 0.091148
0.139746 0.151072 0.095181
0.227562 0.160806 0.098728
0.322860 0.170934 0.101468
0.408168 0.181420 0.103331
0.485023 0.192261 0.104357
0.556338 0.203496 0.104521
0.623639 0.215032 0.103831
0.686961 0.226848 0.102239
0.746213 0.238816 0.099803
0.801296 0.250981 0.096558
0.852111 0.263245 0.092527
0.898532 0.275455 0.087738
0.002350 0.184814 0.090875
0.014906 0.195401 0.100032
0.045312 0.195828 0.100418
0.078219 0.195828 0.100418
0.116880 0.196242 0.100587
0.198018 0.207137 0.104432
0.294778 0.218816 0.107672
0.384241 0.230698 0.110042
0.464154 0.242717 0.111546
0.537747 0.254891 0.112146
0.607087 0.267136 0.111872
0.672483 0.279440 0.110697
0.733861 0.291595 0.108629
0.791102 0.303728 0.105693
0.844089 0.315686 0.101952
0.892737 0.327454 0.097403
0.002350 0.246643 0.100421
0.021745 0.258357 0.109864
0.052618 0.258826 0.110260
0.086398 0.258826 0.110260
0.125123 0.258826 0.110260
0.170599 0.258826 0.110260
0.266180 0.271119 0.114047
0.359936 0.283341 0.116918
0.443099 0.295527 0.118933
0.519137 0.307593 0.120012
0.590558 0.319483 0.120190
0.658037 0.331326 0.119403
0.721511 0.342993 0.117752
0.780931 0.354578 0.115165
0.836072 0.366035 0.111729
0.886888 0.377371 0.107445
0.002350 0.311395 0.110260
0.028651 0.322854 0.120151
0.060098 0.323303 0.120564
0.094869 0.323303 0.120564
0.135019 0.323303 0.120564
0.182308 0.323303 0.120564
0.239221 0.323752 0.120708
0.335130 0.335063 0.123992
0.421884 0.346707 0.126523
0.500546 0.358259 0.128130
0.574033 0.369638 0.128783
0.643567 0.381017 0.128481
0.709191 0.392261 0.127204
0.770749 0.403365 0.124992
0.828116 0.414496 0.121882
0.881099 0.425489 0.117915
0.002350 0.373352 0.120532
0.035615 0.384207 0.130873
0.067774 0.384632 0.131305
0.103629 0.384632 0.131305
0.145266 0.384632 0.131305
0.194468 0.384632 0.131305
0.251174 0.384632 0.131305
0.312022 0.385287 0.131497
0.400394 0.395819 0.134365
0.481890 0.406978 0.136514
0.557518 0.418087 0.137705
0.629146 0.429053 0.137867
0.696859 0.439959 0.137034
0.760578 0.450849 0.135240
0.820094 0.461656 0.132498
0.875262 0.472479 0.128840
0.006238 0.432538 0.131289
0.042737 0.443030 0.142000
0.075641 0.443447 0.142452
0.112673 0.443447 0.142452
0.155901 0.443447 0.142452
0.207058 0.443447 0.142452
0.264783 0.443447 0.142452
0.323038 0.443447 0.142452
0.380615 0.444071 0.142631
0.463149 0.454332 0.145161
0.541074 0.465178 0.146920
0.614739 0.475929 0.147585
0.684552 0.486645 0.147237
0.750398 0.497395 0.145891
0.812088 0.508099 0.143528
0.869475 0.518780 0.140230
0.012982 0.490106 0.142396
0.049976 0.500414 0.153624
0.083747 0.500824 0.154100
0.122082 0.500824 0.154100
0.166979 0.500824 0.154100
0.220073 0.500824 0.154100
0.278464 0.500824 0.154100
0.336182 0.500824 0.154100
0.391250 0.500824 0.154100
0.445506 0.501233 0.154203
0.524641 0.511541 0.156428
0.600345 0.522245 0.157659
0.672252 0.532899 0.157844
0.740243 0.543608 0.156979
0.804084 0.554305 0.155030
0.863662 0.564972 0.152091
0.019775 0.547028 0.154053
0.057414 0.557353 0.165806
0.092137 0.557764 0.166284
0.131802 0.557764 0.166284
0.178502 0.557764 0.166284
0.233276 0.557764 0.166284
0.292001 0.557764 0.166284
0.349199 0.557764 0.166284
0.403685 0.557764 0.166284
0.456430 0.557764 0.166284
0.508197 0.557764 0.166284
0.585974 0.568486 0.168145
0.659981 0.579236 0.168886
0.730078 0.589969 0.168520
0.796094 0.600712 0.167059
0.857846 0.611479 0.164551
0.026667 0.604174 0.166206
0.065008 0.614561 0.178489
0.100789 0.614966 0.179011
0.141949 0.614966 0.179011
0.190562 0.614966 0.179011
0.246810 0.614966 0.179011
0.305537 0.614966 0.179011
0.361969 0.614966 0.179011
0.416015 0.614966 0.179011
0.468506 0.614966 0.179011
0.520128 0.614966 0.179011
0.572645 0.615379 0.179079
0.647703 0.625748 0.180352
0.719930 0.636550 0.180564
0.788103 0.647349 0.179620
0.852035 0.658170 0.177567
0.033618 0.661627 0.178974
0.072790 0.672040 0.191742
0.109717 0.672453 0.192273
0.152427 0.672453 0.192273
0.202985 0.672453 0.192273
0.260403 0.672453 0.192273
0.318815 0.672453 0.192273
0.374642 0.672453 0.192273
0.428237 0.672453 0.192273
0.480445 0.672453 0.192273
0.532023 0.672453 0.192273
0.583618 0.672453 0.192273
0.636845 0.673079 0.192358
0.709790 0.683292 0.193096
0.780122 0.694138 0.192705
0.846222 0.704977 0.191124
0.040680 0.719397 0.192270
0.080803 0.729846 0.205569
0.119022 0.730261 0.206130
0.163397 0.730261 0.206130
0.215881 0.730261 0.206130
0.274074 0.730261 0.206130
0.331929 0.730261 0.206130
0.387225 0.730261 0.206130
0.440437 0.730261 0.206130
0.492424 0.730261 0.206130
0.543940 0.730261 0.206130
0.595602 0.730261 0.206130
0.647501 0.730261 0.206130
0.700956 0.730890 0.206184
0.772158 0.741159 0.206374
0.840433 0.752048 0.205346
0.047900 0.777325 0.206135
0.089055 0.787836 0.219879
0.128612 0.788252 0.220451
0.174803 0.788252 0.220451
0.229032 0.788252 0.220451
0.287727 0.788252 0.220451
0.344987 0.788252 0.220451
0.399672 0.788252 0.220451
0.452565 0.788252 0.220451
0.504341 0.788252 0.220451
0.555846 0.788252 0.220451
0.607606 0.788252 0.220451
0.659558 0.788252 0.220451
0.711815 0.788252 0.220451
0.764964 0.788673 0.220458
0.834633 0.799127 0.220026
0.055220 0.835342 0.220351
0.097624 0.845882 0.234503
0.138654 0.846297 0.235079
0.186631 0.846297 0.235079
0.242390 0.846297 0.235079
0.301200 0.846297 0.235079
0.357840 0.846297 0.235079
0.412087 0.846297 0.235079
0.464594 0.846297 0.235079
0.516196 0.846297 0.235079
0.567769 0.846297 0.235079
0.619583 0.846297 0.235079
0.671579 0.846297 0.235079
0.723924 0.846297 0.235079
0.776304 0.846297 0.235079
0.828862 0.846324 0.235078
0.002350 0.030170 0.113549
0.002350 0.030170 0.113549
0.025718 0.030529 0.113784
0.083823 0.036469 0.117214
0.155934 0.042871 0.120010
0.246198 0.049347 0.121893
0.339069 0.055957 0.122841
0.421606 0.062750 0.122836
0.496319 0.069702 0.121930
0.565901 0.076776 0.120074
0.631451 0.084076 0.117352
0.693074 0.091608 0.113687
0.750563 0.099334 0.109248
0.803893 0.107312 0.104033
0.852884 0.115539 0.097999
0.897505 0.124034 0.091349
0.002350 0.058143 0.112608
0.003319 0.064733 0.123581
0.032681 0.065392 0.124202
0.091921 0.071970 0.127331
0.166244 0.079130 0.129742
0.258393 0.086505 0.131187
0.350255 0.094096 0.131700
0.431758 0.101909 0.131220
0.505805 0.109972 0.129805
0.574985 0.118293 0.127419
0.640252 0.126904 0.124157
0.701456 0.135802 0.119976
0.758569 0.145005 0.114923
0.811497 0.154531 0.109121
0.860110 0.164405 0.102560
0.904336 0.174645 0.095379
0.002350 0.088064 0.112401
0.003757 0.096379 0.123693
0.038951 0.104544 0.134662
0.098463 0.112135 0.137659
0.174696 0.120528 0.139734
0.268211 0.129203 0.140782
0.359188 0.138183 0.140874
0.439970 0.147468 0.139960
0.513595 0.157098 0.138048
0.582544 0.167059 0.135153
0.647581 0.177431 0.131359
0.708590 0.188138 0.126627
0.765439 0.199212 0.121060
0.818122 0.210617 0.114701
0.866493 0.222330 0.107617
0.910482 0.234269 0.099906
0.002350 0.130670 0.123152
0.008962 0.140912 0.134757
0.044896 0.150539 0.145468
0.079912 0.151625 0.146323
0.149828 0.160816 0.148733
0.240021 0.170936 0.150298
0.334627 0.181429 0.150851
0.418812 0.192259 0.150336
0.494948 0.203485 0.148796
0.565835 0.215025 0.146250
0.632830 0.226815 0.142731
0.695790 0.238844 0.138217
0.754643 0.250995 0.132845
0.809335 0.263219 0.126606
0.859757 0.275493 0.119611
0.905780 0.287675 0.111909
0.002350 0.183043 0.134766
0.015487 0.195331 0.146276
0.052208 0.206489 0.157249
0.086410 0.207149 0.157951
0.126403 0.207571 0.158047
0.210250 0.218788 0.160113
0.307308 0.230685 0.161228
0.395467 0.242717 0.161226
0.474512 0.254909 0.160171
0.547616 0.267171 0.158047
0.616643 0.279404 0.154894
0.681705 0.291615 0.150723
0.742689 0.303703 0.145584
0.799569 0.315631 0.139521
0.852142 0.327502 0.132671
0.900371 0.339219 0.125052
0.002350 0.245117 0.146393
0.022003 0.258826 0.157919
0.059655 0.270397 0.169568
0.094870 0.271100 0.170337
0.135006 0.271100 0.170337
0.182287 0.271100 0.170337
0.279356 0.283341 0.172001
0.371786 0.295502 0.172578
0.453966 0.307580 0.172037
0.529419 0.319507 0.170396
0.600482 0.331299 0.167645
0.667653 0.342963 0.163793
0.730757 0.354564 0.158944
0.789783 0.366016 0.153135
0.844570 0.377374 0.146443
0.894988 0.388620 0.138880
0.002350 0.310535 0.158252
0.028921 0.323303 0.170287
0.067323 0.334395 0.182456
0.103631 0.335066 0.183226
0.145253 0.335066 0.183226
0.194468 0.335066 0.183226
0.252762 0.335511 0.183287
0.347620 0.346716 0.184403
0.433249 0.358237 0.184415
0.511231 0.369678 0.183270
0.584330 0.381025 0.180985
0.653601 0.392230 0.177533
0.718834 0.403376 0.172996
0.780002 0.414507 0.167454
0.836951 0.425488 0.160917
0.889578 0.436441 0.153525
0.002350 0.372949 0.170460
0.035887 0.384632 0.183203
0.075179 0.395191 0.195900
0.112675 0.395832 0.196704
0.155901 0.395832 0.196704
0.207036 0.395832 0.196704
0.264804 0.395832 0.196704
0.325213 0.396477 0.196770
0.412315 0.406978 0.197318
0.493033 0.418027 0.196735
0.568243 0.429044 0.194953
0.639532 0.439976 0.191969
0.706907 0.450861 0.187806
0.770234 0.461659 0.182523
0.829366 0.472450 0.176225
0.884179 0.483188 0.168955
0.006238 0.432538 0.183195
0.043017 0.443447 0.196689
0.083291 0.453680 0.209852
0.122078 0.454303 0.210675
0.167001 0.454303 0.210675
0.220055 0.454303 0.210675
0.278440 0.454303 0.210675
0.336185 0.454303 0.210675
0.393123 0.454921 0.210704
0.474755 0.465135 0.210694
0.552190 0.475907 0.209509
0.625515 0.486699 0.206995
0.694979 0.497388 0.203291
0.760484 0.508083 0.198391
0.821792 0.518762 0.192353
0.878774 0.529422 0.185274
0.012982 0.490106 0.196644
0.050266 0.500824 0.210653
0.091638 0.510910 0.224241
0.131797 0.511520 0.225075
0.178526 0.511520 0.225075
0.233297 0.511520 0.225075
0.292042 0.511520 0.225075
0.349115 0.511520 0.225075
0.403651 0.511520 0.225075
0.457571 0.511930 0.225071
0.536120 0.522234 0.224500
0.611527 0.532931 0.222571
0.683102 0.543606 0.219398
0.750710 0.554273 0.214924
0.814190 0.565056 0.209316
0.873361 0.575757 0.202528
0.019775 0.547028 0.210632
0.057703 0.557764 0.225104
0.100280 0.567854 0.239024
0.141917 0.568469 0.239874
0.190539 0.568469 0.239874
0.246784 0.568469 0.239874
0.305536 0.568469 0.239874
0.361962 0.568469 0.239874
0.416006 0.568469 0.239874
0.468495 0.568469 0.239874
0.520087 0.568469 0.239874
0.597553 0.579224 0.238557
0.671217 0.589962 0.235967
0.740974 0.600720 0.232046
0.806604 0.611483 0.226892
0.867979 0.622246 0.220488
0.026667 0.604174 0.225024
0.065311 0.614966 0.239877
0.109217 0.625133 0.253941
0.152455 0.625755 0.254794
0.203007 0.625755 0.254794
0.260370 0.625755 0.254794
0.318797 0.625755 0.254794
0.374660 0.625755 0.254794
0.428311 0.625755 0.254794
0.480477 0.625755 0.254794
0.532011 0.625755 0.254794
0.584600 0.626166 0.254738
0.659332 0.636525 0.252821
0.731230 0.647376 0.249535
0.799036 0.658141 0.244931
0.862568 0.668967 0.239062
0.033618 0.661627 0.239786
0.073099 0.672453 0.254769
0.118494 0.682678 0.268978
0.163410 0.683301 0.269831
0.215856 0.683301 0.269831
0.274065 0.683301 0.269831
0.331946 0.683301 0.269831
0.387233 0.683301 0.269831
0.440437 0.683301 0.269831
0.492424 0.683301 0.269831
0.543932 0.683301 0.269831
0.595569 0.683301 0.269831
0.648872 0.683934 0.269722
0.721498 0.694150 0.267164
0.791467 0.705021 0.263215
0.857172 0.715884 0.257986
0.040680 0.719397 0.254817
0.081127 0.730261 0.269849
0.128064 0.740521 0.283979
0.174780 0.741144 0.284845
0.228987 0.741144 0.284845
0.287703 0.741144 0.284845
0.345001 0.741144 0.284845
0.399678 0.741144 0.284845
0.452541 0.741144 0.284845
0.504320 0.741144 0.284845
0.555852 0.741144 0.284845
0.607634 0.741144 0.284845
0.659569 0.741144 0.284845
0.713040 0.741775 0.284693
0.783889 0.752027 0.281565
0.851783 0.762899 0.276957
0.047900 0.777325 0.269812
0.089393 0.788252 0.284844
0.138057 0.798533 0.298915
0.186664 0.799161 0.299764
0.242447 0.799161 0.299764
0.301208 0.799161 0.299764
0.357834 0.799161 0.299764
0.412053 0.799161 0.299764
0.464570 0.799161 0.299764
0.516311 0.799161 0.299764
0.567776 0.799161 0.299764
0.619563 0.799161 0.299764
0.671632 0.799161 0.299764
0.723888 0.799161 0.299764
0.777078 0.799576 0.299635
0.846380 0.810077 0.295888
0.055220 0.835342 0.284766
0.097971 0.846297 0.299807
0.148428 0.856635 0.313695
0.198940 0.857265 0.314516
0.256016 0.857265 0.314516
0.314561 0.857265 0.314516
0.370579 0.857265 0.314516
0.424310 0.857265 0.314516
0.476562 0.857265 0.314516
0.528178 0.857265 0.314516
0.579732 0.857265 0.314516
0.631588 0.857265 0.314516
0.683720 0.857265 0.314516
0.735993 0.857265 0.314516
0.788497 0.857265 0.314516
0.841073 0.857291 0.314507
0.002350 0.036469 0.174402
0.003319 0.036469 0.174402
0.031136 0.036469 0.174402
0.064161 0.036835 0.174534
0.130070 0.042871 0.175981
0.215301 0.049347 0.176410
0.310942 0.055957 0.175654
0.397463 0.062750 0.173773
0.475077 0.069702 0.170858
0.546863 0.076776 0.166764
0.614465 0.084076 0.161719
0.678166 0.091608 0.155691
0.737781 0.099334 0.148732
0.793273 0.107312 0.140934
0.844449 0.115539 0.132434
0.891305 0.124034 0.123198
0.002350 0.065071 0.173827
0.008135 0.071695 0.187012
0.038161 0.071970 0.187523
0.071928 0.072374 0.187636
0.139746 0.079130 0.188544
0.227562 0.086505 0.188379
0.322860 0.094096 0.187015
0.408168 0.101909 0.184492
0.485023 0.109972 0.180830
0.556338 0.118293 0.176094
0.623639 0.126904 0.170291
0.686961 0.135802 0.163541
0.746213 0.145005 0.155813
0.801296 0.154531 0.147347
0.852111 0.164405 0.138143
0.898532 0.174645 0.128271
0.002350 0.095975 0.171688
0.009010 0.104437 0.186294
0.044896 0.112135 0.200365
0.079912 0.113097 0.201236
0.149828 0.121019 0.201633
0.240021 0.129730 0.200824
0.334627 0.138718 0.198848
0.418812 0.148023 0.195589
0.494948 0.157670 0.191213
0.565835 0.167654 0.185721
0.632830 0.178039 0.179110
0.695790 0.188771 0.171592
0.754643 0.199868 0.163162
0.809335 0.211296 0.153906
0.859757 0.223030 0.143988
0.905780 0.234950 0.133407
0.002350 0.130791 0.171860
0.009981 0.140625 0.185984
0.046401 0.150848 0.200794
0.086848 0.160683 0.214761
0.158204 0.170372 0.215182
0.250226 0.180819 0.213806
0.344127 0.191660 0.211179
0.427519 0.202866 0.207298
0.503158 0.214388 0.202229
0.573818 0.226165 0.196003
0.640567 0.238153 0.188687
0.703278 0.250295 0.180385
0.761928 0.262551 0.171223
0.816404 0.274789 0.161196
0.866527 0.287011 0.150520
0.912277 0.299135 0.139279
0.002350 0.181313 0.185232
0.016620 0.193455 0.200083
0.053236 0.206226 0.215218
0.094396 0.218118 0.228998
0.136317 0.219230 0.229835
0.222888 0.230677 0.228988
0.319705 0.242721 0.226868
0.406615 0.254927 0.223459
0.484891 0.267159 0.218775
0.557523 0.279416 0.212885
0.626180 0.291627 0.205820
0.690907 0.303688 0.197621
0.751540 0.315699 0.188436
0.807995 0.327536 0.178340
0.860206 0.339234 0.167466
0.908008 0.350846 0.156005
0.002350 0.243164 0.200311
0.023196 0.256720 0.215220
0.060453 0.270532 0.229973
0.103131 0.282649 0.243773
0.145243 0.283337 0.244623
0.194476 0.283337 0.244623
0.292464 0.295529 0.243136
0.383534 0.307590 0.240321
0.464822 0.319499 0.236205
0.539727 0.331333 0.230796
0.610425 0.342987 0.224121
0.677226 0.354575 0.216259
0.740017 0.366026 0.207274
0.798627 0.377386 0.197216
0.853026 0.388612 0.186245
0.903016 0.399827 0.174589
0.002350 0.308334 0.215218
0.029676 0.321948 0.230113
0.067770 0.335066 0.244631
0.112164 0.346049 0.258763
0.155904 0.346707 0.259628
0.207062 0.346707 0.259628
0.266348 0.347148 0.259565
0.360075 0.358267 0.257460
0.444603 0.369688 0.253957
0.521942 0.381013 0.249106
0.594684 0.392239 0.242992
0.663577 0.403384 0.235576
0.728499 0.414457 0.226938
0.789277 0.425496 0.217097
0.845838 0.436464 0.206223
0.898032 0.447308 0.194415
0.002350 0.371016 0.230229
0.036391 0.383859 0.244971
0.075643 0.395832 0.259610
0.121555 0.406347 0.273827
0.167017 0.406981 0.274685
0.220066 0.406981 0.274685
0.278474 0.406981 0.274685
0.338277 0.407614 0.274549
