example_ofxGpuLutCube/bin/data/ofxGpuLutCube/LUT/A21 (teal blue fade).cube
LUT_3D_SIZE 6
0.002350 0.017792 0.021942
0.132245 0.036469 0.038946
0.393402 0.055957 0.050238
0.604077 0.076776 0.055322
0.776111 0.099334 0.053870
0.909973 0.124034 0.046059
0.002350 0.132581 0.045172
0.064161 0.133071 0.045502
0.310942 0.160813 0.059957
0.546863 0.192268 0.068569
0.737781 0.226834 0.070527
0.891305 0.263131 0.065595
0.002350 0.311395 0.070020
0.086405 0.311395 0.070020
0.225859 0.311859 0.070215
0.489799 0.346719 0.082550
0.699567 0.381021 0.088198
0.872600 0.414386 0.086595
0.012982 0.490106 0.097241
0.112682 0.490106 0.097241
0.264821 0.490106 0.097241
0.433373 0.490511 0.097407
0.661426 0.522219 0.107198
0.853914 0.554350 0.109456
0.033618 0.661627 0.127722
0.141936 0.661627 0.127722
0.305532 0.661627 0.127722
0.468480 0.661627 0.127722
0.624841 0.662242 0.127927
0.835235 0.694157 0.134526
0.055220 0.835342 0.162172
0.174717 0.835342 0.162172
0.344850 0.835342 0.162172
0.504407 0.835342 0.162172
0.659578 0.835342 0.162172
0.816661 0.835367 0.162178
0.002350 0.036469 0.174402
0.064161 0.036835 0.174534
0.310942 0.055957 0.175654
0.546863 0.076776 0.166764
0.737781 0.099334 0.148732
0.891305 0.124034 0.123198
0.002350 0.130791 0.171860
0.086848 0.160683 0.214761
0.344127 0.191660 0.211179
0.573818 0.226165 0.196003
0.761928 0.262551 0.171223
0.912277 0.299135 0.139279
0.002350 0.308334 0.215218
0.112164 0.346049 0.258763
0.266348 0.347148 0.259565
0.521942 0.381013 0.249106
0.728499 0.414457 0.226938
0.898032 0.447308 0.194415
0.013745 0.488898 0.260167
0.141365 0.521611 0.303714
0.305535 0.522221 0.304554
0.469614 0.522627 0.304425
0.693960 0.554359 0.288256
0.883066 0.586478 0.259794
0.033618 0.661627 0.304562
0.174164 0.693530 0.347270
0.344930 0.694153 0.348071
0.504411 0.694153 0.348071
0.660890 0.694764 0.347758
0.868134 0.726754 0.326618
0.055220 0.835342 0.347971
0.210946 0.867586 0.389216
0.383153 0.868209 0.390007
0.540053 0.868209 0.390007
0.695772 0.868209 0.390007
0.853219 0.868235 0.389991
0.002350 0.055957 0.403235
0.086405 0.055957 0.403235
0.225859 0.056216 0.402961
0.489799 0.076776 0.375399
0.699567 0.099334 0.335611
0.872600 0.124034 0.303671
0.002350 0.160800 0.399601
0.112164 0.191660 0.443033
0.266348 0.192715 0.443448
0.521942 0.226846 0.411226
0.728499 0.263246 0.380116
0.898032 0.299831 0.359987
0.002350 0.305692 0.396713
0.115477 0.344186 0.440889
0.306603 0.381253 0.483209
0.553015 0.414057 0.452977
0.756698 0.446914 0.429548
0.923014 0.479341 0.413934
0.017505 0.482947 0.440840
0.144454 0.519639 0.483638
0.344459 0.553912 0.522629
0.505423 0.554726 0.522732
0.726571 0.586504 0.496292
0.912234 0.618795 0.477263
0.036951 0.656486 0.483638
0.176183 0.692886 0.523595
0.382700 0.726355 0.562101
0.540079 0.726768 0.562604
0.697069 0.727395 0.562097
0.901053 0.759410 0.539667
0.057996 0.831313 0.523981
0.211701 0.868209 0.562577
0.419908 0.900689 0.601703
0.575890 0.901100 0.602196
0.732121 0.901100 0.602196
0.889861 0.901125 0.602178
0.012982 0.076776 0.615015
0.112682 0.076776 0.615015
0.264821 0.076776 0.615015
0.433373 0.077050 0.614717
0.661426 0.099334 0.597127
0.853914 0.124034 0.587222
0.013833 0.192717 0.613331
0.141365 0.226165 0.654076
0.305535 0.226846 0.654831
0.469614 0.227298 0.654588
0.693960 0.263246 0.640887
0.883066 0.299831 0.634718
0.017505 0.344142 0.606140
0.144715 0.380997 0.651259
0.344459 0.414057 0.694268
0.505423 0.414892 0.694577
0.726571 0.447326 0.684697
0.912234 0.479741 0.682551
0.018545 0.482221 0.605243
0.147822 0.517116 0.648480
0.348852 0.551953 0.691862
0.539965 0.586238 0.734399
0.758517 0.618412 0.728766
0.940965 0.650786 0.730462
0.040954 0.650403 0.647914
0.182480 0.687102 0.691917
0.386314 0.724034 0.734849
0.575472 0.759013 0.774537
0.733320 0.760045 0.774940
0.933962 0.792142 0.772877
0.062206 0.825241 0.692360
0.218097 0.862804 0.734806
0.421711 0.899868 0.775501
0.611417 0.933589 0.814788
0.768540 0.934004 0.815300
0.926516 0.934030 0.815299
0.033618 0.099334 0.828253
0.141936 0.099334 0.828253
0.305532 0.099334 0.828253
0.468480 0.099334 0.828253
0.624841 0.099774 0.828231
0.835235 0.124034 0.831420
0.033618 0.226834 0.828253
0.174164 0.262551 0.852844
0.344930 0.263246 0.852844
0.504411 0.263246 0.852844
0.660890 0.263946 0.852844
0.868134 0.299831 0.852844
0.037463 0.381007 0.820941
0.176318 0.414925 0.852844
0.382700 0.446914 0.852844
0.540079 0.447326 0.852844
0.697069 0.447949 0.852844
0.901053 0.479741 0.852844
0.040954 0.516662 0.814325
0.182619 0.551975 0.852368
0.386638 0.586490 0.852844
0.575472 0.618412 0.852844
0.733320 0.619435 0.852844
0.933962 0.651201 0.852844
0.041394 0.651077 0.815160
0.184746 0.686386 0.852347
0.390457 0.721794 0.852844
0.579765 0.757283 0.852844
0.768961 0.792263 0.852844
0.966206 0.824296 0.852844
0.065074 0.821184 0.852823
0.225259 0.856853 0.852844
0.428337 0.893934 0.852844
0.614890 0.931222 0.852844
0.804299 0.966284 0.852844
0.963164 0.966940 0.852844
0.055220 0.124034 0.852844
0.174717 0.124034 0.852844
0.344850 0.124034 0.852844
0.504407 0.124034 0.852844
0.659578 0.124034 0.852844
0.816661 0.124054 0.852844
0.055220 0.263131 0.852844
0.210946 0.299135 0.852844
0.383153 0.299831 0.852844
0.540053 0.299831 0.852844
0.695772 0.299831 0.852844
0.853219 0.299859 0.852844
0.057996 0.415215 0.852844
0.211702 0.447308 0.852844
0.419908 0.479341 0.852844
0.575890 0.479741 0.852844
0.732121 0.479741 0.852844
0.889861 0.479767 0.852844
0.062206 0.552365 0.852844
0.219042 0.586470 0.852844
0.421720 0.619178 0.852844
0.611417 0.650786 0.852844
0.768540 0.651201 0.852844
0.926516 0.651226 0.852844
0.065074 0.685744 0.852844
0.225259 0.721093 0.852844
0.428497 0.756977 0.852844
0.615003 0.792120 0.852844
0.804299 0.824296 0.852844
0.963164 0.824951 0.852844
0.065094 0.821212 0.852844
0.225293 0.856881 0.852844
0.429907 0.892604 0.852844
0.618127 0.928340 0.852844
0.808191 0.964101 0.852844
0.999791 0.999807 0.852844
