example_ofxGpuLutCube/bin/data/ofxGpuLutCube/LUT/A22 (bright glowe warm).cube
LUT_3D_SIZE 6
0.099640 0.100006 0.099640
0.124078 0.099487 0.099487
0.395239 0.099554 0.099493
0.571313 0.100153 0.099695
0.717993 0.100812 0.100049
0.837311 0.101440 0.100555
0.099487 0.104761 0.099487
0.128414 0.107535 0.101570
0.328237 0.119368 0.103546
0.598779 0.124926 0.103229
0.774806 0.124012 0.103138
0.907912 0.123066 0.102960
0.099591 0.191895 0.100171
0.207070 0.225560 0.104971
0.486153 0.270440 0.136247
0.706254 0.315630 0.148764
0.853946 0.341616 0.156698
0.971900 0.359724 0.162411
0.100537 0.441284 0.099878
0.306943 0.481447 0.115178
0.580225 0.522682 0.175191
0.766147 0.555250 0.235372
0.885750 0.581325 0.246798
0.986166 0.601325 0.255927
0.142895 0.694824 0.101465
0.394497 0.714440 0.130706
0.630977 0.736270 0.195627
0.790182 0.752400 0.278158
0.901286 0.764745 0.336384
0.986865 0.783258 0.348802
0.211802 0.889938 0.111471
0.454225 0.900655 0.152828
0.650766 0.911912 0.216189
0.792509 0.920414 0.290054
0.904846 0.927723 0.373207
0.982127 0.931379 0.431272
0.101532 0.101660 0.105621
0.123434 0.099457 0.115007
0.382413 0.099493 0.116384
0.577450 0.100147 0.113810
0.728447 0.100866 0.112446
0.848751 0.101580 0.112280
0.101676 0.106436 0.109714
0.115039 0.110465 0.114096
0.298528 0.122753 0.122030
0.556221 0.122120 0.120701
0.733685 0.115795 0.116800
0.882925 0.113462 0.114710
0.101411 0.207211 0.121415
0.137576 0.226926 0.121745
0.437505 0.277432 0.154091
0.705353 0.321587 0.151119
0.857887 0.342386 0.156938
0.972946 0.358569 0.162057
0.099735 0.475265 0.127323
0.219021 0.487717 0.129240
0.558167 0.530982 0.175871
0.765527 0.562174 0.238331
0.887047 0.590225 0.250807
0.986744 0.610209 0.260052
0.115070 0.722846 0.154911
0.312079 0.722988 0.161611
0.590981 0.745944 0.215619
0.783146 0.759829 0.277383
0.899191 0.772547 0.340187
0.985613 0.794039 0.354662
0.157472 0.912257 0.200308
0.374698 0.911534 0.217474
0.597593 0.922397 0.267893
0.763836 0.930033 0.321138
0.894402 0.935120 0.381601
0.980062 0.936426 0.433609
0.119165 0.122558 0.158612
0.137920 0.132388 0.191284
0.356729 0.099463 0.275621
0.575973 0.100141 0.282573
0.732805 0.100946 0.285414
0.860374 0.101782 0.289408
0.125669 0.141383 0.182019
0.142607 0.158823 0.206689
0.311374 0.130352 0.293783
0.579828 0.126713 0.304685
0.757291 0.115700 0.301013
0.912325 0.118711 0.316110
0.129459 0.234509 0.265971
0.141434 0.253547 0.275947
0.337691 0.326114 0.325944
0.622290 0.373751 0.351475
0.824704 0.383912 0.345541
0.971785 0.432794 0.400904
0.146132 0.473917 0.353979
0.179620 0.503179 0.355804
0.386291 0.563550 0.349690
0.665541 0.595196 0.404624
0.844921 0.630961 0.416127
0.977064 0.665748 0.469487
0.146610 0.709534 0.420203
0.241534 0.744988 0.415916
0.464645 0.764855 0.384268
0.691065 0.784251 0.431882
0.851585 0.795252 0.470998
0.974170 0.823876 0.495444
0.175561 0.900634 0.463333
0.310988 0.936508 0.458383
0.512229 0.936419 0.440076
0.708989 0.945348 0.470483
0.860915 0.951369 0.507722
0.967495 0.953131 0.540597
0.159955 0.172736 0.280817
0.185387 0.191525 0.338741
0.315500 0.143965 0.454262
0.578133 0.100281 0.517439
0.740582 0.101139 0.523731
0.876471 0.101959 0.529658
0.178301 0.214855 0.335813
0.196404 0.239547 0.375949
0.326937 0.243456 0.467872
0.597385 0.132151 0.564044
0.777548 0.120055 0.567947
0.931360 0.125944 0.582245
0.181400 0.324212 0.448419
0.187134 0.347521 0.472073
0.375482 0.428756 0.521674
0.613525 0.412084 0.617096
0.821015 0.433441 0.643750
0.972691 0.487274 0.675431
0.173704 0.496907 0.533656
0.200672 0.512695 0.539790
0.398189 0.565671 0.576151
0.629212 0.660944 0.673376
0.815756 0.696087 0.706395
0.967476 0.729390 0.738682
0.196866 0.674625 0.585696
0.296473 0.699124 0.603737
0.464900 0.757093 0.645852
0.641011 0.820352 0.697690
0.817805 0.831311 0.714323
0.959939 0.864693 0.755510
0.230255 0.852504 0.640395
0.360773 0.892077 0.664823
0.512298 0.932157 0.698530
0.672626 0.966709 0.735540
0.836195 0.971003 0.744753
0.956815 0.969286 0.741146
0.206848 0.234161 0.421484
0.231803 0.254698 0.483634
0.344904 0.244767 0.555971
0.581371 0.101377 0.702328
0.753585 0.101220 0.705542
0.895750 0.101959 0.712176
0.229674 0.290864 0.489722
0.241902 0.310674 0.520793
0.391073 0.349635 0.601580
0.606638 0.174455 0.745640
0.795280 0.136457 0.753264
0.947359 0.142577 0.764761
0.223180 0.401858 0.597598
0.229259 0.420361 0.615125
0.421802 0.511817 0.671201
0.630562 0.534345 0.748994
0.824077 0.456944 0.807066
0.975232 0.510083 0.830781
0.198700 0.556878 0.680137
0.225623 0.576771 0.691041
0.428159 0.633445 0.728711
0.666681 0.718055 0.787202
0.811773 0.716405 0.841581
0.965582 0.747347 0.865401
0.201563 0.689246 0.702521
0.301601 0.711514 0.719010
0.482998 0.754307 0.755140
0.664105 0.808681 0.807841
0.815335 0.853739 0.853505
0.954126 0.884106 0.879689
0.254874 0.835967 0.740049
0.397564 0.864197 0.766088
0.550552 0.899616 0.804906
0.702709 0.943032 0.851020
0.829166 0.977667 0.876805
0.950352 0.980719 0.877893
0.252710 0.300724 0.559063
0.274649 0.320532 0.616240
0.401920 0.327979 0.668878
0.577924 0.162355 0.808734
0.775077 0.100398 0.854682
0.915743 0.101959 0.852762
0.271718 0.363564 0.627769
0.279499 0.378707 0.650287
0.450871 0.437808 0.734449
0.610845 0.304847 0.837279
0.815391 0.194386 0.900254
0.960962 0.173203 0.902686
0.258620 0.469094 0.719175
0.263711 0.485572 0.736130
0.467936 0.583820 0.792654
0.692707 0.652342 0.844525
0.836721 0.528845 0.939442
0.977382 0.531834 0.946612
0.231955 0.604611 0.790140
0.264082 0.625067 0.803520
0.477092 0.689986 0.842605
0.710663 0.774335 0.885123
0.841920 0.795947 0.918734
0.965958 0.754919 0.959021
0.230609 0.734108 0.821824
0.330626 0.758352 0.840410
0.506453 0.801593 0.874330
0.693954 0.851601 0.911020
0.850241 0.889981 0.933330
0.952984 0.891946 0.962257
0.259567 0.841724 0.831783
0.402726 0.869574 0.856653
0.556524 0.900255 0.886026
0.716499 0.934429 0.918574
0.849284 0.961741 0.945108
0.949768 0.985043 0.963941
