example_ofxGpuLutCube/bin/data/ofxGpuLutCube/LUT/A22 (bright glowe warm).cube
LUT_3D_SIZE 16
0.099640 0.100006 0.099640
0.099670 0.099897 0.099567
0.103436 0.099597 0.099457
0.124078 0.099487 0.099487
0.191266 0.099457 0.099487
0.305176 0.099518 0.099457
0.395239 0.099554 0.099493
0.459131 0.099743 0.099560
0.518090 0.099933 0.099628
0.571313 0.100153 0.099695
0.621735 0.100433 0.099792
0.672204 0.100622 0.099921
0.717993 0.100812 0.100049
0.760273 0.101020 0.100208
0.799713 0.101221 0.100366
0.837311 0.101440 0.100555
0.099603 0.099487 0.099579
0.099887 0.099482 0.099481
0.102922 0.099508 0.099489
0.112259 0.099686 0.099582
0.136805 0.099969 0.099693
0.194787 0.100391 0.099860
0.276422 0.100698 0.099947
0.374802 0.100664 0.099827
0.457562 0.100287 0.099685
0.534802 0.099967 0.099548
0.605175 0.099664 0.099469
0.660821 0.099536 0.099481
0.710532 0.099481 0.099512
0.758315 0.099502 0.099624
0.803601 0.099574 0.099757
0.844416 0.099664 0.099847
0.099518 0.100409 0.099518
0.100255 0.100460 0.099475
0.105287 0.100649 0.099779
0.117201 0.101499 0.100123
0.145555 0.102637 0.100449
0.203796 0.104224 0.100885
0.288756 0.105702 0.101159
0.383275 0.106497 0.101146
0.478265 0.106150 0.100847
0.550352 0.105448 0.100576
0.616840 0.104541 0.100274
0.677863 0.103561 0.099979
0.729737 0.102831 0.099775
0.777018 0.102094 0.099646
0.822900 0.101526 0.099551
0.867225 0.101038 0.099494
0.099487 0.104761 0.099487
0.100820 0.105217 0.099551
0.108428 0.106078 0.100221
0.128414 0.107535 0.101570
0.168013 0.110815 0.102200
0.236115 0.115075 0.103015
0.328237 0.119368 0.103546
0.425500 0.122728 0.103589
0.523216 0.124416 0.103394
0.598779 0.124926 0.103229
0.661279 0.124908 0.103272
0.721471 0.124563 0.103238
0.774806 0.124012 0.103138
0.821099 0.123725 0.103063
0.865130 0.123420 0.103008
0.907912 0.123066 0.102960
0.099512 0.116290 0.099512
0.101625 0.118323 0.099577
0.113272 0.121062 0.100480
0.145605 0.124660 0.102743
0.204071 0.129905 0.105124
0.285065 0.139270 0.106293
0.384242 0.148999 0.107114
0.480334 0.157213 0.109310
0.570377 0.163268 0.110758
0.642063 0.167540 0.111623
0.699377 0.170203 0.112183
0.754934 0.172742 0.112692
0.808034 0.174853 0.113158
0.854725 0.176633 0.113545
0.896811 0.178359 0.113907
0.937519 0.180137 0.114294
0.099609 0.142090 0.099670
0.103253 0.148108 0.099542
0.122644 0.154754 0.100513
0.171344 0.162641 0.102948
0.253918 0.171185 0.108704
0.346680 0.183533 0.115631
0.438440 0.199359 0.118756
0.524445 0.212512 0.121454
0.607282 0.223718 0.124115
0.675854 0.232715 0.126306
0.730774 0.239319 0.127899
0.782776 0.245148 0.129376
0.833795 0.251190 0.130902
0.879486 0.256641 0.132324
0.920684 0.261499 0.133606
0.958803 0.265950 0.134793
0.099591 0.191895 0.100171
0.108813 0.203441 0.099470
0.144104 0.214022 0.100686
0.207070 0.225560 0.104971
0.293284 0.238755 0.113562
0.399573 0.253375 0.129217
0.486153 0.270440 0.136247
0.566907 0.287908 0.140775
0.643426 0.303135 0.145122
0.706254 0.315630 0.148764
0.757971 0.324933 0.151575
0.806203 0.333191 0.154115
0.853946 0.341616 0.156698
0.898105 0.349003 0.158989
0.936215 0.354657 0.160813
0.971900 0.359724 0.162411
0.099457 0.264685 0.100482
0.117723 0.280005 0.099608
0.163947 0.292727 0.101846
0.236459 0.306182 0.107461
0.331706 0.321786 0.118379
0.435108 0.337799 0.135803
0.530741 0.351852 0.158653
0.603292 0.367299 0.164873
0.672755 0.383819 0.170306
0.729390 0.397167 0.174801
0.777710 0.407507 0.178345
0.822522 0.416510 0.181499
0.866938 0.425459 0.184647
0.909374 0.434100 0.187727
0.945374 0.440762 0.190119
0.979137 0.446300 0.192146
0.099555 0.349433 0.100305
0.128512 0.364648 0.099965
0.187574 0.377014 0.103367
0.270244 0.391103 0.110777
0.367725 0.406555 0.123666
0.464643 0.421643 0.142206
0.556332 0.435519 0.167025
0.637278 0.448752 0.193035
0.697817 0.463562 0.198547
0.748662 0.476990 0.203631
0.793683 0.487762 0.207788
0.835684 0.497128 0.211450
0.877300 0.506622 0.215187
0.917415 0.515974 0.218957
0.952272 0.523684 0.222081
0.983727 0.529119 0.224336
0.100537 0.441284 0.099878
0.145154 0.455625 0.100771
0.218738 0.468049 0.105890
0.306943 0.481447 0.115178
0.399768 0.495492 0.129255
0.493463 0.509888 0.149377
0.580225 0.522682 0.175191
0.660043 0.535085 0.206702
0.721292 0.545340 0.231113
0.766147 0.555250 0.235372
0.807703 0.564612 0.239404
0.846861 0.572846 0.243024
0.885750 0.581325 0.246798
0.923458 0.589745 0.250580
0.956640 0.596344 0.253610
0.986166 0.601325 0.255927
0.106171 0.533417 0.099487
0.170178 0.545929 0.102362
0.251831 0.556433 0.109100
0.340082 0.566699 0.119794
0.432141 0.577490 0.135614
0.519775 0.588043 0.156616
0.602557 0.598694 0.183429
0.675165 0.608765 0.213886
0.733337 0.616778 0.243884
0.780865 0.623285 0.266187
0.818634 0.630280 0.269562
0.855567 0.637933 0.273199
0.892181 0.645801 0.277099
0.927728 0.653467 0.280847
0.959143 0.659784 0.284033
0.987146 0.664509 0.286372
0.120740 0.616901 0.099841
0.197133 0.626262 0.104616
0.281117 0.634169 0.112769
0.369411 0.642422 0.124827
0.456792 0.650512 0.141343
0.542065 0.659167 0.163421
0.621503 0.668020 0.190915
0.685505 0.675207 0.218973
0.740259 0.682049 0.247897
0.788777 0.687748 0.277896
0.828705 0.691852 0.300171
0.862978 0.697959 0.303485
0.897630 0.705413 0.307329
0.931112 0.712788 0.311213
0.960738 0.718911 0.314481
0.987345 0.723525 0.316992
0.142895 0.694824 0.101465
0.226149 0.701916 0.108214
0.309826 0.708078 0.117722
0.394497 0.714440 0.130706
0.479502 0.721667 0.148232
0.561096 0.729321 0.170667
0.630977 0.736270 0.195627
0.690591 0.742384 0.221923
0.743588 0.747931 0.249755
0.790182 0.752400 0.278158
0.831598 0.755890 0.306958
0.868955 0.759336 0.332182
0.901286 0.764745 0.336384
0.933073 0.771980 0.341033
0.961128 0.778212 0.345201
0.986865 0.783258 0.348802
0.167682 0.768365 0.104230
0.253639 0.773820 0.112870
0.337299 0.778927 0.124096
0.420752 0.784519 0.138862
0.500856 0.790499 0.157414
0.574579 0.796808 0.179230
0.638626 0.802489 0.202968
0.695308 0.807821 0.228389
0.746311 0.812550 0.255177
0.790941 0.816158 0.282070
0.832031 0.819550 0.310101
0.870282 0.822810 0.339447
0.905083 0.825786 0.367421
0.934225 0.830260 0.372843
0.960883 0.835724 0.376842
0.985683 0.839985 0.380125
0.191522 0.831799 0.107691
0.280440 0.836512 0.118250
0.362366 0.840625 0.130872
0.440274 0.844980 0.146312
0.515209 0.849886 0.165075
0.583820 0.854925 0.186493
0.644697 0.859812 0.209775
0.699448 0.864267 0.234692
0.747466 0.867946 0.259911
0.791556 0.870926 0.286169
0.832483 0.873810 0.313727
0.870570 0.876637 0.342475
0.905121 0.879215 0.371430
0.935205 0.881315 0.398743
0.959958 0.883922 0.403710
0.983946 0.887857 0.406932
0.211802 0.889938 0.111471
0.297516 0.893529 0.122900
0.377531 0.897028 0.136437
0.454225 0.900655 0.152828
0.526972 0.904424 0.172059
0.592385 0.908229 0.193373
0.650766 0.911912 0.216189
0.702122 0.914790 0.239636
0.748776 0.917600 0.264138
0.792509 0.920414 0.290054
0.833250 0.923253 0.317161
0.871183 0.925731 0.345372
0.904846 0.927723 0.373207
0.934267 0.929219 0.399925
0.959376 0.929838 0.424802
0.982127 0.931379 0.431272
0.099591 0.099615 0.099713
0.099734 0.099746 0.099808
0.104326 0.099555 0.100347
0.130244 0.099457 0.100895
0.205003 0.099457 0.101044
0.311121 0.099487 0.100732
0.394486 0.099549 0.100387
0.459197 0.099692 0.100218
0.519780 0.099906 0.100047
0.573532 0.100117 0.099896
0.624341 0.100348 0.099786
0.674972 0.100583 0.099681
0.720719 0.100769 0.099609
0.763220 0.100989 0.099567
0.802598 0.101202 0.099525
0.840241 0.101459 0.099511
0.099592 0.099519 0.099715
0.099682 0.099496 0.099761
0.102093 0.099536 0.100025
0.111441 0.099814 0.100493
0.141361 0.100236 0.100928
0.212575 0.100793 0.101340
0.306650 0.100953 0.101333
0.404523 0.100695 0.100982
0.480738 0.100315 0.100654
0.553423 0.099962 0.100335
0.616670 0.099715 0.100033
0.668417 0.099581 0.099916
0.717105 0.099499 0.099737
0.763329 0.099498 0.099645
0.807223 0.099516 0.099569
0.847660 0.099618 0.099544
0.099557 0.100382 0.099928
0.099804 0.100489 0.099919
0.103348 0.100758 0.100611
0.113276 0.101673 0.101317
0.138896 0.102999 0.102138
0.195545 0.104809 0.103113
0.278678 0.106321 0.103721
0.374260 0.107138 0.103788
0.466434 0.106681 0.103379
0.538574 0.105970 0.102925
0.607008 0.104997 0.102363
0.669103 0.103974 0.101745
0.721937 0.103141 0.101287
0.770370 0.102451 0.100906
0.817590 0.101767 0.100550
0.863262 0.101274 0.100265
0.099487 0.104856 0.100184
0.100086 0.105115 0.100217
0.105463 0.106033 0.101429
0.121836 0.107544 0.103556
0.156572 0.111016 0.104858
0.222458 0.115677 0.106410
0.312650 0.120141 0.107443
0.409984 0.123549 0.107765
0.508593 0.125041 0.107440
0.585024 0.125354 0.106919
0.650351 0.125244 0.106404
0.713410 0.124720 0.105787
0.768909 0.124123 0.105166
0.817368 0.123708 0.104641
0.862998 0.123419 0.104173
0.907028 0.123067 0.103755
0.099518 0.116599 0.100341
0.100417 0.117579 0.100465
0.108721 0.120540 0.102196
0.134658 0.124135 0.105699
0.185477 0.129563 0.109267
0.263686 0.139592 0.111402
0.361121 0.149595 0.112711
0.460209 0.157953 0.113165
0.558657 0.163895 0.112933
0.635620 0.167999 0.112469
0.696623 0.170639 0.112451
0.754707 0.173011 0.112827
0.808553 0.175045 0.113210
0.855032 0.176855 0.113580
0.897067 0.178680 0.113967
0.937710 0.180459 0.114347
0.099646 0.143304 0.100232
0.100933 0.146276 0.100510
0.114642 0.153895 0.102814
0.153545 0.161995 0.106977
0.226366 0.170450 0.113501
0.321411 0.183332 0.117468
0.425067 0.199563 0.118410
0.521715 0.213088 0.120701
0.608847 0.224497 0.124281
0.676732 0.233528 0.126460
0.731439 0.240003 0.128082
0.783605 0.245996 0.129578
0.834695 0.251976 0.131107
0.880166 0.257384 0.132497
0.921144 0.262049 0.133760
0.959248 0.266676 0.134970
0.099916 0.195345 0.099820
0.102812 0.201081 0.100401
0.127282 0.213658 0.102832
0.184584 0.225470 0.106823
0.279501 0.238424 0.112969
0.398468 0.252650 0.128870
0.485845 0.270240 0.136200
0.567403 0.288404 0.140910
0.644421 0.304041 0.145392
0.707008 0.316682 0.149102
0.758612 0.325961 0.151889
0.807049 0.334313 0.154436
0.854857 0.342712 0.157045
0.898801 0.349987 0.159320
0.936724 0.355764 0.161133
0.972365 0.360886 0.162806
0.099926 0.270984 0.099587
0.109299 0.278759 0.099856
0.157020 0.293088 0.101741
0.235473 0.306517 0.107349
0.331600 0.322369 0.118362
0.434899 0.338563 0.135764
0.530586 0.352459 0.158621
0.603660 0.368122 0.165141
0.673538 0.385026 0.170696
0.730077 0.398588 0.175293
0.778264 0.409025 0.178868
0.823207 0.418142 0.182059
0.867683 0.427264 0.185279
0.910116 0.435954 0.188395
0.945914 0.442517 0.190777
0.979590 0.448282 0.192859
0.099613 0.355424 0.100191
0.125114 0.363688 0.099838
0.186166 0.378339 0.103279
0.269518 0.392954 0.110710
0.367223 0.408603 0.123589
0.464530 0.423619 0.142180
0.556345 0.437315 0.167045
0.637689 0.450333 0.193438
0.698368 0.465006 0.199074
0.749035 0.478529 0.204193
0.794110 0.489429 0.208404
0.836151 0.498916 0.212128
0.877815 0.508532 0.215954
0.917942 0.518056 0.219800
0.952688 0.525466 0.222835
0.984057 0.530879 0.225096
0.100909 0.448470 0.099829
0.140342 0.456424 0.100522
0.216565 0.471036 0.105718
0.305518 0.484892 0.115029
0.398982 0.499054 0.129117
0.493098 0.513145 0.149315
0.580215 0.525697 0.175191
0.660152 0.537826 0.206750
0.721573 0.547273 0.231933
0.766370 0.556924 0.236078
0.807893 0.566167 0.240085
0.847168 0.574570 0.243796
0.886096 0.583033 0.247579
0.923795 0.591402 0.251344
0.956859 0.598230 0.254463
0.986357 0.603186 0.256769
0.108313 0.541736 0.099457
0.165576 0.548126 0.102075
0.250422 0.560314 0.108985
0.339046 0.570770 0.119645
0.431202 0.581964 0.135431
0.519110 0.592438 0.156433
0.602194 0.603081 0.183314
0.674902 0.612902 0.213788
0.732938 0.620232 0.243692
0.781133 0.626287 0.267616
0.818726 0.633185 0.270929
0.855731 0.640796 0.274646
0.892449 0.648562 0.278442
0.927969 0.656531 0.282355
0.959181 0.663037 0.285615
0.987183 0.668219 0.288275
0.125207 0.624101 0.100049
0.194922 0.628807 0.104474
0.281055 0.637705 0.112787
0.369170 0.646316 0.124829
0.456226 0.654742 0.141287
0.541444 0.663602 0.163298
0.621064 0.672898 0.190777
0.684536 0.680167 0.218517
0.739303 0.686717 0.247349
0.787831 0.692235 0.277264
0.828387 0.696212 0.302038
0.862754 0.702267 0.305673
0.897496 0.709992 0.309747
0.930935 0.717777 0.313768
0.960286 0.724372 0.317319
0.986966 0.729693 0.320234
0.149718 0.701101 0.101990
0.225855 0.704508 0.108252
0.310935 0.711285 0.117985
0.395423 0.717857 0.131013
0.479786 0.725197 0.148485
0.560706 0.732940 0.170653
0.630393 0.740057 0.195541
0.689744 0.746319 0.221656
0.742619 0.752051 0.249302
0.788940 0.756504 0.277384
0.830321 0.760271 0.305996
0.868075 0.763727 0.333198
0.900627 0.769370 0.338633
0.932307 0.776907 0.343613
0.960404 0.783434 0.347971
0.986206 0.788804 0.351823
0.176000 0.774058 0.105039
0.255662 0.776696 0.113176
0.339874 0.782117 0.124607
0.422863 0.787873 0.139458
0.501975 0.793954 0.157927
0.575000 0.800210 0.179591
0.638420 0.805902 0.203161
0.694837 0.811211 0.228409
0.745546 0.815981 0.255025
0.790002 0.819567 0.281724
0.831062 0.822970 0.309616
0.869221 0.826329 0.338754
0.904224 0.829443 0.367859
0.933261 0.833793 0.374760
0.960057 0.839391 0.378863
0.984970 0.844045 0.382400
0.202231 0.836792 0.108936
0.284567 0.839330 0.118897
0.366873 0.843841 0.131834
0.443488 0.848257 0.147229
0.517259 0.853141 0.165849
0.584997 0.858215 0.187160
0.645149 0.862986 0.210225
0.699435 0.867567 0.234921
0.747180 0.870950 0.259963
0.791030 0.873906 0.286067
0.831831 0.876844 0.313440
0.869869 0.879699 0.342067
0.904323 0.882324 0.370905
0.934268 0.884436 0.398238
0.959022 0.886969 0.405444
0.983170 0.891507 0.408893
0.224328 0.894608 0.113088
0.304681 0.896638 0.124074
0.383424 0.899965 0.137712
0.458807 0.903570 0.154076
0.530136 0.907476 0.173228
0.594377 0.911281 0.194257
0.651975 0.914867 0.216905
0.702711 0.917823 0.240154
0.749046 0.920576 0.264451
0.792536 0.923362 0.290211
0.832949 0.926225 0.317142
0.870781 0.928504 0.345218
0.904294 0.930502 0.372846
0.933607 0.932003 0.399426
0.958697 0.932484 0.424245
0.981383 0.934106 0.432725
0.100122 0.100104 0.101386
0.100388 0.100214 0.101723
0.104345 0.099529 0.103763
0.127959 0.099457 0.105422
0.194763 0.099457 0.106189
0.295276 0.099457 0.105884
0.389314 0.099522 0.105070
0.458383 0.099664 0.104530
0.521311 0.099891 0.104066
0.575799 0.100150 0.103701
0.627216 0.100403 0.103345
0.678284 0.100622 0.102993
0.724354 0.100824 0.102781
0.767053 0.101039 0.102560
0.806521 0.101276 0.102374
0.844044 0.101513 0.102211
0.100189 0.100320 0.101583
0.100370 0.100362 0.101581
0.102269 0.099702 0.102784
0.112806 0.099896 0.104178
0.147723 0.100370 0.105564
0.226512 0.100900 0.106570
0.326485 0.100940 0.106413
0.418303 0.100604 0.105772
0.492793 0.100226 0.105140
0.562348 0.099896 0.104489
0.622551 0.099668 0.103953
0.673731 0.099566 0.103532
0.722248 0.099491 0.103236
0.767660 0.099495 0.102934
0.811349 0.099529 0.102725
0.851650 0.099578 0.102424
0.100188 0.100989 0.102049
0.100437 0.101054 0.102005
0.102539 0.101347 0.102857
0.111489 0.102046 0.104032
0.136799 0.103547 0.105383
0.195652 0.105508 0.106990
0.277444 0.106762 0.107810
0.376195 0.107036 0.107775
0.456694 0.106304 0.107258
0.528713 0.105444 0.106624
0.597994 0.104619 0.105924
0.659259 0.103827 0.105224
0.712342 0.103184 0.104651
0.762885 0.102550 0.104134
0.810513 0.102006 0.103672
0.855054 0.101554 0.103319
0.100215 0.104535 0.103280
0.100599 0.104865 0.103289
0.103576 0.106369 0.103840
0.117646 0.108206 0.106908
0.149598 0.111819 0.109005
0.216225 0.116782 0.111528
0.303895 0.121001 0.113062
0.402183 0.123869 0.113592
0.496817 0.124627 0.113292
0.569833 0.124391 0.112734
0.636734 0.123667 0.112013
0.700738 0.122592 0.111036
0.755324 0.121587 0.110189
0.804802 0.120768 0.109447
0.851970 0.120037 0.108745
0.898089 0.119424 0.108040
0.099714 0.117555 0.104718
0.100336 0.118390 0.104588
0.105208 0.120418 0.104952
0.126501 0.124423 0.109767
0.172864 0.130076 0.114728
0.250850 0.140831 0.118032
0.346818 0.150974 0.120147
0.446612 0.159036 0.121061
0.546169 0.164502 0.120931
0.620772 0.167718 0.120297
0.684114 0.169650 0.119498
0.745207 0.171260 0.118563
0.801209 0.172546 0.117622
0.849492 0.173661 0.116816
0.893309 0.174903 0.116121
0.935401 0.176135 0.115424
0.099786 0.146033 0.105292
0.100432 0.148688 0.105259
0.108232 0.152528 0.106093
0.139623 0.161797 0.111931
0.206043 0.170762 0.120483
0.298877 0.184595 0.126355
0.400240 0.201529 0.128480
0.500123 0.215239 0.129147
0.595603 0.226217 0.128755
0.670092 0.234245 0.128003
0.729376 0.239905 0.128186
0.783996 0.245118 0.129333
0.835324 0.250334 0.130690
0.879896 0.254927 0.131884
0.920454 0.259246 0.132992
0.958644 0.263095 0.134037
0.100522 0.200548 0.105162
0.100799 0.205943 0.104968
0.114218 0.211140 0.106746
0.160579 0.225404 0.112903
0.245442 0.239488 0.121568
0.364910 0.254064 0.133567
0.471441 0.271789 0.136087
0.566280 0.289790 0.140329
0.646441 0.305503 0.145806
0.708237 0.317742 0.149424
0.759487 0.326586 0.152079
0.807940 0.334530 0.154487
0.855789 0.342630 0.157023
0.899441 0.349631 0.159200
0.936865 0.354925 0.160898
0.972500 0.359848 0.162483
0.100636 0.280033 0.103749
0.101960 0.286869 0.103559
0.126394 0.292190 0.106306
0.194239 0.308256 0.111946
0.304114 0.324146 0.119414
0.429952 0.339459 0.134426
0.529548 0.353224 0.158402
0.604095 0.369535 0.165589
0.674645 0.386897 0.171327
0.731026 0.400359 0.175894
0.778989 0.410649 0.179426
0.824087 0.419620 0.182565
0.868614 0.428518 0.185756
0.910908 0.437174 0.188847
0.946366 0.443485 0.191122
0.979914 0.449063 0.193190
0.099965 0.367826 0.102284
0.106636 0.374210 0.103250
0.151627 0.377740 0.105251
0.250674 0.392864 0.110433
0.362273 0.408804 0.122807
0.461671 0.424684 0.141541
0.554872 0.438794 0.166588
0.637414 0.451933 0.193705
0.698647 0.466849 0.199782
0.749525 0.480457 0.204956
0.794574 0.491306 0.209163
0.836794 0.500901 0.212909
0.878572 0.510358 0.216700
0.918577 0.519839 0.220532
0.953036 0.527139 0.223508
0.984324 0.532515 0.225755
0.099501 0.460580 0.101585
0.118404 0.467335 0.104409
0.196414 0.468331 0.105323
0.299003 0.484173 0.114221
0.394556 0.499569 0.128335
0.490311 0.514293 0.148608
0.578285 0.527233 0.174542
0.659241 0.539683 0.206353
0.721271 0.548833 0.232597
0.766282 0.558572 0.236767
0.807974 0.567975 0.240869
0.847420 0.576434 0.244634
0.886502 0.584983 0.248462
0.924132 0.593274 0.252191
0.956968 0.599937 0.255236
0.986548 0.605182 0.257706
0.101972 0.553711 0.102221
0.140770 0.559266 0.107153
0.237407 0.558330 0.108213
0.333640 0.570336 0.118897
0.427401 0.582492 0.134681
0.516498 0.593475 0.155743
0.600216 0.604455 0.182553
0.673651 0.614386 0.213208
0.731841 0.621721 0.243067
0.780670 0.627815 0.268297
0.818390 0.634973 0.271759
0.855689 0.642824 0.275618
0.892528 0.650945 0.279602
0.928046 0.658795 0.283496
0.959159 0.665498 0.286824
0.987177 0.671067 0.289648
0.112345 0.634932 0.106373
0.165920 0.638997 0.112762
0.268383 0.636340 0.112485
0.364647 0.645923 0.124108
0.453774 0.655290 0.140748
0.539392 0.664513 0.162694
0.619242 0.674005 0.190063
0.683274 0.681731 0.217917
0.738063 0.688115 0.246632
0.786762 0.693609 0.276553
0.827592 0.697375 0.302345
0.862104 0.703811 0.306459
0.897139 0.712099 0.310801
0.930602 0.720084 0.314936
0.960033 0.726871 0.318547
0.986805 0.732471 0.321702
0.128332 0.711156 0.113335
0.191504 0.714247 0.120850
0.297859 0.710779 0.118967
0.393175 0.717815 0.130642
0.478392 0.725571 0.148182
0.559474 0.733626 0.170328
0.629670 0.740991 0.195312
0.688914 0.747382 0.221324
0.741842 0.753193 0.248938
0.788165 0.757801 0.276897
0.829458 0.761426 0.305376
0.867296 0.764876 0.333297
0.899981 0.770726 0.339300
0.931841 0.778682 0.344514
0.960064 0.785557 0.349117
0.985908 0.791157 0.353124
0.145889 0.783832 0.122776
0.214811 0.786298 0.131764
0.323932 0.782486 0.127988
0.417948 0.788094 0.140536
0.502346 0.794338 0.158040
0.575207 0.800769 0.179699
0.638597 0.806658 0.203262
0.694665 0.812023 0.228378
0.745347 0.816862 0.254974
0.789646 0.820521 0.281575
0.830546 0.823978 0.309299
0.868650 0.827211 0.338360
0.903578 0.830381 0.367462
0.932678 0.834778 0.375289
0.959599 0.840730 0.379613
0.984638 0.845727 0.383279
0.163401 0.847107 0.134973
0.236040 0.849346 0.145943
0.340938 0.845543 0.141310
0.431947 0.849548 0.153307
0.510668 0.854189 0.169947
0.583534 0.858939 0.188726
0.645848 0.863602 0.210547
0.699971 0.868304 0.235240
0.747480 0.871675 0.260166
0.791078 0.874628 0.286123
0.831668 0.877637 0.313416
0.869629 0.880497 0.341924
0.903958 0.883149 0.370593
0.933817 0.885284 0.397925
0.958564 0.887862 0.405902
0.982856 0.892667 0.409536
0.179564 0.904143 0.146478
0.252276 0.905894 0.158919
0.342578 0.903588 0.158651
0.426776 0.906717 0.172509
0.506721 0.910130 0.187713
0.581658 0.912973 0.203023
0.646316 0.916180 0.221651
0.701303 0.918876 0.242190
0.749865 0.921317 0.264953
0.793069 0.924118 0.290563
0.833272 0.926817 0.317398
0.870952 0.929183 0.345392
0.904343 0.931152 0.372876
0.933475 0.932530 0.399319
0.958455 0.933196 0.423955
0.981204 0.934638 0.433061
0.101532 0.101660 0.105621
0.101920 0.101773 0.106221
0.104507 0.101802 0.108911
0.123434 0.099457 0.115007
0.184600 0.099481 0.117477
0.281702 0.099457 0.117700
0.382413 0.099493 0.116384
0.456041 0.099626 0.115347
0.521395 0.099872 0.114492
0.577450 0.100147 0.113810
0.629529 0.100403 0.113244
0.681188 0.100628 0.112819
0.728447 0.100866 0.112446
0.771537 0.101099 0.112295
0.811369 0.101327 0.112168
0.848751 0.101580 0.112280
0.101636 0.102155 0.105951
0.101896 0.102244 0.105948
0.103636 0.102482 0.107340
0.112803 0.099975 0.112407
0.146920 0.100443 0.115480
0.225036 0.101007 0.117803
0.326570 0.101020 0.117917
0.420237 0.100653 0.116905
0.495961 0.100251 0.115864
0.565922 0.099917 0.114850
0.626453 0.099688 0.113922
0.678034 0.099565 0.113313
0.726970 0.099485 0.112893
0.773472 0.099493 0.112489
0.817237 0.099529 0.112323
0.857546 0.099609 0.112319
0.101856 0.103419 0.107091
0.102164 0.103531 0.106981
0.104320 0.104475 0.107897
0.111894 0.102557 0.112159
0.138799 0.103983 0.114886
0.201734 0.106009 0.117622
0.287923 0.107074 0.118641
0.388752 0.106918 0.118255
0.466758 0.105986 0.117523
0.541803 0.105037 0.116481
0.614705 0.104060 0.115280
0.671670 0.103327 0.114444
0.723572 0.102657 0.113724
0.772979 0.102057 0.113077
0.818993 0.101595 0.112575
0.862864 0.101235 0.112237
0.101676 0.106436 0.109714
0.102074 0.106590 0.109569
0.105025 0.107828 0.110349
0.115039 0.110465 0.114096
0.143719 0.113701 0.116536
0.211112 0.119041 0.120099
0.298528 0.122753 0.122030
0.401178 0.124519 0.122367
0.486950 0.123694 0.121654
0.556221 0.122120 0.120701
0.623262 0.119884 0.119342
0.683446 0.117632 0.117944
0.733685 0.115795 0.116800
0.781500 0.114034 0.115798
0.828883 0.112633 0.114950
0.882925 0.113462 0.114710
0.102271 0.116742 0.113644
0.102760 0.117635 0.113531
0.106038 0.120836 0.114280
0.119372 0.127081 0.116717
0.162075 0.132789 0.123991
0.240489 0.144424 0.128840
0.336781 0.154376 0.131565
0.440717 0.161622 0.132453
0.538347 0.165334 0.131960
0.609372 0.166681 0.131230
0.673451 0.166977 0.130301
0.735415 0.166868 0.129039
0.790035 0.166503 0.127813
0.838024 0.166098 0.126725
0.883512 0.166481 0.126251
0.930179 0.169178 0.125888
0.101556 0.148511 0.118841
0.101357 0.151886 0.118469
0.105953 0.157050 0.117272
0.126138 0.164062 0.119485
0.185625 0.174176 0.130614
0.279541 0.188605 0.139453
0.382631 0.206318 0.142494
0.486632 0.220132 0.143348
0.584052 0.230291 0.142651
0.656999 0.236636 0.141467
0.717798 0.240814 0.140235
0.775981 0.244485 0.138636
0.830684 0.247911 0.136919
0.876339 0.250532 0.135693
0.918301 0.253839 0.135075
0.957732 0.257476 0.134896
0.101411 0.207211 0.121415
0.099998 0.213839 0.120779
0.108066 0.218494 0.118684
0.137576 0.226926 0.121745
0.213499 0.243107 0.133454
0.329407 0.258842 0.148916
0.437505 0.277432 0.154091
0.540317 0.296492 0.154080
0.634484 0.311456 0.152126
0.705353 0.321587 0.151119
0.760536 0.328502 0.152162
0.810205 0.335276 0.154734
0.857887 0.342386 0.156938
0.900637 0.348598 0.158881
0.937518 0.353645 0.160506
0.972946 0.358569 0.162057
0.100952 0.291633 0.122860
0.100305 0.298340 0.122160
0.111862 0.301927 0.119095
0.155691 0.309866 0.123070
0.249998 0.328762 0.135064
0.371816 0.346116 0.149561
0.494933 0.359450 0.164357
0.596329 0.374971 0.166642
