example_ofxGpuLutCube/bin/data/ofxGpuLutCube/LUT/A23 (dark contrast).cube
LUT_3D_SIZE 6
0.147400 0.149139 0.158173
0.171313 0.149048 0.158179
0.292511 0.148267 0.157135
0.576373 0.147247 0.153448
0.782165 0.147247 0.156708
0.889494 0.147247 0.159481
0.147809 0.173913 0.157586
0.170619 0.173418 0.157549
0.295096 0.169785 0.155321
0.583214 0.167747 0.152171
0.784014 0.167399 0.156533
0.889494 0.167133 0.159711
0.167767 0.245886 0.155811
0.190632 0.253810 0.156246
0.320854 0.271464 0.155303
0.669565 0.240623 0.151992
0.861370 0.220099 0.155659
0.890185 0.206485 0.158232
0.255914 0.451526 0.180725
0.293622 0.486109 0.186887
0.391323 0.593431 0.207761
0.741102 0.610112 0.211230
0.904644 0.586365 0.206305
0.920768 0.563213 0.201600
0.374616 0.690033 0.224188
0.420200 0.736311 0.234568
0.483059 0.808583 0.251348
0.797562 0.834927 0.257593
0.933673 0.816879 0.253278
0.962642 0.809708 0.251589
0.451049 0.845266 0.255394
0.494583 0.887403 0.265581
0.545155 0.941953 0.278870
0.812875 0.961350 0.283687
0.955867 0.967508 0.285206
0.989711 0.941666 0.278806
0.147369 0.149200 0.193787
0.170249 0.149072 0.194253
0.279453 0.148633 0.189021
0.571967 0.147247 0.179586
0.781734 0.147247 0.181012
0.889494 0.147247 0.183836
0.147950 0.174352 0.194399
0.170264 0.174002 0.193544
0.291316 0.170375 0.185965
0.583920 0.168070 0.178590
0.784616 0.167451 0.179681
0.889494 0.167132 0.183096
0.169801 0.250845 0.191892
0.192205 0.257538 0.189697
0.318844 0.283053 0.185021
0.673713 0.246196 0.177263
0.863746 0.221924 0.180280
0.890196 0.207117 0.182359
0.264164 0.467412 0.203418
0.300079 0.498323 0.208738
0.393718 0.610169 0.230877
0.745905 0.629571 0.234925
0.907421 0.604098 0.229570
0.922868 0.577095 0.224036
0.383936 0.706662 0.247485
0.426746 0.747985 0.256838
0.489647 0.824539 0.274747
0.795189 0.849967 0.280817
0.932808 0.835013 0.277244
0.965933 0.824336 0.274689
0.458901 0.859111 0.278331
0.501127 0.898944 0.287939
0.554784 0.958926 0.302703
0.808507 0.978847 0.307635
0.953555 0.981751 0.308347
0.993667 0.956745 0.302124
0.147369 0.149384 0.283081
0.169685 0.149154 0.287544
0.256836 0.149124 0.300192
0.557888 0.149700 0.292239
0.783489 0.149119 0.289352
0.889507 0.148292 0.285636
0.147984 0.174430 0.293406
0.169823 0.174384 0.292984
0.270084 0.174494 0.305957
0.584894 0.171865 0.292277
0.796798 0.169759 0.285708
0.889513 0.168328 0.279652
0.175489 0.264452 0.316491
0.197750 0.270591 0.316086
0.285099 0.305397 0.323243
0.672109 0.271326 0.295085
0.868078 0.244607 0.285146
0.890887 0.224339 0.281111
0.277775 0.493207 0.339269
0.314566 0.525416 0.343825
0.400278 0.646082 0.367423
0.734309 0.673192 0.360854
0.914444 0.648815 0.312047
0.930294 0.623935 0.275714
0.394981 0.726368 0.389945
0.437491 0.767041 0.397503
0.503223 0.848507 0.411736
0.771604 0.875209 0.408688
0.930730 0.863442 0.401594
0.972710 0.853534 0.377773
0.467387 0.874094 0.406694
0.509203 0.913217 0.413231
0.566118 0.978905 0.432381
0.783893 0.989390 0.433886
0.946959 0.988106 0.428174
0.997053 0.969610 0.419932
0.147369 0.149591 0.480432
0.169275 0.149176 0.489067
0.238904 0.149531 0.515161
0.530738 0.152423 0.553802
0.748203 0.162455 0.572704
0.881075 0.169864 0.579532
0.148231 0.175315 0.507894
0.169641 0.174823 0.512160
0.252664 0.174624 0.542811
0.571590 0.182525 0.581269
0.771810 0.192044 0.590655
0.890446 0.196694 0.588755
0.181126 0.277432 0.563673
0.203412 0.283500 0.571232
0.267242 0.324355 0.603877
0.639426 0.347531 0.642263
0.834358 0.336132 0.646006
0.896512 0.321355 0.643607
0.298843 0.532653 0.617736
0.332499 0.558592 0.627446
0.412173 0.667417 0.660572
0.698966 0.710609 0.682930
0.910436 0.687678 0.661131
0.937845 0.667413 0.649145
0.400961 0.737018 0.638214
0.442590 0.776025 0.655219
0.510297 0.860976 0.682749
0.730109 0.893365 0.700649
0.913723 0.887283 0.695688
0.979065 0.879819 0.682944
0.471164 0.880733 0.648640
0.513271 0.920318 0.666335
0.571729 0.988829 0.689927
0.741678 0.997449 0.709084
0.935474 0.994041 0.705231
0.999926 0.982180 0.700419
0.147369 0.150513 0.698852
0.169257 0.149921 0.709303
0.249242 0.150419 0.734419
0.535032 0.155087 0.756813
0.765903 0.166648 0.799190
0.890420 0.175422 0.811560
0.149915 0.180899 0.724637
0.170205 0.181341 0.732797
0.261880 0.182490 0.761467
0.578925 0.191034 0.785380
0.799321 0.208753 0.824944
0.891167 0.211209 0.831413
0.189957 0.297279 0.764952
0.214184 0.307405 0.775800
0.274937 0.354987 0.807709
0.634026 0.375970 0.835991
0.845327 0.399819 0.862370
0.901293 0.379579 0.863904
0.310044 0.553343 0.811506
0.348394 0.587665 0.827272
0.427393 0.694551 0.859943
0.685248 0.722631 0.874878
0.883680 0.729043 0.882014
0.947301 0.717159 0.881025
0.417644 0.766630 0.834338
0.456467 0.800563 0.846672
0.511766 0.863554 0.856689
0.708671 0.897228 0.875487
0.898389 0.901037 0.882011
0.982500 0.893876 0.877335
0.473283 0.884405 0.820523
0.514142 0.921869 0.835871
0.572166 0.989606 0.858404
0.718439 0.999273 0.876492
0.914636 0.997363 0.884308
0.993590 0.990704 0.881354
0.147369 0.151244 0.835052
0.169318 0.150695 0.845109
0.257631 0.151104 0.868253
0.548229 0.158170 0.890024
0.753705 0.168014 0.909303
0.890624 0.179392 0.944651
0.152018 0.187047 0.856313
0.172244 0.188444 0.866082
0.268394 0.190210 0.891622
0.589184 0.201214 0.916279
0.789442 0.217170 0.934845
0.892191 0.232313 0.965241
0.197173 0.313070 0.890885
0.223686 0.327735 0.903604
0.283548 0.378939 0.933953
0.639582 0.395869 0.958895
0.836789 0.417357 0.972459
0.906105 0.428114 0.989349
0.317520 0.567085 0.932753
0.358458 0.605947 0.949687
0.434347 0.706991 0.980418
0.687221 0.727732 0.992152
0.876525 0.732121 0.993208
0.950789 0.734534 0.999793
0.421809 0.773935 0.952680
0.462856 0.811819 0.966598
0.523669 0.884513 0.986368
0.711889 0.905209 0.995409
0.893075 0.904996 0.997738
0.975173 0.906241 0.999809
0.488838 0.911807 0.956275
0.527996 0.946299 0.969581
0.572375 0.989964 0.972762
0.719094 0.999855 0.990278
0.904608 0.998343 0.995924
0.985196 0.995188 0.996476
