example_ofxGpuLutCube/bin/data/ofxGpuLutCube/LUT/A23 (dark contrast).cube
LUT_3D_SIZE 16
0.147400 0.149139 0.158173
0.154459 0.149107 0.158179
0.162490 0.149078 0.158234
0.171313 0.149048 0.158179
0.187353 0.149023 0.158236
0.223938 0.148773 0.158162
0.292511 0.148267 0.157135
0.384125 0.147487 0.155275
0.482910 0.147247 0.153029
0.576373 0.147247 0.153448
0.655569 0.147247 0.154103
0.723317 0.147247 0.155351
0.782165 0.147247 0.156708
0.833909 0.147247 0.157788
0.877677 0.147247 0.158667
0.889494 0.147247 0.159481
0.147400 0.156126 0.158138
0.154423 0.156093 0.158140
0.162366 0.156026 0.158171
0.171064 0.155958 0.158171
0.186787 0.155851 0.158197
0.222436 0.155580 0.158150
0.290234 0.155010 0.157047
0.381887 0.154213 0.155323
0.480961 0.153878 0.153043
0.575021 0.153877 0.153399
0.654735 0.153874 0.154083
0.722834 0.153872 0.155343
0.781853 0.153846 0.156707
0.833834 0.153839 0.157780
0.877658 0.153811 0.158643
0.889494 0.153807 0.159488
0.147400 0.163892 0.157851
0.154413 0.163866 0.157891
0.162214 0.163766 0.157965
0.170789 0.163516 0.157814
0.186276 0.163245 0.157735
0.221823 0.162777 0.157736
0.288995 0.162111 0.156710
0.380179 0.161173 0.155161
0.479810 0.160805 0.152966
0.574324 0.160744 0.153324
0.654288 0.160671 0.154073
0.722735 0.160604 0.155343
0.781967 0.160541 0.156711
0.833995 0.160505 0.157776
0.878116 0.160466 0.158677
0.889494 0.160431 0.159580
0.147809 0.173913 0.157586
0.154499 0.173830 0.157627
0.162184 0.173819 0.157772
0.170619 0.173418 0.157549
0.186074 0.172067 0.157351
0.223668 0.171136 0.156740
0.295096 0.169785 0.155321
0.390981 0.168470 0.153167
0.490914 0.167866 0.151362
0.583214 0.167747 0.152171
0.660368 0.167684 0.153465
0.726391 0.167531 0.155026
0.784014 0.167399 0.156533
0.835479 0.167322 0.157708
0.879365 0.167244 0.158745
0.889494 0.167133 0.159711
0.150089 0.188071 0.157123
0.156588 0.187983 0.157139
0.163191 0.188169 0.157361
0.170833 0.188662 0.157082
0.185798 0.188601 0.156824
0.226328 0.186367 0.155357
0.304594 0.182171 0.153902
0.409774 0.177735 0.151790
0.515091 0.176150 0.151409
0.607523 0.175727 0.151814
0.683428 0.175394 0.152529
0.748091 0.175088 0.153548
0.803939 0.174827 0.154408
0.853053 0.174597 0.155425
0.882686 0.174416 0.156741
0.889495 0.174363 0.157795
0.156332 0.209971 0.156403
0.162831 0.209862 0.156381
0.169653 0.210622 0.156789
0.177102 0.213061 0.156394
0.187460 0.216165 0.156182
0.227329 0.216278 0.155250
0.314972 0.210331 0.151613
0.431190 0.201708 0.151240
0.542938 0.193854 0.151317
0.638102 0.190334 0.152049
0.713942 0.186886 0.152920
0.777035 0.185565 0.153946
0.832609 0.184796 0.154852
0.874923 0.184036 0.156309
0.883089 0.183111 0.157164
0.889576 0.182720 0.157995
0.167767 0.245886 0.155811
0.174322 0.245861 0.155783
0.181711 0.247977 0.156429
0.190632 0.253810 0.156246
0.201109 0.263143 0.156165
0.233065 0.272720 0.156742
0.320854 0.271464 0.155303
0.453499 0.262382 0.153335
0.574490 0.248877 0.152122
0.669565 0.240623 0.151992
0.744999 0.232452 0.152960
0.807557 0.224952 0.154612
0.861370 0.220099 0.155659
0.877509 0.215674 0.157083
0.883785 0.208850 0.157710
0.890185 0.206485 0.158232
0.188097 0.299825 0.158516
0.194726 0.299984 0.158552
0.203191 0.304246 0.159300
0.214768 0.315278 0.161096
0.230551 0.335018 0.164513
0.250986 0.355778 0.167530
0.340318 0.371996 0.170018
0.468871 0.370587 0.169793
0.602324 0.360556 0.168292
0.705603 0.347094 0.166267
0.781614 0.334074 0.163947
0.841257 0.325654 0.162550
0.875519 0.319797 0.161555
0.882582 0.314585 0.161304
0.888467 0.304818 0.161341
0.894477 0.296900 0.160857
0.218649 0.371190 0.168815
0.225465 0.371783 0.168902
0.235591 0.379007 0.170013
0.250836 0.396562 0.172774
0.272287 0.425986 0.177553
0.295301 0.457808 0.183040
0.358616 0.486685 0.188227
0.499717 0.499864 0.190636
0.622161 0.497613 0.190236
0.727694 0.490737 0.188995
0.806410 0.478399 0.186715
0.869761 0.467351 0.184747
0.888307 0.456572 0.182816
0.893603 0.445390 0.180871
0.898858 0.432959 0.178785
0.904293 0.423100 0.177085
0.255914 0.451526 0.180725
0.263090 0.452810 0.180957
0.275174 0.463433 0.182836
0.293622 0.486109 0.186887
0.319482 0.522397 0.193652
0.346802 0.560812 0.201164
0.391323 0.593431 0.207761
0.536543 0.617030 0.212692
0.650544 0.613798 0.212030
0.741102 0.610112 0.211230
0.818188 0.602622 0.209654
0.881077 0.593903 0.207850
0.904644 0.586365 0.206305
0.910001 0.578462 0.204700
0.915337 0.570669 0.203085
0.920768 0.563213 0.201600
0.296326 0.534505 0.194713
0.304151 0.536896 0.195158
0.318124 0.550674 0.197826
0.338364 0.575897 0.202863
0.365463 0.613321 0.210538
0.392602 0.650621 0.218465
0.426976 0.679390 0.224717
0.555448 0.699243 0.229159
0.680402 0.708733 0.231283
0.752834 0.692816 0.227685
0.824710 0.692095 0.227512
0.886266 0.687731 0.226562
0.919505 0.683332 0.225567
0.925602 0.678583 0.224538
0.931254 0.673649 0.223444
0.936852 0.668712 0.222376
0.336517 0.614797 0.209474
0.344973 0.618324 0.210201
0.360834 0.635215 0.213723
0.381644 0.660931 0.219278
0.406772 0.694255 0.226588
0.430602 0.725062 0.233508
0.456229 0.748487 0.238868
0.574474 0.766119 0.242913
0.696460 0.775592 0.245116
0.781449 0.773817 0.244717
0.833007 0.758964 0.241225
0.888854 0.758511 0.241119
0.930319 0.756739 0.240700
0.939129 0.754512 0.240231
0.945052 0.751618 0.239533
0.950969 0.748705 0.238859
0.374616 0.690033 0.224188
0.383577 0.694407 0.225139
0.400416 0.712730 0.229234
0.420200 0.736311 0.234568
0.442589 0.764466 0.241021
0.462978 0.789006 0.246745
0.483059 0.808583 0.251348
0.591579 0.823663 0.254917
0.708186 0.830976 0.256675
0.797562 0.834927 0.257593
0.851371 0.825710 0.255406
0.892731 0.816571 0.253209
0.933673 0.816879 0.253278
0.950687 0.814509 0.252704
0.956620 0.812015 0.252109
0.962642 0.809708 0.251589
0.406942 0.754204 0.237138
0.416307 0.759199 0.238295
0.433668 0.778369 0.242740
0.452634 0.800344 0.247877
0.472389 0.823712 0.253389
0.490357 0.843892 0.258211
0.506275 0.860240 0.262107
0.606656 0.873272 0.265289
0.719091 0.879906 0.266883
0.804822 0.883047 0.267625
0.867783 0.885478 0.268245
0.904532 0.876275 0.266000
0.934374 0.866767 0.263658
0.960397 0.865675 0.263443
0.967063 0.863672 0.262915
0.973113 0.861760 0.262488
0.431329 0.803845 0.247162
0.440643 0.808829 0.248318
0.457581 0.827152 0.252695
0.475559 0.847396 0.257459
0.494510 0.869230 0.262737
0.511997 0.888581 0.267446
0.527225 0.903873 0.271127
0.616313 0.915208 0.273915
0.727223 0.922136 0.275597
0.809390 0.924408 0.276190
0.870739 0.926864 0.276771
0.916498 0.929682 0.277451
0.942223 0.916854 0.274278
0.966199 0.907360 0.271942
0.975846 0.906073 0.271656
0.982056 0.904936 0.271396
0.451049 0.845266 0.255394
0.460475 0.850246 0.256638
0.477085 0.868123 0.260887
0.494583 0.887403 0.265581
0.513049 0.908400 0.270670
0.530108 0.926985 0.275242
0.545155 0.941953 0.278870
0.624299 0.952122 0.281396
0.733483 0.958791 0.283055
0.812875 0.961350 0.283687
0.873223 0.963390 0.284185
0.917729 0.966255 0.284908
0.955867 0.967508 0.285206
0.974339 0.952488 0.281484
0.983294 0.942683 0.279029
0.989711 0.941666 0.278806
0.147400 0.149170 0.167121
0.154386 0.149107 0.167147
0.162301 0.149078 0.166915
0.170937 0.149050 0.166161
0.186214 0.149032 0.166038
0.220732 0.148816 0.165818
0.288013 0.148311 0.164627
0.379926 0.147538 0.162947
0.479514 0.147247 0.160416
0.573797 0.147247 0.160671
0.653659 0.147247 0.161357
0.722167 0.147247 0.162518
0.781364 0.147247 0.163694
0.833526 0.147247 0.164700
0.877576 0.147247 0.165489
0.889494 0.147247 0.166520
0.147400 0.156126 0.167027
0.154386 0.156095 0.166695
0.162265 0.156024 0.166395
0.170844 0.155958 0.166026
0.186084 0.155880 0.165896
0.220535 0.155623 0.165706
0.287677 0.155057 0.164480
0.379724 0.154232 0.162808
0.479300 0.153879 0.160294
0.573747 0.153877 0.160587
0.653769 0.153874 0.161275
0.722256 0.153872 0.162476
0.781498 0.153870 0.163647
0.833689 0.153841 0.164642
0.877655 0.153837 0.165428
0.889494 0.153807 0.166431
0.147400 0.163918 0.166374
0.154384 0.163836 0.166120
0.162151 0.163788 0.166147
0.170698 0.163599 0.165833
0.185759 0.163349 0.165719
0.220446 0.162902 0.165486
0.287303 0.162145 0.164203
0.378561 0.161223 0.162724
0.478673 0.160805 0.160260
0.573541 0.160743 0.160524
0.653722 0.160668 0.161302
0.722437 0.160604 0.162483
0.781813 0.160541 0.163685
0.833982 0.160478 0.164667
0.878111 0.160466 0.165517
0.889494 0.160404 0.166544
0.147809 0.173862 0.165776
0.154474 0.173761 0.165657
0.162108 0.173808 0.165794
0.170528 0.173455 0.165481
0.185581 0.172124 0.165093
0.222390 0.171167 0.164385
0.293572 0.169798 0.162919
0.389438 0.168491 0.160645
0.489648 0.167972 0.158818
0.582437 0.167898 0.159939
0.659807 0.167726 0.160984
0.725997 0.167561 0.162343
0.783772 0.167430 0.163701
0.835475 0.167331 0.164736
0.879420 0.167216 0.165635
0.889494 0.167127 0.166892
0.150092 0.188087 0.165056
0.156566 0.187883 0.164937
0.163164 0.188150 0.165199
0.170725 0.188613 0.164873
0.185283 0.188649 0.164613
0.224955 0.186469 0.163245
0.303036 0.182328 0.161562
0.408244 0.177768 0.159149
0.513999 0.176137 0.158596
0.606908 0.175727 0.159003
0.682961 0.175378 0.159685
0.747733 0.175082 0.160682
0.803700 0.174821 0.161509
0.852964 0.174599 0.162533
0.882686 0.174484 0.163943
0.889495 0.174403 0.164920
0.156405 0.210197 0.164287
0.162841 0.209920 0.164243
0.169619 0.210576 0.164446
0.177078 0.212984 0.164167
0.186969 0.216169 0.163929
0.225981 0.216445 0.163038
0.313339 0.210656 0.159099
0.429558 0.202012 0.158410
0.541923 0.193885 0.158402
0.637546 0.190368 0.159274
0.713613 0.186887 0.160141
0.776810 0.185551 0.161153
0.832495 0.184779 0.162039
0.874923 0.184032 0.163453
0.883089 0.183079 0.164123
0.889576 0.182720 0.164934
0.167980 0.246391 0.163806
0.174379 0.246108 0.163698
0.181734 0.248031 0.164077
0.190624 0.253774 0.164008
0.201134 0.263185 0.163841
0.231173 0.272818 0.163992
0.319304 0.272200 0.162373
0.451961 0.262963 0.160036
0.573509 0.249387 0.158899
0.669017 0.240926 0.158993
0.744812 0.232581 0.160242
0.807526 0.224985 0.161902
0.861421 0.220145 0.162938
0.877509 0.215625 0.164184
0.883785 0.208819 0.164762
0.890185 0.206428 0.165272
0.188527 0.300742 0.165737
0.194978 0.300566 0.165717
0.203289 0.304514 0.166341
0.214816 0.315365 0.167673
0.230596 0.335122 0.171073
0.250560 0.356175 0.174130
0.338051 0.372537 0.176626
0.467402 0.371706 0.176493
0.601426 0.361618 0.174995
0.705260 0.347989 0.172958
0.781509 0.334898 0.170627
0.841270 0.326388 0.169209
0.875544 0.320433 0.168189
0.882615 0.315104 0.168182
0.888484 0.305043 0.168215
0.894492 0.297011 0.167719
0.219227 0.372364 0.175536
0.225832 0.372557 0.175541
0.235694 0.379258 0.176599
0.250877 0.396635 0.179331
0.272277 0.425937 0.184096
0.295443 0.458115 0.189630
0.355991 0.487198 0.194866
0.498594 0.501248 0.197452
0.621310 0.498756 0.196988
0.727413 0.492021 0.195752
0.806451 0.479729 0.193526
0.869873 0.468603 0.191508
0.888422 0.457586 0.189565
0.893724 0.446435 0.187595
0.898912 0.433781 0.185431
0.904374 0.423935 0.183787
0.256689 0.453051 0.187563
0.263555 0.453761 0.187671
0.275357 0.463770 0.189431
0.293700 0.486293 0.193443
0.319489 0.522380 0.200191
0.346952 0.561128 0.207745
0.390558 0.594027 0.214430
0.534601 0.617765 0.219377
0.649808 0.614915 0.218791
0.740855 0.611372 0.218034
0.818229 0.604034 0.216466
0.881125 0.595170 0.214639
0.904854 0.587713 0.213107
0.910175 0.579778 0.211496
0.915535 0.571925 0.209924
0.920938 0.564434 0.208390
0.297164 0.536092 0.201537
0.304685 0.537943 0.201915
0.318282 0.550948 0.204421
0.338433 0.576019 0.209417
0.365454 0.613324 0.217080
0.392879 0.651081 0.225083
0.426079 0.679944 0.231389
0.553506 0.699829 0.235835
0.679658 0.709841 0.238067
0.752871 0.694149 0.234541
0.824751 0.693315 0.234345
0.885958 0.689452 0.233458
0.919699 0.684821 0.232416
0.925882 0.680158 0.231394
0.931560 0.675207 0.230314
0.937078 0.670081 0.229184
0.337397 0.616453 0.216345
0.345661 0.619617 0.216992
0.361064 0.635621 0.220361
0.381722 0.661079 0.225868
0.406814 0.694347 0.233157
0.430920 0.725651 0.240152
0.455282 0.749206 0.245535
0.572445 0.766870 0.249614
0.695316 0.776557 0.251893
0.781588 0.775314 0.251578
0.832886 0.760341 0.248114
0.888499 0.760039 0.248019
0.930554 0.758226 0.247605
0.939462 0.756037 0.247063
0.945389 0.753175 0.246452
0.951342 0.750355 0.245782
0.375844 0.692234 0.231242
0.384458 0.695916 0.232012
0.400758 0.713352 0.235909
0.420480 0.736876 0.241239
0.442983 0.765197 0.247753
0.463555 0.789992 0.253493
0.482249 0.809639 0.258119
0.589316 0.824800 0.261735
0.706865 0.832135 0.263499
0.796799 0.836016 0.264407
0.851999 0.828200 0.262526
0.892424 0.818272 0.260175
0.933566 0.818438 0.260185
0.951025 0.816065 0.259614
0.956974 0.813442 0.259016
0.962947 0.811156 0.258466
0.408505 0.756913 0.244340
0.417488 0.761261 0.245331
0.434209 0.779289 0.249485
0.453039 0.801102 0.254574
0.473025 0.824856 0.260179
0.491177 0.845369 0.265084
0.506935 0.861595 0.269012
0.604351 0.874629 0.272147
0.717783 0.881344 0.273770
0.804113 0.884457 0.274520
0.867150 0.886955 0.275129
0.905198 0.879085 0.273210
0.934183 0.868505 0.270633
0.960667 0.867212 0.270312
0.967444 0.865204 0.269827
0.973486 0.863419 0.269395
0.432915 0.806705 0.254354
0.441948 0.811108 0.255368
0.458428 0.828656 0.259550
0.476395 0.848812 0.264361
0.495335 0.870714 0.269639
0.512844 0.890034 0.274314
0.528051 0.905318 0.278025
0.613747 0.916788 0.280836
0.725894 0.923615 0.282526
0.808516 0.925926 0.283090
0.870189 0.928376 0.283677
0.915897 0.931255 0.284369
0.943156 0.919901 0.281585
0.966096 0.909001 0.278849
0.976214 0.907667 0.278553
0.982416 0.906360 0.278257
0.452836 0.848359 0.262702
0.461874 0.852854 0.263724
0.478121 0.869866 0.267849
0.495555 0.889168 0.272515
0.514081 0.910299 0.277645
0.531210 0.928894 0.282193
0.546032 0.943524 0.285806
0.621617 0.953727 0.288353
0.732045 0.960413 0.289988
0.812109 0.962937 0.290625
0.872650 0.964989 0.291118
0.917162 0.967979 0.291871
0.955292 0.969115 0.292142
0.975494 0.955555 0.288782
0.983770 0.944449 0.286033
0.990163 0.943349 0.285728
0.147400 0.149200 0.179579
0.154315 0.149109 0.179618
0.162080 0.149078 0.179702
0.170665 0.149051 0.179380
0.185161 0.149048 0.178389
0.217291 0.148892 0.177148
0.283748 0.148437 0.174694
0.375681 0.147608 0.171645
0.476054 0.147247 0.168653
0.571264 0.147247 0.168534
0.651890 0.147247 0.169080
0.721089 0.147247 0.170022
0.780598 0.147247 0.170871
0.833149 0.147247 0.171845
0.877550 0.147247 0.172585
0.889494 0.147247 0.173974
0.147400 0.156132 0.179521
0.154352 0.156122 0.179306
0.162048 0.156032 0.179393
0.170594 0.155990 0.178995
0.184984 0.155921 0.177952
0.217176 0.155720 0.176790
0.283531 0.155191 0.174268
0.375514 0.154321 0.171403
0.476007 0.153908 0.168478
0.571455 0.153892 0.168375
0.652120 0.153876 0.168974
0.721331 0.153874 0.169965
0.780898 0.153872 0.170836
0.833458 0.153870 0.171786
0.877730 0.153868 0.172520
0.889494 0.153837 0.173924
0.147400 0.163961 0.179464
0.154378 0.163919 0.179176
0.162073 0.163824 0.179046
0.170570 0.163645 0.178449
0.185204 0.163405 0.177446
0.218700 0.163006 0.176304
0.285623 0.162269 0.173472
0.376953 0.161279 0.170998
0.477470 0.160806 0.168216
0.572616 0.160743 0.168254
0.653113 0.160672 0.168877
0.722127 0.160607 0.169907
0.781604 0.160546 0.170755
0.833920 0.160508 0.171700
0.878215 0.160462 0.172455
0.889494 0.160431 0.173792
0.147793 0.173877 0.178648
0.154473 0.173770 0.178436
0.161990 0.173760 0.178396
0.170433 0.173779 0.178337
0.185163 0.172465 0.177073
0.221134 0.171283 0.175149
0.292699 0.169926 0.172074
0.388450 0.168781 0.169949
0.488577 0.168199 0.167656
0.581665 0.167971 0.168037
0.659233 0.167773 0.168829
0.725594 0.167589 0.169980
0.783649 0.167446 0.170901
0.835491 0.167322 0.171825
0.879416 0.167214 0.172701
0.889494 0.167127 0.174180
0.150134 0.188254 0.177548
0.156600 0.188066 0.177268
0.163193 0.188251 0.177211
0.170653 0.188999 0.177381
0.184728 0.189240 0.176844
0.223698 0.187002 0.173493
0.302622 0.182750 0.170829
0.408047 0.177865 0.167929
0.513740 0.176133 0.166661
0.606621 0.175727 0.166791
0.682632 0.175370 0.167300
0.747554 0.175082 0.168127
0.803448 0.174824 0.168866
0.852824 0.174698 0.170116
0.882683 0.174599 0.171301
0.889495 0.174487 0.172196
0.156756 0.211094 0.176523
0.163157 0.210803 0.176203
0.169888 0.211275 0.175890
0.177373 0.213766 0.175940
0.186599 0.217273 0.175231
0.224803 0.218084 0.173386
0.313211 0.212114 0.168614
0.429776 0.203121 0.167292
0.542411 0.194180 0.166790
0.637843 0.190544 0.167422
0.713774 0.186939 0.167974
0.776783 0.185557 0.168785
0.832453 0.184769 0.169535
0.874921 0.184005 0.170646
0.883089 0.183050 0.171218
0.889576 0.182716 0.171937
0.168869 0.248595 0.175703
0.175258 0.248203 0.175253
0.182458 0.249790 0.174604
0.191396 0.255631 0.175129
0.202179 0.265632 0.174632
0.229835 0.275834 0.173896
0.320090 0.277110 0.171782
0.452935 0.266304 0.167691
0.574653 0.251695 0.166787
0.669971 0.242519 0.167037
0.745641 0.233533 0.168473
0.808010 0.225389 0.169785
0.861644 0.220210 0.170492
0.877511 0.215565 0.171487
0.883785 0.208743 0.171986
0.890183 0.206322 0.172424
0.190418 0.304934 0.174845
0.196786 0.304558 0.174619
0.204833 0.307871 0.174711
0.216383 0.318733 0.176411
0.232584 0.339327 0.178476
0.252177 0.361397 0.181466
0.336817 0.378128 0.184020
0.468989 0.378517 0.184081
0.603258 0.367166 0.182381
0.707149 0.352546 0.180187
0.782964 0.338337 0.177813
0.842519 0.328698 0.176149
0.875704 0.322068 0.175029
0.882691 0.315896 0.175323
0.888520 0.305500 0.175654
0.894494 0.297265 0.175111
0.221861 0.377770 0.182917
0.228464 0.377801 0.182910
0.237877 0.383705 0.183822
0.253024 0.400935 0.186518
0.274715 0.430668 0.191407
0.298533 0.464018 0.197200
0.354415 0.493452 0.202539
0.500849 0.509411 0.205529
0.623512 0.506183 0.204924
0.729617 0.498911 0.203564
0.808532 0.485395 0.201078
0.871392 0.473096 0.198838
0.888833 0.461007 0.196693
0.894015 0.449019 0.194585
0.899081 0.435376 0.192247
0.904523 0.425246 0.190529
0.260069 0.459545 0.195212
0.266924 0.460157 0.195328
0.278100 0.469039 0.196885
0.296355 0.491297 0.200911
0.322258 0.527583 0.207746
0.350150 0.566971 0.215475
0.392142 0.600336 0.222280
0.534795 0.623996 0.227241
0.651942 0.621742 0.226782
0.743174 0.618168 0.225982
0.820201 0.610307 0.224335
0.882076 0.601243 0.222436
0.905722 0.593185 0.220762
0.910888 0.584473 0.218994
0.916100 0.575586 0.217187
0.921314 0.566898 0.215423
0.300903 0.543033 0.209435
0.308386 0.544723 0.209771
0.321331 0.556629 0.212076
0.341319 0.581315 0.217025
0.368311 0.618547 0.224706
0.396123 0.656917 0.232894
0.427200 0.685476 0.239173
0.553114 0.705224 0.243564
0.681615 0.715827 0.245930
0.756302 0.700930 0.242580
0.826038 0.699900 0.242348
0.885940 0.696275 0.241537
0.920632 0.690979 0.240355
0.926842 0.685376 0.239100
0.932358 0.679712 0.237858
0.937824 0.674015 0.236607
0.341615 0.624121 0.224506
0.349735 0.626965 0.225078
0.364425 0.641698 0.228209
0.384656 0.666342 0.233542
0.409675 0.699455 0.240800
0.434241 0.731516 0.248016
0.456114 0.755042 0.253411
0.571379 0.772348 0.257445
0.695747 0.781749 0.259630
0.784592 0.782274 0.259751
0.834072 0.766865 0.256131
0.888588 0.767020 0.256159
0.931474 0.764624 0.255625
0.940650 0.761748 0.254922
0.946475 0.758286 0.254143
0.952229 0.754824 0.253319
0.380034 0.699693 0.239412
0.388661 0.703434 0.240259
0.404341 0.719780 0.243901
0.423844 0.742805 0.249130
0.446679 0.771726 0.255791
0.467531 0.797033 0.261705
0.485037 0.816427 0.266293
0.587405 0.831352 0.269829
0.706580 0.838271 0.271468
0.796627 0.841786 0.272326
0.855987 0.838288 0.271474
0.892210 0.825687 0.268460
0.933409 0.825327 0.268373
0.952453 0.822299 0.267650
0.958279 0.819236 0.266924
0.964087 0.816237 0.266186
0.412177 0.763511 0.252373
0.421257 0.767988 0.253394
0.437625 0.785354 0.257418
0.456403 0.807029 0.262511
0.477303 0.832410 0.268517
0.495685 0.853301 0.273535
0.511280 0.869274 0.277389
0.601267 0.881969 0.280475
0.716658 0.888470 0.282040
0.803649 0.891264 0.282724
0.866447 0.893579 0.283291
0.908656 0.890718 0.282578
0.933939 0.875607 0.278919
0.962043 0.873966 0.278486
0.968926 0.871461 0.277879
0.974897 0.869126 0.277293
0.436319 0.812693 0.262290
0.445455 0.817276 0.263390
0.461623 0.834312 0.267433
0.479735 0.854752 0.272293
0.499521 0.878127 0.277961
0.517524 0.898277 0.282834
0.532573 0.913313 0.286530
0.610065 0.924372 0.289240
0.724906 0.930944 0.290873
0.807820 0.933158 0.291394
0.869854 0.935430 0.291945
0.915002 0.938298 0.292673
0.947128 0.931931 0.291067
0.966077 0.916030 0.287158
0.977942 0.914458 0.286758
0.983995 0.912698 0.286358
0.456111 0.854132 0.270625
0.465203 0.858681 0.271686
0.481217 0.875356 0.275714
0.498802 0.894897 0.280436
0.518373 0.917812 0.286027
0.535774 0.936943 0.290731
0.550597 0.951569 0.294335
0.617262 0.961738 0.296847
0.730458 0.967727 0.298338
0.811177 0.970371 0.298995
0.871769 0.972301 0.299462
0.916196 0.975287 0.300198
0.954493 0.975996 0.300366
0.980204 0.968029 0.298404
0.986133 0.952952 0.294668
0.991878 0.949961 0.293932
0.147369 0.149200 0.193787
0.154225 0.149109 0.193877
0.161981 0.149078 0.194096
0.170249 0.149072 0.194253
0.184039 0.149059 0.193975
0.212934 0.148991 0.191681
0.279453 0.148633 0.189021
0.373011 0.147774 0.185012
0.475482 0.147247 0.180296
0.571967 0.147247 0.179586
0.652875 0.147247 0.179826
0.722318 0.147247 0.180179
0.781734 0.147247 0.181012
0.834420 0.147247 0.182766
0.878791 0.147247 0.183246
0.889494 0.147247 0.183836
0.147371 0.156156 0.193798
0.154338 0.156120 0.193462
0.161947 0.156029 0.193661
0.170214 0.156001 0.193838
0.183931 0.155968 0.193417
0.212909 0.155836 0.191141
0.279504 0.155421 0.188424
0.373028 0.154515 0.184550
0.475469 0.153929 0.179790
0.572105 0.153910 0.179249
0.653084 0.153907 0.179551
0.722536 0.153882 0.179875
0.781951 0.153874 0.180465
0.834656 0.153872 0.182352
0.878959 0.153870 0.182863
0.889494 0.153868 0.183566
0.147400 0.163965 0.193987
0.154350 0.163923 0.193591
0.161980 0.163827 0.193426
0.170229 0.163739 0.193603
0.184230 0.163590 0.192773
0.214866 0.163277 0.190412
0.282951 0.162602 0.187452
0.376179 0.161507 0.183718
0.477338 0.160847 0.179307
0.573637 0.160794 0.178848
0.654191 0.160736 0.179155
0.723338 0.160667 0.179514
0.782603 0.160604 0.179960
0.835084 0.160569 0.181597
0.879367 0.160504 0.182519
0.889494 0.160462 0.183316
0.147950 0.174352 0.194399
0.154505 0.174172 0.193942
0.161979 0.174037 0.193696
0.170264 0.174002 0.193544
0.184576 0.173194 0.192213
0.218421 0.171728 0.189615
0.291316 0.170375 0.185965
0.389117 0.169026 0.181928
0.490535 0.168308 0.178573
0.583920 0.168070 0.178590
0.661099 0.167841 0.178836
0.727314 0.167623 0.179239
0.784616 0.167451 0.179681
0.836367 0.167329 0.180983
0.880195 0.167238 0.182276
0.889494 0.167132 0.183096
0.150273 0.188619 0.193047
0.156716 0.188394 0.192638
0.163276 0.188495 0.192486
0.170511 0.189261 0.192485
0.184052 0.190060 0.192524
0.221111 0.187746 0.188936
0.301929 0.183346 0.183371
0.409282 0.178116 0.178924
0.516576 0.176231 0.177462
0.609378 0.175858 0.177554
0.685011 0.175579 0.178013
0.749442 0.175372 0.178526
0.804765 0.175179 0.179082
0.853858 0.174983 0.179955
0.882729 0.174822 0.181308
0.889496 0.174703 0.182411
0.157095 0.211998 0.192189
0.163501 0.211650 0.191690
0.170202 0.212098 0.191258
0.177607 0.214424 0.190761
0.186607 0.218403 0.190794
0.221874 0.220072 0.188626
0.312201 0.214250 0.180289
0.431271 0.204867 0.178140
0.545790 0.195086 0.177379
0.641110 0.191225 0.177746
0.716960 0.187366 0.177926
0.779490 0.185761 0.178322
0.834528 0.184922 0.178676
0.875179 0.184102 0.179522
0.883089 0.183104 0.179898
0.889576 0.182710 0.180818
0.169801 0.250845 0.191892
0.176162 0.250401 0.191256
0.183372 0.252038 0.190598
0.192205 0.257538 0.189697
0.203398 0.268500 0.189644
0.227436 0.279718 0.188095
0.318844 0.283053 0.185021
0.454016 0.271622 0.177049
0.578240 0.256220 0.176495
0.673713 0.246196 0.177263
0.749261 0.236448 0.178681
0.811471 0.227714 0.179697
0.863746 0.221924 0.180280
0.877544 0.216639 0.181632
0.883824 0.209756 0.182273
0.890196 0.207117 0.182359
0.192341 0.309129 0.190642
0.198718 0.308770 0.190162
0.206895 0.312382 0.189783
0.218314 0.322880 0.189387
0.235088 0.344535 0.190904
0.254258 0.368724 0.191616
0.334047 0.386579 0.193030
0.469906 0.388695 0.192885
