example_ofxGpuLutCube/bin/data/ofxGpuLutCube/LUT/A24 (blue deep fade).cube
LUT_3D_SIZE 6
0.196167 0.198853 0.204498
0.201453 0.198730 0.204809
0.307117 0.197565 0.202490
0.557874 0.196167 0.199908
0.789380 0.196167 0.203986
0.985518 0.196167 0.212477
0.196167 0.208386 0.203260
0.200040 0.207901 0.203505
0.310505 0.200452 0.200236
0.566984 0.197076 0.198723
0.795082 0.196782 0.202904
0.989307 0.196576 0.212255
0.196167 0.263171 0.202075
0.199522 0.273719 0.202882
0.332290 0.292135 0.201431
0.658204 0.265486 0.197633
0.897222 0.251002 0.203790
0.999969 0.230215 0.207862
0.196167 0.448395 0.211920
0.201412 0.493596 0.219354
0.410082 0.598397 0.232338
0.734760 0.609569 0.235815
0.970998 0.578561 0.204080
0.999969 0.549229 0.198471
0.217572 0.703674 0.243457
0.252810 0.760567 0.253634
0.491211 0.831762 0.255823
0.812526 0.850962 0.256676
0.970795 0.830453 0.256200
0.999969 0.819098 0.248880
0.271699 0.901963 0.261207
0.316884 0.954637 0.268884
0.542400 0.993676 0.265502
0.837838 0.986603 0.262646
0.991404 0.979059 0.266290
0.999969 0.951294 0.263977
0.196167 0.198944 0.219239
0.199285 0.198854 0.219617
0.286699 0.198518 0.216018
0.548723 0.196326 0.208941
0.789365 0.196167 0.211504
0.987723 0.196167 0.218432
0.196167 0.209045 0.218861
0.199377 0.208735 0.219286
0.303617 0.203311 0.213676
0.568909 0.197694 0.208630
0.799370 0.197031 0.211395
0.991471 0.196618 0.218237
0.196167 0.268326 0.219018
0.198884 0.278886 0.217784
0.330183 0.306193 0.215898
0.663673 0.276913 0.205271
0.906022 0.255897 0.212997
0.999969 0.232960 0.214993
0.196167 0.466488 0.231576
0.199275 0.510016 0.237973
0.404191 0.622954 0.257053
0.740416 0.635853 0.260113
0.971803 0.604157 0.219009
0.999969 0.571124 0.205636
0.214176 0.723095 0.272638
0.245600 0.775962 0.280455
0.481541 0.854958 0.285288
0.811358 0.873896 0.282866
0.970084 0.857164 0.283353
0.999969 0.840515 0.270148
0.267616 0.918947 0.293625
0.305848 0.970501 0.298555
0.522399 0.994228 0.300855
0.832578 0.986974 0.290259
0.988297 0.979710 0.294381
0.999969 0.954484 0.292001
0.196167 0.199225 0.284149
0.198645 0.198938 0.287920
0.257556 0.199608 0.297413
0.502182 0.206107 0.306124
0.766269 0.207493 0.313022
0.994044 0.204741 0.315912
0.196167 0.209618 0.293567
0.198895 0.210174 0.297364
0.271941 0.211690 0.310363
0.539309 0.216777 0.316679
0.791830 0.215210 0.318335
0.999747 0.207796 0.317130
0.196167 0.284313 0.315935
0.198812 0.293253 0.320913
0.278761 0.332894 0.340352
0.641314 0.322115 0.340437
0.898573 0.306200 0.337631
0.999969 0.275342 0.323033
0.196167 0.491809 0.350509
0.198814 0.536501 0.367386
0.323683 0.662010 0.400758
0.713865 0.683850 0.407626
0.969144 0.650563 0.342589
0.999969 0.619661 0.303225
0.202141 0.744774 0.400845
0.228734 0.796465 0.413803
0.412601 0.884409 0.430908
0.776962 0.902737 0.437631
0.967651 0.888548 0.439025
0.999969 0.873895 0.414383
0.250861 0.936600 0.405704
0.283448 0.988954 0.415588
0.455767 0.999768 0.440700
0.795585 0.990974 0.448791
0.982342 0.985166 0.452016
0.999969 0.965396 0.449959
0.196167 0.200428 0.439020
0.198364 0.199734 0.448778
0.238941 0.200882 0.469594
0.474863 0.211184 0.506196
0.712737 0.235678 0.545442
0.911374 0.260755 0.569618
0.196167 0.212136 0.465123
0.198788 0.212627 0.476178
0.252123 0.213532 0.502805
0.524942 0.230641 0.547268
0.750180 0.255415 0.575578
0.913848 0.274013 0.586033
0.196167 0.298418 0.516732
0.198834 0.310377 0.533422
0.265089 0.354799 0.573918
0.591996 0.390813 0.623039
0.826264 0.403431 0.644539
0.918211 0.390598 0.638014
0.196167 0.533241 0.586091
0.198834 0.574572 0.610935
0.280067 0.682666 0.656196
0.659757 0.719954 0.681426
0.921965 0.697298 0.666337
0.987536 0.673472 0.649096
0.198488 0.754042 0.617959
0.221286 0.803814 0.641220
0.382200 0.894878 0.672827
0.716147 0.923934 0.692548
0.937467 0.914482 0.687973
0.999572 0.902801 0.667722
0.247666 0.943956 0.625483
0.277282 0.992028 0.646503
0.420008 0.999969 0.676451
0.732777 0.999969 0.694934
0.969688 0.993412 0.692963
0.999969 0.980637 0.691337
0.196167 0.203534 0.633423
0.198277 0.202366 0.647102
0.244149 0.204868 0.676123
0.480449 0.217023 0.706064
0.731765 0.245419 0.772953
0.912575 0.269726 0.801982
0.196167 0.221245 0.663695
0.199038 0.223399 0.678423
0.254338 0.226404 0.712087
0.525439 0.245563 0.748221
0.778680 0.283142 0.814481
0.913855 0.293754 0.828289
0.196167 0.319921 0.715127
0.198956 0.335604 0.735136
0.266129 0.383693 0.781424
0.581358 0.413538 0.824086
0.837110 0.452352 0.869841
0.921325 0.437253 0.868691
0.196167 0.556889 0.790864
0.198956 0.601156 0.818607
0.283390 0.705630 0.864622
0.646628 0.730196 0.884003
0.882583 0.737866 0.892833
0.944821 0.725632 0.891343
0.201140 0.786150 0.831077
0.229722 0.831021 0.851995
0.384192 0.901236 0.868762
0.693893 0.927304 0.884843
0.905107 0.930479 0.893202
0.969735 0.922304 0.888021
0.247499 0.945850 0.817041
0.278156 0.993071 0.839039
0.411635 0.999969 0.868512
0.703850 0.999969 0.886510
0.933151 0.999364 0.894427
0.991523 0.992065 0.890634
0.196167 0.208278 0.789046
0.198187 0.206772 0.804853
0.245423 0.209823 0.837720
0.487629 0.224125 0.870257
0.719436 0.249025 0.912714
0.920467 0.277155 0.970811
0.196167 0.231825 0.821829
0.199146 0.234766 0.838521
0.254784 0.236602 0.874061
0.532885 0.258689 0.913554
0.765362 0.290692 0.950874
0.891889 0.310109 0.968437
0.196167 0.338809 0.874661
0.199048 0.356854 0.895976
0.268523 0.405951 0.921262
0.587861 0.428201 0.949685
0.824706 0.459830 0.974873
0.906639 0.470639 0.981413
0.196167 0.575880 0.949217
0.199048 0.620133 0.966220
0.295230 0.717511 0.983906
0.649461 0.734334 0.989454
0.874689 0.740946 0.989219
0.940624 0.743388 0.990966
0.206263 0.796619 0.989515
0.239231 0.841981 0.990723
0.393529 0.918513 0.992195
0.695417 0.935770 0.992300
0.900495 0.934895 0.995099
0.957403 0.937820 0.998748
0.254975 0.974680 0.990320
0.279006 0.999893 0.977586
0.414490 0.999969 0.974536
0.707501 0.999969 0.985736
0.921338 0.999969 0.992517
0.976562 0.996124 0.991577
