example_ofxGpuLutCube/bin/data/ofxGpuLutCube/LUT/A24 (blue deep fade).cube
LUT_3D_SIZE 16
0.196167 0.198853 0.204498
0.196814 0.198820 0.204651
0.198135 0.198788 0.204689
0.201453 0.198730 0.204809
0.213753 0.198598 0.204789
0.249237 0.198222 0.204000
0.307117 0.197565 0.202490
0.384300 0.196407 0.200250
0.471024 0.196167 0.199294
0.557874 0.196167 0.199908
0.637878 0.196167 0.201080
0.715423 0.196167 0.202307
0.789380 0.196167 0.203986
0.862893 0.196167 0.206970
0.931648 0.196167 0.208948
0.985518 0.196167 0.212477
0.196167 0.199858 0.204393
0.196691 0.199821 0.204490
0.197978 0.199590 0.204554
0.200947 0.199378 0.204699
0.212348 0.199025 0.204792
0.246759 0.198595 0.203898
0.303539 0.197873 0.202301
0.380718 0.196713 0.200251
0.467704 0.196361 0.199263
0.555260 0.196341 0.199851
0.635772 0.196328 0.201061
0.713917 0.196296 0.202284
0.788166 0.196271 0.203909
0.862281 0.196263 0.206959
0.931516 0.196232 0.208946
0.985747 0.196200 0.212504
0.196167 0.203196 0.203996
0.196686 0.203186 0.204124
0.197834 0.202740 0.204039
0.200565 0.201982 0.204105
0.212239 0.201060 0.203684
0.247306 0.199466 0.202831
0.304486 0.198232 0.201222
0.381558 0.197085 0.199636
0.467435 0.196735 0.199124
0.554341 0.196652 0.199694
0.635001 0.196597 0.201032
0.713323 0.196532 0.202274
0.787728 0.196465 0.203826
0.862225 0.196427 0.206968
0.931922 0.196364 0.208952
0.986457 0.196297 0.212510
0.196167 0.208386 0.203260
0.196662 0.208384 0.203413
0.197852 0.208168 0.203394
0.200040 0.207901 0.203505
0.211822 0.206498 0.202864
0.249105 0.203981 0.201540
0.310505 0.200452 0.200236
0.392161 0.197900 0.198632
0.480450 0.197338 0.198542
0.566984 0.197076 0.198723
0.646613 0.196885 0.199322
0.722630 0.196825 0.200906
0.795082 0.196782 0.202904
0.866878 0.196727 0.206394
0.935688 0.196651 0.208577
0.989307 0.196576 0.212255
0.196167 0.217442 0.202517
0.196654 0.217450 0.202523
0.197848 0.217550 0.202581
0.200144 0.218560 0.202616
0.211079 0.218295 0.202151
0.251422 0.215341 0.199916
0.319542 0.210175 0.198666
0.409284 0.204174 0.198380
0.504285 0.200071 0.198477
0.592013 0.199600 0.198872
0.674640 0.198648 0.199571
0.751320 0.198119 0.200664
0.825066 0.197824 0.202151
0.896680 0.197541 0.204562
0.962352 0.197315 0.206630
0.999840 0.197102 0.209260
0.196167 0.234171 0.202159
0.196635 0.234280 0.202139
0.197865 0.235318 0.202283
0.199711 0.238163 0.202136
0.211604 0.241212 0.202092
0.250125 0.241713 0.200988
0.327362 0.235254 0.197713
0.430655 0.225890 0.197535
0.530026 0.217950 0.198248
0.621462 0.215495 0.198845
0.707665 0.210066 0.199412
0.786776 0.205883 0.201158
0.862549 0.203951 0.203078
0.932398 0.201304 0.205487
0.989981 0.201719 0.207357
0.999969 0.200668 0.208373
0.196167 0.263171 0.202075
0.196664 0.263589 0.202133
0.197874 0.266613 0.202629
0.199522 0.273719 0.202882
0.211105 0.283666 0.203021
0.256832 0.292608 0.202885
0.332290 0.292135 0.201431
0.448954 0.283949 0.197510
0.564505 0.271361 0.197186
0.658204 0.265486 0.197633
0.743712 0.262604 0.199129
0.822039 0.257340 0.201733
0.897222 0.251002 0.203790
0.966185 0.242283 0.206557
0.999534 0.237145 0.207893
0.999969 0.230215 0.207862
0.196167 0.308809 0.203131
0.196680 0.309853 0.203540
0.197908 0.316169 0.204379
0.199509 0.330390 0.205285
0.209457 0.351055 0.206332
0.262842 0.369359 0.206515
0.354265 0.385409 0.209057
0.462209 0.383727 0.207082
0.587945 0.375860 0.199681
0.697265 0.364627 0.197328
0.788809 0.351595 0.196844
0.867895 0.343020 0.197490
0.939239 0.341256 0.200254
0.992568 0.336196 0.203978
0.999969 0.327591 0.205912
0.999969 0.318455 0.206476
0.196167 0.373904 0.206586
0.196729 0.375859 0.207349
0.197972 0.386559 0.208755
0.199607 0.406964 0.210248
0.208747 0.437396 0.212825
0.273709 0.467393 0.215580
0.379759 0.493724 0.219570
0.497885 0.503813 0.222544
0.608042 0.502359 0.220523
0.718743 0.496448 0.211611
0.814215 0.484950 0.203481
0.898411 0.472161 0.197826
0.964608 0.458614 0.196874
0.998706 0.440066 0.196747
0.999969 0.429197 0.196747
0.999969 0.420302 0.196973
0.196167 0.448395 0.211920
0.196807 0.451493 0.213233
0.198176 0.466701 0.215866
0.201412 0.493596 0.219354
0.217429 0.532608 0.224549
0.292952 0.568660 0.228587
0.410082 0.598397 0.232338
0.540615 0.618112 0.236643
0.643113 0.613397 0.238172
0.734760 0.609569 0.235815
0.825515 0.600848 0.225507
0.906796 0.588502 0.212913
0.970998 0.578561 0.204080
0.999232 0.566084 0.199590
0.999969 0.557500 0.199080
0.999969 0.549229 0.198471
0.196920 0.533000 0.222585
0.197750 0.536994 0.224583
0.201839 0.555835 0.227723
0.214386 0.585968 0.232235
0.239796 0.627933 0.238328
0.319919 0.660970 0.241703
0.438929 0.687158 0.243663
0.563903 0.702475 0.244889
0.680862 0.711847 0.247456
0.755082 0.696167 0.247931
0.833279 0.691118 0.246246
0.912424 0.685074 0.235878
0.972007 0.677159 0.223460
0.999310 0.668486 0.214867
0.999969 0.662669 0.213272
0.999969 0.657030 0.212164
0.201678 0.620776 0.233994
0.205078 0.626201 0.236778
0.215959 0.649119 0.241149
0.232546 0.678240 0.245102
0.263578 0.714273 0.249395
0.350087 0.741968 0.251745
0.463929 0.762127 0.251745
0.591030 0.776835 0.251621
0.701752 0.784207 0.253184
0.791900 0.783857 0.253503
0.849216 0.765895 0.251971
0.916483 0.763438 0.251992
0.971258 0.759314 0.243691
0.999208 0.755830 0.236495
0.999969 0.751799 0.235018
0.999969 0.747848 0.233959
0.217572 0.703674 0.243457
0.222740 0.709684 0.246580
0.235652 0.733380 0.250002
0.252810 0.760567 0.253634
0.294143 0.790725 0.257563
0.379578 0.812813 0.257402
0.491211 0.831762 0.255823
0.615752 0.844676 0.256332
0.721301 0.849590 0.256574
0.812526 0.850962 0.256676
0.883598 0.850565 0.257814
0.924818 0.833216 0.258487
0.970795 0.830453 0.256200
0.999111 0.824322 0.250377
0.999969 0.821672 0.249450
0.999969 0.819098 0.248880
0.234050 0.779117 0.250405
0.242014 0.785860 0.254448
0.259904 0.810560 0.258458
0.280013 0.834647 0.261236
0.327749 0.859929 0.262842
0.408235 0.879339 0.263690
0.517061 0.894388 0.260222
0.636381 0.905580 0.258613
0.741825 0.910932 0.259715
0.825001 0.911604 0.259345
0.894187 0.912954 0.259613
0.946263 0.914096 0.261237
0.972587 0.894117 0.260523
0.999061 0.888260 0.260495
0.999969 0.886642 0.260435
0.999969 0.885032 0.260372
0.256522 0.842668 0.257247
0.264376 0.849191 0.261119
0.280906 0.872576 0.262939
0.300233 0.895375 0.264524
0.347978 0.919450 0.266371
0.426168 0.938944 0.265159
0.533638 0.953520 0.262131
0.649903 0.962166 0.260789
0.754576 0.966705 0.261110
0.834892 0.968831 0.261817
0.899102 0.969070 0.262943
0.949189 0.971423 0.264930
0.990381 0.969869 0.265459
0.999909 0.945815 0.263410
0.999969 0.943872 0.263204
0.999969 0.943089 0.263113
0.271699 0.901963 0.261207
0.281273 0.908213 0.265179
0.297521 0.931715 0.267587
0.316884 0.954637 0.268884
0.365181 0.977237 0.269797
0.442822 0.994268 0.268166
0.542400 0.993676 0.265502
0.656283 0.990748 0.262528
0.758676 0.988306 0.261959
0.837838 0.986603 0.262646
0.900368 0.984090 0.263753
0.949810 0.982609 0.265137
0.991404 0.979059 0.266290
0.999969 0.954094 0.264237
0.999969 0.951294 0.263977
0.999969 0.951294 0.263977
0.196167 0.198883 0.206530
0.196659 0.198820 0.206588
0.197970 0.198788 0.206613
0.200866 0.198732 0.206571
0.211033 0.198661 0.206308
0.244548 0.198316 0.205471
0.301568 0.197725 0.203797
0.378620 0.196524 0.201379
0.466117 0.196167 0.200123
0.553856 0.196167 0.200664
0.634556 0.196167 0.201844
0.713052 0.196167 0.202910
0.787474 0.196167 0.204454
0.861829 0.196167 0.207512
0.931188 0.196167 0.209312
0.985583 0.196167 0.212711
0.196167 0.199921 0.206431
0.196684 0.199820 0.206487
0.197909 0.199598 0.206456
0.200799 0.199388 0.206419
0.211132 0.199104 0.206240
0.244891 0.198641 0.205226
0.301865 0.198002 0.203564
0.379103 0.196767 0.201225
0.466507 0.196361 0.200049
0.554326 0.196342 0.200598
0.635037 0.196309 0.201797
0.713411 0.196296 0.202882
0.787748 0.196267 0.204378
0.862058 0.196240 0.207456
0.931474 0.196230 0.209257
0.985760 0.196200 0.212684
0.196167 0.203109 0.205914
0.196657 0.203020 0.206042
0.197795 0.202830 0.206210
0.200454 0.202082 0.206057
0.211199 0.201150 0.205706
0.245839 0.199697 0.204614
0.302914 0.198576 0.203156
0.379909 0.197243 0.200971
0.466359 0.196751 0.200017
0.553816 0.196674 0.200653
0.634533 0.196604 0.201953
0.713070 0.196531 0.203031
0.787474 0.196464 0.204452
0.862182 0.196401 0.207650
0.931955 0.196357 0.209475
0.986447 0.196297 0.212872
0.196167 0.208292 0.205057
0.196649 0.208206 0.205183
0.197785 0.208206 0.205443
0.199945 0.208042 0.205568
0.210719 0.206608 0.204998
0.247884 0.204053 0.203091
0.309378 0.200549 0.201611
0.391028 0.197931 0.199354
0.479749 0.197339 0.198977
0.566532 0.197127 0.199380
0.646035 0.197047 0.200879
0.722332 0.196977 0.202454
0.794397 0.196890 0.204174
0.866708 0.196760 0.207437
0.935807 0.196653 0.209445
0.989419 0.196571 0.212965
0.196167 0.217437 0.204209
0.196624 0.217267 0.204173
0.197780 0.217602 0.204463
0.199970 0.218581 0.204536
0.210110 0.218503 0.204254
0.250300 0.215506 0.201255
0.318481 0.210376 0.199537
0.408505 0.204184 0.198941
0.503733 0.200076 0.198990
0.591629 0.199591 0.199615
0.674252 0.198647 0.200523
0.751062 0.198103 0.201546
0.824776 0.197806 0.202999
0.896594 0.197532 0.205403
0.962349 0.197306 0.207364
0.999840 0.197102 0.209981
0.196167 0.234420 0.203853
0.196622 0.234267 0.203775
0.197795 0.235331 0.204020
0.199609 0.238208 0.203870
0.210625 0.241350 0.203826
0.249178 0.241997 0.202651
0.326402 0.235736 0.198317
0.429425 0.226661 0.198110
0.529605 0.217898 0.198823
0.621249 0.215485 0.199705
0.707587 0.210042 0.200447
0.786752 0.205834 0.202184
0.862471 0.203871 0.204103
0.932627 0.201268 0.206521
0.990067 0.201706 0.208316
0.999969 0.200645 0.209260
0.196167 0.263682 0.203875
0.196592 0.263741 0.203728
0.197804 0.266759 0.204304
0.199442 0.273919 0.204630
0.209865 0.284052 0.204942
0.255440 0.293204 0.204730
0.331188 0.293214 0.203025
0.448308 0.285001 0.198094
0.564133 0.272575 0.197628
0.657734 0.266576 0.198111
0.743548 0.263422 0.200142
0.822312 0.257494 0.202954
0.897641 0.250872 0.205063
0.966506 0.242311 0.207826
0.999548 0.237180 0.209082
0.999969 0.230193 0.208879
0.196167 0.309822 0.204794
0.196591 0.310366 0.204914
0.197851 0.316630 0.206271
0.199419 0.330827 0.207299
0.208300 0.351893 0.208662
0.260496 0.370226 0.208568
0.352780 0.386699 0.211285
0.461903 0.385879 0.209452
0.587863 0.377695 0.200862
0.697659 0.366536 0.197809
0.788808 0.353398 0.197246
0.868270 0.344329 0.197931
0.939265 0.342758 0.201343
0.992614 0.337407 0.205483
0.999969 0.328278 0.207282
0.999969 0.318874 0.207653
0.196167 0.375340 0.208526
0.196594 0.376502 0.208720
0.197916 0.387215 0.210896
0.199479 0.407591 0.212444
0.208030 0.438314 0.215176
0.271281 0.468616 0.218230
0.378152 0.495155 0.222242
0.498464 0.506864 0.225628
0.608067 0.504914 0.223673
0.719255 0.498942 0.214285
0.814838 0.487184 0.205006
0.899008 0.474018 0.198435
0.965164 0.460314 0.197243
0.998756 0.441613 0.197067
0.999969 0.430660 0.197065
0.999969 0.421773 0.197345
0.196167 0.450376 0.214273
0.196601 0.452363 0.214580
0.198085 0.467430 0.218292
0.201201 0.494328 0.222084
0.216359 0.533531 0.227532
0.289957 0.569888 0.231840
0.408252 0.600116 0.235610
0.539427 0.620049 0.240277
0.643188 0.615779 0.241627
0.735549 0.612165 0.239388
0.826264 0.603332 0.228645
0.906969 0.590944 0.215461
0.971167 0.580841 0.205704
0.999247 0.568451 0.200894
0.999969 0.559551 0.199971
0.999969 0.550994 0.199191
0.196966 0.534896 0.225216
0.197490 0.538047 0.225958
0.201489 0.556677 0.230910
0.213082 0.586768 0.235434
0.238101 0.628867 0.241761
0.317096 0.662472 0.245364
0.437410 0.688429 0.247097
0.562831 0.704017 0.248460
0.680549 0.713507 0.250866
0.756269 0.698811 0.251613
0.833835 0.693834 0.250295
0.912216 0.688176 0.239637
0.971778 0.679978 0.226647
0.999285 0.671350 0.217647
0.999969 0.665281 0.215771
0.999969 0.659243 0.214356
0.201477 0.622870 0.237147
0.203522 0.627738 0.238060
0.214210 0.650015 0.244392
0.230338 0.678985 0.248421
0.261768 0.715464 0.253144
0.348378 0.743599 0.255713
0.461838 0.763571 0.255383
0.589828 0.778480 0.255362
0.701360 0.785919 0.256772
0.791945 0.785871 0.257313
0.850043 0.769054 0.255592
0.916296 0.766545 0.255959
0.970926 0.762047 0.247395
0.999189 0.758791 0.240233
0.999969 0.754725 0.238522
0.999969 0.750331 0.237123
0.217192 0.706173 0.246796
0.220867 0.711342 0.247544
0.235098 0.734567 0.253587
0.252190 0.761709 0.257327
0.291287 0.792514 0.261567
0.377008 0.814669 0.261589
0.488856 0.833728 0.259809
0.614444 0.846880 0.260158
0.720634 0.851903 0.260654
0.812013 0.852930 0.260334
0.883159 0.853458 0.261425
0.925038 0.837073 0.262486
0.970483 0.833651 0.259939
0.999090 0.827384 0.254384
0.999969 0.824416 0.253172
0.999969 0.821658 0.252367
0.234426 0.781804 0.254388
0.239359 0.787728 0.255145
0.258769 0.811957 0.262281
0.279155 0.836356 0.265319
0.324346 0.862409 0.267064
0.405955 0.882024 0.267926
0.514448 0.896994 0.264360
0.634711 0.908217 0.262569
0.741168 0.913566 0.263889
0.824604 0.914485 0.263562
0.893628 0.915947 0.263580
0.945798 0.917444 0.265504
0.972756 0.898073 0.264545
0.999036 0.891703 0.264611
0.999969 0.889603 0.264329
0.999969 0.887839 0.264016
0.255930 0.845418 0.261108
0.261637 0.851325 0.261617
0.280541 0.874656 0.267162
0.299563 0.897615 0.268769
0.344589 0.922437 0.270675
0.423399 0.941575 0.269664
0.531239 0.956251 0.266435
0.647799 0.965251 0.265068
0.753449 0.969535 0.265231
0.834361 0.971738 0.266219
0.898000 0.972185 0.266955
0.948443 0.974833 0.269138
0.989841 0.973294 0.269750
0.999908 0.949504 0.267674
0.999969 0.947153 0.267401
0.999969 0.946085 0.266970
0.270799 0.904809 0.264688
0.277504 0.910704 0.265727
0.297464 0.933783 0.271952
0.316327 0.956698 0.273587
0.361991 0.980349 0.274793
0.439945 0.996310 0.272617
0.538837 0.993786 0.270081
0.653791 0.990992 0.266732
0.757603 0.988444 0.266124
0.837510 0.986736 0.266926
0.899029 0.984094 0.267957
0.948992 0.982645 0.269762
0.990539 0.979370 0.270277
0.999969 0.954750 0.268331
0.999969 0.951909 0.268021
0.999969 0.951908 0.268019
0.196167 0.198914 0.211601
0.196596 0.198822 0.211694
0.197713 0.198796 0.211828
0.200026 0.198794 0.211551
0.208584 0.198755 0.210665
0.238795 0.198486 0.209350
0.295524 0.198030 0.207418
0.373041 0.196824 0.204361
0.461486 0.196299 0.202331
0.550263 0.196184 0.202386
0.631665 0.196167 0.203401
0.710885 0.196167 0.204209
0.785969 0.196167 0.205570
0.861005 0.196167 0.208671
0.930929 0.196167 0.210252
0.985782 0.196167 0.213460
0.196167 0.199980 0.211500
0.196653 0.199882 0.211538
0.197689 0.199706 0.211690
0.199979 0.199623 0.211303
0.208777 0.199359 0.210476
0.239400 0.198865 0.208952
0.296136 0.198325 0.207062
0.373856 0.197081 0.204069
0.462267 0.196496 0.202172
0.551097 0.196379 0.202269
0.632422 0.196357 0.203363
0.711606 0.196328 0.204163
0.786510 0.196299 0.205486
0.861505 0.196271 0.208627
0.931449 0.196261 0.210197
0.986230 0.196230 0.213427
0.196167 0.203335 0.211238
0.196656 0.203200 0.211302
0.197722 0.203010 0.211490
0.200018 0.202493 0.211000
0.209721 0.201753 0.210257
0.242603 0.200327 0.208451
0.300728 0.198928 0.206437
0.378316 0.197493 0.203537
0.465250 0.196859 0.202018
0.553014 0.196685 0.202179
0.633985 0.196604 0.203335
0.712729 0.196532 0.204168
0.787354 0.196468 0.205439
0.862236 0.196402 0.208590
0.932028 0.196362 0.210191
0.986666 0.196301 0.213409
0.196167 0.208347 0.210127
0.196648 0.208269 0.210251
0.197680 0.208365 0.210589
0.199661 0.208362 0.210853
0.209701 0.206960 0.209901
0.245793 0.204415 0.207384
0.308942 0.200988 0.205103
0.390772 0.198228 0.202272
0.479802 0.197618 0.201693
0.566597 0.197422 0.202200
0.645766 0.197238 0.203428
0.722114 0.197084 0.204199
0.794232 0.196919 0.205500
0.866624 0.196778 0.208678
0.935890 0.196684 0.210472
0.989525 0.196597 0.213759
0.196167 0.217732 0.209132
0.196622 0.217558 0.209046
0.197643 0.217937 0.209252
0.199588 0.219062 0.209703
0.209012 0.219329 0.209537
0.248330 0.216351 0.205525
0.318475 0.211218 0.202909
0.409960 0.204506 0.201460
0.505754 0.200200 0.201089
0.593254 0.199631 0.201648
0.675133 0.198666 0.202220
0.751356 0.198104 0.202853
0.824630 0.197799 0.204123
0.896521 0.197505 0.206418
0.962379 0.197308 0.208237
0.999840 0.197154 0.211039
0.196167 0.235438 0.209090
0.196620 0.235279 0.208948
0.197613 0.236260 0.208742
0.199373 0.239520 0.208966
0.209248 0.243098 0.208654
0.247644 0.244262 0.207087
0.326910 0.238006 0.200728
0.431053 0.228981 0.200115
0.532574 0.218816 0.201035
0.623907 0.216046 0.202165
0.709793 0.210375 0.202583
0.788200 0.205965 0.203979
0.863015 0.203864 0.205603
0.933071 0.201238 0.207831
0.990175 0.201651 0.209395
0.999969 0.200611 0.210248
0.196167 0.265994 0.209049
0.196592 0.266022 0.208899
0.197587 0.268872 0.208492
0.199273 0.276563 0.209160
0.208093 0.287896 0.209835
0.253944 0.298080 0.209592
0.332086 0.298959 0.207917
0.451432 0.290270 0.200134
0.567401 0.277391 0.198936
0.660748 0.270934 0.199804
0.746755 0.266180 0.202405
0.824904 0.259319 0.205375
0.899860 0.251694 0.207260
0.967473 0.242735 0.209612
0.999569 0.237304 0.210505
0.999969 0.230134 0.209977
0.196167 0.314395 0.209576
0.196589 0.314911 0.209660
0.197565 0.320909 0.210273
0.199265 0.335677 0.212563
0.206317 0.358359 0.214480
0.256840 0.378043 0.214721
0.353322 0.395717 0.217596
0.466463 0.396400 0.215979
0.593143 0.386871 0.204541
0.702577 0.374773 0.199465
0.792927 0.360324 0.198197
0.872075 0.349781 0.199060
0.941569 0.347339 0.203547
0.993157 0.340335 0.207757
0.999969 0.329589 0.209059
0.999969 0.319285 0.209052
0.196167 0.381642 0.213847
0.196589 0.382874 0.213982
0.197574 0.393099 0.215064
0.199325 0.413895 0.218417
0.206105 0.446406 0.221716
0.268055 0.478214 0.225760
0.379091 0.505434 0.229833
0.505100 0.520472 0.234267
0.614355 0.517388 0.232536
0.725182 0.510325 0.221457
0.819609 0.496897 0.209571
0.902562 0.482113 0.200569
0.967216 0.467338 0.197988
0.998810 0.447561 0.197624
0.999969 0.434925 0.197586
0.999969 0.424587 0.197783
0.196167 0.458209 0.220619
0.196590 0.460179 0.220834
0.197608 0.474248 0.222939
0.200510 0.501740 0.229302
0.215059 0.542205 0.235612
0.286074 0.579569 0.240555
0.409200 0.610738 0.244766
0.542446 0.631028 0.249459
0.648079 0.627363 0.251028
0.740646 0.623509 0.248943
0.830413 0.614052 0.236725
0.908825 0.601451 0.222307
0.971462 0.590846 0.210594
0.999272 0.577438 0.204006
0.999969 0.567021 0.202173
0.999969 0.556603 0.200716
0.197032 0.543042 0.232368
0.197565 0.546202 0.232990
0.199934 0.564231 0.236132
0.210783 0.594813 0.243465
0.234627 0.637530 0.250436
0.314402 0.672441 0.254922
0.436609 0.697838 0.256280
0.565371 0.713414 0.257268
0.683914 0.722437 0.259413
0.762780 0.710157 0.260642
0.836664 0.705661 0.260353
0.911994 0.700092 0.249203
0.971495 0.690838 0.234535
0.999260 0.680722 0.223964
0.999969 0.673263 0.221105
0.999969 0.665769 0.218749
0.201685 0.632149 0.245952
0.203643 0.636827 0.246580
0.211386 0.657233 0.249385
0.228390 0.686173 0.256666
0.257541 0.723201 0.262329
0.345217 0.752774 0.265048
0.460962 0.772925 0.264473
0.591421 0.787931 0.264387
0.704146 0.794526 0.265557
0.796285 0.795541 0.266233
0.854273 0.782039 0.265029
0.916924 0.779400 0.265466
0.970599 0.773122 0.256510
0.999165 0.768246 0.248157
0.999969 0.763430 0.245754
0.999969 0.758150 0.243559
0.216489 0.714588 0.256753
0.220303 0.719914 0.257269
0.232067 0.742193 0.259576
0.252004 0.769563 0.267099
0.283814 0.802195 0.271506
0.373688 0.825157 0.272155
0.487297 0.843927 0.269139
0.615076 0.857019 0.269290
0.722465 0.861991 0.269721
0.813725 0.862819 0.269080
0.885154 0.865108 0.270166
0.928050 0.851566 0.271606
0.970226 0.845836 0.269173
0.999063 0.838019 0.263584
0.999969 0.833853 0.261297
0.999969 0.829976 0.259481
0.234970 0.789734 0.266598
0.239778 0.795859 0.267088
0.254840 0.819322 0.269559
0.278210 0.844046 0.276435
0.314431 0.873026 0.277727
0.402137 0.893086 0.278337
0.511422 0.908446 0.274520
0.633309 0.918909 0.271595
0.741841 0.924535 0.272923
0.824834 0.925482 0.272752
0.893743 0.926886 0.272280
0.945704 0.929831 0.274458
0.973961 0.911863 0.273691
0.999012 0.903575 0.273006
0.999969 0.900511 0.272055
0.999969 0.897434 0.270894
0.254385 0.852987 0.273211
0.259949 0.859070 0.273392
0.275616 0.881780 0.274300
0.297820 0.905885 0.280504
0.334147 0.933414 0.281781
0.418961 0.952835 0.280575
0.526945 0.967209 0.276918
0.645630 0.975920 0.274748
0.752427 0.980148 0.274043
0.835250 0.982168 0.275191
0.897204 0.982088 0.275762
0.947498 0.981316 0.278133
0.989327 0.978225 0.278712
0.999925 0.954410 0.276739
0.999969 0.951597 0.276381
0.999969 0.951322 0.275250
0.269561 0.912431 0.276583
0.275897 0.918509 0.277050
0.291943 0.941235 0.278916
0.314662 0.964602 0.285547
0.352931 0.991102 0.286092
0.432588 0.997012 0.283231
0.532891 0.993874 0.279726
0.649701 0.990870 0.275823
0.754998 0.988482 0.274546
0.836849 0.986830 0.275530
0.897928 0.984157 0.276073
0.947873 0.982765 0.278432
0.989585 0.979524 0.278968
0.999969 0.955782 0.277053
0.999969 0.952915 0.276727
0.999969 0.952915 0.276721
0.196167 0.198944 0.219239
0.196558 0.198822 0.219334
0.197615 0.198796 0.219607
0.199285 0.198854 0.219617
0.206365 0.198859 0.219153
0.230489 0.198777 0.217725
0.286699 0.198518 0.216018
0.366240 0.197613 0.212372
0.456760 0.196855 0.209398
0.548723 0.196326 0.208941
0.632731 0.196167 0.209979
0.712696 0.196167 0.210073
0.789365 0.196167 0.211504
0.864007 0.196167 0.214676
0.933361 0.196167 0.215780
0.987723 0.196167 0.218432
0.196167 0.200018 0.219162
0.196643 0.199938 0.219176
0.197616 0.199678 0.219433
0.199277 0.199801 0.219428
0.206479 0.199740 0.218912
0.231057 0.199367 0.217298
0.287622 0.198880 0.215470
0.367480 0.197883 0.211940
0.457903 0.197095 0.209165
0.550022 0.196537 0.208766
0.633836 0.196390 0.209862
0.713791 0.196359 0.209986
0.790153 0.196332 0.211361
0.864722 0.196305 0.214565
0.934195 0.196293 0.215655
0.988356 0.196261 0.218317
0.196167 0.203407 0.219138
0.196648 0.203254 0.219141
0.197672 0.203093 0.219432
0.199333 0.203069 0.219420
0.207228 0.202651 0.218723
0.234627 0.201641 0.216920
0.293510 0.200087 0.214501
0.374418 0.198390 0.211049
0.463507 0.197515 0.208821
0.554109 0.196897 0.208594
0.636037 0.196675 0.209783
0.715460 0.196600 0.209858
0.791176 0.196531 0.211214
0.865625 0.196470 0.214457
0.935125 0.196427 0.215531
0.988981 0.196361 0.218179
0.196167 0.209045 0.218861
0.196643 0.208868 0.218873
0.197671 0.208781 0.219159
0.199377 0.208735 0.219286
0.207873 0.207924 0.218481
0.239422 0.206067 0.216441
0.303617 0.203311 0.213676
0.388593 0.199581 0.209662
0.479500 0.198284 0.208436
0.568909 0.197694 0.208630
0.649823 0.197412 0.209978
0.726436 0.197207 0.209998
0.799370 0.197031 0.211395
0.870758 0.196869 0.214500
0.938703 0.196725 0.215590
0.991471 0.196618 0.218237
0.196167 0.218338 0.217716
0.196622 0.218127 0.217574
0.197639 0.218451 0.217879
0.199180 0.219480 0.218144
0.207388 0.220128 0.218667
0.242772 0.217475 0.215076
0.315717 0.212658 0.210484
0.410212 0.205556 0.207104
0.508709 0.201223 0.206679
0.597967 0.199896 0.207701
0.679732 0.199124 0.208721
0.756806 0.198531 0.209585
0.829878 0.198293 0.211204
0.900942 0.197968 0.213715
0.965285 0.197799 0.215339
0.999866 0.197613 0.217841
0.196167 0.236513 0.218567
0.196620 0.236333 0.218407
0.197613 0.237309 0.218330
0.199001 0.240603 0.218059
0.207090 0.245059 0.218203
0.242379 0.246744 0.215606
0.324365 0.240916 0.207368
0.431032 0.232170 0.206119
0.535719 0.221010 0.206433
0.628623 0.217350 0.207514
0.714804 0.211559 0.207935
0.793791 0.206940 0.209346
0.868960 0.204757 0.211084
0.938840 0.201662 0.212959
0.992756 0.202081 0.214387
0.999969 0.200827 0.214616
0.196167 0.268326 0.219018
0.196592 0.268295 0.218904
0.197583 0.271188 0.218557
0.198884 0.278886 0.217784
0.205592 0.291750 0.218432
0.246302 0.302720 0.217954
0.330183 0.306193 0.215898
0.451649 0.296516 0.205199
0.567963 0.284231 0.203543
0.663673 0.276913 0.205271
0.751389 0.271591 0.208066
0.830143 0.263820 0.210906
0.906022 0.255897 0.212997
0.972587 0.246566 0.215659
0.999773 0.240485 0.216091
0.999969 0.232960 0.214993
0.196167 0.318968 0.219765
0.196589 0.319439 0.219831
0.197552 0.325980 0.220484
0.198807 0.340472 0.220883
0.204224 0.364823 0.223529
0.246957 0.386918 0.224357
0.348489 0.404926 0.226158
0.465745 0.407586 0.225156
