example_ofxGpuLutCube/bin/data/ofxGpuLutCube/LUT/A25 (bright blue fade).cube
LUT_3D_SIZE 16
0.055511 0.074219 0.083313
0.075320 0.074970 0.084023
0.110536 0.076206 0.083844
0.173370 0.078082 0.080506
0.287431 0.074282 0.076945
0.426717 0.058126 0.072072
0.520819 0.047675 0.072296
0.575995 0.044299 0.073816
0.617588 0.044279 0.075999
0.652942 0.043915 0.077081
0.685679 0.042704 0.078847
0.716172 0.042039 0.080689
0.744879 0.041809 0.082910
0.772610 0.041942 0.085155
0.799683 0.042598 0.087148
0.826683 0.043211 0.090163
0.057440 0.090114 0.083292
0.076056 0.091170 0.084198
0.102152 0.092391 0.084518
0.146081 0.094125 0.081643
0.214077 0.094975 0.075275
0.322756 0.091372 0.074734
0.441035 0.081059 0.073740
0.524694 0.068395 0.073255
0.585399 0.061989 0.075891
0.630841 0.060020 0.077613
0.671247 0.056602 0.078299
0.706632 0.053932 0.080372
0.739018 0.052822 0.082376
0.770764 0.051730 0.085418
0.798827 0.051662 0.087491
0.826342 0.051781 0.090251
0.061774 0.112103 0.084591
0.081021 0.113334 0.085095
0.108240 0.114605 0.084574
0.153159 0.117014 0.079914
0.222913 0.117702 0.071367
0.330035 0.116005 0.072510
0.445140 0.110950 0.073780
0.528683 0.100031 0.073912
0.587968 0.096352 0.077947
0.635732 0.094080 0.079490
0.676019 0.086453 0.079688
0.712094 0.076671 0.080967
0.744277 0.069976 0.082525
0.776023 0.067490 0.085867
0.806011 0.066431 0.088572
0.833857 0.065549 0.091386
0.067688 0.140888 0.087237
0.088694 0.142197 0.087374
0.116587 0.143442 0.086442
0.163785 0.147079 0.082137
0.243047 0.149036 0.073035
0.357255 0.148161 0.068860
0.468832 0.144937 0.068838
0.548112 0.142277 0.073220
0.603402 0.142771 0.077461
0.651747 0.143627 0.079583
0.692019 0.140277 0.082542
0.730030 0.137086 0.086071
0.761768 0.130000 0.087342
0.791899 0.122002 0.089989
0.820381 0.112093 0.091089
0.846931 0.104242 0.093068
0.078060 0.181150 0.091127
0.100868 0.183900 0.092001
0.133647 0.187274 0.091548
0.185779 0.193972 0.090448
0.283602 0.200696 0.083112
0.410110 0.198166 0.067415
0.513341 0.194423 0.065538
0.580818 0.193837 0.069747
0.632406 0.195658 0.075097
0.679243 0.198743 0.077593
0.718379 0.199370 0.081800
0.755601 0.200916 0.086384
0.787236 0.200047 0.090365
0.815793 0.195690 0.093392
0.843475 0.190897 0.096037
0.870141 0.186567 0.098408
0.093211 0.243185 0.103597
0.122697 0.251307 0.105157
0.172143 0.263940 0.106270
0.243685 0.284805 0.110700
0.365455 0.312636 0.114767
0.492130 0.315141 0.098057
0.579688 0.302919 0.078133
0.637671 0.291420 0.069610
0.686534 0.286213 0.067475
0.729783 0.289968 0.067938
0.764923 0.289327 0.071055
0.797858 0.287529 0.074406
0.826176 0.285677 0.080068
0.850949 0.283754 0.084393
0.875094 0.283788 0.090545
0.900337 0.285036 0.097721
0.137928 0.345850 0.131744
0.190000 0.365916 0.136064
0.259983 0.392926 0.143255
0.350273 0.425294 0.153954
0.461985 0.461175 0.169091
0.567267 0.482501 0.173785
0.642264 0.478677 0.153407
0.694437 0.473797 0.138210
0.737215 0.470586 0.127206
0.777802 0.464655 0.115028
0.811625 0.458557 0.105270
0.841459 0.451877 0.098464
0.869101 0.445205 0.092472
0.893344 0.438338 0.089061
0.914162 0.430472 0.088025
0.934680 0.425548 0.090389
0.235187 0.471588 0.173822
0.310117 0.496002 0.182621
0.388705 0.522750 0.194747
0.456701 0.544135 0.205114
0.536878 0.568853 0.219574
0.623793 0.589385 0.231258
0.683218 0.597151 0.234087
0.729059 0.596467 0.222056
0.768437 0.593444 0.206863
0.805406 0.591769 0.196874
0.837436 0.588109 0.184236
0.866037 0.583207 0.169891
0.891930 0.578139 0.157025
0.914038 0.573603 0.146456
0.933973 0.567922 0.135852
0.952086 0.562395 0.129249
0.353377 0.575873 0.223975
0.420577 0.596620 0.235914
0.477829 0.614768 0.246268
0.533439 0.631375 0.255581
0.600357 0.648695 0.267317
0.664227 0.659305 0.274802
0.710746 0.664019 0.277200
0.748311 0.664051 0.273581
0.782732 0.663575 0.266294
0.817318 0.662198 0.254142
0.849782 0.659901 0.240953
0.877099 0.657209 0.230323
0.902514 0.654054 0.219296
0.923787 0.651536 0.210736
0.943736 0.649334 0.203739
0.960074 0.646567 0.196378
0.443988 0.657727 0.276568
0.493824 0.672134 0.286543
0.541872 0.683741 0.291651
0.593645 0.693429 0.296938
0.644153 0.702422 0.300888
0.690257 0.707133 0.304474
0.730465 0.710236 0.305540
0.764401 0.710398 0.304372
0.796004 0.710964 0.301490
0.827280 0.711201 0.297624
0.856997 0.709831 0.289359
0.884129 0.706939 0.276426
0.909270 0.704701 0.266682
0.930116 0.703544 0.260658
0.949558 0.701803 0.254653
0.964620 0.698902 0.246323
0.503692 0.717489 0.316498
0.550376 0.724771 0.317784
0.594625 0.731377 0.319403
0.634918 0.737340 0.322850
0.674554 0.743182 0.325591
0.713515 0.746528 0.328257
0.747764 0.748025 0.326762
0.779537 0.749203 0.326609
0.809215 0.749832 0.324851
0.838774 0.750421 0.323417
0.864919 0.750085 0.322747
0.890218 0.748203 0.317240
0.914551 0.746240 0.306864
0.934914 0.745243 0.301075
0.953019 0.744461 0.298411
0.967824 0.742948 0.294434
0.558521 0.762856 0.343536
0.598754 0.767917 0.343576
0.633215 0.772223 0.345288
0.665495 0.776260 0.347079
0.700779 0.779091 0.348754
0.734138 0.780759 0.349609
0.763328 0.781957 0.348130
0.792914 0.783456 0.347530
0.821486 0.783942 0.346520
0.848708 0.784415 0.346204
0.873405 0.784532 0.346511
0.896990 0.783459 0.346676
0.918793 0.782408 0.344707
0.938581 0.781310 0.338885
0.955585 0.780093 0.334839
0.970286 0.779118 0.332856
0.604291 0.802637 0.367828
0.635117 0.805504 0.368124
0.663689 0.808340 0.368307
0.692598 0.810799 0.369829
0.722493 0.812352 0.370116
0.750759 0.813562 0.369818
0.778103 0.814596 0.371002
0.806440 0.816245 0.370626
0.832980 0.817279 0.369762
0.856898 0.816954 0.368522
0.880505 0.816854 0.368947
0.902945 0.816740 0.370635
0.923597 0.815888 0.370853
0.941466 0.814581 0.370631
0.957452 0.812758 0.367951
0.971933 0.810976 0.365615
0.636597 0.836102 0.389660
0.662418 0.838048 0.390089
0.688100 0.840117 0.390046
0.714392 0.841584 0.390378
0.740466 0.842462 0.389736
0.765868 0.843384 0.389704
0.791486 0.844896 0.390014
0.817528 0.846354 0.389422
0.841658 0.846441 0.388728
0.863990 0.846102 0.387827
0.886311 0.846386 0.388217
0.908110 0.846324 0.390426
0.927195 0.845861 0.392727
0.944275 0.844821 0.393904
0.959417 0.843374 0.395297
0.972832 0.841960 0.396564
0.661440 0.866285 0.412219
0.685057 0.867752 0.412129
0.708766 0.868816 0.411291
0.732931 0.869782 0.410715
0.756389 0.870127 0.409616
0.779159 0.870794 0.408486
0.802916 0.872267 0.407926
0.826392 0.873397 0.408003
0.848300 0.873388 0.407944
0.869869 0.872844 0.407577
0.891447 0.872564 0.407994
0.911974 0.872370 0.409948
0.929977 0.871816 0.412772
0.946701 0.871199 0.415647
0.961381 0.870173 0.417852
0.973702 0.869183 0.420000
0.679633 0.893366 0.430703
0.703173 0.893806 0.429676
0.726046 0.894349 0.428837
0.748400 0.895325 0.428596
0.770332 0.895944 0.428347
0.791251 0.896301 0.427451
0.811846 0.897153 0.426815
0.832760 0.897989 0.426529
0.853261 0.898506 0.426762
0.874643 0.898280 0.427483
0.895916 0.897524 0.428421
0.915901 0.896810 0.429531
0.932614 0.896016 0.431628
0.948468 0.895272 0.434530
0.962542 0.894377 0.437005
0.974276 0.893685 0.439532
0.054881 0.075198 0.100282
0.074663 0.076165 0.100396
0.106858 0.077666 0.100602
0.169841 0.079704 0.098731
0.291519 0.075449 0.093889
0.427014 0.059610 0.085940
0.513715 0.049738 0.085999
0.570110 0.044777 0.086598
0.614668 0.043927 0.089160
0.651286 0.044204 0.090039
0.684244 0.043126 0.092084
0.715482 0.042307 0.093780
0.745213 0.041977 0.096059
0.773446 0.042090 0.098700
0.800888 0.042791 0.101188
0.827920 0.043427 0.104744
0.056259 0.090332 0.100155
0.074525 0.091507 0.100743
0.099675 0.093049 0.101849
0.139634 0.094797 0.100543
0.208631 0.096605 0.095994
0.320162 0.093040 0.091979
0.441166 0.081922 0.087751
0.525040 0.069603 0.086718
0.585719 0.061794 0.088928
0.631243 0.059445 0.090802
0.671351 0.056614 0.091413
0.706778 0.054092 0.093791
0.739203 0.053065 0.096084
0.771390 0.051859 0.099446
0.800215 0.051873 0.102075
0.827643 0.052426 0.104986
0.059186 0.111356 0.101628
0.078511 0.112841 0.102288
0.104175 0.114899 0.103582
0.145016 0.117438 0.100467
0.215368 0.119050 0.093096
0.324626 0.117525 0.090833
0.443589 0.111692 0.088949
0.528271 0.100861 0.087954
0.587318 0.095360 0.091351
0.635442 0.092318 0.092960
0.675492 0.085611 0.093146
0.711780 0.076030 0.094750
0.744220 0.069797 0.096665
0.776067 0.067263 0.100227
0.806918 0.066419 0.103319
0.834802 0.065973 0.106133
0.064521 0.139761 0.105465
0.085950 0.141877 0.105885
0.111596 0.143922 0.105770
0.156140 0.147118 0.101440
0.235560 0.149178 0.091134
0.350692 0.148276 0.087427
0.464890 0.145517 0.086234
0.546110 0.141238 0.088875
0.601776 0.141220 0.092683
0.650779 0.142281 0.094546
0.691439 0.138897 0.097198
0.728986 0.135124 0.100688
0.761054 0.127863 0.101804
0.791096 0.119986 0.104249
0.819803 0.109855 0.105256
0.847081 0.102487 0.107559
0.074364 0.179595 0.110631
0.097459 0.183248 0.111898
0.125543 0.186668 0.111927
0.174397 0.192488 0.110136
0.271427 0.199194 0.102178
0.400603 0.197061 0.086160
0.506997 0.193538 0.082543
0.576814 0.192734 0.085816
0.628295 0.196239 0.092690
0.675899 0.198809 0.095541
0.715930 0.198959 0.099239
0.753512 0.200166 0.103629
0.786214 0.199084 0.106179
0.814949 0.194876 0.109342
0.842705 0.189126 0.111399
0.869985 0.184574 0.113780
0.089752 0.240209 0.122777
0.114801 0.248679 0.125994
0.154979 0.260550 0.128234
0.224109 0.279094 0.130987
0.345746 0.307964 0.135842
0.481681 0.311783 0.116250
0.572374 0.298555 0.094200
0.631842 0.287661 0.085545
0.680886 0.284443 0.084973
0.725026 0.287724 0.086516
0.761332 0.288097 0.090804
0.794618 0.288005 0.094415
0.824042 0.287330 0.099724
0.848944 0.284743 0.104334
0.873250 0.284073 0.110746
0.898943 0.284675 0.117212
0.128304 0.343516 0.155596
0.167092 0.362791 0.162531
0.234094 0.389055 0.170065
0.326066 0.421577 0.179638
0.444789 0.458713 0.193412
0.556620 0.483445 0.200247
0.637116 0.479544 0.176922
0.690771 0.471899 0.156067
0.733648 0.468963 0.144792
0.774770 0.462204 0.132381
0.809371 0.455345 0.122208
0.839431 0.450109 0.117550
0.867976 0.443424 0.112144
0.892197 0.436893 0.109149
0.913175 0.430128 0.108109
0.934203 0.427533 0.114298
0.208948 0.471391 0.206178
0.281879 0.495212 0.214950
0.365106 0.521769 0.225658
0.441816 0.546010 0.238032
0.521905 0.570030 0.252460
0.613649 0.592057 0.267360
0.676333 0.601463 0.271197
0.724544 0.599714 0.255842
0.765680 0.595673 0.235616
0.802625 0.593558 0.223663
0.835549 0.589985 0.210408
0.864210 0.585243 0.196891
0.891689 0.580244 0.183361
0.914536 0.576022 0.172837
0.934321 0.570721 0.164180
0.952545 0.564757 0.156676
0.323448 0.577094 0.262218
0.397729 0.597395 0.273936
0.462338 0.616894 0.286086
0.520281 0.634206 0.295977
0.587646 0.651881 0.306959
0.654015 0.662721 0.316036
0.703790 0.668775 0.319238
0.743150 0.668931 0.313860
0.778792 0.667676 0.304415
0.813534 0.666413 0.292350
0.846626 0.664533 0.278559
0.874717 0.661674 0.266826
0.901066 0.658249 0.254702
0.923696 0.655702 0.245711
0.943852 0.653378 0.237872
0.960475 0.649589 0.228353
0.424517 0.660325 0.319038
0.478431 0.674616 0.328026
0.528056 0.686507 0.333950
0.579374 0.697112 0.337999
0.634003 0.705899 0.342530
0.681633 0.710542 0.345612
0.723768 0.714618 0.347569
0.759417 0.714849 0.344817
0.791764 0.715284 0.342032
0.823844 0.715617 0.338161
0.854362 0.714724 0.330175
0.881502 0.712142 0.317543
0.907244 0.709873 0.307091
0.929577 0.708115 0.299542
0.949552 0.706393 0.293035
0.964816 0.703336 0.284331
0.489589 0.720981 0.359857
0.534715 0.728931 0.362631
0.582739 0.735367 0.362886
0.625758 0.741438 0.367073
0.666883 0.747220 0.368938
0.706604 0.750672 0.370378
0.741412 0.752730 0.369767
0.774392 0.753705 0.368769
0.804842 0.754452 0.367415
0.835714 0.755460 0.366355
0.862607 0.755099 0.364618
0.887658 0.753457 0.360135
0.912387 0.751783 0.350860
0.933773 0.750454 0.343842
0.952832 0.748948 0.339202
0.967885 0.747436 0.334920
0.543743 0.766780 0.387842
0.587127 0.771648 0.387153
0.624624 0.776168 0.388183
0.658680 0.780490 0.391031
0.693361 0.783580 0.392097
0.727550 0.785275 0.392081
0.758144 0.786634 0.390231
0.787898 0.787648 0.389593
0.816978 0.788366 0.388598
0.845438 0.789281 0.388213
0.870719 0.789183 0.387941
0.894134 0.788014 0.387574
0.916688 0.787013 0.386483
0.937512 0.786249 0.381266
0.954916 0.784785 0.376364
0.969927 0.783248 0.372512
0.593077 0.806465 0.409869
0.626692 0.809851 0.409692
0.655961 0.812358 0.410088
0.685594 0.814895 0.411279
0.715626 0.816556 0.412508
0.744475 0.817666 0.410656
0.772609 0.818791 0.409169
0.801364 0.819936 0.410130
0.828968 0.820843 0.409830
0.853465 0.821338 0.409579
0.877392 0.821260 0.409499
0.900418 0.820749 0.410548
0.921662 0.819989 0.411065
0.940883 0.818846 0.411247
0.956941 0.817133 0.408878
0.971627 0.815098 0.405179
0.627314 0.840667 0.431887
0.653650 0.842839 0.432299
0.680183 0.844334 0.431902
0.707410 0.845656 0.431511
0.733971 0.846820 0.431427
0.759886 0.847744 0.429639
0.785918 0.848977 0.428456
0.812527 0.850333 0.428367
0.837593 0.850506 0.427883
0.860643 0.850414 0.427320
0.883330 0.850720 0.427353
0.905501 0.850525 0.429063
0.925151 0.849846 0.431311
0.943277 0.848943 0.433202
0.958881 0.847576 0.434994
0.972385 0.846226 0.436598
0.650308 0.870720 0.455329
0.674707 0.872172 0.454781
0.700213 0.872869 0.453285
0.725450 0.873720 0.451958
0.749502 0.874676 0.450427
0.772978 0.875127 0.449172
0.796766 0.875948 0.448299
0.821134 0.877305 0.447386
0.844011 0.877699 0.446546
0.866209 0.877137 0.446086
0.888088 0.876658 0.446850
0.909206 0.876422 0.447768
0.928305 0.875748 0.449689
0.945554 0.875068 0.452598
0.960475 0.874010 0.455196
0.972979 0.873118 0.457455
0.667789 0.897381 0.472444
0.691926 0.897968 0.470759
0.716884 0.898336 0.469025
0.740442 0.899002 0.468065
0.763058 0.899969 0.467303
0.784600 0.900243 0.465971
0.806258 0.900603 0.464807
0.827786 0.901245 0.463828
0.849121 0.901793 0.462789
0.871056 0.901899 0.463103
0.892359 0.901156 0.464542
0.912557 0.900186 0.465572
0.930528 0.899294 0.466218
0.947232 0.898633 0.468002
0.961612 0.897674 0.470552
0.973509 0.897093 0.473480
0.055255 0.076811 0.125102
0.073243 0.078179 0.122990
0.100819 0.079692 0.123073
0.147360 0.081777 0.121746
0.245387 0.083563 0.120246
0.391557 0.071190 0.110071
0.496219 0.056095 0.105680
0.560220 0.047002 0.104378
0.609091 0.044207 0.106453
0.648407 0.044646 0.107074
0.682704 0.043609 0.109035
0.714412 0.042603 0.110135
0.745694 0.042122 0.112545
0.774724 0.042221 0.115641
0.802671 0.042974 0.118639
0.829810 0.043585 0.122688
0.056600 0.091936 0.122961
0.072940 0.093179 0.122745
0.096151 0.095093 0.123839
0.128219 0.096682 0.123652
0.190994 0.099482 0.122052
0.302036 0.098295 0.118297
0.431754 0.085844 0.109407
0.521752 0.073810 0.106314
0.583624 0.063559 0.106255
0.631091 0.059379 0.107979
0.670754 0.057532 0.108250
0.706787 0.054546 0.110904
0.739422 0.053476 0.113071
0.772148 0.052150 0.116565
0.801999 0.052243 0.119479
0.829744 0.052711 0.123136
0.058511 0.112617 0.125007
0.075454 0.114055 0.125321
0.099773 0.116638 0.126816
0.133178 0.119108 0.127315
0.198399 0.122018 0.123445
0.309358 0.121845 0.118298
0.434555 0.114727 0.111246
0.525469 0.104700 0.108296
0.584959 0.096940 0.109262
0.634884 0.091276 0.110518
0.674872 0.086498 0.110543
0.711701 0.076991 0.112426
0.744412 0.070385 0.114542
0.776616 0.067559 0.118249
0.807895 0.066736 0.121604
0.836448 0.066869 0.124674
0.062528 0.140340 0.129710
0.080527 0.142811 0.130167
0.105433 0.145494 0.130692
0.141922 0.149169 0.130682
0.217600 0.152317 0.122387
0.336011 0.151647 0.114966
0.456599 0.149018 0.111761
0.542695 0.143165 0.111635
0.599569 0.141604 0.113134
0.649346 0.141469 0.114318
0.690864 0.138980 0.116039
0.728431 0.134862 0.119722
0.760999 0.127410 0.120806
0.791292 0.119520 0.123012
0.820299 0.109680 0.124295
0.848398 0.103467 0.126683
0.070748 0.179915 0.138176
0.090302 0.184699 0.138242
0.116871 0.189240 0.139161
0.155848 0.194798 0.139364
0.251538 0.201505 0.129855
0.386960 0.200049 0.114586
0.498870 0.197492 0.110540
0.572876 0.194499 0.110837
0.625223 0.197850 0.116347
0.673397 0.200128 0.118269
0.715011 0.200280 0.121337
0.752474 0.200745 0.125678
0.786125 0.199538 0.127392
0.815145 0.195111 0.129776
0.842966 0.188560 0.131279
0.870740 0.183630 0.133776
0.085826 0.240899 0.152704
0.108439 0.248961 0.153192
0.139204 0.262364 0.158671
0.192850 0.280929 0.163706
0.314755 0.310371 0.169127
0.469415 0.317837 0.147001
0.566916 0.303152 0.121713
0.628381 0.293224 0.111863
0.676670 0.292479 0.113136
0.721489 0.293827 0.114329
0.759215 0.294158 0.119602
0.792518 0.293668 0.123365
0.823259 0.294434 0.126925
0.848765 0.291784 0.131546
0.872665 0.286338 0.135499
0.898594 0.285895 0.141842
0.118547 0.344079 0.188497
0.151033 0.363021 0.195355
0.201297 0.390273 0.207404
0.292236 0.423523 0.218812
0.418557 0.461183 0.230980
0.542343 0.491019 0.240552
0.631615 0.489429 0.215700
0.687599 0.478911 0.188695
0.731234 0.473976 0.174394
0.772648 0.467494 0.161644
0.808633 0.459636 0.151289
0.838791 0.455504 0.148344
0.867211 0.450177 0.144033
0.891310 0.445523 0.142139
0.912280 0.439940 0.142477
0.933632 0.437132 0.149723
0.187363 0.474188 0.246349
0.244507 0.497621 0.258791
0.327279 0.523837 0.269769
0.418429 0.549326 0.281023
0.504388 0.573994 0.294264
0.601436 0.597854 0.311477
0.669018 0.608409 0.316498
0.718662 0.607409 0.301320
0.761874 0.602214 0.277328
0.799941 0.598991 0.261441
0.833599 0.594842 0.246310
0.862585 0.590787 0.233416
0.890516 0.585989 0.219107
0.914748 0.581012 0.207364
0.934913 0.575498 0.197662
0.953210 0.568698 0.188075
0.290412 0.580791 0.308588
0.365059 0.600523 0.321321
0.439651 0.620564 0.332699
0.506416 0.638599 0.343339
0.574074 0.656076 0.351955
0.644542 0.668442 0.361716
0.696289 0.674224 0.364196
0.736652 0.675312 0.360686
0.773828 0.673566 0.349441
0.809595 0.671681 0.335938
0.843055 0.670563 0.322800
0.871570 0.667958 0.310711
0.898566 0.664698 0.298246
0.922458 0.661962 0.288346
0.943679 0.658987 0.279626
0.960735 0.654983 0.268916
0.394938 0.664326 0.368893
0.457118 0.678228 0.376748
0.511200 0.690405 0.382415
0.566565 0.701649 0.385939
0.622152 0.710759 0.389405
0.674226 0.716239 0.393263
0.718027 0.720125 0.394312
0.753767 0.721473 0.393232
0.786351 0.720798 0.387865
0.818736 0.720540 0.382251
0.849791 0.720164 0.375194
0.878383 0.717997 0.363815
0.904737 0.715971 0.353545
0.928104 0.714786 0.346137
0.949090 0.713225 0.340355
0.964707 0.709675 0.331346
0.471085 0.724744 0.407511
0.518070 0.733220 0.409975
0.565183 0.740223 0.411491
0.613372 0.746468 0.412351
0.657563 0.752575 0.415899
0.699538 0.755998 0.416967
0.736176 0.758139 0.415911
0.769091 0.759920 0.415727
0.799353 0.759662 0.412953
0.831549 0.760486 0.411137
0.859558 0.760332 0.408643
0.883656 0.758528 0.404216
0.909282 0.756913 0.395264
0.932556 0.756241 0.389091
0.952199 0.754791 0.384037
0.967481 0.752725 0.378457
0.528411 0.770847 0.434958
0.569776 0.776147 0.435157
0.611120 0.780499 0.434043
0.647756 0.784467 0.434513
0.684721 0.788000 0.436251
0.719920 0.789959 0.436475
0.751920 0.791594 0.435379
0.782624 0.793101 0.434605
0.811644 0.793506 0.433393
0.840692 0.794167 0.432065
0.868151 0.794300 0.431199
0.891002 0.793098 0.429802
0.913190 0.791899 0.428409
0.935514 0.791270 0.424466
0.954278 0.790154 0.419992
0.969295 0.788472 0.415742
0.576462 0.810297 0.458741
0.612122 0.813592 0.457869
0.643779 0.816390 0.455642
0.674994 0.818710 0.454653
0.707398 0.820375 0.454649
0.737525 0.821950 0.454862
0.766132 0.823270 0.453383
0.795389 0.825016 0.453283
0.823725 0.825768 0.452784
0.848672 0.826071 0.451504
0.873609 0.826038 0.450794
0.897269 0.825335 0.451019
0.919292 0.824486 0.451855
0.939276 0.823332 0.452154
0.956131 0.821963 0.450686
0.971008 0.820383 0.447329
0.611571 0.844257 0.479375
0.639429 0.846918 0.479636
0.667043 0.848882 0.477175
0.696732 0.849962 0.475228
0.726138 0.850900 0.474053
0.752758 0.852231 0.472188
0.779204 0.853479 0.471052
0.805969 0.854878 0.470803
0.832337 0.855608 0.470090
0.856222 0.855614 0.469170
0.879524 0.855807 0.468528
0.902202 0.855543 0.469254
0.922854 0.854500 0.471039
0.941837 0.853321 0.472668
0.957894 0.851846 0.473804
0.971733 0.850482 0.475142
0.636029 0.874700 0.498054
0.660797 0.876503 0.497782
0.686641 0.877458 0.496173
0.714965 0.877785 0.493782
0.741788 0.878309 0.491794
0.765957 0.879162 0.489467
0.789931 0.879854 0.488087
0.814664 0.880857 0.487145
0.838460 0.881675 0.486144
0.861392 0.881761 0.485970
0.883689 0.881442 0.486483
0.905721 0.881197 0.487066
0.925572 0.880480 0.488125
0.943989 0.879554 0.490321
0.959327 0.878340 0.492745
0.972067 0.877374 0.494749
0.652314 0.900900 0.514717
0.676871 0.901912 0.513759
0.702879 0.902597 0.512493
0.729149 0.902835 0.510576
0.754548 0.903096 0.508933
0.777281 0.903619 0.507128
0.799120 0.903921 0.505448
0.821196 0.904337 0.504123
0.843494 0.905115 0.502972
0.865663 0.905688 0.502634
0.886687 0.905533 0.503978
0.907971 0.904716 0.505222
0.928252 0.904160 0.505754
0.945813 0.903476 0.506886
0.960582 0.902299 0.509306
0.972421 0.901503 0.512290
0.056274 0.078803 0.156269
0.073074 0.079707 0.151521
0.095294 0.081759 0.151772
0.129386 0.083943 0.151490
0.198138 0.087998 0.150865
0.344310 0.085297 0.145480
0.470353 0.072307 0.138786
0.545739 0.058985 0.134610
0.599669 0.049534 0.134400
0.642922 0.047190 0.134241
0.679861 0.045660 0.135846
0.712680 0.044476 0.136710
0.745306 0.044226 0.138804
0.775643 0.044409 0.142778
0.804166 0.045325 0.146144
0.831564 0.046030 0.150794
0.057587 0.094302 0.152544
0.073489 0.095470 0.151033
0.093577 0.097677 0.152286
0.120145 0.099756 0.152785
0.167700 0.102660 0.151847
0.268479 0.105912 0.150094
0.412652 0.099199 0.143184
0.512895 0.086872 0.137565
0.577050 0.075392 0.135431
0.628574 0.066686 0.135945
0.669051 0.063319 0.135757
0.706503 0.058750 0.138332
0.739621 0.056612 0.139801
0.772588 0.055192 0.143812
0.804021 0.055308 0.147469
0.831767 0.055799 0.151428
0.059163 0.115101 0.155208
0.075618 0.116626 0.154661
0.096378 0.119316 0.156101
0.124452 0.122461 0.157646
0.173298 0.125646 0.156815
0.279763 0.128861 0.154376
0.419334 0.123943 0.146335
0.519138 0.114708 0.141416
0.581598 0.105515 0.139108
0.634403 0.096314 0.139178
0.675252 0.092373 0.138606
0.712522 0.084615 0.140458
0.745628 0.077982 0.143573
0.777542 0.073497 0.147155
0.809337 0.071625 0.150405
0.838340 0.071880 0.153576
0.062065 0.142278 0.161177
0.079440 0.144689 0.161153
0.099907 0.147897 0.162119
0.130634 0.152192 0.164164
0.187804 0.156968 0.163739
0.310500 0.159167 0.156685
0.443906 0.156853 0.149233
0.536732 0.151863 0.146689
0.596718 0.147569 0.144403
0.647678 0.143811 0.144285
0.690832 0.141702 0.145311
0.728791 0.137702 0.148759
0.762558 0.131384 0.150941
0.793037 0.124124 0.153276
0.821861 0.114576 0.154602
0.850774 0.110321 0.157490
0.068254 0.181315 0.171212
0.086487 0.185628 0.171759
0.108348 0.191603 0.173172
0.140334 0.198275 0.175571
0.214579 0.207929 0.173881
0.366850 0.208036 0.156203
0.488185 0.205663 0.152915
0.568094 0.200923 0.149977
0.624373 0.202065 0.151640
0.671943 0.202154 0.151915
0.715560 0.202738 0.154219
0.753051 0.202398 0.158576
0.787387 0.199934 0.160688
0.816687 0.196159 0.162031
0.844128 0.190110 0.163147
0.872141 0.185773 0.165132
0.082428 0.243925 0.194006
0.103066 0.251885 0.194088
0.128691 0.265559 0.197744
0.166456 0.284873 0.206582
0.262990 0.315093 0.216003
0.449690 0.332736 0.195885
0.560600 0.314164 0.161537
0.625395 0.304837 0.153413
0.673201 0.306498 0.157155
0.717465 0.307722 0.159139
0.756409 0.307549 0.163282
0.790106 0.304507 0.165563
0.821970 0.303386 0.167343
0.848437 0.299722 0.170450
0.872428 0.291925 0.173262
0.898993 0.290802 0.177432
0.112695 0.350132 0.241519
0.140318 0.367285 0.245034
0.177890 0.392192 0.255096
0.243506 0.428486 0.272886
0.371011 0.467224 0.287907
0.520806 0.501799 0.298333
0.621857 0.503387 0.269774
0.683229 0.493286 0.237578
0.728660 0.482864 0.216019
0.770424 0.477294 0.205035
0.807680 0.470010 0.195207
0.838305 0.466087 0.192092
0.866013 0.462181 0.191218
0.890354 0.457831 0.190015
0.911841 0.454802 0.192451
0.933544 0.452704 0.199127
0.167287 0.477684 0.306393
0.210196 0.499818 0.313446
0.280764 0.527624 0.328680
0.377334 0.556494 0.344057
0.478094 0.579995 0.353408
0.582424 0.605349 0.366288
0.658696 0.617429 0.370887
0.710479 0.618088 0.357861
