example_ofxGpuLutCube/bin/data/ofxGpuLutCube/LUT/A25 (bright blue fade).cube
LUT_3D_SIZE 6
0.055511 0.074219 0.083313
0.173370 0.078082 0.080506
0.520819 0.047675 0.072296
0.652942 0.043915 0.077081
0.744879 0.041809 0.082910
0.826683 0.043211 0.090163
0.067688 0.140888 0.087237
0.163785 0.147079 0.082137
0.468832 0.144937 0.068838
0.651747 0.143627 0.079583
0.761768 0.130000 0.087342
0.846931 0.104242 0.093068
0.137928 0.345850 0.131744
0.350273 0.425294 0.153954
0.642264 0.478677 0.153407
0.777802 0.464655 0.115028
0.869101 0.445205 0.092472
0.934680 0.425548 0.090389
0.443988 0.657727 0.276568
0.593645 0.693429 0.296938
0.730465 0.710236 0.305540
0.827280 0.711201 0.297624
0.909270 0.704701 0.266682
0.964620 0.698902 0.246323
0.604291 0.802637 0.367828
0.692598 0.810799 0.369829
0.778103 0.814596 0.371002
0.856898 0.816954 0.368522
0.923597 0.815888 0.370853
0.971933 0.810976 0.365615
0.679633 0.893366 0.430703
0.748400 0.895325 0.428596
0.811846 0.897153 0.426815
0.874643 0.898280 0.427483
0.932614 0.896016 0.431628
0.974276 0.893685 0.439532
0.056274 0.078803 0.156269
0.129386 0.083943 0.151490
0.470353 0.072307 0.138786
0.642922 0.047190 0.134241
0.745306 0.044226 0.138804
0.831564 0.046030 0.150794
0.062065 0.142278 0.161177
0.130634 0.152192 0.164164
0.443906 0.156853 0.149233
0.647678 0.143811 0.144285
0.762558 0.131384 0.150941
0.850774 0.110321 0.157490
0.112695 0.350132 0.241519
0.243506 0.428486 0.272886
0.621857 0.503387 0.269774
0.770424 0.477294 0.205035
0.866013 0.462181 0.191218
0.933544 0.452704 0.199127
0.347620 0.666750 0.420724
0.545221 0.706393 0.442030
0.708033 0.726337 0.444139
0.813334 0.727380 0.433268
0.901614 0.722076 0.402851
0.964415 0.716407 0.380289
0.554123 0.815664 0.510209
0.657214 0.823382 0.505102
0.756930 0.827751 0.499534
0.842296 0.831569 0.496759
0.915713 0.829621 0.493643
0.969865 0.825640 0.490238
0.635949 0.904222 0.559846
0.713139 0.907003 0.555534
0.790081 0.907681 0.551471
0.857288 0.909515 0.547756
0.922575 0.908790 0.549391
0.970945 0.906646 0.553370
0.065192 0.084277 0.301855
0.120475 0.087526 0.290195
0.341403 0.111609 0.320713
0.572461 0.140571 0.346898
0.695023 0.145844 0.358257
0.792838 0.152262 0.371759
0.069070 0.152545 0.317357
0.126367 0.161159 0.320622
0.329708 0.206129 0.370495
0.596188 0.265672 0.415337
0.729358 0.276680 0.428085
0.826571 0.274190 0.433199
0.110303 0.382696 0.451759
0.199730 0.449395 0.492218
0.480046 0.555496 0.551084
0.721629 0.561464 0.534095
0.836355 0.547879 0.520789
0.913993 0.534028 0.514686
0.263514 0.672511 0.602266
0.435573 0.714551 0.621925
0.628051 0.744798 0.631554
0.770588 0.751512 0.624925
0.873881 0.747342 0.596783
0.952891 0.740891 0.571021
0.494874 0.821423 0.660962
0.594053 0.836878 0.664114
0.696713 0.842563 0.659194
0.804331 0.846627 0.653206
0.887748 0.845674 0.648952
0.955206 0.843345 0.640965
0.595220 0.913793 0.688154
0.658946 0.917909 0.683958
0.740642 0.919791 0.680748
0.825307 0.919840 0.676829
0.902701 0.920426 0.674052
0.961194 0.918412 0.673908
0.077276 0.089295 0.447205
0.126027 0.091947 0.449425
0.235572 0.105377 0.477036
0.553328 0.161575 0.562993
0.681084 0.190570 0.594777
0.774525 0.217519 0.614183
0.080333 0.163927 0.478089
0.131751 0.170208 0.487579
0.239450 0.198661 0.524880
0.594782 0.325128 0.628326
0.722599 0.366926 0.653735
0.812052 0.385185 0.665729
0.120338 0.416757 0.610967
0.192705 0.462150 0.634099
0.381240 0.556748 0.685690
0.673811 0.613571 0.721312
0.786337 0.623261 0.726341
0.866265 0.620555 0.726214
0.247072 0.681571 0.718297
0.394915 0.715961 0.733408
0.584978 0.749930 0.748894
0.724447 0.762881 0.753128
0.831293 0.763319 0.750986
0.916235 0.761555 0.750426
0.473276 0.823441 0.757403
0.569792 0.838670 0.764238
0.663800 0.848048 0.767714
0.764039 0.855347 0.768579
0.858171 0.856317 0.766239
0.933466 0.854091 0.758507
0.579997 0.915619 0.776909
0.639640 0.920155 0.778586
0.714145 0.925403 0.780595
0.791097 0.927383 0.778163
0.877987 0.927253 0.775389
0.945769 0.925974 0.773960
0.085724 0.094892 0.542792
0.132075 0.097555 0.550605
0.221924 0.110882 0.578690
0.541052 0.168493 0.661822
0.686931 0.209387 0.702554
0.784943 0.244402 0.726113
0.089811 0.179226 0.583073
0.138660 0.185913 0.592470
0.236444 0.217093 0.628535
0.587913 0.343704 0.722910
0.729913 0.396014 0.755000
0.822959 0.417308 0.769328
0.131532 0.444313 0.707219
0.202560 0.485761 0.729384
0.376244 0.569110 0.773239
0.662295 0.617761 0.802582
0.784422 0.635318 0.814519
0.867300 0.636709 0.816780
0.247616 0.687764 0.801095
0.379695 0.717222 0.813191
0.570695 0.750237 0.828638
0.713116 0.763626 0.834618
0.816171 0.768194 0.836873
0.897159 0.771203 0.838430
0.462804 0.824688 0.833657
0.557442 0.838669 0.839005
0.652673 0.848818 0.842640
0.753571 0.856857 0.845849
0.838496 0.860035 0.847097
0.915057 0.860377 0.848714
0.567474 0.916434 0.849566
0.628877 0.921569 0.852202
0.702031 0.926095 0.853413
0.780538 0.930012 0.855649
0.856713 0.932317 0.855904
0.930511 0.930483 0.853751
0.094013 0.105206 0.624200
0.139788 0.108214 0.633325
0.225922 0.120925 0.659821
0.543902 0.186891 0.741176
0.689456 0.225203 0.780065
0.793384 0.266319 0.808835
0.099251 0.201915 0.667789
0.148056 0.210897 0.679617
0.244064 0.246006 0.714795
0.592751 0.375212 0.801684
0.732236 0.420753 0.830508
0.829090 0.444904 0.847971
0.146177 0.476062 0.788273
0.220894 0.514812 0.808492
0.388109 0.586696 0.846836
0.661662 0.629379 0.875172
0.779244 0.641845 0.882211
0.869268 0.646697 0.888531
0.257483 0.694779 0.868971
0.379149 0.722274 0.881692
0.569906 0.752521 0.895099
0.707796 0.764448 0.901323
0.809820 0.769596 0.902873
0.893741 0.772499 0.905047
0.466465 0.827924 0.899049
0.555788 0.839228 0.904095
0.647753 0.850293 0.908714
0.747692 0.857417 0.911949
0.835022 0.861211 0.914033
0.907736 0.863225 0.915218
0.568494 0.916963 0.911180
0.628470 0.922794 0.914330
0.695409 0.925926 0.915256
0.777584 0.930775 0.917452
0.852755 0.933910 0.919022
0.922198 0.934110 0.920669
