example_ofxGpuLutCube/bin/data/ofxGpuLutCube/LUT/A26 (bright pink contrast).cube
LUT_3D_SIZE 6
0.000000 0.000000 0.000000
0.269386 0.000000 0.000000
0.701714 0.000000 0.010443
1.000000 0.000000 0.035306
1.000000 0.000000 0.000000
1.000000 0.000000 0.000000
0.000000 0.225147 0.000000
0.198530 0.173956 0.000000
0.698593 0.067760 0.026491
1.000000 0.000000 0.063544
1.000000 0.000000 0.000000
1.000000 0.000000 0.000000
0.000000 0.629734 0.043278
0.000000 0.584014 0.004768
0.546586 0.499701 0.000000
0.990429 0.278705 0.001390
1.000000 0.000000 0.000000
1.000000 0.000000 0.000000
0.000000 1.000000 0.184656
0.000000 1.000000 0.144332
0.000000 1.000000 0.032403
0.948807 0.904457 0.000000
1.000000 0.666072 0.000000
1.000000 0.000000 0.000000
0.000000 1.000000 0.482915
0.000000 1.000000 0.450026
0.000000 1.000000 0.363600
0.039924 1.000000 0.000000
1.000000 1.000000 0.000000
1.000000 0.959068 0.000000
0.000000 1.000000 0.002144
0.000000 1.000000 0.002296
0.000000 1.000000 0.014684
0.000000 1.000000 0.208742
0.005405 1.000000 0.000000
1.000000 1.000000 0.000000
0.000000 0.000000 0.161907
0.261593 0.000000 0.173759
0.701987 0.000000 0.232221
1.000000 0.000000 0.251560
1.000000 0.000000 0.034516
1.000000 0.000000 0.000000
0.000000 0.229848 0.187865
0.181862 0.176878 0.174811
0.690969 0.068841 0.241562
1.000000 0.000000 0.280895
1.000000 0.000000 0.045432
1.000000 0.000000 0.000000
0.000000 0.625419 0.256390
0.000000 0.579983 0.217095
0.535036 0.493968 0.154337
0.986179 0.275126 0.133278
1.000000 0.000000 0.103506
1.000000 0.000000 0.000000
0.000000 1.000000 0.385997
0.000000 1.000000 0.345027
0.000000 1.000000 0.230767
0.939489 0.894944 0.018845
1.000000 0.659142 0.000000
1.000000 0.000000 0.000000
0.000000 1.000000 0.665205
0.000000 1.000000 0.632107
0.000000 1.000000 0.545862
0.038554 1.000000 0.023554
1.000000 1.000000 0.000000
1.000000 0.955990 0.000000
0.000000 1.000000 0.132386
0.000000 1.000000 0.145690
0.000000 1.000000 0.189625
0.000000 1.000000 0.384481
0.005331 1.000000 0.000000
1.000000 1.000000 0.000000
0.000000 0.000000 0.458051
0.251042 0.000000 0.473136
0.716177 0.000000 0.549835
1.000000 0.000000 0.616824
1.000000 0.000000 0.561964
1.000000 0.000000 0.000000
0.000000 0.260543 0.488607
0.138844 0.204192 0.473764
0.680313 0.086375 0.542574
1.000000 0.000000 0.661870
1.000000 0.000000 0.584783
1.000000 0.000000 0.000000
0.000000 0.634418 0.562927
0.000000 0.589766 0.529047
0.519146 0.496676 0.474664
0.983064 0.279893 0.511098
1.000000 0.000000 0.664005
1.000000 0.000000 0.000000
0.000000 1.000000 0.774508
0.000000 1.000000 0.740125
0.000000 1.000000 0.641700
0.915395 0.875208 0.457667
1.000000 0.634922 0.429843
1.000000 0.000000 0.000508
0.000000 1.000000 1.000000
0.000000 1.000000 1.000000
0.000000 1.000000 1.000000
0.034083 1.000000 0.579674
1.000000 1.000000 0.043139
1.000000 0.945955 0.000000
0.000000 1.000000 0.694335
0.000000 1.000000 0.707567
0.000000 1.000000 0.751123
0.000000 1.000000 0.939591
0.005090 1.000000 0.000000
1.000000 1.000000 0.000000
0.000000 0.060288 0.828568
0.096525 0.013264 0.843457
0.709054 0.000000 0.922948
1.000000 0.000000 0.999912
1.000000 0.000000 1.000000
1.000000 0.000000 0.667770
0.000000 0.331319 0.860940
0.005397 0.274987 0.838429
0.619933 0.124744 0.865698
1.000000 0.000000 1.000000
1.000000 0.000000 1.000000
1.000000 0.000000 0.689794
0.000000 0.673282 0.926044
0.000000 0.631002 0.896255
0.466395 0.516843 0.824421
0.983134 0.313098 0.878552
1.000000 0.000000 1.000000
1.000000 0.000000 0.760290
0.000000 1.000000 1.000000
0.000000 1.000000 1.000000
0.000000 1.000000 1.000000
0.892742 0.868392 0.846048
1.000000 0.632175 0.915789
1.000000 0.000000 0.983468
0.000000 1.000000 1.000000
0.000000 1.000000 1.000000
0.000000 1.000000 1.000000
0.019866 1.000000 0.993892
1.000000 1.000000 0.833018
1.000000 0.920413 0.675151
0.000000 1.000000 1.000000
0.000000 1.000000 1.000000
0.000000 1.000000 1.000000
0.000000 1.000000 1.000000
0.004359 1.000000 0.998162
1.000000 1.000000 0.091329
0.000000 0.286937 1.000000
0.000000 0.245927 1.000000
0.519105 0.078276 1.000000
1.000000 0.000000 1.000000
1.000000 0.000000 1.000000
1.000000 0.000000 1.000000
0.000000 0.503888 1.000000
0.000000 0.447873 1.000000
0.356987 0.255054 1.000000
1.000000 0.000000 1.000000
1.000000 0.000000 1.000000
1.000000 0.000000 1.000000
0.000000 0.796541 1.000000
0.000000 0.757698 1.000000
0.096108 0.612720 1.000000
0.965172 0.411432 1.000000
1.000000 0.000000 1.000000
1.000000 0.000000 1.000000
0.000000 1.000000 1.000000
0.000000 1.000000 1.000000
0.000000 1.000000 1.000000
0.847568 0.882224 1.000000
1.000000 0.664801 1.000000
1.000000 0.000000 1.000000
0.000000 1.000000 1.000000
0.000000 1.000000 1.000000
0.000000 1.000000 1.000000
0.000000 1.000000 1.000000
1.000000 1.000000 1.000000
1.000000 0.927066 1.000000
0.000000 1.000000 1.000000
0.000000 1.000000 1.000000
0.000000 1.000000 1.000000
0.000000 1.000000 1.000000
0.003095 1.000000 1.000000
1.000000 1.000000 1.000000
0.000000 0.703630 1.000000
0.000000 0.701746 1.000000
0.000000 0.621581 1.000000
0.970439 0.069313 1.000000
1.000000 0.000000 1.000000
1.000000 0.000000 1.000000
0.000000 0.850673 1.000000
0.000000 0.845199 1.000000
0.000000 0.728678 1.000000
0.884603 0.252608 1.000000
1.000000 0.000000 1.000000
1.000000 0.000000 1.000000
0.000000 1.000000 1.000000
0.000000 0.999945 1.000000
0.000000 0.979667 1.000000
0.792591 0.627119 1.000000
1.000000 0.000000 1.000000
1.000000 0.000000 1.000000
0.000000 1.000000 1.000000
0.000000 1.000000 1.000000
0.000000 1.000000 1.000000
0.264040 0.980630 1.000000
1.000000 0.749897 1.000000
1.000000 0.000000 1.000000
0.000000 1.000000 1.000000
0.000000 1.000000 1.000000
0.000000 1.000000 1.000000
0.000000 1.000000 1.000000
1.000000 1.000000 1.000000
1.000000 0.948583 1.000000
0.000000 1.000000 1.000000
0.000000 1.000000 1.000000
0.000000 1.000000 1.000000
0.000000 1.000000 1.000000
0.000000 1.000000 1.000000
1.000000 1.000000 1.000000
