example_ofxGpuLutCube/bin/data/ofxGpuLutCube/LUT/A26 (bright pink contrast).cube
LUT_3D_SIZE 16
0.000000 0.000000 0.000000
0.017780 0.000000 0.000000
0.142890 0.000000 0.000000
0.269386 0.000000 0.000000
0.400993 0.000000 0.000000
0.543430 0.000000 0.001190
0.701714 0.000000 0.010443
0.840657 0.000000 0.024004
0.965207 0.000000 0.036567
1.000000 0.000000 0.035306
1.000000 0.000000 0.011943
1.000000 0.000000 0.000000
1.000000 0.000000 0.000000
1.000000 0.000000 0.000000
1.000000 0.000000 0.000000
1.000000 0.000000 0.000000
0.000000 0.004985 0.000000
0.004292 0.003280 0.000000
0.115210 0.001130 0.000000
0.261055 0.000000 0.000000
0.399493 0.000000 0.000000
0.548418 0.000000 0.009512
0.710190 0.000000 0.023710
0.853031 0.000000 0.036268
0.973075 0.000000 0.044223
1.000000 0.000000 0.041483
1.000000 0.000000 0.016771
1.000000 0.000000 0.000000
1.000000 0.000000 0.000000
1.000000 0.000000 0.000000
1.000000 0.000000 0.000000
1.000000 0.000000 0.000000
0.000000 0.098362 0.000000
0.000000 0.086095 0.000000
0.078175 0.068990 0.000000
0.239817 0.052722 0.000000
0.388369 0.041324 0.000000
0.545814 0.014223 0.013879
0.712800 0.000765 0.031774
0.865788 0.000000 0.048954
0.985767 0.000000 0.056809
1.000000 0.000000 0.049148
1.000000 0.000000 0.023047
1.000000 0.000000 0.000000
1.000000 0.000000 0.000000
1.000000 0.000000 0.000000
1.000000 0.000000 0.000000
1.000000 0.000000 0.000000
0.000000 0.225147 0.000000
0.000000 0.213304 0.000000
0.027400 0.197364 0.000000
0.198530 0.173956 0.000000
0.355186 0.159661 0.000000
0.519606 0.126891 0.003589
0.698593 0.067760 0.026491
0.870670 0.006682 0.053986
1.000000 0.000000 0.076883
1.000000 0.000000 0.063544
1.000000 0.000000 0.032998
1.000000 0.000000 0.000000
1.000000 0.000000 0.000000
1.000000 0.000000 0.000000
1.000000 0.000000 0.000000
1.000000 0.000000 0.000000
0.000000 0.370164 0.022489
0.000000 0.356738 0.013833
0.004662 0.339585 0.004642
0.139597 0.309862 0.000000
0.311482 0.281407 0.000000
0.461352 0.251018 0.000000
0.625683 0.201836 0.000000
0.824850 0.121078 0.016394
0.997455 0.023417 0.073493
1.000000 0.000000 0.093735
1.000000 0.000000 0.050514
1.000000 0.000000 0.001949
1.000000 0.000000 0.000000
1.000000 0.000000 0.000000
1.000000 0.000000 0.000000
1.000000 0.000000 0.000000
0.000000 0.493324 0.032339
0.000000 0.478678 0.021148
0.000000 0.461821 0.008337
0.029278 0.435695 0.000000
0.238798 0.398416 0.000000
0.419652 0.376655 0.000000
0.581701 0.343630 0.000000
0.748409 0.284715 0.000000
0.907048 0.185768 0.004779
1.000000 0.033269 0.071193
1.000000 0.000000 0.090656
1.000000 0.000000 0.014453
1.000000 0.000000 0.000000
1.000000 0.000000 0.000000
1.000000 0.000000 0.000000
1.000000 0.000000 0.000000
0.000000 0.629734 0.043278
0.000000 0.617987 0.033004
0.000000 0.604645 0.021363
0.000000 0.584014 0.004768
0.080385 0.549128 0.000000
0.349178 0.518482 0.000000
0.546586 0.499701 0.000000
0.736959 0.462264 0.000000
0.869165 0.409949 0.000000
0.990429 0.278705 0.001390
1.000000 0.045061 0.055775
1.000000 0.000000 0.056890
1.000000 0.000000 0.000000
1.000000 0.000000 0.000000
1.000000 0.000000 0.000000
1.000000 0.000000 0.000000
0.000000 0.800102 0.053584
0.000000 0.790303 0.044856
0.000000 0.779060 0.035012
0.000000 0.762132 0.020100
0.000000 0.734479 0.001755
0.158736 0.682521 0.000000
0.467302 0.649860 0.000000
0.692439 0.621549 0.000000
0.852151 0.595042 0.000000
0.983237 0.541945 0.000000
1.000000 0.392732 0.000035
1.000000 0.054962 0.035926
1.000000 0.000000 0.011433
1.000000 0.000000 0.000000
1.000000 0.000000 0.000000
1.000000 0.000000 0.000000
0.000000 0.986912 0.108971
0.000000 0.978437 0.099110
0.000000 0.968570 0.087624
0.000000 0.952697 0.069405
0.000000 0.927014 0.040161
0.000000 0.885205 0.004888
0.277496 0.825214 0.000000
0.617981 0.813226 0.000000
0.837397 0.793850 0.000000
0.977038 0.769938 0.000000
1.000000 0.707516 0.000000
1.000000 0.530390 0.000000
1.000000 0.071827 0.015390
1.000000 0.000000 0.000000
1.000000 0.000000 0.000000
1.000000 0.000000 0.000000
0.000000 1.000000 0.184656
0.000000 1.000000 0.173866
0.000000 1.000000 0.161963
0.000000 1.000000 0.144332
0.000000 1.000000 0.119174
0.000000 1.000000 0.085485
0.000000 1.000000 0.032403
0.425817 0.965294 0.000153
0.780433 0.925035 0.000000
0.948807 0.904457 0.000000
1.000000 0.876917 0.000000
1.000000 0.821168 0.000000
1.000000 0.666072 0.000000
1.000000 0.094908 0.000000
1.000000 0.000000 0.000000
1.000000 0.000000 0.000000
0.000000 1.000000 0.269510
0.000000 1.000000 0.259858
0.000000 1.000000 0.249503
0.000000 1.000000 0.235364
0.000000 1.000000 0.216346
0.000000 1.000000 0.188246
0.000000 1.000000 0.130265
0.000000 1.000000 0.015469
0.532814 1.000000 0.000000
0.891262 1.000000 0.000000
1.000000 0.995890 0.000000
1.000000 0.973378 0.000000
1.000000 0.925936 0.000000
1.000000 0.771986 0.000000
1.000000 0.101610 0.000000
1.000000 0.000000 0.000000
0.000000 1.000000 0.369088
0.000000 1.000000 0.360147
0.000000 1.000000 0.350553
0.000000 1.000000 0.337825
0.000000 1.000000 0.320918
0.000000 1.000000 0.295213
0.000000 1.000000 0.239628
0.000000 1.000000 0.122483
0.014251 1.000000 0.000000
0.643477 1.000000 0.000000
0.980306 1.000000 0.000000
1.000000 1.000000 0.000000
1.000000 1.000000 0.000000
1.000000 0.994778 0.000000
1.000000 0.881015 0.000000
1.000000 0.095623 0.000000
0.000000 1.000000 0.482915
0.000000 1.000000 0.474279
0.000000 1.000000 0.464494
0.000000 1.000000 0.450026
0.000000 1.000000 0.429026
0.000000 1.000000 0.401655
0.000000 1.000000 0.363600
0.000000 1.000000 0.272657
0.000000 1.000000 0.091934
0.039924 1.000000 0.000000
0.767026 1.000000 0.000000
1.000000 1.000000 0.000000
1.000000 1.000000 0.000000
1.000000 1.000000 0.000000
1.000000 1.000000 0.000000
1.000000 0.959068 0.000000
0.000000 1.000000 0.584713
0.000000 1.000000 0.578086
0.000000 1.000000 0.570832
0.000000 1.000000 0.560203
0.000000 1.000000 0.543569
0.000000 1.000000 0.518291
0.000000 1.000000 0.478295
0.000000 1.000000 0.412990
0.000000 1.000000 0.301730
0.000000 1.000000 0.058456
0.054508 1.000000 0.000000
0.870433 1.000000 0.000000
1.000000 1.000000 0.000000
1.000000 1.000000 0.000000
1.000000 1.000000 0.000000
1.000000 1.000000 0.000000
0.000000 1.000000 0.440894
0.000000 1.000000 0.446027
0.000000 1.000000 0.451671
0.000000 1.000000 0.459861
0.000000 1.000000 0.471458
0.000000 1.000000 0.489004
0.000000 1.000000 0.527333
0.000000 1.000000 0.523344
0.000000 1.000000 0.435097
0.000000 1.000000 0.290675
0.000000 1.000000 0.025735
0.046459 1.000000 0.000000
0.936210 1.000000 0.000000
1.000000 1.000000 0.000000
1.000000 1.000000 0.000000
1.000000 1.000000 0.000000
0.000000 1.000000 0.002144
0.000000 1.000000 0.002184
0.000000 1.000000 0.002229
0.000000 1.000000 0.002296
0.000000 1.000000 0.002400
0.000000 1.000000 0.002562
0.000000 1.000000 0.014684
0.000000 1.000000 0.048145
0.000000 1.000000 0.103554
0.000000 1.000000 0.208742
0.000000 1.000000 0.196203
0.000000 1.000000 0.000000
0.005405 1.000000 0.000000
0.998191 1.000000 0.000000
1.000000 1.000000 0.000000
1.000000 1.000000 0.000000
0.000000 0.000000 0.007515
0.011832 0.000000 0.005871
0.138440 0.000000 0.004416
0.267191 0.000000 0.017965
0.399685 0.000000 0.039375
0.543134 0.000000 0.057447
0.701678 0.000000 0.068341
0.840854 0.000000 0.080342
0.965354 0.000000 0.091684
1.000000 0.000000 0.089247
1.000000 0.000000 0.064188
1.000000 0.000000 0.011695
1.000000 0.000000 0.000000
1.000000 0.000000 0.000000
1.000000 0.000000 0.000000
1.000000 0.000000 0.000000
0.000000 0.005232 0.007720
0.003607 0.003610 0.009519
0.110648 0.001386 0.009829
0.258929 0.000000 0.023482
0.398069 0.000000 0.048248
0.547600 0.000000 0.067585
0.709995 0.000000 0.081103
0.853851 0.000000 0.093080
0.973405 0.000000 0.099416
1.000000 0.000000 0.095428
1.000000 0.000000 0.069552
1.000000 0.000000 0.014629
1.000000 0.000000 0.000000
1.000000 0.000000 0.000000
1.000000 0.000000 0.000000
1.000000 0.000000 0.000000
0.000000 0.100099 0.011558
0.000000 0.087793 0.013728
0.073162 0.070879 0.012831
0.236647 0.054012 0.021163
0.386358 0.042520 0.048668
0.544522 0.014669 0.071114
0.712028 0.000810 0.088536
0.865799 0.000000 0.104811
0.986590 0.000000 0.112405
1.000000 0.000000 0.103107
1.000000 0.000000 0.075813
1.000000 0.000000 0.017974
1.000000 0.000000 0.000000
1.000000 0.000000 0.000000
1.000000 0.000000 0.000000
1.000000 0.000000 0.000000
0.000000 0.226333 0.029887
0.000000 0.214559 0.027042
0.023484 0.198558 0.022321
0.194382 0.174813 0.017144
0.352479 0.160129 0.033875
0.517497 0.127296 0.054996
0.696728 0.068165 0.081845
0.870132 0.006908 0.109090
1.000000 0.000000 0.131811
1.000000 0.000000 0.117859
1.000000 0.000000 0.085763
1.000000 0.000000 0.023100
1.000000 0.000000 0.000000
1.000000 0.000000 0.000000
1.000000 0.000000 0.000000
1.000000 0.000000 0.000000
0.000000 0.370029 0.079890
0.000000 0.356354 0.070798
0.003941 0.339134 0.058542
0.133042 0.309442 0.035926
0.307230 0.279979 0.019358
0.457868 0.249736 0.014274
0.622385 0.200798 0.021476
0.822097 0.119941 0.061332
0.996304 0.022945 0.126416
1.000000 0.000000 0.147730
1.000000 0.000000 0.103366
1.000000 0.000000 0.035067
1.000000 0.000000 0.000000
1.000000 0.000000 0.000000
1.000000 0.000000 0.000000
1.000000 0.000000 0.000000
0.000000 0.492164 0.087736
0.000000 0.477492 0.076378
0.000000 0.460818 0.063569
0.025211 0.434933 0.043452
0.233501 0.397245 0.014957
0.416146 0.375456 0.007863
0.578849 0.342468 0.002919
0.746176 0.283580 0.001252
0.904707 0.184761 0.025711
1.000000 0.032653 0.122562
1.000000 0.000000 0.143646
1.000000 0.000000 0.057775
1.000000 0.000000 0.000014
1.000000 0.000000 0.000000
1.000000 0.000000 0.000000
1.000000 0.000000 0.000000
0.000000 0.628764 0.097873
0.000000 0.617033 0.087550
0.000000 0.603570 0.075634
0.000000 0.583138 0.057675
0.076208 0.548384 0.026983
0.345363 0.517336 0.003368
0.543769 0.498455 0.002378
0.734699 0.461065 0.000648
0.867228 0.408831 0.000334
0.989342 0.277859 0.007603
1.000000 0.044606 0.105847
1.000000 0.000000 0.108609
1.000000 0.000000 0.003989
1.000000 0.000000 0.000000
1.000000 0.000000 0.000000
1.000000 0.000000 0.000000
0.000000 0.799218 0.107220
0.000000 0.789293 0.098261
0.000000 0.778253 0.088533
0.000000 0.761339 0.073514
0.000000 0.733517 0.048868
0.152536 0.681452 0.008502
0.463713 0.648325 0.000234
0.689730 0.620174 0.000004
0.850375 0.593845 0.000000
0.981891 0.540751 0.000000
1.000000 0.391686 0.001141
1.000000 0.054641 0.073501
1.000000 0.000000 0.032046
1.000000 0.000000 0.000000
1.000000 0.000000 0.000000
1.000000 0.000000 0.000000
0.000000 0.986011 0.161487
0.000000 0.977434 0.151491
0.000000 0.967559 0.139929
0.000000 0.951522 0.121481
0.000000 0.925916 0.092210
0.000000 0.884168 0.046596
0.273403 0.824136 0.002438
0.615377 0.811941 0.000005
0.835206 0.792184 0.000000
0.975133 0.768007 0.000000
1.000000 0.705784 0.000000
1.000000 0.529463 0.000000
1.000000 0.071685 0.042096
1.000000 0.000000 0.000707
1.000000 0.000000 0.000000
1.000000 0.000000 0.000000
0.000000 1.000000 0.235821
0.000000 1.000000 0.225034
0.000000 1.000000 0.213050
0.000000 1.000000 0.195487
0.000000 1.000000 0.170347
0.000000 1.000000 0.136853
0.000000 1.000000 0.083426
0.420883 0.963553 0.001750
0.777080 0.922622 0.000000
0.946439 0.902008 0.000000
1.000000 0.874517 0.000000
1.000000 0.818865 0.000000
1.000000 0.664333 0.000000
1.000000 0.094475 0.000097
1.000000 0.000000 0.000000
1.000000 0.000000 0.000000
0.000000 1.000000 0.319657
0.000000 1.000000 0.310022
0.000000 1.000000 0.299670
0.000000 1.000000 0.285658
0.000000 1.000000 0.266811
0.000000 1.000000 0.238505
0.000000 1.000000 0.179919
0.000000 1.000000 0.055159
0.527966 1.000000 0.000000
0.888377 1.000000 0.000000
1.000000 0.994287 0.000000
1.000000 0.971803 0.000000
1.000000 0.923948 0.000000
1.000000 0.769824 0.000000
1.000000 0.101338 0.000000
1.000000 0.000000 0.000000
0.000000 1.000000 0.418213
0.000000 1.000000 0.409223
0.000000 1.000000 0.399785
0.000000 1.000000 0.387180
0.000000 1.000000 0.370351
0.000000 1.000000 0.344485
0.000000 1.000000 0.288179
0.000000 1.000000 0.170621
0.014038 1.000000 0.007425
0.639564 1.000000 0.000000
0.978483 1.000000 0.000000
1.000000 1.000000 0.000000
1.000000 1.000000 0.000000
1.000000 0.993900 0.000000
1.000000 0.879013 0.000000
1.000000 0.095651 0.000000
0.000000 1.000000 0.530989
0.000000 1.000000 0.522345
0.000000 1.000000 0.512538
0.000000 1.000000 0.498063
0.000000 1.000000 0.477054
0.000000 1.000000 0.449915
0.000000 1.000000 0.411703
0.000000 1.000000 0.320014
0.000000 1.000000 0.137676
0.039569 1.000000 0.000000
0.763655 1.000000 0.000000
1.000000 1.000000 0.000000
1.000000 1.000000 0.000000
1.000000 1.000000 0.000000
1.000000 1.000000 0.000000
1.000000 0.958255 0.000000
0.000000 1.000000 0.631960
0.000000 1.000000 0.625338
0.000000 1.000000 0.618058
0.000000 1.000000 0.607354
0.000000 1.000000 0.590771
0.000000 1.000000 0.565464
0.000000 1.000000 0.525324
0.000000 1.000000 0.459933
0.000000 1.000000 0.348166
0.000000 1.000000 0.090849
0.054161 1.000000 0.000000
0.868553 1.000000 0.000000
1.000000 1.000000 0.000000
1.000000 1.000000 0.000000
1.000000 1.000000 0.000000
1.000000 1.000000 0.000000
0.000000 1.000000 0.488482
0.000000 1.000000 0.493632
0.000000 1.000000 0.499273
0.000000 1.000000 0.507456
0.000000 1.000000 0.518988
0.000000 1.000000 0.536671
0.000000 1.000000 0.575005
0.000000 1.000000 0.569187
0.000000 1.000000 0.481261
0.000000 1.000000 0.336449
0.000000 1.000000 0.051755
0.046248 1.000000 0.000000
0.935113 1.000000 0.000000
1.000000 1.000000 0.000000
1.000000 1.000000 0.000000
1.000000 1.000000 0.000000
0.000000 1.000000 0.005272
0.000000 1.000000 0.007354
0.000000 1.000000 0.011292
0.000000 1.000000 0.017150
0.000000 1.000000 0.026091
0.000000 1.000000 0.039809
0.000000 1.000000 0.061054
0.000000 1.000000 0.094533
0.000000 1.000000 0.149978
0.000000 1.000000 0.255350
0.000000 1.000000 0.241140
0.000000 1.000000 0.001117
0.005386 1.000000 0.000000
0.997411 1.000000 0.000000
1.000000 1.000000 0.000000
1.000000 1.000000 0.000000
0.000000 0.000000 0.075087
0.007346 0.000000 0.073761
0.133120 0.000000 0.072416
0.264557 0.000000 0.085987
0.398087 0.000000 0.108545
0.542719 0.000000 0.127703
0.701428 0.000000 0.138574
0.840660 0.000000 0.149299
0.965235 0.000000 0.157272
1.000000 0.000000 0.151618
1.000000 0.000000 0.124313
1.000000 0.000000 0.061197
1.000000 0.000000 0.000954
1.000000 0.000000 0.000000
1.000000 0.000000 0.000000
1.000000 0.000000 0.000000
0.000000 0.006404 0.075813
0.002796 0.003912 0.078118
0.105576 0.001678 0.078914
0.255901 0.000000 0.091942
0.396017 0.000000 0.117302
0.546297 0.000000 0.137027
0.709203 0.000000 0.150870
0.854285 0.000000 0.162304
0.973505 0.000000 0.165012
1.000000 0.000000 0.157699
1.000000 0.000000 0.129630
1.000000 0.000000 0.066022
1.000000 0.000000 0.001438
1.000000 0.000000 0.000000
1.000000 0.000000 0.000000
1.000000 0.000000 0.000000
0.000000 0.102008 0.080432
0.000000 0.089641 0.082595
0.067198 0.072738 0.082009
0.232503 0.055031 0.089642
0.383597 0.043345 0.117386
0.542703 0.015121 0.140133
0.710440 0.000854 0.157511
0.865733 0.000000 0.173126
0.987580 0.000000 0.178561
1.000000 0.000000 0.165324
1.000000 0.000000 0.135861
1.000000 0.000000 0.071521
1.000000 0.000000 0.001987
1.000000 0.000000 0.000000
1.000000 0.000000 0.000000
1.000000 0.000000 0.000000
0.000000 0.227346 0.098725
0.000000 0.215423 0.095799
0.018997 0.199539 0.091295
0.189050 0.175392 0.085851
0.348880 0.160021 0.102024
0.514551 0.127298 0.122991
0.694372 0.068359 0.149809
0.868921 0.006850 0.175585
1.000000 0.000000 0.196621
1.000000 0.000000 0.180397
1.000000 0.000000 0.145774
1.000000 0.000000 0.079915
1.000000 0.000000 0.002811
1.000000 0.000000 0.000000
1.000000 0.000000 0.000000
1.000000 0.000000 0.000000
0.000000 0.369465 0.148044
0.000000 0.355563 0.138745
0.003053 0.338346 0.126529
0.125041 0.308298 0.103578
0.301895 0.277871 0.085996
0.453363 0.247809 0.080777
0.618084 0.199012 0.086865
0.818524 0.118156 0.124501
0.994902 0.022293 0.188574
1.000000 0.000000 0.209602
1.000000 0.000000 0.163422
1.000000 0.000000 0.093322
1.000000 0.000000 0.005537
1.000000 0.000000 0.000000
1.000000 0.000000 0.000000
1.000000 0.000000 0.000000
0.000000 0.490392 0.154936
0.000000 0.475808 0.143599
0.000000 0.459211 0.130806
0.020466 0.433481 0.110870
0.227264 0.395570 0.081848
0.411802 0.373671 0.074044
0.575373 0.340871 0.064176
0.743462 0.282142 0.050153
0.902120 0.183528 0.083289
1.000000 0.031862 0.181232
1.000000 0.000000 0.203707
1.000000 0.000000 0.116033
1.000000 0.000000 0.013226
1.000000 0.000000 0.000000
1.000000 0.000000 0.000000
1.000000 0.000000 0.000000
0.000000 0.627240 0.164832
0.000000 0.615494 0.154288
0.000000 0.602137 0.142249
0.000000 0.581770 0.123912
0.071256 0.547299 0.092758
0.340615 0.515682 0.066837
0.540313 0.496683 0.058705
0.731847 0.459289 0.044392
0.865036 0.407475 0.040757
0.988213 0.276985 0.040751
1.000000 0.044088 0.162654
1.000000 0.000000 0.167099
1.000000 0.000000 0.028100
1.000000 0.000000 0.000000
1.000000 0.000000 0.000000
1.000000 0.000000 0.000000
0.000000 0.797896 0.171176
0.000000 0.788050 0.162134
0.000000 0.776981 0.152158
0.000000 0.760043 0.136776
0.000000 0.732300 0.111773
0.146798 0.679904 0.064182
0.459600 0.646395 0.039076
0.686542 0.618496 0.025307
0.848266 0.592332 0.018928
0.980220 0.539249 0.008368
1.000000 0.390440 0.006453
1.000000 0.054259 0.128548
1.000000 0.000000 0.078171
1.000000 0.000000 0.000000
1.000000 0.000000 0.000000
1.000000 0.000000 0.000000
0.000000 0.984753 0.222184
0.000000 0.976244 0.212138
0.000000 0.966098 0.200181
0.000000 0.950181 0.181673
0.000000 0.924530 0.152116
0.000000 0.882813 0.106298
0.268691 0.822813 0.042065
0.612196 0.810241 0.024168
0.832653 0.790176 0.006493
0.972851 0.765733 0.002341
1.000000 0.703826 0.000000
1.000000 0.528279 0.000000
1.000000 0.071426 0.075762
1.000000 0.000000 0.006139
1.000000 0.000000 0.000000
1.000000 0.000000 0.000000
0.000000 1.000000 0.294043
0.000000 1.000000 0.283325
0.000000 1.000000 0.271259
0.000000 1.000000 0.253681
0.000000 1.000000 0.228626
0.000000 1.000000 0.195227
0.000000 1.000000 0.141376
0.415210 0.961686 0.032617
0.773306 0.919929 0.000000
0.943741 0.899233 0.000000
1.000000 0.871818 0.000000
1.000000 0.816221 0.000000
1.000000 0.662307 0.000000
1.000000 0.094068 0.021030
1.000000 0.000000 0.000000
1.000000 0.000000 0.000000
0.000000 1.000000 0.376319
0.000000 1.000000 0.366745
0.000000 1.000000 0.356460
0.000000 1.000000 0.342593
0.000000 1.000000 0.323747
0.000000 1.000000 0.295293
0.000000 1.000000 0.235879
0.000000 1.000000 0.110644
0.522570 1.000000 0.000000
0.885161 1.000000 0.000000
1.000000 0.992483 0.000000
1.000000 0.970036 0.000000
1.000000 0.921597 0.000000
1.000000 0.767415 0.000000
1.000000 0.101023 0.000000
1.000000 0.000000 0.000000
0.000000 1.000000 0.473449
0.000000 1.000000 0.464552
0.000000 1.000000 0.455141
0.000000 1.000000 0.442673
0.000000 1.000000 0.425880
0.000000 1.000000 0.399825
0.000000 1.000000 0.342810
0.000000 1.000000 0.224767
0.013786 1.000000 0.034184
0.635185 1.000000 0.000000
0.976437 1.000000 0.000000
1.000000 1.000000 0.000000
1.000000 1.000000 0.000000
1.000000 0.992918 0.000000
1.000000 0.876771 0.000000
1.000000 0.095655 0.000000
0.000000 1.000000 0.584802
0.000000 1.000000 0.576265
0.000000 1.000000 0.566443
0.000000 1.000000 0.551864
0.000000 1.000000 0.531052
0.000000 1.000000 0.504005
0.000000 1.000000 0.465648
0.000000 1.000000 0.373090
0.000000 1.000000 0.189791
0.039157 1.000000 0.000000
0.759823 1.000000 0.000000
1.000000 1.000000 0.000000
1.000000 1.000000 0.000000
1.000000 1.000000 0.000000
1.000000 1.000000 0.000000
1.000000 0.957343 0.000000
0.000000 1.000000 0.684793
0.000000 1.000000 0.678255
0.000000 1.000000 0.670992
0.000000 1.000000 0.660204
0.000000 1.000000 0.643545
0.000000 1.000000 0.618343
0.000000 1.000000 0.577990
0.000000 1.000000 0.512693
0.000000 1.000000 0.400146
0.000000 1.000000 0.136601
0.053757 1.000000 0.000000
0.866454 1.000000 0.000000
1.000000 1.000000 0.000000
1.000000 1.000000 0.000000
1.000000 1.000000 0.000000
1.000000 1.000000 0.000000
0.000000 1.000000 0.541790
0.000000 1.000000 0.546914
0.000000 1.000000 0.552528
0.000000 1.000000 0.560672
0.000000 1.000000 0.572132
0.000000 1.000000 0.589979
0.000000 1.000000 0.628107
0.000000 1.000000 0.620386
0.000000 1.000000 0.532888
0.000000 1.000000 0.387836
0.000000 1.000000 0.080858
0.046009 1.000000 0.000000
0.933839 1.000000 0.000000
1.000000 1.000000 0.000000
1.000000 1.000000 0.000000
1.000000 1.000000 0.000000
0.000000 1.000000 0.055659
0.000000 1.000000 0.059166
0.000000 1.000000 0.063105
0.000000 1.000000 0.068963
0.000000 1.000000 0.077906
0.000000 1.000000 0.091630
0.000000 1.000000 0.112885
0.000000 1.000000 0.146369
0.000000 1.000000 0.201868
0.000000 1.000000 0.307431
0.000000 1.000000 0.291395
0.000000 1.000000 0.024937
0.005364 1.000000 0.000000
0.996568 1.000000 0.000000
1.000000 1.000000 0.000000
1.000000 1.000000 0.000000
0.000000 0.000000 0.161907
0.006291 0.000000 0.161395
0.126356 0.000000 0.160210
0.261593 0.000000 0.173759
0.396983 0.000000 0.198653
0.542751 0.000000 0.219085
0.701987 0.000000 0.232221
0.841071 0.000000 0.244234
0.964996 0.000000 0.255919
1.000000 0.000000 0.251560
1.000000 0.000000 0.218695
1.000000 0.000000 0.149640
1.000000 0.000000 0.034516
1.000000 0.000000 0.000000
1.000000 0.000000 0.000000
1.000000 0.000000 0.000000
0.000000 0.010195 0.163362
0.001787 0.004496 0.166814
0.098968 0.002206 0.168260
0.252513 0.000184 0.180707
0.393834 0.000000 0.206911
0.545346 0.000000 0.227956
0.708560 0.000000 0.243816
0.855114 0.000000 0.258386
0.973567 0.000000 0.264360
1.000000 0.000000 0.257645
1.000000 0.000000 0.223876
1.000000 0.000000 0.154379
1.000000 0.000000 0.037369
1.000000 0.000000 0.000000
1.000000 0.000000 0.000000
1.000000 0.000000 0.000000
0.000000 0.105671 0.168981
0.000000 0.093157 0.171313
0.059100 0.076288 0.171188
0.227352 0.057460 0.178301
0.380458 0.045497 0.206639
0.540559 0.016021 0.230634
0.708959 0.000937 0.250174
0.865588 0.000000 0.269042
0.988485 0.000000 0.279068
1.000000 0.000000 0.265221
1.000000 0.000000 0.229833
1.000000 0.000000 0.159791
1.000000 0.000000 0.040588
1.000000 0.000000 0.000000
1.000000 0.000000 0.000000
1.000000 0.000000 0.000000
0.000000 0.229848 0.187865
0.000000 0.217745 0.184930
0.015714 0.202031 0.180801
0.181862 0.176878 0.174811
0.344250 0.160701 0.190943
0.510594 0.127671 0.212703
0.690969 0.068841 0.241562
0.867228 0.006886 0.270835
1.000000 0.000000 0.296196
1.000000 0.000000 0.280895
1.000000 0.000000 0.239437
1.000000 0.000000 0.168070
1.000000 0.000000 0.045432
1.000000 0.000000 0.000000
1.000000 0.000000 0.000000
1.000000 0.000000 0.000000
0.000000 0.369460 0.236359
0.000000 0.355300 0.227149
0.001890 0.337943 0.215271
0.113997 0.307356 0.192279
0.294869 0.275598 0.174051
0.447381 0.245591 0.169903
0.612355 0.196835 0.177478
0.813403 0.115704 0.217750
0.992553 0.021055 0.285437
1.000000 0.000000 0.308767
1.000000 0.000000 0.256802
1.000000 0.000000 0.181328
1.000000 0.000000 0.054861
1.000000 0.000000 0.000000
1.000000 0.000000 0.000000
1.000000 0.000000 0.000000
0.000000 0.488668 0.243657
0.000000 0.474031 0.232644
0.000000 0.457575 0.220276
0.015759 0.432088 0.201080
0.218435 0.393691 0.172476
0.405634 0.371376 0.165500
0.570451 0.338561 0.157637
0.739156 0.279664 0.145610
0.897537 0.181071 0.179369
1.000000 0.030570 0.275447
1.000000 0.000000 0.296480
1.000000 0.000000 0.203913
1.000000 0.000000 0.073241
1.000000 0.000000 0.000000
1.000000 0.000000 0.000000
1.000000 0.000000 0.000000
0.000000 0.625419 0.256390
0.000000 0.613686 0.246328
0.000000 0.600359 0.234831
0.000000 0.579983 0.217095
0.064048 0.545779 0.187181
0.333424 0.513174 0.161473
0.535036 0.493968 0.154337
0.727309 0.456472 0.141107
0.861076 0.404744 0.137265
0.986179 0.275126 0.133278
1.000000 0.043212 0.249638
1.000000 0.000000 0.254935
1.000000 0.000000 0.103506
1.000000 0.000000 0.000508
1.000000 0.000000 0.000000
1.000000 0.000000 0.000000
0.000000 0.795768 0.267031
0.000000 0.786063 0.258383
0.000000 0.774888 0.248528
0.000000 0.758015 0.233437
0.000000 0.730135 0.208631
0.139127 0.677459 0.161091
0.452694 0.642944 0.135406
0.681130 0.615333 0.121673
