example_ofxGpuLutCube/bin/data/ofxGpuLutCube/LUT/A27 (soft classic B&W).cube
LUT_3D_SIZE 16
0.043100 0.043100 0.043100
0.051260 0.051260 0.051260
0.059320 0.059320 0.059320
0.067480 0.067480 0.067480
0.075540 0.075540 0.075540
0.083700 0.083700 0.083700
0.097260 0.097260 0.097260
0.109540 0.109540 0.109540
0.121813 0.121813 0.121813
0.134140 0.134140 0.134140
0.150300 0.150300 0.150300
0.166520 0.166520 0.166520
0.182740 0.182740 0.182740
0.198960 0.198960 0.198960
0.222720 0.222720 0.222720
0.243022 0.243022 0.243022
0.079187 0.079187 0.079187
0.083700 0.083700 0.083700
0.091021 0.091021 0.091021
0.095927 0.095927 0.095927
0.103891 0.103891 0.103891
0.115787 0.115787 0.115787
0.129407 0.129407 0.129407
0.141723 0.141723 0.141723
0.153996 0.153996 0.153996
0.166371 0.166371 0.166371
0.182484 0.182484 0.182484
0.198896 0.198896 0.198896
0.218495 0.218495 0.218495
0.242847 0.242847 0.242847
0.267220 0.267220 0.267220
0.287788 0.287788 0.287788
0.094620 0.094620 0.094620
0.106680 0.106680 0.106680
0.114291 0.114291 0.114291
0.120647 0.120647 0.120647
0.129015 0.129015 0.129015
0.139813 0.139813 0.139813
0.151821 0.151821 0.151821
0.164186 0.164186 0.164186
0.178002 0.178002 0.178002
0.188005 0.188005 0.188005
0.202869 0.202869 0.202869
0.222993 0.222993 0.222993
0.249423 0.249423 0.249423
0.277880 0.277880 0.277880
0.306947 0.306947 0.306947
0.331415 0.331415 0.331415
0.098000 0.098000 0.098000
0.111101 0.111101 0.111101
0.124096 0.124096 0.124096
0.136456 0.136456 0.136456
0.147913 0.147913 0.147913
0.160020 0.160020 0.160020
0.174112 0.174112 0.174112
0.185609 0.185609 0.185609
0.199491 0.199491 0.199491
0.215680 0.215680 0.215680
0.232687 0.232687 0.232687
0.251773 0.251773 0.251773
0.275904 0.275904 0.275904
0.304243 0.304243 0.304243
0.336121 0.336121 0.336121
0.364602 0.364602 0.364602
0.107980 0.107980 0.107980
0.120303 0.120303 0.120303
0.137496 0.137496 0.137496
0.152681 0.152681 0.152681
0.163920 0.163920 0.163920
0.177231 0.177231 0.177231
0.191688 0.191688 0.191688
0.206787 0.206787 0.206787
0.226946 0.226946 0.226946
0.246551 0.246551 0.246551
0.268947 0.268947 0.268947
0.289420 0.289420 0.289420
0.313499 0.313499 0.313499
0.341855 0.341855 0.341855
0.376516 0.376516 0.376516
0.402249 0.402249 0.402249
0.129433 0.129433 0.129433
0.141722 0.141722 0.141722
0.157882 0.157882 0.157882
0.173313 0.173313 0.173313
0.184049 0.184049 0.184049
0.192589 0.192589 0.192589
0.210980 0.210980 0.210980
0.231104 0.231104 0.231104
0.253327 0.253327 0.253327
0.278420 0.278420 0.278420
0.304167 0.304167 0.304167
0.328887 0.328887 0.328887
0.356313 0.356313 0.356313
0.386487 0.386487 0.386487
0.423613 0.423613 0.423613
0.450849 0.450849 0.450849
0.157620 0.157620 0.157620
0.169680 0.169680 0.169680
0.182537 0.182537 0.182537
0.197980 0.197980 0.197980
0.210076 0.210076 0.210076
0.220680 0.220680 0.220680
0.237812 0.237812 0.237812
0.258819 0.258819 0.258819
0.283152 0.283152 0.283152
0.311360 0.311360 0.311360
0.340687 0.340687 0.340687
0.371109 0.371109 0.371109
0.402048 0.402048 0.402048
0.434807 0.434807 0.434807
0.470993 0.470993 0.470993
0.501823 0.501823 0.501823
0.181960 0.181960 0.181960
0.192008 0.192008 0.192008
0.203126 0.203126 0.203126
0.223557 0.223557 0.223557
0.242141 0.242141 0.242141
0.254880 0.254880 0.254880
0.271939 0.271939 0.271939
0.292204 0.292204 0.292204
0.317387 0.317387 0.317387
0.344899 0.344899 0.344899
0.376478 0.376478 0.376478
0.408860 0.408860 0.408860
0.442971 0.442971 0.442971
0.475608 0.475608 0.475608
0.515439 0.515439 0.515439
0.546329 0.546329 0.546329
0.206293 0.206293 0.206293
0.216561 0.216561 0.216561
0.227182 0.227182 0.227182
0.252169 0.252169 0.252169
0.278748 0.278748 0.278748
0.299353 0.299353 0.299353
0.315573 0.315573 0.315573
0.334698 0.334698 0.334698
0.359031 0.359031 0.359031
0.386133 0.386133 0.386133
0.417020 0.417020 0.417020
0.447868 0.447868 0.447868
0.481033 0.481033 0.481033
0.521540 0.521540 0.521540
0.559984 0.559984 0.559984
0.586835 0.586835 0.586835
0.236860 0.236860 0.236860
0.244980 0.244980 0.244980
0.253573 0.253573 0.253573
0.276860 0.276860 0.276860
0.312231 0.312231 0.312231
0.341193 0.341193 0.341193
0.362344 0.362344 0.362344
0.380388 0.380388 0.380388
0.404693 0.404693 0.404693
0.432020 0.432020 0.432020
0.459867 0.459867 0.459867
0.488373 0.488373 0.488373
0.521540 0.521540 0.521540
0.557679 0.557679 0.557679
0.596209 0.596209 0.596209
0.627342 0.627342 0.627342
0.269267 0.269267 0.269267
0.277427 0.277427 0.277427
0.288264 0.288264 0.288264
0.305107 0.305107 0.305107
0.343187 0.343187 0.343187
0.384733 0.384733 0.384733
0.415953 0.415953 0.415953
0.436251 0.436251 0.436251
0.457260 0.457260 0.457260
0.481053 0.481053 0.481053
0.511545 0.511545 0.511545
0.539945 0.539945 0.539945
0.565213 0.565213 0.565213
0.595273 0.595273 0.595273
0.635260 0.635260 0.635260
0.665249 0.665249 0.665249
0.304573 0.304573 0.304573
0.313705 0.313705 0.313705
0.324693 0.324693 0.324693
0.338527 0.338527 0.338527
0.371766 0.371766 0.371766
0.422900 0.422900 0.422900
0.460477 0.460477 0.460477
0.485479 0.485479 0.485479
0.509812 0.509812 0.509812
0.534113 0.534113 0.534113
0.560427 0.560427 0.560427
0.586944 0.586944 0.586944
0.610973 0.610973 0.610973
0.636313 0.636313 0.636313
0.671867 0.671867 0.671867
0.697695 0.697695 0.697695
0.344300 0.344300 0.344300
0.353448 0.353448 0.353448
0.364524 0.364524 0.364524
0.377416 0.377416 0.377416
0.403127 0.403127 0.403127
0.452833 0.452833 0.452833
0.508720 0.508720 0.508720
0.542663 0.542663 0.542663
0.565503 0.565503 0.565503
0.586200 0.586200 0.586200
0.610187 0.610187 0.610187
0.635275 0.635275 0.635275
0.659624 0.659624 0.659624
0.681223 0.681223 0.681223
0.705093 0.705093 0.705093
0.729271 0.729271 0.729271
0.385587 0.385587 0.385587
0.394492 0.394492 0.394492
0.406702 0.406702 0.406702
0.419087 0.419087 0.419087
0.441293 0.441293 0.441293
0.483220 0.483220 0.483220
0.548507 0.548507 0.548507
0.590591 0.590591 0.590591
0.618853 0.618853 0.618853
0.637367 0.637367 0.637367
0.657842 0.657842 0.657842
0.678061 0.678061 0.678061
0.701031 0.701031 0.701031
0.725213 0.725213 0.725213
0.745606 0.745606 0.745606
0.766423 0.766423 0.766423
0.429827 0.429827 0.429827
0.441800 0.441800 0.441800
0.453853 0.453853 0.453853
0.466688 0.466688 0.466688
0.483758 0.483758 0.483758
0.520085 0.520085 0.520085
0.581729 0.581729 0.581729
0.638976 0.638976 0.638976
0.672930 0.672930 0.672930
0.685511 0.685511 0.685511
0.701787 0.701787 0.701787
0.721827 0.721827 0.721827
0.748212 0.748212 0.748212
0.769859 0.769859 0.769859
0.793498 0.793498 0.793498
0.810148 0.810148 0.810148
0.470404 0.470404 0.470404
0.482684 0.482684 0.482684
0.498818 0.498818 0.498818
0.515045 0.515045 0.515045
0.532311 0.532311 0.532311
0.557964 0.557964 0.557964
0.613963 0.613963 0.613963
0.677510 0.677510 0.677510
0.715876 0.715876 0.715876
0.733904 0.733904 0.733904
0.750065 0.750065 0.750065
0.766314 0.766314 0.766314
0.792732 0.792732 0.792732
0.817792 0.817792 0.817792
0.838481 0.838481 0.838481
0.854626 0.854626 0.854626
0.043367 0.043367 0.043367
0.055177 0.055177 0.055177
0.064279 0.064279 0.064279
0.075807 0.075807 0.075807
0.084220 0.084220 0.084220
0.093587 0.093587 0.093587
0.105796 0.105796 0.105796
0.117910 0.117910 0.117910
0.130045 0.130045 0.130045
0.142500 0.142500 0.142500
0.158516 0.158516 0.158516
0.174653 0.174653 0.174653
0.187893 0.187893 0.187893
0.207286 0.207286 0.207286
0.231134 0.231134 0.231134
0.251698 0.251698 0.251698
0.079187 0.079187 0.079187
0.087342 0.087342 0.087342
0.095667 0.095667 0.095667
0.103872 0.103872 0.103872
0.112396 0.112396 0.112396
0.124285 0.124285 0.124285
0.137913 0.137914 0.137914
0.150050 0.150050 0.150050
0.164322 0.164322 0.164322
0.178400 0.178400 0.178400
0.192275 0.192275 0.192275
0.207492 0.207492 0.207492
0.230625 0.230625 0.230625
0.251515 0.251515 0.251515
0.275823 0.275823 0.275823
0.296639 0.296639 0.296639
0.098533 0.098533 0.098533
0.110665 0.110665 0.110665
0.119455 0.119455 0.119455
0.127715 0.127715 0.127715
0.136426 0.136426 0.136426
0.145602 0.145602 0.145602
0.157833 0.157833 0.157833
0.172102 0.172102 0.172102
0.186131 0.186131 0.186131
0.199197 0.199197 0.199197
0.218026 0.218026 0.218026
0.238434 0.238434 0.238434
0.265908 0.265908 0.265908
0.291537 0.291537 0.291537
0.323461 0.323461 0.323461
0.344813 0.344813 0.344813
0.103040 0.103040 0.103040
0.115776 0.115776 0.115776
0.132555 0.132555 0.132555
0.147394 0.147394 0.147394
0.156312 0.156312 0.156312
0.166198 0.166198 0.166198
0.180720 0.180720 0.180720
0.192203 0.192203 0.192203
0.207675 0.207675 0.207675
0.224023 0.224023 0.224023
0.242934 0.242934 0.242934
0.263467 0.263467 0.263467
0.291152 0.291152 0.291152
0.323685 0.323685 0.323685
0.359856 0.359856 0.359856
0.385597 0.385597 0.385597
0.113207 0.113207 0.113207
0.128376 0.128376 0.128376
0.144810 0.144810 0.144810
0.161252 0.161252 0.161252
0.173502 0.173502 0.173502
0.185548 0.185548 0.185548
0.200301 0.200301 0.200301
0.219096 0.219096 0.219096
0.235902 0.235902 0.235902
0.254889 0.254889 0.254889
0.276523 0.276523 0.276523
0.296661 0.296661 0.296661
0.323361 0.323361 0.323361
0.355945 0.355945 0.355945
0.396091 0.396091 0.396091
0.422534 0.422534 0.422534
0.133593 0.133593 0.133593
0.145879 0.145879 0.145879
0.162376 0.162376 0.162376
0.180192 0.180192 0.180192
0.191514 0.191514 0.191514
0.203134 0.203134 0.203134
0.222633 0.222633 0.222633
0.243518 0.243518 0.243518
0.265800 0.265800 0.265800
0.287440 0.287440 0.287440
0.312864 0.312864 0.312864
0.336978 0.336978 0.336978
0.361333 0.361333 0.361333
0.393061 0.393061 0.393061
0.433399 0.433399 0.433399
0.462298 0.462298 0.462298
0.161736 0.161736 0.161736
0.170183 0.170183 0.170183
0.184565 0.184565 0.184565
0.202400 0.202400 0.202400
0.216178 0.216178 0.216178
0.228989 0.228989 0.228989
0.248274 0.248274 0.248274
0.271268 0.271268 0.271268
0.295638 0.295638 0.295638
0.322224 0.322224 0.322224
0.351215 0.351215 0.351215
0.377772 0.377772 0.377772
0.408884 0.408884 0.408884
0.438877 0.438877 0.438877
0.475008 0.475008 0.475008
0.505989 0.505989 0.505989
0.184040 0.184040 0.184040
0.192385 0.192385 0.192385
0.204929 0.204929 0.204929
0.227510 0.227510 0.227510
0.248882 0.248882 0.248882
0.262534 0.262534 0.262534
0.280143 0.280143 0.280143
0.301308 0.301308 0.301308
0.327984 0.327984 0.327984
0.355367 0.355367 0.355367
0.387041 0.387041 0.387041
0.417350 0.417350 0.417350
0.449555 0.449555 0.449555
0.481435 0.481435 0.481435
0.519469 0.519469 0.519469
0.550209 0.550209 0.550209
0.208495 0.208495 0.208495
0.218304 0.218304 0.218304
0.227441 0.227441 0.227441
0.252422 0.252422 0.252422
0.282265 0.282265 0.282265
0.303596 0.303596 0.303596
0.319873 0.319873 0.319873
0.341720 0.341720 0.341720
0.367109 0.367109 0.367109
0.396893 0.396893 0.396893
0.426837 0.426837 0.426837
0.456295 0.456295 0.456295
0.489469 0.489469 0.489469
0.526402 0.526402 0.526402
0.564206 0.564206 0.564206
0.590874 0.590874 0.590874
0.236860 0.236860 0.236860
0.244987 0.244987 0.244987
0.255168 0.255168 0.255168
0.275403 0.275403 0.275403
0.309918 0.309918 0.309918
0.343637 0.343637 0.343637
0.366522 0.366522 0.366522
0.384569 0.384569 0.384569
0.409848 0.409848 0.409848
0.438180 0.438180 0.438180
0.467132 0.467132 0.467132
0.495018 0.495018 0.495018
0.528005 0.528005 0.528005
0.562351 0.562351 0.562351
0.600515 0.600515 0.600515
0.631503 0.631503 0.631503
0.269267 0.269267 0.269267
0.281327 0.281327 0.281327
0.289391 0.289391 0.289391
0.303754 0.303754 0.303754
0.338283 0.338283 0.338283
0.380917 0.380917 0.380917
0.416630 0.416630 0.416630
0.440302 0.440302 0.440302
0.461422 0.461422 0.461422
0.485737 0.485737 0.485737
0.516593 0.516593 0.516593
0.542267 0.542267 0.542267
0.568872 0.568872 0.568872
0.599448 0.599448 0.599448
0.639179 0.639179 0.639179
0.669408 0.669408 0.669408
0.305613 0.305613 0.305613
0.316633 0.316633 0.316633
0.325759 0.325759 0.325759
0.337741 0.337741 0.337741
0.365411 0.365411 0.365411
0.410847 0.410847 0.410847
0.457905 0.457905 0.457905
0.489517 0.489517 0.489517
0.516587 0.516587 0.516587
0.538233 0.538233 0.538233
0.564327 0.564327 0.564327
0.586997 0.586997 0.586997
0.611819 0.611819 0.611819
0.639780 0.639780 0.639780
0.672919 0.672919 0.672919
0.701567 0.701567 0.701567
0.345080 0.345080 0.345080
0.356474 0.356474 0.356474
0.368338 0.368338 0.368338
0.378249 0.378249 0.378249
0.400159 0.400159 0.400159
0.442634 0.442634 0.442634
0.498484 0.498484 0.498484
0.542774 0.542774 0.542774
0.569906 0.569906 0.569906
0.591505 0.591505 0.591505
0.614131 0.614131 0.614131
0.635237 0.635237 0.635237
0.659214 0.659214 0.659214
0.681008 0.681008 0.681008
0.708491 0.708491 0.708491
0.733242 0.733242 0.733242
0.386107 0.386107 0.386107
0.398392 0.398392 0.398392
0.410452 0.410452 0.410452
0.423848 0.423848 0.423848
0.443633 0.443633 0.443633
0.475753 0.475753 0.475753
0.535090 0.535090 0.535090
0.586689 0.586689 0.586689
0.622667 0.622667 0.622667
0.643466 0.643466 0.643466
0.661453 0.661453 0.661453
0.678260 0.678260 0.678260
0.700140 0.700140 0.700140
0.721799 0.721799 0.721799
0.746124 0.746124 0.746124
0.770045 0.770045 0.770045
0.430087 0.430087 0.430087
0.445804 0.445804 0.445804
0.454877 0.454877 0.454877
0.470900 0.470900 0.470900
0.490775 0.490775 0.490775
0.518568 0.518568 0.518568
0.569822 0.569822 0.569822
0.630085 0.630085 0.630085
0.671246 0.671246 0.671246
0.689916 0.689916 0.689916
0.705874 0.705874 0.705874
0.724562 0.724562 0.724562
0.745078 0.745078 0.745078
0.769146 0.769146 0.769146
0.793707 0.793707 0.793707
0.814015 0.814015 0.814015
0.474304 0.474304 0.474304
0.486844 0.486844 0.486844
0.503064 0.503064 0.503064
0.520196 0.520196 0.520196
0.539483 0.539483 0.539483
0.562247 0.562247 0.562247
0.606252 0.606252 0.606252
0.668573 0.668573 0.668573
0.713569 0.713569 0.713569
0.737806 0.737806 0.737806
0.754119 0.754119 0.754119
0.770188 0.770188 0.770188
0.792578 0.792578 0.792578
0.817532 0.817532 0.817532
0.838462 0.838462 0.838462
0.858487 0.858487 0.858487
0.047620 0.047620 0.047620
0.063794 0.063794 0.063794
0.079604 0.079604 0.079604
0.093333 0.093333 0.093333
0.108504 0.108504 0.108504
0.118249 0.118249 0.118249
0.128633 0.128633 0.128633
0.136734 0.136734 0.136734
0.144847 0.144847 0.144847
0.158685 0.158685 0.158685
0.171473 0.171473 0.171473
0.186788 0.186788 0.186788
0.202611 0.202611 0.202611
0.222992 0.222992 0.222992
0.247319 0.247319 0.247319
0.271007 0.271007 0.271007
0.082955 0.082955 0.082955
0.091802 0.091802 0.091802
0.104795 0.104795 0.104795
0.117601 0.117601 0.117601
0.133566 0.133566 0.133566
0.145875 0.145875 0.145875
0.158443 0.158443 0.158443
0.168721 0.168721 0.168721
0.182313 0.182313 0.182313
0.192390 0.192390 0.192390
0.207560 0.207560 0.207560
0.224337 0.224337 0.224337
0.244110 0.244110 0.244110
0.267733 0.267733 0.267733
0.292265 0.292265 0.292265
0.316469 0.316469 0.316469
0.099065 0.099065 0.099065
0.111918 0.111918 0.111918
0.128123 0.128123 0.128123
0.140250 0.140250 0.140250
0.148877 0.148877 0.148877
0.160281 0.160281 0.160281
0.172404 0.172404 0.172404
0.185643 0.185643 0.185643
0.200533 0.200533 0.200533
0.218888 0.218888 0.218888
0.241517 0.241517 0.241517
0.262390 0.262390 0.262390
0.287041 0.287041 0.287041
0.315273 0.315273 0.315273
0.344327 0.344327 0.344327
0.368836 0.368836 0.368836
0.107980 0.107980 0.107980
0.127594 0.127594 0.127594
0.148850 0.148850 0.148850
0.164654 0.164654 0.164654
0.173023 0.173023 0.173023
0.180437 0.180437 0.180437
0.189056 0.189056 0.189056
0.202715 0.202715 0.202715
0.220097 0.220097 0.220097
0.239947 0.239947 0.239947
0.262654 0.262654 0.262654
0.287063 0.287063 0.287063
0.317613 0.317613 0.317613
0.352296 0.352296 0.352296
0.393138 0.393138 0.393138
0.421960 0.421960 0.421960
0.121276 0.121276 0.121276
0.136686 0.136686 0.136686
0.160542 0.160542 0.160542
0.181197 0.181197 0.181197
0.192971 0.192971 0.192971
0.203221 0.203221 0.203221
0.216195 0.216195 0.216195
0.232420 0.232420 0.232420
0.252368 0.252368 0.252368
0.268772 0.268772 0.268772
0.289152 0.289152 0.289152
0.311884 0.311884 0.311884
0.342148 0.342148 0.342148
0.382811 0.382811 0.382811
0.431974 0.431974 0.431974
0.464948 0.464948 0.464948
0.142244 0.142244 0.142244
0.153891 0.153891 0.153891
0.171847 0.171847 0.171847
0.192484 0.192484 0.192484
0.209282 0.209282 0.209282
0.223264 0.223264 0.223264
0.243924 0.243924 0.243924
0.264219 0.264219 0.264219
0.285068 0.285068 0.285068
0.305204 0.305204 0.305204
0.326111 0.326111 0.326111
0.346670 0.346670 0.346670
0.373047 0.373047 0.373047
0.407873 0.407873 0.407873
0.455776 0.455776 0.455776
0.491963 0.491963 0.491963
0.169940 0.169940 0.169940
0.177998 0.177998 0.177998
0.187327 0.187327 0.187327
0.207489 0.207489 0.207489
0.228191 0.228191 0.228191
0.244294 0.244294 0.244294
0.265891 0.265891 0.265891
0.290198 0.290198 0.290198
0.317017 0.317017 0.317017
0.341234 0.341234 0.341234
0.369135 0.369135 0.369135
0.393741 0.393741 0.393741
0.419507 0.419507 0.419507
0.446028 0.446028 0.446028
0.481658 0.481658 0.481658
0.515211 0.515211 0.515211
0.190552 0.190552 0.190552
0.194982 0.194982 0.194982
0.206825 0.206825 0.206825
0.228524 0.228524 0.228524
0.256888 0.256888 0.256888
0.274787 0.274787 0.274787
0.293976 0.293976 0.293976
0.316930 0.316930 0.316930
0.346273 0.346273 0.346273
0.374729 0.374729 0.374729
0.405655 0.405655 0.405655
0.437222 0.437222 0.437222
0.462148 0.462148 0.462148
0.491863 0.491863 0.491863
0.523924 0.523924 0.523924
0.550471 0.550471 0.550471
0.214620 0.214620 0.214620
0.222634 0.222634 0.222634
0.231080 0.231080 0.231080
0.251091 0.251091 0.251091
0.285777 0.285777 0.285777
0.314156 0.314156 0.314156
0.332289 0.332289 0.332289
0.351043 0.351043 0.351043
0.380389 0.380389 0.380389
0.412812 0.412812 0.412812
0.444082 0.444082 0.444082
0.474670 0.474670 0.474670
0.506800 0.506800 0.506800
0.538813 0.538813 0.538813
0.570727 0.570727 0.570727
0.597243 0.597243 0.597243
0.238948 0.238948 0.238948
0.247196 0.247196 0.247196
0.257695 0.257695 0.257695
0.273383 0.273383 0.273383
0.308819 0.308819 0.308819
0.348269 0.348269 0.348269
0.374976 0.374976 0.374976
0.393782 0.393782 0.393782
0.419932 0.419932 0.419932
0.447947 0.447947 0.447947
0.481763 0.481763 0.481763
0.512797 0.512797 0.512797
0.544301 0.544301 0.544301
0.573275 0.573275 0.573275
0.608959 0.608959 0.608959
0.639662 0.639662 0.639662
0.269787 0.269787 0.269787
0.281847 0.281847 0.281847
0.290375 0.290375 0.290375
0.303464 0.303464 0.303464
0.330702 0.330702 0.330702
0.376080 0.376080 0.376080
0.419971 0.419971 0.419971
0.444295 0.444295 0.444295
0.466238 0.466238 0.466238
0.492099 0.492099 0.492099
0.525283 0.525283 0.525283
0.554420 0.554420 0.554420
0.579568 0.579568 0.579568
0.609114 0.609114 0.609114
0.644992 0.644992 0.644992
0.673404 0.673404 0.673404
0.305995 0.305995 0.305995
0.316858 0.316858 0.316858
0.328622 0.328622 0.328622
0.338955 0.338955 0.338955
0.360018 0.360018 0.360018
0.397187 0.397187 0.397187
0.452785 0.452785 0.452785
0.491399 0.491399 0.491399
0.518077 0.518077 0.518077
0.541943 0.541943 0.541943
0.567432 0.567432 0.567432
0.591488 0.591488 0.591488
0.616575 0.616575 0.616575
0.642070 0.642070 0.642070
0.674329 0.674329 0.674329
0.701734 0.701734 0.701734
0.348200 0.348200 0.348200
0.357736 0.357736 0.357736
0.369313 0.369313 0.369313
0.381696 0.381696 0.381696
0.398851 0.398851 0.398851
0.430114 0.430114 0.430114
0.479392 0.479392 0.479392
0.535611 0.535611 0.535611
0.571857 0.571857 0.571857
0.593732 0.593732 0.593732
0.615483 0.615483 0.615483
0.635386 0.635386 0.635386
0.656950 0.656950 0.656950
0.678623 0.678623 0.678623
0.706210 0.706210 0.706210
0.730498 0.730498 0.730498
0.389573 0.389573 0.389573
0.401813 0.401813 0.401813
0.414648 0.414648 0.414648
0.430811 0.430811 0.430811
0.446966 0.446966 0.446966
0.466203 0.466203 0.466203
0.514039 0.514039 0.514039
0.570725 0.570725 0.570725
0.619356 0.619356 0.619356
0.645227 0.645227 0.645227
0.665330 0.665330 0.665330
0.679101 0.679101 0.679101
0.697200 0.697200 0.697200
0.721313 0.721313 0.721313
0.746096 0.746096 0.746096
0.766945 0.766945 0.766945
0.434253 0.434253 0.434253
0.449965 0.449965 0.449965
0.462717 0.462717 0.462717
0.479590 0.479590 0.479590
0.498808 0.498808 0.498808
0.520235 0.520235 0.520235
0.555149 0.555149 0.555149
0.606533 0.606533 0.606533
0.663145 0.663145 0.663145
0.691843 0.691843 0.691843
0.710019 0.710019 0.710019
0.726237 0.726237 0.726237
0.745009 0.745009 0.745009
0.765537 0.765537 0.765537
0.790294 0.790294 0.790294
0.813787 0.813787 0.813787
0.478698 0.478698 0.478698
0.494912 0.494912 0.494912
0.511127 0.511127 0.511127
0.531265 0.531265 0.531265
0.551367 0.551367 0.551367
0.568957 0.568957 0.568957
0.596161 0.596161 0.596161
0.643264 0.643264 0.643264
0.697646 0.697646 0.697646
0.736076 0.736076 0.736076
0.757937 0.757937 0.757937
0.774163 0.774163 0.774163
0.790828 0.790828 0.790828
0.813892 0.813892 0.813892
0.837956 0.837956 0.837956
0.858448 0.858448 0.858448
0.060380 0.060380 0.060380
0.076865 0.076865 0.076865
0.098813 0.098813 0.098813
0.122320 0.122320 0.122320
0.135213 0.135213 0.135213
0.144847 0.144847 0.144847
0.154980 0.154980 0.154980
0.166124 0.166124 0.166124
0.174184 0.174184 0.174184
0.181192 0.181192 0.181192
0.189780 0.189780 0.189780
0.204175 0.204175 0.204175
0.220396 0.220396 0.220396
0.239321 0.239321 0.239321
0.263291 0.263291 0.263291
0.283881 0.283881 0.283881
0.088641 0.088641 0.088641
0.104653 0.104653 0.104653
0.122655 0.122655 0.122655
0.142192 0.142192 0.142192
0.158359 0.158359 0.158359
0.172522 0.172522 0.172522
0.184132 0.184132 0.184132
0.193194 0.193194 0.193194
0.202859 0.202859 0.202859
0.213117 0.213117 0.213117
0.228693 0.228693 0.228693
0.244687 0.244687 0.244687
0.264287 0.264287 0.264287
0.284736 0.284736 0.284736
0.309217 0.309217 0.309217
0.332702 0.332702 0.332702
0.107304 0.107304 0.107304
0.121017 0.121017 0.121017
0.138176 0.138176 0.138176
0.152650 0.152650 0.152650
0.166166 0.166166 0.166166
0.178483 0.178483 0.178483
0.190575 0.190575 0.190575
0.203296 0.203296 0.203296
0.220042 0.220042 0.220042
0.238398 0.238398 0.238398
0.260366 0.260366 0.260366
0.282779 0.282779 0.282779
0.306739 0.306739 0.306739
0.332112 0.332112 0.332112
0.361718 0.361718 0.361718
0.388999 0.388999 0.388999
0.115420 0.115420 0.115420
0.135930 0.135930 0.135930
0.161167 0.161167 0.161167
0.177233 0.177233 0.177233
0.185651 0.185651 0.185651
0.191981 0.191981 0.191981
0.200073 0.200073 0.200073
0.216080 0.216080 0.216080
0.236694 0.236694 0.236694
0.258355 0.258355 0.258355
0.283161 0.283161 0.283161
0.309860 0.309860 0.309860
0.339468 0.339468 0.339468
0.375484 0.375484 0.375484
0.413517 0.413517 0.413517
0.441453 0.441453 0.441453
0.129999 0.129999 0.129999
0.145822 0.145822 0.145822
0.176606 0.176606 0.176606
0.198230 0.198230 0.198230
0.214226 0.214226 0.214226
0.222961 0.222961 0.222961
0.232315 0.232315 0.232315
0.246831 0.246831 0.246831
0.267428 0.267428 0.267428
0.286045 0.286045 0.286045
0.308500 0.308500 0.308500
0.331913 0.331913 0.331913
0.365599 0.365599 0.365599
0.408665 0.408665 0.408665
0.457519 0.457519 0.457519
0.489275 0.489275 0.489275
0.153713 0.153713 0.153713
0.164968 0.164968 0.164968
0.184081 0.184081 0.184081
0.210492 0.210492 0.210492
0.236219 0.236219 0.236219
0.252618 0.252618 0.252618
0.267329 0.267329 0.267329
0.283311 0.283311 0.283311
0.304018 0.304018 0.304018
0.323072 0.323072 0.323072
0.343460 0.343460 0.343460
0.363603 0.363603 0.363603
0.392653 0.392653 0.392653
0.429948 0.429948 0.429948
0.477796 0.477796 0.477796
0.518270 0.518270 0.518270
0.181648 0.181648 0.181648
0.188418 0.188418 0.188418
0.195851 0.195851 0.195851
0.219720 0.219720 0.219720
0.248526 0.248526 0.248526
0.272627 0.272627 0.272627
0.294698 0.294698 0.294698
0.315074 0.315074 0.315074
0.339320 0.339320 0.339320
0.360786 0.360786 0.360786
0.386029 0.386029 0.386029
0.408822 0.408822 0.408822
0.434166 0.434166 0.434166
0.460753 0.460753 0.460753
0.495069 0.495069 0.495069
0.530514 0.530514 0.530514
0.202713 0.202713 0.202713
0.208880 0.208880 0.208880
0.215690 0.215690 0.215690
0.235010 0.235010 0.235010
0.265789 0.265789 0.265789
0.293328 0.293328 0.293328
0.316079 0.316079 0.316079
0.339622 0.339622 0.339622
