example_ofxGpuLutCube/bin/data/ofxGpuLutCube/LUT/A27 (soft classic B&W).cube
LUT_3D_SIZE 6
0.043100 0.043100 0.043100
0.067480 0.067480 0.067480
0.097260 0.097260 0.097260
0.134140 0.134140 0.134140
0.182740 0.182740 0.182740
0.243022 0.243022 0.243022
0.098000 0.098000 0.098000
0.136456 0.136456 0.136456
0.174112 0.174112 0.174112
0.215680 0.215680 0.215680
0.275904 0.275904 0.275904
0.364602 0.364602 0.364602
0.157620 0.157620 0.157620
0.197980 0.197980 0.197980
0.237812 0.237812 0.237812
0.311360 0.311360 0.311360
0.402048 0.402048 0.402048
0.501823 0.501823 0.501823
0.236860 0.236860 0.236860
0.276860 0.276860 0.276860
0.362344 0.362344 0.362344
0.432020 0.432020 0.432020
0.521540 0.521540 0.521540
0.627342 0.627342 0.627342
0.344300 0.344300 0.344300
0.377416 0.377416 0.377416
0.508720 0.508720 0.508720
0.586200 0.586200 0.586200
0.659624 0.659624 0.659624
0.729271 0.729271 0.729271
0.470404 0.470404 0.470404
0.515045 0.515045 0.515045
0.613963 0.613963 0.613963
0.733904 0.733904 0.733904
0.792732 0.792732 0.792732
0.854626 0.854626 0.854626
0.060380 0.060380 0.060380
0.122320 0.122320 0.122320
0.154980 0.154980 0.154980
0.181192 0.181192 0.181192
0.220396 0.220396 0.220396
0.283881 0.283881 0.283881
0.115420 0.115420 0.115420
0.177233 0.177233 0.177233
0.200073 0.200073 0.200073
0.258355 0.258355 0.258355
0.339468 0.339468 0.339468
0.441453 0.441453 0.441453
0.181648 0.181648 0.181648
0.219720 0.219720 0.219720
0.294698 0.294698 0.294698
0.360786 0.360786 0.360786
0.434166 0.434166 0.434166
0.530514 0.530514 0.530514
0.254880 0.254880 0.254880
0.279810 0.279810 0.279810
0.389809 0.389809 0.389809
0.459135 0.459135 0.459135
0.560766 0.560766 0.560766
0.651604 0.651604 0.651604
0.353900 0.353900 0.353900
0.389824 0.389824 0.389824
0.475682 0.475682 0.475682
0.594044 0.594044 0.594044
0.664320 0.664320 0.664320
0.738112 0.738112 0.738112
0.486844 0.486844 0.486844
0.540178 0.540178 0.540178
0.603392 0.603392 0.603392
0.728444 0.728444 0.728444
0.797405 0.797405 0.797405
0.859306 0.859306 0.859306
0.095660 0.095660 0.095660
0.190412 0.190412 0.190412
0.265900 0.265900 0.265900
0.282376 0.282376 0.282376
0.322820 0.322820 0.322820
0.349757 0.349757 0.349757
0.170200 0.170200 0.170200
0.237657 0.237657 0.237657
0.298071 0.298071 0.298071
0.354063 0.354063 0.354063
0.429234 0.429234 0.429234
0.486954 0.486954 0.486954
0.212700 0.212700 0.212700
0.285480 0.285480 0.285480
0.361810 0.361810 0.361810
0.416246 0.416246 0.416246
0.493184 0.493184 0.493184
0.597497 0.597497 0.597497
0.289396 0.289396 0.289396
0.344649 0.344649 0.344649
0.447033 0.447033 0.447033
0.533166 0.533166 0.533166
0.591997 0.591997 0.591997
0.671100 0.671100 0.671100
0.423560 0.423560 0.423560
0.444380 0.444380 0.444380
0.499105 0.499105 0.499105
0.626504 0.626504 0.626504
0.677080 0.677080 0.677080
0.788110 0.788110 0.788110
0.563701 0.563701 0.563701
0.579069 0.579069 0.579069
0.646829 0.646829 0.646829
0.734724 0.734724 0.734724
0.806068 0.806068 0.806068
0.887506 0.887506 0.887506
0.130180 0.130180 0.130180
0.209712 0.209712 0.209712
0.385860 0.385860 0.385860
0.439704 0.439704 0.439704
0.409888 0.409888 0.409888
0.457981 0.457981 0.457981
0.242380 0.242380 0.242380
0.318890 0.318890 0.318890
0.412988 0.412988 0.412988
0.498640 0.498640 0.498640
0.518596 0.518596 0.518596
0.583461 0.583461 0.583461
0.283140 0.283140 0.283140
0.386941 0.386941 0.386941
0.458200 0.458200 0.458200
0.518820 0.518820 0.518820
0.571732 0.571732 0.571732
0.643852 0.643852 0.643852
0.339624 0.339624 0.339624
0.431380 0.431380 0.431380
0.522350 0.522350 0.522350
0.583156 0.583156 0.583156
0.635963 0.635963 0.635963
0.708113 0.708113 0.708113
0.453008 0.453008 0.453008
0.502826 0.502826 0.502826
0.574121 0.574121 0.574121
0.675581 0.675581 0.675581
0.742520 0.742520 0.742520
0.806487 0.806487 0.806487
0.598205 0.598205 0.598205
0.651233 0.651233 0.651233
0.684520 0.684520 0.684520
0.742548 0.742548 0.742548
0.854684 0.854684 0.854684
0.901670 0.901670 0.901670
0.181940 0.181940 0.181940
0.240156 0.240156 0.240156
0.432620 0.432620 0.432620
0.507764 0.507764 0.507764
0.549140 0.549140 0.549140
0.519224 0.519224 0.519224
0.337924 0.337924 0.337924
0.405340 0.405340 0.405340
0.474676 0.474676 0.474676
0.616288 0.616288 0.616288
0.662886 0.662886 0.662886
0.659541 0.659541 0.659541
0.404692 0.404692 0.404692
0.508178 0.508178 0.508178
0.567077 0.567077 0.567077
0.620894 0.620894 0.620894
0.694362 0.694362 0.694362
0.719609 0.719609 0.719609
0.437524 0.437524 0.437524
0.543478 0.543478 0.543478
0.621174 0.621174 0.621174
0.665099 0.665099 0.665099
0.711724 0.711724 0.711724
0.766618 0.766618 0.766618
0.504784 0.504784 0.504784
0.569739 0.569739 0.569739
0.658506 0.658506 0.658506
0.731762 0.731762 0.731762
0.792157 0.792157 0.792157
0.835071 0.835071 0.835071
0.645284 0.645284 0.645284
0.683617 0.683617 0.683617
0.747723 0.747723 0.747723
0.801353 0.801353 0.801353
0.897098 0.897098 0.897098
0.939361 0.939361 0.939361
0.239122 0.239122 0.239122
0.304269 0.304269 0.304269
0.425959 0.425959 0.425959
0.534100 0.534100 0.534100
0.585829 0.585829 0.585829
0.631203 0.631203 0.631203
0.414002 0.414002 0.414002
0.479159 0.479159 0.479159
0.549878 0.549878 0.549878
0.661317 0.661317 0.661317
0.725334 0.725334 0.725334
0.769252 0.769252 0.769252
0.523026 0.523026 0.523026
0.630463 0.630463 0.630463
0.656990 0.656990 0.656990
0.642335 0.642335 0.642335
0.759142 0.759142 0.759142
0.835821 0.835821 0.835821
0.503450 0.503450 0.503450
0.641134 0.641134 0.641134
0.726117 0.726117 0.726117
0.748103 0.748103 0.748103
0.783902 0.783902 0.783902
0.850803 0.850803 0.850803
0.592070 0.592070 0.592070
0.655597 0.655597 0.655597
0.740824 0.740824 0.740824
0.807782 0.807782 0.807782
0.836156 0.836156 0.836156
0.872822 0.872822 0.872822
0.674265 0.674265 0.674265
0.723735 0.723735 0.723735
0.784900 0.784900 0.784900
0.855499 0.855499 0.855499
0.914261 0.914261 0.914261
0.964349 0.964349 0.964349
