example_ofxGpuLutCube/bin/data/ofxGpuLutCube/LUT/A28 (dirty contrasty B&W).cube
LUT_3D_SIZE 6
0.000000 0.000000 0.000000
0.029145 0.029145 0.029145
0.054566 0.054566 0.054566
0.091341 0.091341 0.091341
0.136843 0.136843 0.136843
0.203469 0.203469 0.203469
0.061341 0.061341 0.061341
0.114504 0.114504 0.114504
0.150484 0.150484 0.150484
0.161959 0.161959 0.161959
0.190463 0.190463 0.190463
0.255439 0.255439 0.255439
0.129183 0.129183 0.129183
0.121218 0.121218 0.121218
0.263523 0.263523 0.263523
0.383154 0.383154 0.383154
0.413581 0.413581 0.413581
0.487697 0.487697 0.487697
0.202243 0.202243 0.202243
0.188083 0.188083 0.188083
0.244419 0.244419 0.244419
0.486122 0.486122 0.486122
0.649775 0.649775 0.649775
0.700947 0.700947 0.700947
0.309148 0.309148 0.309148
0.299443 0.299443 0.299443
0.269902 0.269902 0.269902
0.506523 0.506523 0.506523
0.712276 0.712276 0.712276
0.826436 0.826436 0.826436
0.550529 0.550529 0.550529
0.517089 0.517089 0.517089
0.475296 0.475296 0.475296
0.573623 0.573623 0.573623
0.771302 0.771302 0.771302
0.891900 0.891900 0.891900
0.080537 0.080537 0.080537
0.063355 0.063355 0.063355
0.104494 0.104494 0.104494
0.116915 0.116915 0.116915
0.150607 0.150607 0.150607
0.207681 0.207681 0.207681
0.140169 0.140169 0.140169
0.152682 0.152682 0.152682
0.157839 0.157839 0.157839
0.174563 0.174563 0.174563
0.203983 0.203983 0.203983
0.256694 0.256694 0.256694
0.212345 0.212345 0.212345
0.191073 0.191073 0.191073
0.281254 0.281254 0.281254
0.370886 0.370886 0.370886
0.400275 0.400275 0.400275
0.475279 0.475279 0.475279
0.270939 0.270939 0.270939
0.254520 0.254520 0.254520
0.269566 0.269566 0.269566
0.499123 0.499123 0.499123
0.644343 0.644343 0.644343
0.701049 0.701049 0.701049
0.380499 0.380499 0.380499
0.366766 0.366766 0.366766
0.327306 0.327306 0.327306
0.523095 0.523095 0.523095
0.719265 0.719265 0.719265
0.828183 0.828183 0.828184
0.591584 0.591584 0.591584
0.562559 0.562559 0.562559
0.525970 0.525970 0.525970
0.576966 0.576966 0.576966
0.773343 0.773343 0.773343
0.893752 0.893752 0.893752
0.152285 0.152285 0.152285
0.136110 0.136110 0.136110
0.124941 0.124941 0.124941
0.207156 0.207156 0.207156
0.226566 0.226566 0.226566
0.239187 0.239187 0.239187
0.232853 0.232853 0.232853
0.212802 0.212802 0.212802
0.187991 0.187991 0.187991
0.252201 0.252201 0.252201
0.251743 0.251743 0.251743
0.252246 0.252246 0.252246
0.283909 0.283909 0.283909
0.302159 0.302159 0.302159
0.343328 0.343328 0.343328
0.355718 0.355718 0.355718
0.386450 0.386450 0.386450
0.447726 0.447726 0.447726
0.439246 0.439246 0.439246
0.445838 0.445838 0.445838
0.408576 0.408576 0.408576
0.542168 0.542168 0.542168
0.641291 0.641291 0.641291
0.692671 0.692671 0.692671
0.547265 0.547265 0.547265
0.538659 0.538659 0.538659
0.508629 0.508629 0.508629
0.558465 0.558465 0.558465
0.737270 0.737270 0.737270
0.829561 0.829561 0.829561
0.680697 0.680697 0.680697
0.658812 0.658812 0.658812
0.631332 0.631332 0.631332
0.572154 0.572154 0.572154
0.778373 0.778373 0.778373
0.900908 0.900908 0.900908
0.244877 0.244877 0.244877
0.232700 0.232700 0.232700
0.208164 0.208164 0.208164
0.202731 0.202731 0.202731
0.318212 0.318212 0.318212
0.466479 0.466479 0.466479
0.338323 0.338323 0.338323
0.311467 0.311467 0.311467
0.273960 0.273960 0.273960
0.254765 0.254765 0.254765
0.370794 0.370794 0.370794
0.464888 0.464888 0.464888
0.425849 0.425849 0.425849
0.441047 0.441047 0.441047
0.439979 0.439979 0.439979
0.404944 0.404944 0.404944
0.510887 0.510887 0.510887
0.518442 0.518442 0.518442
0.515862 0.515862 0.515862
0.527031 0.527031 0.527031
0.556634 0.556634 0.556634
0.598535 0.598535 0.598535
0.616907 0.616907 0.616907
0.647562 0.647562 0.647562
0.670222 0.670222 0.670222
0.673823 0.673823 0.673823
0.682582 0.682582 0.682582
0.660883 0.660883 0.660883
0.761074 0.761074 0.761074
0.828917 0.828917 0.828917
0.787353 0.787353 0.787353
0.778005 0.778005 0.778005
0.763173 0.763173 0.763173
0.729448 0.729448 0.729448
0.781019 0.781019 0.781019
0.913713 0.913713 0.913713
0.434943 0.434943 0.434943
0.422522 0.422522 0.422522
0.387945 0.387945 0.387945
0.339452 0.339452 0.339452
0.339452 0.339452 0.339452
0.497182 0.497182 0.497182
0.508690 0.508690 0.508690
0.490303 0.490303 0.490303
0.457801 0.457801 0.457801
0.401190 0.401190 0.401190
0.384710 0.384710 0.384710
0.518161 0.518161 0.518161
0.602533 0.602533 0.602533
0.599145 0.599145 0.599145
0.576440 0.576440 0.576440
0.533379 0.533379 0.533379
0.510582 0.510582 0.510582
0.617953 0.617984 0.617984
0.658350 0.658350 0.658350
0.664179 0.664179 0.664179
0.676844 0.676844 0.676844
0.679591 0.679591 0.679591
0.657069 0.657069 0.657069
0.733682 0.733682 0.733682
0.722438 0.722438 0.722438
0.727779 0.727779 0.727779
0.743374 0.743374 0.743374
0.768734 0.768734 0.768734
0.798245 0.798245 0.798245
0.807650 0.807650 0.807650
0.859371 0.859371 0.859371
0.854596 0.854596 0.854596
0.858078 0.858078 0.858078
0.861490 0.861490 0.861490
0.838614 0.838614 0.838614
0.935969 0.935969 0.935969
0.707599 0.707599 0.707599
0.702030 0.702030 0.702030
0.684646 0.684646 0.684646
0.653060 0.653060 0.653060
0.598706 0.598706 0.598706
0.600943 0.600943 0.600943
0.730298 0.730298 0.730298
0.723564 0.723564 0.723564
0.704203 0.704203 0.704203
0.669582 0.669582 0.669582
0.607078 0.607078 0.607078
0.592685 0.592685 0.592685
0.774566 0.774566 0.774566
0.771446 0.771446 0.771446
0.758342 0.758342 0.758342
0.731734 0.731734 0.731734
0.681497 0.681497 0.681497
0.663682 0.663682 0.663682
0.822159 0.822159 0.822159
0.822871 0.822871 0.822871
0.824764 0.824764 0.824764
0.806841 0.806841 0.806841
0.772339 0.772339 0.772339
0.751575 0.751575 0.751575
0.863655 0.863655 0.863655
0.865003 0.865003 0.865003
0.869775 0.869775 0.869775
0.878112 0.878112 0.878112
0.876521 0.876521 0.876521
0.857504 0.857504 0.857504
0.913615 0.913615 0.913615
0.912802 0.912802 0.912802
0.917369 0.917369 0.917369
0.926876 0.926876 0.926876
0.945736 0.945736 0.945736
0.988390 0.988390 0.988390
