example_ofxGpuLutCube/bin/data/ofxGpuLutCube/LUT/A28 (dirty contrasty B&W).cube
LUT_3D_SIZE 16
0.000000 0.000000 0.000000
0.008667 0.008667 0.008667
0.020539 0.020539 0.020539
0.029145 0.029145 0.029145
0.037110 0.037110 0.037110
0.045777 0.045777 0.045777
0.054566 0.054566 0.054566
0.065919 0.065919 0.065919
0.078065 0.078065 0.078065
0.091341 0.091341 0.091341
0.105440 0.105440 0.105440
0.120546 0.120546 0.120546
0.136843 0.136843 0.136843
0.156313 0.156313 0.156313
0.179812 0.179812 0.179812
0.203469 0.203469 0.203469
0.023651 0.023651 0.023651
0.046479 0.046479 0.046479
0.063661 0.063661 0.063661
0.062501 0.062501 0.062501
0.062501 0.062501 0.062501
0.066194 0.066194 0.066194
0.073182 0.073182 0.073182
0.082856 0.082856 0.082856
0.092622 0.092622 0.092622
0.104311 0.104311 0.104311
0.117067 0.117067 0.117067
0.131197 0.131197 0.131197
0.146059 0.146059 0.146059
0.165225 0.165225 0.165225
0.188724 0.188724 0.188724
0.214344 0.214344 0.214344
0.041352 0.041352 0.041352
0.042481 0.042481 0.042481
0.079072 0.079072 0.079072
0.104707 0.104707 0.104707
0.102602 0.102602 0.102602
0.103365 0.103365 0.103365
0.106386 0.106386 0.106386
0.111513 0.111513 0.111513
0.117922 0.117922 0.117922
0.127626 0.127626 0.127626
0.138308 0.138308 0.138308
0.150210 0.150210 0.150210
0.163546 0.163546 0.163546
0.182620 0.182620 0.182620
0.206485 0.206485 0.206485
0.234794 0.234794 0.234794
0.061341 0.061341 0.061341
0.053590 0.053590 0.053590
0.073915 0.073915 0.073915
0.114504 0.114504 0.114504
0.152285 0.152285 0.152285
0.150607 0.150607 0.150607
0.150484 0.150484 0.150484
0.151522 0.151522 0.151522
0.155550 0.155550 0.155550
0.161959 0.161959 0.161959
0.169039 0.169039 0.169039
0.178378 0.178378 0.178378
0.190463 0.190463 0.190463
0.207706 0.207706 0.207706
0.228519 0.228519 0.228519
0.255439 0.255439 0.255439
0.082185 0.082185 0.082185
0.077577 0.077577 0.077577
0.080049 0.080049 0.080049
0.113466 0.113466 0.113466
0.158968 0.158968 0.158968
0.217777 0.217777 0.217777
0.214969 0.214969 0.214969
0.216892 0.216892 0.216892
0.219181 0.219181 0.219181
0.222782 0.222782 0.222782
0.227512 0.227512 0.227512
0.236393 0.236393 0.236393
0.250675 0.250675 0.250675
0.271550 0.271550 0.271550
0.297276 0.297276 0.297276
0.322866 0.322866 0.322866
0.105074 0.105074 0.105074
0.102419 0.102419 0.102419
0.096315 0.096315 0.096315
0.115877 0.115877 0.115877
0.153079 0.153079 0.153079
0.204288 0.204288 0.204288
0.290654 0.290654 0.290654
0.291295 0.291295 0.291295
0.292821 0.292821 0.292821
0.297642 0.297642 0.297642
0.299687 0.299687 0.299687
0.307591 0.307591 0.307591
0.320958 0.320958 0.320958
0.342657 0.342657 0.342657
0.369970 0.369970 0.369970
0.399065 0.399065 0.399065
0.129183 0.129183 0.129183
0.127321 0.127321 0.127321
0.121859 0.121859 0.121859
0.121218 0.121218 0.121218
0.154116 0.154116 0.154116
0.199893 0.199893 0.199893
0.263523 0.263523 0.263523
0.367468 0.367468 0.367468
0.383246 0.383246 0.383246
0.383154 0.383154 0.383154
0.388617 0.388617 0.388617
0.401923 0.401923 0.401923
0.413581 0.413581 0.413581
0.433722 0.433722 0.433722
0.459266 0.459266 0.459266
0.487697 0.487697 0.487697
0.153475 0.153475 0.153475
0.152956 0.152956 0.152956
0.149020 0.149020 0.149020
0.140749 0.140749 0.140749
0.159213 0.159213 0.159213
0.198734 0.198734 0.198734
0.251438 0.251438 0.251438
0.323125 0.323125 0.323125
0.426001 0.426001 0.426001
0.471534 0.471534 0.471534
0.475959 0.475959 0.475959
0.486854 0.486854 0.486854
0.501183 0.501183 0.501183
0.519005 0.519005 0.519005
0.536553 0.536553 0.536553
0.563533 0.563533 0.563533
0.171817 0.171817 0.171817
0.169741 0.169741 0.169741
0.166537 0.166537 0.166537
0.159945 0.159945 0.159945
0.157839 0.157839 0.157839
0.194064 0.194064 0.194064
0.244022 0.244022 0.244022
0.312230 0.312230 0.312230
0.402075 0.402075 0.402075
0.504173 0.504173 0.504173
0.569970 0.569970 0.569970
0.580346 0.580346 0.580346
0.592676 0.592676 0.592676
0.608148 0.608148 0.608148
0.627405 0.627405 0.627405
0.645231 0.645231 0.645231
0.202243 0.202243 0.202243
0.199130 0.199130 0.199130
0.194949 0.194949 0.194949
0.188083 0.188083 0.188083
0.178500 0.178500 0.178500
0.197543 0.197543 0.197543
0.244419 0.244419 0.244419
0.308080 0.308080 0.308080
0.392828 0.392828 0.392828
0.486122 0.486122 0.486122
0.568200 0.568200 0.568200
0.640162 0.640162 0.640162
0.649775 0.649775 0.649775
0.664332 0.664332 0.664332
0.682155 0.682155 0.682155
0.700947 0.700947 0.700947
0.237064 0.237064 0.237064
0.234104 0.234104 0.234104
0.229343 0.229343 0.229343
0.221988 0.221988 0.221988
0.212070 0.212070 0.212070
0.205631 0.205631 0.205631
0.250065 0.250065 0.250065
0.310460 0.310460 0.310460
0.390509 0.390509 0.390509
0.479591 0.479591 0.479591
0.559777 0.559777 0.559777
0.626581 0.626581 0.626581
0.699916 0.699916 0.699916
0.712978 0.712978 0.712978
0.728420 0.728420 0.728420
0.744765 0.744765 0.744765
0.278264 0.278264 0.278264
0.274784 0.274784 0.274784
0.269749 0.269749 0.269749
0.261570 0.261570 0.261570
0.250217 0.250217 0.250217
0.236057 0.236057 0.236057
0.256901 0.256901 0.256901
0.314977 0.314977 0.314977
0.391913 0.391913 0.391913
0.477760 0.477760 0.477760
0.556420 0.556420 0.556420
0.623682 0.623682 0.623682
0.681300 0.681300 0.681300
0.753445 0.753445 0.753445
0.767788 0.767788 0.767788
0.784828 0.784828 0.784828
0.309148 0.309148 0.309148
0.307195 0.307195 0.307195
0.304906 0.304906 0.304906
0.299443 0.299443 0.299443
0.291539 0.291539 0.291539
0.279454 0.279454 0.279454
0.269902 0.269902 0.269902
0.333349 0.333349 0.333349
0.417395 0.417395 0.417395
0.506523 0.506523 0.506523
0.586816 0.586816 0.586816
0.654292 0.654292 0.654292
0.712276 0.712276 0.712276
0.758328 0.758328 0.758328
0.813535 0.813535 0.813535
0.826436 0.826436 0.826436
0.395239 0.395239 0.395239
0.379522 0.379522 0.379522
0.369207 0.369207 0.369207
0.360235 0.360235 0.360235
0.350805 0.350805 0.350805
0.336797 0.336797 0.336797
0.319463 0.319463 0.319463
0.349371 0.349371 0.349371
0.435492 0.435492 0.435492
0.522026 0.522026 0.522026
0.599390 0.599390 0.599390
0.664332 0.664332 0.664332
0.720089 0.720089 0.720089
0.765103 0.765103 0.765103
0.801450 0.801450 0.801450
0.845288 0.845288 0.845288
0.471839 0.471839 0.471839
0.456184 0.456184 0.456184
0.443885 0.443885 0.443885
0.433112 0.433112 0.433112
0.421851 0.421851 0.421851
0.406897 0.406897 0.406897
0.388434 0.388434 0.388434
0.365850 0.365850 0.365850
0.453773 0.453773 0.453773
0.539513 0.539513 0.539513
0.615015 0.615015 0.615015
0.679469 0.679469 0.679469
0.735439 0.735439 0.735439
0.781338 0.781338 0.781338
0.819059 0.819059 0.819059
0.847156 0.847156 0.847156
0.550529 0.550529 0.550529
0.536958 0.536958 0.536958
0.526442 0.526442 0.526442
0.517089 0.517089 0.517089
0.506825 0.506825 0.506825
0.493034 0.493034 0.493034
0.475296 0.475296 0.475296
0.450900 0.450900 0.450900
0.485073 0.485073 0.485073
0.573623 0.573623 0.573623
0.650485 0.650485 0.650485
0.715180 0.715180 0.715180
0.771302 0.771302 0.771302
0.817623 0.817623 0.817623
0.857611 0.857611 0.857611
0.891900 0.891900 0.891900
0.022095 0.022095 0.022095
0.024048 0.024048 0.024048
0.043244 0.043244 0.043244
0.042084 0.042084 0.042084
0.049348 0.049348 0.049348
0.057099 0.057099 0.057099
0.066743 0.066743 0.066743
0.077089 0.077089 0.077089
0.087404 0.087404 0.087404
0.099519 0.099519 0.099519
0.112428 0.112428 0.112428
0.125917 0.125917 0.125917
0.140322 0.140322 0.140322
0.158206 0.158206 0.158206
0.179599 0.179599 0.179599
0.202712 0.202712 0.202712
0.056458 0.056458 0.056458
0.064515 0.064515 0.064515
0.065064 0.065064 0.065064
0.067872 0.067872 0.067872
0.071595 0.071595 0.071595
0.076844 0.076844 0.076844
0.084474 0.084474 0.084474
0.092805 0.092805 0.092805
0.101259 0.101259 0.101259
0.112581 0.112581 0.112581
0.124300 0.124300 0.124300
0.136690 0.136690 0.136690
0.149935 0.149935 0.149935
0.167483 0.167483 0.167483
0.188510 0.188510 0.188510
0.212650 0.212650 0.212650
0.084718 0.084718 0.084718
0.074891 0.074891 0.074891
0.095308 0.095308 0.095308
0.111177 0.111177 0.111177
0.110994 0.110994 0.110994
0.112581 0.112581 0.112581
0.115541 0.115541 0.115541
0.120241 0.120241 0.120241
0.127016 0.127016 0.127016
0.135805 0.135805 0.135805
0.144808 0.144808 0.144808
0.155154 0.155154 0.155154
0.167117 0.167117 0.167117
0.184695 0.184695 0.184695
0.205997 0.205997 0.205997
0.231103 0.231103 0.231103
0.097719 0.097719 0.097719
0.088746 0.088746 0.088746
0.090913 0.090913 0.090913
0.127962 0.127962 0.127962
0.158572 0.158572 0.158572
0.158450 0.158450 0.158450
0.158450 0.158450 0.158450
0.160189 0.160189 0.160189
0.163912 0.163912 0.163912
0.169406 0.169406 0.169406
0.175814 0.175814 0.175814
0.184268 0.184268 0.184268
0.197055 0.197055 0.197055
0.213626 0.213626 0.213626
0.232609 0.232609 0.232609
0.255932 0.255932 0.255932
0.106783 0.106783 0.106783
0.101656 0.101656 0.101656
0.092805 0.092805 0.092805
0.120058 0.120058 0.120058
0.160311 0.160311 0.160311
0.209018 0.209018 0.209018
0.209201 0.209201 0.209201
0.212802 0.212802 0.212802
0.214786 0.214786 0.214786
0.218570 0.218570 0.218570
0.223972 0.223972 0.223972
0.233341 0.233341 0.233341
0.247868 0.247868 0.247868
0.267796 0.267796 0.267796
0.292241 0.292241 0.292241
0.318798 0.318798 0.318798
0.123659 0.123659 0.123659
0.120241 0.120241 0.120241
0.112947 0.112947 0.112947
0.121065 0.121065 0.121065
0.156313 0.156313 0.156313
0.204776 0.204776 0.204776
0.280064 0.280064 0.280064
0.281071 0.281071 0.281071
0.283848 0.283848 0.283848
0.289311 0.289311 0.289311
0.292576 0.292576 0.292576
0.301610 0.301610 0.301610
0.315038 0.315038 0.315038
0.335149 0.335149 0.335149
0.360998 0.360998 0.360998
0.392027 0.392027 0.392027
0.145510 0.145510 0.145510
0.143008 0.143008 0.143008
0.136538 0.136538 0.136538
0.126711 0.126711 0.126711
0.158083 0.158083 0.158083
0.201358 0.201358 0.201358
0.260410 0.260410 0.260410
0.359258 0.359258 0.359258
0.371283 0.371283 0.371283
0.373022 0.373022 0.373022
0.378576 0.378576 0.378576
0.390417 0.390417 0.390417
0.402228 0.402228 0.402228
0.421454 0.421454 0.421454
0.446296 0.446296 0.446296
0.477687 0.477687 0.477687
0.166171 0.166171 0.166171
0.164614 0.164614 0.164614
0.159335 0.159335 0.159335
0.150210 0.150210 0.150210
0.160189 0.160189 0.160189
0.198550 0.198550 0.198550
0.250217 0.250217 0.250217
0.320226 0.320226 0.320226
0.421790 0.421790 0.421790
0.461341 0.461341 0.461341
0.465797 0.465797 0.465797
0.476967 0.476967 0.476967
0.492378 0.492378 0.492378
0.509209 0.509209 0.509209
0.526726 0.526726 0.526726
0.552286 0.552286 0.552286
0.186313 0.186313 0.186313
0.183597 0.183597 0.183597
0.179049 0.179049 0.179049
0.171481 0.171481 0.171481
0.161959 0.161959 0.161959
0.197452 0.197452 0.197452
0.247013 0.247013 0.247013
0.313878 0.313878 0.313878
0.401312 0.401312 0.401312
0.502281 0.502281 0.502281
0.563867 0.563867 0.563867
0.574273 0.574273 0.574273
0.586664 0.586664 0.586664
0.603510 0.603510 0.603510
0.624659 0.624659 0.624659
0.644660 0.644660 0.644660
0.214420 0.214420 0.214420
0.211429 0.211429 0.211429
0.206577 0.206577 0.206577
0.199222 0.199222 0.199222
0.189334 0.189334 0.189334
0.201755 0.201755 0.201755
0.247532 0.247532 0.247532
0.309941 0.309941 0.309941
0.392157 0.392157 0.392157
0.483131 0.483131 0.483131
0.564508 0.564508 0.564508
0.634394 0.634394 0.634394
0.645167 0.645167 0.645167
0.660975 0.660975 0.660975
0.680110 0.680110 0.680110
0.700806 0.700806 0.700806
0.248844 0.248844 0.248844
0.246464 0.246464 0.246464
0.241367 0.241367 0.241367
0.233585 0.233585 0.233585
0.222690 0.222690 0.222690
0.209201 0.209201 0.209201
0.252354 0.252354 0.252354
0.311406 0.311406 0.311406
0.390021 0.390021 0.390021
0.477424 0.477424 0.477424
0.556420 0.556420 0.556420
0.623194 0.623194 0.623194
0.695735 0.695735 0.695735
0.709438 0.709438 0.709438
0.725704 0.725704 0.725704
0.743227 0.743227 0.743227
0.288792 0.288792 0.288792
0.285679 0.285679 0.285679
0.279942 0.279942 0.279942
0.271336 0.271336 0.271336
0.259831 0.259831 0.259831
0.245274 0.245274 0.245274
0.259770 0.259770 0.259770
0.317571 0.317571 0.317571
0.392920 0.392920 0.392920
0.477028 0.477028 0.477028
0.554162 0.554162 0.554162
0.620600 0.620600 0.620600
0.677485 0.677485 0.677485
0.748714 0.748714 0.748714
0.762692 0.762692 0.762692
0.780215 0.780215 0.780215
0.323796 0.323796 0.323796
0.321569 0.321569 0.321569
0.318456 0.318456 0.318456
0.312169 0.312169 0.312169
0.303197 0.303197 0.303197
0.290532 0.290532 0.290532
0.275059 0.275059 0.275059
0.337560 0.337560 0.337560
0.420874 0.420874 0.420874
0.508751 0.508751 0.508751
0.587701 0.587701 0.587701
0.654566 0.654566 0.654566
0.712459 0.712459 0.712459
0.758450 0.758450 0.758450
0.814359 0.814359 0.814359
0.827139 0.827139 0.827139
0.409125 0.409125 0.409125
0.393988 0.393988 0.393988
0.383703 0.383703 0.383703
0.374365 0.374365 0.374365
0.364324 0.364324 0.364324
0.349737 0.349737 0.349737
0.331151 0.331151 0.331151
0.352819 0.352819 0.352819
0.438056 0.438056 0.438056
0.523522 0.523522 0.523522
0.600000 0.600000 0.600000
0.664698 0.664698 0.664698
0.720577 0.720577 0.720577
0.765713 0.765713 0.765713
0.802335 0.802335 0.802335
0.846687 0.846687 0.846687
0.483284 0.483284 0.483284
0.468605 0.468605 0.468605
0.457282 0.457282 0.457282
0.446815 0.446815 0.446815
0.435431 0.435431 0.435431
0.419989 0.419989 0.419989
0.400855 0.400855 0.400855
0.375036 0.375036 0.375036
0.455940 0.455940 0.455940
0.540673 0.540673 0.540673
0.615595 0.615595 0.615595
0.679866 0.679866 0.679866
0.735683 0.735683 0.735683
0.781674 0.781674 0.781674
0.819669 0.819669 0.819669
0.848069 0.848069 0.848069
0.559193 0.559193 0.559193
0.546237 0.546237 0.546237
0.536183 0.536183 0.536183
0.527075 0.527075 0.527075
0.517293 0.517293 0.517293
0.503845 0.503845 0.503845
0.486387 0.486387 0.486387
0.462201 0.462201 0.462201
0.486726 0.486726 0.486726
0.574723 0.574723 0.574723
0.651004 0.651004 0.651004
0.715215 0.715215 0.715215
0.770790 0.770790 0.770790
0.816993 0.816993 0.816993
0.857042 0.857042 0.857042
0.891514 0.891514 0.891514
0.054566 0.054566 0.054566
0.048280 0.048280 0.048280
0.043244 0.043244 0.043244
0.064240 0.064240 0.064240
0.073182 0.073182 0.073182
0.074403 0.074403 0.074403
0.078798 0.078798 0.078798
0.085847 0.085847 0.085847
0.095125 0.095125 0.095125
0.106783 0.106783 0.106783
0.119081 0.119081 0.119081
0.131960 0.131960 0.131960
0.145235 0.145235 0.145235
0.162936 0.162936 0.162936
0.183505 0.183505 0.183505
0.205591 0.205591 0.205591
0.086519 0.086519 0.086519
0.083314 0.083314 0.083314
0.074159 0.074159 0.074159
0.089387 0.089387 0.089387
0.085603 0.085603 0.085603
0.086732 0.086732 0.086732
0.091341 0.091341 0.091341
0.099306 0.099306 0.099306
0.108248 0.108248 0.108248
0.119081 0.119081 0.119081
0.130282 0.130282 0.130282
0.142153 0.142153 0.142153
0.154635 0.154635 0.154635
0.171817 0.171817 0.171817
0.192111 0.192111 0.192111
0.215375 0.215375 0.215375
0.100496 0.100496 0.100496
0.102998 0.102998 0.102998
0.108980 0.108980 0.108980
0.109346 0.109346 0.109346
0.111696 0.111696 0.111696
0.115358 0.115358 0.115358
0.119570 0.119570 0.119570
0.124453 0.124453 0.124453
0.132113 0.132113 0.132113
0.140749 0.140749 0.140749
0.149538 0.149538 0.149538
0.159457 0.159457 0.159457
0.171481 0.171481 0.171481
0.188388 0.188388 0.188388
0.208896 0.208896 0.208896
0.233278 0.233278 0.233278
0.128115 0.128115 0.128115
0.126864 0.126864 0.126864
0.117739 0.117739 0.117739
0.138888 0.138888 0.138888
0.157473 0.157473 0.157473
0.158724 0.158724 0.158724
0.158846 0.158846 0.158846
0.162570 0.162570 0.162570
0.166781 0.166781 0.166781
0.172519 0.172519 0.172519
0.179171 0.179171 0.179171
0.187564 0.187564 0.187564
0.200381 0.200381 0.200381
0.216068 0.216068 0.216068
0.234195 0.234195 0.234195
0.256372 0.256372 0.256372
0.141024 0.141024 0.141024
0.135805 0.135805 0.135805
0.126558 0.126558 0.126558
0.131655 0.131655 0.131655
0.169284 0.169284 0.169284
0.206760 0.206760 0.206760
0.208621 0.208621 0.208621
0.212436 0.212436 0.212436
0.214511 0.214511 0.214511
0.219181 0.219181 0.219181
0.225193 0.225193 0.225193
0.235569 0.235569 0.235569
0.250065 0.250065 0.250065
0.269902 0.269902 0.269902
0.293889 0.293889 0.293889
0.320144 0.320144 0.320144
0.153475 0.153475 0.153475
0.149935 0.149935 0.149935
0.142306 0.142306 0.142306
0.132570 0.132570 0.132570
0.166293 0.166293 0.166293
0.212985 0.212985 0.212985
0.277317 0.277317 0.277317
0.279545 0.279545 0.279545
0.283635 0.283635 0.283635
0.287999 0.287999 0.287999
0.292302 0.292302 0.292302
0.301976 0.301976 0.301976
0.315740 0.315740 0.315740
0.335851 0.335851 0.335851
0.361486 0.361486 0.361486
0.392424 0.392424 0.392424
0.171695 0.171695 0.171695
0.169162 0.169162 0.169162
0.162570 0.162570 0.162570
0.151766 0.151766 0.151766
0.167849 0.167849 0.167849
0.210666 0.210666 0.210666
0.268986 0.268986 0.268986
0.368841 0.368841 0.368841
0.369299 0.369299 0.369299
0.372045 0.372045 0.372045
0.378454 0.378454 0.378454
0.388952 0.388952 0.388952
0.401190 0.401190 0.401190
0.420325 0.420325 0.420325
0.445289 0.445289 0.445289
0.477013 0.477013 0.477013
0.189853 0.189853 0.189853
0.188510 0.188510 0.188510
0.182864 0.182864 0.182864
0.173434 0.173434 0.173434
0.169497 0.169497 0.169497
0.207431 0.207431 0.207431
0.258824 0.258824 0.258824
0.328191 0.328191 0.328191
0.430213 0.430213 0.430213
0.459876 0.459876 0.459876
0.465248 0.465248 0.465248
0.476539 0.476539 0.476539
0.492164 0.492164 0.492164
0.507408 0.507408 0.507408
0.524926 0.524926 0.524926
0.550184 0.550184 0.550184
0.208255 0.208255 0.208255
0.205447 0.205447 0.205447
0.200595 0.200595 0.200595
0.192508 0.192508 0.192508
0.181552 0.181552 0.181552
0.205905 0.205905 0.205905
0.255497 0.255497 0.255497
0.322423 0.322423 0.322423
0.408728 0.408728 0.408728
0.508995 0.508995 0.508995
0.562676 0.562676 0.562676
0.573419 0.573419 0.573419
0.585931 0.585931 0.585931
0.603235 0.603235 0.603235
0.624750 0.624750 0.624750
0.644207 0.644207 0.644207
0.235660 0.235660 0.235660
0.232700 0.232700 0.232700
0.227665 0.227665 0.227665
0.219974 0.219974 0.219974
0.209659 0.209659 0.209659
0.210300 0.210300 0.210300
0.256229 0.256229 0.256229
0.318730 0.318730 0.318730
0.400763 0.400763 0.400763
0.489509 0.489509 0.489509
0.569604 0.569604 0.569604
0.633448 0.633448 0.633448
0.644648 0.644648 0.644648
0.660761 0.660761 0.660761
0.680140 0.680140 0.680140
0.700987 0.700987 0.700987
0.270237 0.270237 0.270237
0.267857 0.267857 0.267857
0.262669 0.262669 0.262669
0.254307 0.254307 0.254307
0.242863 0.242863 0.242863
0.228092 0.228092 0.228092
0.260716 0.260716 0.260716
0.320348 0.320348 0.320348
0.398260 0.398260 0.398260
0.483742 0.483742 0.483742
0.560510 0.560510 0.560510
0.625788 0.625788 0.625788
0.695338 0.695338 0.695338
0.709255 0.709255 0.709255
0.725734 0.725734 0.725734
0.743409 0.743409 0.743409
0.310002 0.310002 0.310002
0.306828 0.306828 0.306828
0.300755 0.300755 0.300755
0.291875 0.291875 0.291875
0.280003 0.280003 0.280003
0.264805 0.264805 0.264805
0.267155 0.267155 0.267155
0.325475 0.325475 0.325475
0.400671 0.400671 0.400671
0.483192 0.483192 0.483192
0.558404 0.558404 0.558404
0.623621 0.623621 0.623621
0.679500 0.679500 0.679500
0.748501 0.748501 0.748501
0.762417 0.762417 0.762417
0.779910 0.779910 0.779910
0.345800 0.345800 0.345800
0.343389 0.343389 0.343389
0.340032 0.340032 0.340032
0.333257 0.333257 0.333257
0.324071 0.324071 0.324071
0.310704 0.310704 0.310704
0.294652 0.294652 0.294652
0.344701 0.344701 0.344701
0.428107 0.428107 0.428107
0.514549 0.514549 0.514549
0.592126 0.592126 0.592126
0.658045 0.658045 0.658045
0.715084 0.715084 0.715084
0.760342 0.760342 0.760342
0.816190 0.816190 0.816190
0.827580 0.827580 0.827580
0.430213 0.430213 0.430213
0.415351 0.415351 0.415351
0.405280 0.405280 0.405280
0.395972 0.395972 0.395972
0.385534 0.385534 0.385534
0.370550 0.370550 0.370550
0.351659 0.351659 0.351659
0.358892 0.358892 0.358892
0.444038 0.444038 0.444038
0.528466 0.528466 0.528466
0.603693 0.603693 0.603693
0.667567 0.667567 0.667567
0.722774 0.722774 0.722774
0.767483 0.767483 0.767483
0.803769 0.803769 0.803769
0.848424 0.848424 0.848424
0.500389 0.500389 0.500389
0.486336 0.486336 0.486336
0.475685 0.475685 0.475685
0.465583 0.465583 0.465583
0.454475 0.454475 0.454475
0.439307 0.439307 0.439307
0.420569 0.420569 0.420569
0.394659 0.394659 0.394659
0.459510 0.459510 0.459510
0.543572 0.543572 0.543572
0.618067 0.618067 0.618067
0.681941 0.681941 0.681941
0.737484 0.737484 0.737484
0.783169 0.783169 0.783169
0.821012 0.821012 0.821012
0.849321 0.849321 0.849321
0.572115 0.572115 0.572115
0.559708 0.559708 0.559708
0.549902 0.549902 0.549902
0.541281 0.541281 0.541281
0.532076 0.532076 0.532076
0.519175 0.519175 0.519175
0.502310 0.502310 0.502310
0.479044 0.479044 0.479044
0.487608 0.487608 0.487608
0.575779 0.575779 0.575779
0.652177 0.652177 0.652177
0.716384 0.716384 0.716384
0.771745 0.771745 0.771745
0.817884 0.817884 0.817884
0.857872 0.857872 0.857872
0.892312 0.892312 0.892312
0.080537 0.080537 0.080537
0.074403 0.074403 0.074403
0.064240 0.064240 0.064240
0.063355 0.063355 0.063355
0.082185 0.082185 0.082185
0.105074 0.105074 0.105074
0.104494 0.104494 0.104494
0.106020 0.106020 0.106020
0.108980 0.108980 0.108980
0.116915 0.116915 0.116915
0.124788 0.124788 0.124788
0.137270 0.137270 0.137270
0.150607 0.150607 0.150607
0.167605 0.167605 0.167605
0.187045 0.187045 0.187045
0.207681 0.207681 0.207681
0.113130 0.113130 0.113130
0.102998 0.102998 0.102998
0.092195 0.092195 0.092195
0.086519 0.086519 0.086519
0.101259 0.101259 0.101259
0.115206 0.115206 0.115206
0.113832 0.113832 0.113832
0.114168 0.114168 0.114168
0.117739 0.117739 0.117739
0.124941 0.124941 0.124941
0.135378 0.135378 0.135378
0.147127 0.147127 0.147127
0.159823 0.159823 0.159823
0.176272 0.176272 0.176272
0.195346 0.195346 0.195346
0.217372 0.217371 0.217372
0.126711 0.126711 0.126711
0.127016 0.127016 0.127016
0.124636 0.124636 0.124636
0.117403 0.117403 0.117403
0.131197 0.131197 0.131197
0.130434 0.130434 0.130434
0.128267 0.128267 0.128267
0.129519 0.129519 0.129519
0.135531 0.135531 0.135531
0.144533 0.144533 0.144533
0.153597 0.153597 0.153597
0.163546 0.163546 0.163546
0.175937 0.175937 0.175937
0.192111 0.192111 0.192111
0.211704 0.211704 0.211704
0.234454 0.234454 0.234454
0.140169 0.140169 0.140169
0.140902 0.140902 0.140902
0.144808 0.144808 0.144808
0.152682 0.152682 0.152682
0.153353 0.153353 0.153353
0.155032 0.155032 0.155032
0.157839 0.157839 0.157839
0.162814 0.162814 0.162814
0.167971 0.167971 0.167971
0.174563 0.174563 0.174563
0.181888 0.181888 0.181888
0.190768 0.190768 0.190768
0.203983 0.203983 0.203983
0.219089 0.219089 0.219089
0.236240 0.236240 0.236240
0.256694 0.256694 0.256694
0.164523 0.164523 0.164523
0.165103 0.165103 0.165103
0.165927 0.165927 0.165927
0.157839 0.157839 0.157839
0.181430 0.181430 0.181430
0.204105 0.204105 0.204105
0.207248 0.207248 0.207248
0.210117 0.210117 0.210117
0.213626 0.213626 0.213626
0.219364 0.219364 0.219364
0.226322 0.226322 0.226322
0.238010 0.238010 0.238010
0.252873 0.252873 0.252873
0.272160 0.272160 0.272160
0.295262 0.295262 0.295262
0.320158 0.320158 0.320158
0.188907 0.188907 0.188907
0.190372 0.190372 0.190372
0.185336 0.185336 0.185336
0.172152 0.172152 0.172152
0.179477 0.179477 0.179477
0.225101 0.225101 0.225101
0.273899 0.273899 0.273899
0.277928 0.277928 0.277928
0.283268 0.283268 0.283268
0.286259 0.286259 0.286259
0.292180 0.292180 0.292180
0.302586 0.302586 0.302586
0.316777 0.316777 0.316777
0.336645 0.336645 0.336645
0.361486 0.361486 0.361486
0.391850 0.391850 0.391850
0.212345 0.212345 0.212345
0.209842 0.209842 0.209842
0.202640 0.202640 0.202640
0.191073 0.191073 0.191073
0.181338 0.181338 0.181338
0.223636 0.223636 0.223636
0.281254 0.281254 0.281254
0.365698 0.365698 0.365698
0.366430 0.366430 0.366430
0.370886 0.370886 0.370886
0.378912 0.378912 0.378912
0.387427 0.387427 0.387427
0.400275 0.400275 0.400275
0.419501 0.419501 0.419501
0.444190 0.444190 0.444190
0.475279 0.475279 0.475279
0.228031 0.228031 0.228031
0.227268 0.227268 0.227268
0.221134 0.221134 0.221134
0.210483 0.210483 0.210483
0.195560 0.195560 0.195560
0.220249 0.220249 0.220249
0.271153 0.271153 0.271153
0.340185 0.340185 0.340185
