example_ofxGpuLutCube/bin/data/ofxGpuLutCube/LUT/A29 (bright yellow neutral).cube
LUT_3D_SIZE 6
0.000000 0.000000 0.000000
0.246460 -0.046500 -0.046500
0.492980 -0.093000 -0.093000
0.739480 -0.139500 -0.139500
0.985940 -0.185900 -0.185900
1.232003 -0.232325 -0.232325
-0.046500 0.246460 -0.046500
0.294768 0.294768 -0.099752
0.543148 0.200556 -0.143136
0.764440 0.145496 -0.164428
0.988524 0.105924 -0.188484
1.232003 0.060615 -0.232325
-0.093000 0.492980 -0.093000
0.200544 0.544540 -0.144560
0.590792 0.590792 -0.198284
0.865620 0.489164 -0.265640
1.086532 0.400412 -0.286580
1.307082 0.338828 -0.307405
-0.139500 0.739480 -0.139500
0.145100 0.765696 -0.165708
0.489924 0.867980 -0.267976
0.888032 0.888032 -0.295588
1.184596 0.792516 -0.384556
1.409002 0.682275 -0.409325
-0.185900 0.985940 -0.185900
0.105660 0.989080 -0.189056
0.400372 1.089068 -0.289060
0.793028 1.185708 -0.385700
1.186588 1.186588 -0.391572
1.485821 1.091937 -0.486143
-0.232325 1.232003 -0.232325
0.060615 1.232003 -0.232325
0.338109 1.310981 -0.311304
0.682640 1.411012 -0.411335
1.091937 1.485821 -0.486143
1.485666 1.485666 -0.486298
-0.102720 -0.102720 0.302760
0.245260 -0.047700 0.245260
0.492980 -0.093000 0.199992
0.739480 -0.139500 0.153540
0.985940 -0.185900 0.107040
1.232003 -0.232325 0.060615
-0.113408 0.307672 0.307672
0.198034 0.198696 0.200501
0.447680 0.154740 0.154740
0.694180 0.108240 0.108240
0.940641 0.061743 0.061743
1.186703 0.015335 0.015335
-0.154944 0.554924 0.200688
0.154740 0.447680 0.154740
0.493492 0.493492 0.098952
0.743242 0.400932 0.056749
0.964468 0.345750 0.035538
1.189391 0.305393 0.010247
-0.168340 0.768360 0.144316
0.108240 0.694180 0.108240
0.400910 0.744533 0.055492
0.790744 0.790744 0.001709
1.065628 0.689130 -0.065618
1.286352 0.600491 -0.086635
-0.188444 0.988484 0.105940
0.061743 0.940641 0.061743
0.345333 0.965710 0.034293
0.689875 1.067900 -0.067906
1.089268 1.089268 -0.094292
1.385472 0.993325 -0.185834
-0.232325 1.232003 0.060615
0.015335 1.186703 0.015335
0.305102 1.190038 0.009608
0.600492 1.288710 -0.089024
0.993710 1.386339 -0.186685
1.388426 1.388426 -0.189098
-0.205440 -0.205440 0.605460
0.199332 -0.151816 0.551804
0.491180 -0.094800 0.491180
0.739480 -0.139500 0.446480
0.985940 -0.185900 0.400020
1.232003 -0.232325 0.353595
-0.213288 0.200092 0.613276
0.099918 0.099918 0.505358
0.444680 0.151740 0.444680
0.692980 0.107040 0.400007
0.939444 0.060556 0.353520
1.185503 0.014135 0.307095
-0.225392 0.616804 0.616804
0.085164 0.506269 0.506269
0.398138 0.400116 0.401158
0.648280 0.355320 0.355320
0.894760 0.308820 0.308820
1.140902 0.262395 0.262395
-0.296700 0.896696 0.499680
0.045020 0.755000 0.401137
0.355320 0.648280 0.355320
0.693492 0.693492 0.298972
0.943294 0.600912 0.256705
1.164063 0.545877 0.235594
-0.310064 1.110072 0.400476
0.031600 0.968400 0.344611
0.308820 0.894760 0.308820
0.600892 0.944517 0.255460
0.992026 0.992026 0.202986
1.265274 0.889043 0.134415
-0.323498 1.323175 0.335730
0.010404 1.189233 0.305456
0.262395 1.140902 0.262395
0.545496 1.165266 0.234431
0.889828 1.267514 0.132152
1.291185 1.291185 0.108202
-0.308200 -0.308200 0.908180
0.104944 -0.284024 0.884004
0.456388 -0.171276 0.771256
0.737680 -0.141300 0.737680
0.985940 -0.185900 0.692980
1.232003 -0.232325 0.646555
-0.312632 0.095816 0.912612
-0.002842 -0.002842 0.808116
0.398992 0.048143 0.751858
0.691180 0.105240 0.691180
0.939444 0.060556 0.646480
1.185503 0.014135 0.600063
-0.328072 0.509484 0.928092
-0.013382 0.400169 0.813368
0.301244 0.301244 0.706724
0.644680 0.351720 0.644680
0.892960 0.307020 0.599993
1.139102 0.260595 0.553595
-0.335936 0.927388 0.927388
-0.025349 0.816823 0.816823
0.285188 0.706268 0.706268
0.599174 0.602140 0.601530
0.848260 0.555320 0.555320
1.094402 0.508895 0.508895
-0.435460 1.235420 0.818100
-0.096784 1.096778 0.699655
0.245026 0.954954 0.601137
0.555320 0.848260 0.555320
0.894768 0.894768 0.500228
1.142902 0.800747 0.456788
-0.451855 1.451532 0.690874
-0.110026 1.309711 0.600606
0.231659 1.167999 0.544749
0.508895 1.094402 0.508895
0.800716 1.144189 0.455508
1.193905 1.193905 0.405442
-0.410980 -0.410980 1.210940
-0.004640 -0.409016 1.208992
0.399612 -0.303748 1.103788
0.695900 -0.192492 0.992532
0.984740 -0.187100 0.984740
1.232003 -0.232325 0.939535
-0.411836 -0.005888 1.211812
-0.105564 -0.105564 1.110876
0.304733 -0.083945 1.083935
0.656424 0.028732 0.971268
0.938257 0.059359 0.938257
1.185503 0.014135 0.893035
-0.427824 0.400068 1.227832
-0.112640 0.295872 1.112650
0.198524 0.198524 1.009467
0.598974 0.248201 0.951808
0.891760 0.305820 0.891760
1.139102 0.260595 0.846535
-0.441868 0.820940 1.241828
-0.128148 0.709481 1.128142
0.186594 0.600142 1.013430
0.501271 0.501271 0.906693
0.845260 0.552320 0.845260
1.092602 0.507095 0.800083
-0.445084 1.239332 1.239332
-0.134468 1.128772 1.128772
0.176052 1.018214 1.018214
0.486576 0.907686 0.907686
0.800171 0.802821 0.801304
1.047302 0.754815 0.754815
-0.552522 1.552199 1.131799
-0.237132 1.436849 1.019068
0.103187 1.296510 0.899562
0.445179 1.154518 0.800870
0.754815 1.047302 0.754815
1.096606 1.096606 0.702722
-0.513534 -0.513534 1.513211
-0.108054 -0.513534 1.513211
0.312673 -0.435743 1.435420
0.664557 -0.323620 1.323297
0.939535 -0.232325 1.232003
1.231929 -0.232399 1.231929
-0.513534 -0.108054 1.513211
-0.208118 -0.208118 1.413147
0.195959 -0.207913 1.407598
0.599699 -0.103683 1.303321
0.895329 0.009099 1.190539
1.185429 0.014061 1.185429
-0.526274 0.294949 1.525952
-0.211925 0.194199 1.411610
0.095969 0.095969 1.311672
0.504846 0.116216 1.283481
0.856771 0.228978 1.170711
1.139028 0.260521 1.139028
-0.542027 0.708636 1.541704
-0.227681 0.600225 1.427366
0.087506 0.496033 1.312175
0.398666 0.398666 1.208936
0.799495 0.448491 1.151174
1.092528 0.507021 1.092528
-0.552522 1.131799 1.552199
-0.241768 1.021152 1.441485
0.071913 0.909672 1.327753
0.386750 0.800301 1.212915
0.700062 0.700062 1.104888
1.046028 0.753541 1.046028
-0.552698 1.552023 1.552023
-0.242178 1.441542 1.441542
0.068342 1.330963 1.330963
0.378902 1.220442 1.220442
0.689482 1.109883 1.109883
0.999728 0.999930 0.999772
