example_ofxGpuLutCube/bin/data/ofxGpuLutCube/LUT/A29 (bright yellow neutral).cube
LUT_3D_SIZE 16
0.000000 0.000000 0.000000
0.082153 -0.015500 -0.015500
0.164307 -0.031000 -0.031000
0.246460 -0.046500 -0.046500
0.328613 -0.062000 -0.062000
0.410833 -0.077500 -0.077500
0.492980 -0.093000 -0.093000
0.575127 -0.108500 -0.108500
0.657273 -0.124000 -0.124000
0.739480 -0.139500 -0.139500
0.821633 -0.154900 -0.154900
0.903787 -0.170400 -0.170400
0.985940 -0.185900 -0.185900
1.068093 -0.201400 -0.201400
1.150253 -0.216900 -0.216900
1.232003 -0.232325 -0.232325
-0.015500 0.082153 -0.015500
0.097774 0.097793 -0.032913
0.181048 0.067341 -0.047660
0.254815 0.048781 -0.054779
0.329620 0.035380 -0.063002
0.411278 0.019971 -0.077944
0.492980 0.004653 -0.093000
0.575127 -0.010847 -0.108500
0.657273 -0.026347 -0.124000
0.739480 -0.041753 -0.139500
0.821633 -0.057253 -0.154900
0.903787 -0.072753 -0.170400
0.985940 -0.088253 -0.185900
1.068093 -0.103753 -0.201400
1.150253 -0.119253 -0.216900
1.232003 -0.134678 -0.232325
-0.031000 0.164307 -0.031000
0.067340 0.181547 -0.048159
0.196372 0.196372 -0.066683
0.287696 0.163245 -0.087725
0.362037 0.133961 -0.095360
0.435789 0.113298 -0.102484
0.509627 0.097177 -0.109647
0.583460 0.083600 -0.116787
0.659136 0.070664 -0.125862
0.740232 0.055549 -0.140247
0.821633 0.040393 -0.154900
0.903787 0.024893 -0.170400
0.985940 0.009393 -0.185900
1.068093 -0.006107 -0.201400
1.150253 -0.021607 -0.216900
1.232003 -0.037032 -0.232325
-0.046500 0.246460 -0.046500
0.048668 0.255260 -0.055220
0.163395 0.288361 -0.088321
0.294768 0.294768 -0.099752
0.393392 0.263761 -0.126684
0.469773 0.228067 -0.136487
0.543148 0.200556 -0.143136
0.616789 0.179013 -0.150153
0.690623 0.161083 -0.157287
0.764440 0.145496 -0.164428
0.838293 0.131633 -0.171600
0.912100 0.118949 -0.178787
0.988524 0.105924 -0.188484
1.069003 0.091112 -0.202327
1.150253 0.076040 -0.216900
1.232003 0.060615 -0.232325
-0.062000 0.328613 -0.062000
0.035232 0.330022 -0.063402
0.133967 0.363069 -0.096369
0.264023 0.393920 -0.127233
0.393303 0.393303 -0.132757
0.494318 0.363413 -0.160960
0.577113 0.326480 -0.177093
0.651027 0.293637 -0.184388
0.724214 0.267202 -0.190888
0.797813 0.245111 -0.197793
0.871611 0.226036 -0.204936
0.945454 0.209112 -0.212106
1.019253 0.193828 -0.219293
1.093124 0.179828 -0.226430
1.166913 0.166786 -0.233592
1.240436 0.154611 -0.240758
-0.077500 0.410833 -0.077500
0.019949 0.411320 -0.077991
0.113091 0.436911 -0.103553
0.228213 0.470580 -0.137247
0.363560 0.494660 -0.161302
0.491978 0.491978 -0.165622
0.594560 0.463020 -0.194540
0.683093 0.426687 -0.216420
0.758360 0.390193 -0.225002
0.832280 0.359667 -0.232287
0.905389 0.333778 -0.238733
0.978771 0.311380 -0.245442
1.052613 0.291567 -0.252587
1.126407 0.273687 -0.259800
1.200282 0.257316 -0.266933
1.273710 0.242239 -0.274032
-0.093000 0.492980 -0.093000
0.004637 0.493008 -0.093028
0.096880 0.510531 -0.110545
0.200544 0.544540 -0.144560
0.326887 0.578307 -0.178297
0.463020 0.594560 -0.194540
0.590792 0.590792 -0.198284
0.693600 0.562113 -0.226927
0.788196 0.527799 -0.254869
0.865620 0.489164 -0.265640
0.939607 0.455060 -0.272900
1.013533 0.425877 -0.280207
1.086532 0.400412 -0.286580
1.159780 0.377771 -0.293079
1.233597 0.357397 -0.300251
1.307082 0.338828 -0.307405
-0.108500 0.575127 -0.108500
-0.010847 0.575127 -0.108500
0.083172 0.584360 -0.117686
0.178727 0.618627 -0.151963
0.293806 0.652075 -0.185401
0.427262 0.684620 -0.217911
0.562113 0.693600 -0.226927
0.689717 0.689717 -0.230834
0.792700 0.661207 -0.259373
0.890104 0.627960 -0.290124
0.972896 0.589736 -0.306247
1.046867 0.552637 -0.313566
1.120853 0.520540 -0.320813
1.194787 0.492227 -0.328140
1.267773 0.466994 -0.334464
1.340402 0.444334 -0.340726
-0.124000 0.657273 -0.124000
-0.026347 0.657273 -0.124000
0.070368 0.659680 -0.126400
0.160655 0.692244 -0.158933
0.267202 0.726053 -0.192713
0.390651 0.760022 -0.226696
0.528227 0.789180 -0.255853
0.661207 0.792700 -0.259373
0.788792 0.788793 -0.263281
0.891800 0.760300 -0.291820
0.990900 0.727853 -0.324200
1.079253 0.690980 -0.345900
1.154180 0.651835 -0.354177
1.228113 0.617133 -0.361466
1.302100 0.586306 -0.368753
1.375682 0.558797 -0.376004
-0.139500 0.739480 -0.139500
-0.041753 0.739480 -0.139500
0.055475 0.740387 -0.140407
0.145100 0.765696 -0.165708
0.244831 0.800133 -0.200153
0.359800 0.833467 -0.233460
0.489924 0.867980 -0.267976
0.628344 0.890872 -0.290892
0.760300 0.891800 -0.291820
0.888032 0.888032 -0.295588
0.990900 0.859393 -0.324200
1.090000 0.826947 -0.356613
1.184596 0.792516 -0.384556
1.261487 0.752229 -0.394793
1.335433 0.715189 -0.402083
1.409002 0.682275 -0.409325
-0.154900 0.821633 -0.154900
-0.057253 0.821633 -0.154900
0.040367 0.821691 -0.154958
0.131107 0.839587 -0.172927
0.225522 0.874227 -0.207544
0.333778 0.907556 -0.240867
0.455387 0.941047 -0.274413
0.590684 0.975344 -0.308658
0.727853 0.990900 -0.324200
0.859393 0.990900 -0.324200
0.987411 0.987411 -0.327667
1.090000 0.958478 -0.356613
1.189100 0.926040 -0.389060
1.286467 0.892785 -0.419831
1.368747 0.853536 -0.435400
1.442375 0.814650 -0.442698
-0.170400 0.903787 -0.170400
-0.072753 0.903787 -0.170400
0.024893 0.903787 -0.170400
0.118369 0.913573 -0.180201
0.208665 0.947240 -0.213953
0.311131 0.981644 -0.248307
0.426033 1.014977 -0.281636
0.553326 1.049153 -0.315840
0.692066 1.081716 -0.348376
0.826947 1.090000 -0.356613
0.958478 1.090000 -0.356613
1.086930 1.086930 -0.359684
1.189100 1.057553 -0.389060
1.288113 1.025133 -0.421507
1.387207 0.992687 -0.453953
1.475604 0.955897 -0.475926
-0.185900 0.985940 -0.185900
-0.088253 0.985940 -0.185900
0.009393 0.985940 -0.185900
0.105660 0.989080 -0.189056
0.193339 1.020913 -0.220900
0.291060 1.055733 -0.255747
0.400372 1.089068 -0.289060
0.520833 1.122531 -0.322533
0.652872 1.157307 -0.357267
0.793028 1.185708 -0.385700
0.926040 1.189100 -0.389060
1.057553 1.189100 -0.389060
1.186588 1.186588 -0.391572
1.288113 1.156653 -0.421507
1.387207 1.124227 -0.453953
1.485821 1.091937 -0.486143
-0.201400 1.068093 -0.201400
-0.103753 1.068093 -0.201400
-0.006107 1.068093 -0.201400
0.090955 1.069340 -0.202664
0.179192 1.094820 -0.228127
0.273160 1.128840 -0.262204
0.377504 1.163159 -0.296460
0.492387 1.196480 -0.329833
0.617761 1.230707 -0.364060
0.753523 1.264868 -0.398175
0.893276 1.287449 -0.420813
1.025133 1.288113 -0.421507
1.156653 1.288113 -0.421507
1.286299 1.286299 -0.423321
1.387207 1.255753 -0.453953
1.485821 1.223477 -0.486143
-0.216900 1.150253 -0.216900
-0.119253 1.150253 -0.216900
-0.021607 1.150253 -0.216900
0.076029 1.150276 -0.216924
0.166039 1.168733 -0.235455
0.256687 1.202680 -0.269364
0.356887 1.237249 -0.303900
0.466941 1.270570 -0.337273
0.586566 1.303897 -0.370547
0.716071 1.338395 -0.405045
0.855105 1.372327 -0.439011
0.992687 1.387207 -0.453953
1.124227 1.387207 -0.453953
1.255753 1.387207 -0.453953
1.386230 1.386230 -0.454930
1.485821 1.355009 -0.486143
-0.232325 1.232003 -0.232325
-0.134678 1.232003 -0.232325
-0.037032 1.232003 -0.232325
0.060615 1.232003 -0.232325
0.153666 1.242336 -0.242658
0.241606 1.275709 -0.276031
0.338109 1.310981 -0.311304
0.444075 1.344302 -0.344624
0.558904 1.377628 -0.377951
0.682640 1.411012 -0.411335
0.815952 1.446274 -0.446596
0.957657 1.479475 -0.479797
1.091937 1.485821 -0.486143
1.223477 1.485821 -0.486143
1.355009 1.485821 -0.486143
1.485666 1.485666 -0.486298
-0.034207 -0.034207 0.100953
0.081792 -0.016290 0.082004
0.164307 -0.031000 0.066653
0.246460 -0.046500 0.051153
0.328613 -0.062000 0.035653
0.410833 -0.077500 0.020153
0.492980 -0.093000 0.004653
0.575127 -0.108500 -0.010847
0.657273 -0.124000 -0.026347
0.739480 -0.139500 -0.041753
0.821633 -0.154900 -0.057253
0.903787 -0.170400 -0.072753
0.985940 -0.185900 -0.088253
1.068093 -0.201400 -0.103753
1.150253 -0.216900 -0.119253
1.232003 -0.232325 -0.134678
-0.037608 0.102072 0.102277
0.065712 0.065797 0.066780
0.149743 0.051608 0.051155
0.231427 0.036120 0.036120
0.313580 0.020620 0.020620
0.395800 0.005120 0.005120
0.477947 -0.010380 -0.010380
0.560093 -0.025880 -0.025880
0.642240 -0.041287 -0.041287
0.724447 -0.056787 -0.056787
0.806600 -0.072287 -0.072287
0.888753 -0.087787 -0.087787
0.970907 -0.103287 -0.103287
1.053060 -0.118787 -0.118787
1.135220 -0.134287 -0.134287
1.216970 -0.149712 -0.149712
-0.051573 0.184880 0.067528
0.051036 0.150333 0.051124
0.163270 0.163305 0.033405
0.247709 0.134661 0.018969
0.321762 0.115720 0.011571
0.397195 0.101799 0.002792
0.478281 0.086480 -0.011643
0.559627 0.071393 -0.026347
0.641777 0.055893 -0.041753
0.723980 0.040393 -0.057253
0.806133 0.024893 -0.072753
0.888287 0.009393 -0.088253
0.970440 -0.006107 -0.103753
1.052594 -0.021607 -0.119253
1.134753 -0.037107 -0.134753
1.216503 -0.052531 -0.150178
-0.056108 0.256148 0.048475
0.036115 0.231442 0.036110
0.134662 0.248182 0.018510
0.262320 0.262322 -0.000655
0.354138 0.230098 -0.020797
0.428730 0.200894 -0.028747
0.502493 0.180204 -0.035823
0.576283 0.164021 -0.042959
0.650483 0.150243 -0.050460
0.726559 0.137022 -0.059839
0.807135 0.122080 -0.073768
0.888287 0.107040 -0.088253
0.970440 0.091540 -0.103753
1.052594 0.076040 -0.119253
1.134753 0.060541 -0.134753
1.216503 0.045135 -0.150178
-0.063183 0.329801 0.035335
0.020620 0.313580 0.020620
0.115613 0.322212 0.011149
0.230298 0.354686 -0.021331
0.360858 0.360858 -0.033664
0.459497 0.330327 -0.059491
0.536461 0.294885 -0.069776
0.609852 0.267430 -0.076491
0.683442 0.245794 -0.083463
0.757307 0.227852 -0.090634
0.831105 0.212305 -0.097778
0.904967 0.198394 -0.104950
0.979124 0.185579 -0.112491
1.055751 0.172318 -0.122410
1.135815 0.157686 -0.135817
1.216503 0.142788 -0.150178
-0.077960 0.411291 0.019964
0.005120 0.395800 0.005120
0.101656 0.397576 0.002414
0.200902 0.429748 -0.029739
0.330527 0.460025 -0.060019
0.459531 0.459531 -0.066522
0.560789 0.430005 -0.094131
0.643761 0.393235 -0.110438
0.717692 0.360387 -0.117670
0.790932 0.333934 -0.124289
0.864460 0.311837 -0.131141
0.938264 0.292759 -0.138277
1.012120 0.275905 -0.145432
1.085929 0.260552 -0.152586
1.159780 0.246571 -0.159776
1.233236 0.233586 -0.166879
-0.093000 0.492980 0.004653
-0.010380 0.477947 -0.010380
0.086443 0.478369 -0.011730
0.180033 0.503535 -0.036857
0.295072 0.537276 -0.070632
0.430163 0.561161 -0.094502
0.558345 0.558345 -0.099248
0.661194 0.529660 -0.127818
0.749748 0.493400 -0.149752
0.825008 0.456912 -0.158353
0.898927 0.426382 -0.165584
0.972107 0.400528 -0.172100
1.045426 0.378130 -0.178783
1.119273 0.358271 -0.185925
1.193091 0.340379 -0.193094
1.266576 0.324146 -0.200245
-0.108500 0.575127 -0.010847
-0.025880 0.560093 -0.025880
0.071367 0.559673 -0.026393
0.163721 0.577263 -0.043890
0.267380 0.611198 -0.077875
0.393635 0.644938 -0.111611
0.529668 0.661207 -0.127833
0.657299 0.657299 -0.131741
0.760300 0.628762 -0.160280
0.854777 0.594469 -0.188125
0.932271 0.555830 -0.198969
1.006254 0.521728 -0.206252
1.080160 0.492600 -0.213513
1.153293 0.467084 -0.219984
1.226427 0.444440 -0.226426
1.299896 0.424169 -0.233569
-0.124000 0.657273 -0.026347
-0.041287 0.642240 -0.041287
0.055893 0.641777 -0.041753
0.149852 0.651310 -0.051321
0.245551 0.685263 -0.085255
0.360545 0.718731 -0.118751
0.493975 0.751256 -0.151234
0.628762 0.760300 -0.160280
0.756393 0.756393 -0.164188
0.859393 0.727853 -0.192720
0.956755 0.694633 -0.223437
1.039583 0.656373 -0.239593
1.113530 0.619315 -0.246869
1.187504 0.587185 -0.254160
1.261440 0.558924 -0.261441
1.334169 0.533809 -0.267792
-0.139500 0.739480 -0.041753
-0.056787 0.724447 -0.056787
0.040393 0.723980 -0.057253
0.136792 0.727057 -0.060379
0.227477 0.758915 -0.092190
0.333933 0.792706 -0.126060
0.457350 0.826654 -0.159998
0.594877 0.855742 -0.189070
0.727853 0.859393 -0.192720
0.855625 0.855625 -0.196488
0.958456 0.826947 -0.225167
1.057528 0.794491 -0.257495
1.146115 0.757707 -0.279428
1.220841 0.718461 -0.287525
1.294770 0.683758 -0.294767
1.368393 0.653084 -0.302065
-0.154900 0.821633 -0.057253
-0.072287 0.806600 -0.072287
0.024893 0.806133 -0.072753
0.121986 0.807353 -0.073985
0.211865 0.832370 -0.099058
0.311583 0.866797 -0.133459
0.426493 0.900120 -0.166776
0.556605 0.934601 -0.201285
0.695004 0.957499 -0.224182
0.826947 0.958456 -0.225167
0.954987 0.954987 -0.228656
1.057553 0.926040 -0.257520
1.156653 0.893597 -0.289967
1.251583 0.859387 -0.318238
1.328134 0.818838 -0.328138
1.401731 0.781980 -0.335400
-0.170400 0.903787 -0.072753
-0.087787 0.888753 -0.087787
0.009393 0.888287 -0.088253
0.107010 0.888351 -0.088318
0.197864 0.906236 -0.106276
0.292259 0.940832 -0.140821
0.400473 0.974209 -0.174213
0.522077 1.007702 -0.207700
0.657369 1.042021 -0.242023
0.794503 1.057553 -0.257520
0.926040 1.057553 -0.257520
1.054484 1.054484 -0.260590
1.156653 1.025133 -0.289967
1.255753 0.992687 -0.322407
1.353345 0.959609 -0.353345
1.435040 0.920332 -0.368712
-0.185900 0.985940 -0.088253
-0.103287 0.970907 -0.103287
-0.006107 0.970440 -0.103753
0.091540 0.970440 -0.103753
0.184959 0.980509 -0.113822
0.275369 1.013973 -0.147331
0.377842 1.048297 -0.181653
0.492710 1.081629 -0.214977
0.619974 1.115859 -0.249208
0.758828 1.148653 -0.281958
0.893597 1.156653 -0.289967
1.025133 1.156653 -0.289967
1.154142 1.154142 -0.292479
1.255753 1.124227 -0.322407
1.354853 1.091780 -0.354853
1.453450 1.059484 -0.387026
-0.201400 1.068093 -0.103753
-0.118787 1.053060 -0.118787
-0.021607 1.052594 -0.119253
0.076040 1.052594 -0.119253
0.172060 1.056319 -0.122969
0.260063 1.087549 -0.154229
0.357763 1.122386 -0.189093
0.467037 1.155720 -0.222376
0.587469 1.189184 -0.255840
0.719496 1.223953 -0.290607
0.859854 1.252607 -0.319287
0.992687 1.255753 -0.322407
1.124227 1.255753 -0.322407
1.253939 1.253939 -0.324221
1.354853 1.223319 -0.354853
1.453473 1.191030 -0.387050
-0.216900 1.150253 -0.119253
-0.134287 1.135220 -0.134287
-0.037107 1.134753 -0.134753
0.060541 1.134753 -0.134753
0.157488 1.136238 -0.136238
0.245902 1.161467 -0.161469
0.339845 1.195522 -0.195521
0.444177 1.229810 -0.229807
0.559028 1.263177 -0.263180
0.684400 1.297412 -0.297413
0.820136 1.331520 -0.331518
0.960005 1.354188 -0.354190
1.091780 1.354853 -0.354853
1.223319 1.354853 -0.354853
1.353876 1.353876 -0.355830
1.453473 1.322564 -0.387050
-0.232325 1.232003 -0.134678
-0.149712 1.216970 -0.149712
-0.052531 1.216503 -0.150178
0.045135 1.216503 -0.150178
0.142786 1.216507 -0.150183
0.232813 1.235095 -0.168702
0.323436 1.269084 -0.202717
0.423653 1.303541 -0.237211
0.533760 1.336911 -0.270540
0.653339 1.370189 -0.303857
0.782876 1.404760 -0.338436
0.921935 1.438715 -0.372359
1.059496 1.453473 -0.387050
1.191030 1.453473 -0.387050
1.322564 1.453473 -0.387050
1.453318 1.453318 -0.387205
-0.068513 -0.068513 0.201807
0.065888 -0.050540 0.183852
0.163440 -0.031867 0.163440
0.246460 -0.046500 0.148807
0.328613 -0.062000 0.133307
0.410833 -0.077500 0.117807
0.492980 -0.093000 0.102307
0.575127 -0.108500 0.086807
0.657273 -0.124000 0.071393
0.739480 -0.139500 0.055893
0.821633 -0.154900 0.040393
0.903787 -0.170400 0.024893
0.985940 -0.185900 0.009393
1.068093 -0.201400 -0.006107
1.150253 -0.216900 -0.021607
1.232003 -0.232325 -0.037032
-0.071088 0.066762 0.204400
0.033407 0.033972 0.168204
0.148134 0.049663 0.148562
0.230960 0.035653 0.133307
0.313118 0.020153 0.117807
0.395333 0.004653 0.102307
0.477480 -0.010847 0.086809
0.559627 -0.026347 0.071393
0.641777 -0.041753 0.055893
0.723980 -0.057253 0.040393
0.806133 -0.072753 0.024893
0.888287 -0.088253 0.009393
0.970440 -0.103753 -0.006107
1.052594 -0.119253 -0.021607
1.134753 -0.134753 -0.037107
1.216503 -0.150178 -0.052531
-0.075755 0.204998 0.204998
0.028541 0.167427 0.167856
0.131737 0.132055 0.133615
0.217168 0.118641 0.117841
0.298553 0.103173 0.103173
0.380700 0.087673 0.087673
0.462847 0.072260 0.072260
0.544993 0.056760 0.056760
0.627193 0.041260 0.041260
0.709347 0.025760 0.025760
0.791500 0.010260 0.010260
0.873653 -0.005240 -0.005240
0.955807 -0.020740 -0.020740
1.037973 -0.036240 -0.036240
1.120120 -0.051738 -0.051738
1.201870 -0.067152 -0.067152
-0.097984 0.297944 0.166880
0.015070 0.251553 0.135026
0.117619 0.218233 0.117772
0.228955 0.228987 0.099894
0.314387 0.201886 0.085609
0.388729 0.182642 0.077951
0.464557 0.168319 0.068806
0.545207 0.153099 0.054813
0.626327 0.138040 0.040393
0.708480 0.122540 0.024893
0.790633 0.107040 0.009393
0.872787 0.091540 -0.006107
0.954940 0.076040 -0.021607
1.037107 0.060542 -0.037107
1.119253 0.045060 -0.052594
1.201003 0.029635 -0.068018
-0.103239 0.369920 0.134122
0.010124 0.323219 0.115459
0.103165 0.298570 0.103156
0.201873 0.314827 0.085171
0.328429 0.328434 0.065438
0.420613 0.296927 0.046056
0.495449 0.267810 0.037885
0.569140 0.247036 0.030872
0.642986 0.230841 0.023694
0.717432 0.216867 0.015890
0.793787 0.203448 0.006234
0.873964 0.188649 -0.007301
0.954940 0.173709 -0.021607
1.037107 0.158213 -0.037107
1.119253 0.142713 -0.052594
1.201003 0.127288 -0.068018
-0.107791 0.441124 0.112367
0.002468 0.397522 0.101703
0.087673 0.380700 0.087673
0.182495 0.389154 0.077516
0.297100 0.421119 0.045547
0.427118 0.427118 0.032578
0.525744 0.396868 0.007562
0.603122 0.361660 -0.003113
0.676554 0.334203 -0.009868
0.750147 0.312544 -0.016795
0.823953 0.294593 -0.023981
0.897773 0.279039 -0.031120
0.971613 0.265124 -0.038266
1.046095 0.252140 -0.046103
1.122838 0.238774 -0.056179
1.202199 0.224359 -0.069186
-0.112320 0.512340 0.096336
-0.011661 0.478299 0.086473
0.072260 0.462847 0.072260
0.168144 0.464924 0.068397
0.267821 0.496412 0.036927
0.397067 0.526264 0.007048
0.525904 0.525904 -0.000148
0.627301 0.496624 -0.027275
0.710412 0.459981 -0.043759
0.784350 0.427095 -0.050998
0.857692 0.400659 -0.057666
0.931107 0.378549 -0.064450
1.004975 0.359463 -0.071623
1.078767 0.342605 -0.078764
1.152594 0.327336 -0.085938
1.226070 0.313336 -0.093085
-0.116895 0.583562 0.083600
-0.026347 0.559627 0.071393
0.056760 0.544993 0.056760
0.153047 0.545319 0.054701
0.246877 0.570169 0.029821
0.361862 0.603979 -0.003987
0.496788 0.627685 -0.027663
0.624859 0.624859 -0.032648
0.727827 0.596349 -0.061156
0.816452 0.560127 -0.083146
0.891660 0.523618 -0.091658
0.965583 0.493054 -0.098897
1.038833 0.467199 -0.105497
1.112133 0.444808 -0.112127
1.185920 0.424948 -0.119269
1.259442 0.407144 -0.126373
-0.126058 0.659338 0.070586
-0.041753 0.641777 0.055893
0.041260 0.627193 0.041260
0.138008 0.626391 0.040329
0.230525 0.643947 0.022727
0.334142 0.677851 -0.011191
0.460375 0.711606 -0.044935
0.596360 0.727853 -0.061187
0.723946 0.723946 -0.065094
0.826947 0.695442 -0.093625
0.921486 0.661153 -0.121514
0.998939 0.622474 -0.132314
1.072907 0.588464 -0.139567
1.146812 0.559242 -0.146818
1.220033 0.533737 -0.153339
1.292716 0.511247 -0.159739
-0.140033 0.740019 0.055648
-0.057253 0.723980 0.040393
0.025760 0.709347 0.025760
0.122540 0.708480 0.024893
0.216540 0.718256 0.015079
0.312336 0.751892 -0.018555
0.427272 0.785415 -0.052091
0.560700 0.817958 -0.084636
0.695442 0.826947 -0.093625
0.823179 0.823179 -0.097390
0.926040 0.794505 -0.126067
1.023452 0.761347 -0.156768
1.106273 0.723004 -0.172932
1.180225 0.685940 -0.180218
1.254155 0.653823 -0.187506
1.327691 0.625690 -0.194680
-0.154900 0.821633 0.040393
-0.072753 0.806133 0.024893
0.010260 0.791500 0.010260
0.107040 0.790633 0.009393
0.203217 0.794272 0.005741
0.294227 0.825555 -0.025525
0.400640 0.859377 -0.059407
0.524040 0.893363 -0.093345
0.661539 0.922383 -0.122383
0.794505 0.926040 -0.126067
0.922551 0.922551 -0.129556
1.025133 0.893600 -0.158450
1.124184 0.861192 -0.190827
1.212994 0.824477 -0.212998
1.287520 0.785071 -0.220842
1.361120 0.750527 -0.228078
-0.170400 0.903787 0.024893
-0.088253 0.888287 0.009393
-0.005240 0.873653 -0.005240
0.091540 0.872787 -0.006107
0.188533 0.874235 -0.007555
0.278621 0.899036 -0.032380
0.378292 0.933465 -0.066795
0.493204 0.966808 -0.100122
0.623240 1.001228 -0.134577
0.761666 1.024152 -0.157468
0.893600 1.025133 -0.158450
1.022063 1.022063 -0.161503
1.124227 0.992687 -0.190873
1.223308 0.960305 -0.223308
1.318695 0.926240 -0.252041
1.394432 0.885624 -0.261448
-0.185900 0.985940 0.009393
-0.103753 0.970440 -0.006107
-0.020740 0.955807 -0.020740
0.076040 0.954940 -0.021607
0.173681 0.955000 -0.021667
0.264645 0.972899 -0.039570
0.358985 1.007449 -0.074103
0.467148 1.040901 -0.107560
0.588758 1.074336 -0.141021
0.724011 1.108715 -0.175369
0.861213 1.124227 -0.190873
0.992687 1.124227 -0.190873
1.121715 1.121715 -0.193385
1.223308 1.091780 -0.223308
1.322407 1.059343 -0.255753
1.419775 1.026544 -0.286723
-0.201400 1.068093 -0.006107
-0.119253 1.052594 -0.021607
-0.036240 1.037973 -0.036240
0.060542 1.037107 -0.037107
0.158213 1.037107 -0.037107
0.251547 1.047420 -0.047428
0.342056 1.080690 -0.080683
0.444548 1.114994 -0.115000
0.559361 1.148286 -0.148287
0.686611 1.182596 -0.182596
0.825648 1.215612 -0.215616
0.960305 1.223308 -0.223308
1.091780 1.223308 -0.223308
1.221504 1.221504 -0.225121
1.322407 1.190873 -0.255753
1.421027 1.158595 -0.287957
-0.216900 1.150253 -0.021607
-0.134753 1.134753 -0.037107
-0.051738 1.120120 -0.051738
0.045060 1.119253 -0.052594
0.142713 1.119253 -0.052594
0.238538 1.123422 -0.056767
0.326773 1.154209 -0.087521
0.424436 1.189087 -0.122394
0.533734 1.222373 -0.155714
0.654084 1.255795 -0.189139
0.786101 1.290600 -0.223953
0.926672 1.319651 -0.252976
1.059343 1.322407 -0.255753
1.190873 1.322407 -0.255753
1.321431 1.321431 -0.256730
1.421027 1.290124 -0.287957
-0.232325 1.232003 -0.037032
-0.150178 1.216503 -0.052531
-0.067152 1.201870 -0.067152
0.029635 1.201003 -0.068018
0.127288 1.201003 -0.068018
0.224128 1.202690 -0.069677
0.312663 1.227761 -0.094776
0.406630 1.261929 -0.128899
0.510942 1.296102 -0.163117
0.625845 1.329469 -0.196456
0.751179 1.363789 -0.230748
0.886922 1.397808 -0.264823
1.026858 1.420446 -0.287394
1.158595 1.421027 -0.287957
1.290124 1.421027 -0.287957
1.420871 1.420871 -0.288112
-0.102720 -0.102720 0.302760
0.034608 -0.094700 0.294741
0.151907 -0.057973 0.258003
0.245260 -0.047700 0.245260
0.328613 -0.062000 0.230960
0.410833 -0.077500 0.215460
0.492980 -0.093000 0.199992
0.575127 -0.108500 0.184540
0.657273 -0.124000 0.169040
0.739480 -0.139500 0.153540
0.821633 -0.154900 0.138040
0.903787 -0.170400 0.122540
0.985940 -0.185900 0.107040
1.068093 -0.201400 0.091540
1.150253 -0.216900 0.076040
1.232003 -0.232325 0.060615
-0.104252 0.031987 0.304287
-0.000823 -0.000818 0.269522
0.131810 0.016112 0.250511
0.229764 0.034445 0.229769
0.313118 0.020153 0.215460
0.395333 0.004653 0.199990
0.477480 -0.010847 0.184540
0.559627 -0.026347 0.169040
0.641777 -0.041753 0.153540
0.723980 -0.057253 0.138040
0.806133 -0.072753 0.122540
0.888287 -0.088253 0.107040
0.970440 -0.103753 0.091540
1.052594 -0.119253 0.076040
1.134753 -0.134753 0.060541
1.216503 -0.150178 0.045135
-0.109180 0.169824 0.309209
-0.004441 0.133525 0.271067
0.100899 0.101895 0.235402
0.214510 0.115697 0.215184
0.297687 0.102307 0.199989
0.379833 0.086807 0.184540
0.461980 0.071393 0.169040
0.544127 0.055893 0.153540
0.626327 0.040393 0.138040
0.708480 0.024893 0.122540
0.790633 0.009393 0.107040
0.872787 -0.006107 0.091540
0.954940 -0.021607 0.076040
1.037107 -0.037107 0.060542
1.119253 -0.052594 0.045060
1.201003 -0.068018 0.029635
-0.113408 0.307672 0.307672
-0.009861 0.270856 0.270859
0.094752 0.232964 0.233622
0.198034 0.198696 0.200501
0.284496 0.185685 0.184615
0.365533 0.170240 0.170240
0.447680 0.154740 0.154740
0.529829 0.139240 0.139240
0.612027 0.123740 0.123740
0.694180 0.108240 0.108240
0.776333 0.092740 0.092740
0.858487 0.077240 0.077240
0.940641 0.061743 0.061743
1.022807 0.046260 0.046260
1.104953 0.030760 0.030760
1.186703 0.015335 0.015335
-0.142888 0.409596 0.272048
-0.030995 0.364282 0.233786
0.081704 0.318284 0.202384
0.184306 0.285902 0.184507
0.294835 0.294858 0.166416
0.381053 0.269026 0.152268
0.455639 0.249432 0.144347
0.531786 0.234785 0.134878
0.612088 0.219663 0.121267
0.692980 0.204687 0.107040
0.775133 0.189187 0.091540
0.857287 0.173708 0.076040
0.939444 0.158213 0.060556
1.021607 0.142713 0.045060
1.103753 0.127213 0.029560
1.185503 0.111788 0.014135
-0.150620 0.483893 0.231073
-0.036594 0.436582 0.201123
0.076382 0.390287 0.182364
0.170229 0.365555 0.170208
0.269022 0.381493 0.151834
0.394662 0.394667 0.131678
0.487145 0.363735 0.112859
0.562167 0.334642 0.104516
