example_ofxGpuLutCube/bin/data/ofxGpuLutCube/LUT/A3 (dark green shadow).cube
LUT_3D_SIZE 6
0.000000 0.000529 0.000565
0.095910 0.006589 0.012337
0.217494 0.019422 0.046075
0.409082 0.055824 0.117462
0.769182 0.175442 0.261970
1.000020 0.428560 0.484581
0.044988 0.089043 0.000000
0.093531 0.089172 0.000917
0.223308 0.103765 0.032351
0.424976 0.131876 0.111693
0.785739 0.214470 0.261967
1.000020 0.441190 0.490186
0.112968 0.196926 0.001942
0.138467 0.202195 0.000279
0.228609 0.221124 0.012043
0.470365 0.318916 0.061804
0.820283 0.426440 0.241374
1.000020 0.606254 0.546809
0.233024 0.382008 0.026612
0.260024 0.398902 0.028553
0.395005 0.484322 0.043232
0.629077 0.588552 0.131340
0.884518 0.657406 0.294596
1.000020 0.788071 0.650637
0.494054 0.751548 0.147507
0.511061 0.755693 0.150502
0.595522 0.776937 0.171116
0.757878 0.819014 0.276991
0.939240 0.862238 0.480074
1.000020 0.891888 0.665256
0.701656 0.962449 0.395152
0.712851 0.962473 0.403347
0.768214 0.965450 0.442526
0.863452 0.976010 0.517754
0.970902 0.994390 0.635102
1.000020 0.997611 0.693356
0.000000 0.004434 0.035346
0.027569 0.001260 0.047397
0.196429 0.013093 0.094239
0.393586 0.048156 0.165240
0.758681 0.173926 0.308022
1.000020 0.419057 0.504533
0.004038 0.070340 0.030852
0.063751 0.071696 0.054341
0.200996 0.097254 0.089930
0.411551 0.128435 0.164503
0.773692 0.215327 0.309273
1.000020 0.431983 0.509240
0.102440 0.194426 0.006203
0.129849 0.198648 0.007264
0.221669 0.217704 0.036159
0.465065 0.319494 0.152479
0.813591 0.424885 0.295505
1.000020 0.608599 0.568340
0.223434 0.376065 0.025963
0.250425 0.393985 0.027928
0.385632 0.478920 0.039985
0.623978 0.587729 0.129503
0.880395 0.656514 0.299310
1.000020 0.790266 0.667697
0.487898 0.750154 0.146300
0.504859 0.754306 0.149357
0.589865 0.775693 0.169594
0.753632 0.818151 0.273284
0.937249 0.861174 0.476455
1.000020 0.892167 0.665223
0.697563 0.962333 0.392348
0.709547 0.962267 0.400656
0.764523 0.965181 0.439824
0.861009 0.975584 0.515472
0.969913 0.993468 0.633244
1.000020 0.997698 0.693441
0.000873 0.023678 0.130252
0.000873 0.022613 0.131255
0.062920 0.019788 0.151678
0.297802 0.060605 0.278414
0.682983 0.157579 0.431163
0.999629 0.419966 0.603946
0.003052 0.081634 0.127422
0.003052 0.081630 0.128410
0.089186 0.088035 0.156223
0.318789 0.139671 0.279746
0.698044 0.206332 0.433010
0.999762 0.426473 0.605353
0.023316 0.176226 0.119476
0.056240 0.180578 0.137011
0.175778 0.217067 0.205273
0.418895 0.334428 0.337260
0.756282 0.415891 0.441048
0.999759 0.607615 0.647791
0.194126 0.377761 0.159871
0.222960 0.396759 0.172013
0.360023 0.479700 0.233055
0.577209 0.568850 0.330426
0.859592 0.660713 0.494563
1.000020 0.796727 0.728260
0.455189 0.742695 0.140218
0.474140 0.746821 0.144201
0.560625 0.769286 0.162348
0.731038 0.812876 0.273941
0.922822 0.858319 0.498116
1.000020 0.895177 0.709599
0.674671 0.960831 0.378359
0.687765 0.961935 0.386651
0.745900 0.964253 0.426472
0.847666 0.973522 0.503618
0.961762 0.993014 0.624333
1.000020 0.998122 0.693432
0.013813 0.068981 0.340114
0.013813 0.067901 0.340114
0.013903 0.064034 0.342366
0.140896 0.077466 0.384450
0.491711 0.180477 0.588103
0.928795 0.442177 0.754591
0.016579 0.125704 0.346901
0.016579 0.124690 0.346908
0.016754 0.124176 0.349897
0.170106 0.157505 0.411437
0.516165 0.247367 0.591583
0.938634 0.462645 0.757778
0.034009 0.271827 0.390749
0.034010 0.271828 0.391695
0.034407 0.272375 0.394731
0.288465 0.348964 0.499180
0.620443 0.431795 0.604441
0.984538 0.634174 0.787491
0.098450 0.501736 0.464465
0.135587 0.508695 0.474619
0.265437 0.528741 0.511083
0.463511 0.557153 0.567492
0.756793 0.654450 0.670091
0.995334 0.800566 0.819858
0.338900 0.695411 0.457116
0.357331 0.695275 0.459197
0.461851 0.715118 0.484640
0.669415 0.781665 0.570785
0.876275 0.847259 0.695355
1.000020 0.903897 0.822548
0.611808 0.934974 0.459413
0.625896 0.936836 0.468759
0.695462 0.942504 0.517867
0.806394 0.957048 0.596244
0.937249 0.986034 0.700252
1.000020 0.996893 0.774463
0.097319 0.209598 0.753837
0.097318 0.208583 0.753837
0.097804 0.205927 0.756097
0.098745 0.198292 0.760155
0.345676 0.209963 0.796510
0.763030 0.478199 0.929358
0.102535 0.267219 0.758217
0.102534 0.266185 0.758215
0.103045 0.265161 0.760427
0.104019 0.261164 0.764653
0.362775 0.282098 0.799844
0.779814 0.514092 0.929174
0.126126 0.418943 0.767317
0.126129 0.418860 0.767428
0.126678 0.418126 0.769532
0.127739 0.416756 0.773511
0.446257 0.454760 0.815433
0.835406 0.641571 0.922338
0.174944 0.595634 0.766353
0.174948 0.595634 0.766213
0.175624 0.595363 0.768332
0.249801 0.600375 0.782898
0.632045 0.671383 0.838521
0.899004 0.772506 0.900643
0.294470 0.785026 0.751718
0.306149 0.789755 0.758023
0.439436 0.800437 0.778857
0.630289 0.822162 0.819291
0.796521 0.844959 0.856353
0.971967 0.899108 0.914886
0.580001 0.942503 0.756721
0.592962 0.942440 0.759058
0.651784 0.942172 0.769791
0.746679 0.940126 0.788646
0.883985 0.965384 0.835759
1.000020 0.995167 0.876348
0.193199 0.294735 0.966237
0.193198 0.294733 0.965276
0.192480 0.291588 0.965805
0.191052 0.285371 0.965345
0.188539 0.273207 0.964406
0.590915 0.399347 0.998036
0.205270 0.342191 0.970062
0.205288 0.342143 0.970061
0.204695 0.339867 0.969842
0.203487 0.335397 0.969541
0.200934 0.326700 0.968569
0.608517 0.455363 0.998538
0.257159 0.488540 0.982067
0.257155 0.488479 0.982067
0.256659 0.487264 0.981884
0.255646 0.485077 0.981695
0.254039 0.481768 0.981930
0.677176 0.603178 0.999346
0.354268 0.671900 0.991356
0.354268 0.671900 0.991356
0.353769 0.671193 0.991401
0.352962 0.669996 0.991389
0.389633 0.672858 0.996065
0.798090 0.766492 1.000020
0.492706 0.848160 0.985695
0.492706 0.848160 0.985695
0.492421 0.847759 0.985936
0.492974 0.847801 0.986857
0.707703 0.874137 1.000020
0.897857 0.893545 1.000020
0.579237 0.982730 0.953521
0.583599 0.986066 0.957910
0.624748 0.994669 0.973294
0.744504 0.994341 0.976559
0.850640 0.994905 0.982321
0.946615 0.982084 0.987862
