example_ofxGpuLutCube/bin/data/ofxGpuLutCube/LUT/A3 (dark green shadow).cube
LUT_3D_SIZE 16
0.000000 0.000529 0.000565
0.019537 0.000762 0.002290
0.053525 0.002285 0.005815
0.095910 0.006589 0.012337
0.134454 0.010363 0.020268
0.171979 0.013865 0.032158
0.217494 0.019422 0.046075
0.271677 0.027955 0.064489
0.334817 0.040164 0.088556
0.409082 0.055824 0.117462
0.502045 0.076330 0.152000
0.628845 0.115000 0.200968
0.769182 0.175442 0.261970
0.884518 0.241836 0.326398
0.973859 0.319499 0.397258
1.000020 0.428560 0.484581
0.009576 0.020459 0.000216
0.021006 0.017509 0.000598
0.056022 0.017442 0.002788
0.097408 0.018515 0.011359
0.135482 0.017632 0.018878
0.172857 0.017138 0.030855
0.218542 0.019645 0.045599
0.272567 0.028212 0.064104
0.335652 0.040430 0.088280
0.409829 0.056071 0.117150
0.502921 0.075587 0.151732
0.630704 0.115248 0.200651
0.769544 0.174820 0.262048
0.884518 0.241785 0.325769
0.974102 0.319865 0.397348
1.000020 0.429480 0.484898
0.022720 0.051048 0.000000
0.030712 0.051144 0.000000
0.056722 0.052052 0.000000
0.096386 0.056169 0.004588
0.135543 0.055744 0.014306
0.176167 0.054516 0.025865
0.222327 0.056748 0.041930
0.276881 0.058534 0.061865
0.339510 0.057598 0.086845
0.413853 0.064840 0.115831
0.506907 0.082700 0.150278
0.633872 0.117983 0.199320
0.773766 0.176704 0.261315
0.887616 0.242573 0.326366
0.975221 0.321721 0.397585
1.000020 0.433202 0.486514
0.044988 0.089043 0.000000
0.050262 0.089172 0.000000
0.067442 0.089043 0.000000
0.093531 0.089172 0.000917
0.129171 0.090730 0.004774
0.173760 0.098475 0.014034
0.223308 0.103765 0.032351
0.281948 0.112509 0.054594
0.347294 0.121706 0.081466
0.424976 0.131876 0.111693
0.522999 0.144717 0.148606
0.652681 0.171834 0.200777
0.785739 0.214470 0.261967
0.893827 0.259604 0.325130
0.977753 0.327571 0.398249
1.000020 0.441190 0.490186
0.066620 0.123974 0.000000
0.069804 0.124001 0.000000
0.081960 0.123974 0.000000
0.102371 0.125004 0.000000
0.130472 0.124573 0.002507
0.168068 0.129759 0.006739
0.222751 0.145573 0.017162
0.284641 0.160743 0.038936
0.353970 0.176111 0.069651
0.440338 0.196115 0.103431
0.548948 0.222932 0.146031
0.682081 0.258790 0.202795
0.802908 0.292859 0.261964
0.902143 0.325011 0.323152
0.982492 0.385727 0.402084
1.000020 0.479370 0.497980
0.087880 0.157836 0.000000
0.090145 0.158058 0.000000
0.098744 0.158829 0.000000
0.117388 0.161063 0.000000
0.141755 0.164209 0.001851
0.174267 0.167658 0.005756
0.218408 0.179184 0.011947
0.282484 0.201548 0.021365
0.353427 0.222916 0.044364
0.454944 0.258213 0.088892
0.578492 0.298358 0.137289
0.706563 0.336463 0.197477
0.811864 0.361841 0.254845
0.909372 0.393201 0.320334
0.986074 0.452276 0.408427
1.000020 0.542748 0.520718
0.112968 0.196926 0.001942
0.114729 0.197209 0.001905
0.122988 0.198889 0.001049
0.138467 0.202195 0.000279
0.160975 0.206195 0.001969
0.190748 0.212818 0.006923
0.228609 0.221124 0.012043
0.279519 0.236692 0.018856
0.361779 0.272784 0.034042
0.470365 0.318916 0.061804
0.606566 0.375656 0.120298
0.722745 0.405720 0.181265
0.820283 0.426440 0.241374
0.918675 0.461422 0.318770
0.988200 0.518269 0.416034
1.000020 0.606254 0.546809
0.142107 0.241954 0.006739
0.143513 0.242400 0.006802
0.150352 0.243943 0.006739
0.163701 0.247368 0.004973
0.187009 0.253209 0.003109
0.214814 0.261461 0.008457
0.253135 0.275030 0.014097
0.315394 0.305087 0.025920
0.405455 0.351359 0.046042
0.521601 0.407238 0.075312
0.649531 0.459460 0.116574
0.741006 0.477768 0.164893
0.831965 0.495171 0.229749
0.932110 0.535851 0.324690
0.995440 0.593248 0.440112
1.000020 0.669200 0.576829
0.176220 0.295213 0.013226
0.177541 0.295644 0.013170
0.183612 0.297215 0.013226
0.196037 0.301593 0.011333
0.218889 0.309918 0.009108
0.256958 0.332145 0.009704
0.311009 0.364288 0.023818
0.382387 0.406088 0.041916
0.479719 0.459380 0.070185
0.590149 0.510574 0.108255
0.675967 0.531516 0.136279
0.761031 0.547525 0.173753
0.852357 0.570850 0.236786
0.950562 0.619866 0.353790
1.000020 0.668353 0.471847
1.000020 0.732385 0.615010
0.233024 0.382008 0.026612
0.234726 0.383141 0.026713
0.242361 0.387895 0.027531
0.260024 0.398902 0.028553
0.289005 0.418740 0.029399
0.333067 0.446048 0.025192
0.395005 0.484322 0.043232
0.473535 0.531879 0.074159
0.555880 0.570439 0.105356
0.629077 0.588552 0.131340
0.705342 0.603317 0.162379
0.786290 0.622358 0.206502
0.884518 0.657406 0.294596
0.965825 0.698978 0.403536
1.000020 0.738985 0.511944
1.000020 0.788071 0.650637
0.325363 0.519094 0.057265
0.327211 0.520345 0.057570
0.335834 0.525917 0.059115
0.354927 0.538773 0.062196
0.387177 0.561185 0.068404
0.436026 0.592376 0.077155
0.492779 0.620194 0.086953
0.543827 0.634861 0.107827
0.601083 0.649429 0.130747
0.663929 0.663628 0.158040
0.734987 0.677326 0.193634
0.820666 0.702087 0.260996
0.908318 0.735356 0.357447
0.978022 0.769150 0.462418
1.000020 0.801485 0.562960
1.000020 0.824578 0.655093
0.429424 0.665634 0.109233
0.430864 0.666252 0.109549
0.437238 0.669456 0.111103
0.450410 0.673966 0.113277
0.472434 0.680672 0.116352
0.501547 0.689223 0.120912
0.543957 0.700850 0.122885
0.592640 0.712358 0.134927
0.644121 0.723042 0.162907
0.706162 0.739422 0.202330
0.777796 0.759500 0.258321
0.853099 0.778620 0.326966
0.924888 0.800848 0.414316
0.985053 0.826174 0.513027
1.000020 0.848716 0.601631
1.000020 0.858752 0.661563
0.494054 0.751548 0.147507
0.495186 0.751798 0.147687
0.499997 0.752474 0.148444
0.511061 0.755693 0.150502
0.529264 0.760647 0.154220
0.557684 0.766946 0.161061
0.595522 0.776937 0.171116
0.641650 0.788014 0.185490
0.697722 0.803388 0.224746
0.757878 0.819014 0.276991
0.816487 0.833984 0.334371
0.880200 0.848660 0.400938
0.939240 0.862238 0.480074
0.988110 0.877498 0.555208
1.000020 0.888990 0.629971
1.000020 0.891888 0.665256
0.560953 0.832476 0.202878
0.562022 0.832799 0.203363
0.566975 0.834381 0.204773
0.579118 0.836609 0.209972
0.597213 0.842135 0.218581
0.623000 0.848856 0.232070
0.659183 0.857372 0.250804
0.702705 0.867973 0.276741
0.752088 0.878733 0.313449
0.801854 0.886967 0.360482
0.851631 0.894998 0.413704
0.901449 0.908071 0.481086
0.949538 0.914369 0.541946
0.991087 0.922371 0.593697
1.000020 0.926812 0.648727
1.000020 0.926215 0.669895
0.637083 0.910823 0.296816
0.638110 0.910835 0.297362
0.642215 0.911818 0.300651
0.651354 0.913644 0.305015
0.667703 0.915988 0.315699
0.690993 0.920082 0.328881
0.720004 0.925609 0.348350
0.754913 0.930595 0.372167
0.794379 0.935947 0.402394
0.837173 0.941235 0.444628
0.880512 0.948433 0.496194
0.921183 0.953754 0.543050
0.958791 0.960076 0.589741
0.996053 0.964526 0.636037
1.000020 0.963008 0.675946
1.000020 0.961680 0.679289
0.701656 0.962449 0.395152
0.702637 0.962473 0.395578
0.705818 0.962449 0.397121
0.712851 0.962473 0.403347
0.726920 0.963530 0.412306
0.743736 0.964750 0.424503
0.768214 0.965450 0.442526
0.797505 0.967648 0.465523
0.828543 0.970595 0.488624
0.863452 0.976010 0.517754
0.900103 0.982270 0.556820
0.936910 0.988665 0.595221
0.970902 0.994390 0.635102
0.997989 0.999625 0.672182
1.000020 0.998253 0.693470
1.000020 0.997611 0.693356
0.000000 0.000187 0.009353
0.006189 0.000483 0.010066
0.044553 0.002040 0.017621
0.090459 0.007241 0.023859
0.131123 0.009445 0.028811
0.170809 0.013054 0.037841
0.215970 0.018502 0.051875
0.270489 0.027148 0.069267
0.333703 0.039481 0.092848
0.407908 0.055279 0.121720
0.500895 0.075648 0.156334
0.628677 0.115470 0.204314
0.768918 0.175419 0.266251
0.883484 0.240244 0.328645
0.973505 0.319482 0.399733
1.000020 0.427965 0.485902
0.002653 0.016555 0.006034
0.010913 0.014556 0.007916
0.045441 0.016555 0.015206
0.091655 0.018581 0.021695
0.132126 0.016739 0.027484
0.171707 0.016332 0.038472
0.216985 0.018753 0.051468
0.271396 0.027403 0.068981
0.334464 0.039693 0.092612
0.408746 0.055493 0.121492
0.501693 0.075862 0.156096
0.629504 0.114676 0.204086
0.770072 0.174794 0.266331
0.884518 0.242072 0.329048
0.973661 0.319843 0.399784
1.000020 0.428783 0.486306
0.018169 0.049464 0.003635
0.026545 0.049431 0.004323
0.053029 0.049464 0.006386
0.093979 0.053455 0.014406
0.134134 0.055160 0.022552
0.174084 0.055129 0.033751
0.220907 0.056166 0.048363
0.275710 0.058148 0.067011
0.338490 0.057343 0.091287
0.412737 0.064281 0.120295
0.505852 0.082442 0.155691
0.633778 0.118420 0.203814
0.773444 0.176660 0.264700
0.886583 0.242849 0.328660
0.974908 0.321694 0.400083
1.000020 0.432503 0.487865
0.042714 0.089061 0.000000
0.048247 0.089180 0.000000
0.066060 0.090067 0.000000
0.092408 0.089180 0.001835
0.127931 0.089953 0.009011
0.171010 0.096037 0.023973
0.222041 0.102986 0.040303
0.281051 0.112071 0.060887
0.346562 0.121339 0.086553
0.424177 0.131599 0.116500
0.522239 0.145345 0.153745
0.651791 0.171564 0.205629
0.784454 0.214521 0.266276
0.892795 0.259996 0.328331
0.977521 0.327626 0.400719
1.000020 0.440621 0.491481
0.065316 0.123970 0.000000
0.068588 0.124009 0.000000
0.080642 0.123970 0.000000
0.102043 0.125012 0.000000
0.130384 0.124925 0.002522
0.167812 0.129975 0.006990
0.221733 0.144931 0.022697
0.283434 0.159961 0.048418
0.352856 0.175693 0.076544
0.439674 0.195976 0.109354
0.548767 0.222523 0.152064
0.682341 0.258644 0.206912
0.801720 0.292909 0.266283
0.901071 0.324555 0.326311
0.982332 0.385812 0.404570
1.000020 0.478917 0.499236
0.087008 0.157833 0.000000
0.089277 0.157978 0.000000
0.098781 0.158826 0.000000
0.117427 0.159969 0.000000
0.142147 0.164081 0.002698
0.173540 0.168439 0.006075
0.217872 0.179037 0.011869
0.281747 0.201350 0.022605
0.352176 0.222316 0.054250
0.453842 0.257938 0.096755
0.578219 0.298784 0.145436
0.707497 0.337177 0.202630
0.812803 0.361890 0.259214
0.909372 0.392936 0.324349
0.985963 0.452316 0.410935
1.000020 0.542516 0.521886
0.112328 0.196839 0.001984
0.114086 0.197148 0.001938
0.121437 0.198836 0.001097
0.138734 0.202135 0.000328
0.161467 0.206155 0.001901
0.190307 0.212673 0.006834
0.228153 0.221095 0.011987
0.279074 0.236540 0.018768
0.361184 0.272594 0.033931
0.469374 0.318603 0.066656
0.606932 0.375431 0.131396
0.721699 0.405433 0.188075
0.820115 0.426804 0.245151
0.917616 0.461615 0.322200
0.988006 0.518619 0.418932
1.000020 0.606433 0.548383
0.141535 0.241838 0.006739
0.142954 0.242262 0.006782
0.148880 0.243829 0.006739
0.164073 0.247228 0.004954
0.185690 0.254080 0.003066
0.214302 0.261222 0.008347
0.252727 0.274920 0.014055
0.314866 0.304854 0.025815
0.404980 0.351003 0.045901
0.521118 0.406998 0.075183
0.650047 0.460120 0.116430
0.739478 0.477505 0.171342
0.830678 0.494623 0.235500
0.932110 0.536148 0.328992
0.995149 0.593666 0.443098
1.000020 0.669545 0.578286
0.175736 0.295116 0.013226
0.177070 0.295503 0.013172
0.182197 0.297097 0.013226
0.195573 0.301441 0.012254
0.217351 0.310589 0.009007
0.256341 0.330869 0.008604
0.310404 0.363921 0.023712
0.381787 0.405782 0.041736
0.479114 0.459005 0.069978
0.589746 0.510508 0.108155
0.676375 0.531160 0.137013
0.760545 0.547422 0.173664
0.852357 0.571206 0.237790
0.950562 0.619993 0.358917
1.000020 0.668685 0.474846
1.000020 0.732544 0.616384
0.232388 0.381618 0.026535
0.234085 0.382691 0.026676
0.241727 0.388495 0.027455
0.258428 0.399384 0.028516
0.289308 0.418470 0.029210
0.333467 0.445665 0.024991
0.394346 0.484071 0.043041
0.472963 0.531515 0.073951
0.555493 0.570269 0.105238
0.628666 0.588450 0.131223
0.703856 0.604128 0.162262
0.786899 0.622306 0.205434
0.883484 0.657583 0.293504
0.965825 0.699309 0.402044
1.000020 0.739220 0.513772
1.000020 0.788355 0.652057
0.324632 0.518641 0.057146
0.326543 0.519891 0.057464
0.334162 0.525452 0.058071
0.353257 0.538349 0.062089
0.385799 0.560092 0.068252
0.434607 0.592358 0.076939
0.492312 0.620079 0.086802
0.543383 0.634842 0.107613
0.600711 0.649355 0.130609
0.663635 0.663619 0.157909
0.734583 0.677302 0.192546
0.820446 0.702029 0.259905
0.908318 0.735193 0.358106
0.977053 0.769149 0.461437
1.000020 0.801368 0.562678
1.000020 0.824577 0.655090
0.428841 0.665264 0.109095
0.430316 0.666057 0.109415
0.436657 0.669133 0.110952
0.450858 0.673754 0.113148
0.471048 0.680481 0.116384
0.502175 0.689224 0.120570
0.543541 0.700647 0.122909
0.592283 0.712359 0.134587
0.643795 0.723065 0.162740
0.705737 0.739277 0.202093
0.778488 0.759460 0.257197
0.852666 0.778616 0.326732
0.923832 0.800838 0.414158
0.984098 0.826173 0.513021
1.000020 0.848672 0.601500
1.000020 0.858751 0.661558
0.493613 0.751548 0.147432
0.494745 0.751850 0.147631
0.499584 0.752474 0.148368
0.510624 0.755633 0.150439
0.529916 0.760569 0.154111
0.557419 0.766978 0.160939
0.595177 0.776852 0.171006
0.641327 0.788047 0.185395
0.697576 0.803225 0.224440
0.757407 0.819060 0.276735
0.816312 0.833817 0.334078
0.879785 0.848745 0.401647
0.939240 0.862247 0.478888
0.988110 0.877498 0.555204
1.000020 0.889000 0.629727
1.000020 0.891888 0.665253
0.560428 0.832385 0.202718
0.561581 0.832615 0.203158
0.566472 0.834362 0.205563
0.577682 0.837377 0.209765
0.596883 0.842021 0.218415
0.622777 0.848689 0.230950
0.658864 0.857316 0.250621
0.702504 0.867814 0.276546
0.751684 0.878681 0.313226
0.801588 0.886941 0.360333
0.852235 0.894946 0.413469
0.901214 0.908044 0.480936
0.949538 0.914382 0.540852
0.991087 0.922371 0.593697
1.000020 0.926825 0.648657
1.000020 0.926216 0.669895
0.636721 0.910687 0.296606
0.637780 0.911044 0.297182
0.641821 0.911680 0.299485
0.652043 0.913915 0.304837
0.668338 0.915938 0.315549
0.689908 0.920073 0.328733
0.719545 0.925589 0.348194
0.754829 0.930586 0.372007
0.794121 0.935857 0.402166
0.837162 0.941224 0.444493
0.881233 0.948343 0.495971
0.921049 0.953749 0.543887
0.958791 0.959902 0.590582
0.995077 0.964628 0.636036
1.000020 0.962835 0.675807
1.000020 0.961784 0.679288
0.701389 0.962391 0.394862
0.702117 0.962522 0.395371
0.705504 0.962391 0.397782
0.713489 0.962522 0.402165
0.725778 0.963521 0.411043
0.744487 0.964709 0.424312
0.768028 0.965440 0.442231
0.797272 0.967607 0.465312
0.828185 0.970721 0.488497
0.863279 0.976007 0.517569
0.900835 0.982395 0.556663
0.936674 0.988661 0.595028
0.970902 0.994390 0.634112
0.997989 0.999625 0.672182
1.000020 0.998253 0.693470
1.000020 0.997611 0.693356
0.000000 0.000675 0.021102
0.000000 0.000625 0.021219
0.014206 0.000675 0.027544
0.070612 0.005389 0.044261
0.118590 0.008717 0.051205
0.162000 0.009418 0.056300
0.209706 0.015760 0.069713
0.265256 0.024513 0.085959
0.328956 0.036921 0.108099
0.403473 0.053114 0.137172
0.496943 0.074099 0.172666
0.626082 0.114301 0.219950
0.765396 0.175325 0.280006
0.880395 0.239397 0.340070
0.972130 0.319392 0.409857
1.000020 0.425176 0.491698
0.000400 0.013696 0.019899
0.000399 0.013613 0.019986
0.018791 0.013696 0.028180
0.068942 0.018645 0.043944
0.117764 0.018505 0.050092
0.162894 0.015682 0.057070
0.210722 0.016492 0.069523
0.266148 0.024740 0.085802
0.329811 0.037112 0.107965
0.404424 0.053301 0.137062
0.497812 0.074288 0.171591
0.627044 0.115492 0.220784
0.766599 0.174743 0.280065
0.880395 0.240288 0.340406
0.972183 0.319770 0.409902
1.000020 0.426066 0.492031
0.003013 0.041242 0.017903
0.008514 0.041147 0.020895
0.033242 0.043252 0.030788
0.072940 0.047183 0.039318
0.119720 0.051422 0.046473
0.165520 0.052489 0.054585
0.214563 0.054436 0.067748
0.270722 0.056507 0.084231
0.333916 0.056490 0.107012
0.408366 0.062245 0.136414
0.502106 0.079584 0.171562
0.631196 0.118396 0.220130
0.769954 0.176624 0.280349
0.883484 0.242077 0.340947
0.973521 0.321666 0.410205
1.000020 0.429788 0.493600
0.030029 0.080638 0.015272
0.035947 0.080808 0.016481
0.056897 0.081645 0.020789
0.085400 0.081808 0.026603
0.120321 0.083260 0.034733
0.165125 0.091209 0.047150
0.217066 0.100304 0.062444
0.276920 0.110250 0.080476
0.343338 0.119919 0.104128
0.420030 0.130416 0.134058
0.519871 0.144925 0.171488
0.649539 0.173381 0.222461
0.781135 0.214792 0.280067
0.889684 0.259464 0.340557
0.976364 0.327889 0.410876
1.000020 0.438105 0.497134
0.059272 0.122210 0.004455
0.062837 0.122247 0.004506
0.076384 0.122210 0.005369
0.098069 0.123248 0.006339
0.125970 0.123234 0.013579
0.163031 0.126437 0.025743
0.217233 0.141233 0.050432
0.279473 0.157429 0.072859
0.349043 0.173754 0.097735
0.437731 0.195692 0.130436
0.548815 0.222579 0.171612
0.680313 0.259358 0.225423
0.799314 0.292138 0.280904
0.898018 0.323947 0.338382
0.980942 0.385986 0.414657
1.000020 0.477331 0.504711
0.083344 0.157704 0.000000
0.085621 0.157830 0.000000
0.095116 0.158701 0.000000
0.114657 0.159830 0.000000
0.139574 0.163746 0.002373
0.171314 0.167527 0.008526
0.215270 0.177716 0.017936
0.276656 0.197420 0.048122
0.348240 0.220171 0.084039
0.450492 0.256934 0.122125
0.578092 0.299574 0.168093
0.704985 0.337172 0.222681
0.810223 0.360408 0.274118
0.908318 0.392840 0.337843
0.985432 0.452797 0.421320
1.000020 0.541406 0.526863
0.109407 0.196461 0.002062
0.111245 0.196769 0.002027
0.119421 0.197457 0.001183
0.135875 0.200755 0.000432
0.158946 0.205863 0.001833
0.189243 0.212840 0.006805
0.226531 0.220799 0.011932
0.277030 0.235721 0.020577
0.358235 0.271261 0.046387
0.466794 0.318180 0.093770
0.606797 0.377109 0.162774
0.718953 0.404995 0.211878
0.817869 0.426369 0.263365
0.916623 0.461539 0.335210
0.987904 0.520137 0.430758
1.000020 0.607306 0.554929
0.139192 0.241265 0.006691
0.140666 0.241681 0.006705
0.146514 0.243253 0.006691
0.160865 0.246649 0.004876
0.183975 0.253554 0.002775
0.212905 0.262051 0.007828
0.251008 0.274402 0.013792
0.312515 0.303669 0.025286
0.402553 0.349955 0.045431
0.518679 0.406123 0.076078
0.646438 0.459087 0.128081
0.737949 0.476669 0.197668
0.829646 0.495332 0.255632
0.932110 0.538045 0.346535
0.995178 0.595351 0.455060
1.000020 0.670433 0.584524
0.173668 0.294496 0.013324
0.174971 0.294935 0.013270
0.180134 0.296469 0.013324
0.193443 0.300904 0.012351
0.215986 0.309209 0.008376
0.254102 0.329627 0.007066
0.308051 0.362594 0.023083
0.379488 0.404589 0.041111
0.476356 0.457649 0.069133
0.588019 0.510035 0.107595
0.674487 0.530798 0.136155
0.759798 0.547982 0.175902
0.850283 0.570872 0.249091
0.950562 0.621904 0.376049
1.000020 0.670267 0.486557
1.000020 0.733467 0.622158
0.229592 0.379882 0.026336
0.231336 0.381024 0.026498
0.238932 0.385821 0.027257
0.255661 0.396754 0.029261
0.285787 0.416920 0.029141
0.331079 0.444318 0.024914
0.391696 0.482526 0.042046
0.470484 0.530180 0.072945
0.553776 0.569727 0.104587
0.627206 0.588206 0.130708
0.703160 0.603590 0.160671
0.785409 0.622033 0.204912
0.882473 0.656773 0.292583
0.964833 0.699013 0.404906
1.000020 0.740434 0.522698
1.000020 0.789017 0.657096
0.321779 0.516771 0.056636
0.323681 0.518023 0.056990
0.331281 0.523555 0.058484
0.350406 0.536502 0.062539
0.383024 0.557670 0.067627
0.432020 0.590043 0.076342
0.490464 0.619606 0.086179
0.541721 0.634471 0.107015
0.599339 0.649091 0.130018
0.662171 0.663313 0.157283
0.734200 0.676072 0.192903
0.819966 0.701800 0.259288
0.907311 0.735882 0.356403
0.977053 0.769307 0.460535
1.000020 0.800959 0.561929
1.000020 0.824824 0.656152
0.426514 0.664337 0.108613
0.428006 0.665054 0.108950
0.434292 0.668176 0.110473
0.448540 0.672721 0.113609
0.469249 0.680035 0.116369
0.499757 0.688243 0.120102
0.541655 0.700213 0.122902
0.590827 0.712164 0.133176
0.642424 0.722711 0.162092
0.704410 0.739056 0.201178
0.776101 0.759212 0.256544
0.852365 0.777333 0.325797
0.923832 0.799928 0.413126
0.984098 0.826184 0.512020
1.000020 0.848676 0.600410
1.000020 0.858762 0.661572
0.491904 0.751142 0.147062
0.492950 0.751468 0.147303
0.497825 0.753071 0.147998
0.508829 0.755325 0.151042
0.527281 0.760202 0.154618
0.555907 0.767493 0.160483
0.593522 0.776463 0.170578
0.639794 0.787644 0.184924
0.696126 0.802833 0.223351
0.756211 0.818739 0.275662
0.815941 0.834385 0.332976
0.878562 0.847418 0.400541
0.939240 0.862080 0.478170
0.987057 0.876611 0.554228
1.000020 0.888940 0.629020
1.000020 0.891978 0.665242
0.558735 0.831960 0.201981
0.559843 0.832219 0.202463
0.564724 0.832928 0.203880
0.575903 0.836938 0.209084
0.594377 0.841735 0.217585
0.621409 0.848524 0.230064
0.657356 0.857034 0.249797
0.701069 0.867685 0.275671
0.750624 0.878398 0.312100
0.800556 0.887010 0.359337
0.851207 0.895613 0.413324
0.901156 0.908115 0.479947
0.949538 0.914357 0.540529
0.990096 0.922333 0.593724
1.000020 0.926799 0.648329
1.000020 0.926178 0.669900
0.635171 0.910390 0.295794
0.636198 0.910554 0.296310
0.640291 0.911354 0.298678
0.649426 0.913430 0.303939
0.666072 0.916774 0.314822
0.688738 0.920007 0.327925
0.718386 0.925434 0.347463
0.753621 0.930546 0.371226
0.793064 0.935855 0.401417
0.836103 0.941085 0.443629
0.881249 0.947434 0.495225
0.920055 0.953610 0.542018
0.958791 0.959997 0.590113
0.995077 0.964703 0.634989
1.000020 0.962928 0.675375
1.000020 0.961767 0.679269
0.700150 0.962440 0.394118
0.700974 0.962328 0.394627
0.705378 0.962440 0.396045
0.712270 0.962328 0.402408
0.724593 0.963427 0.411393
0.742626 0.964599 0.423579
0.766974 0.965346 0.441574
0.796424 0.967541 0.464609
0.827444 0.970516 0.487863
0.862502 0.975861 0.516906
0.899085 0.982190 0.555047
0.936978 0.988522 0.594382
0.970902 0.994431 0.634108
0.997989 0.999625 0.671188
1.000020 0.998293 0.693466
1.000020 0.997611 0.693356
0.000000 0.004434 0.035346
0.000000 0.004223 0.035401
0.000000 0.003437 0.035346
0.027569 0.001260 0.047397
0.090160 0.008057 0.070106
0.144075 0.011546 0.081247
0.196429 0.013093 0.094239
0.254419 0.019598 0.111015
0.318339 0.031565 0.135226
0.393586 0.048156 0.165240
0.487863 0.069756 0.200979
0.618730 0.113373 0.251196
0.758681 0.173926 0.308022
0.872105 0.238167 0.363190
0.968652 0.318980 0.430574
1.000020 0.419057 0.504533
0.000000 0.016911 0.034781
0.000000 0.016818 0.034847
0.000886 0.016911 0.035702
0.031140 0.014805 0.047761
0.090235 0.019153 0.068253
0.144933 0.018752 0.081280
0.197424 0.015126 0.094232
0.255302 0.019758 0.111041
0.319218 0.031753 0.135200
0.394463 0.048366 0.165240
0.488788 0.069940 0.200957
0.619631 0.113578 0.251181
0.759102 0.174394 0.308098
0.872105 0.237679 0.363312
0.968968 0.319441 0.430652
1.000020 0.419559 0.504633
0.000380 0.041051 0.033187
0.000610 0.040966 0.033319
0.002799 0.041051 0.034107
0.043133 0.041973 0.049927
0.089443 0.048129 0.065203
0.138806 0.054522 0.078084
0.195701 0.056169 0.093032
0.258404 0.055528 0.110629
0.323565 0.055455 0.134757
0.398667 0.057889 0.165051
0.493324 0.076545 0.200509
0.625042 0.117056 0.251946
0.762732 0.176362 0.307542
0.875185 0.239352 0.363574
0.970523 0.321382 0.431075
1.000020 0.423169 0.505928
0.004038 0.070340 0.030852
0.009223 0.069688 0.033108
0.029819 0.070340 0.041914
0.063751 0.071696 0.054341
0.099153 0.077202 0.063971
0.144199 0.085449 0.071944
0.200996 0.097254 0.089930
0.264876 0.107502 0.109121
0.333192 0.117343 0.133405
0.411551 0.128435 0.164503
0.513264 0.145349 0.202908
0.643698 0.174395 0.253273
0.773692 0.215327 0.309273
0.881406 0.257208 0.363965
0.973177 0.328411 0.431839
1.000020 0.431983 0.509240
0.036646 0.104045 0.035597
0.041303 0.104503 0.037030
0.057261 0.106050 0.042052
0.083586 0.108509 0.049027
0.115502 0.111902 0.055108
0.152902 0.117852 0.063859
0.208418 0.134926 0.082899
0.271907 0.152865 0.103774
0.341434 0.170440 0.129426
0.433099 0.195498 0.166140
0.544790 0.224250 0.207371
0.675472 0.259156 0.258740
0.791693 0.290587 0.308930
0.890717 0.321673 0.361237
0.978597 0.386443 0.435409
1.000020 0.473121 0.516398
0.072790 0.147418 0.027706
0.075504 0.147534 0.027896
0.086334 0.148409 0.028626
0.107198 0.151532 0.029736
0.134033 0.155273 0.036502
0.164673 0.159659 0.048373
0.206838 0.169252 0.065146
0.267035 0.189587 0.090071
0.342887 0.217118 0.120081
0.445197 0.255621 0.161344
0.573449 0.300521 0.209268
0.701444 0.335853 0.258645
0.805065 0.359689 0.303705
0.904173 0.393023 0.363646
0.983541 0.453056 0.441796
1.000020 0.538684 0.537587
0.102440 0.194426 0.006203
0.104344 0.194665 0.006347
0.112437 0.196428 0.007119
0.129849 0.198648 0.007264
0.155051 0.203754 0.009479
0.184369 0.210327 0.018115
0.221669 0.217704 0.036159
0.271137 0.231208 0.058695
0.355332 0.270169 0.099568
0.465065 0.319494 0.152479
0.606781 0.377971 0.211137
0.715080 0.405296 0.251557
0.813591 0.424885 0.295505
0.914544 0.462843 0.363618
0.987738 0.523531 0.454898
1.000020 0.608599 0.568340
0.133710 0.240203 0.006772
0.135273 0.240489 0.006761
0.141942 0.242191 0.006772
0.156363 0.245460 0.005845
0.179295 0.252417 0.003168
0.209667 0.260540 0.007271
0.247209 0.273259 0.013236
0.307313 0.301186 0.025658
