example_ofxGpuLutCube/bin/data/ofxGpuLutCube/LUT/A30 (bright soft pink fade).cube
LUT_3D_SIZE 6
0.036000 0.036000 0.161000
0.361860 0.036000 0.161000
0.549720 0.036000 0.161000
0.691340 0.036000 0.161000
0.842580 0.036000 0.161000
0.999745 0.036000 0.161000
0.036000 0.291820 0.161000
0.361860 0.291820 0.161000
0.549720 0.291820 0.161000
0.691340 0.291820 0.161000
0.842580 0.291820 0.161000
0.999745 0.291820 0.161000
0.036000 0.519220 0.161000
0.361860 0.519220 0.161000
0.549720 0.519220 0.161000
0.691340 0.519220 0.161000
0.842580 0.519220 0.161000
0.999745 0.519220 0.161000
0.036000 0.715840 0.161000
0.361860 0.715840 0.161000
0.549720 0.715840 0.161000
0.691340 0.715840 0.161000
0.842580 0.715840 0.161000
0.999745 0.715840 0.161000
0.036000 0.873620 0.161000
0.361860 0.873620 0.161000
0.549720 0.873620 0.161000
0.691340 0.873620 0.161000
0.842580 0.873620 0.161000
0.999745 0.873620 0.161000
0.036000 0.999805 0.161000
0.361860 0.999805 0.161000
0.549720 0.999805 0.161000
0.691340 0.999805 0.161000
0.842580 0.999805 0.161000
0.999745 0.999805 0.161000
0.036000 0.036000 0.369720
0.361860 0.036000 0.369720
0.549720 0.036000 0.369720
0.691340 0.036000 0.369720
0.842580 0.036000 0.369720
0.999745 0.036000 0.369720
0.036000 0.291820 0.369720
0.361860 0.291820 0.369720
0.549720 0.291820 0.369720
0.691340 0.291820 0.369720
0.842580 0.291820 0.369720
0.999745 0.291820 0.369720
0.036000 0.519220 0.369720
0.361860 0.519220 0.369720
0.549720 0.519220 0.369720
0.691340 0.519220 0.369720
0.842580 0.519220 0.369720
0.999745 0.519220 0.369720
0.036000 0.715840 0.369720
0.361860 0.715840 0.369720
0.549720 0.715840 0.369720
0.691340 0.715840 0.369720
0.842580 0.715840 0.369720
0.999745 0.715840 0.369720
0.036000 0.873620 0.369720
0.361860 0.873620 0.369720
0.549720 0.873620 0.369720
0.691340 0.873620 0.369720
0.842580 0.873620 0.369720
0.999745 0.873620 0.369720
0.036000 0.999805 0.369720
0.361860 0.999805 0.369720
0.549720 0.999805 0.369720
0.691340 0.999805 0.369720
0.842580 0.999805 0.369720
0.999745 0.999805 0.369720
0.036000 0.036000 0.567060
0.361860 0.036000 0.567060
0.549720 0.036000 0.567060
0.691340 0.036000 0.567060
0.842580 0.036000 0.567060
0.999745 0.036000 0.567060
0.036000 0.291820 0.567060
0.361860 0.291820 0.567060
0.549720 0.291820 0.567060
0.691340 0.291820 0.567060
0.842580 0.291820 0.567060
0.999745 0.291820 0.567060
0.036000 0.519220 0.567060
0.361860 0.519220 0.567060
0.549720 0.519220 0.567060
0.691340 0.519220 0.567060
0.842580 0.519220 0.567060
0.999745 0.519220 0.567060
0.036000 0.715840 0.567060
0.361860 0.715840 0.567060
0.549720 0.715840 0.567060
0.691340 0.715840 0.567060
0.842580 0.715840 0.567060
0.999745 0.715840 0.567060
0.036000 0.873620 0.567060
0.361860 0.873620 0.567060
0.549720 0.873620 0.567060
0.691340 0.873620 0.567060
0.842580 0.873620 0.567060
0.999745 0.873620 0.567060
0.036000 0.999805 0.567060
0.361860 0.999805 0.567060
0.549720 0.999805 0.567060
0.691340 0.999805 0.567060
0.842580 0.999805 0.567060
0.999745 0.999805 0.567060
0.036000 0.036000 0.752240
0.361860 0.036000 0.752240
0.549720 0.036000 0.752240
0.691340 0.036000 0.752240
0.842580 0.036000 0.752240
0.999745 0.036000 0.752240
0.036000 0.291820 0.752240
0.361860 0.291820 0.752240
0.549720 0.291820 0.752240
0.691340 0.291820 0.752240
0.842580 0.291820 0.752240
0.999745 0.291820 0.752240
0.036000 0.519220 0.752240
0.361860 0.519220 0.752240
0.549720 0.519220 0.752240
0.691340 0.519220 0.752240
0.842580 0.519220 0.752240
0.999745 0.519220 0.752240
0.036000 0.715840 0.752240
0.361860 0.715840 0.752240
0.549720 0.715840 0.752240
0.691340 0.715840 0.752240
0.842580 0.715840 0.752240
0.999745 0.715840 0.752240
0.036000 0.873620 0.752240
0.361860 0.873620 0.752240
0.549720 0.873620 0.752240
0.691340 0.873620 0.752240
0.842580 0.873620 0.752240
0.999745 0.873620 0.752240
0.036000 0.999805 0.752240
0.361860 0.999805 0.752240
0.549720 0.999805 0.752240
0.691340 0.999805 0.752240
0.842580 0.999805 0.752240
0.999745 0.999805 0.752240
0.036000 0.036000 0.905600
0.361860 0.036000 0.905600
0.549720 0.036000 0.905600
0.691340 0.036000 0.905600
0.842580 0.036000 0.905600
0.999745 0.036000 0.905600
0.036000 0.291820 0.905600
0.361860 0.291820 0.905600
0.549720 0.291820 0.905600
0.691340 0.291820 0.905600
0.842580 0.291820 0.905600
0.999745 0.291820 0.905600
0.036000 0.519220 0.905600
0.361860 0.519220 0.905600
0.549720 0.519220 0.905600
0.691340 0.519220 0.905600
0.842580 0.519220 0.905600
0.999745 0.519220 0.905600
0.036000 0.715840 0.905600
0.361860 0.715840 0.905600
0.549720 0.715840 0.905600
0.691340 0.715840 0.905600
0.842580 0.715840 0.905600
0.999745 0.715840 0.905600
0.036000 0.873620 0.905600
0.361860 0.873620 0.905600
0.549720 0.873620 0.905600
0.691340 0.873620 0.905600
0.842580 0.873620 0.905600
0.999745 0.873620 0.905600
0.036000 0.999805 0.905600
0.361860 0.999805 0.905600
0.549720 0.999805 0.905600
0.691340 0.999805 0.905600
0.842580 0.999805 0.905600
0.999745 0.999805 0.905600
0.036000 0.036000 0.999871
0.361860 0.036000 0.999871
0.549720 0.036000 0.999871
0.691340 0.036000 0.999871
0.842580 0.036000 0.999871
0.999745 0.036000 0.999871
0.036000 0.291820 0.999871
0.361860 0.291820 0.999871
0.549720 0.291820 0.999871
0.691340 0.291820 0.999871
0.842580 0.291820 0.999871
0.999745 0.291820 0.999871
0.036000 0.519220 0.999871
0.361860 0.519220 0.999871
0.549720 0.519220 0.999871
0.691340 0.519220 0.999871
0.842580 0.519220 0.999871
0.999745 0.519220 0.999871
0.036000 0.715840 0.999871
0.361860 0.715840 0.999871
0.549720 0.715840 0.999871
0.691340 0.715840 0.999871
0.842580 0.715840 0.999871
0.999745 0.715840 0.999871
0.036000 0.873620 0.999871
0.361860 0.873620 0.999871
0.549720 0.873620 0.999871
0.691340 0.873620 0.999871
0.842580 0.873620 0.999871
0.999745 0.873620 0.999871
0.036000 0.999805 0.999871
0.361860 0.999805 0.999871
0.549720 0.999805 0.999871
0.691340 0.999805 0.999871
0.842580 0.999805 0.999871
0.999745 0.999805 0.999871
