example_ofxGpuLutCube/bin/data/ofxGpuLutCube/LUT/A30 (bright soft pink fade).cube
LUT_3D_SIZE 16
0.036000 0.036000 0.161000
0.161507 0.036000 0.161000
0.271253 0.036000 0.161000
0.361860 0.036000 0.161000
0.435753 0.036000 0.161000
0.497067 0.036000 0.161000
0.549720 0.036000 0.161000
0.597453 0.036000 0.161000
0.643753 0.036000 0.161000
0.691340 0.036000 0.161000
0.740567 0.036000 0.161000
0.791040 0.036000 0.161000
0.842580 0.036000 0.161000
0.894727 0.036000 0.161000
0.947300 0.036000 0.161000
0.999745 0.036000 0.161000
0.036000 0.125473 0.161000
0.161507 0.125473 0.161000
0.271253 0.125473 0.161000
0.361860 0.125473 0.161000
0.435753 0.125473 0.161000
0.497067 0.125473 0.161000
0.549720 0.125473 0.161000
0.597453 0.125473 0.161000
0.643753 0.125473 0.161000
0.691340 0.125473 0.161000
0.740567 0.125473 0.161000
0.791040 0.125473 0.161000
0.842580 0.125473 0.161000
0.894727 0.125473 0.161000
0.947300 0.125473 0.161000
0.999745 0.125473 0.161000
0.036000 0.210233 0.161000
0.161507 0.210233 0.161000
0.271253 0.210233 0.161000
0.361860 0.210233 0.161000
0.435753 0.210233 0.161000
0.497067 0.210233 0.161000
0.549720 0.210233 0.161000
0.597453 0.210233 0.161000
0.643753 0.210233 0.161000
0.691340 0.210233 0.161000
0.740567 0.210233 0.161000
0.791040 0.210233 0.161000
0.842580 0.210233 0.161000
0.894727 0.210233 0.161000
0.947300 0.210233 0.161000
0.999745 0.210233 0.161000
0.036000 0.291820 0.161000
0.161507 0.291820 0.161000
0.271253 0.291820 0.161000
0.361860 0.291820 0.161000
0.435753 0.291820 0.161000
0.497067 0.291820 0.161000
0.549720 0.291820 0.161000
0.597453 0.291820 0.161000
0.643753 0.291820 0.161000
0.691340 0.291820 0.161000
0.740567 0.291820 0.161000
0.791040 0.291820 0.161000
0.842580 0.291820 0.161000
0.894727 0.291820 0.161000
0.947300 0.291820 0.161000
0.999745 0.291820 0.161000
0.036000 0.370620 0.161000
0.161507 0.370620 0.161000
0.271253 0.370620 0.161000
0.361860 0.370620 0.161000
0.435753 0.370620 0.161000
0.497067 0.370620 0.161000
0.549720 0.370620 0.161000
0.597453 0.370620 0.161000
0.643753 0.370620 0.161000
0.691340 0.370620 0.161000
0.740567 0.370620 0.161000
0.791040 0.370620 0.161000
0.842580 0.370620 0.161000
0.894727 0.370620 0.161000
0.947300 0.370620 0.161000
0.999745 0.370620 0.161000
0.036000 0.446467 0.161000
0.161507 0.446467 0.161000
0.271253 0.446467 0.161000
0.361860 0.446467 0.161000
0.435753 0.446467 0.161000
0.497067 0.446467 0.161000
0.549720 0.446467 0.161000
0.597453 0.446467 0.161000
0.643753 0.446467 0.161000
0.691340 0.446467 0.161000
0.740567 0.446467 0.161000
0.791040 0.446467 0.161000
0.842580 0.446467 0.161000
0.894727 0.446467 0.161000
0.947300 0.446467 0.161000
0.999745 0.446467 0.161000
0.036000 0.519220 0.161000
0.161507 0.519220 0.161000
0.271253 0.519220 0.161000
0.361860 0.519220 0.161000
0.435753 0.519220 0.161000
0.497067 0.519220 0.161000
0.549720 0.519220 0.161000
0.597453 0.519220 0.161000
0.643753 0.519220 0.161000
0.691340 0.519220 0.161000
0.740567 0.519220 0.161000
0.791040 0.519220 0.161000
0.842580 0.519220 0.161000
0.894727 0.519220 0.161000
0.947300 0.519220 0.161000
0.999745 0.519220 0.161000
0.036000 0.588560 0.161000
0.161507 0.588560 0.161000
0.271253 0.588560 0.161000
0.361860 0.588560 0.161000
0.435753 0.588560 0.161000
0.497067 0.588560 0.161000
0.549720 0.588560 0.161000
0.597453 0.588560 0.161000
0.643753 0.588560 0.161000
0.691340 0.588560 0.161000
0.740567 0.588560 0.161000
0.791040 0.588560 0.161000
0.842580 0.588560 0.161000
0.894727 0.588560 0.161000
0.947300 0.588560 0.161000
0.999745 0.588560 0.161000
0.036000 0.654180 0.161000
0.161507 0.654180 0.161000
0.271253 0.654180 0.161000
0.361860 0.654180 0.161000
0.435753 0.654180 0.161000
0.497067 0.654180 0.161000
0.549720 0.654180 0.161000
0.597453 0.654180 0.161000
0.643753 0.654180 0.161000
0.691340 0.654180 0.161000
0.740567 0.654180 0.161000
0.791040 0.654180 0.161000
0.842580 0.654180 0.161000
0.894727 0.654180 0.161000
0.947300 0.654180 0.161000
0.999745 0.654180 0.161000
0.036000 0.715840 0.161000
0.161507 0.715840 0.161000
0.271253 0.715840 0.161000
0.361860 0.715840 0.161000
0.435753 0.715840 0.161000
0.497067 0.715840 0.161000
0.549720 0.715840 0.161000
0.597453 0.715840 0.161000
0.643753 0.715840 0.161000
0.691340 0.715840 0.161000
0.740567 0.715840 0.161000
0.791040 0.715840 0.161000
0.842580 0.715840 0.161000
0.894727 0.715840 0.161000
0.947300 0.715840 0.161000
0.999745 0.715840 0.161000
0.036000 0.773167 0.161000
0.161507 0.773167 0.161000
0.271253 0.773167 0.161000
0.361860 0.773167 0.161000
0.435753 0.773167 0.161000
0.497067 0.773167 0.161000
0.549720 0.773167 0.161000
0.597453 0.773167 0.161000
0.643753 0.773167 0.161000
0.691340 0.773167 0.161000
0.740567 0.773167 0.161000
0.791040 0.773167 0.161000
0.842580 0.773167 0.161000
0.894727 0.773167 0.161000
0.947300 0.773167 0.161000
0.999745 0.773167 0.161000
0.036000 0.825767 0.161000
0.161507 0.825767 0.161000
0.271253 0.825767 0.161000
0.361860 0.825767 0.161000
0.435753 0.825767 0.161000
0.497067 0.825767 0.161000
0.549720 0.825767 0.161000
0.597453 0.825767 0.161000
0.643753 0.825767 0.161000
0.691340 0.825767 0.161000
0.740567 0.825767 0.161000
0.791040 0.825767 0.161000
0.842580 0.825767 0.161000
0.894727 0.825767 0.161000
0.947300 0.825767 0.161000
0.999745 0.825767 0.161000
0.036000 0.873620 0.161000
0.161507 0.873620 0.161000
0.271253 0.873620 0.161000
0.361860 0.873620 0.161000
0.435753 0.873620 0.161000
0.497067 0.873620 0.161000
0.549720 0.873620 0.161000
0.597453 0.873620 0.161000
0.643753 0.873620 0.161000
0.691340 0.873620 0.161000
0.740567 0.873620 0.161000
0.791040 0.873620 0.161000
0.842580 0.873620 0.161000
0.894727 0.873620 0.161000
0.947300 0.873620 0.161000
0.999745 0.873620 0.161000
0.036000 0.917813 0.161000
0.161507 0.917813 0.161000
0.271253 0.917813 0.161000
0.361860 0.917813 0.161000
0.435753 0.917813 0.161000
0.497067 0.917813 0.161000
0.549720 0.917813 0.161000
0.597453 0.917813 0.161000
0.643753 0.917813 0.161000
0.691340 0.917813 0.161000
0.740567 0.917813 0.161000
0.791040 0.917813 0.161000
0.842580 0.917813 0.161000
0.894727 0.917813 0.161000
0.947300 0.917813 0.161000
0.999745 0.917813 0.161000
0.036000 0.959573 0.161000
0.161507 0.959573 0.161000
0.271253 0.959573 0.161000
0.361860 0.959573 0.161000
0.435753 0.959573 0.161000
0.497067 0.959573 0.161000
0.549720 0.959573 0.161000
0.597453 0.959573 0.161000
0.643753 0.959573 0.161000
0.691340 0.959573 0.161000
0.740567 0.959573 0.161000
0.791040 0.959573 0.161000
0.842580 0.959573 0.161000
0.894727 0.959573 0.161000
0.947300 0.959573 0.161000
0.999745 0.959573 0.161000
0.036000 0.999805 0.161000
0.161507 0.999805 0.161000
0.271253 0.999805 0.161000
0.361860 0.999805 0.161000
0.435753 0.999805 0.161000
0.497067 0.999805 0.161000
0.549720 0.999805 0.161000
0.597453 0.999805 0.161000
0.643753 0.999805 0.161000
0.691340 0.999805 0.161000
0.740567 0.999805 0.161000
0.791040 0.999805 0.161000
0.842580 0.999805 0.161000
0.894727 0.999805 0.161000
0.947300 0.999805 0.161000
0.999745 0.999805 0.161000
0.036000 0.036000 0.232053
0.161507 0.036000 0.232053
0.271253 0.036000 0.232053
0.361860 0.036000 0.232053
0.435753 0.036000 0.232053
0.497067 0.036000 0.232053
0.549720 0.036000 0.232053
0.597453 0.036000 0.232053
0.643753 0.036000 0.232053
0.691340 0.036000 0.232053
0.740567 0.036000 0.232053
0.791040 0.036000 0.232053
0.842580 0.036000 0.232053
0.894727 0.036000 0.232053
0.947300 0.036000 0.232053
0.999745 0.036000 0.232053
0.036000 0.125473 0.232053
0.161507 0.125473 0.232053
0.271253 0.125473 0.232053
0.361860 0.125473 0.232053
0.435753 0.125473 0.232053
0.497067 0.125473 0.232053
0.549720 0.125473 0.232053
0.597453 0.125473 0.232053
0.643753 0.125473 0.232053
0.691340 0.125473 0.232053
0.740567 0.125473 0.232053
0.791040 0.125473 0.232053
0.842580 0.125473 0.232053
0.894727 0.125473 0.232053
0.947300 0.125473 0.232053
0.999745 0.125473 0.232053
0.036000 0.210233 0.232053
0.161507 0.210233 0.232053
0.271253 0.210233 0.232053
0.361860 0.210233 0.232053
0.435753 0.210233 0.232053
0.497067 0.210233 0.232053
0.549720 0.210233 0.232053
0.597453 0.210233 0.232053
0.643753 0.210233 0.232053
0.691340 0.210233 0.232053
0.740567 0.210233 0.232053
0.791040 0.210233 0.232053
0.842580 0.210233 0.232053
0.894727 0.210233 0.232053
0.947300 0.210233 0.232053
0.999745 0.210233 0.232053
0.036000 0.291820 0.232053
0.161507 0.291820 0.232053
0.271253 0.291820 0.232053
0.361860 0.291820 0.232053
0.435753 0.291820 0.232053
0.497067 0.291820 0.232053
0.549720 0.291820 0.232053
0.597453 0.291820 0.232053
0.643753 0.291820 0.232053
0.691340 0.291820 0.232053
0.740567 0.291820 0.232053
0.791040 0.291820 0.232053
0.842580 0.291820 0.232053
0.894727 0.291820 0.232053
0.947300 0.291820 0.232053
0.999745 0.291820 0.232053
0.036000 0.370620 0.232053
0.161507 0.370620 0.232053
0.271253 0.370620 0.232053
0.361860 0.370620 0.232053
0.435753 0.370620 0.232053
0.497067 0.370620 0.232053
0.549720 0.370620 0.232053
0.597453 0.370620 0.232053
0.643753 0.370620 0.232053
0.691340 0.370620 0.232053
0.740567 0.370620 0.232053
0.791040 0.370620 0.232053
0.842580 0.370620 0.232053
0.894727 0.370620 0.232053
0.947300 0.370620 0.232053
0.999745 0.370620 0.232053
0.036000 0.446467 0.232053
0.161507 0.446467 0.232053
0.271253 0.446467 0.232053
0.361860 0.446467 0.232053
0.435753 0.446467 0.232053
0.497067 0.446467 0.232053
0.549720 0.446467 0.232053
0.597453 0.446467 0.232053
0.643753 0.446467 0.232053
0.691340 0.446467 0.232053
0.740567 0.446467 0.232053
0.791040 0.446467 0.232053
0.842580 0.446467 0.232053
0.894727 0.446467 0.232053
0.947300 0.446467 0.232053
0.999745 0.446467 0.232053
0.036000 0.519220 0.232053
0.161507 0.519220 0.232053
0.271253 0.519220 0.232053
0.361860 0.519220 0.232053
0.435753 0.519220 0.232053
0.497067 0.519220 0.232053
0.549720 0.519220 0.232053
0.597453 0.519220 0.232053
0.643753 0.519220 0.232053
0.691340 0.519220 0.232053
0.740567 0.519220 0.232053
0.791040 0.519220 0.232053
0.842580 0.519220 0.232053
0.894727 0.519220 0.232053
0.947300 0.519220 0.232053
0.999745 0.519220 0.232053
0.036000 0.588560 0.232053
0.161507 0.588560 0.232053
0.271253 0.588560 0.232053
0.361860 0.588560 0.232053
0.435753 0.588560 0.232053
0.497067 0.588560 0.232053
0.549720 0.588560 0.232053
0.597453 0.588560 0.232053
0.643753 0.588560 0.232053
0.691340 0.588560 0.232053
0.740567 0.588560 0.232053
0.791040 0.588560 0.232053
0.842580 0.588560 0.232053
0.894727 0.588560 0.232053
0.947300 0.588560 0.232053
0.999745 0.588560 0.232053
0.036000 0.654180 0.232053
0.161507 0.654180 0.232053
0.271253 0.654180 0.232053
0.361860 0.654180 0.232053
0.435753 0.654180 0.232053
0.497067 0.654180 0.232053
0.549720 0.654180 0.232053
0.597453 0.654180 0.232053
0.643753 0.654180 0.232053
0.691340 0.654180 0.232053
0.740567 0.654180 0.232053
0.791040 0.654180 0.232053
0.842580 0.654180 0.232053
0.894727 0.654180 0.232053
0.947300 0.654180 0.232053
0.999745 0.654180 0.232053
0.036000 0.715840 0.232053
0.161507 0.715840 0.232053
0.271253 0.715840 0.232053
0.361860 0.715840 0.232053
0.435753 0.715840 0.232053
0.497067 0.715840 0.232053
0.549720 0.715840 0.232053
0.597453 0.715840 0.232053
0.643753 0.715840 0.232053
0.691340 0.715840 0.232053
0.740567 0.715840 0.232053
0.791040 0.715840 0.232053
0.842580 0.715840 0.232053
0.894727 0.715840 0.232053
0.947300 0.715840 0.232053
0.999745 0.715840 0.232053
0.036000 0.773167 0.232053
0.161507 0.773167 0.232053
0.271253 0.773167 0.232053
0.361860 0.773167 0.232053
0.435753 0.773167 0.232053
0.497067 0.773167 0.232053
0.549720 0.773167 0.232053
0.597453 0.773167 0.232053
0.643753 0.773167 0.232053
0.691340 0.773167 0.232053
0.740567 0.773167 0.232053
0.791040 0.773167 0.232053
0.842580 0.773167 0.232053
0.894727 0.773167 0.232053
0.947300 0.773167 0.232053
0.999745 0.773167 0.232053
0.036000 0.825767 0.232053
0.161507 0.825767 0.232053
0.271253 0.825767 0.232053
0.361860 0.825767 0.232053
0.435753 0.825767 0.232053
0.497067 0.825767 0.232053
0.549720 0.825767 0.232053
0.597453 0.825767 0.232053
0.643753 0.825767 0.232053
0.691340 0.825767 0.232053
0.740567 0.825767 0.232053
0.791040 0.825767 0.232053
0.842580 0.825767 0.232053
0.894727 0.825767 0.232053
0.947300 0.825767 0.232053
0.999745 0.825767 0.232053
0.036000 0.873620 0.232053
0.161507 0.873620 0.232053
0.271253 0.873620 0.232053
0.361860 0.873620 0.232053
0.435753 0.873620 0.232053
0.497067 0.873620 0.232053
0.549720 0.873620 0.232053
0.597453 0.873620 0.232053
0.643753 0.873620 0.232053
0.691340 0.873620 0.232053
0.740567 0.873620 0.232053
0.791040 0.873620 0.232053
0.842580 0.873620 0.232053
0.894727 0.873620 0.232053
0.947300 0.873620 0.232053
0.999745 0.873620 0.232053
0.036000 0.917813 0.232053
0.161507 0.917813 0.232053
0.271253 0.917813 0.232053
0.361860 0.917813 0.232053
0.435753 0.917813 0.232053
0.497067 0.917813 0.232053
0.549720 0.917813 0.232053
0.597453 0.917813 0.232053
0.643753 0.917813 0.232053
0.691340 0.917813 0.232053
0.740567 0.917813 0.232053
0.791040 0.917813 0.232053
0.842580 0.917813 0.232053
0.894727 0.917813 0.232053
0.947300 0.917813 0.232053
0.999745 0.917813 0.232053
0.036000 0.959573 0.232053
0.161507 0.959573 0.232053
0.271253 0.959573 0.232053
0.361860 0.959573 0.232053
0.435753 0.959573 0.232053
0.497067 0.959573 0.232053
0.549720 0.959573 0.232053
0.597453 0.959573 0.232053
0.643753 0.959573 0.232053
0.691340 0.959573 0.232053
0.740567 0.959573 0.232053
0.791040 0.959573 0.232053
0.842580 0.959573 0.232053
0.894727 0.959573 0.232053
0.947300 0.959573 0.232053
0.999745 0.959573 0.232053
0.036000 0.999805 0.232053
0.161507 0.999805 0.232053
0.271253 0.999805 0.232053
0.361860 0.999805 0.232053
0.435753 0.999805 0.232053
0.497067 0.999805 0.232053
0.549720 0.999805 0.232053
0.597453 0.999805 0.232053
0.643753 0.999805 0.232053
0.691340 0.999805 0.232053
0.740567 0.999805 0.232053
0.791040 0.999805 0.232053
0.842580 0.999805 0.232053
0.894727 0.999805 0.232053
0.947300 0.999805 0.232053
0.999745 0.999805 0.232053
0.036000 0.036000 0.301527
0.161507 0.036000 0.301527
0.271253 0.036000 0.301527
0.361860 0.036000 0.301527
0.435753 0.036000 0.301527
0.497067 0.036000 0.301527
0.549720 0.036000 0.301527
0.597453 0.036000 0.301527
0.643753 0.036000 0.301527
0.691340 0.036000 0.301527
0.740567 0.036000 0.301527
0.791040 0.036000 0.301527
0.842580 0.036000 0.301527
0.894727 0.036000 0.301527
0.947300 0.036000 0.301527
0.999745 0.036000 0.301527
0.036000 0.125473 0.301527
0.161507 0.125473 0.301527
0.271253 0.125473 0.301527
0.361860 0.125473 0.301527
0.435753 0.125473 0.301527
0.497067 0.125473 0.301527
0.549720 0.125473 0.301527
0.597453 0.125473 0.301527
0.643753 0.125473 0.301527
0.691340 0.125473 0.301527
0.740567 0.125473 0.301527
0.791040 0.125473 0.301527
0.842580 0.125473 0.301527
0.894727 0.125473 0.301527
0.947300 0.125473 0.301527
0.999745 0.125473 0.301527
0.036000 0.210233 0.301527
0.161507 0.210233 0.301527
0.271253 0.210233 0.301527
0.361860 0.210233 0.301527
0.435753 0.210233 0.301527
0.497067 0.210233 0.301527
0.549720 0.210233 0.301527
0.597453 0.210233 0.301527
0.643753 0.210233 0.301527
0.691340 0.210233 0.301527
0.740567 0.210233 0.301527
0.791040 0.210233 0.301527
0.842580 0.210233 0.301527
0.894727 0.210233 0.301527
0.947300 0.210233 0.301527
0.999745 0.210233 0.301527
0.036000 0.291820 0.301527
0.161507 0.291820 0.301527
0.271253 0.291820 0.301527
0.361860 0.291820 0.301527
0.435753 0.291820 0.301527
0.497067 0.291820 0.301527
0.549720 0.291820 0.301527
0.597453 0.291820 0.301527
0.643753 0.291820 0.301527
0.691340 0.291820 0.301527
0.740567 0.291820 0.301527
0.791040 0.291820 0.301527
0.842580 0.291820 0.301527
0.894727 0.291820 0.301527
0.947300 0.291820 0.301527
0.999745 0.291820 0.301527
0.036000 0.370620 0.301527
0.161507 0.370620 0.301527
0.271253 0.370620 0.301527
0.361860 0.370620 0.301527
0.435753 0.370620 0.301527
0.497067 0.370620 0.301527
0.549720 0.370620 0.301527
0.597453 0.370620 0.301527
0.643753 0.370620 0.301527
0.691340 0.370620 0.301527
0.740567 0.370620 0.301527
0.791040 0.370620 0.301527
0.842580 0.370620 0.301527
0.894727 0.370620 0.301527
0.947300 0.370620 0.301527
0.999745 0.370620 0.301527
0.036000 0.446467 0.301527
0.161507 0.446467 0.301527
0.271253 0.446467 0.301527
0.361860 0.446467 0.301527
0.435753 0.446467 0.301527
0.497067 0.446467 0.301527
0.549720 0.446467 0.301527
0.597453 0.446467 0.301527
0.643753 0.446467 0.301527
0.691340 0.446467 0.301527
0.740567 0.446467 0.301527
0.791040 0.446467 0.301527
0.842580 0.446467 0.301527
0.894727 0.446467 0.301527
0.947300 0.446467 0.301527
0.999745 0.446467 0.301527
0.036000 0.519220 0.301527
0.161507 0.519220 0.301527
0.271253 0.519220 0.301527
0.361860 0.519220 0.301527
0.435753 0.519220 0.301527
0.497067 0.519220 0.301527
0.549720 0.519220 0.301527
0.597453 0.519220 0.301527
0.643753 0.519220 0.301527
0.691340 0.519220 0.301527
0.740567 0.519220 0.301527
0.791040 0.519220 0.301527
0.842580 0.519220 0.301527
0.894727 0.519220 0.301527
0.947300 0.519220 0.301527
0.999745 0.519220 0.301527
0.036000 0.588560 0.301527
0.161507 0.588560 0.301527
0.271253 0.588560 0.301527
0.361860 0.588560 0.301527
0.435753 0.588560 0.301527
0.497067 0.588560 0.301527
0.549720 0.588560 0.301527
0.597453 0.588560 0.301527
0.643753 0.588560 0.301527
0.691340 0.588560 0.301527
0.740567 0.588560 0.301527
0.791040 0.588560 0.301527
0.842580 0.588560 0.301527
0.894727 0.588560 0.301527
0.947300 0.588560 0.301527
0.999745 0.588560 0.301527
0.036000 0.654180 0.301527
0.161507 0.654180 0.301527
0.271253 0.654180 0.301527
0.361860 0.654180 0.301527
0.435753 0.654180 0.301527
0.497067 0.654180 0.301527
0.549720 0.654180 0.301527
0.597453 0.654180 0.301527
0.643753 0.654180 0.301527
0.691340 0.654180 0.301527
0.740567 0.654180 0.301527
0.791040 0.654180 0.301527
0.842580 0.654180 0.301527
0.894727 0.654180 0.301527
0.947300 0.654180 0.301527
0.999745 0.654180 0.301527
0.036000 0.715840 0.301527
0.161507 0.715840 0.301527
0.271253 0.715840 0.301527
0.361860 0.715840 0.301527
0.435753 0.715840 0.301527
0.497067 0.715840 0.301527
0.549720 0.715840 0.301527
0.597453 0.715840 0.301527
0.643753 0.715840 0.301527
0.691340 0.715840 0.301527
0.740567 0.715840 0.301527
0.791040 0.715840 0.301527
0.842580 0.715840 0.301527
0.894727 0.715840 0.301527
0.947300 0.715840 0.301527
0.999745 0.715840 0.301527
0.036000 0.773167 0.301527
0.161507 0.773167 0.301527
0.271253 0.773167 0.301527
0.361860 0.773167 0.301527
0.435753 0.773167 0.301527
0.497067 0.773167 0.301527
0.549720 0.773167 0.301527
0.597453 0.773167 0.301527
0.643753 0.773167 0.301527
0.691340 0.773167 0.301527
0.740567 0.773167 0.301527
0.791040 0.773167 0.301527
0.842580 0.773167 0.301527
0.894727 0.773167 0.301527
0.947300 0.773167 0.301527
0.999745 0.773167 0.301527
0.036000 0.825767 0.301527
0.161507 0.825767 0.301527
0.271253 0.825767 0.301527
0.361860 0.825767 0.301527
0.435753 0.825767 0.301527
0.497067 0.825767 0.301527
0.549720 0.825767 0.301527
0.597453 0.825767 0.301527
0.643753 0.825767 0.301527
0.691340 0.825767 0.301527
0.740567 0.825767 0.301527
0.791040 0.825767 0.301527
0.842580 0.825767 0.301527
0.894727 0.825767 0.301527
0.947300 0.825767 0.301527
0.999745 0.825767 0.301527
0.036000 0.873620 0.301527
0.161507 0.873620 0.301527
0.271253 0.873620 0.301527
0.361860 0.873620 0.301527
0.435753 0.873620 0.301527
0.497067 0.873620 0.301527
0.549720 0.873620 0.301527
0.597453 0.873620 0.301527
0.643753 0.873620 0.301527
0.691340 0.873620 0.301527
0.740567 0.873620 0.301527
0.791040 0.873620 0.301527
0.842580 0.873620 0.301527
0.894727 0.873620 0.301527
0.947300 0.873620 0.301527
0.999745 0.873620 0.301527
0.036000 0.917813 0.301527
0.161507 0.917813 0.301527
0.271253 0.917813 0.301527
0.361860 0.917813 0.301527
0.435753 0.917813 0.301527
0.497067 0.917813 0.301527
0.549720 0.917813 0.301527
0.597453 0.917813 0.301527
0.643753 0.917813 0.301527
0.691340 0.917813 0.301527
0.740567 0.917813 0.301527
0.791040 0.917813 0.301527
0.842580 0.917813 0.301527
0.894727 0.917813 0.301527
0.947300 0.917813 0.301527
0.999745 0.917813 0.301527
0.036000 0.959573 0.301527
0.161507 0.959573 0.301527
0.271253 0.959573 0.301527
0.361860 0.959573 0.301527
0.435753 0.959573 0.301527
0.497067 0.959573 0.301527
0.549720 0.959573 0.301527
0.597453 0.959573 0.301527
0.643753 0.959573 0.301527
0.691340 0.959573 0.301527
0.740567 0.959573 0.301527
0.791040 0.959573 0.301527
0.842580 0.959573 0.301527
0.894727 0.959573 0.301527
0.947300 0.959573 0.301527
0.999745 0.959573 0.301527
0.036000 0.999805 0.301527
0.161507 0.999805 0.301527
0.271253 0.999805 0.301527
0.361860 0.999805 0.301527
0.435753 0.999805 0.301527
0.497067 0.999805 0.301527
0.549720 0.999805 0.301527
0.597453 0.999805 0.301527
0.643753 0.999805 0.301527
0.691340 0.999805 0.301527
0.740567 0.999805 0.301527
0.791040 0.999805 0.301527
0.842580 0.999805 0.301527
0.894727 0.999805 0.301527
0.947300 0.999805 0.301527
0.999745 0.999805 0.301527
0.036000 0.036000 0.369720
0.161507 0.036000 0.369720
0.271253 0.036000 0.369720
0.361860 0.036000 0.369720
0.435753 0.036000 0.369720
0.497067 0.036000 0.369720
0.549720 0.036000 0.369720
0.597453 0.036000 0.369720
0.643753 0.036000 0.369720
0.691340 0.036000 0.369720
0.740567 0.036000 0.369720
0.791040 0.036000 0.369720
0.842580 0.036000 0.369720
0.894727 0.036000 0.369720
0.947300 0.036000 0.369720
0.999745 0.036000 0.369720
0.036000 0.125473 0.369720
0.161507 0.125473 0.369720
0.271253 0.125473 0.369720
0.361860 0.125473 0.369720
0.435753 0.125473 0.369720
0.497067 0.125473 0.369720
0.549720 0.125473 0.369720
0.597453 0.125473 0.369720
0.643753 0.125473 0.369720
0.691340 0.125473 0.369720
0.740567 0.125473 0.369720
0.791040 0.125473 0.369720
0.842580 0.125473 0.369720
0.894727 0.125473 0.369720
0.947300 0.125473 0.369720
0.999745 0.125473 0.369720
0.036000 0.210233 0.369720
0.161507 0.210233 0.369720
0.271253 0.210233 0.369720
0.361860 0.210233 0.369720
0.435753 0.210233 0.369720
0.497067 0.210233 0.369720
0.549720 0.210233 0.369720
0.597453 0.210233 0.369720
0.643753 0.210233 0.369720
0.691340 0.210233 0.369720
0.740567 0.210233 0.369720
0.791040 0.210233 0.369720
0.842580 0.210233 0.369720
0.894727 0.210233 0.369720
0.947300 0.210233 0.369720
0.999745 0.210233 0.369720
0.036000 0.291820 0.369720
0.161507 0.291820 0.369720
0.271253 0.291820 0.369720
0.361860 0.291820 0.369720
0.435753 0.291820 0.369720
0.497067 0.291820 0.369720
0.549720 0.291820 0.369720
0.597453 0.291820 0.369720
0.643753 0.291820 0.369720
0.691340 0.291820 0.369720
0.740567 0.291820 0.369720
0.791040 0.291820 0.369720
0.842580 0.291820 0.369720
0.894727 0.291820 0.369720
0.947300 0.291820 0.369720
0.999745 0.291820 0.369720
0.036000 0.370620 0.369720
0.161507 0.370620 0.369720
0.271253 0.370620 0.369720
0.361860 0.370620 0.369720
0.435753 0.370620 0.369720
0.497067 0.370620 0.369720
0.549720 0.370620 0.369720
0.597453 0.370620 0.369720
0.643753 0.370620 0.369720
0.691340 0.370620 0.369720
0.740567 0.370620 0.369720
0.791040 0.370620 0.369720
0.842580 0.370620 0.369720
0.894727 0.370620 0.369720
0.947300 0.370620 0.369720
0.999745 0.370620 0.369720
0.036000 0.446467 0.369720
0.161507 0.446467 0.369720
0.271253 0.446467 0.369720
0.361860 0.446467 0.369720
0.435753 0.446467 0.369720
0.497067 0.446467 0.369720
0.549720 0.446467 0.369720
0.597453 0.446467 0.369720
0.643753 0.446467 0.369720
0.691340 0.446467 0.369720
0.740567 0.446467 0.369720
0.791040 0.446467 0.369720
0.842580 0.446467 0.369720
0.894727 0.446467 0.369720
0.947300 0.446467 0.369720
0.999745 0.446467 0.369720
0.036000 0.519220 0.369720
0.161507 0.519220 0.369720
0.271253 0.519220 0.369720
0.361860 0.519220 0.369720
0.435753 0.519220 0.369720
0.497067 0.519220 0.369720
0.549720 0.519220 0.369720
0.597453 0.519220 0.369720
0.643753 0.519220 0.369720
0.691340 0.519220 0.369720
0.740567 0.519220 0.369720
0.791040 0.519220 0.369720
0.842580 0.519220 0.369720
0.894727 0.519220 0.369720
0.947300 0.519220 0.369720
0.999745 0.519220 0.369720
0.036000 0.588560 0.369720
0.161507 0.588560 0.369720
0.271253 0.588560 0.369720
0.361860 0.588560 0.369720
0.435753 0.588560 0.369720
0.497067 0.588560 0.369720
0.549720 0.588560 0.369720
0.597453 0.588560 0.369720
