example_ofxGpuLutCube/bin/data/ofxGpuLutCube/LUT/A31 (old style yellow fade).cube
LUT_3D_SIZE 6
0.035294 0.000000 0.121569
0.141961 0.000000 0.120000
0.312941 0.024313 0.129412
0.587451 0.035294 0.121569
0.845490 0.000000 0.100392
1.000000 0.000000 0.082353
0.018823 0.152941 0.133333
0.144470 0.162667 0.127530
0.334902 0.187922 0.136314
0.592941 0.207059 0.112470
0.845020 0.195451 0.092863
0.997670 0.172525 0.069020
0.000000 0.400784 0.088627
0.129255 0.416000 0.081726
0.369412 0.405333 0.075137
0.624157 0.415686 0.044706
0.854902 0.410196 0.019608
1.000000 0.395294 0.000000
0.000000 0.639215 0.000784
0.007530 0.642196 0.001883
0.381334 0.641412 0.000000
0.637804 0.632157 0.000000
0.866353 0.626510 0.002196
1.000000 0.589835 0.000000
0.001569 0.837647 0.001569
0.002823 0.838588 0.001569
0.360471 0.844392 0.001883
0.623216 0.842353 0.000000
0.855686 0.833255 0.000628
0.999984 0.796879 0.000000
0.034941 0.949059 0.000000
0.212910 0.956847 0.003922
0.408510 0.949789 0.000000
0.607773 0.944251 0.000016
0.783600 0.933294 0.000024
0.945059 0.921530 0.144273
0.025882 0.000000 0.200784
0.142275 0.000000 0.205177
0.327686 0.000000 0.206588
0.590118 0.001255 0.197804
0.842823 0.000000 0.175686
1.000000 0.000000 0.161569
0.003294 0.156706 0.205647
0.144125 0.160000 0.205459
0.340329 0.163984 0.199686
0.594416 0.152031 0.184408
0.850133 0.118839 0.168910
0.997019 0.072932 0.153704
0.003138 0.403451 0.162824
0.013365 0.414149 0.160910
0.371576 0.406745 0.159592
0.623153 0.403451 0.150180
0.860016 0.390118 0.134620
0.998431 0.374117 0.115765
0.001255 0.638274 0.002353
0.000659 0.651075 0.003263
0.366337 0.645020 0.001004
0.634510 0.634447 0.000251
0.870902 0.619137 0.000000
0.998745 0.587115 0.001726
0.000941 0.845961 0.000000
0.000941 0.850165 0.000565
0.354541 0.850698 0.001883
0.621898 0.843483 0.000000
0.859137 0.837647 0.000878
0.999984 0.795947 0.001864
0.118800 0.954533 0.000000
0.257167 0.952950 0.001583
0.428110 0.950239 0.000311
0.608783 0.941137 0.038060
0.795432 0.929075 0.148416
0.939748 0.917623 0.220808
0.087059 0.000000 0.312941
0.187451 0.000000 0.317020
0.365804 0.000157 0.324549
0.596863 0.000157 0.326118
0.859608 0.000000 0.320000
1.000000 0.000000 0.301176
0.003138 0.139608 0.329725
0.147545 0.128690 0.333553
0.369945 0.104345 0.333270
0.614996 0.027859 0.323043
0.863843 0.001255 0.308706
0.998124 0.002174 0.284586
0.000000 0.396863 0.325334
0.000628 0.400721 0.329192
0.367781 0.383812 0.321475
0.637051 0.366714 0.303624
0.875232 0.355357 0.292894
0.997360 0.344249 0.280753
0.000000 0.642510 0.259137
0.003483 0.648157 0.250949
0.311655 0.643545 0.241004
0.646682 0.630777 0.233945
0.877616 0.608973 0.240157
0.997980 0.579094 0.249867
0.001726 0.850667 0.162510
0.000000 0.853804 0.171921
0.333396 0.854274 0.176000
0.623310 0.845961 0.173678
0.870400 0.836455 0.181553
0.999987 0.788433 0.201960
0.211694 0.949828 0.232730
0.314910 0.952002 0.256938
0.463171 0.945098 0.265628
0.633729 0.945020 0.286912
0.805028 0.930012 0.324855
0.945152 0.917647 0.362117
0.145098 0.000000 0.521568
0.246118 0.000314 0.526431
0.424000 0.000000 0.515451
0.632627 0.003294 0.511372
0.874510 0.000471 0.513412
0.996117 0.000816 0.486329
0.000000 0.101020 0.523922
0.186384 0.088910 0.525961
0.406620 0.024000 0.519655
0.640847 0.000251 0.519310
0.878338 0.000502 0.507012
0.997954 0.002640 0.480287
0.001412 0.362981 0.525490
0.000659 0.358871 0.535624
0.342118 0.324392 0.526965
0.652361 0.309992 0.521443
0.893114 0.319372 0.500455
0.997360 0.325109 0.482931
0.003294 0.625569 0.502118
0.000000 0.631812 0.510337
0.311655 0.627734 0.508266
0.644643 0.620110 0.496125
0.866981 0.601098 0.482635
0.996731 0.581735 0.464276
0.000000 0.847373 0.461647
0.000000 0.854431 0.462902
0.344031 0.850824 0.459137
0.635294 0.843388 0.456847
0.874855 0.836581 0.462620
0.999534 0.788577 0.470828
0.340509 0.945875 0.456306
0.418022 0.947730 0.470750
0.547316 0.941783 0.483011
0.685614 0.938652 0.503759
0.828235 0.927835 0.516052
0.952964 0.913717 0.539450
0.130981 0.000000 0.740392
0.238431 0.000000 0.735843
0.427608 0.000000 0.736000
0.635451 0.000471 0.734118
0.859608 0.001569 0.731764
0.996102 0.000000 0.717671
0.002510 0.040314 0.741176
0.168878 0.018635 0.744345
0.400721 0.000188 0.741145
0.624596 0.002510 0.737506
0.853427 0.001318 0.723137
0.997029 0.001412 0.715294
0.003138 0.291765 0.746039
0.004204 0.288345 0.752251
0.317835 0.282259 0.751843
0.609945 0.264440 0.747921
0.866855 0.223404 0.740643
1.000000 0.232958 0.717437
0.000000 0.572392 0.736000
0.000000 0.573177 0.744784
0.272659 0.569318 0.750274
0.602887 0.560753 0.737537
0.858792 0.540988 0.722949
0.999671 0.566670 0.690336
0.000000 0.820549 0.737098
0.000000 0.827953 0.740267
0.356016 0.828424 0.737914
0.645333 0.829522 0.738415
0.865349 0.821741 0.730667
0.982558 0.819412 0.726734
0.429984 0.943482 0.669820
0.492458 0.942549 0.681989
0.622786 0.933330 0.692126
0.763198 0.929360 0.719355
0.875600 0.916983 0.737551
0.948966 0.913709 0.748212
0.003922 0.000000 0.894118
0.162470 0.000016 0.900392
0.367843 0.000000 0.897992
0.568635 0.000000 0.897890
0.771059 0.000000 0.897976
0.980353 0.003844 0.897921
0.002385 0.000000 0.898777
0.056510 0.000621 0.894558
0.336836 0.001864 0.896676
0.554607 0.002174 0.897487
0.768240 0.000000 0.894350
0.980259 0.003867 0.897875
0.000808 0.246345 0.898792
0.000331 0.242567 0.901106
0.247498 0.234711 0.895503
0.527256 0.223726 0.898764
0.760588 0.214126 0.894397
0.974964 0.217270 0.894871
0.000008 0.486353 0.893263
0.003106 0.476983 0.887031
0.149397 0.479286 0.885706
0.513202 0.490074 0.886255
0.756363 0.496212 0.881219
0.968557 0.521522 0.879168
0.002330 0.727961 0.876816
0.149881 0.731407 0.874762
0.408971 0.735929 0.875882
0.634527 0.753362 0.872861
0.827324 0.781853 0.865831
0.952126 0.808581 0.867388
0.497842 0.909804 0.854980
0.535514 0.912172 0.857232
0.644556 0.909851 0.858047
0.778807 0.913654 0.858714
0.895686 0.908212 0.854909
0.941253 0.913647 0.851173
