example_ofxGpuLutCube/bin/data/ofxGpuLutCube/LUT/A31 (old style yellow fade).cube
LUT_3D_SIZE 16
0.035294 0.000000 0.121569
0.072157 0.000000 0.122353
0.106667 0.002353 0.126275
0.141961 0.000000 0.120000
0.196078 0.007059 0.120785
0.247059 0.015686 0.125490
0.312941 0.024313 0.129412
0.396078 0.036863 0.133333
0.492549 0.039216 0.125490
0.587451 0.035294 0.121569
0.678431 0.011765 0.113725
0.764706 0.000000 0.113725
0.845490 0.000000 0.100392
0.927059 0.000000 0.103529
0.992941 0.000000 0.094902
1.000000 0.000000 0.082353
0.031373 0.041569 0.129412
0.061490 0.041569 0.126118
0.099137 0.041883 0.122824
0.141961 0.046118 0.128627
0.191529 0.050980 0.127373
0.244706 0.060393 0.129412
0.309176 0.069804 0.128000
0.394196 0.081098 0.131294
0.487529 0.087529 0.122824
0.586824 0.085647 0.120471
0.671372 0.080784 0.113725
0.761412 0.061177 0.112156
0.846589 0.038588 0.103216
0.920628 0.009726 0.096000
0.992157 0.000628 0.091294
0.996862 0.003138 0.085498
0.023529 0.094902 0.124706
0.058039 0.100863 0.131451
0.100392 0.101961 0.127059
0.150274 0.099765 0.139137
0.198902 0.105255 0.135843
0.254118 0.118431 0.129412
0.329255 0.127843 0.128941
0.407059 0.135686 0.127059
0.501333 0.143529 0.123137
0.595765 0.145411 0.113725
0.680784 0.143529 0.109804
0.770510 0.135373 0.106510
0.849569 0.120000 0.098824
0.924706 0.107451 0.092235
0.996078 0.092549 0.085334
0.998431 0.076863 0.076078
0.018823 0.152941 0.133333
0.047843 0.161882 0.128784
0.090196 0.160314 0.131922
0.144470 0.162667 0.127530
0.203294 0.168785 0.132392
0.256471 0.176471 0.127843
0.334902 0.187922 0.136314
0.411765 0.196392 0.123451
0.502902 0.205490 0.121098
0.592941 0.207059 0.112470
0.683922 0.205490 0.107451
0.768628 0.202667 0.100706
0.845020 0.195451 0.092863
0.919529 0.189333 0.082353
0.994667 0.176941 0.080314
0.997670 0.172525 0.069020
0.003138 0.237647 0.127843
0.010196 0.248627 0.123137
0.082824 0.246117 0.132235
0.147451 0.247529 0.128784
0.216313 0.248000 0.123922
0.274510 0.254902 0.122353
0.347137 0.258823 0.119686
0.428392 0.266980 0.117961
0.517961 0.273255 0.113412
0.601569 0.278588 0.100392
0.690196 0.275294 0.094118
0.773961 0.277804 0.084392
0.849255 0.267451 0.082196
0.927059 0.262745 0.068392
0.996863 0.253333 0.061647
0.999223 0.247066 0.043145
0.000000 0.309804 0.121569
0.000784 0.332549 0.117647
0.047059 0.327059 0.111372
0.142745 0.321569 0.127843
0.211764 0.322353 0.114509
0.290196 0.325490 0.117647
0.356863 0.326274 0.109804
0.439216 0.337255 0.101961
0.527843 0.341176 0.097255
0.611764 0.345098 0.090980
0.690196 0.341176 0.082353
0.775686 0.345098 0.073726
0.850980 0.339608 0.053333
0.923137 0.333333 0.040784
0.993725 0.322353 0.025098
1.000000 0.321569 0.019608
0.000000 0.400784 0.088627
0.000000 0.423373 0.081412
0.005647 0.419137 0.079372
0.129255 0.416000 0.081726
0.215686 0.410667 0.084392
0.297255 0.407843 0.090196
0.369412 0.405333 0.075137
0.455686 0.410980 0.073255
0.539608 0.414432 0.055216
0.624157 0.415686 0.044706
0.702745 0.417255 0.043922
0.778981 0.413020 0.034196
0.854902 0.410196 0.019608
0.929726 0.406275 0.004392
0.994510 0.397334 0.000000
1.000000 0.395294 0.000000
0.000000 0.481568 0.032941
0.000000 0.504313 0.015686
0.002823 0.499608 0.020706
0.086902 0.498667 0.016627
0.215843 0.492549 0.023687
0.305098 0.494902 0.016471
0.388236 0.491922 0.011765
0.467294 0.488784 0.009412
0.546039 0.488784 0.002981
0.628236 0.490196 0.000000
0.708235 0.488627 0.000000
0.784000 0.478902 0.000471
0.858980 0.476549 0.000000
0.932392 0.473725 0.000941
0.991529 0.464000 0.000000
1.000000 0.459608 0.001553
0.004706 0.560000 0.000000
0.000000 0.580392 0.000000
0.000000 0.577098 0.000941
0.034353 0.576941 0.002823
0.198275 0.574118 0.000000
0.295686 0.570196 0.001569
0.388549 0.572078 0.001883
0.475138 0.568314 0.000000
0.553568 0.569569 0.000628
0.637490 0.568157 0.000000
0.713725 0.564706 0.001569
0.791373 0.560157 0.000000
0.865255 0.553882 0.000000
0.937568 0.548706 0.000628
0.993255 0.537255 0.000000
1.000000 0.532549 0.003922
0.000000 0.639215 0.000784
0.000000 0.648470 0.000628
0.000314 0.642039 0.000000
0.007530 0.642196 0.001883
0.179294 0.645804 0.000000
0.290196 0.643137 0.000000
0.381334 0.641412 0.000000
0.469020 0.640000 0.000000
0.551372 0.639215 0.000000
0.637804 0.632157 0.000000
0.710588 0.632157 0.000000
0.791529 0.627608 0.003451
0.866353 0.626510 0.002196
0.928314 0.617255 0.002353
0.983373 0.599687 0.000000
1.000000 0.589835 0.000000
0.000000 0.709804 0.000000
0.006274 0.713725 0.000000
0.003137 0.713725 0.000000
0.000000 0.716078 0.000000
0.145882 0.710588 0.003922
0.274510 0.709804 0.000000
0.370980 0.710588 0.000784
0.469804 0.713725 0.000000
0.555294 0.713725 0.000000
0.646274 0.709804 0.000000
0.717647 0.709804 0.000000
0.799215 0.709020 0.000784
0.870588 0.703529 0.003922
0.936470 0.694118 0.003922
0.989804 0.679215 0.001569
1.000000 0.666667 0.000000
0.000784 0.766275 0.003922
0.003138 0.776314 0.000157
0.001569 0.776941 0.003608
0.000471 0.772549 0.000000
0.122196 0.772392 0.000628
0.261176 0.774902 0.003922
0.362981 0.775686 0.000628
0.455686 0.771764 0.000000
0.541490 0.774431 0.006274
0.626823 0.767843 0.000628
0.709804 0.766275 0.003922
0.782588 0.766432 0.000000
0.863530 0.767843 0.003922
0.927686 0.755137 0.000000
0.976627 0.732706 0.003138
1.000000 0.723177 0.000000
0.001569 0.837647 0.001569
0.002824 0.845961 0.000314
0.001882 0.837961 0.008471
0.002823 0.838588 0.001569
0.109647 0.836079 0.000000
0.257255 0.840000 0.000000
0.360471 0.844392 0.001883
0.453961 0.847529 0.002981
0.544157 0.844863 0.000000
0.623216 0.842353 0.000000
0.704314 0.840000 0.000000
0.779451 0.836079 0.000784
0.855686 0.833255 0.000628
0.925177 0.831216 0.001883
0.980863 0.815843 0.001569
0.999984 0.796879 0.000000
0.003137 0.875294 0.000000
0.000000 0.885490 0.000000
0.001569 0.880628 0.005647
0.000000 0.883294 0.000000
0.069961 0.881098 0.003138
0.241568 0.887059 0.000000
0.347921 0.885177 0.001883
0.435137 0.883137 0.000000
0.524706 0.883137 0.000628
0.598902 0.881883 0.000000
0.680784 0.878431 0.001569
0.752941 0.880471 0.000000
0.825098 0.877647 0.000000
0.888000 0.873255 0.002353
0.959059 0.869647 0.003765
0.999976 0.852588 0.004698
0.003922 0.933333 0.000000
0.002667 0.940549 0.000784
0.003138 0.939607 0.000000
0.061334 0.935216 0.005020
0.199059 0.938980 0.002510
0.287059 0.929412 0.000000
0.377098 0.932549 0.000784
0.458039 0.930510 0.000471
0.531451 0.926431 0.004706
0.602196 0.927216 0.003138
0.671372 0.920785 0.000000
0.737569 0.918902 0.000628
0.807373 0.914666 0.005177
0.870118 0.912470 0.000000
0.930980 0.907137 0.000000
0.985028 0.901216 0.003922
0.034941 0.949059 0.000000
0.132157 0.952910 0.003883
0.158486 0.956023 0.001553
0.212910 0.956847 0.003922
0.282871 0.949796 0.003145
0.348824 0.948981 0.003883
0.408510 0.949789 0.000000
0.482220 0.947428 0.002392
0.541075 0.948165 0.000000
0.607773 0.944251 0.000016
0.666667 0.937255 0.000000
0.728690 0.933294 0.000008
0.783600 0.933294 0.000024
0.847106 0.921608 0.053593
0.898863 0.922353 0.103270
0.945059 0.921530 0.144273
0.023529 0.000000 0.142745
0.059765 0.002667 0.145882
0.095059 0.001255 0.144314
0.141177 0.004706 0.141333
0.196078 0.004706 0.149647
0.246275 0.004706 0.149020
0.313569 0.010824 0.150118
0.397020 0.013333 0.149491
0.489725 0.010667 0.146353
0.577882 0.000628 0.141804
0.663529 0.000000 0.131765
0.755765 0.000000 0.134117
0.834353 0.000000 0.123138
0.914040 0.000000 0.119373
0.986510 0.000784 0.107921
0.996855 0.000000 0.103530
0.022745 0.040157 0.151529
0.057349 0.041067 0.146070
0.100675 0.041381 0.143874
0.140863 0.045678 0.151781
0.191247 0.049192 0.148173
0.242980 0.055843 0.149177
0.314321 0.063686 0.145882
0.396047 0.068549 0.148267
0.483514 0.069051 0.141647
0.577883 0.063059 0.145286
0.662902 0.046118 0.132863
0.751436 0.027482 0.130165
0.832094 0.003075 0.122385
0.913663 0.000314 0.115482
0.980172 0.000000 0.106384
0.999843 0.000000 0.103222
0.019294 0.099137 0.149647
0.055310 0.096188 0.149553
0.097694 0.102682 0.149553
0.145600 0.100235 0.152377
0.194510 0.106698 0.153161
0.258039 0.113725 0.151530
0.329443 0.122102 0.148988
0.413051 0.129098 0.145161
0.495875 0.131890 0.140361
0.588141 0.129945 0.136816
0.673882 0.126588 0.127843
0.755451 0.117929 0.122824
0.840094 0.103247 0.119435
0.915012 0.085772 0.109553
0.991498 0.065506 0.103780
0.994379 0.040202 0.093536
0.002980 0.155765 0.151843
0.036988 0.158714 0.147325
0.087718 0.162133 0.151843
0.145632 0.166871 0.149459
0.200878 0.166776 0.147012
0.261647 0.175059 0.148235
0.334494 0.184471 0.147451
0.414557 0.192471 0.143529
0.497914 0.197334 0.142933
0.587890 0.197020 0.130102
0.671059 0.197177 0.128000
0.759655 0.191812 0.116926
0.840690 0.185412 0.112847
0.916486 0.176000 0.103372
0.986510 0.162698 0.095780
0.995767 0.155768 0.085180
0.000000 0.243451 0.146039
0.004612 0.247655 0.140455
0.072753 0.248816 0.144596
0.143623 0.249757 0.141333
0.211764 0.246588 0.145820
0.272627 0.249098 0.136000
0.345098 0.254683 0.139608
0.426008 0.261804 0.137161
0.512471 0.266729 0.129349
0.600628 0.268549 0.121129
0.688157 0.269333 0.117333
0.766243 0.263247 0.107702
0.846244 0.262839 0.099106
0.924047 0.253616 0.087593
0.994478 0.244549 0.079153
0.999379 0.239849 0.075614
0.007059 0.310588 0.130981
0.000157 0.329569 0.126902
0.020079 0.326902 0.128000
0.130981 0.325490 0.132235
0.212078 0.318275 0.130353
0.282353 0.320785 0.127059
0.356235 0.321726 0.127530
0.438902 0.333019 0.121255
0.517333 0.331608 0.111843
0.605176 0.336471 0.108078
0.690196 0.336471 0.103530
0.768471 0.333333 0.086432
0.849255 0.331764 0.081882
0.920000 0.325490 0.065098
0.986196 0.315921 0.057098
0.999216 0.314509 0.052549
0.001412 0.404706 0.106980
0.000000 0.425694 0.102180
0.003451 0.420079 0.100204
0.111436 0.414683 0.104753
0.213051 0.414400 0.101020
0.296627 0.411137 0.103686
0.372361 0.410259 0.097443
0.453396 0.409412 0.095372
0.538573 0.414494 0.080816
0.619890 0.414808 0.073757
0.698510 0.412235 0.071686
0.777098 0.407185 0.063655
0.858008 0.406714 0.052329
0.931200 0.400000 0.036957
0.993349 0.393568 0.021772
1.000000 0.388267 0.011642
0.002353 0.487529 0.059451
0.000502 0.506510 0.046118
0.003702 0.505192 0.047937
0.066196 0.499482 0.050510
0.206620 0.497506 0.044267
0.299921 0.492863 0.044863
0.384816 0.492361 0.041506
0.464031 0.488690 0.034259
0.541333 0.484925 0.021114
0.620863 0.484863 0.003796
0.705568 0.482039 0.007059
0.774964 0.478149 0.002228
0.857035 0.477522 0.002322
0.928000 0.471184 0.001883
0.988392 0.460079 0.001004
0.998726 0.457231 0.001569
0.000000 0.564863 0.000471
0.002353 0.585757 0.000251
0.000847 0.584596 0.000126
0.011890 0.580768 0.000502
0.188831 0.579796 0.000314
0.295373 0.576471 0.000314
0.389177 0.573396 0.003389
0.473569 0.571702 0.001349
0.557490 0.567530 0.003890
0.636549 0.562823 0.000314
0.713725 0.560000 0.003922
0.789522 0.555357 0.000377
0.863279 0.553223 0.000502
0.934149 0.546981 0.000502
0.995325 0.536313 0.001506
0.997826 0.531175 0.000003
0.000314 0.638902 0.000157
0.001286 0.652392 0.003012
0.000628 0.652235 0.000000
0.000377 0.650886 0.001569
0.168533 0.647843 0.000126
0.281568 0.648000 0.001569
0.375498 0.643796 0.001161
0.470274 0.642384 0.001883
0.548800 0.636141 0.005020
0.632031 0.635671 0.000502
0.711215 0.632784 0.000000
0.792157 0.630745 0.000565
0.867043 0.624565 0.002008
0.925804 0.613992 0.002008
0.984502 0.597929 0.000439
0.999379 0.591692 0.000000
0.000000 0.712941 0.003138
0.000000 0.722353 0.000000
0.001883 0.719686 0.000000
0.000000 0.720314 0.000000
0.144157 0.714980 0.006902
0.273726 0.720785 0.000000
0.376784 0.718275 0.003765
0.470118 0.717176 0.001883
0.556863 0.715294 0.000000
0.638431 0.713725 0.001255
0.717647 0.709804 0.000000
0.796549 0.710275 0.000628
0.869019 0.701334 0.000000
0.943059 0.690040 0.000471
0.990431 0.679215 0.001569
1.000000 0.663569 0.003930
0.002510 0.774274 0.003765
0.002290 0.785380 0.000502
0.003137 0.781020 0.000000
0.000000 0.782400 0.001506
0.109741 0.783780 0.001757
0.261804 0.785883 0.000000
0.366714 0.780455 0.002384
0.459294 0.781271 0.002134
0.542839 0.775780 0.001255
0.626416 0.770855 0.000000
0.701177 0.767216 0.001255
0.785726 0.769819 0.001130
0.862275 0.766337 0.001883
0.923420 0.754980 0.000628
0.978133 0.736376 0.002510
1.000000 0.719267 0.006408
0.000000 0.847059 0.000000
0.002949 0.850039 0.002196
0.000000 0.846117 0.003451
0.001631 0.847404 0.000376
0.109710 0.847812 0.000502
0.257883 0.849098 0.000314
0.369192 0.848094 0.000000
0.457067 0.850636 0.002322
0.544847 0.845835 0.000000
0.623467 0.846368 0.000251
0.704627 0.840314 0.000000
0.778384 0.836832 0.001098
0.854777 0.835388 0.002228
0.927435 0.832596 0.000000
0.981992 0.816533 0.002510
0.999987 0.797652 0.000000
0.000000 0.888314 0.001569
0.000251 0.894651 0.000377
0.000941 0.889820 0.006777
0.001129 0.892047 0.000282
0.090604 0.892235 0.000502
0.248000 0.889098 0.000784
0.351655 0.888220 0.001977
0.437867 0.891043 0.000188
0.525835 0.885961 0.000000
0.602667 0.885647 0.000690
0.679372 0.880000 0.001883
0.751874 0.881224 0.001381
0.829553 0.876706 0.001130
0.894620 0.875012 0.001067
0.957615 0.868016 0.000094
0.996994 0.853070 0.001553
0.000157 0.941804 0.000157
0.000628 0.940392 0.003138
0.000816 0.942965 0.000000
0.099232 0.939012 0.002510
0.214369 0.939388 0.006588
0.301647 0.935843 0.002667
0.382620 0.933678 0.003639
0.465569 0.932392 0.001255
0.531985 0.928722 0.001192
0.599122 0.925396 0.000188
0.675137 0.924549 0.001255
0.740486 0.920126 0.000000
0.806588 0.915576 0.001004
0.870055 0.910588 0.001569
0.934400 0.910086 0.002510
0.985622 0.902587 0.003734
0.083083 0.952141 0.000000
0.166827 0.955588 0.005007
0.196141 0.954990 0.001242
0.241175 0.956504 0.006060
0.300746 0.953873 0.000940
0.353522 0.952941 0.006212
0.422530 0.949037 0.005591
0.480828 0.949723 0.001258
0.542679 0.945063 0.000000
0.605327 0.940555 0.000025
0.670588 0.941176 0.003145
0.729416 0.934088 0.000621
0.785308 0.932362 0.027506
0.844254 0.927335 0.089608
0.895641 0.924985 0.124386
0.945820 0.918400 0.158720
0.019608 0.000000 0.163921
0.053333 0.000471 0.170980
0.098353 0.000941 0.169412
0.140078 0.004235 0.173177
0.188863 0.002353 0.176000
0.251765 0.000000 0.173333
0.323137 0.000471 0.171765
0.404549 0.000941 0.175686
0.493961 0.000628 0.168627
0.583686 0.000000 0.162039
0.674510 0.000000 0.160000
0.757961 0.000000 0.155608
0.839843 0.000000 0.149647
0.920471 0.000941 0.144627
0.990274 0.000000 0.134274
1.000000 0.000000 0.128627
0.019921 0.036392 0.171137
0.051074 0.039122 0.169977
0.095278 0.039467 0.173741
0.131639 0.045616 0.171608
0.187827 0.042541 0.172518
0.245804 0.047373 0.175843
0.319121 0.033161 0.174463
0.400847 0.025945 0.168659
0.488941 0.017475 0.168376
0.583278 0.004486 0.162133
0.669333 0.003608 0.155765
0.753757 0.001004 0.150588
0.835922 0.000000 0.145475
0.915106 0.000000 0.141271
0.985349 0.000094 0.131765
0.997341 0.000314 0.128146
0.006902 0.100863 0.170824
0.046463 0.100204 0.174494
0.093710 0.098134 0.178855
0.144973 0.097757 0.174526
0.196549 0.102777 0.176973
0.263843 0.105882 0.174118
0.332894 0.107357 0.173082
0.413490 0.109584 0.171513
0.502996 0.107043 0.169004
0.593035 0.101083 0.162824
0.679059 0.089412 0.154510
0.760188 0.075671 0.146039
0.844079 0.051576 0.141333
0.920627 0.022839 0.132925
0.994478 0.006274 0.129098
0.999365 0.000000 0.122944
0.002353 0.157490 0.174118
0.018855 0.160094 0.173992
0.082792 0.163545 0.173020
0.145631 0.161757 0.173521
0.203702 0.169381 0.172047
0.263843 0.174902 0.177569
0.334494 0.176910 0.167561
0.413647 0.181584 0.169631
0.502369 0.183686 0.163953
0.590494 0.178886 0.158588
0.679529 0.176471 0.150275
0.760408 0.171294 0.142274
0.845428 0.159718 0.133176
0.916549 0.151561 0.126588
0.992094 0.135906 0.122290
0.997499 0.130971 0.110602
0.000000 0.238745 0.171765
0.000471 0.250980 0.164957
0.046118 0.247969 0.165804
0.138761 0.246400 0.164423
0.211263 0.243106 0.164643
0.277804 0.244706 0.161255
0.344094 0.249506 0.163545
0.428643 0.253490 0.162039
0.513349 0.256690 0.151278
0.599812 0.258039 0.148392
0.686746 0.255373 0.140863
0.769569 0.250918 0.134431
0.847655 0.247027 0.126871
0.929223 0.240973 0.119404
0.995859 0.232502 0.108831
0.997642 0.226988 0.103537
0.000000 0.317647 0.156863
0.000784 0.330667 0.154980
0.000941 0.326902 0.152941
0.115922 0.322980 0.150431
0.203922 0.320157 0.153098
0.281569 0.320000 0.152941
0.355608 0.321569 0.144470
0.436863 0.324078 0.139764
0.519373 0.329882 0.140862
0.603294 0.332549 0.133647
0.688628 0.330196 0.125490
0.767529 0.329098 0.118118
0.852235 0.321569 0.110118
0.924706 0.316078 0.099451
0.989020 0.312470 0.092706
0.997647 0.308235 0.092549
0.003451 0.403451 0.130353
0.000000 0.423090 0.124487
0.000376 0.421051 0.128282
0.075263 0.417725 0.128721
0.202761 0.410855 0.128878
0.292549 0.408470 0.129098
0.370667 0.407404 0.123325
0.452110 0.406777 0.118181
0.542306 0.408408 0.110776
0.624282 0.408126 0.105631
0.701020 0.406745 0.104784
0.779671 0.402886 0.098133
0.856439 0.402102 0.091169
0.931357 0.395953 0.079059
0.997396 0.387953 0.072471
0.998089 0.385393 0.068540
0.002981 0.484706 0.092392
0.003263 0.507639 0.083137
0.000565 0.502431 0.086871
0.019075 0.500988 0.078149
0.186604 0.496345 0.081914
0.296157 0.491765 0.079530
0.380706 0.491232 0.077051
0.461804 0.487122 0.072816
0.547075 0.483106 0.066824
0.627231 0.483608 0.053020
0.703059 0.476863 0.049725
0.782432 0.473820 0.049474
0.857851 0.472941 0.048000
0.928408 0.471122 0.037929
0.987357 0.455686 0.022494
0.999059 0.453324 0.019451
0.000000 0.572079 0.011294
0.000941 0.582274 0.005082
0.001129 0.581333 0.005082
0.000941 0.581867 0.003765
0.168690 0.577726 0.004235
0.285334 0.576471 0.004863
0.382588 0.572643 0.001788
0.473569 0.571514 0.000251
0.555922 0.567969 0.000377
0.639561 0.562447 0.000753
0.715608 0.558745 0.002353
0.790682 0.553914 0.000000
0.867231 0.549271 0.000251
0.938478 0.544251 0.001694
0.996047 0.536063 0.001224
0.999994 0.528637 0.000009
0.003138 0.636392 0.000000
0.000878 0.651671 0.003138
0.001537 0.652706 0.001883
0.000628 0.652518 0.004487
0.139137 0.647435 0.000377
0.273255 0.645961 0.003922
0.373490 0.643796 0.000784
0.465883 0.641286 0.000125
0.549490 0.637333 0.001883
0.634290 0.633914 0.000251
0.717961 0.632627 0.000627
0.797804 0.627608 0.002636
0.867577 0.622463 0.001632
0.930259 0.611576 0.000502
0.984157 0.595890 0.000000
1.000000 0.589028 0.000000
0.000000 0.713725 0.005490
0.000000 0.725490 0.000000
0.000000 0.724392 0.001412
0.000000 0.721569 0.005961
0.107922 0.721255 0.007529
0.263530 0.720784 0.000000
0.368941 0.720627 0.000000
0.468235 0.717176 0.000000
0.552313 0.718588 0.000000
0.642039 0.712627 0.000471
0.717647 0.709804 0.000000
0.796078 0.707608 0.000000
0.872000 0.701333 0.000941
0.941333 0.692706 0.000941
0.991529 0.677333 0.002824
1.000000 0.663545 0.000016
0.000314 0.775843 0.001255
0.003075 0.784220 0.000063
0.001600 0.783435 0.000000
0.002573 0.783717 0.001192
0.075922 0.781898 0.007529
0.246902 0.782274 0.000000
0.359498 0.782494 0.000377
0.455216 0.779577 0.000596
0.539545 0.776345 0.000408
0.624031 0.770321 0.000377
0.704000 0.770353 0.003451
0.787075 0.768659 0.000063
0.861992 0.767812 0.003576
0.925616 0.754761 0.000188
0.976314 0.733334 0.000878
0.999987 0.719274 0.000019
0.001255 0.846274 0.001255
0.000282 0.849067 0.000000
0.001129 0.847090 0.002823
0.002259 0.849600 0.002353
0.079059 0.851043 0.000000
0.254745 0.847216 0.003608
0.364016 0.848125 0.000000
0.456533 0.848408 0.003294
0.541490 0.848784 0.000565
0.624251 0.845020 0.000282
0.704314 0.840000 0.000000
0.780330 0.839341 0.000188
0.858792 0.837114 0.000941
0.928659 0.833067 0.000000
0.981898 0.814557 0.000941
0.999986 0.796290 0.000019
0.001882 0.886118 0.001569
0.000000 0.896031 0.000000
0.001412 0.891985 0.002541
0.000941 0.893271 0.000000
0.064847 0.894212 0.002385
0.242353 0.889412 0.000000
0.348925 0.888785 0.000502
0.437176 0.887812 0.002353
0.525616 0.885553 0.001318
0.600502 0.882541 0.005459
0.682039 0.883922 0.002353
0.755294 0.880125 0.001600
0.830086 0.877427 0.000251
0.895059 0.873192 0.004863
0.959435 0.865443 0.000000
0.996394 0.855264 0.001563
0.000000 0.937255 0.000000
0.001506 0.940643 0.003389
0.000408 0.941992 0.001130
0.096785 0.939137 0.004141
0.214306 0.937976 0.006055
0.300549 0.936627 0.000627
0.380926 0.935780 0.003138
0.460204 0.933239 0.001506
0.534118 0.928439 0.000000
0.608283 0.926275 0.001883
0.675764 0.920785 0.000000
0.742620 0.920000 0.000628
0.809349 0.916580 0.000753
0.872282 0.910745 0.002635
0.931325 0.907012 0.000345
0.984549 0.899639 0.000311
0.094730 0.955294 0.000024
0.174367 0.953418 0.000020
0.199358 0.957431 0.001578
0.247909 0.956340 0.000635
0.305126 0.950596 0.002835
0.364510 0.948981 0.004674
0.424762 0.946830 0.000000
0.485195 0.951310 0.000000
0.545991 0.946480 0.000000
0.607674 0.941634 0.000005
0.670564 0.941121 0.003883
0.732423 0.934384 0.029976
0.784684 0.933291 0.083374
0.842892 0.926718 0.125484
0.894988 0.922007 0.153703
0.944329 0.917592 0.187772
0.025882 0.000000 0.200784
0.057255 0.000314 0.197647
0.102275 0.000000 0.198275
0.142275 0.000000 0.205177
0.197804 0.000784 0.202667
0.248627 0.000000 0.206275
0.327686 0.000000 0.206588
0.404549 0.001412 0.210039
0.496470 0.002353 0.205177
0.590118 0.001255 0.197804
0.679216 0.000000 0.195294
0.762667 0.001726 0.183059
0.842823 0.000000 0.175686
0.923137 0.000000 0.170980
0.996863 0.000000 0.165804
1.000000 0.000000 0.161569
0.020235 0.033255 0.196078
0.053521 0.033035 0.198933
0.094651 0.035765 0.200847
0.141145 0.034949 0.199906
0.192847 0.037678 0.202541
0.253804 0.035608 0.206275
0.326212 0.021114 0.209004
0.405020 0.002886 0.201349
0.494588 0.002008 0.199969
0.587231 0.000000 0.190086
0.675765 0.000314 0.187608
0.760910 0.000251 0.182432
0.841255 0.000188 0.175498
0.917992 0.000753 0.171765
0.986259 0.000000 0.159874
1.000000 0.000000 0.157839
0.005333 0.095529 0.203922
0.040125 0.093177 0.204392
0.087624 0.093679 0.207153
0.146478 0.094275 0.203545
0.202228 0.096910 0.206024
0.265569 0.095059 0.201882
0.340047 0.092078 0.208973
0.418133 0.072126 0.199655
0.506792 0.046494 0.197773
0.598934 0.023247 0.190745
0.683294 0.008157 0.184000
0.767623 0.002008 0.183749
0.851953 0.000565 0.178416
0.928345 0.000377 0.169349
0.996235 0.000000 0.161475
0.999059 0.000000 0.159068
0.003294 0.156706 0.205647
0.012016 0.160157 0.204455
0.078243 0.160188 0.204863
0.144125 0.160000 0.205459
0.201412 0.161945 0.205020
0.268078 0.162980 0.207687
0.340329 0.163984 0.199686
0.418385 0.161537 0.200879
0.506447 0.156643 0.193631
0.594416 0.152031 0.184408
0.687216 0.142432 0.185098
0.768126 0.129694 0.172612
0.850133 0.118839 0.168910
0.922227 0.101647 0.159780
0.991059 0.080031 0.151027
0.997019 0.072932 0.153704
0.001883 0.236235 0.206432
0.000251 0.249506 0.207278
0.009726 0.244549 0.199906
0.124737 0.244110 0.195859
0.208345 0.240000 0.197992
0.278117 0.235608 0.196863
0.347639 0.241192 0.197082
0.434102 0.245741 0.192878
0.516235 0.246243 0.188863
0.606337 0.241349 0.177036
0.689726 0.236235 0.173647
0.772611 0.230714 0.166337
0.855090 0.222118 0.159090
0.932078 0.219169 0.156831
0.997333 0.207184 0.144596
0.996392 0.202667 0.141465
0.001569 0.316078 0.189804
0.000941 0.327686 0.190745
0.001883 0.326902 0.184314
0.080784 0.323137 0.184314
0.186980 0.321883 0.181490
0.278431 0.317647 0.182745
0.360471 0.318118 0.178980
0.438588 0.320628 0.172392
0.522510 0.320157 0.175843
0.608157 0.319216 0.170824
0.690981 0.319216 0.157647
0.774117 0.312941 0.154667
0.853020 0.309019 0.145726
0.928471 0.301333 0.143843
0.989961 0.291294 0.132706
0.998447 0.291749 0.132533
0.003138 0.403451 0.162824
0.002510 0.422431 0.163451
0.001130 0.416816 0.158055
0.013365 0.414149 0.160910
0.181804 0.410980 0.159874
0.284236 0.407059 0.159373
0.371576 0.406745 0.159592
0.459545 0.405302 0.151467
0.546604 0.405051 0.144941
0.623153 0.403451 0.150180
0.703686 0.397961 0.148392
0.782212 0.393412 0.140486
0.860016 0.390118 0.134620
0.933647 0.383781 0.126180
0.997490 0.379922 0.120094
0.998431 0.374117 0.115765
0.000000 0.486274 0.129725
0.001569 0.506823 0.128000
0.002165 0.503530 0.127435
0.001945 0.500172 0.124863
0.154259 0.498071 0.125051
0.278588 0.496784 0.127843
0.377161 0.491514 0.121945
0.465098 0.487121 0.119247
