example_ofxGpuLutCube/bin/data/ofxGpuLutCube/LUT/A32 (old style contrasty fade).cube
LUT_3D_SIZE 16
0.188235 0.152941 0.172549
0.181176 0.157647 0.165490
0.180392 0.156863 0.164706
0.177255 0.157647 0.173333
0.190588 0.157647 0.168627
0.235294 0.149020 0.160784
0.315294 0.129412 0.168627
0.432157 0.110588 0.163137
0.547451 0.094118 0.156863
0.661177 0.085491 0.141960
0.760784 0.094118 0.129412
0.835294 0.109020 0.116863
0.894118 0.096471 0.105098
0.934118 0.090196 0.095686
0.974902 0.082353 0.080000
0.999961 0.074549 0.074510
0.183530 0.160000 0.174118
0.183530 0.161568 0.168627
0.176942 0.158118 0.171451
0.177098 0.161412 0.165333
0.194980 0.153882 0.168627
0.236863 0.150589 0.162353
0.325490 0.144470 0.163765
0.432941 0.134588 0.160313
0.550274 0.127843 0.150588
0.668392 0.130980 0.145098
0.756863 0.140392 0.124706
0.835922 0.139294 0.113411
0.894118 0.131451 0.095059
0.934588 0.122667 0.083294
0.977255 0.116863 0.077647
0.999953 0.108266 0.062737
0.192157 0.156863 0.168627
0.187608 0.153255 0.165333
0.179451 0.157804 0.169412
0.176628 0.158902 0.173961
0.200471 0.160157 0.170667
0.245490 0.162353 0.168627
0.325961 0.165020 0.161569
0.435451 0.171451 0.156706
0.552627 0.176627 0.147451
0.664000 0.183215 0.127216
0.756863 0.192941 0.118431
0.832941 0.186510 0.101490
0.892392 0.181177 0.086118
0.933647 0.171921 0.071529
0.971294 0.164079 0.063059
0.997631 0.156910 0.051019
0.185098 0.164706 0.166274
0.186667 0.163137 0.171608
0.184628 0.161098 0.167059
0.187608 0.164078 0.167216
0.206275 0.172078 0.162667
0.251765 0.181177 0.165490
0.333804 0.200471 0.159215
0.444392 0.211922 0.149961
0.555137 0.233255 0.132549
0.666824 0.245490 0.111216
0.762353 0.248628 0.094902
0.832157 0.244706 0.076706
0.891137 0.240157 0.068235
0.929255 0.229647 0.048314
0.967372 0.219137 0.039059
0.998408 0.211796 0.029114
0.178040 0.194509 0.168627
0.184157 0.194666 0.160314
0.194823 0.201255 0.162353
0.208157 0.201098 0.160941
0.226824 0.204235 0.160784
0.276862 0.214117 0.156863
0.352314 0.239686 0.144157
0.452078 0.264000 0.129412
0.562353 0.285804 0.110431
0.668549 0.305882 0.089883
0.758432 0.307451 0.064314
0.834667 0.310431 0.035922
0.887529 0.305098 0.024000
0.925804 0.290039 0.010196
0.963765 0.280000 0.003451
0.996031 0.272157 0.000016
0.172549 0.270588 0.145098
0.181961 0.273726 0.147451
0.200784 0.274510 0.138823
0.230588 0.278431 0.143529
0.269019 0.278431 0.133333
0.313725 0.282353 0.129412
0.380392 0.295687 0.124706
0.480000 0.329412 0.098824
0.578823 0.351373 0.076863
0.681569 0.371765 0.041569
0.756863 0.376471 0.007843
0.826666 0.382745 0.000000
0.880784 0.368627 0.001569
0.916863 0.354510 0.000000
0.963137 0.345098 0.000784
0.996000 0.333372 0.000000
0.144314 0.385882 0.093333
0.172079 0.385725 0.091921
0.207843 0.385098 0.091137
0.253176 0.392157 0.090667
0.304628 0.390588 0.081412
0.361568 0.393725 0.076863
0.429019 0.395137 0.077333
0.502745 0.409255 0.040000
0.592471 0.431843 0.003608
0.686118 0.447059 0.000000
0.760000 0.450196 0.003138
0.823216 0.443138 0.000628
0.870902 0.435608 0.000314
0.917804 0.419608 0.005020
0.954196 0.404706 0.000000
0.990486 0.401545 0.000000
0.098824 0.513725 0.002353
0.136470 0.507765 0.001255
0.190431 0.508392 0.000941
0.253961 0.510431 0.000000
0.321568 0.512157 0.001883
0.393725 0.515294 0.002353
0.460706 0.512941 0.000314
0.530039 0.512000 0.003765
0.604078 0.518274 0.002353
0.687686 0.526745 0.000000
0.764706 0.527843 0.001569
0.818510 0.514039 0.000000
0.868392 0.502275 0.000941
0.908078 0.487686 0.000000
0.944314 0.470274 0.003765
0.985035 0.461953 0.001592
0.004706 0.610196 0.000000
0.079216 0.612235 0.002353
0.159373 0.609412 0.001412
0.242980 0.610353 0.000941
0.318432 0.612392 0.003138
0.394510 0.614118 0.000000
0.468706 0.610510 0.000471
0.542431 0.611922 0.000000
0.617098 0.610824 0.000628
0.690824 0.608627 0.000000
0.752941 0.603922 0.001569
0.809725 0.592157 0.000000
0.858823 0.569569 0.000628
0.899921 0.549647 0.000000
0.940078 0.536941 0.002824
0.974024 0.527059 0.001553
0.000784 0.689412 0.003138
0.000314 0.693490 0.000000
0.108863 0.688628 0.003765
0.211294 0.687843 0.000000
0.291294 0.692863 0.000000
0.381176 0.687059 0.000000
0.455843 0.683138 0.003294
0.527843 0.683138 0.000000
0.604392 0.678117 0.001569
0.680628 0.674353 0.000628
0.745882 0.671373 0.000000
0.800157 0.659451 0.001725
0.847372 0.635765 0.003138
0.887059 0.617098 0.005490
0.924549 0.594510 0.003138
0.963090 0.583553 0.001561
0.003922 0.745098 0.000000
0.000000 0.745098 0.000000
0.046274 0.743529 0.003922
0.171765 0.745098 0.000000
0.262745 0.748236 0.000000
0.349020 0.737255 0.003922
0.427451 0.740392 0.000000
0.506667 0.735686 0.004706
0.572549 0.734902 0.001569
0.647843 0.729412 0.000000
0.721569 0.729412 0.000000
0.787451 0.721569 0.003922
0.833725 0.700392 0.001569
0.875294 0.683922 0.001569
0.916078 0.666667 0.007059
0.956785 0.654902 0.003883
0.003138 0.781961 0.000784
0.000000 0.785098 0.000628
0.006274 0.783843 0.000000
0.146510 0.782902 0.000000
0.239059 0.782588 0.000000
0.330980 0.781176 0.000000
0.399372 0.775530 0.000000
0.474981 0.774431 0.000000
0.550117 0.773176 0.000000
0.617412 0.770196 0.005176
0.684706 0.766275 0.000000
0.749961 0.762980 0.003922
0.815216 0.758745 0.000000
0.857412 0.741490 0.000000
0.905882 0.721412 0.005176
0.944988 0.712973 0.001592
0.000000 0.818823 0.000000
0.001255 0.820078 0.000000
0.002196 0.818667 0.000000
0.132706 0.817882 0.000000
0.222745 0.817255 0.000314
0.307451 0.816471 0.006275
0.380079 0.817725 0.000314
0.454118 0.815530 0.001569
0.524549 0.811137 0.001569
0.589804 0.809098 0.000000
0.654118 0.809412 0.000000
0.717647 0.805334 0.001098
0.786510 0.798274 0.001255
0.844549 0.801725 0.001883
0.894588 0.789333 0.000000
0.947349 0.773349 0.100910
0.001569 0.854118 0.000000
0.000000 0.855686 0.005490
0.000628 0.855059 0.000941
0.117647 0.856471 0.003294
0.209412 0.850667 0.001882
0.295686 0.855686 0.000000
0.361098 0.852706 0.005333
0.433568 0.854118 0.000000
0.501176 0.853804 0.000941
0.564863 0.850510 0.000314
0.636079 0.845490 0.000000
0.698196 0.848313 0.001726
0.760314 0.844235 0.000941
0.818667 0.841569 0.001412
0.879373 0.842510 0.048314
0.938690 0.834494 0.127694
0.000000 0.901177 0.000000
0.001255 0.912000 0.003765
0.064314 0.907137 0.003137
0.148706 0.910902 0.000314
0.228392 0.906667 0.007216
0.298039 0.907451 0.000000
0.361569 0.904784 0.000628
0.431372 0.905255 0.001255
0.495843 0.903843 0.001255
0.562353 0.907294 0.001412
0.624313 0.903529 0.033726
0.688157 0.899608 0.087059
0.749647 0.899922 0.132706
0.811922 0.901490 0.168941
0.866196 0.898824 0.202196
0.919129 0.900385 0.236000
0.003922 0.948942 0.019451
0.028062 0.956745 0.038824
0.100964 0.954392 0.027208
0.170126 0.952847 0.029530
0.239882 0.956738 0.042706
0.301961 0.956785 0.054431
0.364706 0.953639 0.062212
0.427451 0.954384 0.081820
0.493341 0.956722 0.098447
0.551467 0.955930 0.128345
0.611804 0.952823 0.156628
0.674572 0.952847 0.185749
0.739631 0.955153 0.213216
0.795357 0.951247 0.239937
0.855718 0.953592 0.275851
0.905920 0.948980 0.305646
0.183530 0.160784 0.170196
0.181804 0.158275 0.166118
0.177255 0.161568 0.165490
0.176785 0.161098 0.165020
0.191059 0.158118 0.164078
0.234510 0.156079 0.163922
0.325490 0.144314 0.171765
0.436235 0.126745 0.165961
0.549961 0.108549 0.154980
0.666039 0.088000 0.145255
0.762353 0.063530 0.130981
0.835451 0.049255 0.113725
0.897098 0.033412 0.105255
0.936000 0.027922 0.095216
0.974902 0.022745 0.084392
1.000000 0.023529 0.081584
0.185569 0.160157 0.163607
0.181302 0.157773 0.170635
0.178698 0.160628 0.166055
0.177820 0.161788 0.166745
0.198431 0.157490 0.171514
0.242510 0.157490 0.168470
0.323639 0.151780 0.164925
0.436204 0.144125 0.159184
0.550369 0.134117 0.150212
0.668800 0.121569 0.141961
0.761411 0.111059 0.119529
0.837334 0.100675 0.113317
0.894839 0.094933 0.098855
0.934745 0.089255 0.086086
0.974494 0.080690 0.084989
0.999992 0.077848 0.077175
0.188392 0.158274 0.163608
0.183529 0.158118 0.171419
0.185318 0.153036 0.170823
0.181020 0.158243 0.171796
0.200220 0.159435 0.169004
0.247373 0.163921 0.167059
0.332926 0.169412 0.162259
0.440283 0.172298 0.152690
0.558431 0.170510 0.141271
0.671592 0.167561 0.127027
0.765177 0.165490 0.115764
0.843231 0.162918 0.104157
0.891577 0.156706 0.090134
0.935498 0.149271 0.079185
0.973459 0.143906 0.074823
0.999983 0.138039 0.057622
0.184000 0.165804 0.170980
0.181961 0.163137 0.164862
0.187671 0.161192 0.164894
0.185067 0.164047 0.165553
0.205114 0.171608 0.161726
0.257726 0.182275 0.159843
0.338823 0.195890 0.159184
0.448376 0.209098 0.144659
0.561129 0.221051 0.134776
0.672753 0.228706 0.113914
0.765490 0.231373 0.105255
0.840408 0.229647 0.080408
0.895404 0.224063 0.072753
0.935749 0.212863 0.062400
0.969161 0.207122 0.050353
0.998050 0.199697 0.046434
0.170823 0.193882 0.157647
0.172612 0.199749 0.160408
0.186980 0.198745 0.158055
0.205365 0.202479 0.158181
0.226824 0.204361 0.157961
0.277019 0.213961 0.152157
0.360502 0.237396 0.144973
0.459231 0.260612 0.128627
0.571765 0.279247 0.116079
0.676110 0.296283 0.092988
0.762823 0.301961 0.071216
0.832031 0.301176 0.048533
0.891200 0.290039 0.038965
0.929255 0.280377 0.033475
0.963043 0.271875 0.029177
0.994930 0.260417 0.033343
0.156079 0.272157 0.145883
0.169411 0.274510 0.137255
0.191372 0.273882 0.132863
0.221647 0.279686 0.136941
0.265098 0.282353 0.144314
0.314509 0.283137 0.130196
0.378980 0.298823 0.130510
0.481725 0.329726 0.101176
0.583216 0.353255 0.083451
0.675765 0.369569 0.049569
0.764706 0.376471 0.019608
0.829961 0.370039 0.000000
0.881725 0.362353 0.003765
0.923765 0.349334 0.002667
0.962353 0.338667 0.001569
0.996039 0.328635 0.000816
0.119530 0.385725 0.094902
0.145945 0.387639 0.093584
0.185820 0.393066 0.094996
0.241349 0.391624 0.090730
0.301208 0.392345 0.083734
0.359686 0.396863 0.079686
0.428110 0.395169 0.076612
0.505349 0.409789 0.046023
0.597271 0.433286 0.007812
0.686181 0.446274 0.000126
0.760313 0.443922 0.000000
0.824847 0.440690 0.002259
0.875263 0.432157 0.001067
0.917647 0.419859 0.000063
0.954667 0.404173 0.000126
0.988008 0.395961 0.000628
0.045177 0.507921 0.000000
0.104596 0.508674 0.001381
0.172016 0.508298 0.001883
0.241600 0.510557 0.001506
0.317302 0.512157 0.002196
0.386980 0.512628 0.000000
0.463153 0.514008 0.000000
0.534212 0.515608 0.001412
0.613271 0.520251 0.000000
0.691828 0.525804 0.002259
0.761882 0.522823 0.000314
0.822023 0.511341 0.002039
0.869302 0.502714 0.001130
0.907671 0.485835 0.002071
0.945945 0.470776 0.000000
0.982217 0.459911 0.001246
0.002510 0.612549 0.003608
0.010259 0.612330 0.000628
0.134369 0.609474 0.002290
0.225631 0.612079 0.001255
0.303843 0.613428 0.001381
0.387608 0.612549 0.001726
0.466133 0.610886 0.003765
0.541929 0.612079 0.000000
0.618165 0.611137 0.001569
0.693271 0.610949 0.003200
0.757804 0.600784 0.000000
0.814996 0.585475 0.004141
0.858384 0.566871 0.000000
0.900988 0.548737 0.002981
0.938353 0.535686 0.000000
0.976863 0.528317 0.024833
0.000157 0.693490 0.000000
0.000000 0.691389 0.002761
0.071247 0.686714 0.000251
0.192282 0.687843 0.000251
0.284267 0.688596 0.001004
0.372549 0.685334 0.001412
0.452015 0.684424 0.002541
0.528471 0.685647 0.002259
0.603388 0.679686 0.001506
0.678181 0.681004 0.000941
0.749647 0.676392 0.002510
0.805804 0.655561 0.003294
0.847529 0.635545 0.000628
0.884831 0.615686 0.000690
0.924674 0.594384 0.003640
0.966006 0.588235 0.032491
0.000000 0.741960 0.000000
0.000628 0.744941 0.000157
0.016941 0.741647 0.000000
0.155137 0.745725 0.000314
0.258039 0.741960 0.000784
0.345098 0.737255 0.003922
0.426666 0.741647 0.000628
0.502275 0.737255 0.000784
0.574902 0.732549 0.000784
0.653334 0.731765 0.002510
0.721569 0.729412 0.000784
0.784314 0.725961 0.000628
0.834824 0.704000 0.003138
0.875764 0.683451 0.003922
0.912941 0.663529 0.000000
0.960666 0.653341 0.079765
0.005804 0.784628 0.002510
0.000628 0.786008 0.000000
0.004204 0.783435 0.001318
0.135529 0.783216 0.000439
0.233381 0.783749 0.001004
0.324078 0.781176 0.005020
0.401098 0.779263 0.000126
0.475231 0.777161 0.002981
0.544721 0.775687 0.001098
0.618886 0.770164 0.000126
0.685491 0.766902 0.000157
0.749302 0.761819 0.000502
0.815341 0.755294 0.003012
0.857036 0.740925 0.000000
0.896471 0.721569 0.001130
0.944985 0.712002 0.086116
0.001726 0.819765 0.000000
0.000000 0.818886 0.005271
0.003263 0.822243 0.000377
0.128533 0.820549 0.002416
0.226259 0.817632 0.000000
0.305255 0.816627 0.000784
0.383435 0.816220 0.000314
0.453804 0.813773 0.000753
0.523702 0.812894 0.002541
0.591498 0.812925 0.000063
0.657883 0.806745 0.000471
0.720470 0.804894 0.002730
0.784722 0.801318 0.000377
0.841161 0.801286 0.000188
0.894745 0.788079 0.065726
0.942507 0.777566 0.150097
0.000000 0.857098 0.000000
0.000000 0.857569 0.000753
0.008345 0.858196 0.000000
0.127466 0.858635 0.002133
0.219608 0.857286 0.000377
0.294274 0.858039 0.000471
0.370761 0.854682 0.007467
0.435106 0.855749 0.000000
0.504125 0.852267 0.001192
0.571953 0.851828 0.000690
0.630432 0.847059 0.000471
0.696784 0.846557 0.003200
0.758118 0.847686 0.032910
0.820518 0.843357 0.086526
0.878306 0.839843 0.115200
0.930576 0.836709 0.174276
0.000000 0.906823 0.002039
0.002761 0.907388 0.002384
0.090259 0.907325 0.005647
0.169977 0.910933 0.004141
0.236738 0.905568 0.006933
0.300078 0.906667 0.006275
0.368094 0.909427 0.016816
0.433851 0.904063 0.023686
0.501208 0.906572 0.055592
0.560345 0.902557 0.085930
0.626980 0.903058 0.117647
0.688377 0.902745 0.147106
0.751247 0.899765 0.177381
0.809412 0.897820 0.208000
0.868235 0.896721 0.234165
0.919746 0.899445 0.268751
0.013977 0.957490 0.112667
0.087492 0.957839 0.123870
0.137082 0.958301 0.131468
0.194392 0.957072 0.125346
0.252467 0.957964 0.126723
0.312094 0.956745 0.131498
0.374243 0.954259 0.133580
0.429780 0.956701 0.143724
0.498166 0.955762 0.151885
0.555202 0.950370 0.176920
0.619616 0.955930 0.194330
0.681586 0.955134 0.221314
0.738114 0.950494 0.243788
0.800152 0.953103 0.266557
0.858218 0.952016 0.298286
0.908910 0.948933 0.333011
0.185882 0.157647 0.159216
0.184941 0.160470 0.164862
0.182902 0.159372 0.167215
0.175372 0.161255 0.166745
0.191372 0.157177 0.165647
0.247059 0.149020 0.172549
0.330353 0.123608 0.170980
0.443294 0.077961 0.162196
0.558588 0.020078 0.154510
0.682824 0.000000 0.147922
0.776471 0.000000 0.138823
0.845333 0.000000 0.125020
0.900235 0.000628 0.116235
0.946823 0.000000 0.111843
0.978823 0.000000 0.101647
0.998423 0.000016 0.097349
0.183373 0.158902 0.166117
0.182933 0.160157 0.161161
0.180267 0.162698 0.161286
0.175969 0.163043 0.167404
0.195984 0.153474 0.168533
0.253333 0.143059 0.166431
0.335812 0.127906 0.161757
0.446463 0.100643 0.160784
0.568032 0.066102 0.154855
0.676329 0.026604 0.144219
0.771765 0.005647 0.132079
0.847812 0.001882 0.122102
0.901427 0.000878 0.113976
0.945224 0.001224 0.107639
0.978290 0.001788 0.100329
0.999965 0.001882 0.097095
0.181333 0.157804 0.168471
0.181302 0.153538 0.162792
0.179765 0.156549 0.161882
0.183529 0.156141 0.164329
0.210416 0.152816 0.165490
0.258667 0.153882 0.164706
0.343686 0.146479 0.157490
0.457725 0.139482 0.157177
0.568408 0.129851 0.148894
0.680785 0.120408 0.135718
0.769726 0.111216 0.127529
0.846463 0.107137 0.115796
0.899137 0.100267 0.104847
0.940361 0.096251 0.099169
0.974431 0.093772 0.092675
0.999068 0.093470 0.084115
0.176000 0.163451 0.168313
0.173773 0.164016 0.164267
0.179326 0.166180 0.164549
0.186698 0.164204 0.159843
0.214620 0.170510 0.163419
0.265255 0.174118 0.160784
0.353349 0.183090 0.156988
0.461929 0.191686 0.148957
0.574588 0.198149 0.140110
0.683357 0.202259 0.123796
0.769255 0.198275 0.113255
0.844361 0.198871 0.102180
0.896784 0.191122 0.095279
0.935686 0.185098 0.085992
0.972706 0.178792 0.082447
0.999969 0.173663 0.080458
0.154824 0.203294 0.157334
0.159592 0.201788 0.160847
0.180769 0.199624 0.156455
0.200345 0.201632 0.156863
0.230525 0.206902 0.159028
0.285020 0.216784 0.151843
0.364863 0.231059 0.150557
0.467702 0.250353 0.134651
0.582494 0.265820 0.126808
0.684644 0.279875 0.103749
0.769882 0.285020 0.091294
0.837522 0.281004 0.075043
0.892894 0.271969 0.071247
0.933490 0.263717 0.067482
0.971577 0.256533 0.073035
0.999940 0.248930 0.069958
0.122353 0.277647 0.146667
0.141960 0.278431 0.149333
0.169412 0.280000 0.144314
0.211921 0.283294 0.141804
0.262275 0.283608 0.139765
0.314510 0.287843 0.136470
0.390274 0.297569 0.130196
0.490823 0.324079 0.118275
0.590588 0.342588 0.098824
0.685176 0.360157 0.080000
0.767843 0.359216 0.057255
0.831530 0.359686 0.038902
0.888000 0.348863 0.040627
0.925961 0.337098 0.043294
0.963922 0.327843 0.056471
0.999922 0.320000 0.061137
0.043451 0.386353 0.107294
0.094306 0.391937 0.107043
0.152690 0.389867 0.104659
0.220172 0.391906 0.099639
0.290886 0.397867 0.098635
0.358588 0.398431 0.093647
0.429867 0.401788 0.086118
0.507169 0.409694 0.067953
0.602698 0.427796 0.038839
0.689663 0.439592 0.013584
0.769725 0.440784 0.010667
0.832534 0.432722 0.008533
0.880628 0.423655 0.011169
0.921286 0.412580 0.025506
0.954604 0.396047 0.046338
0.995225 0.389039 0.059125
0.001412 0.509961 0.008157
0.006871 0.509522 0.002071
0.121663 0.509961 0.005177
0.211953 0.512972 0.002447
0.298886 0.513569 0.002259
0.379451 0.513882 0.000000
0.458322 0.512753 0.001255
0.533208 0.515545 0.000753
0.615310 0.518839 0.001631
0.692392 0.527247 0.000816
0.766118 0.520627 0.001412
0.823216 0.507325 0.000753
0.869082 0.496565 0.003859
0.910870 0.481036 0.020235
0.942902 0.465851 0.041286
0.982337 0.455700 0.074143
0.001412 0.614745 0.000941
0.000282 0.613051 0.000000
0.044424 0.616251 0.001506
0.186980 0.616533 0.000377
0.288157 0.614714 0.001412
0.380078 0.614118 0.000000
0.461522 0.612392 0.000753
0.538667 0.612957 0.000941
0.619106 0.608690 0.001569
0.692894 0.608816 0.000941
0.760784 0.600000 0.000000
0.813992 0.585537 0.001443
0.860267 0.566682 0.000000
0.901333 0.549271 0.017506
0.934745 0.536251 0.077553
0.974021 0.526422 0.115343
0.001569 0.695529 0.000314
0.003325 0.689475 0.000251
0.002698 0.692236 0.000941
0.156455 0.691890 0.003577
0.265255 0.692549 0.002573
0.360784 0.686118 0.001255
0.441757 0.687843 0.004486
0.524204 0.685333 0.000000
0.605647 0.682698 0.001883
0.679498 0.679530 0.001192
0.748235 0.672941 0.001255
0.803388 0.656032 0.001820
0.849224 0.634228 0.000000
0.889036 0.613867 0.009726
0.921506 0.595890 0.070776
0.963056 0.585440 0.132881
0.001569 0.747451 0.000000
0.000000 0.744000 0.002353
0.001412 0.744470 0.004392
0.131922 0.741333 0.000941
0.240314 0.744941 0.001255
0.334118 0.738823 0.000000
0.416314 0.741176 0.000000
0.501647 0.737255 0.002353
0.574118 0.733647 0.000941
0.646274 0.730980 0.000000
0.717647 0.725490 0.000000
0.784784 0.724235 0.000471
0.832941 0.701804 0.003294
0.876706 0.682510 0.018981
0.915294 0.660393 0.093020
0.957584 0.652549 0.162204
0.002667 0.784471 0.000000
0.000502 0.786667 0.000251
0.003765 0.783906 0.005679
0.121255 0.784816 0.000188
0.227389 0.785537 0.000502
0.318745 0.781961 0.001255
0.395796 0.778291 0.000000
0.471875 0.775373 0.000941
0.547765 0.773176 0.001443
0.611734 0.771608 0.000000
0.682353 0.763608 0.001569
0.749710 0.762729 0.001663
0.813522 0.758808 0.001977
0.859828 0.741208 0.026384
0.902494 0.721945 0.101145
0.945324 0.712174 0.163203
0.002353 0.820235 0.000000
0.001726 0.820926 0.001788
0.004894 0.821553 0.000000
0.133961 0.819576 0.002730
0.226071 0.822149 0.000000
0.308549 0.819764 0.002353
0.383122 0.816533 0.000126
0.454996 0.814055 0.002353
0.523043 0.812737 0.001945
0.590086 0.810416 0.002134
0.659137 0.809255 0.011137
0.723168 0.803451 0.038902
0.783592 0.802572 0.079216
0.842196 0.799122 0.117051
0.892581 0.788330 0.162227
0.937005 0.778960 0.211940
0.000941 0.853804 0.002353
0.000753 0.857474 0.000000
0.029177 0.856722 0.000000
0.144251 0.855122 0.002761
0.229678 0.856063 0.000000
0.303373 0.853177 0.001882
0.373553 0.853584 0.008973
0.439279 0.854588 0.015718
0.505851 0.851671 0.024816
0.570886 0.852047 0.054369
0.635608 0.849255 0.088314
0.702557 0.846557 0.119969
0.762039 0.846557 0.148235
0.817788 0.844737 0.171420
0.875796 0.841475 0.194855
0.926314 0.839810 0.228132
0.010824 0.902588 0.122353
0.066102 0.909615 0.127278
0.125365 0.908047 0.127529
0.191247 0.907263 0.130134
0.253177 0.904157 0.135310
0.316235 0.904157 0.135843
0.377537 0.907106 0.139325
0.436424 0.905631 0.146666
0.502620 0.906353 0.156141
0.566713 0.902306 0.175027
0.630118 0.901490 0.191059
0.689726 0.899514 0.214055
0.748800 0.898761 0.233726
0.809631 0.898102 0.259671
0.866102 0.896659 0.280031
0.921639 0.897566 0.306414
0.087647 0.957545 0.190385
0.135349 0.956485 0.199834
0.170543 0.956583 0.201390
0.213591 0.957349 0.198417
0.269068 0.955009 0.204794
0.325435 0.959035 0.202180
0.382685 0.956383 0.202530
0.439533 0.956138 0.207053
0.500856 0.956075 0.215525
0.561550 0.954551 0.231231
0.625898 0.956683 0.247741
0.682828 0.953297 0.268778
0.742442 0.949858 0.290094
0.799264 0.950907 0.311135
0.852593 0.949381 0.331627
0.913483 0.950432 0.361272
0.184314 0.160784 0.168627
0.178824 0.160157 0.171451
0.185255 0.159843 0.162980
0.187451 0.156863 0.171765
0.198902 0.157334 0.180078
0.250980 0.149020 0.192157
0.337255 0.117647 0.197647
0.450353 0.053177 0.207059
0.576471 0.000628 0.201255
0.688785 0.000471 0.178196
0.786667 0.000000 0.164706
0.856628 0.000000 0.160157
0.906353 0.000000 0.151686
0.944941 0.000000 0.143373
0.980392 0.000000 0.139764
1.000000 0.000024 0.140416
0.182118 0.162353 0.169255
0.180141 0.159749 0.170729
0.182212 0.160094 0.171137
0.185945 0.157239 0.170384
0.201726 0.152502 0.179576
0.256784 0.142902 0.189333
0.346384 0.115074 0.194071
0.459357 0.049883 0.200283
0.579827 0.000879 0.185945
0.698133 0.001506 0.168376
0.787921 0.001255 0.161255
0.855686 0.001506 0.152314
0.908329 0.000282 0.146290
0.946322 0.000282 0.140800
0.979074 0.000251 0.135310
1.000000 0.000019 0.140367
0.174275 0.160314 0.174118
0.176942 0.157679 0.173365
0.183153 0.156988 0.173992
0.189271 0.155671 0.173835
0.215717 0.149616 0.175937
0.267608 0.143686 0.182118
0.359059 0.119090 0.181804
0.471749 0.067263 0.175875
0.588016 0.011859 0.166086
0.693490 0.001757 0.162761
0.786667 0.000941 0.154981
0.857130 0.001035 0.147232
0.907294 0.000377 0.142431
0.945380 0.000377 0.133020
0.979325 0.001882 0.135937
1.000000 0.004402 0.136480
0.172863 0.163137 0.171765
0.170164 0.164580 0.175216
0.177694 0.163514 0.171576
0.189333 0.164109 0.177537
0.225067 0.164016 0.169349
0.279843 0.160941 0.173490
0.374086 0.156675 0.173490
0.482322 0.151843 0.166117
0.591843 0.140549 0.161820
0.697067 0.137569 0.153192
0.784157 0.131294 0.143843
0.852894 0.128502 0.141270
0.902557 0.127372 0.138227
0.942808 0.125334 0.134086
0.978008 0.128439 0.130886
1.000000 0.131936 0.137216
0.152941 0.199373 0.181647
0.151435 0.203043 0.174808
0.160565 0.205051 0.177757
0.189176 0.207467 0.170667
0.231373 0.205804 0.169537
0.290039 0.210196 0.173804
0.380424 0.219294 0.171043
0.484518 0.236674 0.158055
0.597773 0.240188 0.152910
0.698008 0.250666 0.140894
0.784470 0.247059 0.133176
0.848659 0.244172 0.126996
0.896910 0.238777 0.128157
0.938792 0.233945 0.128502
0.973867 0.232126 0.131294
0.999669 0.227773 0.133170
0.065098 0.281569 0.170196
0.081098 0.280627 0.167529
0.124392 0.281098 0.160000
0.184314 0.282981 0.156549
0.254745 0.286275 0.162353
0.316863 0.286275 0.155294
0.400941 0.296157 0.154353
0.495686 0.318275 0.144628
0.600627 0.334274 0.138196
0.697568 0.338823 0.123451
0.774902 0.344314 0.117647
0.838118 0.339137 0.113883
0.892392 0.328941 0.116235
0.934118 0.325490 0.127843
0.964863 0.310588 0.127216
0.999961 0.312149 0.137200
0.002353 0.395451 0.140706
0.002510 0.392471 0.134400
0.057757 0.394698 0.135686
0.176188 0.396674 0.131890
0.268643 0.398400 0.134557
0.347922 0.398118 0.126431
0.432753 0.397929 0.130290
0.516611 0.409287 0.119749
0.609851 0.424376 0.109145
0.694965 0.433004 0.103341
0.774275 0.434510 0.107294
0.831749 0.424439 0.109428
0.883577 0.413365 0.114667
0.922918 0.401192 0.119937
0.957333 0.392157 0.140549
0.992276 0.386031 0.149164
0.003451 0.513725 0.081883
0.000000 0.512502 0.082228
0.004988 0.512282 0.082416
0.155388 0.517082 0.076329
0.267451 0.518713 0.073851
0.361098 0.517019 0.065412
0.451890 0.516235 0.065757
0.538008 0.516141 0.059890
