example_ofxGpuLutCube/bin/data/ofxGpuLutCube/LUT/A32 (old style contrasty fade).cube
LUT_3D_SIZE 6
0.188235 0.152941 0.172549
0.177255 0.157647 0.173333
0.315294 0.129412 0.168627
0.661177 0.085491 0.141960
0.894118 0.096471 0.105098
0.999961 0.074549 0.074510
0.185098 0.164706 0.166274
0.187608 0.164078 0.167216
0.333804 0.200471 0.159215
0.666824 0.245490 0.111216
0.891137 0.240157 0.068235
0.998408 0.211796 0.029114
0.144314 0.385882 0.093333
0.253176 0.392157 0.090667
0.429019 0.395137 0.077333
0.686118 0.447059 0.000000
0.870902 0.435608 0.000314
0.990486 0.401545 0.000000
0.000784 0.689412 0.003138
0.211294 0.687843 0.000000
0.455843 0.683138 0.003294
0.680628 0.674353 0.000628
0.847372 0.635765 0.003138
0.963090 0.583553 0.001561
0.000000 0.818823 0.000000
0.132706 0.817882 0.000000
0.380079 0.817725 0.000314
0.589804 0.809098 0.000000
0.786510 0.798274 0.001255
0.947349 0.773349 0.100910
0.003922 0.948942 0.019451
0.170126 0.952847 0.029530
0.364706 0.953639 0.062212
0.551467 0.955930 0.128345
0.739631 0.955153 0.213216
0.905920 0.948980 0.305646
0.184314 0.160784 0.168627
0.187451 0.156863 0.171765
0.337255 0.117647 0.197647
0.688785 0.000471 0.178196
0.906353 0.000000 0.151686
1.000000 0.000024 0.140416
0.172863 0.163137 0.171765
0.189333 0.164109 0.177537
0.374086 0.156675 0.173490
0.697067 0.137569 0.153192
0.902557 0.127372 0.138227
1.000000 0.131936 0.137216
0.002353 0.395451 0.140706
0.176188 0.396674 0.131890
0.432753 0.397929 0.130290
0.694965 0.433004 0.103341
0.883577 0.413365 0.114667
0.992276 0.386031 0.149164
0.000000 0.695372 0.000000
0.074824 0.693333 0.002447
0.433569 0.688063 0.003796
0.676675 0.681004 0.000879
0.848471 0.633067 0.108831
0.962897 0.589020 0.217645
0.001569 0.820235 0.101647
0.156518 0.816282 0.108424
0.387890 0.814149 0.123326
0.594541 0.808879 0.156173
0.782588 0.803231 0.208816
0.937768 0.778835 0.284333
0.166063 0.956698 0.276683
0.255600 0.956397 0.281774
0.400001 0.953627 0.286820
0.569426 0.955017 0.302193
0.743559 0.950927 0.348784
0.904289 0.947404 0.399223
0.117647 0.151372 0.389804
0.250039 0.130824 0.394353
0.416000 0.055529 0.398902
0.694745 0.001412 0.451608
0.905098 0.000314 0.416157
1.000000 0.003106 0.382729
0.000314 0.177412 0.406588
0.190400 0.154384 0.403388
0.422902 0.107796 0.410918
0.716863 0.000533 0.439122
0.906008 0.000000 0.400439
0.998050 0.204670 0.411224
0.001255 0.405647 0.420235
0.002259 0.408471 0.411075
0.432941 0.406651 0.422212
0.717522 0.411420 0.418290
0.872690 0.418949 0.424815
0.972656 0.436040 0.438403
0.000000 0.694745 0.413177
0.010541 0.693334 0.409192
0.432220 0.687059 0.424722
0.676737 0.678494 0.434730
0.822526 0.644549 0.465506
0.934493 0.629796 0.485627
0.292392 0.810980 0.471373
0.352376 0.811577 0.478180
0.470024 0.810510 0.479184
0.623780 0.806306 0.490510
0.782306 0.800502 0.502400
0.916455 0.791378 0.528908
0.376478 0.946565 0.521514
0.422985 0.950756 0.521550
0.498659 0.949516 0.519716
0.623887 0.948927 0.528017
0.765653 0.951235 0.546811
0.904259 0.952738 0.569372
0.179608 0.088628 0.694902
0.284235 0.045804 0.688157
0.475921 0.000000 0.695529
0.698039 0.000000 0.690353
0.892549 0.000000 0.657255
0.999145 0.000000 0.600824
0.001569 0.134902 0.694275
0.188172 0.113914 0.697820
0.459890 0.027451 0.695122
0.697161 0.000000 0.690102
0.888941 0.000000 0.656722
0.987821 0.225525 0.604525
0.002510 0.402509 0.691608
0.000376 0.396831 0.692487
0.430274 0.402980 0.692988
0.691106 0.417883 0.691325
0.849098 0.460863 0.653679
0.939986 0.519120 0.638078
0.000000 0.679843 0.684863
0.146416 0.676235 0.684738
0.473192 0.679655 0.678808
0.672157 0.678996 0.676204
0.792565 0.676737 0.670243
0.907190 0.677451 0.669804
0.395608 0.804549 0.645804
0.456627 0.803734 0.659075
0.568282 0.800972 0.675827
0.670871 0.796832 0.680377
0.776784 0.799153 0.682259
0.899062 0.803305 0.686902
0.469819 0.944141 0.672134
0.495911 0.944518 0.673175
0.559117 0.950588 0.676135
0.652627 0.948746 0.675710
0.771498 0.948887 0.674571
0.905780 0.948894 0.682314
0.160784 0.025882 0.816471
0.258510 0.000941 0.816471
0.427137 0.000000 0.816627
0.616000 0.000000 0.817726
0.811608 0.000941 0.814275
0.983404 0.002330 0.795310
0.004235 0.116392 0.820235
0.192094 0.102588 0.815718
0.405145 0.062588 0.819043
0.612863 0.034729 0.814494
0.809882 0.090541 0.811671
0.974299 0.249225 0.791801
0.098510 0.394039 0.812706
0.252800 0.400251 0.812141
0.441976 0.415467 0.810039
0.628675 0.440627 0.810008
0.799749 0.476204 0.806871
0.934786 0.521951 0.792251
0.300392 0.624784 0.801569
0.391090 0.637145 0.801286
0.540423 0.660267 0.797396
0.670745 0.676235 0.796674
0.779326 0.678118 0.791153
0.900662 0.683456 0.788574
0.442039 0.796863 0.794980
0.486055 0.797333 0.794353
0.572643 0.798933 0.791686
0.668612 0.799686 0.792314
0.776533 0.797051 0.790431
0.913741 0.798891 0.792292
0.466667 0.943388 0.801522
0.488980 0.944971 0.798406
0.548604 0.947329 0.795569
0.636099 0.947972 0.788406
0.763913 0.949834 0.789020
0.903428 0.949710 0.790557
0.125608 0.003883 0.956706
0.230564 0.002330 0.951208
0.386714 0.000000 0.952055
0.566376 0.000000 0.959874
0.753749 0.000000 0.952055
0.929373 0.101725 0.948864
0.001584 0.096439 0.946573
0.184951 0.086138 0.952819
0.377569 0.071054 0.955479
0.565386 0.094524 0.954664
0.752204 0.170491 0.949832
0.929232 0.287655 0.940243
0.220361 0.403898 0.956738
0.292444 0.403165 0.949342
0.432813 0.418548 0.949382
0.605620 0.447854 0.945732
0.767567 0.486286 0.944642
0.918306 0.531694 0.944917
0.394517 0.636855 0.941011
0.446607 0.641628 0.940119
0.550091 0.664934 0.941771
0.654776 0.672145 0.940392
0.778852 0.672945 0.932767
0.913584 0.680761 0.940165
0.454125 0.799192 0.944894
0.483857 0.802191 0.942441
0.554514 0.799570 0.941352
0.645963 0.800012 0.941349
0.772182 0.796206 0.941940
0.911309 0.805365 0.942580
0.439294 0.948941 0.941097
0.459717 0.948902 0.939537
0.518533 0.948871 0.943403
0.618063 0.952015 0.941866
0.751388 0.950440 0.941082
0.894194 0.948941 0.948784
