example_ofxGpuLutCube/bin/data/ofxGpuLutCube/LUT/A33 (old style so warm).cube
LUT_3D_SIZE 6
0.000000 0.003922 0.000000
0.000000 0.001569 0.000000
0.421961 0.000000 0.000000
0.679216 0.000000 0.000784
0.905882 0.000000 0.001569
0.996078 0.000000 0.000000
0.005490 0.036862 0.002353
0.064000 0.038588 0.001569
0.451294 0.143216 0.000471
0.692079 0.115922 0.000000
0.910588 0.051137 0.001883
0.996078 0.000000 0.000000
0.170196 0.363921 0.003922
0.272628 0.352470 0.003451
0.444549 0.340549 0.004392
0.704784 0.381177 0.001412
0.917961 0.367373 0.001569
1.000000 0.345129 0.000000
0.318432 0.591372 0.003138
0.376157 0.583059 0.000471
0.521255 0.572706 0.000000
0.677804 0.570353 0.153098
0.922980 0.605804 0.000314
0.993726 0.591388 0.000777
0.449412 0.817255 0.116862
0.492236 0.818039 0.115608
0.601726 0.814902 0.159373
0.742745 0.803921 0.229804
0.887059 0.794667 0.320470
1.000000 0.819616 0.233992
0.584079 1.000000 0.364392
0.607749 1.000000 0.368274
0.681412 0.999992 0.365216
0.820164 0.999961 0.431867
0.956738 0.998329 0.540039
1.000000 0.988196 0.623295
0.000000 0.001569 0.004706
0.002353 0.000941 0.003137
0.445020 0.000000 0.074824
0.710274 0.001255 0.000000
0.922039 0.000000 0.002196
0.996078 0.000000 0.000000
0.000941 0.058980 0.011608
0.125427 0.069804 0.000565
0.472063 0.080941 0.000910
0.713945 0.007090 0.001945
0.926651 0.000000 0.001788
0.997019 0.000941 0.000970
0.163608 0.367843 0.003451
0.274071 0.360690 0.002636
0.456094 0.352377 0.102369
0.718181 0.369569 0.001600
0.929788 0.351781 0.002510
0.999969 0.318018 0.000030
0.352000 0.587294 0.133647
0.400533 0.579922 0.121098
0.535404 0.577381 0.178259
0.680690 0.572236 0.242039
0.925553 0.613020 0.002980
0.998292 0.585460 0.000000
0.453804 0.819137 0.221961
0.496973 0.813867 0.211169
0.603890 0.807341 0.233035
0.746980 0.802698 0.288251
0.884894 0.796674 0.357145
0.999054 0.822582 0.279390
0.581773 0.997670 0.401302
0.601906 0.998602 0.398161
0.679580 0.998721 0.404394
0.812936 0.999992 0.464811
0.957329 0.998518 0.555101
0.997694 0.982031 0.625074
0.000000 0.003138 0.271373
0.213020 0.000000 0.281412
0.444079 0.000157 0.292863
0.718745 0.000157 0.301333
0.922196 0.000471 0.290353
0.996894 0.000000 0.258886
0.002353 0.120157 0.288784
0.218039 0.106196 0.284957
0.468016 0.133114 0.293271
0.721255 0.020392 0.297976
0.931608 0.000000 0.262588
0.996894 0.000035 0.253556
0.244079 0.380549 0.289569
0.337820 0.377004 0.295718
0.492079 0.378228 0.317427
0.727341 0.369035 0.249098
0.934871 0.342086 0.239969
0.996869 0.300770 0.217827
0.401255 0.596706 0.330980
0.443357 0.587231 0.328941
0.560439 0.590557 0.340988
0.690855 0.582431 0.376251
0.933019 0.611357 0.255059
0.999845 0.582125 0.174910
0.478745 0.814117 0.365020
0.510368 0.813114 0.365020
0.603169 0.814118 0.358055
0.751875 0.808565 0.401694
0.890416 0.799498 0.448690
0.994387 0.820620 0.348141
0.588039 0.999223 0.496306
0.610223 0.999223 0.494364
0.681746 0.999838 0.494770
0.809299 0.999371 0.529315
0.950819 0.997590 0.605530
0.999961 0.988165 0.672039
0.135686 0.000000 0.468235
0.264314 0.000314 0.478431
0.473882 0.000628 0.482510
0.685334 0.000784 0.482353
0.903686 0.075608 0.503216
1.000000 0.000008 0.512102
0.206274 0.176157 0.484863
0.310588 0.173804 0.479686
0.497067 0.180580 0.481130
0.685145 0.222840 0.483169
0.918369 0.198651 0.504973
0.997823 0.110048 0.509989
0.327372 0.399843 0.473412
0.390494 0.399529 0.472188
0.537067 0.409819 0.480126
0.716329 0.415467 0.491106
0.935718 0.366619 0.486243
0.997509 0.321780 0.491322
0.432314 0.607216 0.493647
0.478149 0.601098 0.492675
0.589333 0.610384 0.502243
0.718557 0.604674 0.509678
0.958588 0.583875 0.442133
0.997515 0.547027 0.434863
0.519529 0.817569 0.542431
0.539545 0.818698 0.536816
0.616565 0.820330 0.536439
0.750651 0.818290 0.539576
0.892800 0.809474 0.577694
0.996870 0.820090 0.466298
0.609334 0.999223 0.643059
0.620561 1.000000 0.636232
0.678959 0.999838 0.636382
0.787986 0.999372 0.630598
0.946130 0.999956 0.686949
1.000000 0.985114 0.744165
0.271373 0.006274 0.699608
0.365490 0.012079 0.706510
0.537882 0.035608 0.704628
0.740706 0.061961 0.704471
0.926745 0.171922 0.706039
1.000000 0.337161 0.706627
0.336470 0.253647 0.707765
0.406275 0.248973 0.704690
0.558494 0.247278 0.707043
0.745694 0.243263 0.708267
0.930165 0.293020 0.708863
0.997661 0.401875 0.707635
0.392941 0.451294 0.710118
0.448345 0.447090 0.705506
0.574808 0.445804 0.708047
0.752314 0.433224 0.706824
0.927592 0.465130 0.706416
0.998292 0.485859 0.720444
0.434510 0.644863 0.708392
0.476612 0.643169 0.706384
0.585035 0.640282 0.704910
0.751843 0.635765 0.718494
0.926525 0.655184 0.722070
1.000000 0.633566 0.726482
0.529412 0.833569 0.712471
0.556486 0.831843 0.710337
0.646337 0.828706 0.711937
0.774055 0.832784 0.727467
0.905098 0.831247 0.746228
0.999012 0.798628 0.687570
0.665757 1.000000 0.799176
0.678307 0.999991 0.802987
0.734793 0.999995 0.810711
0.815600 1.000000 0.823065
0.924376 0.999062 0.813076
1.000000 0.989781 0.858683
0.431216 0.282118 0.968352
0.489294 0.279035 0.964416
0.621075 0.279043 0.964518
0.792862 0.275051 0.967584
0.968612 0.279827 0.964416
0.996156 0.356628 0.956628
0.457169 0.373969 0.967569
0.507989 0.373015 0.962058
0.629733 0.371608 0.962172
0.794491 0.366883 0.970766
0.971115 0.366935 0.970886
0.998462 0.422682 0.952039
0.486926 0.527725 0.962196
0.528982 0.530058 0.966359
0.638827 0.527096 0.967142
0.792274 0.521778 0.972131
0.966275 0.512853 0.970008
0.999992 0.551271 0.946517
0.469733 0.696345 0.975436
0.508692 0.692171 0.965033
0.619724 0.691219 0.969018
0.783873 0.698739 0.972179
0.945875 0.695148 0.973577
0.999223 0.723051 0.960564
0.501828 0.886196 0.970737
0.538118 0.886351 0.969495
0.634755 0.880722 0.974014
0.762678 0.874615 0.972048
0.918897 0.865967 0.978587
0.997670 0.886989 0.968540
0.654667 0.999961 0.945136
0.678196 0.999961 0.948219
0.737828 0.999969 0.952855
0.840448 1.000000 0.963850
0.954400 1.000000 0.976501
1.000000 1.000000 0.992390
