example_ofxGpuLutCube/bin/data/ofxGpuLutCube/LUT/A33 (old style so warm).cube
LUT_3D_SIZE 16
0.000000 0.003922 0.000000
0.000000 0.000000 0.000000
0.000000 0.000000 0.000000
0.000000 0.001569 0.000000
0.134117 0.000000 0.000000
0.290196 0.000000 0.003922
0.421961 0.000000 0.000000
0.519216 0.000000 0.000000
0.610196 0.000000 0.002353
0.679216 0.000000 0.000784
0.756863 0.003922 0.000000
0.833726 0.000000 0.000000
0.905882 0.000000 0.001569
0.974118 0.001569 0.002353
0.999216 0.003138 0.009412
0.996078 0.000000 0.000000
0.000000 0.000000 0.000000
0.000000 0.000000 0.000000
0.000471 0.000000 0.000000
0.014432 0.001255 0.001882
0.176314 0.000628 0.000784
0.320000 0.000000 0.000000
0.439059 0.000000 0.000000
0.534588 0.000000 0.003608
0.612549 0.001255 0.000000
0.694117 0.000157 0.001412
0.761568 0.000784 0.000784
0.833726 0.000000 0.000000
0.909804 0.000000 0.004078
0.984314 0.002353 0.001255
0.996078 0.000000 0.000000
0.996078 0.000000 0.007765
0.001569 0.000000 0.000000
0.000000 0.000000 0.000000
0.000941 0.000941 0.004078
0.025569 0.004236 0.000000
0.182745 0.017882 0.004393
0.319216 0.012549 0.002353
0.434039 0.009412 0.001255
0.529412 0.000000 0.002353
0.612392 0.000000 0.002824
0.689882 0.000000 0.000000
0.764706 0.000000 0.003922
0.833255 0.000000 0.000000
0.909333 0.001412 0.000628
0.981961 0.000000 0.001883
0.996078 0.000000 0.000000
0.996078 0.000000 0.000047
0.005490 0.036862 0.002353
0.003765 0.032941 0.000784
0.028392 0.037804 0.002196
0.064000 0.038588 0.001569
0.213647 0.107294 0.001255
0.352157 0.135686 0.003922
0.451294 0.143216 0.000471
0.536314 0.133804 0.002196
0.616314 0.123765 0.000941
0.692079 0.115922 0.000000
0.769412 0.099607 0.000000
0.840785 0.080000 0.007373
0.910588 0.051137 0.001883
0.984471 0.015216 0.004236
0.998431 0.002353 0.006118
0.996078 0.000000 0.000000
0.021176 0.152157 0.003138
0.056628 0.138823 0.000000
0.097255 0.145412 0.001255
0.154039 0.142902 0.000471
0.203922 0.147922 0.000628
0.332549 0.196863 0.000784
0.454745 0.227451 0.000000
0.535686 0.230588 0.000000
0.616941 0.227138 0.001255
0.695216 0.220235 0.000628
0.764706 0.207843 0.000000
0.842196 0.203608 0.000000
0.913412 0.192627 0.004235
0.983216 0.173804 0.003608
0.996862 0.156078 0.003922
0.996117 0.127161 0.000839
0.133333 0.278431 0.003922
0.141960 0.261961 0.000000
0.181177 0.266667 0.000000
0.234510 0.265098 0.002353
0.290981 0.265098 0.000000
0.341176 0.258824 0.003922
0.433726 0.280000 0.000000
0.548235 0.305882 0.000000
0.625883 0.309804 0.000000
0.701961 0.302745 0.000000
0.772549 0.294118 0.000000
0.846274 0.294902 0.000000
0.921568 0.280784 0.000000
0.991372 0.274510 0.000000
1.000000 0.263529 0.003922
0.999961 0.247137 0.000039
0.170196 0.363921 0.003922
0.183216 0.342431 0.000000
0.214118 0.349333 0.000000
0.272628 0.352470 0.003451
0.328627 0.350431 0.003451
0.385098 0.348235 0.003922
0.444549 0.340549 0.004392
0.517333 0.350274 0.000000
0.619608 0.372392 0.002667
0.704784 0.381177 0.001412
0.774118 0.373333 0.000000
0.853019 0.373490 0.003765
0.917961 0.367373 0.001569
0.992941 0.365333 0.000471
0.997490 0.354353 0.000784
1.000000 0.345129 0.000000
0.207843 0.440785 0.003137
0.219294 0.428706 0.000000
0.252235 0.431372 0.000941
0.305412 0.432313 0.001883
0.358902 0.427451 0.000314
0.414118 0.429804 0.002353
0.471059 0.421647 0.002824
0.520784 0.420392 0.000941
0.584000 0.421804 0.014432
0.694118 0.441568 0.003137
0.791372 0.458823 0.004706
0.860863 0.453020 0.002667
0.925490 0.450039 0.002510
0.992627 0.446431 0.000000
1.000000 0.442039 0.004392
0.997655 0.427498 0.002330
0.258039 0.515294 0.002353
0.267451 0.505098 0.000784
0.296000 0.505098 0.001569
0.337726 0.506980 0.002196
0.387451 0.506980 0.000000
0.440000 0.503530 0.000000
0.493647 0.497726 0.000000
0.544000 0.494902 0.000628
0.599373 0.488314 0.050980
0.656785 0.490823 0.123765
0.752157 0.518432 0.000000
0.857255 0.529412 0.002196
0.930353 0.528784 0.003765
0.995294 0.524549 0.001883
1.000000 0.516392 0.003138
1.000000 0.505098 0.002353
0.318432 0.591372 0.003138
0.318275 0.581177 0.000000
0.340863 0.580392 0.000314
0.376157 0.583059 0.000471
0.421490 0.580549 0.000157
0.475294 0.573334 0.003138
0.521255 0.572706 0.000000
0.574118 0.570981 0.046275
0.625569 0.566274 0.114039
0.677804 0.570353 0.153098
0.722353 0.566274 0.206275
0.826196 0.598588 0.062745
0.922980 0.605804 0.000314
0.995294 0.606588 0.002196
1.000000 0.603137 0.001098
0.993726 0.591388 0.000777
0.368627 0.666667 0.000000
0.373333 0.659608 0.000000
0.393725 0.661177 0.002353
0.416471 0.661177 0.000000
0.456471 0.660393 0.003922
0.501961 0.654902 0.000000
0.544313 0.654118 0.053333
0.604706 0.647843 0.103529
0.646274 0.649412 0.134902
0.702745 0.640000 0.175687
0.749020 0.639216 0.207843
0.794510 0.643921 0.258039
0.879216 0.666667 0.168628
0.980392 0.676078 0.000000
1.000000 0.672157 0.000784
1.000000 0.666667 0.003883
0.418039 0.745098 0.040000
0.421804 0.742588 0.037491
0.442196 0.745098 0.034981
0.464628 0.745255 0.034353
0.492392 0.741961 0.047059
0.531765 0.741177 0.083921
0.579294 0.737411 0.113882
0.628078 0.735529 0.148079
0.678275 0.735686 0.181647
0.729098 0.732863 0.211765
0.783530 0.729412 0.237647
0.823530 0.726118 0.264000
0.871686 0.718431 0.306039
0.937569 0.745882 0.265412
0.999686 0.753726 0.060863
0.993780 0.749090 0.000777
0.449412 0.817255 0.116862
0.456627 0.815686 0.116706
0.474353 0.820078 0.114510
0.492236 0.818039 0.115608
0.519686 0.819138 0.114667
0.560000 0.814117 0.134902
0.601726 0.814902 0.159373
0.647843 0.806274 0.180549
0.693490 0.801412 0.201098
0.742745 0.803921 0.229804
0.795294 0.802353 0.264314
0.835765 0.796392 0.286745
0.887059 0.794667 0.320470
0.931765 0.794353 0.355451
0.985725 0.812549 0.351059
1.000000 0.819616 0.233992
0.491765 0.895687 0.198431
0.498039 0.891138 0.190274
0.507608 0.894118 0.197020
0.528941 0.892706 0.198589
0.554510 0.892863 0.199529
0.590588 0.894118 0.198431
0.624627 0.887843 0.217098
0.672157 0.885334 0.239530
0.719059 0.885647 0.255059
0.765960 0.879687 0.288157
0.815686 0.880000 0.309019
0.858039 0.878432 0.337569
0.907922 0.873882 0.360314
0.956235 0.873098 0.402353
0.994980 0.878745 0.443765
1.000000 0.886965 0.471482
0.519216 0.949804 0.252549
0.523764 0.949176 0.246274
0.531608 0.947137 0.247529
0.556549 0.948549 0.249412
0.580549 0.952784 0.253961
0.603922 0.949804 0.250980
0.646432 0.949804 0.273255
0.685490 0.949019 0.287059
0.730196 0.948235 0.307451
0.774902 0.945098 0.335215
0.827451 0.941961 0.354510
0.874039 0.942588 0.386039
0.921098 0.937568 0.420706
0.968000 0.937255 0.456314
0.996706 0.941961 0.491138
0.996862 0.941176 0.534847
0.584079 1.000000 0.364392
0.581020 0.999992 0.357357
0.590447 1.000000 0.362784
0.607749 1.000000 0.368274
0.625733 0.999216 0.363569
0.654667 1.000000 0.356549
0.681412 0.999992 0.365216
0.716024 0.998447 0.385569
0.766133 0.999961 0.421569
0.820164 0.999961 0.431867
0.866510 0.996078 0.474157
0.912039 0.996784 0.503153
0.956738 0.998329 0.540039
0.993710 0.996062 0.562110
1.000000 0.985200 0.590471
1.000000 0.988196 0.623295
0.003138 0.000000 0.000000
0.000000 0.000000 0.000314
0.000000 0.000000 0.000000
0.003294 0.000314 0.002510
0.154039 0.002510 0.003138
0.313725 0.000000 0.003922
0.433412 0.002510 0.000000
0.527529 0.000000 0.000471
0.615843 0.000314 0.000941
0.692863 0.001412 0.000628
0.762353 0.000784 0.000000
0.840471 0.000628 0.000000
0.916392 0.001883 0.001883
0.989490 0.000000 0.001255
0.996078 0.000000 0.001569
0.996078 0.000000 0.007765
0.000000 0.000000 0.000000
0.000000 0.000659 0.000000
0.000000 0.000000 0.005020
0.026290 0.000000 0.002510
0.187482 0.002510 0.000784
0.333333 0.002667 0.003294
0.446212 0.000659 0.002039
0.535278 0.000377 0.003389
0.616534 0.000000 0.000251
0.698196 0.000031 0.000973
0.776157 0.000157 0.003138
0.846651 0.000251 0.000000
0.919278 0.001883 0.001883
0.989741 0.000628 0.001506
0.996204 0.000251 0.001380
0.996080 0.000002 0.001553
0.000000 0.000000 0.000941
0.000000 0.000314 0.000000
0.000000 0.000000 0.003137
0.033443 0.008220 0.000000
0.182965 0.030494 0.000408
0.323294 0.042667 0.002667
0.440408 0.034353 0.003263
0.534400 0.017945 0.004142
0.615686 0.005490 0.001883
0.698039 0.001004 0.005490
0.776471 0.000000 0.004706
0.844047 0.000377 0.000000
0.917459 0.001318 0.000188
0.988549 0.000000 0.003890
0.996078 0.000000 0.000000
0.996078 0.000000 0.000000
0.003137 0.044235 0.000000
0.012110 0.035890 0.000000
0.035608 0.036674 0.000376
0.066479 0.038212 0.000753
0.222212 0.105569 0.003012
0.356863 0.145726 0.001255
0.452643 0.150776 0.002949
0.543812 0.143467 0.000126
0.627169 0.133773 0.000973
0.702619 0.117302 0.000000
0.780078 0.095843 0.001412
0.848282 0.067137 0.006274
0.917396 0.028235 0.000941
0.990557 0.000753 0.003828
0.996078 0.000000 0.003200
0.996083 0.000005 0.002489
0.047059 0.148079 0.000628
0.072785 0.139765 0.000502
0.109177 0.145161 0.000000
0.165741 0.150400 0.003639
0.218510 0.150808 0.004204
0.344000 0.199686 0.008157
0.464471 0.226824 0.002541
0.548612 0.228455 0.000251
0.622996 0.224157 0.001882
0.703090 0.216188 0.001381
0.775844 0.207530 0.003765
0.847059 0.195482 0.001380
0.920000 0.181961 0.003514
0.990086 0.165741 0.000753
1.000000 0.144753 0.001757
0.992365 0.113805 0.000621
0.112941 0.278431 0.000000
0.140706 0.263529 0.000157
0.174902 0.266667 0.000000
0.229961 0.269333 0.000784
0.294274 0.269961 0.003138
0.353725 0.263529 0.000784
0.442353 0.280000 0.003922
0.557647 0.308549 0.000000
0.634039 0.308549 0.002510
0.712941 0.301961 0.002510
0.780392 0.294902 0.003138
0.854117 0.289412 0.000628
0.923921 0.280784 0.000000
0.994980 0.269333 0.000000
1.000000 0.258981 0.000157
0.996117 0.242400 0.001561
0.153725 0.365333 0.000628
0.174431 0.347890 0.003138
0.216377 0.350745 0.001851
0.264220 0.352251 0.003075
0.329255 0.348988 0.003545
0.385882 0.352314 0.000000
0.445679 0.347827 0.001820
0.520627 0.352628 0.001506
0.630431 0.374996 0.001067
0.713004 0.380392 0.002918
0.788706 0.377255 0.002510
0.854180 0.372957 0.000628
0.926369 0.369129 0.000251
0.991686 0.362165 0.001255
0.998839 0.348800 0.000502
0.999372 0.335743 0.004994
0.209098 0.441568 0.003922
0.220863 0.426165 0.001820
0.258886 0.426384 0.000941
0.305475 0.431749 0.003702
0.358149 0.431969 0.001192
0.413333 0.428078 0.000314
0.472283 0.424125 0.003859
0.528910 0.420518 0.004047
0.591341 0.426133 0.054337
0.699671 0.447780 0.003514
0.792784 0.458353 0.001098
0.858886 0.451043 0.004957
0.928596 0.451953 0.002573
0.996486 0.446306 0.000000
0.999686 0.436330 0.000377
0.999534 0.426672 0.000006
0.267608 0.511373 0.003451
0.270024 0.500957 0.001098
0.295404 0.504345 0.001506
0.336596 0.502902 0.002071
0.386416 0.503530 0.000000
0.438745 0.501020 0.002510
0.490322 0.497474 0.000000
0.547576 0.494337 0.026698
0.595984 0.488628 0.101898
0.656157 0.494212 0.145851
0.756392 0.520941 0.003765
0.860141 0.531357 0.002510
0.927781 0.527969 0.000941
0.995984 0.519529 0.002071
0.999749 0.516643 0.003357
0.998132 0.505140 0.002683
0.321882 0.591215 0.003294
0.323294 0.579608 0.000000
0.342526 0.580675 0.000973
0.378510 0.577976 0.000345
0.424471 0.579890 0.004141
0.475451 0.576627 0.002667
0.523765 0.575184 0.030682
0.574745 0.572173 0.097882
0.629584 0.569569 0.135498
0.678431 0.569381 0.173804
0.729726 0.569412 0.224314
0.829082 0.597208 0.083200
0.926274 0.606526 0.000220
0.995106 0.603796 0.002761
0.997866 0.601914 0.001130
1.000000 0.588276 0.000814
0.365490 0.663529 0.000000
0.373333 0.651764 0.000000
0.392471 0.653961 0.000000
0.424784 0.653333 0.000000
0.452549 0.655843 0.007529
0.506666 0.650980 0.047059
0.550118 0.647843 0.085647
0.600784 0.648627 0.128000
0.648157 0.645647 0.155137
0.698824 0.642510 0.190902
0.745882 0.639216 0.219608
0.800628 0.642353 0.264628
0.885333 0.664784 0.186666
0.973333 0.678118 0.003137
1.000000 0.670588 0.006588
1.000000 0.662745 0.004698
0.419765 0.744941 0.080784
0.423435 0.737255 0.075608
0.435232 0.737004 0.071122
0.462431 0.739294 0.076235
0.498259 0.737349 0.081349
0.534274 0.739765 0.112314
0.578353 0.736627 0.131200
0.632659 0.732424 0.166463
0.675106 0.732612 0.184722
0.726745 0.730573 0.217004
0.778510 0.726275 0.240157
0.821396 0.725616 0.270400
0.870337 0.721067 0.312408
0.944314 0.743059 0.278682
0.999812 0.756831 0.081286
0.996894 0.745921 0.000777
0.451294 0.815216 0.134275
0.454243 0.811169 0.131451
0.471184 0.810259 0.131357
0.491482 0.814588 0.133145
0.519749 0.811827 0.130918
0.555608 0.809882 0.145726
0.599718 0.808031 0.168690
0.645145 0.802980 0.183812
0.691232 0.805051 0.207686
0.740235 0.801631 0.239718
0.793725 0.800000 0.267608
0.838589 0.799153 0.290510
0.885616 0.793506 0.324267
0.932235 0.794792 0.362384
0.989615 0.808753 0.357522
0.995337 0.821787 0.231505
0.492079 0.893333 0.210667
0.494243 0.888282 0.203231
0.506918 0.887216 0.201631
0.526086 0.889255 0.202008
0.551561 0.887529 0.203074
0.586353 0.886902 0.208941
0.626353 0.886714 0.227985
0.668110 0.883702 0.238463
0.716549 0.884486 0.265631
0.766839 0.883137 0.290040
0.815686 0.881569 0.316235
0.861804 0.874855 0.342714
0.904910 0.875137 0.367530
0.958274 0.871749 0.405051
0.994792 0.874667 0.449349
1.000000 0.884977 0.477120
0.524392 0.949804 0.264941
0.519875 0.945757 0.251169
0.535247 0.948581 0.248063
0.551686 0.947420 0.256816
0.571357 0.948988 0.256000
0.604706 0.947137 0.258980
0.640377 0.949396 0.273600
0.685741 0.947922 0.294180
0.728188 0.944157 0.312408
0.778730 0.940737 0.340926
0.830275 0.944628 0.371451
0.875765 0.943153 0.393945
0.922133 0.936031 0.429271
0.968722 0.938290 0.457945
0.996329 0.940706 0.494149
0.996240 0.940554 0.540467
0.580204 1.000000 0.364400
0.579427 1.000000 0.356557
0.585757 0.999987 0.360924
0.602694 0.998136 0.364847
0.620129 0.997515 0.361948
0.650823 0.996117 0.360486
0.679851 1.000000 0.365231
0.724087 0.999522 0.393089
0.762243 0.998102 0.416808
0.813532 0.999994 0.442557
0.866526 0.996078 0.474157
0.912130 0.996668 0.504756
0.959555 0.999918 0.541611
0.995208 0.997255 0.566650
1.000000 0.988274 0.596605
0.996894 0.984314 0.620150
0.000000 0.002353 0.000000
0.000000 0.000000 0.000000
0.000000 0.000000 0.000000
0.010824 0.000000 0.002196
0.164706 0.001883 0.013647
0.321569 0.002353 0.006274
0.436078 0.003138 0.002353
0.533961 0.000000 0.000000
0.615686 0.000000 0.000000
0.694431 0.000471 0.000000
0.771765 0.002353 0.000000
0.846745 0.000000 0.000000
0.916078 0.001569 0.000000
0.990431 0.000941 0.000000
0.996078 0.000000 0.004706
0.997631 0.001553 0.006212
0.000000 0.000000 0.000000
0.000000 0.000000 0.000000
0.000000 0.000188 0.000565
0.037616 0.000282 0.003106
0.197051 0.001506 0.001443
0.338353 0.000471 0.004079
0.448659 0.000471 0.000784
0.540863 0.002071 0.000000
0.619326 0.001067 0.000000
0.703184 0.000000 0.002290
0.777726 0.000000 0.001255
0.845428 0.000251 0.000878
0.921851 0.000000 0.001318
0.994698 0.001130 0.004267
0.997082 0.001632 0.003765
0.996549 0.000471 0.003732
0.000628 0.000628 0.005333
0.000000 0.000941 0.003514
0.001977 0.000000 0.005396
0.051263 0.008502 0.001412
0.196737 0.022024 0.003702
0.334431 0.018039 0.000000
0.448690 0.009035 0.001381
0.538667 0.000565 0.001192
0.622494 0.000377 0.002886
0.700361 0.000188 0.001694
0.776471 0.000000 0.003294
0.847341 0.000690 0.001632
0.921161 0.000941 0.002918
0.990557 0.000000 0.002886
0.996204 0.000125 0.001631
0.996078 0.000000 0.000000
0.000000 0.052236 0.001412
0.008596 0.043890 0.001412
0.043325 0.046118 0.002635
0.086651 0.049286 0.000000
0.240314 0.107796 0.002259
0.360784 0.128627 0.000941
0.458604 0.131106 0.001255
0.548329 0.123451 0.001945
0.629428 0.109333 0.001224
0.706635 0.083514 0.002071
0.780863 0.052863 0.004236
0.850008 0.020235 0.001129
0.922509 0.001412 0.001977
0.990933 0.002322 0.002824
0.996580 0.000502 0.001129
0.996092 0.000014 0.004673
0.018353 0.163922 0.002510
0.055027 0.151247 0.000659
0.113129 0.154353 0.001883
0.168439 0.160282 0.002165
0.228016 0.160251 0.003765
0.362666 0.203608 0.001569
0.464659 0.218761 0.000157
0.548706 0.218353 0.001600
0.625349 0.213051 0.000188
0.702369 0.201286 0.004016
0.774118 0.192941 0.007216
0.848251 0.179169 0.004518
0.920878 0.161443 0.000596
0.992910 0.142557 0.004079
0.999906 0.110745 0.000628
0.998447 0.069238 0.000963
0.091765 0.283922 0.000000
0.117176 0.272000 0.000000
0.168157 0.273098 0.000000
0.232471 0.274510 0.004863
0.299922 0.271843 0.007843
0.363137 0.268235 0.003922
0.452863 0.283451 0.000000
0.558431 0.303843 0.000941
0.639686 0.300549 0.000941
0.709333 0.293020 0.000784
0.785882 0.288628 0.000000
0.860079 0.278117 0.004392
0.925490 0.269020 0.001412
0.995922 0.258824 0.000000
1.000000 0.245804 0.001569
0.996094 0.227490 0.000024
0.148235 0.364706 0.000000
0.171608 0.351843 0.000251
0.211357 0.356957 0.000565
0.267200 0.354228 0.001600
0.329192 0.354133 0.000628
0.392157 0.352471 0.000314
0.449286 0.347921 0.000000
0.526682 0.355828 0.008063
0.632816 0.376879 0.000471
0.715702 0.374996 0.000565
0.787451 0.368314 0.004235
0.857443 0.363263 0.000251
0.930227 0.358996 0.005584
0.993600 0.352973 0.001914
0.997490 0.339827 0.003263
0.999981 0.326955 0.000017
0.215686 0.440627 0.002353
0.226008 0.431027 0.000000
0.261710 0.430557 0.000565
0.309898 0.432408 0.001694
0.365019 0.429333 0.000690
0.417882 0.431686 0.002510
0.477647 0.426981 0.011075
0.529600 0.423090 0.079655
0.597679 0.431341 0.103843
0.705130 0.451733 0.001506
0.789804 0.453490 0.005177
0.859891 0.452392 0.002008
0.934306 0.445584 0.002447
0.995859 0.440157 0.003859
0.998933 0.431467 0.004204
0.999986 0.419641 0.000932
0.273883 0.515922 0.002510
0.278745 0.502588 0.002039
0.304251 0.506572 0.001569
0.344784 0.506259 0.001381
0.393851 0.503812 0.002573
0.446118 0.500549 0.007529
0.498039 0.495404 0.056345
0.551875 0.495059 0.109051
0.599718 0.490761 0.147702
0.657318 0.499043 0.178761
0.755294 0.528627 0.023059
0.860581 0.529663 0.003012
0.930165 0.526525 0.003137
0.996047 0.519153 0.003294
1.000000 0.514322 0.000659
0.997670 0.499942 0.001437
0.335373 0.588392 0.015844
0.333239 0.575812 0.004392
0.353788 0.579639 0.004110
0.385286 0.582055 0.007341
0.429585 0.577130 0.026824
0.478431 0.573334 0.072000
0.527529 0.575216 0.108110
0.581428 0.572832 0.146447
0.628392 0.572549 0.175090
0.679059 0.565992 0.204204
0.730510 0.569882 0.241412
0.827545 0.599467 0.127216
0.923106 0.609098 0.002541
0.996925 0.605992 0.001757
0.998996 0.599247 0.000659
0.997813 0.586086 0.001107
0.378039 0.662745 0.081568
0.382431 0.654431 0.077647
0.406118 0.652549 0.079529
0.425882 0.658824 0.073412
0.463843 0.656471 0.087843
0.505882 0.650980 0.116862
0.552157 0.647059 0.141176
0.600314 0.648000 0.166274
0.651137 0.645647 0.186823
0.699921 0.643137 0.214274
0.749020 0.639216 0.247059
0.795608 0.641098 0.280314
0.886118 0.664941 0.220235
0.974118 0.684079 0.007529
1.000000 0.670588 0.004706
1.000000 0.662769 0.005475
0.427921 0.744313 0.138039
0.424690 0.736063 0.131419
0.441129 0.741992 0.132580
0.467169 0.738008 0.132204
0.495404 0.738604 0.133804
0.537569 0.739764 0.152471
0.582745 0.736314 0.173835
0.629490 0.735184 0.192345
0.683765 0.732832 0.216471
0.729161 0.732518 0.235137
0.778667 0.727530 0.259608
0.826259 0.725271 0.287184
0.869961 0.722478 0.325961
0.945318 0.745568 0.289286
0.999906 0.758526 0.116518
0.995773 0.748576 0.005283
0.451137 0.818039 0.171137
0.460267 0.810635 0.169161
0.473130 0.810102 0.169004
0.495435 0.813616 0.172612
0.522667 0.812016 0.165710
0.555608 0.811451 0.171451
0.599028 0.808941 0.191059
0.644957 0.805020 0.211482
0.692863 0.803388 0.235075
0.745726 0.801349 0.262306
0.795294 0.800000 0.286745
0.845898 0.796204 0.309114
0.885835 0.797239 0.332173
0.929694 0.795263 0.372612
0.987608 0.812674 0.366494
0.997647 0.819638 0.249522
0.493177 0.893647 0.231529
0.494274 0.888345 0.226322
0.513443 0.885020 0.230275
0.525616 0.891796 0.228204
0.554071 0.887561 0.225098
0.586824 0.887843 0.228392
0.622337 0.887969 0.235263
0.672534 0.882165 0.259890
0.717616 0.884675 0.284392
0.767027 0.881788 0.312031
0.814118 0.880784 0.330981
0.859859 0.876047 0.350463
0.909835 0.874981 0.380486
0.952251 0.873663 0.412643
0.995294 0.873788 0.461836
0.999068 0.889363 0.485362
0.522666 0.951373 0.280470
0.524957 0.947012 0.274259
0.531796 0.946855 0.275890
0.554259 0.946071 0.280502
0.572831 0.948204 0.279624
0.604078 0.948863 0.276392
0.641663 0.947827 0.287843
0.685428 0.945977 0.304408
0.731106 0.945506 0.330165
0.777663 0.945004 0.350023
0.826510 0.942902 0.379294
0.869208 0.941804 0.401663
0.922259 0.937412 0.434039
0.968784 0.936815 0.472502
0.996800 0.939702 0.504125
0.996862 0.939934 0.543616
0.580220 1.000000 0.380133
0.580367 0.999976 0.367307
0.587787 1.000000 0.370585
0.601445 0.998136 0.374005
0.622439 0.999515 0.375731
0.646918 0.999976 0.375373
0.681730 0.998428 0.385856
0.718348 0.999984 0.405172
0.765220 0.999950 0.424684
0.812434 1.000000 0.449906
0.863404 0.997631 0.482000
0.913260 0.998042 0.513870
0.960783 0.998362 0.547580
0.995252 0.996009 0.572667
0.999981 0.991815 0.599660
1.000000 0.987366 0.624871
0.000000 0.001569 0.004706
0.000000 0.000000 0.000000
0.000941 0.000941 0.000000
0.002353 0.000941 0.003137
0.160784 0.000000 0.055372
0.331765 0.003922 0.096470
0.445020 0.000000 0.074824
0.544313 0.000628 0.025412
0.628236 0.001569 0.002353
0.710274 0.001255 0.000000
0.781177 0.000000 0.001569
0.858039 0.000000 0.000941
0.922039 0.000000 0.002196
0.991059 0.000000 0.002510
0.996078 0.000000 0.000000
0.996078 0.000000 0.000000
0.000000 0.000314 0.000000
0.000000 0.000471 0.000000
0.000000 0.000314 0.000000
0.031718 0.000314 0.010133
0.209349 0.001255 0.057945
0.355294 0.000314 0.064470
0.461428 0.000628 0.022463
0.552094 0.000000 0.000000
0.633286 0.000000 0.000784
0.713663 0.001067 0.000502
0.784314 0.000000 0.003137
0.854243 0.001788 0.000000
0.926431 0.000000 0.003577
0.993443 0.000377 0.001192
0.996455 0.000377 0.005396
0.996078 0.000000 0.002485
0.002196 0.000000 0.000628
0.000000 0.000816 0.001506
0.001412 0.000251 0.003012
0.081067 0.000941 0.004298
0.226259 0.000000 0.008879
0.356235 0.000941 0.000000
0.462180 0.000125 0.002447
0.552000 0.000847 0.003576
0.630431 0.001977 0.001569
0.708455 0.000125 0.003200
0.784314 0.001412 0.001255
0.850949 0.001537 0.001632
0.923169 0.000377 0.003671
0.990306 0.001506 0.002510
0.995796 0.000282 0.002259
0.996098 0.000020 0.001931
0.000941 0.058980 0.011608
0.000000 0.059075 0.003953
0.032282 0.063090 0.003012
0.125427 0.069804 0.000565
0.265412 0.093020 0.002196
0.379922 0.093804 0.000000
0.472063 0.080941 0.000910
0.558212 0.054839 0.001882
0.635953 0.032157 0.002635
0.713945 0.007090 0.001945
0.786510 0.000000 0.004706
0.857475 0.000000 0.000000
0.926651 0.000000 0.001788
0.994510 0.001318 0.003702
0.996549 0.000471 0.005051
0.997019 0.000941 0.000970
0.000000 0.178510 0.001098
0.002949 0.166212 0.000063
0.096282 0.172612 0.000816
0.178761 0.176000 0.003169
0.247937 0.174965 0.008816
0.384784 0.205647 0.005647
0.474698 0.204612 0.002008
0.558996 0.196800 0.000000
0.636486 0.188392 0.002447
0.712627 0.173584 0.001569
0.784471 0.164392 0.000000
0.856471 0.145726 0.001977
0.921098 0.125427 0.002134
0.994541 0.098259 0.003922
0.999278 0.056973 0.001506
0.996886 0.003355 0.005299
0.059608 0.291765 0.004706
0.098824 0.278117 0.000000
0.164706 0.278431 0.001412
0.241255 0.280941 0.005490
0.303373 0.279059 0.008470
0.369412 0.274510 0.037647
0.466667 0.290196 0.005647
0.570510 0.300079 0.001412
0.640941 0.291765 0.003608
0.718274 0.280314 0.000000
0.785098 0.276078 0.000000
0.858824 0.261961 0.000314
0.926432 0.255529 0.001883
0.994981 0.243765 0.000628
0.998431 0.232941 0.001883
1.000000 0.201647 0.001553
0.163608 0.367843 0.003451
0.169726 0.357929 0.004392
0.218228 0.358306 0.003828
0.274071 0.360690 0.002636
0.338666 0.359216 0.017224
0.396549 0.355765 0.060236
0.456094 0.352377 0.102369
0.534965 0.363200 0.078243
0.639372 0.378259 0.000879
0.718181 0.369569 0.001600
0.790588 0.362667 0.004706
0.855530 0.358243 0.002416
0.929788 0.351781 0.002510
0.994541 0.340580 0.000753
0.999623 0.333867 0.001004
0.999969 0.318018 0.000030
0.239059 0.445490 0.031843
0.241820 0.432157 0.018918
0.272628 0.434667 0.016471
0.317992 0.434384 0.028863
0.373710 0.434165 0.054557
0.424627 0.431686 0.093177
0.485396 0.429490 0.128000
0.533145 0.425851 0.161914
