example_ofxGpuLutCube/bin/data/ofxGpuLutCube/LUT/A34 (old style so warm_1).cube
LUT_3D_SIZE 6
0.109804 0.070588 0.105882
0.116863 0.075294 0.106667
0.220392 0.085491 0.114509
0.412549 0.058824 0.124706
0.574902 0.072941 0.130980
0.780274 0.125412 0.164706
0.073725 0.129412 0.113725
0.116078 0.141333 0.111216
0.261491 0.148549 0.110745
0.430275 0.143530 0.118432
0.586196 0.148392 0.125334
0.784933 0.189702 0.163835
0.025098 0.300392 0.093334
0.150588 0.311373 0.100863
0.288000 0.302118 0.106666
0.448470 0.292549 0.110588
0.604549 0.284392 0.122196
0.790408 0.314400 0.166964
0.134902 0.417255 0.127843
0.203137 0.425882 0.130823
0.324392 0.425882 0.150118
0.454432 0.418667 0.174902
0.618039 0.432000 0.180706
0.810047 0.463490 0.213263
0.278431 0.569412 0.210980
0.323765 0.578667 0.214745
0.419608 0.585098 0.229804
0.542745 0.584784 0.256941
0.669177 0.589020 0.288628
0.839059 0.632855 0.334816
0.525176 0.799765 0.352784
0.554981 0.806079 0.366823
0.630337 0.808463 0.385679
0.745608 0.812345 0.422510
0.868808 0.820965 0.473474
0.972235 0.839020 0.556432
0.109804 0.073725 0.126275
0.112784 0.075451 0.118588
0.236549 0.078745 0.128314
0.393098 0.103843 0.145726
0.556863 0.115137 0.165176
0.764486 0.152847 0.206141
0.075608 0.131137 0.128313
0.127153 0.142996 0.128878
0.259012 0.155890 0.138447
0.410102 0.156455 0.142180
0.571169 0.168659 0.163576
0.767024 0.202584 0.207279
0.064000 0.289569 0.145569
0.160219 0.301082 0.155514
0.284173 0.297569 0.160596
0.439529 0.287122 0.155765
0.597741 0.289381 0.174024
0.791508 0.316958 0.216239
0.147765 0.414117 0.172078
0.220988 0.428047 0.183780
0.332172 0.427828 0.198149
0.454902 0.417286 0.209224
0.615184 0.432376 0.215341
0.812198 0.462853 0.242180
0.286118 0.571608 0.242196
0.329788 0.579953 0.248753
0.427043 0.589020 0.269992
0.547890 0.586666 0.287624
0.669867 0.589365 0.311310
0.838725 0.636146 0.353671
0.517310 0.803679 0.380204
0.543906 0.803701 0.386150
0.626434 0.809227 0.402232
0.743515 0.813624 0.435845
0.872486 0.820822 0.488165
0.974620 0.841325 0.562776
0.057255 0.077647 0.206275
0.090981 0.079686 0.210980
0.239059 0.073882 0.238745
0.402353 0.081569 0.232941
0.557961 0.134745 0.255216
0.755812 0.194392 0.314353
0.053333 0.132706 0.227137
0.119404 0.144063 0.233726
0.254400 0.149992 0.237992
0.406996 0.164361 0.241945
0.553851 0.202228 0.266165
0.751953 0.234439 0.317407
0.061804 0.272784 0.240785
0.152000 0.285710 0.252643
0.293710 0.297726 0.259326
0.430682 0.291859 0.261271
0.590086 0.303059 0.280690
0.781020 0.320767 0.312168
0.167058 0.402196 0.259137
0.226980 0.416377 0.271969
0.336753 0.421176 0.279373
0.455718 0.413992 0.291294
0.619702 0.432941 0.300047
0.814863 0.459751 0.319972
0.267922 0.559686 0.306980
0.318368 0.574871 0.321977
0.417443 0.584722 0.332926
0.544219 0.585663 0.346980
0.674196 0.589835 0.373333
0.850974 0.635685 0.397453
0.462502 0.799765 0.411624
0.502191 0.804435 0.420231
0.593514 0.808268 0.440612
0.729932 0.821274 0.476028
0.870399 0.825523 0.517870
0.969874 0.848306 0.593287
0.000000 0.075294 0.331764
0.049726 0.074039 0.341490
0.220235 0.076549 0.350432
0.399373 0.082353 0.362196
0.576157 0.098824 0.379137
0.771537 0.147396 0.417914
0.000471 0.134118 0.333333
0.091639 0.141961 0.346635
0.231937 0.149553 0.356235
0.404925 0.158086 0.368314
0.568376 0.169192 0.374369
0.765783 0.210593 0.416839
0.059608 0.253333 0.341647
0.142745 0.264439 0.352533
0.277773 0.276737 0.367027
0.428141 0.290635 0.381804
0.589866 0.300204 0.395796
0.776328 0.319942 0.429578
0.150745 0.385412 0.353726
0.205584 0.388957 0.358055
0.313976 0.401914 0.375624
0.464816 0.420172 0.397522
0.624220 0.424471 0.405961
0.819115 0.444203 0.438201
0.230118 0.540706 0.391216
0.267827 0.548423 0.397051
0.372235 0.562698 0.413208
0.532455 0.587043 0.439184
0.675608 0.592157 0.459985
0.864475 0.640985 0.472593
0.299537 0.791890 0.461098
0.347488 0.798176 0.466273
0.491569 0.806979 0.485994
0.683034 0.819412 0.526929
0.864463 0.830385 0.582976
0.976118 0.855279 0.643514
0.000000 0.072157 0.476863
0.001255 0.071216 0.480627
0.208628 0.074510 0.493804
0.408157 0.070588 0.515608
0.593098 0.081412 0.522980
0.781749 0.103498 0.555984
0.000628 0.131137 0.476706
0.013553 0.137851 0.482886
0.223969 0.143655 0.496345
0.416722 0.150337 0.519027
0.592690 0.159937 0.530510
0.780243 0.172861 0.549625
0.005490 0.244549 0.475608
0.077553 0.247937 0.481286
0.250510 0.260393 0.494682
0.434667 0.274039 0.523357
0.613177 0.286526 0.540298
0.800624 0.287047 0.567012
0.053020 0.371294 0.469490
0.133553 0.373522 0.480784
0.258228 0.380612 0.487341
0.445490 0.397396 0.528094
0.638212 0.416314 0.549553
0.831807 0.427393 0.590315
0.157176 0.516549 0.498039
0.204267 0.524926 0.501584
0.315231 0.534933 0.510870
0.474353 0.553820 0.532173
0.687624 0.594824 0.579890
0.888283 0.619365 0.602938
0.023671 0.766721 0.577083
0.151239 0.772249 0.586828
0.322918 0.788560 0.590284
0.531322 0.810264 0.605365
0.822605 0.837446 0.665227
0.974596 0.875616 0.732212
0.000000 0.051019 0.701726
0.000016 0.047098 0.701702
0.270495 0.011914 0.708792
0.490855 0.000777 0.724486
0.713529 0.000000 0.748008
0.882040 0.000039 0.752784
0.001569 0.114549 0.699396
0.001569 0.113307 0.700638
0.272519 0.104996 0.704869
0.492421 0.091083 0.725564
0.713912 0.088138 0.745817
0.892181 0.109059 0.760517
0.003106 0.225106 0.698596
0.000000 0.228714 0.699125
0.246298 0.229799 0.708988
0.488697 0.236249 0.727150
0.720633 0.248651 0.752085
0.900863 0.258094 0.764518
0.000000 0.373294 0.693875
0.000019 0.365791 0.689975
0.003929 0.347451 0.701850
0.424477 0.358309 0.729964
0.707015 0.381247 0.753365
0.915858 0.410189 0.774784
0.000024 0.572416 0.711082
0.000000 0.570072 0.715746
0.000019 0.560648 0.713482
0.291539 0.536408 0.721939
0.651542 0.543118 0.764850
0.937043 0.617208 0.798188
0.000039 0.830786 0.772118
0.000039 0.837012 0.778228
0.006259 0.832439 0.779883
0.383319 0.842612 0.791662
0.716394 0.852824 0.811326
0.987882 0.975295 0.901217
