example_ofxGpuLutCube/bin/data/ofxGpuLutCube/LUT/A34 (old style so warm_1).cube
LUT_3D_SIZE 16
0.109804 0.070588 0.105882
0.113725 0.074510 0.109804
0.101176 0.066667 0.106667
0.116863 0.075294 0.106667
0.138823 0.081569 0.109020
0.172549 0.082353 0.105882
0.220392 0.085491 0.114509
0.288627 0.072941 0.115294
0.354510 0.058824 0.123137
0.412549 0.058824 0.124706
0.462745 0.058824 0.125490
0.520000 0.065883 0.134117
0.574902 0.072941 0.130980
0.638431 0.083137 0.141176
0.698824 0.094118 0.149804
0.780274 0.125412 0.164706
0.103530 0.070588 0.112156
0.106353 0.076863 0.109333
0.102588 0.072314 0.109647
0.117961 0.076392 0.107765
0.134588 0.082353 0.111372
0.173333 0.083137 0.114509
0.226823 0.085647 0.111529
0.288157 0.078118 0.121569
0.351373 0.075294 0.120314
0.410667 0.078745 0.120314
0.460393 0.080000 0.123138
0.517333 0.082667 0.126745
0.578981 0.090980 0.133176
0.632627 0.098510 0.132235
0.695529 0.109961 0.150588
0.780188 0.130957 0.167749
0.110588 0.079216 0.116078
0.105412 0.078745 0.107764
0.103529 0.087686 0.112941
0.125647 0.087530 0.110745
0.150745 0.092863 0.109647
0.192157 0.098824 0.111372
0.249882 0.105098 0.110745
0.312157 0.104157 0.116392
0.367687 0.108078 0.117647
0.422745 0.106980 0.118745
0.469804 0.109019 0.122353
0.525020 0.112000 0.123137
0.582745 0.114510 0.127059
0.641412 0.121569 0.144941
0.703529 0.134902 0.143529
0.787263 0.159922 0.159961
0.073725 0.129412 0.113725
0.074196 0.133333 0.107294
0.085333 0.137412 0.104157
0.116078 0.141333 0.111216
0.162824 0.143843 0.106039
0.205490 0.142745 0.107451
0.261491 0.148549 0.110745
0.322980 0.145726 0.109333
0.379765 0.146353 0.109647
0.430275 0.143530 0.118432
0.480000 0.141961 0.119216
0.532235 0.145882 0.117647
0.586196 0.148392 0.125334
0.646274 0.156549 0.136470
0.703843 0.164706 0.144314
0.784933 0.189702 0.163835
0.023529 0.194509 0.098823
0.042196 0.204549 0.099451
0.077961 0.204392 0.101961
0.125177 0.204706 0.104471
0.171451 0.202196 0.110431
0.223529 0.206274 0.104314
0.278431 0.203922 0.107137
0.336000 0.200785 0.104471
0.389490 0.198118 0.109804
0.443922 0.190588 0.107451
0.485491 0.189804 0.109804
0.539451 0.189804 0.112470
0.595765 0.191843 0.117333
0.652863 0.197176 0.121569
0.713412 0.208000 0.135843
0.784957 0.221921 0.156808
0.015686 0.243137 0.094118
0.047843 0.261961 0.103529
0.083137 0.254902 0.095686
0.127059 0.252549 0.100392
0.181177 0.250980 0.107451
0.227451 0.250980 0.109804
0.285490 0.250196 0.106666
0.341961 0.249412 0.107451
0.390588 0.244706 0.101176
0.441568 0.240785 0.096471
0.490196 0.235294 0.109804
0.540392 0.239216 0.112941
0.598431 0.238431 0.116863
0.656471 0.240784 0.123922
0.714510 0.247843 0.140392
0.788039 0.262745 0.156785
0.025098 0.300392 0.093334
0.065726 0.312157 0.094902
0.105882 0.312471 0.095529
0.150588 0.311373 0.100863
0.196078 0.304314 0.103216
0.245490 0.302745 0.101961
0.288000 0.302118 0.106666
0.340706 0.296471 0.112000
0.393255 0.293333 0.103530
0.448470 0.292549 0.110588
0.497255 0.287844 0.112941
0.548706 0.285334 0.113882
0.604549 0.284392 0.122196
0.668235 0.290667 0.133961
0.724078 0.296314 0.148706
0.790408 0.314400 0.166964
0.050980 0.338039 0.100392
0.091294 0.354510 0.106823
0.118588 0.351373 0.106039
0.163607 0.353098 0.105568
0.203451 0.351529 0.109960
0.250980 0.348235 0.111372
0.294588 0.344314 0.120784
0.345412 0.338353 0.122196
0.389020 0.336314 0.129568
0.442667 0.335843 0.127843
0.498039 0.332549 0.123137
0.552314 0.332392 0.123765
0.606902 0.334274 0.131765
0.667294 0.338823 0.140392
0.722353 0.343216 0.149647
0.795882 0.356078 0.180314
0.093333 0.373333 0.109804
0.119530 0.391686 0.117020
0.145569 0.389490 0.114196
0.182588 0.391372 0.120000
0.218823 0.387765 0.121569
0.262745 0.386667 0.123922
0.305569 0.384784 0.132235
0.353412 0.383216 0.141176
0.400314 0.380236 0.152157
0.445490 0.379294 0.158431
0.499608 0.381177 0.160000
0.555294 0.384628 0.150118
0.614117 0.385098 0.152157
0.673725 0.392314 0.161569
0.732706 0.397647 0.168313
0.802212 0.410941 0.188973
0.134902 0.417255 0.127843
0.153098 0.431059 0.133176
0.178353 0.423058 0.129726
0.203137 0.425882 0.130823
0.240157 0.428863 0.139608
0.285491 0.426667 0.145882
0.324392 0.425882 0.150118
0.368157 0.423215 0.152941
0.409882 0.421490 0.165490
0.454432 0.418667 0.174902
0.499608 0.421176 0.183530
0.553255 0.425882 0.193411
0.618039 0.432000 0.180706
0.676079 0.439530 0.187921
0.738823 0.448000 0.194666
0.810047 0.463490 0.213263
0.176471 0.462745 0.141176
0.193726 0.473726 0.152941
0.215686 0.470588 0.156863
0.234510 0.469020 0.155294
0.272941 0.474510 0.163922
0.305882 0.474510 0.164706
0.346667 0.471372 0.173333
0.394510 0.474510 0.181961
0.436863 0.474510 0.186667
0.483138 0.475294 0.195294
0.525490 0.474510 0.207843
0.570980 0.470588 0.220392
0.623529 0.480000 0.227451
0.687059 0.490196 0.231373
0.752941 0.505098 0.227451
0.823333 0.521491 0.239177
0.225882 0.515294 0.172549
0.239059 0.513569 0.174745
0.249412 0.516078 0.174902
0.269804 0.516078 0.178510
0.304785 0.520000 0.188863
0.335686 0.523922 0.192941
0.374588 0.521255 0.194980
0.417255 0.524706 0.203137
0.460078 0.520784 0.207843
0.504941 0.523294 0.220392
0.547451 0.523922 0.232157
0.592000 0.521412 0.237490
0.636392 0.526275 0.258039
0.690196 0.536000 0.266667
0.757019 0.556079 0.272941
0.822619 0.574855 0.285404
0.278431 0.569412 0.210980
0.296784 0.572235 0.218823
0.305882 0.573333 0.208628
0.323765 0.578667 0.214745
0.354039 0.576000 0.218353
0.385098 0.585098 0.224314
0.419608 0.585098 0.229804
0.458980 0.583686 0.239059
0.500392 0.585098 0.244235
0.542745 0.584784 0.256941
0.591372 0.587451 0.264314
0.631216 0.590902 0.278118
0.669177 0.589020 0.288628
0.713725 0.591372 0.305098
0.770510 0.603922 0.316235
0.839059 0.632855 0.334816
0.341177 0.633725 0.240785
0.352157 0.634510 0.243922
0.360941 0.638275 0.250196
0.380392 0.639216 0.252079
0.403922 0.640785 0.248471
0.432941 0.644706 0.260392
0.469804 0.647373 0.267137
0.507294 0.650196 0.275922
0.545569 0.649569 0.281569
0.585412 0.648941 0.294118
0.632157 0.652549 0.304314
0.671843 0.654589 0.313255
0.716078 0.656471 0.320784
0.758274 0.658353 0.338196
0.796235 0.662745 0.354353
0.849231 0.685388 0.374808
0.428236 0.714510 0.294902
0.436079 0.722353 0.299608
0.438118 0.719686 0.297725
0.455687 0.720314 0.299765
0.478275 0.724078 0.306667
0.506667 0.722353 0.316078
0.540392 0.729411 0.319216
0.575372 0.730196 0.322353
0.617569 0.734274 0.333333
0.652863 0.732863 0.345412
0.694902 0.734118 0.354510
0.734902 0.737255 0.369412
0.776000 0.737098 0.383059
0.817569 0.743843 0.401098
0.854118 0.745883 0.418823
0.892432 0.753686 0.433710
0.525176 0.799765 0.352784
0.536981 0.803726 0.368392
0.540902 0.803687 0.360627
0.554981 0.806079 0.366823
0.575404 0.803695 0.372392
0.603687 0.807647 0.376353
0.630337 0.808463 0.385679
0.669530 0.813122 0.399765
0.706353 0.813874 0.411491
0.745608 0.812345 0.422510
0.791804 0.815490 0.438981
0.832589 0.819412 0.455451
0.868808 0.820965 0.473474
0.910274 0.825663 0.495396
0.943286 0.831169 0.524306
0.972235 0.839020 0.556432
0.113725 0.072941 0.109020
0.107137 0.071372 0.107608
0.110118 0.070902 0.113411
0.114196 0.074039 0.107921
0.138980 0.079215 0.115451
0.172549 0.088627 0.110588
0.231216 0.082353 0.114980
0.286431 0.074196 0.119530
0.349804 0.074667 0.122196
0.401726 0.076078 0.124863
0.452549 0.076079 0.122353
0.504314 0.079215 0.129882
0.563137 0.082510 0.129883
0.626667 0.091608 0.133647
0.684392 0.098039 0.141804
0.769215 0.119945 0.166204
0.113411 0.074196 0.109804
0.102651 0.071843 0.111027
0.105286 0.073223 0.110902
0.118243 0.077051 0.109678
0.137819 0.079874 0.115890
0.176785 0.086275 0.116078
0.227137 0.086808 0.115137
0.287498 0.088314 0.114541
0.343247 0.087844 0.119969
0.403451 0.091514 0.118149
0.451608 0.088471 0.125333
0.507451 0.094808 0.124016
0.563388 0.098415 0.132674
0.623404 0.102212 0.138855
0.683106 0.110714 0.145851
0.765724 0.134822 0.164445
0.107451 0.078118 0.109804
0.105412 0.080408 0.108957
0.101114 0.082824 0.108392
0.125051 0.087875 0.108956
0.152847 0.098133 0.106917
0.198431 0.106667 0.112157
0.253114 0.116172 0.114949
0.308235 0.113224 0.117490
0.361067 0.117364 0.116863
0.413678 0.112439 0.117553
0.466667 0.116863 0.120000
0.517961 0.116863 0.125333
0.574463 0.122667 0.125271
0.634071 0.126024 0.141459
0.698353 0.137286 0.144031
0.773476 0.158066 0.162623
0.076706 0.130196 0.107921
0.077804 0.137474 0.103278
0.089882 0.138855 0.105129
0.116549 0.140769 0.110149
0.160251 0.145694 0.103090
0.205333 0.149490 0.109804
0.262118 0.152313 0.109804
0.317804 0.149961 0.109176
0.370980 0.146196 0.115451
0.425349 0.144784 0.111937
0.471216 0.145726 0.116863
0.522792 0.149678 0.122353
0.578667 0.154102 0.122228
0.635012 0.157616 0.130196
0.695153 0.165019 0.143027
0.770000 0.185830 0.161010
0.043451 0.193255 0.102588
0.064345 0.202541 0.104659
0.092424 0.201883 0.104878
0.131043 0.202541 0.105537
0.172078 0.201036 0.109490
0.221020 0.202196 0.107294
0.277145 0.203576 0.106635
0.330447 0.198651 0.107294
0.381867 0.195294 0.106666
0.436738 0.193882 0.111843
0.483608 0.191373 0.109961
0.531137 0.188078 0.114227
0.588486 0.192659 0.120879
0.646839 0.199969 0.128565
0.707796 0.207875 0.144031
0.783360 0.228924 0.164675
0.027451 0.242353 0.091765
0.060549 0.257569 0.099451
0.093333 0.256000 0.099137
0.136941 0.253019 0.102432
0.180549 0.249568 0.107608
0.224313 0.247843 0.106666
0.280000 0.247059 0.106039
0.335529 0.245176 0.111372
0.385412 0.242666 0.100549
0.432314 0.239373 0.109176
0.485491 0.238432 0.116863
0.533804 0.235294 0.114509
0.593882 0.237490 0.124079
0.646118 0.239216 0.128784
0.710588 0.250196 0.147451
0.777091 0.259600 0.163051
0.036235 0.299608 0.099608
0.076110 0.312533 0.105788
0.108988 0.312878 0.108549
0.151780 0.309082 0.106227
0.194698 0.300863 0.111216
0.245647 0.298980 0.116549
0.288628 0.299576 0.120377
0.336220 0.297726 0.121224
0.395138 0.295561 0.117867
0.443388 0.288000 0.119310
0.494118 0.287843 0.121098
0.543561 0.282070 0.116455
0.601600 0.287404 0.132486
0.661616 0.291075 0.140078
0.722980 0.296941 0.156235
0.786819 0.314445 0.171567
0.063216 0.340078 0.109490
0.098385 0.355639 0.115890
0.125585 0.352283 0.117773
0.166839 0.350965 0.117208
0.205804 0.349804 0.124706
0.251608 0.344941 0.122510
0.295373 0.343278 0.132173
0.344282 0.338008 0.134086
0.386510 0.334118 0.135059
0.437804 0.334682 0.139859
0.495216 0.335529 0.132863
0.546604 0.330949 0.134055
0.606181 0.334118 0.141521
0.657726 0.334588 0.146573
0.722165 0.343404 0.162510
0.792792 0.357608 0.185057
0.103843 0.376000 0.124235
0.129694 0.396016 0.128879
0.153506 0.395922 0.129223
0.186416 0.394572 0.131075
0.224063 0.390431 0.132706
0.267138 0.389490 0.139294
0.312816 0.387482 0.145412
0.355451 0.384627 0.151874
0.398902 0.381365 0.161004
0.446933 0.377380 0.166902
0.497725 0.378980 0.164706
0.550463 0.386824 0.159372
0.612298 0.387012 0.161537
0.673788 0.390212 0.168627
0.736376 0.396863 0.178635
0.802068 0.410767 0.197308
0.139451 0.420392 0.136471
0.166557 0.432314 0.147483
0.184502 0.433067 0.147608
0.210008 0.430808 0.146729
0.249631 0.430808 0.148518
0.288157 0.429961 0.155451
0.322133 0.430620 0.160784
0.368879 0.425757 0.165710
0.410133 0.421929 0.174463
0.456189 0.418384 0.178981
0.496157 0.418039 0.187608
0.552628 0.422713 0.199372
0.613082 0.431749 0.187169
0.676957 0.440533 0.194321
0.739294 0.448470 0.202353
0.808154 0.461628 0.215172
0.185883 0.461961 0.156863
0.208000 0.478274 0.164706
0.223058 0.475294 0.166902
0.243922 0.476078 0.172549
0.278117 0.478431 0.176314
0.311373 0.476079 0.178040
0.356706 0.479059 0.182588
0.398431 0.476863 0.193725
0.435608 0.477647 0.194823
0.481726 0.473098 0.203294
0.521569 0.469804 0.205491
0.568000 0.470118 0.226824
0.623686 0.476863 0.233412
0.685961 0.488157 0.236078
0.753726 0.503216 0.236706
0.823341 0.521553 0.246996
0.227294 0.509961 0.179138
0.241820 0.520031 0.184973
0.262494 0.518306 0.186918
0.281506 0.522761 0.190431
0.310557 0.522604 0.193820
0.340235 0.525334 0.205334
0.381083 0.526463 0.203482
0.419733 0.523043 0.212079
0.458886 0.521631 0.215278
0.503592 0.522792 0.223090
0.547137 0.520784 0.236863
0.592753 0.524047 0.247341
0.636392 0.526275 0.264314
0.689600 0.533521 0.272345
0.756518 0.553380 0.278870
0.822963 0.578621 0.277660
0.282196 0.575686 0.216627
0.300423 0.577255 0.223153
0.311278 0.574808 0.219294
0.329569 0.577882 0.225098
0.357333 0.579294 0.226353
0.389490 0.587137 0.233412
0.425098 0.590808 0.240973
0.463247 0.591529 0.248031
0.503184 0.590714 0.251733
0.544628 0.586918 0.261177
0.585882 0.586666 0.268235
0.627671 0.585569 0.277835
0.670871 0.588925 0.292424
0.714886 0.590400 0.304063
0.772016 0.605616 0.320878
0.835042 0.632549 0.334872
0.345882 0.636549 0.250510
0.351059 0.635608 0.251608
0.362039 0.637114 0.250447
0.381333 0.640785 0.257286
0.404737 0.644486 0.259074
0.432941 0.649412 0.265882
0.473600 0.650792 0.272283
0.507608 0.649569 0.278965
0.545757 0.648188 0.287278
0.588455 0.652236 0.299420
0.633726 0.654745 0.307137
0.671592 0.653083 0.316957
0.713725 0.656188 0.328094
0.756800 0.658761 0.345976
0.796455 0.662902 0.357490
0.848009 0.682132 0.380031
0.429647 0.717804 0.299137
0.440031 0.725992 0.308110
0.446023 0.726965 0.306259
0.460549 0.723043 0.308078
0.479216 0.725522 0.314541
0.509333 0.726275 0.319373
0.543373 0.730321 0.327811
0.576659 0.731765 0.333553
0.613584 0.733333 0.340016
0.650980 0.730980 0.344784
0.692235 0.733804 0.357804
0.735027 0.737380 0.370165
0.778980 0.739702 0.387671
0.816816 0.741521 0.403796
0.853867 0.746635 0.419106
0.894165 0.755418 0.435446
0.526769 0.799804 0.371537
0.530510 0.804788 0.365805
0.538566 0.798438 0.366541
0.555810 0.806831 0.375459
0.577920 0.806210 0.375169
0.602879 0.807616 0.377875
0.632822 0.807809 0.394751
0.669530 0.811569 0.401334
0.705139 0.811728 0.409073
0.745026 0.811763 0.421936
0.791090 0.818565 0.442086
0.832636 0.819381 0.455451
0.876530 0.821172 0.476282
0.908419 0.823807 0.494472
0.942805 0.831960 0.524543
0.976079 0.842862 0.560275
0.108235 0.069020 0.104314
0.107608 0.074510 0.107765
0.109804 0.070588 0.112470
0.117019 0.076863 0.111216
0.140392 0.083137 0.110588
0.174118 0.083922 0.110588
0.230588 0.085177 0.115294
0.290981 0.087843 0.114039
0.348549 0.090196 0.123922
0.403137 0.090510 0.120941
0.454902 0.093333 0.126275
0.505412 0.091765 0.131294
0.560627 0.096157 0.135843
0.626196 0.103843 0.148235
0.686745 0.112627 0.157490
0.768423 0.136431 0.185780
0.111372 0.072157 0.107451
0.105412 0.075608 0.107765
0.104094 0.073443 0.105882
0.118494 0.076800 0.108172
0.140737 0.083483 0.111874
0.182118 0.087216 0.110745
0.226479 0.097851 0.116674
0.289976 0.099577 0.115137
0.347702 0.100078 0.120220
0.400690 0.102149 0.123137
0.454902 0.102117 0.126588
0.505631 0.104408 0.123671
0.563984 0.109490 0.137192
0.621741 0.113788 0.143372
0.685647 0.121725 0.157584
0.764332 0.143124 0.182765
0.102588 0.076863 0.109647
0.103843 0.079059 0.107451
0.108173 0.085553 0.109333
0.126808 0.094526 0.110274
0.154071 0.104063 0.112471
0.202981 0.114824 0.117020
0.250855 0.120690 0.115827
0.309333 0.121976 0.116455
0.359623 0.125490 0.119812
0.415184 0.125396 0.123953
0.463216 0.121725 0.127059
0.516266 0.126714 0.129506
0.571137 0.129192 0.134839
0.631247 0.136659 0.153631
0.696000 0.145631 0.162478
0.772358 0.167298 0.181396
0.073725 0.132549 0.110588
0.082478 0.136345 0.109647
0.098604 0.138604 0.111937
0.125176 0.139890 0.114949
0.161569 0.147796 0.110306
0.210824 0.151216 0.114666
0.262651 0.153286 0.113976
0.316298 0.154792 0.114133
0.369098 0.154667 0.122635
0.419012 0.153538 0.122039
0.464941 0.152785 0.122510
0.519059 0.156329 0.131482
0.575467 0.158745 0.140486
0.632063 0.163263 0.148329
0.692769 0.171075 0.158494
0.770444 0.190223 0.177981
0.058824 0.194509 0.113725
0.072565 0.200157 0.114667
0.099984 0.199843 0.115388
0.135216 0.201255 0.118808
0.177412 0.197490 0.120157
0.224314 0.200314 0.120157
0.277271 0.201569 0.117490
0.330165 0.199059 0.118149
0.379075 0.195764 0.120314
0.430651 0.193004 0.121537
0.474510 0.194509 0.126274
0.529349 0.192753 0.127435
0.586164 0.197239 0.138259
0.643325 0.204267 0.144596
0.706071 0.212957 0.160063
0.780521 0.232847 0.182982
0.043137 0.243137 0.113725
0.068549 0.250196 0.109019
0.102117 0.254274 0.119530
0.140392 0.250353 0.121255
0.184470 0.248000 0.124392
0.227451 0.247059 0.121569
0.280157 0.247059 0.124079
0.331764 0.243137 0.125020
0.379608 0.242196 0.119216
0.430902 0.237020 0.116078
0.476863 0.237647 0.127843
0.534902 0.237961 0.129412
0.587608 0.238902 0.138353
0.647686 0.242039 0.148079
0.711216 0.252235 0.159373
0.782565 0.268141 0.184196
0.047372 0.292706 0.116392
0.083137 0.306886 0.127278
0.110117 0.309521 0.124706
0.154510 0.306259 0.129914
0.195137 0.304000 0.133176
0.240000 0.300392 0.133490
0.288879 0.296314 0.139388
0.340235 0.292831 0.141866
0.394102 0.296126 0.132235
0.438776 0.289538 0.131765
0.489412 0.281568 0.130510
0.540863 0.283200 0.136376
0.598620 0.287498 0.146886
0.661051 0.294243 0.161568
0.718463 0.296471 0.172141
0.791840 0.315250 0.191917
0.069176 0.337882 0.126118
0.101427 0.352690 0.136690
0.130541 0.351122 0.135247
0.168941 0.348392 0.138541
0.206588 0.347796 0.138353
0.252549 0.343373 0.142275
0.294714 0.341773 0.146416
0.342055 0.336659 0.148361
0.388863 0.333302 0.153663
0.437459 0.331922 0.151341
0.493177 0.330510 0.148706
0.544753 0.333427 0.148894
0.602667 0.332800 0.159969
0.659545 0.337412 0.161349
0.720596 0.345913 0.177475
0.791045 0.356667 0.200107
0.106353 0.379608 0.138353
0.135090 0.392910 0.147953
0.158118 0.389898 0.148518
0.193161 0.392125 0.149271
0.229145 0.389835 0.151373
0.271373 0.386510 0.156235
0.313380 0.388047 0.162290
0.357396 0.385098 0.164769
0.397647 0.380236 0.172894
0.445679 0.374620 0.177914
0.498039 0.378196 0.173020
0.550777 0.384784 0.177192
0.612173 0.385506 0.175435
0.673882 0.390870 0.183310
0.733051 0.398965 0.187231
0.806086 0.410918 0.216388
0.143059 0.416471 0.148235
0.169098 0.428643 0.156329
0.188047 0.431216 0.159372
0.215749 0.429302 0.162510
0.252016 0.429898 0.163827
0.290824 0.430588 0.172078
0.327561 0.426761 0.172894
0.370196 0.425098 0.180706
0.410259 0.420957 0.190055
0.454557 0.418353 0.192659
0.497568 0.419608 0.205491
0.551843 0.425757 0.210541
0.616188 0.433851 0.200408
0.676580 0.440627 0.206463
0.738290 0.448721 0.212831
0.806753 0.461283 0.224739
0.188235 0.465098 0.171765
0.210667 0.473725 0.176471
0.224157 0.475137 0.178981
0.247215 0.478745 0.182902
0.277176 0.476706 0.185882
0.311372 0.480784 0.191372
0.359686 0.480000 0.199059
0.397647 0.479843 0.203137
0.437020 0.477804 0.207843
0.483138 0.473255 0.215059
0.523922 0.469020 0.225098
0.568157 0.470117 0.235765
0.624000 0.481569 0.242196
0.685490 0.492078 0.240628
0.752471 0.501961 0.246431
0.824886 0.521530 0.257969
0.229804 0.509019 0.196235
0.248157 0.520627 0.202290
0.263937 0.521726 0.207059
0.278745 0.519937 0.204047
0.310808 0.521945 0.202070
0.346510 0.525177 0.213334
0.381553 0.525710 0.218259
0.418981 0.523451 0.223874
0.461616 0.522981 0.230557
0.504847 0.524926 0.234447
0.551059 0.524079 0.247059
0.592721 0.522981 0.255529
0.635106 0.524141 0.269396
0.693522 0.536439 0.283482
0.756235 0.550275 0.285208
0.826351 0.577021 0.290151
0.285020 0.572392 0.225255
0.300831 0.575341 0.227263
0.313725 0.577255 0.231529
0.330604 0.578196 0.235420
0.359247 0.582682 0.236173
0.389020 0.587922 0.243922
0.426761 0.589333 0.251733
0.463435 0.590808 0.257192
0.505255 0.589490 0.267043
0.546698 0.588141 0.276235
0.587451 0.584314 0.277647
0.629396 0.585161 0.291733
0.669239 0.590400 0.299514
0.712784 0.592157 0.314729
0.770667 0.604235 0.325616
0.838719 0.634464 0.340183
0.343687 0.634510 0.257255
0.354792 0.635106 0.259263
0.363827 0.638902 0.259608
0.382086 0.641349 0.263718
0.407843 0.643890 0.268267
0.435922 0.647686 0.276235
0.472596 0.651922 0.282447
0.505977 0.650384 0.288878
0.546384 0.651828 0.293773
0.587765 0.654369 0.302557
0.632000 0.655529 0.315451
0.672596 0.652078 0.327059
0.714008 0.658165 0.335529
0.757490 0.659577 0.344345
0.795263 0.661490 0.366870
0.846442 0.682908 0.386911
0.421333 0.714039 0.304313
0.436675 0.724173 0.314761
0.443734 0.722353 0.311937
0.458228 0.723106 0.314666
0.480722 0.723482 0.318243
0.504314 0.727059 0.324706
0.542619 0.729820 0.331357
0.578667 0.732769 0.337129
0.610572 0.730510 0.342902
0.651232 0.731576 0.352878
0.694902 0.734588 0.362980
0.733396 0.735498 0.372455
0.779639 0.738541 0.391404
0.814306 0.742777 0.404486
0.854933 0.747169 0.425757
0.894761 0.756008 0.439186
0.517396 0.799788 0.368494
0.529588 0.800293 0.372828
0.538378 0.805084 0.375769
0.551090 0.805274 0.373970
0.571005 0.803898 0.379942
0.598196 0.806086 0.382620
0.628135 0.810011 0.395124
0.666257 0.812501 0.407327
0.705445 0.810631 0.417933
0.745410 0.815161 0.428781
0.791804 0.819373 0.446761
0.828908 0.816612 0.458444
0.871097 0.820839 0.480827
0.910299 0.823349 0.507876
0.943741 0.830694 0.530598
0.976110 0.842893 0.560306
0.109804 0.073725 0.126275
0.101490 0.071059 0.121569
0.104941 0.073569 0.122666
0.112784 0.075451 0.118588
0.146196 0.076549 0.124078
0.184314 0.082353 0.122353
0.236549 0.078745 0.128314
0.288627 0.086902 0.132706
0.342745 0.100392 0.140078
0.393098 0.103843 0.145726
0.447059 0.108235 0.148235
0.499765 0.112627 0.157490
0.556863 0.115137 0.165176
0.619294 0.117647 0.168000
0.681098 0.132078 0.181333
0.764486 0.152847 0.206141
0.104471 0.072471 0.120313
0.101741 0.072565 0.119122
0.102651 0.075608 0.126682
0.120283 0.075357 0.123608
0.147420 0.077835 0.122259
0.188549 0.081569 0.124078
0.232847 0.095592 0.130071
0.288031 0.102902 0.134808
0.341679 0.111906 0.141145
0.393286 0.115106 0.144314
0.448157 0.119216 0.150588
0.500361 0.122792 0.155890
0.557239 0.127028 0.160157
0.616533 0.129694 0.169726
0.675231 0.137443 0.181898
0.756383 0.157246 0.204149
0.099765 0.080941 0.125176
0.100016 0.082196 0.121914
0.106918 0.087529 0.121381
0.126431 0.099576 0.127341
0.155796 0.109521 0.133929
0.198588 0.118431 0.133333
0.246557 0.126212 0.142306
0.296628 0.129067 0.138729
0.355796 0.133396 0.142055
0.404957 0.133020 0.143310
0.456941 0.137255 0.153569
0.510620 0.139451 0.157239
0.565302 0.145475 0.162227
0.625851 0.148737 0.175718
0.689098 0.157208 0.188423
0.769062 0.180295 0.209674
0.075608 0.131137 0.128313
0.082729 0.137725 0.127090
0.097725 0.140078 0.127090
0.127153 0.142996 0.128878
0.164831 0.149427 0.130604
0.209255 0.155137 0.133177
0.259012 0.155890 0.138447
0.312627 0.158055 0.138666
0.359906 0.157459 0.143906
0.410102 0.156455 0.142180
0.459922 0.163921 0.149647
0.512722 0.164831 0.156957
0.571169 0.168659 0.163576
0.627796 0.171576 0.171765
0.686494 0.181835 0.186635
0.767024 0.202584 0.207279
0.061177 0.192941 0.137255
0.074039 0.197647 0.138039
0.098949 0.199969 0.135812
0.134651 0.200408 0.137098
0.173365 0.198777 0.136031
0.223215 0.198431 0.140863
0.276204 0.199279 0.140235
0.331200 0.198431 0.141521
0.377129 0.197678 0.142651
0.425757 0.196800 0.147702
0.471373 0.197490 0.147608
0.528094 0.200784 0.156141
0.580486 0.203796 0.163043
0.643514 0.212361 0.174745
0.701741 0.218071 0.185129
0.775978 0.234771 0.206392
0.049412 0.237647 0.135686
0.071843 0.248470 0.140078
0.104627 0.248627 0.142588
0.142745 0.249098 0.145412
0.184627 0.248941 0.146981
0.229020 0.244706 0.151373
0.277647 0.247530 0.141961
0.332392 0.245490 0.146510
0.378824 0.239843 0.142274
0.432157 0.239216 0.145726
0.478431 0.239216 0.156863
0.534431 0.239059 0.156549
0.587765 0.243137 0.165490
0.645961 0.249882 0.176157
0.709647 0.253333 0.184627
0.779459 0.266667 0.205483
0.064000 0.289569 0.145569
0.085804 0.304502 0.150149
0.118620 0.303404 0.153569
0.160219 0.301082 0.155514
0.201349 0.300110 0.153977
0.246275 0.294588 0.156235
0.284173 0.297569 0.160596
0.336219 0.293051 0.161224
0.394322 0.291232 0.157459
0.439529 0.287122 0.155765
0.490196 0.284706 0.157804
0.543278 0.285961 0.161349
0.597741 0.289381 0.174024
0.658510 0.295498 0.183279
0.719875 0.301835 0.195670
0.791508 0.316958 0.216239
0.081255 0.330196 0.151843
0.113757 0.346196 0.160188
0.140423 0.347294 0.161192
0.173898 0.343655 0.162886
0.212016 0.345537 0.164518
0.255843 0.342275 0.168000
0.297161 0.340580 0.173082
0.342400 0.333929 0.174714
