example_ofxGpuLutCube/bin/data/ofxGpuLutCube/LUT/A35 (old style soft peach fade).cube
LUT_3D_SIZE 6
0.133333 0.094118 0.125490
0.372549 0.113725 0.156863
0.563137 0.097255 0.151372
0.727059 0.116078 0.167843
0.871373 0.140392 0.188235
0.988196 0.164667 0.207804
0.277647 0.254118 0.194510
0.387922 0.245176 0.166588
0.549804 0.259608 0.159216
0.717177 0.242353 0.173333
0.862118 0.240941 0.189334
0.983467 0.246251 0.203192
0.397647 0.378824 0.250980
0.453961 0.390117 0.233412
0.567530 0.358432 0.192157
0.709020 0.387138 0.183373
0.847059 0.392157 0.187294
0.971663 0.381937 0.209381
0.489412 0.506667 0.298039
0.519373 0.509804 0.287843
0.613177 0.513568 0.253961
0.727059 0.473569 0.208157
0.852078 0.498510 0.197647
0.956039 0.523137 0.192157
0.591372 0.641568 0.338823
0.613804 0.646274 0.334745
0.671687 0.654431 0.309961
0.783059 0.656784 0.263687
0.873569 0.595608 0.210666
0.968533 0.603137 0.209373
0.694040 0.788157 0.443137
0.709726 0.788157 0.439138
0.745804 0.788933 0.412455
0.821114 0.800620 0.370078
0.936431 0.796722 0.275255
0.996156 0.713607 0.149293
0.197647 0.135686 0.272157
0.347294 0.131765 0.267451
0.531608 0.154353 0.266510
0.698353 0.184157 0.271216
0.853490 0.197490 0.271529
0.979475 0.210157 0.276870
0.297255 0.256941 0.270745
0.379231 0.255686 0.265882
0.532267 0.266730 0.268141
0.692957 0.266918 0.266855
0.847529 0.266259 0.270996
0.974818 0.268984 0.277624
0.405491 0.378353 0.304784
0.446933 0.383686 0.292926
0.552627 0.364078 0.273067
0.695561 0.398306 0.261302
0.841098 0.399937 0.260204
0.966499 0.385619 0.270441
0.498667 0.499137 0.332235
0.525553 0.505067 0.323545
0.603922 0.510588 0.298604
0.722604 0.476831 0.269678
0.843263 0.505506 0.255498
0.951907 0.525606 0.247051
0.596236 0.644392 0.367686
0.614933 0.651389 0.361537
0.676361 0.652424 0.346855
0.781773 0.657223 0.301208
0.870243 0.596675 0.259577
0.963556 0.612673 0.252867
0.701843 0.788117 0.466549
0.711758 0.789079 0.466532
0.744277 0.792803 0.440709
0.814870 0.795982 0.397470
0.934958 0.795285 0.307520
1.000000 0.712062 0.208015
0.250980 0.156863 0.384314
0.356863 0.162823 0.382274
0.520000 0.180549 0.374745
0.678902 0.200157 0.374274
0.832941 0.216470 0.368941
0.966925 0.247804 0.381890
0.328941 0.273412 0.368000
0.394510 0.271969 0.367404
0.514823 0.273506 0.370447
0.674917 0.275294 0.363420
0.830714 0.284580 0.370133
0.963183 0.291594 0.372564
0.419765 0.384000 0.373490
0.447906 0.387419 0.376879
0.538196 0.386384 0.364016
0.676016 0.400063 0.361223
0.828141 0.402353 0.361035
0.957443 0.392646 0.370190
0.508392 0.494588 0.389647
0.529851 0.501271 0.391153
0.597866 0.504157 0.373992
0.710933 0.488283 0.356424
0.828831 0.517365 0.353882
0.950972 0.525641 0.345529
0.595294 0.642353 0.420392
0.609475 0.646023 0.423059
0.665945 0.649443 0.407184
0.767278 0.655686 0.374118
0.861961 0.603608 0.343968
0.960902 0.622220 0.337418
0.694816 0.785012 0.502659
0.705821 0.792024 0.509707
0.739390 0.792046 0.500620
0.806227 0.799713 0.461059
0.927001 0.802968 0.385327
1.000000 0.725349 0.303631
0.323137 0.199216 0.484706
0.384157 0.205177 0.485334
0.519059 0.204549 0.479843
0.668235 0.218196 0.472314
0.829961 0.234510 0.477490
0.955231 0.270549 0.477600
0.382275 0.294588 0.474824
0.423718 0.293365 0.471404
0.520031 0.289475 0.463655
0.667514 0.286808 0.465506
0.824219 0.292236 0.468016
0.949385 0.314794 0.476179
0.436392 0.397490 0.455687
0.467482 0.401412 0.456533
0.546918 0.398274 0.454463
0.679341 0.392220 0.461271
0.821741 0.398023 0.460016
0.945040 0.408640 0.476695
0.506196 0.507451 0.454745
0.537600 0.508235 0.462651
0.587012 0.511498 0.457726
0.699671 0.510243 0.450792
0.819576 0.519373 0.444016
0.948755 0.511931 0.447630
0.603451 0.644235 0.501490
0.615969 0.649788 0.499169
0.647153 0.648157 0.493835
0.736596 0.655247 0.465600
0.848345 0.618792 0.446494
0.957191 0.641674 0.452648
0.685381 0.795153 0.567019
0.687820 0.795176 0.564651
0.726202 0.794418 0.566205
0.789092 0.796150 0.557707
0.899223 0.808949 0.496864
0.999913 0.744102 0.429827
0.394510 0.244706 0.620392
0.446118 0.246745 0.620549
0.559530 0.240784 0.611922
0.703059 0.230902 0.606118
0.841412 0.240628 0.589020
0.952831 0.284643 0.575608
0.429020 0.319216 0.613176
0.468863 0.316455 0.609945
0.566839 0.308580 0.608722
0.702431 0.292549 0.595294
0.832032 0.295373 0.580612
0.947980 0.327801 0.574900
0.459922 0.425411 0.591530
0.493333 0.423435 0.590902
0.579137 0.416784 0.591498
0.699200 0.402322 0.585412
0.829176 0.407686 0.574651
0.944809 0.424427 0.578610
0.491451 0.542902 0.565647
0.518494 0.544973 0.573365
0.590306 0.542620 0.575718
0.694181 0.530039 0.577349
0.812863 0.527341 0.570541
0.928690 0.549776 0.595283
0.591059 0.653647 0.562824
0.606871 0.656502 0.569412
0.657349 0.656439 0.582275
0.722604 0.659671 0.591906
0.819200 0.656063 0.574243
0.932284 0.669476 0.591476
0.696329 0.793584 0.650839
0.708009 0.797374 0.651553
0.745034 0.797514 0.668017
0.775460 0.803944 0.663964
0.853890 0.810041 0.639247
0.972353 0.785749 0.606980
0.466549 0.313607 0.780196
0.501906 0.309702 0.772431
0.590651 0.297184 0.770871
0.727036 0.275255 0.764588
0.875294 0.253255 0.760635
0.988235 0.278469 0.721569
0.472910 0.361506 0.767749
0.511488 0.359937 0.769120
0.596852 0.347407 0.763013
0.724687 0.324679 0.759850
0.869942 0.299738 0.752954
0.988125 0.322329 0.718336
0.505090 0.464345 0.759914
0.530008 0.464449 0.758434
0.603588 0.455804 0.757981
0.722638 0.440714 0.759959
0.867412 0.416889 0.757172
0.976361 0.439930 0.722259
0.485608 0.574094 0.742627
0.521451 0.574923 0.746847
0.597606 0.571751 0.746493
0.706345 0.567007 0.748253
0.840447 0.545067 0.744149
0.953569 0.567019 0.728517
0.545106 0.726196 0.743286
0.566318 0.722284 0.742991
0.622298 0.717879 0.743659
0.705390 0.703498 0.748816
0.811407 0.685762 0.753172
0.930118 0.698753 0.756698
0.670627 0.827216 0.725488
0.686142 0.823325 0.729270
0.713663 0.823333 0.737144
0.767027 0.827208 0.752753
0.831295 0.831154 0.791759
0.902077 0.862431 0.866117
