example_ofxGpuLutCube/bin/data/ofxGpuLutCube/LUT/A35 (old style soft peach fade).cube
LUT_3D_SIZE 16
0.133333 0.094118 0.125490
0.220392 0.109804 0.138824
0.296470 0.109804 0.152941
0.372549 0.113725 0.156863
0.440784 0.106666 0.158432
0.509804 0.098039 0.152941
0.563137 0.097255 0.151372
0.621961 0.098039 0.152941
0.672157 0.108235 0.160784
0.727059 0.116078 0.167843
0.776471 0.125490 0.172549
0.824313 0.132549 0.182745
0.871373 0.140392 0.188235
0.914510 0.149020 0.189804
0.954510 0.156863 0.199216
0.988196 0.164667 0.207804
0.187451 0.154510 0.146667
0.239216 0.154510 0.148236
0.303059 0.164235 0.144000
0.379137 0.160941 0.156392
0.441569 0.155451 0.156863
0.503530 0.144313 0.153725
0.556863 0.139608 0.145882
0.617412 0.140549 0.159529
0.666981 0.145412 0.166588
0.726432 0.146823 0.170666
0.774902 0.153725 0.172549
0.820549 0.158432 0.183059
0.867922 0.164235 0.184784
0.908863 0.168627 0.191843
0.944157 0.174745 0.199372
0.985083 0.181176 0.207067
0.232941 0.210196 0.177255
0.274039 0.210667 0.173961
0.319372 0.202353 0.154510
0.387451 0.208628 0.155294
0.443921 0.214902 0.157647
0.504314 0.206274 0.154510
0.561412 0.196392 0.160470
0.614117 0.192000 0.163137
0.669177 0.190588 0.171137
0.723294 0.192470 0.174118
0.776471 0.192941 0.179608
0.820078 0.197647 0.182432
0.865098 0.195294 0.190274
0.908078 0.201569 0.192941
0.944000 0.203922 0.200000
0.984212 0.212510 0.211726
0.277647 0.254118 0.194510
0.303529 0.257568 0.190275
0.348079 0.262275 0.182431
0.387922 0.245176 0.166588
0.450196 0.250824 0.163451
0.499608 0.256471 0.156078
0.549804 0.259608 0.159216
0.612549 0.247686 0.164235
0.661961 0.246274 0.169412
0.717177 0.242353 0.173333
0.767843 0.241569 0.174902
0.820078 0.242039 0.180549
0.862118 0.240941 0.189334
0.899451 0.246274 0.190431
0.944784 0.243922 0.200784
0.983467 0.246251 0.203192
0.323921 0.308235 0.210196
0.338823 0.311372 0.208157
0.367059 0.306510 0.196392
0.409098 0.304941 0.188235
0.456628 0.285334 0.173804
0.509020 0.285491 0.171765
0.555294 0.297882 0.169725
0.605961 0.307922 0.167686
0.658039 0.304941 0.170196
0.711529 0.300392 0.177255
0.761568 0.296470 0.179608
0.812235 0.297412 0.188549
0.854588 0.291765 0.185882
0.901176 0.290510 0.199843
0.940235 0.286745 0.196706
0.980314 0.284706 0.206259
0.356863 0.341176 0.227451
0.369411 0.349020 0.223529
0.392941 0.349020 0.213333
0.429020 0.349020 0.205490
0.469804 0.346667 0.192941
0.509804 0.321569 0.180392
0.563137 0.326274 0.181176
0.612549 0.337255 0.182745
0.652549 0.349020 0.181961
0.708235 0.352941 0.177255
0.752941 0.349020 0.180392
0.809412 0.345882 0.187451
0.855686 0.345098 0.189804
0.898824 0.337255 0.198431
0.939607 0.336471 0.203138
0.976432 0.329451 0.203922
0.397647 0.378824 0.250980
0.405647 0.389804 0.244549
0.419608 0.385098 0.241569
0.453961 0.390117 0.233412
0.486902 0.393569 0.221333
0.522353 0.379608 0.202353
0.567530 0.358432 0.192157
0.612863 0.365176 0.187451
0.658510 0.374902 0.189804
0.709020 0.387138 0.183373
0.757647 0.400784 0.183530
0.804706 0.398745 0.180549
0.847059 0.392157 0.187294
0.892863 0.389333 0.195294
0.931764 0.383686 0.200000
0.971663 0.381937 0.209381
0.430588 0.422745 0.266667
0.440784 0.424941 0.265569
0.452706 0.425255 0.259294
0.473255 0.429176 0.252549
0.501804 0.425569 0.240157
0.545098 0.432157 0.223529
0.570039 0.415216 0.212392
0.617412 0.395608 0.196235
0.669804 0.403451 0.198588
0.713412 0.418510 0.191059
0.760784 0.431373 0.192941
0.805334 0.439529 0.190118
0.843922 0.443608 0.189176
0.890510 0.438588 0.197961
0.925176 0.435294 0.199373
0.966957 0.426627 0.201577
0.460392 0.459608 0.282353
0.467921 0.464000 0.278902
0.478275 0.464471 0.276863
0.493961 0.466823 0.266667
0.520941 0.466196 0.260392
0.555294 0.469804 0.250980
0.593412 0.472628 0.229334
0.622745 0.447059 0.218039
0.675137 0.435451 0.206275
0.721882 0.448941 0.200314
0.765490 0.455686 0.196863
0.803608 0.467451 0.191216
0.843922 0.476235 0.193098
0.883765 0.486118 0.187451
0.924706 0.483922 0.197647
0.960659 0.481530 0.204643
0.489412 0.506667 0.298039
0.504313 0.504313 0.300392
0.508078 0.505569 0.295216
0.519373 0.509804 0.287843
0.547294 0.511372 0.280000
0.573333 0.508235 0.273726
0.613177 0.513568 0.253961
0.650510 0.513725 0.229647
0.679216 0.493020 0.221647
0.727059 0.473569 0.208157
0.768627 0.483922 0.204706
0.806902 0.490039 0.203294
0.852078 0.498510 0.197647
0.888471 0.511215 0.196078
0.915607 0.514353 0.188392
0.956039 0.523137 0.192157
0.533333 0.556863 0.321569
0.530981 0.552941 0.310588
0.543529 0.551373 0.304314
0.555294 0.552941 0.301961
0.568627 0.556863 0.294118
0.596078 0.556863 0.278431
0.632942 0.560784 0.277647
0.669804 0.568627 0.253333
0.706667 0.562353 0.238431
0.734902 0.538039 0.227451
0.780392 0.517647 0.207843
0.821177 0.517647 0.212549
0.855686 0.529412 0.209412
0.890981 0.531765 0.201569
0.923921 0.541176 0.200784
0.960627 0.552902 0.203844
0.557647 0.596862 0.324706
0.563294 0.602196 0.323451
0.571765 0.598117 0.321569
0.584000 0.599059 0.312627
0.601412 0.601412 0.311216
0.625882 0.602353 0.304314
0.650196 0.606275 0.289726
0.682980 0.609255 0.276706
0.727059 0.610824 0.257412
0.756236 0.603608 0.241098
0.787451 0.574902 0.221177
0.826981 0.554980 0.213647
0.857412 0.550274 0.211451
0.890196 0.557961 0.212863
0.928941 0.567372 0.204079
0.961427 0.579545 0.207804
0.591372 0.641568 0.338823
0.599686 0.649726 0.340392
0.601255 0.646274 0.337882
0.613804 0.646274 0.334745
0.627137 0.651451 0.329255
0.647059 0.650980 0.324706
0.671687 0.654431 0.309961
0.704784 0.652706 0.302745
0.737882 0.658667 0.282196
0.783059 0.656784 0.263687
0.813333 0.647843 0.243137
0.835451 0.620392 0.222902
0.873569 0.595608 0.210666
0.907764 0.589804 0.213647
0.938039 0.597176 0.214902
0.968533 0.603137 0.209373
0.621961 0.687843 0.363137
0.627765 0.686588 0.361098
0.630745 0.686118 0.355608
0.639372 0.686431 0.357019
0.646745 0.693020 0.351059
0.670588 0.690981 0.342745
0.687844 0.693647 0.337411
0.717490 0.698196 0.320000
0.750588 0.696941 0.311216
0.786980 0.701176 0.285334
0.829020 0.705098 0.269020
0.856471 0.690667 0.245019
0.883294 0.655530 0.216157
0.920314 0.630588 0.202510
0.947922 0.623372 0.203137
0.970180 0.629789 0.207043
0.665098 0.741961 0.401569
0.669019 0.745883 0.405490
0.667294 0.744941 0.399686
0.677647 0.740392 0.391373
0.687843 0.746667 0.389804
0.701961 0.743529 0.383530
0.724549 0.744941 0.374745
0.737725 0.750588 0.357647
0.768627 0.748863 0.352471
0.802196 0.752628 0.325333
0.835294 0.751372 0.301177
0.883765 0.754510 0.279216
0.908863 0.732235 0.249412
0.933647 0.699921 0.222274
0.965176 0.669804 0.193098
0.993694 0.667419 0.199969
0.694040 0.788157 0.443137
0.697961 0.792039 0.446941
0.699529 0.789678 0.441412
0.709726 0.788157 0.439138
0.717522 0.792032 0.439012
0.729334 0.788157 0.431216
0.745804 0.788933 0.412455
0.765396 0.793631 0.403828
0.790518 0.797506 0.391255
0.821114 0.800620 0.370078
0.858746 0.799922 0.348942
0.901082 0.800659 0.307419
0.936431 0.796722 0.275255
0.965411 0.764581 0.235270
0.991278 0.737843 0.181961
0.996156 0.713607 0.149293
0.161568 0.110588 0.182745
0.217883 0.108078 0.179137
0.296314 0.117961 0.188549
0.363137 0.123608 0.189647
0.432157 0.132392 0.196392
0.497255 0.130981 0.192941
0.552000 0.133490 0.190431
0.609883 0.131451 0.192000
0.659608 0.138824 0.193412
0.718432 0.142745 0.198902
0.764706 0.146667 0.200784
0.817255 0.150588 0.202196
0.860863 0.157177 0.206432
0.904941 0.166275 0.211294
0.940392 0.168000 0.209412
0.985012 0.177247 0.224274
0.193882 0.157804 0.180392
0.233788 0.160471 0.183968
0.295310 0.169161 0.189020
0.365898 0.168345 0.194384
0.428895 0.169725 0.195608
0.490667 0.168941 0.193569
0.544282 0.163513 0.189208
0.602572 0.163514 0.191435
0.657506 0.168063 0.192157
0.719435 0.164549 0.200408
0.766588 0.168471 0.198902
0.816125 0.173992 0.206212
0.862243 0.178353 0.205773
0.902306 0.180173 0.212047
0.942494 0.184753 0.215718
0.986687 0.191019 0.224932
0.240000 0.205177 0.204706
0.270777 0.208283 0.198714
0.313035 0.205553 0.193851
0.376659 0.213867 0.198557
0.434510 0.218510 0.195325
0.492236 0.211765 0.192471
0.550463 0.208690 0.195796
0.604926 0.204110 0.195325
0.658573 0.202980 0.201035
0.712972 0.201726 0.199372
0.768000 0.204706 0.200471
0.816314 0.206996 0.206463
0.863561 0.207624 0.208063
0.901490 0.208502 0.214619
0.943247 0.214714 0.218541
0.979992 0.216145 0.220047
0.287059 0.258980 0.223843
0.305600 0.254589 0.215341
0.342839 0.257663 0.206149
0.386823 0.245208 0.198400
0.440314 0.256314 0.198024
0.492706 0.262275 0.195294
0.544345 0.260016 0.192784
0.602792 0.252800 0.190463
0.654494 0.251420 0.202353
0.707388 0.249851 0.200973
0.763451 0.251765 0.201098
0.812549 0.247341 0.204894
0.857882 0.250510 0.211639
0.898981 0.249066 0.209600
0.940706 0.246808 0.216878
0.979038 0.252832 0.223642
0.328471 0.301020 0.230745
0.340266 0.307294 0.227796
0.368722 0.305506 0.219231
0.408910 0.306071 0.213428
0.448910 0.285177 0.201506
0.507294 0.290196 0.200784
0.547200 0.303310 0.194447
0.598714 0.305443 0.193820
0.652330 0.307231 0.195200
0.707043 0.300016 0.198808
0.757804 0.299608 0.202824
0.806338 0.300079 0.204988
0.853459 0.297663 0.205804
0.893177 0.293929 0.211012
0.938478 0.291891 0.215090
0.977804 0.290063 0.219131
0.364706 0.341176 0.240785
0.373333 0.345882 0.237333
0.400314 0.344784 0.232942
0.430588 0.346667 0.224156
0.465883 0.337412 0.218196
0.501961 0.319216 0.200784
0.557020 0.326274 0.200784
0.599686 0.339294 0.204236
0.649412 0.349804 0.197960
0.708392 0.353098 0.193569
0.755294 0.357647 0.201569
0.806118 0.348392 0.203451
0.850824 0.344784 0.203137
0.894902 0.338823 0.205491
0.933019 0.336156 0.213804
0.975577 0.332557 0.222713
0.401569 0.381333 0.262118
0.409380 0.385537 0.261208
0.425725 0.390996 0.252674
0.449255 0.390023 0.246776
0.485741 0.390682 0.232471
0.521726 0.376314 0.221647
0.562008 0.358933 0.209851
0.611733 0.367310 0.203420
0.658604 0.380173 0.206306
0.706447 0.389647 0.197710
0.754824 0.404236 0.200157
0.800282 0.399310 0.204675
0.847529 0.394886 0.207843
0.888126 0.390588 0.205679
0.932957 0.386949 0.213898
0.966071 0.382117 0.217931
0.430902 0.421961 0.274666
0.439592 0.423906 0.275608
0.451419 0.426761 0.271184
0.472941 0.427200 0.264345
0.500079 0.431028 0.253145
0.544784 0.430431 0.236079
0.571137 0.413396 0.225318
0.614557 0.398149 0.213616
0.664784 0.404392 0.213678
0.707451 0.417788 0.205867
0.759216 0.430588 0.210824
0.801035 0.439843 0.203514
0.839937 0.446776 0.201569
0.885302 0.438871 0.206557
0.921255 0.433726 0.210416
0.962298 0.428259 0.213330
0.462745 0.459137 0.290353
0.471592 0.466604 0.293835
0.479467 0.465757 0.285083
0.494808 0.465757 0.278055
0.520973 0.466510 0.268737
0.557176 0.467921 0.256628
0.594227 0.471937 0.243451
0.622526 0.449506 0.232816
0.668486 0.435169 0.216408
0.720063 0.448471 0.214965
0.762510 0.454118 0.212236
0.799215 0.469020 0.205647
0.845082 0.478682 0.207153
0.884330 0.488000 0.203953
0.923263 0.483357 0.205334
0.960847 0.478626 0.212218
0.496941 0.503529 0.308235
0.506447 0.506447 0.305349
0.511529 0.506196 0.298980
0.520188 0.506635 0.292361
0.548047 0.505694 0.286055
0.574275 0.511529 0.279530
0.608596 0.513914 0.266761
0.648282 0.514792 0.246808
0.676173 0.491388 0.229961
0.727122 0.473475 0.223278
0.767843 0.481412 0.215216
0.806777 0.490573 0.219639
0.848502 0.498321 0.210761
0.883232 0.510274 0.207843
0.915576 0.519373 0.206588
0.954114 0.523008 0.202668
0.528628 0.552157 0.316863
0.537255 0.552941 0.320314
0.546667 0.553726 0.309019
0.555608 0.555608 0.307764
0.575059 0.559372 0.308392
0.596862 0.561568 0.292549
0.632471 0.564706 0.287216
0.674510 0.567843 0.265882
0.707451 0.561725 0.248314
0.735529 0.533960 0.235922
0.779608 0.514509 0.219608
0.821804 0.520628 0.228079
0.855059 0.527059 0.218667
0.890981 0.537255 0.215843
0.925804 0.541960 0.208784
0.954463 0.556055 0.211734
0.559059 0.595922 0.330353
0.570604 0.598808 0.331890
0.576188 0.600690 0.325302
0.586165 0.602353 0.321694
0.598776 0.605616 0.314573
0.626510 0.606118 0.308706
0.652047 0.610039 0.298572
0.690384 0.608565 0.286965
0.722541 0.611953 0.265130
0.758337 0.599372 0.248941
0.782431 0.573019 0.233412
0.827482 0.553224 0.220863
0.856785 0.552596 0.222870
0.889600 0.561317 0.223811
0.928345 0.565773 0.217098
0.951817 0.578025 0.209464
0.597176 0.647372 0.345255
0.599906 0.648471 0.346353
0.606306 0.649443 0.343561
0.616502 0.648784 0.340769
0.632157 0.651389 0.336282
0.651451 0.652236 0.327843
0.674980 0.656157 0.318808
0.707074 0.658573 0.308988
0.737129 0.661616 0.290291
0.780016 0.659482 0.274541
0.811765 0.647059 0.251764
0.835106 0.617192 0.231404
0.872784 0.595294 0.219827
0.909929 0.591655 0.222965
0.939294 0.595294 0.221302
0.964950 0.608453 0.220094
0.620078 0.690667 0.365333
0.624627 0.692016 0.366808
0.631216 0.688377 0.363859
0.638808 0.691451 0.361318
0.654839 0.694369 0.357114
0.672941 0.696471 0.351373
0.696376 0.695592 0.344533
0.720596 0.696784 0.325898
0.752345 0.698447 0.316235
0.788925 0.704878 0.296251
0.826823 0.706039 0.276235
0.854965 0.687153 0.247278
0.881631 0.658855 0.227232
0.921631 0.631686 0.211514
0.948110 0.621302 0.209977
0.972960 0.627746 0.218627
0.661490 0.748706 0.407529
0.665506 0.743372 0.403483
0.669553 0.743404 0.404016
0.678902 0.745412 0.399059
0.688376 0.743529 0.398431
0.702274 0.744000 0.391215
0.723168 0.745161 0.376157
0.740078 0.751059 0.366714
0.771577 0.750181 0.355420
0.803608 0.752376 0.328941
0.840000 0.750588 0.312156
0.882855 0.754855 0.280878
0.908580 0.730416 0.258259
0.930039 0.698416 0.228267
0.962918 0.669427 0.204643
0.993169 0.662612 0.210182
0.701843 0.788117 0.454784
0.701851 0.788157 0.454729
0.708162 0.789397 0.448367
0.713618 0.792027 0.449219
0.717620 0.792013 0.439887
0.730141 0.795113 0.435176
0.748320 0.793313 0.423738
0.766177 0.794563 0.413656
0.788833 0.794234 0.395779
0.814867 0.797683 0.376055
0.862635 0.802981 0.353639
0.901095 0.802523 0.318996
0.936420 0.792820 0.281550
0.960720 0.767694 0.240017
0.993800 0.737104 0.189581
0.999992 0.716620 0.165624
0.175686 0.125490 0.222745
0.220863 0.122040 0.227921
0.290039 0.119216 0.228235
0.364392 0.127373 0.231059
0.421333 0.133333 0.225882
0.486275 0.143529 0.222745
0.538510 0.152157 0.229333
0.597647 0.157647 0.227608
0.646745 0.164706 0.230902
0.702902 0.165961 0.232628
0.757647 0.167843 0.228235
0.812392 0.170039 0.233569
0.853804 0.175530 0.235138
0.897883 0.180549 0.234196
0.941490 0.183216 0.239216
0.980298 0.189804 0.247804
0.205804 0.163137 0.222902
0.239216 0.166431 0.222808
0.298322 0.170321 0.226761
0.363263 0.168502 0.226416
0.420204 0.174055 0.224627
0.482510 0.179137 0.230275
0.537223 0.181741 0.231310
0.591718 0.181177 0.232220
0.645082 0.184627 0.227326
0.709082 0.183906 0.233851
0.757334 0.186667 0.231530
0.805647 0.189804 0.234479
0.855686 0.191372 0.233098
0.899922 0.194416 0.239561
0.939765 0.201412 0.241569
0.981862 0.202803 0.247212
0.244863 0.208628 0.227922
0.275294 0.209569 0.229271
0.306259 0.214149 0.227388
0.367373 0.220675 0.227796
0.424502 0.221773 0.230494
0.482824 0.219764 0.232157
0.538604 0.216094 0.226039
0.592941 0.217976 0.230902
0.651451 0.216094 0.235075
0.705882 0.218698 0.232408
0.756863 0.215529 0.233255
0.808126 0.219420 0.234635
0.856784 0.220015 0.237177
0.899106 0.222494 0.240659
0.941522 0.223247 0.242855
0.978695 0.226309 0.245292
0.290510 0.254588 0.243451
0.311153 0.256471 0.241694
0.340235 0.258541 0.238181
0.381584 0.249851 0.231216
0.428487 0.260769 0.229145
0.486118 0.263530 0.226667
0.534212 0.264408 0.228267
0.595420 0.258039 0.226290
0.645710 0.260141 0.235075
0.699451 0.257977 0.231435
0.756706 0.258667 0.233726
0.807467 0.257161 0.233600
0.854871 0.255404 0.238118
0.892988 0.257098 0.234384
0.938917 0.258102 0.242447
0.976694 0.257542 0.244986
0.331294 0.300079 0.258040
0.341867 0.301020 0.249380
0.372549 0.302024 0.245114
0.404675 0.301365 0.237929
0.444016 0.286745 0.226039
0.494745 0.296941 0.227451
0.538227 0.305568 0.226165
0.591121 0.308612 0.227137
0.643921 0.308235 0.226353
0.699671 0.303278 0.229929
0.753883 0.303843 0.231686
0.798400 0.303968 0.235169
0.851263 0.302212 0.233098
0.892361 0.298227 0.237961
0.935027 0.296721 0.239404
0.977959 0.299122 0.245611
0.368627 0.341176 0.266667
0.376157 0.342431 0.263373
0.393098 0.344157 0.253804
0.428235 0.345098 0.250980
0.466196 0.335372 0.250196
0.502745 0.323922 0.231373
0.550589 0.330196 0.226823
0.594353 0.341804 0.230118
0.644078 0.354353 0.228863
0.698353 0.353255 0.221490
0.745098 0.354510 0.230588
0.801726 0.352314 0.231059
0.846431 0.349961 0.229176
0.892392 0.344157 0.234353
0.930510 0.341019 0.237961
0.973247 0.341168 0.244659
0.404549 0.378040 0.279843
0.410981 0.383780 0.276737
0.425412 0.385161 0.275702
0.447059 0.386447 0.265004
0.482604 0.388361 0.254620
0.515294 0.375686 0.242039
0.560000 0.360157 0.239216
0.607937 0.369443 0.229490
0.651733 0.380016 0.234291
0.697161 0.392062 0.225475
0.747137 0.401098 0.226510
0.798212 0.399027 0.228863
0.842384 0.396423 0.230086
0.889977 0.394823 0.234698
0.929882 0.390494 0.237553
0.968262 0.382303 0.245490
0.436079 0.416471 0.292863
0.440408 0.423781 0.288973
0.455498 0.423184 0.285961
0.474196 0.423498 0.281726
0.499263 0.426855 0.267922
0.538196 0.427608 0.257569
0.565678 0.412423 0.249788
0.609945 0.398588 0.233757
0.660078 0.406432 0.234792
0.703216 0.418259 0.233569
0.752000 0.429961 0.226353
0.795702 0.441035 0.224659
0.838243 0.445679 0.226196
0.885992 0.441788 0.231216
0.919843 0.434259 0.232502
0.962718 0.426682 0.232017
0.467451 0.459608 0.306667
0.470996 0.461961 0.302933
0.480408 0.462683 0.301867
0.495467 0.464722 0.290290
0.519623 0.466416 0.288157
0.554667 0.469647 0.275922
0.594855 0.467263 0.266133
0.620047 0.447530 0.252079
0.666667 0.435451 0.242133
0.713600 0.449725 0.235263
0.758118 0.455686 0.233255
0.800376 0.467514 0.228047
0.842259 0.480784 0.228894
0.884267 0.487937 0.223968
0.923137 0.483263 0.230369
0.956947 0.482487 0.229988
0.494588 0.502431 0.314353
0.505192 0.504282 0.312533
0.513286 0.506196 0.315388
0.525961 0.506824 0.308235
0.548392 0.507859 0.299765
0.576157 0.513255 0.295843
0.611545 0.514259 0.281035
0.647843 0.510933 0.264722
0.673223 0.490384 0.250667
0.724329 0.473914 0.241412
0.764549 0.484393 0.236392
0.805961 0.494337 0.236800
0.848628 0.503749 0.233506
0.880847 0.514227 0.229553
0.915106 0.518620 0.224470
0.956300 0.523452 0.223852
0.529412 0.549020 0.326275
0.537255 0.549491 0.325019
0.549961 0.552000 0.325490
0.558588 0.553882 0.320941
0.573804 0.558118 0.311686
0.596078 0.560784 0.305882
0.632157 0.564079 0.290196
0.670745 0.563765 0.275137
0.705726 0.558431 0.259294
0.732392 0.532549 0.255216
0.773333 0.515294 0.236863
0.809882 0.519530 0.244078
0.851137 0.528627 0.237490
0.888471 0.543059 0.235922
0.922039 0.546353 0.230745
0.956800 0.556847 0.227412
0.561098 0.596392 0.340549
0.570164 0.597866 0.338133
0.576283 0.599968 0.336251
0.588894 0.601851 0.335655
0.601788 0.603796 0.327812
0.620392 0.604706 0.320471
0.650133 0.607561 0.307513
0.685490 0.607530 0.298008
0.723922 0.611326 0.277992
0.755514 0.600533 0.262086
0.785098 0.571764 0.248628
0.823686 0.554635 0.239561
0.857098 0.554823 0.234290
0.889914 0.563012 0.240126
0.924298 0.566400 0.228486
0.956808 0.581616 0.232008
0.597647 0.647843 0.360784
0.599498 0.649694 0.357929
0.604330 0.647749 0.352533
0.615686 0.650917 0.349741
0.633506 0.651451 0.346729
0.649098 0.651138 0.334588
0.676486 0.655623 0.333019
0.704941 0.657506 0.315231
0.737694 0.659545 0.298290
0.782400 0.661114 0.282792
0.815216 0.647687 0.265726
0.835765 0.616753 0.244549
0.871373 0.598839 0.235702
0.907576 0.590149 0.236894
0.938572 0.599467 0.236580
0.966975 0.607050 0.231999
0.620392 0.688471 0.371921
0.627012 0.692267 0.373522
0.634447 0.692392 0.375749
0.640000 0.690981 0.370667
0.655121 0.695216 0.366368
0.668706 0.698353 0.356863
0.687687 0.696784 0.349176
0.717082 0.699043 0.335592
0.751122 0.698824 0.325020
0.784282 0.704282 0.305600
0.830745 0.706039 0.285961
0.855184 0.688000 0.261647
0.883733 0.658667 0.242321
0.918431 0.629145 0.231216
0.943874 0.625538 0.229208
0.970783 0.628857 0.229650
0.665883 0.743843 0.411922
0.668863 0.747294 0.413961
0.668016 0.744439 0.412110
0.680596 0.743561 0.408847
0.689192 0.745475 0.403232
0.699294 0.747922 0.396392
0.722102 0.745914 0.385537
0.740078 0.750588 0.371922
0.770541 0.750714 0.361788
0.801443 0.752533 0.340768
0.841725 0.754510 0.320314
0.878996 0.756235 0.292329
0.906604 0.732078 0.266698
0.931671 0.699043 0.240565
0.963733 0.669992 0.218133
0.994403 0.666642 0.224279
0.700267 0.789694 0.462627
0.702640 0.792020 0.464946
0.705452 0.790482 0.458984
0.714539 0.792971 0.454900
0.717724 0.790836 0.447531
0.729326 0.792063 0.442988
0.745669 0.794381 0.427073
0.768364 0.794874 0.420714
0.785390 0.795953 0.402414
0.821135 0.796116 0.381564
0.854086 0.802988 0.359074
0.899865 0.800077 0.332163
0.938689 0.797333 0.295125
0.960695 0.766133 0.252535
0.993302 0.736598 0.204745
0.998462 0.715914 0.182894
0.197647 0.135686 0.272157
0.228235 0.131765 0.269020
0.284549 0.130824 0.270274
0.347294 0.131765 0.267451
0.428392 0.141020 0.274353
0.482353 0.147451 0.265882
0.531608 0.154353 0.266510
0.589020 0.163765 0.262275
0.641412 0.176314 0.262589
0.698353 0.184157 0.271216
0.749020 0.190588 0.273725
0.804236 0.192941 0.270902
0.853490 0.197490 0.271529
0.892549 0.197490 0.270902
0.935686 0.200784 0.272941
0.979475 0.210157 0.276870
0.227451 0.176627 0.263373
0.251043 0.173114 0.263686
0.296439 0.172173 0.261585
0.352000 0.176471 0.263467
0.420862 0.175906 0.263247
0.478902 0.176941 0.265098
0.528125 0.181992 0.261490
0.586228 0.189898 0.266039
0.636361 0.200314 0.267074
0.692518 0.200878 0.270557
0.751530 0.207059 0.270745
0.798275 0.208941 0.270275
0.849694 0.211169 0.270871
0.892141 0.211608 0.272910
0.932392 0.214494 0.268361
0.978061 0.221903 0.281333
0.255059 0.214431 0.260549
0.281098 0.217286 0.262275
0.315796 0.217788 0.264941
0.368251 0.219827 0.264690
0.424565 0.220455 0.267859
0.475451 0.221333 0.268392
0.531765 0.223937 0.267043
0.584471 0.224879 0.267012
0.637427 0.228580 0.272377
0.694274 0.229271 0.266447
0.752157 0.232314 0.270118
0.802353 0.231937 0.273412
0.849600 0.234196 0.271498
0.895122 0.235169 0.272784
0.936533 0.235482 0.276925
0.974044 0.239820 0.273884
0.297255 0.256941 0.270745
0.314667 0.258918 0.268737
0.340455 0.259451 0.270180
0.379231 0.255686 0.265882
0.424816 0.265914 0.266886
0.474666 0.264941 0.265098
0.532267 0.266730 0.268141
0.583435 0.267012 0.261804
0.637961 0.263937 0.267451
0.692957 0.266918 0.266855
0.751373 0.267922 0.268392
0.798651 0.267012 0.266886
0.847529 0.266259 0.270996
0.888063 0.267765 0.264471
0.931984 0.267765 0.271906
0.974818 0.268984 0.277624
0.337569 0.301804 0.283608
0.346479 0.303435 0.277176
0.368031 0.302745 0.276235
0.399247 0.299608 0.271310
0.433538 0.295592 0.261961
0.486432 0.302118 0.264314
0.528314 0.312031 0.260894
0.585035 0.312784 0.265788
0.635482 0.312627 0.259765
0.691765 0.308486 0.264596
0.745569 0.310588 0.263059
0.796612 0.309584 0.262871
0.843921 0.307545 0.265600
0.888031 0.307169 0.270118
0.936125 0.306322 0.268737
0.970602 0.305106 0.270110
0.370980 0.339608 0.293333
0.377255 0.339608 0.287843
0.394666 0.343686 0.280314
0.423373 0.344157 0.277490
0.457569 0.335686 0.277020
0.491765 0.325490 0.261177
0.536941 0.338353 0.261647
0.592941 0.343686 0.265882
0.636079 0.356863 0.262118
0.689883 0.355137 0.254745
0.736470 0.356863 0.258039
0.794510 0.353725 0.258981
0.837647 0.354823 0.261804
0.887216 0.352000 0.268549
0.927216 0.345098 0.263844
0.970863 0.347412 0.269843
0.405491 0.378353 0.304784
0.414839 0.383467 0.304251
0.426729 0.381522 0.299388
0.446933 0.383686 0.292926
0.483859 0.385192 0.282949
0.511059 0.371451 0.272157
0.552627 0.364078 0.273067
0.600941 0.372267 0.261365
0.645521 0.385255 0.267734
0.695561 0.398306 0.261302
0.739294 0.405647 0.258824
0.791592 0.399215 0.259200
0.841098 0.399937 0.260204
0.886651 0.396769 0.263624
0.926149 0.391812 0.263812
0.966499 0.385619 0.270441
0.437490 0.415530 0.311686
0.442353 0.421333 0.311215
0.458290 0.420455 0.308863
0.475419 0.421427 0.303561
0.497694 0.427545 0.292486
0.535529 0.426196 0.284079
0.564612 0.410729 0.278902
0.604675 0.400439 0.267828
