example_ofxGpuLutCube/bin/data/ofxGpuLutCube/LUT/A36 (old style soft green fade).cube
LUT_3D_SIZE 6
0.109804 0.082353 0.058824
0.140392 0.078431 0.062745
0.357647 0.035294 0.090196
0.635294 0.000784 0.075294
0.854902 0.040000 0.058824
0.988235 0.133411 0.094157
0.105098 0.152157 0.069020
0.199530 0.149804 0.074980
0.394039 0.166275 0.076078
0.666667 0.189490 0.044392
0.864471 0.219765 0.033883
0.996855 0.249443 0.108220
0.247059 0.334118 0.080000
0.290196 0.330667 0.065255
0.461177 0.371921 0.042196
0.686118 0.404549 0.000000
0.864628 0.405961 0.028078
0.999216 0.421930 0.153694
0.412549 0.599216 0.162353
0.443294 0.587922 0.146196
0.552000 0.596706 0.148078
0.714039 0.610196 0.147922
0.859294 0.602824 0.156549
0.973286 0.578008 0.194470
0.556078 0.745882 0.341176
0.572706 0.748235 0.344314
0.634196 0.754353 0.346980
0.727372 0.751372 0.346980
0.842667 0.758118 0.344784
0.951294 0.745882 0.355224
0.690118 0.866589 0.541019
0.701867 0.868980 0.547294
0.734039 0.869733 0.548863
0.784298 0.870510 0.545718
0.861898 0.870564 0.554369
0.948864 0.874470 0.572275
0.109804 0.088628 0.105882
0.174118 0.075137 0.098196
0.380863 0.049255 0.125020
0.671529 0.016000 0.138039
0.872000 0.104157 0.157490
0.999906 0.195216 0.206965
0.151372 0.156392 0.109960
0.220674 0.158682 0.112031
0.416627 0.183059 0.125867
0.685145 0.206494 0.132831
0.872471 0.234134 0.161663
0.999013 0.283951 0.209725
0.269177 0.348549 0.150431
0.315827 0.338698 0.138823
0.478808 0.381145 0.135153
0.701898 0.408314 0.118024
0.866792 0.414777 0.163608
0.999592 0.434179 0.240071
0.430118 0.592941 0.233569
0.454243 0.579733 0.222212
0.562039 0.594949 0.225851
0.716769 0.615247 0.234479
0.859985 0.601945 0.241757
0.968870 0.586605 0.265346
0.568784 0.751216 0.388235
0.589867 0.748016 0.389773
0.636455 0.750557 0.380016
0.730165 0.752471 0.383435
0.844831 0.758023 0.387388
0.952055 0.752273 0.396162
0.697984 0.872078 0.559137
0.706585 0.870525 0.563065
0.735786 0.868199 0.566632
0.783781 0.867100 0.562046
0.864869 0.873465 0.572991
0.946557 0.874392 0.576236
0.076862 0.101961 0.230588
0.207686 0.087373 0.233569
0.410981 0.062431 0.266510
0.690353 0.000628 0.308078
0.866196 0.151373 0.319059
0.983490 0.292573 0.363914
0.189020 0.180079 0.242824
0.264878 0.174996 0.244361
0.453553 0.188518 0.275545
0.696941 0.209600 0.306384
0.868267 0.287435 0.334086
0.984897 0.356350 0.370673
0.297412 0.372706 0.284079
0.351969 0.370227 0.278149
0.513380 0.396361 0.287059
0.710337 0.422118 0.308768
0.857318 0.438996 0.338259
0.981117 0.467158 0.377763
0.475608 0.597177 0.367372
0.499012 0.587137 0.358871
0.586886 0.600816 0.375624
0.724737 0.617255 0.375027
0.849506 0.608063 0.371608
0.969612 0.598516 0.387215
0.588549 0.748549 0.464785
0.603043 0.748361 0.465569
0.654400 0.744157 0.464220
0.735059 0.755012 0.467890
0.838212 0.757019 0.468612
0.945202 0.751975 0.472908
0.690894 0.871278 0.588949
0.705529 0.866941 0.592118
0.737167 0.865818 0.596790
0.786602 0.870533 0.599404
0.864546 0.875776 0.606551
0.944965 0.878220 0.607632
0.190588 0.061177 0.436079
0.297882 0.052235 0.445490
0.482196 0.040471 0.468863
0.700079 0.061020 0.488471
0.864000 0.205176 0.488628
0.983396 0.336400 0.499584
0.255216 0.203451 0.463843
0.330039 0.200659 0.457318
0.504784 0.214086 0.474729
0.704596 0.240816 0.483796
0.863247 0.327906 0.496753
0.979773 0.402985 0.511261
0.343529 0.405176 0.471373
0.402823 0.404737 0.464188
0.549647 0.427325 0.482039
0.711121 0.451702 0.495090
0.845177 0.484706 0.510306
0.958207 0.524987 0.534231
0.513725 0.613647 0.501177
0.541177 0.606996 0.504314
0.622463 0.621019 0.523733
0.723137 0.622337 0.515231
0.838682 0.608220 0.504502
0.950367 0.608720 0.518367
0.621019 0.746196 0.570039
0.635451 0.746353 0.570510
0.667137 0.751059 0.569412
0.736031 0.750463 0.568690
0.834886 0.756831 0.559404
0.942337 0.757283 0.566687
0.681537 0.869772 0.640769
0.696723 0.871578 0.648841
0.722794 0.871771 0.646687
0.779407 0.871156 0.652026
0.856708 0.873178 0.651060
0.938675 0.878235 0.663264
0.280784 0.095686 0.671373
0.360628 0.099294 0.672628
0.517804 0.113255 0.674824
0.700392 0.158431 0.674510
0.871373 0.236079 0.665726
0.972439 0.358298 0.639953
0.323922 0.246902 0.676863
0.389427 0.244141 0.672125
0.534400 0.260392 0.673569
0.709239 0.295969 0.678212
0.859922 0.321569 0.656000
0.965092 0.411071 0.636054
0.434667 0.461020 0.672000
0.472972 0.458604 0.665380
0.579012 0.467200 0.668674
0.717773 0.478494 0.666133
0.846431 0.490918 0.653835
0.948154 0.528866 0.649048
0.509804 0.620392 0.654745
0.546949 0.630965 0.664973
0.617443 0.633129 0.663435
0.715294 0.627294 0.662118
0.823655 0.620329 0.646526
0.932944 0.637597 0.662720
0.605177 0.744314 0.652392
0.624816 0.747671 0.657004
0.673255 0.749177 0.664785
0.740141 0.754667 0.674635
0.826666 0.756078 0.671686
0.937175 0.756048 0.677332
0.698769 0.870494 0.722329
0.713656 0.870477 0.728577
0.739606 0.870492 0.737190
0.781324 0.871597 0.742683
0.843667 0.874425 0.734033
0.929294 0.878391 0.744957
0.333294 0.180353 0.850862
0.392964 0.186627 0.848510
0.520047 0.204659 0.836839
0.690173 0.249333 0.838283
0.847843 0.303467 0.829663
0.992157 0.368549 0.823451
0.364667 0.287820 0.836729
0.419567 0.292518 0.835018
0.538963 0.307352 0.838089
0.688632 0.333264 0.825805
0.843918 0.364994 0.820422
0.987326 0.407819 0.815568
0.454133 0.477679 0.831295
0.484750 0.479718 0.831595
0.574933 0.477718 0.830465
0.704158 0.490049 0.825929
0.840933 0.507291 0.822949
0.973271 0.523145 0.814800
0.477717 0.616479 0.821819
0.505037 0.613686 0.821225
0.583269 0.618033 0.820530
0.698373 0.625875 0.817738
0.822461 0.625429 0.814619
0.949687 0.640792 0.808540
0.576526 0.775663 0.818713
0.590798 0.772712 0.820693
0.632693 0.773466 0.816015
0.708606 0.766274 0.823378
0.813950 0.764542 0.826351
0.930094 0.771749 0.821796
0.678275 0.886196 0.815685
0.686236 0.886157 0.819412
0.718338 0.885279 0.817890
0.776385 0.882981 0.824149
0.847796 0.886103 0.832863
0.913569 0.901765 0.866625
