example_ofxGpuLutCube/bin/data/ofxGpuLutCube/LUT/A36 (old style soft green fade).cube
LUT_3D_SIZE 16
0.109804 0.082353 0.058824
0.104314 0.083137 0.059608
0.098039 0.078431 0.054902
0.140392 0.078431 0.062745
0.216471 0.070588 0.066667
0.278431 0.062745 0.082353
0.357647 0.035294 0.090196
0.448628 0.000000 0.090981
0.544314 0.001569 0.086275
0.635294 0.000784 0.075294
0.725490 0.000000 0.070588
0.794510 0.000000 0.063529
0.854902 0.040000 0.058824
0.911373 0.087059 0.062745
0.963137 0.123921 0.084706
0.988235 0.133411 0.094157
0.106666 0.075294 0.063529
0.110431 0.082981 0.059451
0.103059 0.080314 0.056784
0.175059 0.073726 0.063059
0.236549 0.070588 0.075137
0.305882 0.058824 0.090196
0.376157 0.026039 0.085491
0.467922 0.012863 0.089412
0.562667 0.005176 0.088157
0.650981 0.006275 0.070588
0.730196 0.029804 0.065883
0.800000 0.065412 0.056784
0.860392 0.098353 0.053647
0.915765 0.124392 0.053804
0.968941 0.149961 0.088000
0.992933 0.165490 0.097270
0.106667 0.080000 0.063530
0.110118 0.077804 0.066510
0.111686 0.082823 0.063216
0.185098 0.078745 0.067765
0.237961 0.082353 0.078745
0.295686 0.088627 0.077647
0.374275 0.095686 0.080627
0.460863 0.098039 0.083137
0.558902 0.100549 0.074666
0.650039 0.108235 0.062902
0.725490 0.121568 0.058039
0.799058 0.134588 0.045804
0.860549 0.150588 0.043922
0.913098 0.170353 0.052549
0.964392 0.185098 0.083137
0.992181 0.196887 0.099631
0.105098 0.152157 0.069020
0.107137 0.142431 0.071059
0.145098 0.145882 0.075294
0.199530 0.149804 0.074980
0.258981 0.155765 0.078745
0.324706 0.158432 0.072157
0.394039 0.166275 0.076078
0.491137 0.175059 0.068392
0.579608 0.181961 0.053176
0.666667 0.189490 0.044392
0.736470 0.199216 0.025098
0.804236 0.209725 0.022431
0.864471 0.219765 0.033883
0.915765 0.226981 0.060078
0.964392 0.240000 0.087530
0.996855 0.249443 0.108220
0.133333 0.183529 0.076862
0.136941 0.174902 0.078274
0.165177 0.178823 0.087843
0.210039 0.184628 0.079529
0.254118 0.203451 0.075451
0.328628 0.214902 0.066667
0.407687 0.225726 0.063373
0.494432 0.241255 0.042667
0.583373 0.252706 0.024627
0.665098 0.262902 0.007059
0.738039 0.267451 0.003922
0.804235 0.276078 0.007686
0.863373 0.280785 0.024314
0.914039 0.284549 0.059922
0.958588 0.292235 0.090510
0.995255 0.302776 0.121483
0.196078 0.262745 0.086275
0.192941 0.239216 0.088627
0.217255 0.244706 0.082353
0.254118 0.253333 0.076078
0.294902 0.266667 0.075294
0.360784 0.278431 0.054902
0.443922 0.302745 0.034510
0.527059 0.320784 0.006275
0.602353 0.329412 0.000000
0.683138 0.333333 0.000000
0.749020 0.341176 0.000000
0.810980 0.345098 0.001569
0.862745 0.341176 0.025882
0.917647 0.345882 0.072157
0.966274 0.359215 0.108235
1.000000 0.360784 0.137255
0.247059 0.334118 0.080000
0.234510 0.306510 0.074980
0.260235 0.312157 0.069490
0.290196 0.330667 0.065255
0.338824 0.340392 0.062588
0.397647 0.353726 0.050196
0.461177 0.371921 0.042196
0.547765 0.392941 0.004235
0.617569 0.400470 0.002667
0.686118 0.404549 0.000000
0.753725 0.407843 0.000784
0.814745 0.410980 0.002510
0.864628 0.405961 0.028078
0.914510 0.409098 0.078274
0.965490 0.413333 0.120000
0.999216 0.421930 0.153694
0.298039 0.432941 0.080784
0.289882 0.403608 0.073412
0.313725 0.410980 0.075608
0.346196 0.422902 0.071687
0.387451 0.428706 0.064157
0.436863 0.440000 0.055686
0.494745 0.450039 0.047686
0.558902 0.459137 0.025882
0.638745 0.474510 0.006275
0.704784 0.480471 0.000314
0.767059 0.484706 0.002353
0.824000 0.474824 0.013333
0.869019 0.470588 0.042353
0.915451 0.473725 0.094118
0.956863 0.472157 0.130823
0.996800 0.473741 0.164651
0.356078 0.521569 0.104314
0.346667 0.492549 0.093333
0.362039 0.499294 0.093333
0.398431 0.506823 0.095373
0.426510 0.511686 0.093804
0.478431 0.519216 0.089412
0.525333 0.523451 0.083451
0.579294 0.530039 0.079687
0.641569 0.539608 0.069177
0.704627 0.546196 0.051922
0.767059 0.545098 0.037647
0.822117 0.542275 0.068549
0.866823 0.538824 0.090981
0.911059 0.533961 0.128784
0.954039 0.533020 0.155294
0.991294 0.532549 0.186580
0.412549 0.599216 0.162353
0.399843 0.576471 0.148549
0.420549 0.579137 0.149804
0.443294 0.587922 0.146196
0.472785 0.587608 0.149804
0.505882 0.592157 0.146667
0.552000 0.596706 0.148078
0.602510 0.599530 0.139451
0.652079 0.606431 0.138666
0.714039 0.610196 0.147922
0.770980 0.615686 0.153725
0.821333 0.612549 0.140078
0.859294 0.602824 0.156549
0.903529 0.597333 0.169412
0.939608 0.579451 0.174902
0.973286 0.578008 0.194470
0.462745 0.658824 0.215686
0.459608 0.646275 0.215686
0.480000 0.649412 0.215686
0.496471 0.651765 0.217255
0.516078 0.650980 0.213334
0.545098 0.650980 0.207843
0.578040 0.654902 0.212549
0.618823 0.654902 0.213333
0.664314 0.657255 0.207843
0.712156 0.662745 0.211765
0.764706 0.666667 0.203922
0.813334 0.665883 0.215686
0.854118 0.654902 0.213333
0.902745 0.654902 0.221961
0.935686 0.646275 0.234510
0.968588 0.639177 0.254824
0.510588 0.702745 0.283137
0.520000 0.704314 0.288628
0.524706 0.706509 0.288157
0.537255 0.705882 0.286275
0.557647 0.704314 0.287844
0.581176 0.707451 0.287844
0.610039 0.710745 0.290510
0.642353 0.710902 0.284863
0.676392 0.707451 0.276392
0.717647 0.709804 0.270275
0.759215 0.710588 0.272157
0.802039 0.709333 0.271372
0.841568 0.703216 0.277333
0.882353 0.698666 0.264471
0.921568 0.688471 0.268706
0.963028 0.683929 0.284659
0.556078 0.745882 0.341176
0.564078 0.751529 0.342118
0.567686 0.752000 0.346039
0.572706 0.748235 0.344314
0.586667 0.748392 0.336314
0.610980 0.748235 0.348235
0.634196 0.754353 0.346980
0.664471 0.751216 0.349019
0.693961 0.754667 0.342431
0.727372 0.751372 0.346980
0.764706 0.754510 0.345882
0.803922 0.759216 0.345568
0.842667 0.758118 0.344784
0.880784 0.749177 0.346667
0.916235 0.749490 0.338823
0.951294 0.745882 0.355224
0.577255 0.777255 0.378039
0.583529 0.783529 0.384314
0.587137 0.779608 0.381020
0.598745 0.781177 0.382118
0.614431 0.779137 0.388549
0.632157 0.781177 0.388235
0.650823 0.787137 0.392784
0.676235 0.787608 0.391059
0.705412 0.785098 0.395294
0.733490 0.786824 0.399530
0.762353 0.792157 0.388235
0.799372 0.794980 0.400157
0.836079 0.796863 0.402039
0.877490 0.797333 0.401725
0.910588 0.791372 0.405333
0.941098 0.786690 0.414086
0.642353 0.834510 0.477647
0.652863 0.836392 0.479530
0.657569 0.831843 0.480785
0.661961 0.833725 0.483922
0.666981 0.833725 0.482039
0.690196 0.833725 0.486274
0.699294 0.832471 0.486274
0.720471 0.837177 0.487059
0.738823 0.838118 0.483294
0.762353 0.837804 0.484079
0.789019 0.838432 0.483922
0.818823 0.839059 0.485020
0.850196 0.839843 0.487059
0.881255 0.840314 0.488000
0.914823 0.837804 0.486431
0.938769 0.833694 0.499490
0.690118 0.866589 0.541019
0.701843 0.870470 0.548902
0.699467 0.865051 0.552682
0.701867 0.868980 0.547294
0.709679 0.874385 0.552737
0.721530 0.866667 0.552823
0.734039 0.869733 0.548863
0.748133 0.868918 0.548102
0.767749 0.868941 0.546541
0.784298 0.870510 0.545718
0.807843 0.866589 0.548902
0.836831 0.871286 0.545804
0.861898 0.870564 0.554369
0.897169 0.872855 0.557521
0.920738 0.871349 0.560572
0.948864 0.874470 0.572275
0.109804 0.082353 0.058824
0.106666 0.079215 0.055686
0.105098 0.081098 0.066040
0.161569 0.075608 0.065098
0.229334 0.069490 0.071059
0.294118 0.062745 0.086275
0.365490 0.027294 0.088627
0.462431 0.005177 0.091294
0.565647 0.002824 0.083294
0.658824 0.002980 0.073726
0.745098 0.026666 0.071372
0.814118 0.056628 0.063373
0.874039 0.081569 0.072157
0.925020 0.107451 0.091765
0.969568 0.137098 0.112156
0.999961 0.157647 0.123169
0.107608 0.084863 0.063529
0.107168 0.078965 0.061459
0.115200 0.080157 0.061208
0.194667 0.074635 0.066886
0.250572 0.069867 0.077553
0.314509 0.061961 0.083137
0.390965 0.065506 0.084236
0.483984 0.064941 0.086682
0.580172 0.064063 0.079780
0.670086 0.074415 0.064314
0.748863 0.090040 0.058981
0.818698 0.104471 0.061271
0.875200 0.121569 0.075451
0.929317 0.143059 0.095153
0.974902 0.167278 0.117396
1.000000 0.184764 0.134392
0.104627 0.085020 0.061490
0.106792 0.083608 0.060832
0.118463 0.083357 0.058887
0.191906 0.083639 0.067075
0.241349 0.095718 0.078149
0.301490 0.104157 0.078902
0.380455 0.113945 0.086024
0.477867 0.120282 0.078306
0.575435 0.127686 0.075294
0.662620 0.134714 0.052204
0.744627 0.147921 0.051137
0.814181 0.154290 0.062589
0.870745 0.167216 0.067796
0.920596 0.181961 0.087843
0.972392 0.198588 0.111717
0.998097 0.211117 0.127980
0.116706 0.154039 0.068863
0.123733 0.146290 0.071561
0.156424 0.152690 0.076831
0.209318 0.152628 0.074039
0.262588 0.161506 0.077741
0.326432 0.167373 0.074353
0.405177 0.178196 0.077772
0.497600 0.190557 0.068580
0.593381 0.200784 0.049506
0.680000 0.207655 0.039530
0.753569 0.213647 0.047373
0.817788 0.219984 0.057506
0.875357 0.225882 0.073600
0.925145 0.236831 0.089537
0.975310 0.251922 0.116298
0.999664 0.263052 0.140826
0.149490 0.184000 0.081255
0.151498 0.171106 0.081820
0.170541 0.178886 0.083827
0.212172 0.192314 0.081318
0.261835 0.201538 0.076769
0.334117 0.221647 0.068079
0.415812 0.236894 0.060863
0.508173 0.250918 0.040157
0.591969 0.261678 0.034165
0.676988 0.271247 0.029678
0.748392 0.275451 0.033098
0.817380 0.280000 0.049537
0.869365 0.284706 0.069427
0.917741 0.290824 0.097820
0.963294 0.302117 0.119906
0.998494 0.309471 0.143034
0.201569 0.261961 0.087059
0.201569 0.239216 0.092549
0.223686 0.247059 0.084863
0.257568 0.258824 0.080784
0.301020 0.274353 0.072000
0.365490 0.283137 0.067451
0.451608 0.311216 0.051608
0.537255 0.325804 0.025725
0.614745 0.336941 0.014588
0.696784 0.344470 0.008941
0.760784 0.345882 0.018823
0.818039 0.349020 0.039216
0.871843 0.350745 0.064628
0.917961 0.358431 0.098196
0.964549 0.358275 0.134745
0.999145 0.368619 0.164604
0.249098 0.334588 0.097882
0.238055 0.306886 0.086777
0.263404 0.315231 0.083357
0.294306 0.328596 0.083357
0.343341 0.343059 0.081883
0.398274 0.360000 0.074667
0.464565 0.372298 0.062086
0.548329 0.393882 0.024219
0.625130 0.403545 0.003388
0.695937 0.409725 0.001851
0.766588 0.411765 0.012863
0.821333 0.412549 0.034008
0.869772 0.411451 0.070369
0.920094 0.411765 0.104157
0.963639 0.416188 0.141584
0.999954 0.417117 0.169072
0.304000 0.433098 0.102588
0.292675 0.403451 0.091200
0.317082 0.410071 0.091200
0.347168 0.420330 0.087969
0.386478 0.428329 0.086118
0.439373 0.439530 0.080314
0.496439 0.453396 0.072408
0.567373 0.462275 0.062934
0.644706 0.479875 0.039216
0.712376 0.484204 0.026949
0.775216 0.486118 0.038432
0.823373 0.477333 0.063937
0.871216 0.477365 0.087278
0.920784 0.477992 0.125208
0.952973 0.470996 0.147357
0.995670 0.478375 0.183617
0.356078 0.514824 0.121569
0.347200 0.489945 0.113475
0.361851 0.489475 0.110776
0.393255 0.497537 0.110055
0.427326 0.506070 0.112126
0.467765 0.513726 0.103059
0.521663 0.521443 0.104345
0.577192 0.526086 0.103498
0.639028 0.536314 0.094682
0.709333 0.545412 0.092078
0.768627 0.547294 0.083765
0.816721 0.544408 0.101365
0.866070 0.539012 0.121286
0.908235 0.536470 0.145631
0.951687 0.534651 0.174714
0.991255 0.536466 0.202898
0.413176 0.592784 0.171608
0.405584 0.571263 0.159906
0.416471 0.576377 0.159372
0.438745 0.579388 0.160565
0.471749 0.579137 0.160596
0.508863 0.582588 0.158431
0.551059 0.593349 0.160690
0.599686 0.598620 0.161067
0.656282 0.607843 0.161977
0.714761 0.612549 0.166400
0.771137 0.611921 0.165019
0.818792 0.612706 0.160533
0.863153 0.603577 0.174682
0.902118 0.592251 0.181333
0.934117 0.582118 0.191373
0.973253 0.581897 0.214831
0.461961 0.657255 0.223529
0.453176 0.639216 0.211294
0.463843 0.641882 0.215686
0.485804 0.643451 0.216000
0.513411 0.646432 0.217255
0.541960 0.643921 0.216470
0.575530 0.650196 0.218353
0.616627 0.653490 0.212235
0.659608 0.654588 0.218667
0.716392 0.658667 0.215686
0.764706 0.662745 0.221177
0.810824 0.660079 0.231530
0.858981 0.656785 0.225568
0.897255 0.653333 0.236863
0.932549 0.647059 0.247059
0.968525 0.643129 0.266628
0.515294 0.707451 0.290667
0.515576 0.701459 0.287812
0.526337 0.702808 0.292110
0.544973 0.702306 0.296533
0.559937 0.705192 0.292361
0.585726 0.709490 0.299764
0.608879 0.705600 0.297004
0.645082 0.709553 0.295781
0.679373 0.711717 0.291263
0.717961 0.711498 0.286055
0.754980 0.707451 0.286118
0.802824 0.708454 0.277836
0.841192 0.703435 0.282698
0.881474 0.696565 0.274322
0.921192 0.688126 0.272188
0.952609 0.688490 0.291859
0.561569 0.749804 0.359215
0.558306 0.746541 0.350619
0.568533 0.750337 0.352376
0.579514 0.750870 0.357333
0.593506 0.748235 0.352094
0.612549 0.749804 0.353882
0.635232 0.748423 0.350808
0.659796 0.749553 0.350933
0.688596 0.751843 0.346761
0.725835 0.755420 0.350714
0.767059 0.756863 0.349176
0.803671 0.757773 0.351906
0.844549 0.757145 0.353004
0.877302 0.752816 0.352314
0.918180 0.748298 0.345474
0.954905 0.750115 0.371678
0.586196 0.781647 0.393411
0.598086 0.785381 0.402792
0.602353 0.785851 0.403482
0.607969 0.784345 0.405898
0.621176 0.786133 0.403200
0.640314 0.785412 0.408941
0.657067 0.790651 0.404361
0.678777 0.789208 0.405584
0.706321 0.790149 0.401726
0.732863 0.789459 0.404141
0.766745 0.793725 0.402980
0.800125 0.792314 0.406965
0.840565 0.795451 0.410510
0.879122 0.798306 0.407624
0.910525 0.790055 0.410604
0.935170 0.789330 0.418463
0.648941 0.839372 0.482040
0.647059 0.833098 0.471216
0.654055 0.834729 0.480471
0.660863 0.834196 0.483608
0.675953 0.834824 0.491702
0.685491 0.836079 0.488470
0.703184 0.838118 0.492800
0.722290 0.837020 0.492361
0.740643 0.837365 0.489537
0.767560 0.840816 0.492047
0.792157 0.840784 0.494902
0.820047 0.840251 0.487937
0.851294 0.840565 0.490165
0.882604 0.839686 0.490604
0.909427 0.840533 0.488000
0.937644 0.834191 0.504072
0.694047 0.870517 0.546580
0.696728 0.870337 0.554042
0.702322 0.870965 0.557163
0.703172 0.870673 0.556248
0.715835 0.870484 0.560083
0.722337 0.867381 0.553569
0.734847 0.870533 0.556221
0.754066 0.868794 0.552482
0.768056 0.869249 0.551508
0.791628 0.869888 0.552979
0.811694 0.869725 0.553561
0.836784 0.870517 0.553556
0.862396 0.871015 0.555774
0.894844 0.870176 0.555749
0.921946 0.873809 0.566321
0.948087 0.873694 0.571498
0.110588 0.083137 0.059608
0.109804 0.080784 0.061961
0.104157 0.082353 0.065412
0.181333 0.075922 0.069490
0.240000 0.069333 0.075294
0.298039 0.058824 0.083137
0.374117 0.049882 0.090824
0.469804 0.052549 0.089098
0.572392 0.044549 0.090981
0.663530 0.034824 0.095059
0.742745 0.044706 0.098039
0.812392 0.068078 0.100549
0.870431 0.090981 0.110588
0.923765 0.120941 0.129412
0.969882 0.151059 0.148235
0.999961 0.174071 0.162290
0.108078 0.080941 0.063059
0.110431 0.082855 0.063467
0.121851 0.078212 0.059326
0.202667 0.074635 0.069051
0.253459 0.070369 0.077427
0.315294 0.081882 0.083608
0.394855 0.092581 0.091232
0.488063 0.091138 0.094243
0.583310 0.087875 0.095624
0.677334 0.085522 0.092204
0.756392 0.098353 0.101176
0.815373 0.111153 0.100016
0.875482 0.127341 0.112376
0.928063 0.153192 0.128031
0.975279 0.180267 0.154227
1.000000 0.196549 0.165653
0.108235 0.085804 0.059451
0.108047 0.082479 0.058949
0.135749 0.085710 0.058416
0.197114 0.093898 0.069302
0.244612 0.106980 0.073569
0.306980 0.117019 0.082981
0.388016 0.127529 0.089161
0.482823 0.135310 0.093396
0.579263 0.137380 0.091388
0.670463 0.139765 0.089569
0.746196 0.147608 0.092079
0.811733 0.162071 0.099106
0.869020 0.172831 0.108455
0.920439 0.188580 0.122698
0.967749 0.205365 0.142714
0.999026 0.219446 0.156071
0.131137 0.155137 0.073255
0.137286 0.144722 0.074133
0.169192 0.152784 0.078086
0.215372 0.154855 0.079310
0.268267 0.161694 0.081882
0.328471 0.173334 0.086118
0.409098 0.183686 0.087561
0.504063 0.195326 0.087624
0.595671 0.204204 0.086557
0.681757 0.209223 0.086494
0.756235 0.213334 0.087216
0.815969 0.221804 0.098071
0.873224 0.227482 0.113192
0.923608 0.241537 0.133239
0.970102 0.259106 0.153129
0.996384 0.268398 0.166438
0.170353 0.190588 0.088784
0.163576 0.176000 0.083670
0.186510 0.183655 0.086745
0.221333 0.195388 0.086086
0.274824 0.207121 0.090730
0.344314 0.224314 0.084863
0.420863 0.238588 0.084580
0.508800 0.251325 0.078400
0.598996 0.261271 0.073757
0.680157 0.267545 0.070337
0.753098 0.279216 0.083137
0.815906 0.281788 0.097945
0.871436 0.285867 0.112408
0.917710 0.294149 0.133521
0.962761 0.304313 0.150870
0.998386 0.316237 0.175038
0.214118 0.268235 0.102745
0.211765 0.244706 0.100078
0.230588 0.251921 0.103529
0.264000 0.265098 0.098824
0.311686 0.275451 0.097568
0.372549 0.289412 0.093333
0.453333 0.310902 0.081726
0.535529 0.325490 0.069804
0.619608 0.334118 0.062589
0.697883 0.342745 0.060863
0.754510 0.342745 0.079216
0.816471 0.346196 0.092549
0.872470 0.352941 0.110431
0.920941 0.357647 0.138039
0.963451 0.364706 0.168470
0.999922 0.374879 0.189765
0.257726 0.342431 0.119686
0.244612 0.312941 0.105851
0.267953 0.322196 0.105192
0.302651 0.332674 0.104314
0.349271 0.345475 0.107922
0.402353 0.361255 0.101176
0.470212 0.374023 0.092392
0.551529 0.394102 0.070463
0.628988 0.402572 0.065820
0.697349 0.408094 0.057600
0.761725 0.410510 0.068706
0.821490 0.410698 0.088596
0.871122 0.412675 0.113192
0.915671 0.415749 0.140079
0.960878 0.419420 0.173835
0.996340 0.425851 0.197126
0.309804 0.434980 0.134118
0.301459 0.406557 0.117145
0.323169 0.412518 0.118965
0.350902 0.422714 0.116580
0.389804 0.430306 0.116894
0.442353 0.442196 0.112314
0.500706 0.454588 0.110933
0.570698 0.466667 0.103843
0.648628 0.481255 0.091639
0.711184 0.484706 0.087937
0.771921 0.484235 0.096628
0.826384 0.481475 0.107325
0.869584 0.480157 0.127624
0.916675 0.479059 0.159718
0.951812 0.472941 0.175185
0.993484 0.479784 0.207912
0.361882 0.517647 0.153098
0.352157 0.491608 0.136941
0.367592 0.495686 0.141396
0.400376 0.500172 0.141835
0.433381 0.509647 0.137977
0.475608 0.515765 0.136470
0.522384 0.521380 0.134619
0.582463 0.527310 0.139043
0.641882 0.537255 0.132392
0.710274 0.547608 0.132926
0.767059 0.549647 0.128471
0.818918 0.545318 0.136972
0.862965 0.540424 0.151310
0.906980 0.539326 0.171294
0.953380 0.534651 0.200157
0.984398 0.537077 0.223333
0.417726 0.592470 0.194039
0.409412 0.571796 0.184690
0.427075 0.575655 0.184220
0.448063 0.577631 0.185380
0.478777 0.581804 0.188141
0.517334 0.586824 0.190274
0.554322 0.593255 0.187075
0.604141 0.599655 0.190902
0.657788 0.609757 0.193506
0.716926 0.615090 0.191498
0.766745 0.613333 0.194510
0.818133 0.611451 0.191529
0.863467 0.605051 0.202855
0.899263 0.593474 0.210227
0.934431 0.585443 0.210667
0.972949 0.583021 0.231487
0.468235 0.652549 0.244706
0.462745 0.639216 0.238431
0.474196 0.638902 0.240784
0.490353 0.644078 0.241725
0.515608 0.646588 0.238745
0.543529 0.644706 0.238431
0.578040 0.650353 0.238745
0.619765 0.651921 0.235765
0.663216 0.655843 0.239059
0.712627 0.660079 0.242824
0.766274 0.660392 0.243922
0.808941 0.662274 0.250510
0.855686 0.658510 0.247686
0.897255 0.656000 0.262902
0.931294 0.647059 0.266510
0.969373 0.647020 0.287804
0.521883 0.705725 0.310117
0.520690 0.702965 0.309082
0.528000 0.707106 0.306416
0.545380 0.705757 0.311059
0.562792 0.704157 0.312533
0.584941 0.703529 0.311529
0.615184 0.705976 0.311435
0.644078 0.707953 0.309961
0.681443 0.708768 0.307859
0.717710 0.707827 0.301867
0.756863 0.706666 0.300392
0.804236 0.707859 0.297569
0.841569 0.703749 0.296910
0.883326 0.697224 0.290479
0.917082 0.690165 0.291985
0.955655 0.691256 0.310546
0.562666 0.747922 0.368941
0.564518 0.748988 0.364204
0.572894 0.746698 0.364267
0.585537 0.749427 0.368627
0.597772 0.749364 0.370667
0.611921 0.748392 0.369569
0.636737 0.748361 0.364863
0.662400 0.749553 0.364674
0.696282 0.750745 0.364737
0.731169 0.752565 0.367812
0.766588 0.755294 0.363137
0.803294 0.758839 0.364298
0.844769 0.759059 0.365239
0.877710 0.754353 0.367529
0.917020 0.746164 0.356204
0.953635 0.748386 0.379544
0.585098 0.781177 0.403922
0.599875 0.786447 0.412361
0.601976 0.785537 0.409443
0.610510 0.786039 0.413490
0.625192 0.787200 0.412769
0.638745 0.788079 0.416000
0.658133 0.790525 0.419043
0.682039 0.789114 0.414369
0.706290 0.791749 0.412706
0.734776 0.790620 0.411733
0.768627 0.792784 0.412706
0.808596 0.793129 0.418039
0.841412 0.795482 0.419922
0.877741 0.797428 0.417098
0.908643 0.790996 0.421898
0.937353 0.789165 0.430384
0.646432 0.837177 0.487686
0.652455 0.833631 0.481631
0.654306 0.834165 0.487059
0.665192 0.834824 0.493208
0.673631 0.835231 0.496753
0.686118 0.835922 0.495686
0.704094 0.837522 0.498824
0.720879 0.836392 0.498636
0.743404 0.840314 0.499388
0.766557 0.839341 0.499608
0.792157 0.837647 0.499608
0.821208 0.837710 0.497945
0.851734 0.839184 0.498259
0.884581 0.839404 0.498824
0.908298 0.837898 0.495968
0.937189 0.834657 0.504734
0.694040 0.870510 0.552831
0.702330 0.870994 0.558756
0.703760 0.870496 0.558648
0.707363 0.868181 0.558306
0.717865 0.871437 0.562191
0.725412 0.870510 0.564549
0.734563 0.868659 0.560358
0.752874 0.867870 0.557821
0.767752 0.870820 0.558086
0.787876 0.870212 0.560290
0.814016 0.868957 0.559027
0.834319 0.872086 0.562160
0.861919 0.870524 0.562191
0.893094 0.872864 0.561740
0.918855 0.876307 0.566386
0.947310 0.875953 0.572368
0.109804 0.088628 0.105882
0.105411 0.084236 0.101490
0.099294 0.086118 0.101020
0.174118 0.075137 0.098196
0.244079 0.067922 0.104627
0.305882 0.056471 0.106667
0.380863 0.049255 0.125020
0.476549 0.028863 0.124392
0.578667 0.009255 0.131451
0.671529 0.016000 0.138039
0.749020 0.043137 0.145882
0.811294 0.073255 0.146667
0.872000 0.104157 0.157490
0.920000 0.134118 0.171451
0.968157 0.171765 0.187137
0.999906 0.195216 0.206965
0.103686 0.090667 0.116706
0.105443 0.085647 0.105663
0.131890 0.083043 0.111875
0.203953 0.072627 0.109961
0.257600 0.075294 0.113694
0.323765 0.088471 0.122039
0.402949 0.084581 0.127843
0.493239 0.076361 0.127781
0.593569 0.073443 0.133898
0.680063 0.078776 0.136157
0.753412 0.097726 0.145412
0.819765 0.115545 0.150871
0.876235 0.139325 0.161255
0.925867 0.163796 0.174306
0.971577 0.194980 0.196204
1.000000 0.219413 0.208342
0.102902 0.087686 0.094902
0.105443 0.086934 0.087874
0.154290 0.091985 0.095090
0.202039 0.104910 0.103121
0.246212 0.117082 0.109459
0.317804 0.124235 0.120314
0.398651 0.130980 0.125929
0.491357 0.127749 0.125020
0.585161 0.130886 0.128628
0.673380 0.137851 0.132580
0.751530 0.150431 0.139451
0.814180 0.162227 0.146886
0.871247 0.178918 0.157773
0.915451 0.198306 0.168910
0.967623 0.221804 0.187922
0.997893 0.235286 0.202144
0.151372 0.156392 0.109960
0.156423 0.150902 0.105976
0.180392 0.155985 0.111059
0.220674 0.158682 0.112031
0.273976 0.165710 0.118996
0.335215 0.173333 0.117490
0.416627 0.183059 0.125867
0.510965 0.189239 0.126337
0.601945 0.198839 0.127153
0.685145 0.206494 0.132831
0.761098 0.215686 0.141333
0.817129 0.224973 0.148016
0.872471 0.234134 0.161663
0.921255 0.250730 0.177757
0.969192 0.269616 0.197239
0.999013 0.283951 0.209725
0.177098 0.195137 0.115921
0.175812 0.184376 0.105317
0.197710 0.190777 0.113662
0.232471 0.202385 0.118368
0.283044 0.213082 0.117647
0.350275 0.229176 0.119529
0.429553 0.239498 0.121098
0.518714 0.249945 0.118086
0.602416 0.259294 0.124675
0.686871 0.268894 0.125710
0.758902 0.278431 0.133490
0.817757 0.281945 0.146290
0.870212 0.289098 0.159906
0.920219 0.302777 0.180894
0.964612 0.316455 0.198934
0.995396 0.323440 0.217075
0.225882 0.272941 0.131765
0.218980 0.254902 0.127372
0.238902 0.259765 0.129882
0.273255 0.269020 0.131137
0.314510 0.280000 0.128000
0.380392 0.294902 0.127843
0.462745 0.312157 0.114823
0.549490 0.323922 0.115765
0.627294 0.336314 0.117647
0.704314 0.340862 0.120628
0.760784 0.346667 0.134902
0.820863 0.349020 0.144000
0.870432 0.355294 0.160000
0.918902 0.367843 0.188863
0.962353 0.369882 0.210196
0.999937 0.381945 0.230549
0.269177 0.348549 0.150431
0.256345 0.320408 0.132674
0.278525 0.330196 0.136314
0.315827 0.338698 0.138823
0.357019 0.351028 0.137161
0.412863 0.361726 0.130980
0.478808 0.381145 0.135153
0.555169 0.395765 0.122384
0.630432 0.405741 0.122290
0.701898 0.408314 0.118024
0.761726 0.412235 0.130353
0.820831 0.413459 0.146008
0.866792 0.414777 0.163608
0.914918 0.420110 0.186353
0.959498 0.428580 0.218949
0.999592 0.434179 0.240071
0.320000 0.440000 0.167059
0.309333 0.411639 0.149772
0.331012 0.417475 0.153286
0.359969 0.424000 0.154541
0.399027 0.433443 0.157584
0.448627 0.443137 0.154667
0.506259 0.457443 0.156486
0.574306 0.469019 0.153443
