example_ofxGpuLutCube/bin/data/ofxGpuLutCube/LUT/A37 (old style soft teal fade).cube
LUT_3D_SIZE 16
0.000000 0.000000 0.000000
0.043921 0.012549 0.003922
0.088627 0.013333 0.003922
0.152941 0.021961 0.007843
0.231372 0.018824 0.000000
0.325490 0.007843 0.000000
0.458039 0.003138 0.000000
0.605490 0.000000 0.002353
0.716078 0.003922 0.003922
0.792941 0.000000 0.000000
0.858824 0.000000 0.000000
0.903530 0.000000 0.000000
0.945882 0.010980 0.001569
0.981177 0.036079 0.000000
1.000000 0.069019 0.000784
0.999961 0.129255 0.000000
0.015686 0.037647 0.007059
0.042353 0.040157 0.007529
0.083137 0.041098 0.003922
0.143843 0.048628 0.003138
0.214902 0.057255 0.000000
0.308235 0.065098 0.000000
0.451451 0.077647 0.003138
0.587294 0.089726 0.000471
0.690981 0.092863 0.000784
0.779138 0.086431 0.000628
0.842353 0.083137 0.000000
0.892392 0.086118 0.000000
0.939294 0.089412 0.000314
0.976941 0.097726 0.000941
0.999216 0.111373 0.000314
0.999208 0.154353 0.003883
0.030588 0.087843 0.002353
0.058039 0.090510 0.000314
0.093490 0.088000 0.001883
0.146824 0.098196 0.000000
0.228392 0.113726 0.000000
0.359216 0.138824 0.000000
0.491765 0.165490 0.004079
0.614118 0.179451 0.001412
0.708235 0.182902 0.004236
0.785726 0.179451 0.000000
0.843137 0.172549 0.000000
0.897569 0.170196 0.002353
0.942275 0.164079 0.002981
0.975216 0.165647 0.000941
0.995607 0.172392 0.000471
0.997623 0.202235 0.000000
0.027451 0.140392 0.000000
0.061176 0.152941 0.001883
0.109333 0.157176 0.000000
0.163137 0.160784 0.000000
0.246431 0.180706 0.005020
0.350588 0.217255 0.000000
0.475451 0.237961 0.001569
0.588549 0.257412 0.000941
0.679373 0.261961 0.000941
0.760000 0.255216 0.000000
0.822745 0.250981 0.000000
0.878118 0.243451 0.001255
0.930196 0.238431 0.000000
0.962353 0.233882 0.000000
0.991216 0.232941 0.000000
0.999984 0.246235 0.002330
0.000000 0.298823 0.000000
0.073098 0.335686 0.005647
0.158118 0.325490 0.000471
0.237333 0.313255 0.000314
0.303843 0.298824 0.005804
0.378824 0.307451 0.003138
0.486902 0.327059 0.002510
0.587608 0.338823 0.001883
0.676078 0.341019 0.003138
0.751372 0.341961 0.003765
0.814118 0.330196 0.000000
0.873568 0.322196 0.000628
0.916549 0.314196 0.001255
0.956549 0.304314 0.000000
0.988392 0.295529 0.002510
0.999969 0.302706 0.006243
0.000000 0.376471 0.000000
0.026667 0.439216 0.000000
0.150588 0.425882 0.002353
0.238431 0.413333 0.000000
0.313725 0.400784 0.003138
0.380392 0.388235 0.000000
0.460392 0.385098 0.000784
0.560000 0.403137 0.002353
0.645490 0.407843 0.003922
0.722353 0.404706 0.003138
0.796078 0.396078 0.003922
0.857255 0.391373 0.006274
0.906667 0.381177 0.000000
0.941961 0.370196 0.000000
0.978039 0.357647 0.000000
0.996078 0.356863 0.000000
0.000000 0.494118 0.000000
0.003137 0.557333 0.001255
0.143373 0.540863 0.000000
0.245647 0.523608 0.002667
0.322196 0.507294 0.000784
0.401569 0.490980 0.000000
0.461491 0.476235 0.000157
0.541020 0.466039 0.000000
0.629490 0.473569 0.001883
0.704470 0.472314 0.000157
0.778823 0.472941 0.003138
0.837490 0.457255 0.000000
0.893333 0.447216 0.000471
0.934588 0.439216 0.003138
0.970353 0.423529 0.003922
0.995992 0.418008 0.000000
0.006275 0.552941 0.000000
0.000000 0.606902 0.000471
0.106039 0.596863 0.002510
0.220392 0.587137 0.000941
0.307764 0.574274 0.001255
0.388235 0.564706 0.003922
0.457255 0.554981 0.000314
0.526432 0.540549 0.001569
0.597490 0.526432 0.001569
0.677334 0.524706 0.002667
0.741961 0.526275 0.000000
0.818039 0.522353 0.000471
0.868078 0.511216 0.000000
0.917804 0.497412 0.000941
0.953726 0.482510 0.002039
0.976455 0.475278 0.000039
0.000000 0.610196 0.000000
0.004235 0.651294 0.005020
0.074196 0.646902 0.003294
0.191372 0.641412 0.002823
0.284236 0.630118 0.002980
0.367843 0.618823 0.001569
0.445804 0.614588 0.000000
0.518275 0.607843 0.004392
0.584470 0.602196 0.000000
0.657255 0.594039 0.000000
0.727059 0.589020 0.000000
0.798431 0.585098 0.006118
0.854902 0.577098 0.000941
0.902745 0.563921 0.000000
0.939137 0.545569 0.000000
0.972463 0.534917 0.003898
0.000000 0.664314 0.003138
0.000628 0.696471 0.000000
0.040000 0.683922 0.000314
0.171765 0.680000 0.000000
0.268392 0.679373 0.000000
0.349804 0.675294 0.000000
0.425569 0.669647 0.000000
0.496000 0.666196 0.003765
0.565020 0.654588 0.001255
0.636706 0.648157 0.000000
0.702745 0.640000 0.000000
0.776471 0.639372 0.000000
0.836235 0.636392 0.001255
0.883922 0.618353 0.000000
0.919059 0.597804 0.000000
0.950518 0.587467 0.000000
0.003922 0.717647 0.007843
0.003138 0.734117 0.000000
0.038431 0.730980 0.000000
0.163137 0.733333 0.003922
0.258823 0.729412 0.000000
0.333333 0.725490 0.003922
0.411765 0.728628 0.000784
0.490196 0.723922 0.000000
0.558432 0.721569 0.000000
0.634510 0.717647 0.000000
0.701961 0.705882 0.000000
0.763921 0.701961 0.000000
0.825882 0.694902 0.000000
0.881569 0.676078 0.002353
0.909804 0.660393 0.000784
0.945059 0.639255 0.003922
0.000000 0.762353 0.003138
0.000000 0.765176 0.003765
0.037020 0.768000 0.000314
0.153411 0.763451 0.001883
0.243922 0.763765 0.006902
0.320785 0.766275 0.000000
0.394510 0.759843 0.000784
0.465726 0.763765 0.000000
0.536628 0.758432 0.001883
0.606118 0.752000 0.000628
0.666667 0.750589 0.000784
0.736784 0.747294 0.003294
0.803137 0.742745 0.001569
0.855686 0.731765 0.002353
0.895373 0.711843 0.002667
0.927773 0.691741 0.000000
0.010980 0.807843 0.000000
0.085176 0.808157 0.000000
0.135686 0.807843 0.003765
0.198275 0.805177 0.000941
0.262431 0.801883 0.005490
0.334118 0.805490 0.002353
0.392471 0.806275 0.001883
0.465098 0.801255 0.001412
0.530823 0.801098 0.001569
0.589177 0.796079 0.000000
0.654118 0.792157 0.002353
0.713568 0.791372 0.001255
0.777255 0.784000 0.000628
0.836079 0.780549 0.000000
0.881098 0.763137 0.000000
0.906620 0.744345 0.003122
0.119215 0.829020 0.000000
0.147137 0.831843 0.002980
0.173490 0.828863 0.004392
0.223059 0.828863 0.001883
0.276079 0.828235 0.002353
0.337255 0.831373 0.001569
0.389647 0.825098 0.004706
0.449569 0.823529 0.001569
0.508392 0.823373 0.001883
0.564235 0.819294 0.000471
0.625098 0.818039 0.000000
0.682039 0.812549 0.000000
0.741176 0.807843 0.000000
0.792941 0.805647 0.001412
0.851294 0.800157 0.003138
0.894016 0.785137 0.001569
0.276862 0.849411 0.069019
0.314980 0.850353 0.119530
0.312000 0.847059 0.094745
0.331608 0.849412 0.082824
0.359216 0.849411 0.065882
0.388235 0.843137 0.059608
0.435451 0.843137 0.056157
0.476549 0.840157 0.064000
0.520941 0.838745 0.062588
0.570353 0.837961 0.057412
0.616470 0.834510 0.051765
0.669647 0.829334 0.050980
0.717804 0.826667 0.055059
0.771294 0.823058 0.050196
0.819451 0.815059 0.016941
0.867302 0.811796 0.031216
0.344902 0.850980 0.203608
0.371514 0.852564 0.218518
0.373898 0.853310 0.203671
0.388078 0.850980 0.207569
0.409263 0.850980 0.206784
0.435137 0.850941 0.215294
0.464212 0.847098 0.208314
0.501051 0.843153 0.206047
0.536392 0.847020 0.209835
0.577216 0.840000 0.202902
0.619608 0.839216 0.199765
0.669028 0.832189 0.203687
0.714510 0.833718 0.203749
0.765411 0.826674 0.203632
0.806306 0.823529 0.198839
0.843175 0.819608 0.191921
0.025098 0.012549 0.015686
0.045333 0.008157 0.012706
0.086118 0.021176 0.020706
0.133804 0.019922 0.018980
0.197333 0.018196 0.020863
0.285491 0.003922 0.010196
0.423372 0.000000 0.008627
0.566588 0.001255 0.001726
0.669177 0.001883 0.001883
0.749490 0.000157 0.000628
0.815686 0.000000 0.000000
0.870902 0.000628 0.000000
0.922980 0.000000 0.002353
0.965960 0.014588 0.002039
0.997804 0.056628 0.000000
1.000000 0.122157 0.003106
0.014432 0.034196 0.009412
0.041851 0.037490 0.015686
0.075890 0.041788 0.013239
0.122604 0.048000 0.018761
0.179765 0.052643 0.013145
0.275922 0.050667 0.007216
0.415153 0.053333 0.002259
0.543498 0.056502 0.002573
0.649882 0.054337 0.000063
0.735090 0.054149 0.000628
0.797961 0.055529 0.000628
0.863435 0.059325 0.001318
0.913820 0.070243 0.001004
0.956486 0.079623 0.001694
0.989271 0.092518 0.001130
0.999998 0.143377 0.006367
0.035608 0.082981 0.013176
0.055090 0.081945 0.016376
0.083294 0.080784 0.015184
0.134808 0.088565 0.013616
0.210886 0.100863 0.007624
0.330823 0.125490 0.003137
0.460141 0.145694 0.002447
0.574933 0.155953 0.001694
0.668706 0.158118 0.002071
0.747137 0.157710 0.000377
0.807216 0.155294 0.002353
0.866322 0.152533 0.000565
0.920314 0.153098 0.001914
0.962729 0.159780 0.001286
0.994541 0.168565 0.004612
0.998426 0.199274 0.001727
0.039059 0.127372 0.010667
0.061020 0.140643 0.003953
0.104251 0.145192 0.003357
0.155420 0.149773 0.004110
0.226824 0.165333 0.002824
0.326118 0.194980 0.000000
0.447906 0.219074 0.006149
0.549333 0.232972 0.000000
0.641883 0.238306 0.001255
0.723388 0.236737 0.000753
0.790745 0.232628 0.000000
0.851326 0.229459 0.001255
0.913129 0.227325 0.001255
0.951686 0.225600 0.001067
0.984784 0.221396 0.004549
0.998105 0.243051 0.004193
0.000000 0.284236 0.005020
0.053773 0.318839 0.006306
0.147419 0.305945 0.003263
0.215561 0.295529 0.002008
0.277992 0.276737 0.002165
0.358275 0.283765 0.000784
0.460267 0.305286 0.000031
0.554980 0.317961 0.004141
0.649788 0.318808 0.001318
0.727247 0.319436 0.000000
0.792157 0.313725 0.000628
0.850855 0.306792 0.000628
0.906855 0.303373 0.000000
0.953600 0.297851 0.002949
0.981773 0.294965 0.000126
0.999354 0.304273 0.005790
0.000000 0.376471 0.000000
0.016314 0.425882 0.000000
0.142118 0.411138 0.002039
0.224785 0.396078 0.002196
0.297412 0.380235 0.000000
0.364706 0.367058 0.003138
0.441098 0.364706 0.002510
0.528157 0.380706 0.004706
0.617726 0.382902 0.000000
0.694118 0.383530 0.000000
0.767843 0.383530 0.003138
0.837647 0.376471 0.003138
0.890824 0.374745 0.000314
0.930824 0.364392 0.000000
0.970196 0.353882 0.003765
0.999969 0.359929 0.003922
0.000314 0.488628 0.000157
0.001349 0.545694 0.001286
0.133020 0.535404 0.001004
0.229898 0.513663 0.000314
0.313788 0.493333 0.002541
0.384000 0.480000 0.005804
0.457851 0.462651 0.002636
0.525678 0.453710 0.000000
0.611200 0.460487 0.001820
0.688126 0.459639 0.003169
0.755451 0.457412 0.000314
0.824314 0.450918 0.000031
0.882761 0.442447 0.000063
0.928220 0.438181 0.001161
0.966212 0.424031 0.000000
0.991338 0.418805 0.000000
0.001726 0.549490 0.000471
0.003765 0.603357 0.000879
0.103122 0.597647 0.001443
0.213114 0.583812 0.001506
0.301835 0.567969 0.001569
0.381961 0.557961 0.001726
0.453428 0.539827 0.003639
0.516706 0.525114 0.000126
0.577819 0.512533 0.001726
0.656251 0.514416 0.001883
0.731765 0.514510 0.002039
0.801129 0.512596 0.003326
0.864722 0.505694 0.001255
0.913004 0.493679 0.002541
0.948047 0.482165 0.001506
0.975814 0.472960 0.000000
0.001255 0.615216 0.003608
0.000690 0.657851 0.003200
0.086337 0.650384 0.002792
0.197208 0.644863 0.001130
0.285271 0.633098 0.001255
0.373804 0.624785 0.003608
0.448094 0.617349 0.002635
0.517051 0.609380 0.004361
0.584627 0.596894 0.003765
0.652800 0.584251 0.001475
0.724863 0.582745 0.000000
0.791969 0.576627 0.001726
0.850980 0.573176 0.000000
0.898447 0.562290 0.000753
0.938510 0.545443 0.000502
0.970599 0.533054 0.000000
0.000000 0.665726 0.004549
0.000000 0.699890 0.000126
0.071969 0.693334 0.000000
0.183059 0.689035 0.000000
0.273349 0.683012 0.002133
0.352784 0.678745 0.000000
0.423027 0.672126 0.000502
0.496220 0.662651 0.004581
0.562447 0.650761 0.004392
0.632314 0.643294 0.000000
0.698039 0.635608 0.001255
0.772423 0.635420 0.000408
0.832439 0.627702 0.000000
0.881192 0.614933 0.001757
0.923263 0.597835 0.000784
0.953518 0.583432 0.001250
0.000000 0.721569 0.000000
0.000000 0.741176 0.008785
0.088470 0.740862 0.000000
0.184314 0.738823 0.000000
0.266196 0.733333 0.000628
0.345098 0.729412 0.003922
0.420392 0.730824 0.003138
0.495216 0.731764 0.005020
0.560314 0.722824 0.000000
0.628236 0.714509 0.000628
0.693334 0.708235 0.000000
0.763921 0.701961 0.000157
0.817569 0.693804 0.001883
0.873725 0.682353 0.001883
0.910745 0.663529 0.003138
0.940321 0.642400 0.003138
0.002039 0.762510 0.001412
0.005553 0.776377 0.000784
0.097349 0.772486 0.000000
0.180016 0.771262 0.000628
0.257318 0.769631 0.000659
0.332078 0.766902 0.000784
0.397177 0.768753 0.001286
0.469647 0.763608 0.001820
0.536439 0.758620 0.002259
0.603106 0.753882 0.000628
0.666039 0.749961 0.000157
0.737412 0.748675 0.001161
0.799749 0.743373 0.000628
0.853961 0.731545 0.000000
0.889035 0.711655 0.000157
0.921219 0.688698 0.000000
0.079530 0.807373 0.000000
0.149804 0.812392 0.000251
0.176157 0.810698 0.001694
0.227137 0.807216 0.001224
0.286777 0.809318 0.000000
0.348079 0.809412 0.001255
0.410353 0.810008 0.003859
0.474635 0.806714 0.000282
0.534996 0.801004 0.001443
0.592847 0.799937 0.001098
0.658039 0.793725 0.002353
0.715608 0.789773 0.000000
0.776188 0.784910 0.000784
0.838965 0.779106 0.000439
0.878588 0.767153 0.000377
0.906922 0.743865 0.000475
0.157177 0.829490 0.001883
0.188988 0.828298 0.000502
0.212957 0.829271 0.003326
0.253867 0.829741 0.001035
0.298541 0.831718 0.001506
0.348392 0.829804 0.000000
0.410228 0.825788 0.005396
0.459231 0.825098 0.000188
0.516141 0.824157 0.000628
0.569945 0.818039 0.000000
0.631373 0.815216 0.000471
0.683859 0.812236 0.000251
0.742588 0.809129 0.001537
0.797019 0.807687 0.000941
0.852549 0.798902 0.002887
0.886706 0.787503 0.001553
0.293334 0.850196 0.137098
0.344627 0.846055 0.183749
0.348925 0.847184 0.178604
0.360408 0.846682 0.160565
0.380235 0.846306 0.148832
0.411137 0.845804 0.141804
0.451513 0.839090 0.136439
0.484455 0.841067 0.139168
0.529694 0.838526 0.130447
0.574275 0.833412 0.118776
0.624313 0.833882 0.117647
0.675043 0.827859 0.118118
0.719090 0.826227 0.115765
0.769318 0.824031 0.110557
0.820079 0.818353 0.091859
0.864072 0.815518 0.099093
0.376181 0.850980 0.236557
0.382775 0.854125 0.249205
0.396546 0.853911 0.244334
0.407368 0.852204 0.247390
0.429003 0.850968 0.244488
0.443059 0.847067 0.243623
0.475061 0.848326 0.236944
0.503907 0.845338 0.240637
0.542044 0.842795 0.234102
0.581142 0.839216 0.229260
0.626635 0.836102 0.235749
0.670391 0.836548 0.231288
0.720290 0.829832 0.233506
0.766248 0.827922 0.228023
0.810214 0.826008 0.220282
0.847004 0.819569 0.221718
0.034510 0.021961 0.038431
0.060236 0.022745 0.038745
0.089569 0.021176 0.038588
0.138196 0.022902 0.044706
0.192470 0.016628 0.043922
0.280000 0.002353 0.050196
0.411294 0.000000 0.053020
0.537255 0.003294 0.049883
0.639373 0.000000 0.039373
0.724863 0.000000 0.021490
0.795294 0.000000 0.011765
0.854588 0.000314 0.004392
0.913882 0.000000 0.004706
0.959373 0.017569 0.010039
0.996078 0.081098 0.016000
0.999976 0.157420 0.085992
0.038118 0.043921 0.023843
0.058604 0.045082 0.031059
0.082855 0.045020 0.036769
0.123106 0.050353 0.035671
0.175028 0.047027 0.038494
0.271686 0.038118 0.042667
0.398557 0.021114 0.045082
0.520314 0.009129 0.037082
0.622149 0.005020 0.025820
0.709553 0.006588 0.009882
0.780549 0.009255 0.002824
0.848188 0.024408 0.000784
0.909051 0.055686 0.001130
0.949208 0.079686 0.004581
0.985788 0.104533 0.004518
0.999965 0.164841 0.069326
0.042510 0.078275 0.038275
0.060769 0.083890 0.036675
0.095655 0.087059 0.039937
0.138133 0.088188 0.039906
0.212078 0.100204 0.046714
0.315608 0.113725 0.040941
0.434886 0.119968 0.039906
0.545537 0.128031 0.027576
0.641914 0.132016 0.014996
0.724894 0.133145 0.006149
0.792784 0.133961 0.000941
0.854902 0.139325 0.001035
0.911875 0.149459 0.003639
0.953851 0.162949 0.000565
0.989082 0.176125 0.011545
0.999994 0.218715 0.083989
0.039059 0.131922 0.036863
0.066447 0.142714 0.039874
0.109584 0.145945 0.034949
0.157177 0.144533 0.033694
0.226636 0.159090 0.035451
0.318745 0.180392 0.021804
0.424376 0.199341 0.014181
0.527686 0.210541 0.004518
0.620706 0.215686 0.003765
0.706196 0.218039 0.001945
0.775530 0.215686 0.003922
0.840659 0.220110 0.000125
0.901647 0.220518 0.003106
0.944753 0.225475 0.000000
0.979639 0.227796 0.002353
0.999962 0.257442 0.048369
0.000000 0.266667 0.016471
0.049631 0.296596 0.022118
0.138322 0.288314 0.015247
0.203765 0.275231 0.013396
0.265224 0.259326 0.011012
0.340235 0.269490 0.000627
0.439184 0.287310 0.001977
0.536753 0.298761 0.000282
0.627294 0.303749 0.000784
0.704721 0.306384 0.001600
0.775530 0.303059 0.000000
0.835702 0.302588 0.000063
0.901710 0.297223 0.002698
0.945726 0.304533 0.001632
0.978102 0.299075 0.001882
0.999653 0.319917 0.060932
0.004706 0.353726 0.002353
0.009726 0.400471 0.000000
0.128471 0.388549 0.000628
0.212078 0.374902 0.000000
0.283765 0.360784 0.000784
0.351373 0.351373 0.006275
0.420392 0.348235 0.000000
0.515294 0.361725 0.001412
0.596863 0.369412 0.000000
0.680314 0.371294 0.000000
0.759216 0.370980 0.002353
0.829334 0.372549 0.000000
0.884706 0.369255 0.003137
0.929255 0.363765 0.000628
0.967686 0.355294 0.000471
0.999898 0.364643 0.017145
0.002980 0.465412 0.005333
0.000628 0.523294 0.000377
0.125459 0.509270 0.000628
0.221679 0.493835 0.001318
0.301741 0.477302 0.000000
0.370823 0.461177 0.001726
0.441380 0.446808 0.001757
0.512753 0.438118 0.000188
0.598839 0.448784 0.000188
0.676925 0.448376 0.002134
0.750431 0.445176 0.001569
0.814996 0.441977 0.001381
0.876079 0.442039 0.000000
0.923953 0.435326 0.000596
0.958023 0.425380 0.000471
0.989302 0.425084 0.023040
0.000941 0.533333 0.000000
0.000000 0.588267 0.004330
0.100926 0.580926 0.000941
0.206274 0.565835 0.001318
0.294369 0.555420 0.002008
0.370039 0.542588 0.000000
0.440659 0.529506 0.001381
0.505569 0.511749 0.001192
0.567090 0.501616 0.001506
0.647875 0.503717 0.001506
0.725647 0.507451 0.000941
0.796047 0.507012 0.001067
0.860330 0.504533 0.000377
0.907074 0.494839 0.002133
0.942557 0.483420 0.002039
0.973761 0.479820 0.006833
0.004078 0.606902 0.001569
0.001255 0.644581 0.000816
0.092925 0.640220 0.000565
0.195859 0.635075 0.000941
0.282259 0.625286 0.001318
0.366274 0.617255 0.000941
0.437490 0.609569 0.002385
0.512126 0.600000 0.001883
0.577412 0.588298 0.003357
0.644549 0.579388 0.001255
0.715137 0.578667 0.000000
0.787357 0.573710 0.002698
0.849098 0.570102 0.000628
0.897976 0.560565 0.002071
0.934212 0.549208 0.005020
0.964800 0.538640 0.000938
0.007686 0.654432 0.005020
0.000878 0.691138 0.000533
0.092298 0.688439 0.000000
0.186384 0.684581 0.002698
0.270651 0.677929 0.000000
0.347922 0.671529 0.001883
0.425098 0.664345 0.001506
0.490604 0.655843 0.001663
0.557020 0.643357 0.001694
0.628204 0.638055 0.000345
0.690196 0.630588 0.002353
0.764047 0.631780 0.002510
0.831906 0.626102 0.000000
0.880565 0.612800 0.001035
0.921788 0.598243 0.004581
0.953163 0.587487 0.006212
0.001569 0.720000 0.000000
0.011608 0.737725 0.003608
0.114980 0.735529 0.000628
0.197647 0.734745 0.001882
0.272941 0.731294 0.000000
0.352941 0.729412 0.003922
0.420863 0.727373 0.003138
0.493647 0.725490 0.000941
0.560784 0.719216 0.001569
0.627922 0.710902 0.003137
0.690196 0.704314 0.000000
0.759373 0.698039 0.000000
0.820078 0.691608 0.002353
0.870745 0.680941 0.001883
0.903843 0.660549 0.001726
0.934894 0.648651 0.001577
0.000000 0.766118 0.003451
0.059482 0.773145 0.001663
0.128596 0.771231 0.000282
0.199592 0.770321 0.003294
0.270682 0.767624 0.002228
0.337412 0.765961 0.001255
0.405208 0.768125 0.000627
0.472377 0.759090 0.001694
0.538541 0.756016 0.001412
0.601098 0.751624 0.000628
0.669490 0.747137 0.000471
0.735529 0.747294 0.000157
0.799717 0.743686 0.000628
0.850353 0.729663 0.000125
0.889286 0.708580 0.000000
0.925707 0.692588 0.000000
0.114353 0.806118 0.000000
0.173177 0.811294 0.001130
0.200094 0.808910 0.001130
0.247592 0.807624 0.002259
0.300612 0.805961 0.000973
0.356706 0.807373 0.000000
0.421679 0.807718 0.002635
0.477804 0.804298 0.001067
0.538855 0.800219 0.000565
0.597208 0.799090 0.000000
0.657098 0.792784 0.002353
0.715545 0.787388 0.001224
0.776000 0.784377 0.000000
0.833537 0.781396 0.000377
0.881067 0.764172 0.000000
0.909409 0.742314 0.010446
0.191843 0.829804 0.000000
0.222745 0.830432 0.000628
0.240879 0.831373 0.000251
0.276831 0.830118 0.000000
0.317835 0.830526 0.000565
0.363765 0.829490 0.000000
0.417067 0.827325 0.001129
0.469522 0.822149 0.002165
0.522102 0.821396 0.001569
0.575812 0.818478 0.000784
0.632471 0.816627 0.000941
0.686149 0.814149 0.000188
0.743561 0.808220 0.001506
0.795357 0.805992 0.000565
0.849977 0.800345 0.002008
0.887314 0.786540 0.001563
0.325490 0.845333 0.188863
0.359655 0.848941 0.226886
0.367937 0.844988 0.217757
0.372580 0.844769 0.204988
0.394572 0.846745 0.200376
0.424627 0.842353 0.196392
0.462745 0.841412 0.198023
0.496031 0.839279 0.193757
0.538259 0.839498 0.187325
0.583498 0.832910 0.181020
0.627451 0.832941 0.179294
0.677804 0.828204 0.175906
0.722416 0.824188 0.177130
0.772016 0.822243 0.175937
0.820863 0.813396 0.162541
0.862485 0.814281 0.172757
0.390385 0.845584 0.268839
0.409704 0.852855 0.281391
0.418184 0.850023 0.287598
0.424950 0.848968 0.280591
0.443794 0.849851 0.277412
0.460236 0.848612 0.282855
0.485894 0.844872 0.274137
0.515376 0.844122 0.269966
0.554612 0.842698 0.271177
0.593497 0.839529 0.264733
0.632847 0.836871 0.264902
0.676947 0.834502 0.269429
0.724808 0.831671 0.271191
0.768261 0.826496 0.270046
0.811415 0.824116 0.261070
0.846973 0.819561 0.263364
0.056471 0.021176 0.092549
0.084235 0.020392 0.089412
0.116078 0.018667 0.087216
0.149647 0.021961 0.087373
0.194980 0.017569 0.089568
0.288628 0.000000 0.098039
0.415843 0.000000 0.120941
0.532392 0.000941 0.130981
0.620079 0.000628 0.124549
0.698039 0.001726 0.113412
0.776471 0.002353 0.112157
0.840784 0.000784 0.109490
0.900079 0.001569 0.117176
0.948235 0.071373 0.123921
0.988235 0.121569 0.134902
1.000000 0.210682 0.183302
0.050196 0.053804 0.067608
0.072878 0.051200 0.076047
0.100424 0.050259 0.074227
0.134996 0.048816 0.068361
0.182714 0.051231 0.074196
0.286275 0.036863 0.096941
0.397584 0.005804 0.111122
0.507953 0.001632 0.115200
0.598871 0.000188 0.112000
0.681945 0.000251 0.103059
0.760941 0.000314 0.105255
0.830274 0.011169 0.102149
0.895153 0.061585 0.112659
0.940706 0.098981 0.112188
0.974118 0.129569 0.115137
0.999975 0.205744 0.171045
0.051608 0.090196 0.081255
0.076769 0.092769 0.082667
0.106823 0.093145 0.081945
0.153820 0.093333 0.079216
0.225412 0.100737 0.094306
0.317333 0.102902 0.110745
0.424627 0.100988 0.113129
0.522353 0.100016 0.110651
0.615623 0.104784 0.110494
0.700612 0.107890 0.103686
0.772235 0.116863 0.107294
0.839843 0.132957 0.102651
0.903561 0.153161 0.110055
0.945192 0.176251 0.121192
0.983843 0.200157 0.134557
0.999976 0.257531 0.181167
0.048314 0.131294 0.074196
0.073223 0.150431 0.085647
0.120659 0.155451 0.090698
0.182871 0.169224 0.099043
0.241757 0.168471 0.097506
0.320000 0.178039 0.098353
0.411890 0.187263 0.098071
0.507890 0.189020 0.095467
0.598369 0.194479 0.091043
0.682165 0.197647 0.086212
0.759059 0.204549 0.087686
0.828047 0.213208 0.083577
0.892424 0.223341 0.091702
0.933647 0.232000 0.099765
0.971106 0.237333 0.112032
0.999961 0.284549 0.163293
0.001255 0.260863 0.105255
0.062526 0.288094 0.119435
0.140329 0.282385 0.111624
0.211263 0.271435 0.105600
0.262745 0.257004 0.096471
0.340235 0.260863 0.085490
0.425569 0.268957 0.086620
0.518431 0.282604 0.081726
0.605490 0.290573 0.073412
0.685804 0.291796 0.071718
0.756863 0.290510 0.067765
0.826164 0.298102 0.068894
0.886337 0.302839 0.083828
0.938353 0.309678 0.104502
0.968784 0.313004 0.120784
0.996535 0.342488 0.170985
0.000000 0.341176 0.074510
0.018039 0.384628 0.100079
0.129255 0.375059 0.089568
0.206274 0.362353 0.081098
0.278118 0.348549 0.070588
0.334902 0.338823 0.059608
0.411608 0.335372 0.049569
0.498196 0.347608 0.036706
0.583373 0.353098 0.030745
0.662431 0.358275 0.019294
0.740392 0.360000 0.023530
0.817568 0.365020 0.029020
0.876235 0.369412 0.053020
0.927216 0.369098 0.072000
0.957647 0.359843 0.089882
0.988188 0.380321 0.145726
0.001883 0.447216 0.048314
0.006118 0.498102 0.082479
0.129631 0.487969 0.064659
0.215592 0.473694 0.052706
0.296596 0.456878 0.035200
0.365961 0.442510 0.024784
0.427074 0.431843 0.014965
0.496659 0.425694 0.001130
0.585255 0.434416 0.001600
0.665004 0.437051 0.002196
0.732706 0.436079 0.000314
0.808753 0.438275 0.011451
0.866510 0.439969 0.031059
0.917271 0.437929 0.063121
0.956173 0.432188 0.100047
0.987093 0.439005 0.148744
0.000941 0.519686 0.001883
0.001694 0.568439 0.027859
0.114196 0.562698 0.019545
0.206086 0.548706 0.009035
0.288753 0.540800 0.000188
0.362667 0.527686 0.003451
0.428078 0.514196 0.000000
0.492894 0.496345 0.000941
