example_ofxGpuLutCube/bin/data/ofxGpuLutCube/LUT/A37 (old style soft teal fade).cube
LUT_3D_SIZE 6
0.000000 0.000000 0.000000
0.152941 0.021961 0.007843
0.458039 0.003138 0.000000
0.792941 0.000000 0.000000
0.945882 0.010980 0.001569
0.999961 0.129255 0.000000
0.027451 0.140392 0.000000
0.163137 0.160784 0.000000
0.475451 0.237961 0.001569
0.760000 0.255216 0.000000
0.930196 0.238431 0.000000
0.999984 0.246235 0.002330
0.000000 0.494118 0.000000
0.245647 0.523608 0.002667
0.461491 0.476235 0.000157
0.704470 0.472314 0.000157
0.893333 0.447216 0.000471
0.995992 0.418008 0.000000
0.000000 0.664314 0.003138
0.171765 0.680000 0.000000
0.425569 0.669647 0.000000
0.636706 0.648157 0.000000
0.836235 0.636392 0.001255
0.950518 0.587467 0.000000
0.010980 0.807843 0.000000
0.198275 0.805177 0.000941
0.392471 0.806275 0.001883
0.589177 0.796079 0.000000
0.777255 0.784000 0.000628
0.906620 0.744345 0.003122
0.344902 0.850980 0.203608
0.388078 0.850980 0.207569
0.464212 0.847098 0.208314
0.577216 0.840000 0.202902
0.714510 0.833718 0.203749
0.843175 0.819608 0.191921
0.056471 0.021176 0.092549
0.149647 0.021961 0.087373
0.415843 0.000000 0.120941
0.698039 0.001726 0.113412
0.900079 0.001569 0.117176
1.000000 0.210682 0.183302
0.048314 0.131294 0.074196
0.182871 0.169224 0.099043
0.411890 0.187263 0.098071
0.682165 0.197647 0.086212
0.892424 0.223341 0.091702
0.999961 0.284549 0.163293
0.001883 0.447216 0.048314
0.215592 0.473694 0.052706
0.427074 0.431843 0.014965
0.665004 0.437051 0.002196
0.866510 0.439969 0.031059
0.987093 0.439005 0.148744
0.005020 0.645019 0.002824
0.202133 0.676674 0.000314
0.421772 0.654933 0.002290
0.620078 0.627138 0.000690
0.823216 0.624345 0.000753
0.947710 0.596061 0.103250
0.170667 0.802196 0.024471
0.274949 0.806808 0.058729
0.436016 0.802196 0.092361
0.602322 0.796141 0.038745
0.777192 0.785286 0.016251
0.906740 0.745270 0.148013
0.426502 0.854839 0.319035
0.450718 0.847051 0.324559
0.508164 0.841296 0.325313
0.602298 0.839363 0.318682
0.728573 0.828538 0.321893
0.845451 0.815741 0.317466
0.134117 0.000000 0.385882
0.266667 0.000000 0.371765
0.463530 0.000000 0.353412
0.679059 0.000000 0.339294
0.882667 0.094118 0.344784
0.975577 0.383177 0.412361
0.061490 0.206275 0.357804
0.252078 0.211451 0.364361
0.424282 0.174055 0.313976
0.652173 0.181584 0.318682
0.853177 0.269020 0.344345
0.960071 0.435032 0.419253
0.000000 0.409098 0.302588
0.235764 0.437773 0.332800
0.461773 0.456000 0.341020
0.630965 0.427294 0.316078
0.828392 0.470965 0.358588
0.946778 0.526289 0.418861
0.131764 0.623843 0.299451
0.299482 0.641820 0.327937
0.436298 0.623027 0.306008
0.602071 0.607718 0.286776
0.800157 0.620172 0.321506
0.919627 0.629255 0.389089
0.351529 0.789490 0.368157
0.420392 0.796110 0.392816
0.510086 0.790431 0.388047
0.630714 0.784408 0.370604
0.777569 0.775906 0.363608
0.882488 0.753090 0.411059
0.551177 0.843098 0.490094
0.572070 0.839997 0.499495
0.601478 0.835294 0.492450
0.667216 0.831379 0.495591
0.755228 0.828810 0.500574
0.839223 0.818761 0.500344
0.189019 0.025098 0.667451
0.318588 0.014588 0.656000
0.497098 0.000000 0.610824
0.677490 0.000628 0.563608
0.866667 0.109334 0.547922
0.965435 0.379302 0.543435
0.184941 0.247373 0.607373
0.309835 0.256502 0.610855
0.477647 0.228957 0.573867
0.663937 0.207027 0.539576
0.839028 0.261584 0.523922
0.950199 0.435497 0.545473
0.215843 0.460392 0.566902
0.342588 0.479717 0.573051
0.479341 0.464063 0.540204
0.637020 0.440941 0.518871
0.811231 0.491075 0.536000
0.901515 0.585112 0.568417
0.168784 0.599687 0.477961
0.295310 0.611514 0.496408
0.457882 0.613333 0.496063
0.646808 0.642008 0.527561
0.780298 0.640910 0.533333
0.879275 0.680668 0.581851
0.424314 0.778824 0.535373
0.489443 0.782086 0.549396
0.575498 0.778573 0.561286
0.664596 0.774745 0.558557
0.771984 0.772204 0.561882
0.856424 0.767027 0.592111
0.671121 0.828235 0.632071
0.684300 0.827769 0.644584
0.707365 0.824795 0.641164
0.738313 0.825542 0.644162
0.784287 0.819581 0.649306
0.830534 0.815624 0.663986
0.247843 0.169412 0.761569
0.328627 0.170980 0.757961
0.482510 0.190902 0.757647
0.657726 0.215372 0.739294
0.827137 0.235922 0.723765
0.948942 0.370706 0.693294
0.305882 0.320314 0.746667
0.373741 0.334118 0.749584
0.498510 0.339953 0.743843
0.654745 0.336000 0.730133
0.816565 0.331796 0.713474
0.934208 0.443730 0.686410
0.411451 0.520628 0.716863
0.468455 0.535435 0.720063
0.552471 0.536282 0.718808
0.665506 0.532831 0.709270
0.801255 0.520878 0.698384
0.893015 0.586072 0.677817
0.421333 0.648000 0.698039
0.479906 0.655781 0.699859
0.576470 0.665129 0.692800
0.679184 0.670557 0.688283
0.775875 0.656753 0.678086
0.856105 0.709065 0.687323
0.445961 0.774118 0.679216
0.494118 0.774839 0.679028
0.584220 0.774902 0.679404
0.692518 0.771890 0.684078
0.781114 0.776251 0.694463
0.826185 0.784912 0.705858
0.686181 0.823513 0.694079
0.707782 0.821656 0.700035
0.741851 0.819600 0.709765
0.780499 0.820656 0.722303
0.801545 0.814094 0.725419
0.819585 0.812564 0.733302
0.419373 0.395804 0.788196
0.450071 0.395905 0.790588
0.523836 0.416267 0.787451
0.636047 0.449961 0.786612
0.749788 0.487632 0.779600
0.858863 0.529138 0.772588
0.478290 0.481389 0.780408
0.502902 0.484353 0.785074
0.562988 0.499042 0.780696
0.655174 0.516345 0.779901
0.753749 0.536461 0.773481
0.854902 0.564518 0.772517
0.605444 0.640706 0.768658
0.624519 0.644161 0.768161
0.651366 0.644627 0.764737
0.708457 0.652431 0.764886
0.771296 0.657941 0.765509
0.840031 0.667341 0.763874
0.654745 0.709788 0.753051
0.668449 0.719459 0.754836
0.710001 0.737139 0.751674
0.747412 0.746099 0.749662
0.781958 0.739732 0.751691
0.827497 0.747318 0.752910
0.691647 0.774079 0.746667
0.704202 0.774132 0.750563
0.738889 0.783804 0.747583
0.776717 0.789785 0.742900
0.805475 0.797631 0.746651
0.823513 0.799984 0.745082
0.737098 0.819608 0.745176
0.751115 0.821090 0.745043
0.768447 0.818031 0.748173
0.795984 0.811812 0.745098
0.811750 0.815670 0.745082
0.819646 0.815724 0.745136
