example_ofxGpuLutCube/bin/data/ofxGpuLutCube/LUT/A38 (old style hard violet fade).cube
LUT_3D_SIZE 16
0.000000 0.000000 0.000000
0.000784 0.000784 0.000784
0.017255 0.000000 0.003922
0.045490 0.001569 0.000000
0.084706 0.003138 0.000784
0.156863 0.000000 0.011765
0.290196 0.000000 0.010981
0.443922 0.000000 0.008628
0.565491 0.000000 0.001569
0.661961 0.000000 0.003922
0.729412 0.000000 0.003922
0.794510 0.000000 0.000784
0.849412 0.002353 0.013333
0.899608 0.000000 0.056471
0.932549 0.000784 0.105882
0.984275 0.171765 0.203608
0.003138 0.003138 0.003138
0.015686 0.000000 0.003138
0.026980 0.000000 0.000314
0.054118 0.002353 0.005490
0.086745 0.003138 0.001412
0.167059 0.000000 0.008627
0.286431 0.002510 0.010353
0.430745 0.000000 0.005020
0.544941 0.001569 0.001098
0.639059 0.000628 0.000000
0.716863 0.000000 0.006274
0.780863 0.002510 0.000000
0.843137 0.001255 0.010667
0.889726 0.000000 0.051922
0.933490 0.000000 0.098039
0.976314 0.178933 0.194204
0.026667 0.000000 0.000000
0.035765 0.000314 0.002353
0.056785 0.001569 0.001569
0.093177 0.000000 0.005961
0.158118 0.000000 0.019294
0.258039 0.003922 0.009412
0.378824 0.003138 0.008627
0.493333 0.000000 0.003294
0.588078 0.001412 0.000000
0.672314 0.001883 0.001883
0.737255 0.000000 0.000000
0.793726 0.000000 0.000471
0.848471 0.000941 0.021176
0.891922 0.002353 0.065569
0.931608 0.061490 0.110431
0.963153 0.221529 0.198220
0.070588 0.000000 0.005490
0.085176 0.000314 0.017255
0.114353 0.000628 0.017098
0.154196 0.000941 0.014745
0.221177 0.008470 0.017255
0.302745 0.016471 0.005490
0.405333 0.037333 0.001255
0.501961 0.048000 0.000000
0.586980 0.046118 0.000941
0.659922 0.044863 0.000941
0.727843 0.042353 0.000000
0.786667 0.048314 0.004392
0.841569 0.070431 0.025098
0.886902 0.110431 0.071216
0.921882 0.151686 0.115922
0.972447 0.255334 0.206032
0.160000 0.143529 0.003922
0.215059 0.203137 0.003922
0.243765 0.192157 0.001882
0.281882 0.180549 0.008314
0.337255 0.176314 0.002196
0.407059 0.185098 0.000000
0.477804 0.190275 0.000000
0.555608 0.193725 0.000784
0.624314 0.197333 0.001255
0.688471 0.192157 0.000628
0.741960 0.187451 0.000000
0.795137 0.191372 0.011608
0.841255 0.198118 0.049726
0.886745 0.214118 0.101804
0.923451 0.239059 0.140706
0.962235 0.307208 0.222478
0.192157 0.223529 0.000000
0.269020 0.313725 0.000784
0.291765 0.300392 0.000000
0.324706 0.283922 0.000000
0.374118 0.269804 0.007059
0.427451 0.270588 0.000000
0.497255 0.282353 0.000000
0.560784 0.287843 0.000000
0.630588 0.281569 0.000000
0.684706 0.279215 0.000000
0.737255 0.270588 0.003922
0.794510 0.275294 0.032942
0.846274 0.281569 0.075294
0.875294 0.292549 0.119216
0.904313 0.304313 0.143529
0.948902 0.356667 0.235059
0.257255 0.356863 0.000000
0.339608 0.456157 0.000784
0.360000 0.437333 0.000000
0.387608 0.413333 0.003138
0.425255 0.392157 0.002510
0.466667 0.378824 0.000000
0.523922 0.371764 0.000784
0.580863 0.380079 0.001726
0.640157 0.374117 0.002510
0.695529 0.368471 0.013961
0.748236 0.363137 0.036863
0.796863 0.360785 0.077647
0.841883 0.364235 0.117176
0.877961 0.371451 0.152784
0.912784 0.378824 0.201726
0.941890 0.414000 0.255490
0.295686 0.421176 0.000000
0.361255 0.504784 0.001569
0.374902 0.490981 0.000000
0.406902 0.476393 0.002510
0.443137 0.464314 0.000000
0.488628 0.457255 0.006275
0.532549 0.450667 0.011294
0.589020 0.446902 0.018353
0.641882 0.440627 0.033725
0.689098 0.438745 0.048000
0.737255 0.432157 0.068235
0.785098 0.430274 0.107294
0.829490 0.431372 0.144314
0.871216 0.434510 0.183373
0.902431 0.437334 0.217098
0.925435 0.468917 0.277467
0.334902 0.486275 0.003137
0.386981 0.547451 0.037020
0.397490 0.539137 0.024784
0.425725 0.532549 0.024785
0.451137 0.522823 0.029804
0.498039 0.518431 0.041569
0.543216 0.514196 0.049412
0.597961 0.511059 0.071059
0.646274 0.512941 0.083765
0.701177 0.509333 0.110117
0.746667 0.506667 0.127059
0.789490 0.499294 0.167843
0.831216 0.503216 0.194667
0.866510 0.506510 0.233883
0.890667 0.508549 0.271843
0.920721 0.533262 0.330777
0.370196 0.542745 0.012549
0.413804 0.586039 0.088157
0.418824 0.578980 0.077333
0.443764 0.572549 0.073255
0.477647 0.573961 0.084706
0.512156 0.573334 0.094117
0.557804 0.573334 0.103686
0.600784 0.566902 0.120314
0.644549 0.562353 0.126275
0.691922 0.558588 0.138980
0.737255 0.553726 0.168627
0.782588 0.557176 0.196235
0.817255 0.556549 0.232627
0.847059 0.560628 0.267608
0.880941 0.567216 0.310588
0.902667 0.578816 0.359859
0.427451 0.611765 0.109804
0.444706 0.631373 0.151372
0.458039 0.625882 0.145098
0.471373 0.623529 0.143529
0.505098 0.620392 0.152941
0.541176 0.623529 0.164706
0.578824 0.624313 0.185098
0.621961 0.629804 0.197647
0.663530 0.633726 0.214118
0.714510 0.630589 0.229804
0.756863 0.627451 0.247059
0.792157 0.623529 0.262745
0.818823 0.615686 0.294902
0.849412 0.621961 0.334118
0.877647 0.627451 0.380392
0.894040 0.635255 0.431255
0.469020 0.658039 0.182745
0.475137 0.668863 0.197020
0.490667 0.663059 0.206745
0.503529 0.661804 0.205177
0.527059 0.665882 0.212549
0.558432 0.665098 0.224314
0.595137 0.671216 0.239843
0.630588 0.669961 0.251294
0.667765 0.669804 0.263843
0.710431 0.666981 0.282980
0.746667 0.669020 0.290981
0.787608 0.668079 0.317960
0.815373 0.664314 0.349490
0.845333 0.663059 0.379137
0.863059 0.667294 0.417569
0.887004 0.672902 0.468831
0.538824 0.710588 0.311373
0.552471 0.719216 0.313725
0.556078 0.714039 0.310275
0.568941 0.713412 0.314196
0.576941 0.712627 0.315765
0.607059 0.715294 0.327843
0.640314 0.715137 0.343059
0.663530 0.719216 0.359216
0.700392 0.720628 0.376784
0.731294 0.720314 0.381961
0.759216 0.720784 0.400784
0.791059 0.717176 0.412079
0.815843 0.715137 0.427608
0.835451 0.712627 0.450824
0.856000 0.710745 0.474510
0.866667 0.721498 0.517576
0.602353 0.745882 0.388235
0.607530 0.744000 0.401255
0.610039 0.747294 0.388078
0.617569 0.748235 0.400157
0.631843 0.746980 0.407843
0.651765 0.749020 0.414902
0.668706 0.749804 0.424942
0.695686 0.746823 0.436079
0.717804 0.747451 0.441412
0.741176 0.744314 0.454902
0.760784 0.747451 0.464314
0.788078 0.749333 0.484235
0.810980 0.747451 0.492863
0.836235 0.746824 0.514981
0.849098 0.745726 0.525804
0.858070 0.741200 0.555216
0.685490 0.778823 0.509804
0.693334 0.779608 0.527216
0.693333 0.777255 0.518431
0.693804 0.777726 0.512627
0.700863 0.776942 0.517020
0.712156 0.775687 0.524706
0.722981 0.776942 0.530039
0.736941 0.776157 0.535373
0.752157 0.779137 0.540392
0.770039 0.776314 0.546510
0.783530 0.772549 0.553726
0.802196 0.772549 0.560627
0.820706 0.773804 0.574902
0.840314 0.775687 0.587608
0.842980 0.772392 0.590118
0.854133 0.768627 0.604714
0.729294 0.795960 0.591922
0.737184 0.792126 0.585694
0.737075 0.792094 0.587279
0.739529 0.792141 0.584173
0.745020 0.796000 0.588055
0.752823 0.792157 0.588157
0.760706 0.792157 0.593639
0.768525 0.792141 0.603726
0.777984 0.789788 0.605318
0.788219 0.795968 0.611608
0.800039 0.788235 0.611687
0.820251 0.792894 0.628016
0.827388 0.792094 0.631232
0.839224 0.792118 0.643012
0.847020 0.790565 0.653945
0.850941 0.792117 0.662510
0.000000 0.000000 0.001569
0.004079 0.000628 0.000784
0.017255 0.000314 0.002981
0.042039 0.000000 0.001569
0.081412 0.000628 0.004706
0.154510 0.000000 0.012549
0.286902 0.000157 0.016941
0.423686 0.000314 0.016157
0.521255 0.001255 0.017882
0.609098 0.000157 0.011765
0.678431 0.000000 0.009412
0.747608 0.000000 0.008627
0.811765 0.003451 0.019608
0.869804 0.001883 0.058039
0.921255 0.000628 0.101961
0.982369 0.091796 0.186925
0.003294 0.000784 0.007059
0.010290 0.003639 0.000878
0.023309 0.000157 0.005678
0.051137 0.000000 0.004204
0.086620 0.001286 0.008502
0.167059 0.000000 0.011451
0.284392 0.000126 0.017757
0.405364 0.000000 0.015341
0.510902 0.001255 0.014620
0.595263 0.000251 0.010761
0.666510 0.000000 0.005491
0.741365 0.000157 0.007247
0.811514 0.000251 0.023059
0.861333 0.003138 0.049098
0.904753 0.003514 0.080659
0.968944 0.094792 0.176137
0.026667 0.000000 0.004078
0.039592 0.001004 0.007059
0.055969 0.000753 0.006588
0.094180 0.000753 0.011451
0.163451 0.000251 0.024282
0.261647 0.000000 0.022588
0.365710 0.001318 0.021176
0.470651 0.001130 0.014588
0.555388 0.000125 0.010980
0.629741 0.000251 0.005333
0.697725 0.000000 0.010510
0.761443 0.000000 0.014369
0.825318 0.000502 0.035953
0.874980 0.001349 0.066071
0.913819 0.019702 0.101365
0.959159 0.193043 0.195308
0.074510 0.000000 0.020392
0.091545 0.001098 0.029428
0.116549 0.000000 0.021020
0.152251 0.000314 0.026008
0.215372 0.004392 0.028361
0.293333 0.010980 0.020549
0.389804 0.019357 0.020392
0.477271 0.019106 0.011231
0.553726 0.014369 0.007279
0.619890 0.007122 0.002573
0.689725 0.004235 0.003765
0.759498 0.010918 0.016282
0.820235 0.031278 0.035012
0.869145 0.069773 0.071969
0.902776 0.114102 0.105349
0.952866 0.227158 0.185481
0.168314 0.147608 0.021647
0.219671 0.200000 0.026196
0.243984 0.185161 0.025161
0.278243 0.167749 0.027482
0.324173 0.157866 0.025098
0.386039 0.168471 0.015373
0.458824 0.172486 0.013929
0.531294 0.171451 0.005741
0.597867 0.173522 0.002824
0.662400 0.169098 0.003106
0.713882 0.164392 0.004706
0.771545 0.167435 0.025506
0.829929 0.181333 0.059765
0.881914 0.200157 0.104031
0.916612 0.228926 0.143435
0.954463 0.302621 0.219729
0.200000 0.230589 0.010980
0.268392 0.308863 0.007530
0.290981 0.294902 0.014118
0.319843 0.276078 0.010980
0.357176 0.260236 0.020549
0.410981 0.255686 0.012549
0.480784 0.261804 0.010510
0.540549 0.261647 0.008784
0.596392 0.255059 0.003922
0.658824 0.254745 0.008157
0.715294 0.254118 0.016470
0.772392 0.256941 0.039059
0.822588 0.270431 0.080470
0.863843 0.278117 0.113882
0.903843 0.288627 0.149176
0.936408 0.344094 0.222525
0.264470 0.357961 0.000000
0.336847 0.450290 0.018164
0.362133 0.436079 0.016408
0.384690 0.410416 0.010729
0.421490 0.391247 0.016000
0.461647 0.372392 0.024314
0.513537 0.367435 0.021051
0.577412 0.371137 0.025725
0.633286 0.361036 0.028863
0.686400 0.352941 0.038149
0.730510 0.348235 0.053804
0.784094 0.349992 0.079843
0.836141 0.354573 0.120659
0.873380 0.365804 0.160659
0.906321 0.377192 0.194322
0.933953 0.421018 0.258767
0.300079 0.426824 0.000000
0.367937 0.503874 0.036267
0.380988 0.494431 0.034479
0.408188 0.477992 0.030870
0.442918 0.464377 0.030117
0.485177 0.453961 0.040000
0.530510 0.442039 0.045898
0.576470 0.432157 0.047027
0.627953 0.428455 0.052204
0.674322 0.420894 0.060800
0.725490 0.417569 0.081569
0.777726 0.421961 0.113192
0.829584 0.425537 0.150400
0.864878 0.424031 0.178604
0.894996 0.433380 0.223090
0.928260 0.465335 0.286886
0.339294 0.499294 0.012392
0.397741 0.563420 0.086055
0.413616 0.554353 0.083106
0.435482 0.542996 0.078463
0.463906 0.537098 0.076643
0.512157 0.528157 0.077804
0.554886 0.524235 0.092298
0.601851 0.518180 0.096502
0.647906 0.511466 0.105255
0.699765 0.508706 0.119749
0.740705 0.497726 0.138196
0.785945 0.494024 0.168219
0.828737 0.499639 0.199467
0.862149 0.502243 0.240565
0.892675 0.513004 0.276926
0.918809 0.532055 0.336987
0.378667 0.554353 0.059295
0.428361 0.600377 0.123075
0.436361 0.596392 0.125867
0.454808 0.587984 0.117647
0.486463 0.585506 0.121757
0.524706 0.581334 0.125490
0.559090 0.580361 0.134651
0.602886 0.569443 0.137537
0.643420 0.559655 0.135811
0.688596 0.556863 0.152596
0.733333 0.549961 0.168000
0.778698 0.551498 0.201224
0.817663 0.553945 0.239373
0.847247 0.559875 0.275482
0.883702 0.563702 0.318933
0.903010 0.582562 0.368157
0.437647 0.619608 0.142745
0.463059 0.643764 0.189019
0.477961 0.641882 0.188549
0.492863 0.641098 0.185255
0.524392 0.640628 0.188079
0.549020 0.636863 0.199216
0.593569 0.640000 0.208627
0.628392 0.640000 0.219922
0.670902 0.638745 0.229490
0.713255 0.631373 0.242353
0.752941 0.623529 0.244706
0.783372 0.620235 0.269647
0.818510 0.619922 0.304941
0.848157 0.619922 0.343843
0.871529 0.624470 0.380706
0.894063 0.635302 0.431279
0.471843 0.662902 0.205961
0.494745 0.678651 0.233380
0.507482 0.676957 0.231404
0.521726 0.674322 0.238965
0.541898 0.677804 0.238212
0.572549 0.675294 0.256000
0.601694 0.676894 0.254745
0.633098 0.672533 0.266196
0.667953 0.668957 0.268926
0.707953 0.670368 0.286557
0.744157 0.668392 0.299451
0.785130 0.669710 0.325773
0.812706 0.662934 0.352408
0.841318 0.663843 0.387168
0.862683 0.667137 0.418573
0.875751 0.672753 0.472930
0.550118 0.717176 0.318902
0.564768 0.721631 0.338730
0.570541 0.721129 0.339482
0.579576 0.722949 0.341396
0.595137 0.720000 0.345004
0.621804 0.720157 0.359216
0.652643 0.722165 0.369882
0.672220 0.723106 0.380455
0.702212 0.722855 0.385882
0.732957 0.721223 0.396110
0.759529 0.719530 0.403608
0.787890 0.717333 0.419545
0.819137 0.717365 0.436078
0.837334 0.712659 0.457098
0.851482 0.715325 0.484989
0.868449 0.720152 0.527551
0.608314 0.750118 0.397647
0.616847 0.746227 0.414651
0.619231 0.749867 0.417412
0.623310 0.750651 0.411639
0.638337 0.750149 0.417976
0.660078 0.751373 0.430432
0.677553 0.751498 0.433694
0.696941 0.749145 0.440345
0.718933 0.746667 0.449632
0.743937 0.745757 0.458980
0.763608 0.747922 0.466353
0.785945 0.748141 0.482918
0.815279 0.746761 0.498102
0.834290 0.747702 0.515420
0.848816 0.743686 0.530228
0.855977 0.746185 0.557266
0.684706 0.780863 0.525490
0.702212 0.775655 0.536063
0.700424 0.780863 0.531859
0.700800 0.783153 0.528251
0.706478 0.779106 0.527247
0.712941 0.775687 0.527686
0.722228 0.777192 0.534369
0.739168 0.776816 0.539796
0.754635 0.774463 0.544188
0.771827 0.775844 0.547734
0.786039 0.775059 0.557804
0.804957 0.774683 0.562886
0.818949 0.775059 0.569882
0.831749 0.773208 0.584094
0.846400 0.776690 0.595294
0.858080 0.771737 0.609966
0.737882 0.795231 0.594306
0.735252 0.790268 0.590111
0.739625 0.793852 0.585931
0.744999 0.794194 0.591863
0.750772 0.792900 0.596666
0.752902 0.792118 0.595921
0.760083 0.792770 0.599835
0.771663 0.790573 0.603738
0.779064 0.790402 0.605939
0.786849 0.791511 0.616461
0.803875 0.792149 0.623325
0.818248 0.791536 0.628497
0.826987 0.791631 0.637001
0.837297 0.788375 0.644861
0.846402 0.791497 0.654083
0.854863 0.792118 0.661781
0.000000 0.000000 0.007843
0.000314 0.000000 0.000000
0.018667 0.002039 0.008784
0.046745 0.000000 0.009098
0.080784 0.003138 0.010981
0.163921 0.000000 0.025098
0.293647 0.000471 0.027765
0.418823 0.000000 0.036549
0.513882 0.000000 0.038431
0.599844 0.000000 0.038745
0.670588 0.001569 0.040000
0.745725 0.000000 0.041255
0.812549 0.000628 0.058196
0.871059 0.000000 0.089569
0.916706 0.001883 0.126588
0.971514 0.112949 0.212816
0.006588 0.000314 0.010667
0.011733 0.000000 0.010981
0.024188 0.001224 0.008627
0.054243 0.000126 0.011953
0.094902 0.000722 0.015027
0.179137 0.000000 0.019608
0.288910 0.000377 0.029741
0.406149 0.001130 0.035639
0.500863 0.000000 0.039592
0.585600 0.000000 0.035953
0.654902 0.000000 0.034510
0.735811 0.000000 0.041788
0.809381 0.000282 0.061208
0.862682 0.002165 0.076706
0.900455 0.001381 0.106259
0.965794 0.111214 0.200865
0.028549 0.000941 0.017569
0.040941 0.000314 0.016471
0.063216 0.000377 0.015906
0.102902 0.001192 0.020204
0.173459 0.000000 0.032408
0.266196 0.000628 0.037804
0.363796 0.001349 0.041286
0.463121 0.000565 0.040627
0.545098 0.000377 0.039875
0.624000 0.000502 0.042573
0.687216 0.000000 0.041568
0.754039 0.000471 0.047561
0.821145 0.000377 0.071341
0.874039 0.000565 0.100016
0.912345 0.023404 0.127812
0.966444 0.198905 0.213389
0.078745 0.000000 0.029333
0.094777 0.000690 0.029773
0.119624 0.000941 0.031937
0.159216 0.000377 0.039216
0.219922 0.000690 0.043639
0.298196 0.002981 0.044706
0.383592 0.004926 0.045929
0.470337 0.000847 0.040784
0.544502 0.001412 0.038620
0.615812 0.001318 0.037239
0.684706 0.000000 0.040941
0.754667 0.000596 0.051074
0.816032 0.019106 0.076235
0.865036 0.059451 0.103655
0.902494 0.113224 0.130290
0.952363 0.235912 0.204307
0.162823 0.137098 0.050510
0.212016 0.183561 0.065820
0.235702 0.168910 0.065726
0.273067 0.153914 0.063436
0.314478 0.147765 0.059043
0.378823 0.150902 0.055373
0.449224 0.152879 0.050604
0.522698 0.156078 0.048973
0.588643 0.155482 0.044361
0.650635 0.154008 0.045930
0.705568 0.152000 0.050039
0.770792 0.159749 0.066227
0.828047 0.174338 0.094996
0.881286 0.198463 0.134588
0.915953 0.229459 0.166337
0.953327 0.309214 0.233828
0.196078 0.219608 0.034510
0.258353 0.294745 0.062275
0.283294 0.279372 0.061961
0.313882 0.268549 0.061020
0.353255 0.252078 0.058510
0.410196 0.251765 0.059608
0.469961 0.250666 0.051765
0.532549 0.247059 0.050667
0.590745 0.243137 0.048000
0.649098 0.240627 0.047059
0.708235 0.245490 0.055686
0.772078 0.254902 0.078745
0.823373 0.264314 0.111216
0.869804 0.275922 0.134902
0.902745 0.293961 0.174274
0.939545 0.354259 0.246816
0.260236 0.345882 0.044706
0.332549 0.435232 0.081380
0.353224 0.421773 0.080126
0.379953 0.397961 0.072941
0.413145 0.377663 0.073286
0.455216 0.365020 0.065883
0.513161 0.356204 0.073380
0.571984 0.357679 0.072157
0.628110 0.354729 0.073851
0.680847 0.346290 0.079059
0.727059 0.342274 0.088628
0.781239 0.342337 0.108926
0.830871 0.355451 0.142588
0.869177 0.367529 0.176596
0.907608 0.380957 0.213490
0.934048 0.423802 0.273744
0.294432 0.414588 0.040314
0.360565 0.493930 0.088753
0.380612 0.483514 0.088565
0.406275 0.468141 0.082259
0.439216 0.458541 0.080941
0.480471 0.448941 0.081726
0.528000 0.436361 0.088470
0.572298 0.429208 0.084863
0.624941 0.421961 0.089130
0.672502 0.414525 0.094337
0.721412 0.412549 0.109960
0.776847 0.416816 0.138855
0.824847 0.423624 0.168627
0.860894 0.427043 0.201036
0.895906 0.439153 0.235953
0.923539 0.470013 0.303951
0.344314 0.493647 0.065255
0.397396 0.554321 0.122510
0.406714 0.547231 0.112941
0.434322 0.538227 0.111561
0.466573 0.530510 0.109333
0.507451 0.523451 0.116235
0.550745 0.521035 0.126274
0.598965 0.515765 0.128094
0.645898 0.507420 0.133835
0.696220 0.502933 0.146824
0.738823 0.496628 0.156863
0.785035 0.494557 0.186510
0.825443 0.499608 0.217066
0.860549 0.505224 0.257035
0.888879 0.512941 0.292172
0.914438 0.534693 0.348250
0.376784 0.546981 0.096157
0.429083 0.596047 0.150055
0.438118 0.593035 0.149804
0.457569 0.584627 0.146855
0.488722 0.581835 0.153349
0.526275 0.576471 0.155451
0.561129 0.575718 0.150494
0.601726 0.565710 0.154604
0.643984 0.557741 0.159122
0.688282 0.554071 0.171326
0.731922 0.549490 0.187764
0.778291 0.553788 0.218510
0.818384 0.554133 0.251169
0.850918 0.557929 0.287655
0.878588 0.562730 0.330572
0.902038 0.583145 0.378810
0.430588 0.619608 0.160000
0.466353 0.642667 0.210196
0.480314 0.642196 0.211765
0.495843 0.640157 0.207216
0.521255 0.637333 0.208314
0.552941 0.635294 0.223529
0.591686 0.641098 0.227765
0.635294 0.638275 0.235294
0.669961 0.635294 0.243294
0.712314 0.631373 0.254902
0.745098 0.623529 0.258824
0.784941 0.617882 0.282039
0.816471 0.619608 0.317020
0.850353 0.622117 0.353882
0.869804 0.626667 0.389961
0.890118 0.643090 0.435192
0.472628 0.659608 0.221961
0.503467 0.677741 0.256502
0.511655 0.674698 0.253553
0.525961 0.675326 0.256251
0.545380 0.676016 0.259137
0.572235 0.670902 0.266824
0.602730 0.674573 0.273945
0.636141 0.668455 0.277208
0.667953 0.668455 0.280282
0.708392 0.671059 0.299921
0.746981 0.669020 0.310745
0.782745 0.669929 0.333804
0.811827 0.665569 0.357616
0.836894 0.664878 0.397647
0.857882 0.666353 0.426510
0.876064 0.678715 0.471732
0.547451 0.717647 0.330353
0.568659 0.722667 0.348455
0.573616 0.720377 0.343937
0.582902 0.721004 0.349553
0.599028 0.722008 0.354478
0.621333 0.723137 0.363451
0.649788 0.724675 0.379294
0.676455 0.723514 0.388455
0.704471 0.721349 0.393569
0.729318 0.718745 0.402133
0.762666 0.720784 0.412235
0.787451 0.717929 0.426823
0.817443 0.715451 0.441600
0.836079 0.710902 0.458981
0.853019 0.711906 0.492486
0.870802 0.720745 0.532449
0.609725 0.746667 0.414588
0.620675 0.748988 0.424376
0.621239 0.747639 0.423686
0.628832 0.748769 0.422871
0.639624 0.749145 0.425475
0.658667 0.746980 0.434196
0.677835 0.749396 0.440282
0.698604 0.749490 0.447780
0.719843 0.749710 0.458478
0.742024 0.747451 0.468267
0.767059 0.749020 0.477647
0.791969 0.747765 0.493710
0.813647 0.749239 0.503247
0.834667 0.746510 0.516863
0.847090 0.741710 0.533773
0.856272 0.747399 0.561494
0.687843 0.776471 0.520785
0.701710 0.783279 0.540925
0.697412 0.782432 0.531608
0.699263 0.780361 0.527969
0.706227 0.779483 0.531012
0.713098 0.775216 0.530666
0.731545 0.779357 0.536220
0.738949 0.777161 0.541333
0.754291 0.776188 0.546667
0.771263 0.775687 0.551372
0.784941 0.776471 0.557961
0.802039 0.774275 0.564988
0.818196 0.774589 0.576063
0.835451 0.772769 0.589051
0.845427 0.771608 0.593443
0.858760 0.772543 0.606897
0.734823 0.789812 0.589655
0.739507 0.794481 0.594334
0.740864 0.793089 0.594329
0.743592 0.794626 0.586736
0.751702 0.791032 0.594845
0.755224 0.794439 0.598243
0.761198 0.791668 0.599879
0.767943 0.791559 0.603159
0.778767 0.790571 0.606140
0.791506 0.793184 0.615817
0.803867 0.792141 0.623317
0.810847 0.789801 0.626364
0.826977 0.791612 0.638538
0.837318 0.790240 0.641151
0.846262 0.791807 0.654395
0.853348 0.792047 0.662541
0.003922 0.003922 0.011765
0.007843 0.000000 0.011765
0.016471 0.001569 0.015686
0.041569 0.000628 0.016627
0.081098 0.002196 0.025412
0.170980 0.000000 0.046274
0.292706 0.001883 0.068392
0.405490 0.000000 0.072157
0.506824 0.000941 0.068392
0.589804 0.000000 0.071216
0.662745 0.000000 0.079216
0.741647 0.000000 0.091138
0.812706 0.002353 0.105098
0.869647 0.000941 0.127059
0.911686 0.000941 0.159529
0.966102 0.130996 0.223215
0.008941 0.002667 0.013647
0.017286 0.000000 0.018259
0.027513 0.000784 0.017537
0.051796 0.001820 0.018729
0.098981 0.001004 0.031247
0.186353 0.003451 0.045490
0.293051 0.000722 0.059451
0.401317 0.002385 0.059639
0.489757 0.000000 0.069741
0.573647 0.000314 0.068173
0.654902 0.000000 0.075294
0.735435 0.000000 0.087686
0.804392 0.001130 0.104314
0.855404 0.001224 0.117333
0.900047 0.000345 0.144126
0.966756 0.118595 0.222928
0.031216 0.000000 0.029020
0.046400 0.000000 0.030557
0.073035 0.000000 0.036235
0.114259 0.000000 0.044925
0.179576 0.000502 0.057161
0.261490 0.003294 0.065882
0.360063 0.000753 0.070620
0.453867 0.000000 0.075357
0.535216 0.001412 0.080533
0.611890 0.000000 0.080094
0.681882 0.000628 0.083137
0.748235 0.000628 0.092361
0.818353 0.000000 0.116141
0.874855 0.001506 0.138133
0.909239 0.025098 0.167404
0.962983 0.213484 0.242993
0.080784 0.000000 0.045176
0.098102 0.000000 0.053804
0.129914 0.001412 0.063341
0.162949 0.000000 0.065412
0.229616 0.000000 0.065977
0.301647 0.003451 0.078118
0.381490 0.000628 0.079310
0.462180 0.000000 0.077145
0.532769 0.000847 0.076455
0.608032 0.000941 0.079310
0.679843 0.000000 0.084549
0.747263 0.000282 0.094714
0.811577 0.002824 0.115231
0.865568 0.042824 0.137067
0.901365 0.109647 0.163796
0.948609 0.247645 0.230957
0.142902 0.126275 0.083137
0.201004 0.171231 0.110431
0.228549 0.155482 0.104188
0.264251 0.141302 0.103153
0.310400 0.133427 0.097820
0.372235 0.134588 0.094431
0.439467 0.131451 0.091671
0.513757 0.134400 0.092549
0.578196 0.130133 0.088157
0.641286 0.126965 0.088377
0.700078 0.129412 0.097883
0.766023 0.142149 0.113412
0.822745 0.169945 0.136690
0.877020 0.202196 0.169161
0.913788 0.229333 0.196361
0.953739 0.309722 0.257845
0.184314 0.210196 0.083922
0.249882 0.278588 0.116549
0.278117 0.264941 0.113569
0.308078 0.253490 0.107922
0.348706 0.238588 0.100079
0.405490 0.236863 0.101961
0.464628 0.234196 0.096627
0.523294 0.233883 0.095059
0.578667 0.232628 0.092392
0.642981 0.228235 0.094902
0.703529 0.235294 0.105098
0.768314 0.245176 0.121255
0.819608 0.260392 0.144314
0.865882 0.275922 0.166274
0.894902 0.296627 0.189647
0.941090 0.353506 0.268761
0.253333 0.339922 0.092392
0.320627 0.415781 0.139075
0.341459 0.399404 0.135372
0.369976 0.380455 0.125145
0.406055 0.364173 0.120533
0.452078 0.353412 0.118902
0.507043 0.346980 0.115733
0.564486 0.347200 0.118086
0.618823 0.343027 0.119373
0.670996 0.337976 0.120596
0.723137 0.334275 0.132235
0.774180 0.340424 0.150526
0.827074 0.352973 0.179827
0.868926 0.369035 0.206494
0.902086 0.382149 0.240125
0.933439 0.426497 0.297572
0.293020 0.407216 0.099294
0.356769 0.482102 0.140078
0.377129 0.472471 0.142808
0.401129 0.459827 0.134431
0.434792 0.451326 0.129882
0.477804 0.440157 0.129569
0.521255 0.427263 0.132392
0.565365 0.416973 0.126117
