example_ofxGpuLutCube/bin/data/ofxGpuLutCube/LUT/A38 (old style hard violet fade).cube
LUT_3D_SIZE 6
0.000000 0.000000 0.000000
0.045490 0.001569 0.000000
0.290196 0.000000 0.010981
0.661961 0.000000 0.003922
0.849412 0.002353 0.013333
0.984275 0.171765 0.203608
0.070588 0.000000 0.005490
0.154196 0.000941 0.014745
0.405333 0.037333 0.001255
0.659922 0.044863 0.000941
0.841569 0.070431 0.025098
0.972447 0.255334 0.206032
0.257255 0.356863 0.000000
0.387608 0.413333 0.003138
0.523922 0.371764 0.000784
0.695529 0.368471 0.013961
0.841883 0.364235 0.117176
0.941890 0.414000 0.255490
0.370196 0.542745 0.012549
0.443764 0.572549 0.073255
0.557804 0.573334 0.103686
0.691922 0.558588 0.138980
0.817255 0.556549 0.232627
0.902667 0.578816 0.359859
0.538824 0.710588 0.311373
0.568941 0.713412 0.314196
0.640314 0.715137 0.343059
0.731294 0.720314 0.381961
0.815843 0.715137 0.427608
0.866667 0.721498 0.517576
0.729294 0.795960 0.591922
0.739529 0.792141 0.584173
0.760706 0.792157 0.593639
0.788219 0.795968 0.611608
0.827388 0.792094 0.631232
0.850941 0.792117 0.662510
0.003922 0.003922 0.011765
0.041569 0.000628 0.016627
0.292706 0.001883 0.068392
0.589804 0.000000 0.071216
0.812706 0.002353 0.105098
0.966102 0.130996 0.223215
0.080784 0.000000 0.045176
0.162949 0.000000 0.065412
0.381490 0.000628 0.079310
0.608032 0.000941 0.079310
0.811577 0.002824 0.115231
0.948609 0.247645 0.230957
0.253333 0.339922 0.092392
0.369976 0.380455 0.125145
0.507043 0.346980 0.115733
0.670996 0.337976 0.120596
0.827074 0.352973 0.179827
0.933439 0.426497 0.297572
0.380706 0.545883 0.140863
0.459420 0.581522 0.181773
0.557647 0.569725 0.186008
0.684330 0.550243 0.199247
0.813804 0.555514 0.272878
0.898471 0.585659 0.392000
0.552314 0.715922 0.347608
0.585067 0.721569 0.367122
0.651890 0.723482 0.395075
0.732581 0.719717 0.416439
0.813678 0.716392 0.453647
0.865621 0.721661 0.537628
0.740996 0.788298 0.592039
0.744069 0.791192 0.594996
0.761948 0.793399 0.601125
0.792412 0.791620 0.618938
0.827421 0.792118 0.637188
0.848728 0.789765 0.660306
0.021961 0.000000 0.092549
0.098039 0.000000 0.114039
0.267451 0.000000 0.163921
0.549334 0.000157 0.221804
0.800784 0.000000 0.246902
0.944376 0.203083 0.331663
0.085961 0.000000 0.174745
0.194039 0.001035 0.199592
0.343466 0.001569 0.197647
0.579765 0.000345 0.220643
0.804926 0.000000 0.252549
0.939056 0.269773 0.340528
0.223059 0.285490 0.241569
0.344471 0.332706 0.281976
0.497474 0.314573 0.269051
0.650855 0.301176 0.257506
0.820737 0.356706 0.306447
0.922940 0.445954 0.387007
0.377412 0.537255 0.269491
0.463624 0.562196 0.310588
0.550839 0.545632 0.300800
0.683012 0.540298 0.310871
0.806337 0.556831 0.368690
0.888596 0.597763 0.462314
0.566588 0.711529 0.419608
0.602667 0.720282 0.448125
0.657569 0.721381 0.456847
0.731137 0.714573 0.465569
0.810980 0.715702 0.497161
0.865188 0.723898 0.561950
0.733215 0.786714 0.605310
0.741084 0.792144 0.611644
0.756979 0.791962 0.615568
0.793159 0.789627 0.633849
0.823953 0.792565 0.647388
0.847804 0.795130 0.670408
0.136471 0.000000 0.356862
0.221176 0.000000 0.354039
0.347137 0.000000 0.337882
0.512784 0.000000 0.333961
0.788079 0.001883 0.405176
0.940227 0.179420 0.450730
0.128941 0.000000 0.349333
0.228110 0.001130 0.367623
0.365365 0.000502 0.345726
0.553318 0.000000 0.356643
0.782933 0.000000 0.395796
0.926036 0.257735 0.439467
0.222588 0.245020 0.395137
0.326933 0.271498 0.423843
0.463592 0.258353 0.405208
0.638996 0.271624 0.412267
0.806902 0.344816 0.431781
0.899761 0.466314 0.485742
0.370196 0.495686 0.406118
0.437710 0.518902 0.428455
0.545098 0.523765 0.436079
0.677961 0.538164 0.450196
0.799624 0.555827 0.473318
0.883849 0.598846 0.532249
0.589020 0.702745 0.514510
0.619294 0.711215 0.529725
0.651012 0.711090 0.526494
0.724612 0.713600 0.538321
0.804204 0.711812 0.556957
0.857351 0.723432 0.610050
0.728502 0.796015 0.631279
0.733255 0.794642 0.632576
0.754409 0.795255 0.639147
0.784303 0.792151 0.646985
0.825520 0.790220 0.660811
0.846981 0.792133 0.686157
0.203922 0.000000 0.559215
0.272314 0.000000 0.555451
0.418039 0.001883 0.556079
0.594510 0.000000 0.558431
0.776157 0.002353 0.557961
0.926815 0.101067 0.577608
0.174431 0.000000 0.558274
0.265224 0.001098 0.567247
0.425537 0.002165 0.566526
0.602949 0.001569 0.559404
0.781773 0.001569 0.559059
0.916800 0.244949 0.564077
0.178667 0.192784 0.561882
0.289192 0.205804 0.575686
0.455780 0.220549 0.576753
0.642039 0.249725 0.582745
0.800753 0.305914 0.582275
0.896914 0.448695 0.574922
0.376941 0.503843 0.579922
0.431247 0.510369 0.581584
0.536628 0.522573 0.589741
0.663279 0.528000 0.591592
0.794071 0.551153 0.591278
0.868952 0.609225 0.616252
0.575686 0.699294 0.608157
0.598212 0.702839 0.611294
0.653773 0.703435 0.616188
0.725365 0.709427 0.628957
0.794761 0.710525 0.636486
0.857222 0.723757 0.652971
0.729334 0.788219 0.674424
0.738565 0.789623 0.675074
0.753371 0.788696 0.677440
0.782519 0.788701 0.684683
0.811755 0.790066 0.687174
0.843020 0.799060 0.708094
0.223490 0.000000 0.744902
0.289412 0.000024 0.739521
0.429804 0.000000 0.740313
0.604667 0.000000 0.737945
0.774980 0.000000 0.730863
0.921647 0.230825 0.729373
0.186698 0.001553 0.736415
0.271689 0.000621 0.737918
0.429454 0.000000 0.743653
0.608133 0.000019 0.735118
0.773387 0.035362 0.731660
0.923898 0.292282 0.731701
0.171874 0.181216 0.740274
0.267685 0.183917 0.739393
0.432188 0.212704 0.743313
0.615398 0.274113 0.732757
0.776809 0.366641 0.731178
0.903529 0.456329 0.726933
0.353067 0.485537 0.729310
0.390712 0.484019 0.727475
0.481028 0.484417 0.726712
0.631621 0.514987 0.730516
0.774122 0.551863 0.719609
0.885303 0.598392 0.718368
0.598471 0.703514 0.719153
0.608665 0.705112 0.719991
0.649239 0.703390 0.717747
0.704336 0.701976 0.723039
0.781001 0.702754 0.720725
0.855569 0.720776 0.722251
0.729100 0.796000 0.725412
0.729372 0.796039 0.725373
0.745827 0.795200 0.725435
0.776330 0.792156 0.733207
0.813364 0.789835 0.734808
0.850670 0.803766 0.756435
