example_ofxGpuLutCube/bin/data/ofxGpuLutCube/LUT/A39 (old style soft violet fade).cube
LUT_3D_SIZE 16
0.117647 0.054902 0.058824
0.123137 0.054118 0.054118
0.221961 0.016471 0.054902
0.294118 0.000000 0.059608
0.354510 0.000000 0.048628
0.423529 0.000000 0.050980
0.473725 0.000000 0.036078
0.527843 0.000000 0.031373
0.571765 0.000000 0.039216
0.614902 0.000000 0.043137
0.658824 0.000000 0.050980
0.694902 0.003138 0.054902
0.732549 0.000000 0.064314
0.781961 0.000000 0.070588
0.832941 0.000000 0.076862
0.897921 0.000000 0.078431
0.106667 0.084706 0.050196
0.155294 0.077804 0.049098
0.233255 0.054902 0.042353
0.297255 0.024000 0.043137
0.363137 0.001882 0.045333
0.419608 0.000000 0.031373
0.473725 0.000628 0.025725
0.528000 0.000000 0.028706
0.573020 0.001255 0.038902
0.617098 0.000000 0.053333
0.654902 0.000000 0.053333
0.694588 0.000000 0.058040
0.734588 0.000314 0.065725
0.782274 0.000000 0.069333
0.828863 0.002510 0.076863
0.904133 0.000031 0.072188
0.125490 0.146667 0.025098
0.179451 0.139294 0.031059
0.240627 0.137098 0.031843
0.308549 0.112471 0.029490
0.368941 0.083765 0.029490
0.421176 0.056471 0.028235
0.481882 0.037177 0.036392
0.528627 0.009726 0.037804
0.573490 0.001255 0.044235
0.615216 0.000314 0.052863
0.658824 0.000000 0.058824
0.694902 0.000000 0.062118
0.733177 0.000000 0.064941
0.778196 0.000941 0.074196
0.832627 0.000000 0.079059
0.907231 0.000016 0.083859
0.179608 0.189804 0.021176
0.209726 0.188862 0.020863
0.259451 0.185883 0.018039
0.316235 0.179608 0.025882
0.370667 0.172863 0.021019
0.429020 0.147451 0.033726
0.482039 0.126588 0.042353
0.528784 0.110745 0.047215
0.573804 0.096628 0.050666
0.616941 0.086275 0.059608
0.652549 0.071373 0.062745
0.690980 0.058823 0.066667
0.731764 0.046275 0.072157
0.777725 0.024785 0.080628
0.832470 0.000314 0.078588
0.897945 0.000024 0.093365
0.219608 0.244706 0.035294
0.253804 0.240784 0.033255
0.286275 0.240470 0.033725
0.333020 0.234824 0.035294
0.381334 0.236706 0.034510
0.431373 0.223529 0.042353
0.480157 0.209725 0.049725
0.527843 0.186667 0.059608
0.574275 0.168313 0.061647
0.615372 0.158431 0.063059
0.658040 0.149019 0.076078
0.697569 0.141333 0.076863
0.733020 0.131921 0.078902
0.778510 0.120471 0.078745
0.836079 0.091922 0.091765
0.901804 0.016643 0.090980
0.270588 0.286275 0.047059
0.283137 0.286275 0.049411
0.318431 0.281569 0.050196
0.349804 0.280000 0.050980
0.390588 0.279215 0.050980
0.439216 0.270588 0.054902
0.476863 0.265883 0.053333
0.532549 0.254902 0.061177
0.571765 0.236863 0.066667
0.617255 0.217255 0.078431
0.650980 0.207843 0.074510
0.693333 0.199216 0.090980
0.731764 0.192157 0.091765
0.785883 0.180392 0.092549
0.832157 0.164706 0.097255
0.913529 0.125529 0.098117
0.310588 0.320784 0.065098
0.320627 0.327686 0.068863
0.343059 0.320627 0.068863
0.370980 0.320784 0.070588
0.408471 0.316706 0.071216
0.446275 0.315294 0.064314
0.490980 0.311216 0.073726
0.533804 0.303529 0.067294
0.570980 0.291922 0.080470
0.614274 0.276392 0.080314
0.657255 0.265098 0.089412
0.693804 0.246902 0.099451
0.732549 0.241569 0.099608
0.786510 0.233412 0.108392
0.838432 0.219608 0.103686
0.919036 0.189859 0.112917
0.337255 0.363921 0.084706
0.353255 0.359686 0.087686
0.365647 0.360941 0.080157
0.394510 0.360000 0.081882
0.422745 0.357647 0.086745
0.457255 0.356078 0.083922
0.490667 0.350902 0.084706
0.534745 0.345882 0.088941
0.574274 0.342588 0.093333
0.616000 0.332706 0.100863
0.653333 0.320000 0.105098
0.689569 0.312157 0.107921
0.737098 0.298824 0.115294
0.790431 0.284706 0.123922
0.854745 0.270274 0.124863
0.917545 0.252596 0.123177
0.370196 0.399216 0.100392
0.375373 0.404706 0.102745
0.386980 0.401726 0.100706
0.409098 0.403137 0.101490
0.430588 0.401412 0.099922
0.465098 0.394510 0.104314
0.498980 0.393882 0.104784
0.535059 0.392314 0.102431
0.576157 0.390431 0.108078
0.612863 0.389804 0.106039
0.644706 0.385883 0.110588
0.690039 0.379921 0.118745
0.734745 0.368628 0.126902
0.790431 0.357490 0.131451
0.852549 0.340706 0.134902
0.933082 0.319255 0.145043
0.378823 0.449411 0.113725
0.386353 0.455687 0.110431
0.395607 0.456157 0.113725
0.416941 0.456941 0.116549
0.444706 0.451922 0.122510
0.469804 0.452549 0.113725
0.504784 0.454902 0.112941
0.533019 0.454746 0.113412
0.570980 0.454902 0.118275
0.605647 0.458667 0.116392
0.639216 0.454902 0.113725
0.678745 0.462745 0.121255
0.722196 0.459765 0.122353
0.780549 0.452393 0.122353
0.853177 0.439059 0.129098
0.937035 0.418078 0.141137
0.372549 0.533333 0.117647
0.381961 0.533333 0.118431
0.393725 0.537255 0.121569
0.408628 0.535686 0.116078
0.430589 0.533333 0.115294
0.458824 0.533333 0.109804
0.491765 0.536471 0.113725
0.518431 0.543529 0.114510
0.553726 0.541176 0.116078
0.585882 0.548236 0.106666
0.619608 0.549020 0.109804
0.660393 0.560784 0.106666
0.705882 0.562353 0.101176
0.765490 0.560784 0.104314
0.847059 0.553725 0.114509
0.940941 0.545098 0.121491
0.341176 0.631373 0.098039
0.342431 0.632157 0.092706
0.359529 0.630588 0.088627
0.375686 0.634510 0.094118
0.395451 0.632157 0.088314
0.420392 0.632157 0.088627
0.457255 0.636079 0.092549
0.485334 0.640314 0.088157
0.519843 0.643765 0.088941
0.556078 0.649726 0.084236
0.595294 0.651765 0.087843
0.639373 0.657882 0.081882
0.690196 0.661177 0.083137
0.756392 0.666353 0.076549
0.837019 0.663373 0.075451
0.940117 0.650996 0.082283
0.276079 0.725490 0.065882
0.287059 0.723294 0.067921
0.297255 0.723137 0.063530
0.320628 0.724706 0.065098
0.345098 0.725490 0.064785
0.375686 0.727843 0.065098
0.407686 0.729412 0.064314
0.440784 0.729568 0.065098
0.480941 0.733804 0.066981
0.520157 0.733333 0.059138
0.567059 0.737255 0.071373
0.624314 0.738510 0.064941
0.680627 0.738667 0.059922
0.760000 0.738039 0.067137
0.846117 0.741019 0.057569
0.951161 0.729435 0.063475
0.221176 0.794510 0.065098
0.236392 0.794196 0.066667
0.251765 0.793255 0.062118
0.274666 0.795294 0.063216
0.297725 0.793726 0.060235
0.334118 0.797647 0.064314
0.371921 0.795294 0.066353
0.413804 0.796235 0.067451
0.457569 0.796079 0.074353
0.509333 0.801255 0.069804
0.564706 0.796863 0.072157
0.634510 0.797020 0.072157
0.703686 0.796235 0.075765
0.784157 0.792941 0.083294
0.871372 0.788549 0.082510
0.984823 0.777294 0.083875
0.214117 0.843922 0.091765
0.218666 0.845647 0.094118
0.235608 0.843137 0.093961
0.260549 0.847372 0.090981
0.289569 0.845490 0.091137
0.327059 0.848627 0.101177
0.370196 0.842823 0.094588
0.420078 0.844392 0.096157
0.476079 0.844392 0.101019
0.529412 0.841568 0.099922
0.598431 0.841568 0.106667
0.668236 0.840157 0.109647
0.747451 0.833725 0.111372
0.838274 0.832941 0.112157
0.937725 0.818824 0.115922
0.999953 0.803216 0.109059
0.246981 0.878353 0.125490
0.255561 0.879168 0.130110
0.271953 0.879921 0.134784
0.298683 0.878392 0.128549
0.327757 0.883043 0.129404
0.364549 0.878392 0.133255
0.410855 0.882314 0.132470
0.468823 0.880682 0.138729
0.524534 0.878353 0.139490
0.591937 0.877545 0.140251
0.658706 0.870549 0.141098
0.744078 0.866589 0.142682
0.830322 0.865020 0.145020
0.934627 0.853310 0.141937
0.999984 0.839145 0.141152
0.999961 0.819686 0.141176
0.111373 0.061176 0.081568
0.134902 0.048314 0.072785
0.226196 0.013020 0.078431
0.296471 0.000000 0.080000
0.357647 0.002510 0.077490
0.420392 0.000000 0.081568
0.469804 0.000000 0.080157
0.524235 0.000314 0.083294
0.569726 0.000000 0.083921
0.615216 0.000000 0.084706
0.654118 0.003138 0.098039
0.691765 0.000000 0.092549
0.734745 0.001883 0.097255
0.776470 0.001883 0.100706
0.829177 0.000000 0.101176
0.900957 0.000008 0.104306
0.102275 0.085333 0.073569
0.166870 0.079529 0.078149
0.238086 0.065004 0.077333
0.297349 0.047655 0.078526
0.357961 0.021867 0.081161
0.420078 0.001098 0.081568
0.469804 0.000000 0.081788
0.523921 0.000000 0.085867
0.568690 0.000722 0.083702
0.616847 0.000000 0.090604
0.657255 0.000000 0.091765
0.694902 0.002510 0.095561
0.732392 0.000157 0.097224
0.777004 0.002510 0.101867
0.823341 0.000000 0.102400
0.900334 0.000000 0.112116
0.157020 0.138196 0.074196
0.192439 0.137976 0.078463
0.249098 0.128314 0.083137
0.304376 0.113851 0.078337
0.367278 0.095467 0.084643
0.422274 0.080471 0.081098
0.475294 0.059357 0.085083
0.526902 0.033568 0.089600
0.572016 0.009788 0.092361
0.613773 0.001945 0.089161
0.654902 0.003138 0.096314
0.693898 0.000000 0.101145
0.733427 0.000753 0.098133
0.778196 0.000000 0.106635
0.826039 0.000628 0.104470
0.900684 0.000000 0.113994
0.195451 0.186980 0.083922
0.219765 0.188706 0.079373
0.260518 0.185098 0.075765
0.315325 0.177412 0.080408
0.374933 0.168565 0.086494
0.428079 0.148392 0.085961
0.480000 0.134588 0.091231
0.528188 0.121663 0.089067
0.568816 0.107012 0.090008
0.612173 0.091859 0.091733
0.654902 0.079687 0.097098
0.692863 0.069145 0.098165
0.730635 0.056377 0.102463
0.776000 0.032377 0.110776
0.831906 0.000565 0.106792
0.896948 0.000019 0.111826
0.233569 0.240157 0.085647
0.257600 0.238243 0.084863
0.292298 0.238777 0.081506
0.336753 0.234259 0.083608
0.384220 0.232031 0.085428
0.431530 0.223059 0.085490
0.479655 0.207780 0.090353
0.529820 0.186761 0.094588
0.571043 0.173271 0.098039
0.618290 0.164015 0.098980
0.654431 0.154510 0.098667
0.696439 0.142996 0.105694
0.730855 0.136878 0.112470
0.776314 0.123420 0.111561
0.833820 0.093459 0.117898
0.898718 0.022298 0.111754
0.275294 0.283137 0.089412
0.291608 0.288784 0.088628
0.318117 0.285177 0.086745
0.350118 0.282667 0.086589
0.386823 0.278431 0.084392
0.439216 0.273726 0.089412
0.480157 0.265255 0.089569
0.529882 0.251608 0.096628
0.573177 0.233726 0.098353
0.616000 0.214118 0.099764
0.656471 0.210981 0.110588
0.695216 0.199372 0.115451
0.733647 0.197961 0.118588
0.777255 0.181961 0.119216
0.837961 0.162510 0.126118
0.905725 0.121647 0.123922
0.315137 0.323765 0.099921
0.325051 0.321380 0.101521
0.344659 0.324173 0.104251
0.368941 0.320094 0.102839
0.407216 0.321098 0.102023
0.444078 0.314666 0.103686
0.486871 0.312345 0.099639
0.531765 0.305631 0.109647
0.574180 0.291483 0.105475
0.613616 0.275137 0.115419
0.654902 0.264627 0.122510
0.693427 0.249914 0.123169
0.737129 0.244298 0.128188
0.784628 0.233789 0.129631
0.841412 0.217726 0.135560
0.911109 0.193153 0.138196
0.337255 0.361725 0.113255
0.356706 0.362823 0.116047
0.369976 0.361067 0.119216
0.393474 0.360376 0.118149
0.426353 0.355200 0.120000
0.455686 0.355608 0.113255
0.493490 0.353098 0.114384
0.534714 0.347639 0.119875
0.573177 0.341239 0.120345
0.611922 0.332769 0.127843
0.654588 0.321882 0.130039
0.687780 0.309428 0.130604
0.738478 0.299576 0.139702
0.787420 0.284863 0.147294
0.848816 0.270525 0.148392
0.920802 0.251528 0.150157
0.364079 0.403765 0.128784
0.373176 0.404643 0.129443
0.388486 0.399498 0.127153
0.407028 0.400345 0.130196
0.434447 0.398588 0.129977
0.465882 0.395608 0.128628
0.504000 0.393914 0.130196
0.540078 0.394792 0.132988
0.573804 0.390682 0.132831
0.610322 0.390714 0.135466
0.645960 0.387765 0.137725
0.686024 0.380455 0.142964
0.733333 0.370071 0.148330
0.782557 0.357396 0.148988
0.855875 0.336219 0.153663
0.928789 0.322041 0.167184
0.380549 0.453020 0.139451
0.388235 0.458823 0.141804
0.401788 0.456690 0.137945
0.415467 0.457286 0.137882
0.443357 0.452800 0.141710
0.468079 0.453020 0.139451
0.504565 0.450478 0.143121
0.533835 0.452486 0.146353
0.569914 0.452769 0.140298
0.604988 0.455310 0.142745
0.638432 0.458196 0.145725
0.678965 0.459890 0.145161
0.725334 0.458981 0.151027
0.785318 0.450039 0.152690
0.853553 0.441067 0.160690
0.937016 0.418563 0.160135
0.372549 0.532549 0.136470
0.384471 0.532706 0.140549
0.396392 0.533804 0.137255
0.410980 0.531765 0.139608
0.431373 0.534902 0.139608
0.458824 0.540392 0.145882
0.492392 0.538510 0.145255
0.524392 0.545726 0.144157
0.554040 0.543372 0.141804
0.586981 0.548236 0.136000
0.619608 0.552941 0.138824
0.654588 0.558118 0.136627
0.705255 0.564235 0.133333
0.768157 0.562039 0.135215
0.842981 0.557490 0.139137
0.930071 0.541176 0.144298
0.342588 0.629019 0.123608
0.343906 0.630274 0.124267
0.355733 0.631780 0.128502
0.374463 0.631906 0.126180
0.393161 0.632910 0.125145
0.425098 0.633412 0.122981
0.454463 0.639686 0.119529
0.483765 0.641130 0.119404
0.517678 0.645239 0.122792
0.552690 0.647341 0.117427
0.591059 0.651137 0.119059
0.636455 0.656565 0.115419
0.687373 0.663122 0.116235
0.751812 0.668863 0.110682
0.838431 0.664032 0.105976
0.937021 0.651611 0.118838
0.280157 0.723294 0.105882
0.282353 0.723043 0.106353
0.298823 0.725020 0.105882
0.318274 0.725208 0.104659
0.343561 0.725961 0.105882
0.371294 0.726275 0.104784
0.405177 0.731043 0.105035
0.440000 0.731294 0.102965
0.477365 0.734933 0.107200
0.521631 0.736628 0.103624
0.567529 0.738824 0.106980
0.625474 0.734086 0.101710
0.682761 0.739921 0.101616
0.759624 0.740235 0.106384
0.839874 0.741239 0.101208
0.948332 0.725548 0.100684
0.225098 0.794980 0.104157
0.233098 0.793317 0.106196
0.248878 0.793474 0.103623
0.269929 0.794604 0.102369
0.300424 0.795514 0.104188
0.334745 0.794039 0.104000
0.367372 0.796800 0.107482
0.409035 0.797804 0.104471
0.458667 0.797334 0.111623
0.508957 0.797898 0.107827
0.563922 0.796078 0.111843
0.629804 0.798714 0.108204
0.704534 0.793098 0.110839
0.785851 0.791529 0.113694
0.874698 0.786165 0.116612
0.982154 0.776847 0.112116
0.204706 0.845020 0.121883
0.219514 0.844894 0.126306
0.233569 0.846149 0.124392
0.262149 0.845302 0.126494
0.289129 0.844863 0.128063
0.324549 0.844706 0.121883
0.372549 0.845083 0.127028
0.417819 0.844831 0.130008
0.469835 0.844455 0.130259
0.528376 0.843953 0.131294
0.593098 0.843294 0.131921
0.668612 0.839906 0.132643
0.748015 0.832345 0.133177
0.833820 0.828549 0.137067
0.940518 0.817412 0.135278
0.999959 0.806351 0.131192
0.239138 0.885349 0.150479
0.252400 0.879634 0.144150
0.269823 0.879150 0.148700
0.292268 0.881945 0.151616
0.320692 0.882270 0.152872
0.360698 0.882275 0.150589
0.411476 0.878850 0.154896
0.461056 0.880227 0.152110
0.524813 0.876023 0.155820
0.588985 0.871365 0.156501
0.658628 0.869772 0.157600
0.740778 0.869719 0.159795
0.830516 0.861914 0.158944
0.935393 0.854816 0.165580
0.997513 0.839967 0.163437
0.999968 0.820486 0.163051
0.099608 0.059608 0.132549
0.149020 0.044235 0.133490
0.231843 0.010196 0.137411
0.297883 0.000628 0.133961
0.357333 0.001726 0.130039
0.415686 0.002353 0.136470
0.469020 0.003608 0.139608
0.517490 0.000000 0.139294
0.565804 0.000628 0.134118
0.614432 0.000000 0.135843
0.655686 0.000000 0.138823
0.694118 0.000000 0.137726
0.731608 0.002353 0.142275
0.775686 0.000000 0.143843
0.826981 0.003138 0.144314
0.895498 0.000016 0.148196
0.123294 0.079686 0.129726
0.173992 0.076988 0.131639
0.238463 0.069616 0.134588
0.297945 0.062181 0.131733
0.357961 0.047341 0.133898
0.416941 0.032157 0.139137
0.469396 0.008878 0.134024
0.520314 0.000000 0.134651
0.568251 0.000816 0.136000
0.614212 0.000251 0.136094
0.653333 0.000000 0.138667
0.690071 0.000377 0.140926
0.732329 0.001600 0.141208
0.774369 0.000471 0.144220
0.825757 0.002510 0.150024
0.900155 0.000005 0.149617
0.168157 0.137255 0.133961
0.201851 0.134651 0.135059
0.250604 0.131514 0.132894
0.306667 0.120314 0.130196
0.366996 0.107451 0.136753
0.424941 0.089882 0.135059
0.474604 0.076988 0.135341
0.528627 0.056220 0.135122
0.570510 0.032125 0.140298
0.614400 0.009788 0.135153
0.652863 0.003608 0.139451
0.687687 0.001883 0.143812
0.732424 0.000941 0.144722
0.777506 0.000000 0.146698
0.831686 0.000000 0.151687
0.901305 0.000009 0.153715
0.205490 0.186980 0.135216
0.234667 0.185443 0.133114
0.269020 0.183467 0.133302
0.321976 0.176973 0.134965
0.372329 0.168722 0.133898
0.427294 0.155137 0.137412
0.473914 0.143843 0.135529
0.525333 0.129663 0.138164
0.570447 0.116863 0.137286
0.613459 0.103498 0.136439
0.651608 0.090196 0.137725
0.691200 0.080314 0.142024
0.732455 0.067702 0.145223
0.775937 0.045710 0.148612
0.827702 0.005271 0.148925
0.899125 0.000000 0.153112
0.244392 0.240314 0.140392
0.260988 0.241129 0.136220
0.295812 0.236204 0.137945
0.337662 0.233443 0.138510
0.382243 0.228926 0.134682
0.433883 0.222274 0.136000
0.477741 0.203859 0.139043
0.527592 0.185255 0.141961
0.568282 0.178792 0.136345
0.613616 0.166274 0.148173
0.649569 0.156079 0.139137
0.692110 0.150714 0.148172
0.732110 0.142118 0.149773
0.776753 0.131451 0.151404
0.832816 0.099765 0.155106
0.897032 0.027666 0.148458
0.280000 0.286275 0.141176
0.293020 0.282667 0.136471
0.316863 0.282353 0.137569
0.353882 0.277961 0.138196
0.392470 0.276078 0.137569
0.443137 0.269804 0.141961
0.479686 0.263059 0.141333
0.523294 0.252235 0.139608
0.569725 0.235922 0.145412
0.612863 0.218667 0.151687
0.648627 0.211765 0.145098
0.690353 0.201255 0.157176
0.727843 0.197333 0.156235
0.778667 0.185882 0.156706
0.833726 0.165490 0.161569
0.911216 0.127137 0.167843
0.312941 0.324706 0.146039
0.325114 0.324831 0.142494
0.345631 0.324110 0.147106
0.372518 0.320439 0.147106
0.409600 0.318965 0.149271
0.447843 0.312157 0.148863
0.488941 0.310588 0.148079
0.532204 0.301522 0.149961
0.574118 0.290071 0.149961
0.610510 0.279529 0.154384
0.651451 0.264784 0.161882
0.695655 0.250353 0.167404
0.735592 0.246933 0.165428
0.785192 0.235765 0.170667
0.843671 0.221490 0.174745
0.912321 0.191153 0.174917
0.341961 0.358588 0.155451
0.352847 0.358243 0.155765
0.368565 0.359341 0.158400
0.393098 0.358777 0.157208
0.422463 0.354823 0.159718
0.458824 0.352157 0.158588
0.494149 0.349773 0.160627
0.535310 0.343027 0.160721
0.573302 0.341773 0.159780
0.611138 0.332517 0.166431
0.650666 0.318902 0.168157
0.687373 0.310275 0.171200
0.736690 0.298384 0.179232
0.788957 0.287059 0.186039
0.849067 0.274510 0.184784
0.922008 0.255714 0.183195
0.367372 0.403137 0.173333
0.374526 0.402321 0.173553
0.390180 0.399843 0.170855
0.408408 0.398996 0.171074
0.437208 0.399216 0.173114
0.465255 0.396235 0.172392
0.501961 0.394259 0.176408
0.535843 0.394070 0.173772
0.573647 0.390055 0.169475
0.611733 0.390243 0.176282
0.644392 0.383529 0.174902
0.687373 0.377914 0.177412
0.733772 0.371106 0.185381
0.784502 0.359874 0.189396
0.859608 0.336314 0.192722
0.931134 0.323937 0.197328
0.383686 0.453804 0.180235
0.389145 0.454243 0.181271
0.400627 0.454934 0.182274
0.418039 0.456628 0.182557
0.445082 0.453522 0.185945
0.472314 0.454275 0.181177
0.503561 0.453710 0.180329
0.536220 0.454338 0.182808
0.571012 0.451388 0.180769
0.607122 0.456565 0.184157
0.636235 0.457569 0.183059
0.675388 0.463404 0.185224
0.725427 0.456408 0.187984
0.786322 0.447561 0.187012
0.854776 0.436643 0.191247
0.944240 0.416362 0.200152
0.380392 0.531765 0.181177
0.382745 0.534118 0.183529
0.395137 0.536314 0.186510
0.412863 0.535216 0.183843
0.434510 0.534588 0.178980
0.458824 0.536470 0.177255
0.496000 0.540706 0.178196
0.520157 0.539764 0.176157
0.553098 0.544784 0.179137
0.583530 0.549647 0.176000
0.615686 0.552941 0.178039
0.653019 0.559686 0.177569
0.705725 0.564706 0.175372
0.768157 0.560784 0.176470
0.843137 0.552314 0.176471
0.937035 0.541192 0.183466
0.331765 0.631686 0.168628
0.341145 0.633412 0.171231
0.352659 0.633788 0.167874
0.369632 0.635106 0.169129
0.392815 0.635106 0.165428
0.418510 0.634353 0.165961
0.454745 0.637459 0.167969
0.483231 0.639686 0.164706
0.512973 0.642698 0.164863
0.554008 0.649036 0.161945
0.591059 0.654588 0.165490
0.636424 0.658572 0.159592
0.686902 0.665349 0.164267
0.753349 0.668957 0.157647
0.837584 0.662840 0.154918
0.935463 0.649929 0.159388
0.272157 0.722980 0.150431
0.278965 0.728000 0.152910
0.293208 0.725584 0.152408
0.318651 0.727153 0.155765
0.338070 0.729035 0.156204
0.367372 0.728784 0.150118
0.401788 0.731639 0.153161
0.438965 0.733176 0.153443
0.476267 0.732894 0.151718
0.520941 0.735216 0.152815
0.566902 0.736941 0.154667
0.621804 0.737631 0.151341
0.683043 0.741490 0.150086
0.756455 0.739671 0.150118
0.839561 0.741804 0.148361
0.953815 0.730212 0.149953
0.218667 0.793412 0.148549
0.227765 0.792690 0.147890
0.245051 0.793537 0.149427
0.267984 0.796079 0.150494
0.294180 0.797177 0.151341
0.327686 0.795294 0.148863
0.368941 0.795577 0.152722
0.411075 0.797427 0.153035
0.457600 0.797898 0.156612
0.509302 0.797898 0.153945
0.566588 0.799216 0.159059
0.631090 0.796580 0.151686
0.704063 0.795388 0.157208
0.782557 0.792815 0.153882
0.876267 0.783780 0.154102
0.986842 0.776670 0.157948
0.204393 0.845490 0.164706
0.214620 0.846839 0.166776
0.230808 0.844079 0.164549
0.254243 0.845553 0.164926
0.286651 0.847059 0.163953
0.319686 0.844078 0.161569
0.366714 0.844016 0.163608
0.415090 0.844455 0.167467
0.468298 0.842510 0.164486
0.531451 0.842416 0.170290
0.594980 0.838431 0.167215
0.664941 0.836580 0.165302
0.746635 0.834290 0.170478
0.836675 0.828612 0.170604
0.942808 0.817035 0.169161
0.999969 0.806350 0.166963
0.241435 0.880761 0.181976
0.248485 0.883533 0.185628
0.264133 0.883666 0.185335
0.290648 0.882287 0.185498
0.320661 0.882722 0.183622
0.358337 0.879921 0.181177
0.410031 0.880256 0.185528
0.460447 0.875396 0.183950
0.518122 0.879743 0.183477
0.586689 0.876144 0.186012
0.662486 0.874432 0.192047
0.742196 0.864756 0.189641
0.834196 0.861269 0.192886
0.936981 0.852503 0.188980
0.998444 0.841219 0.191838
0.999961 0.821223 0.187451
0.096471 0.052549 0.190588
0.156863 0.032157 0.189177
0.231059 0.002981 0.192784
0.297569 0.000941 0.190275
0.360784 0.003608 0.187451
0.419608 0.002353 0.189804
0.468392 0.000000 0.189647
0.520627 0.000000 0.192941
0.562980 0.001412 0.196706
0.605334 0.000000 0.205177
0.646274 0.000000 0.196863
0.692392 0.000000 0.193569
0.732549 0.000000 0.197647
0.773333 0.000000 0.195294
0.825098 0.001255 0.196078
0.905568 0.000039 0.208549
0.155294 0.075608 0.188078
0.189239 0.072722 0.188173
0.247404 0.067733 0.189584
0.303592 0.059043 0.189647
0.357992 0.048816 0.191216
0.416470 0.033412 0.193255
0.468267 0.026541 0.191059
0.518745 0.018259 0.197396
0.563545 0.020329 0.200000
0.609632 0.006306 0.201224
0.651764 0.000000 0.195137
0.690541 0.000094 0.193192
0.729412 0.000753 0.194321
0.771639 0.000941 0.196110
0.825004 0.001349 0.198400
0.895945 0.000019 0.202952
0.185098 0.132706 0.188392
0.218290 0.132486 0.193569
0.259075 0.128784 0.193506
0.312314 0.122918 0.189898
0.366055 0.116110 0.190620
0.420706 0.106667 0.194353
0.472063 0.102902 0.201004
0.519655 0.092016 0.200031
0.568157 0.068706 0.199059
0.612737 0.043200 0.191781
0.649882 0.026824 0.193412
0.689098 0.010228 0.195137
0.727969 0.004016 0.198024
0.777286 0.000000 0.201882
0.830526 0.001412 0.200000
0.904552 0.000000 0.210783
0.208628 0.186039 0.189804
0.242196 0.183655 0.191592
0.275137 0.181270 0.190212
0.324549 0.175937 0.191153
0.375184 0.169349 0.192376
0.428079 0.160941 0.192784
0.474008 0.153098 0.192753
0.522165 0.140047 0.194008
0.567843 0.129474 0.193537
0.612455 0.117804 0.196643
0.651608 0.108549 0.198589
0.685679 0.099326 0.197114
0.728439 0.085647 0.202886
0.772141 0.065192 0.200377
0.826949 0.013208 0.203890
0.900632 0.002025 0.211432
0.249411 0.236706 0.197647
0.268706 0.239247 0.197114
0.299984 0.235859 0.199279
0.339953 0.232941 0.200063
0.384377 0.224533 0.196298
0.431687 0.219608 0.196549
0.479561 0.203200 0.193851
0.527529 0.195639 0.195733
0.566400 0.187827 0.195796
0.611169 0.178730 0.200784
0.649569 0.167686 0.203764
0.689161 0.160157 0.202666
0.728659 0.150808 0.203168
0.778259 0.140706 0.209663
0.836235 0.108863 0.214400
0.896839 0.042219 0.200596
0.276863 0.284706 0.197647
0.296314 0.286431 0.200784
0.319843 0.283765 0.204549
0.356078 0.277490 0.203922
0.394509 0.274824 0.195451
0.435294 0.268235 0.193726
0.478431 0.263843 0.196393
0.526275 0.248941 0.199059
0.571765 0.234353 0.205020
0.607059 0.224156 0.206588
0.650196 0.219608 0.201569
0.691765 0.206118 0.208157
0.729568 0.202353 0.209412
0.778823 0.189804 0.209412
0.839059 0.172078 0.212863
0.905741 0.131074 0.213349
0.312628 0.323608 0.204392
0.327498 0.322730 0.205679
0.347106 0.320345 0.205898
0.373710 0.320188 0.208439
0.408784 0.316266 0.206055
0.449098 0.314823 0.210196
0.488126 0.308831 0.206996
0.528722 0.300769 0.206526
0.574306 0.286965 0.211545
0.611765 0.275765 0.209443
0.650353 0.265098 0.213961
0.690604 0.255435 0.216282
0.735498 0.249569 0.219921
0.781647 0.239592 0.221804
0.838431 0.225192 0.220612
0.913471 0.196929 0.222022
0.346510 0.359059 0.212392
0.356612 0.359247 0.215749
0.371827 0.359686 0.215279
0.392722 0.357584 0.212361
0.424910 0.354886 0.218071
0.456314 0.350745 0.218353
0.491984 0.350902 0.215467
0.533176 0.343153 0.216282
