example_ofxGpuLutCube/bin/data/ofxGpuLutCube/LUT/A39 (old style soft violet fade).cube
LUT_3D_SIZE 6
0.117647 0.054902 0.058824
0.294118 0.000000 0.059608
0.473725 0.000000 0.036078
0.614902 0.000000 0.043137
0.732549 0.000000 0.064314
0.897921 0.000000 0.078431
0.179608 0.189804 0.021176
0.316235 0.179608 0.025882
0.482039 0.126588 0.042353
0.616941 0.086275 0.059608
0.731764 0.046275 0.072157
0.897945 0.000024 0.093365
0.310588 0.320784 0.065098
0.370980 0.320784 0.070588
0.490980 0.311216 0.073726
0.614274 0.276392 0.080314
0.732549 0.241569 0.099608
0.919036 0.189859 0.112917
0.378823 0.449411 0.113725
0.416941 0.456941 0.116549
0.504784 0.454902 0.112941
0.605647 0.458667 0.116392
0.722196 0.459765 0.122353
0.937035 0.418078 0.141137
0.276079 0.725490 0.065882
0.320628 0.724706 0.065098
0.407686 0.729412 0.064314
0.520157 0.733333 0.059138
0.680627 0.738667 0.059922
0.951161 0.729435 0.063475
0.246981 0.878353 0.125490
0.298683 0.878392 0.128549
0.410855 0.882314 0.132470
0.591937 0.877545 0.140251
0.830322 0.865020 0.145020
0.999961 0.819686 0.141176
0.096471 0.052549 0.190588
0.297569 0.000941 0.190275
0.468392 0.000000 0.189647
0.605334 0.000000 0.205177
0.732549 0.000000 0.197647
0.905568 0.000039 0.208549
0.208628 0.186039 0.189804
0.324549 0.175937 0.191153
0.474008 0.153098 0.192753
0.612455 0.117804 0.196643
0.728439 0.085647 0.202886
0.900632 0.002025 0.211432
0.312628 0.323608 0.204392
0.373710 0.320188 0.208439
0.488126 0.308831 0.206996
0.611765 0.275765 0.209443
0.735498 0.249569 0.219921
0.913471 0.196929 0.222022
0.381490 0.452549 0.231686
0.418510 0.454400 0.232941
0.502463 0.451796 0.230494
0.602353 0.456345 0.235043
0.721443 0.454871 0.236330
0.939578 0.414323 0.243338
0.264627 0.725961 0.210353
0.311184 0.726369 0.212110
0.397804 0.729004 0.209474
0.516581 0.736032 0.204141
0.685051 0.741396 0.208094
0.955841 0.729280 0.202032
0.230416 0.883812 0.226612
0.286069 0.879942 0.222237
0.401945 0.879904 0.224141
0.585681 0.875213 0.225859
0.830020 0.859732 0.228933
1.000000 0.821992 0.228180
0.196862 0.000000 0.385098
0.312941 0.001883 0.392471
0.466353 0.003138 0.387608
0.600157 0.000000 0.385255
0.718902 0.018980 0.390432
0.883757 0.000000 0.410149
0.249882 0.178824 0.391843
0.332925 0.172706 0.390557
0.464314 0.160188 0.387137
0.598086 0.152471 0.385412
0.715231 0.152785 0.395012
0.894407 0.074298 0.405506
0.323294 0.318588 0.390902
0.375624 0.315043 0.393317
0.481412 0.306698 0.395262
0.604957 0.285208 0.389239
0.724455 0.268298 0.391310
0.916022 0.207172 0.393100
0.381333 0.448000 0.392627
0.413679 0.451608 0.393412
0.492706 0.450761 0.392282
0.592753 0.453302 0.394039
0.725584 0.447278 0.391812
0.944745 0.413214 0.394386
0.230745 0.726745 0.368784
0.283169 0.729694 0.366275
0.377851 0.731608 0.366808
0.507639 0.735059 0.364235
0.683984 0.738165 0.363294
0.971293 0.721926 0.363691
0.159827 0.882243 0.367875
0.231721 0.883498 0.370761
0.372285 0.878386 0.366750
0.574838 0.873046 0.370328
0.832184 0.863909 0.375158
0.999899 0.825797 0.378723
0.254118 0.003138 0.578039
0.327059 0.000000 0.573647
0.448313 0.000000 0.571137
0.587137 0.002510 0.565961
0.709647 0.020079 0.575686
0.893914 0.003106 0.596847
0.275764 0.166902 0.570824
0.338509 0.165020 0.576157
0.459012 0.157835 0.572110
0.585663 0.148832 0.567561
0.703969 0.149459 0.574714
0.893934 0.036947 0.592334
0.323922 0.310745 0.576941
0.372141 0.307608 0.579483
0.469804 0.300643 0.574432
0.590275 0.288126 0.577443
0.709616 0.277271 0.582588
0.912124 0.223820 0.600174
0.362823 0.448627 0.582275
0.395043 0.448972 0.585380
0.472565 0.450384 0.586604
0.567655 0.456032 0.580298
0.715137 0.452832 0.587984
0.945492 0.433773 0.590552
0.077960 0.729255 0.598588
0.172423 0.729506 0.601945
0.305098 0.736220 0.597051
0.466071 0.739859 0.593161
0.675012 0.738918 0.592533
0.985919 0.711854 0.605114
0.000008 0.882290 0.620423
0.000000 0.886515 0.618031
0.276544 0.882447 0.624086
0.535650 0.876947 0.619570
0.828723 0.860974 0.625202
0.996925 0.823420 0.628942
0.315294 0.001569 0.715294
0.368784 0.000941 0.717490
0.471372 0.000000 0.719843
0.594039 0.000000 0.715608
0.710431 0.000628 0.710431
0.909545 0.000000 0.716831
0.325490 0.154039 0.716078
0.370102 0.153004 0.716580
0.474039 0.147106 0.719090
0.587702 0.143687 0.717270
0.711373 0.134337 0.712910
0.918786 0.000047 0.722003
0.338353 0.303530 0.719372
0.383028 0.296282 0.714761
0.474259 0.290886 0.717866
0.590275 0.280314 0.719216
0.717678 0.271184 0.717114
0.934710 0.209793 0.715795
0.352471 0.459294 0.715608
0.386980 0.459232 0.718620
0.461491 0.455906 0.716329
0.569851 0.457506 0.718023
0.722604 0.465255 0.716517
0.974487 0.459138 0.713718
0.074039 0.731294 0.704627
0.168408 0.732580 0.709522
0.306071 0.736126 0.709114
0.475576 0.739733 0.705725
0.702369 0.736941 0.703561
0.999274 0.708745 0.696399
0.000039 0.879945 0.710651
0.054457 0.885215 0.716005
0.311740 0.881020 0.711539
0.551244 0.873655 0.707925
0.851398 0.859186 0.707407
0.999969 0.828941 0.701269
0.395960 0.003883 0.835216
0.431334 0.000000 0.835270
0.512118 0.000000 0.832118
0.620282 0.000777 0.838298
0.758361 0.000000 0.832133
0.991765 0.000000 0.831372
0.395161 0.136494 0.832110
0.431726 0.136285 0.832289
0.510701 0.129104 0.835845
0.616722 0.124741 0.834433
0.759820 0.076780 0.835042
0.995725 0.000039 0.833678
0.394376 0.284808 0.830589
0.425086 0.284714 0.831357
0.506772 0.277672 0.825295
0.612642 0.275644 0.835060
0.771057 0.248006 0.829167
0.999960 0.126651 0.825953
0.368603 0.461224 0.829765
0.394682 0.458369 0.826025
0.472430 0.451733 0.828160
0.596320 0.458033 0.829859
0.780701 0.459324 0.825184
0.995380 0.439278 0.821145
0.026698 0.751357 0.803883
0.145588 0.751498 0.804829
0.312138 0.749798 0.809318
0.512563 0.747760 0.807909
0.768380 0.735694 0.802165
1.000000 0.693435 0.803828
0.156157 0.886235 0.795961
0.242031 0.888487 0.797631
0.410643 0.886196 0.802973
0.635781 0.872133 0.793702
0.936055 0.847804 0.793733
0.999961 0.823684 0.799805
