example_ofxGpuLutCube/bin/data/ofxGpuLutCube/LUT/A4 (contrasty warm).cube
LUT_3D_SIZE 6
0.034772 0.031912 0.031207
0.115882 0.028291 0.030106
0.337172 0.086008 0.097790
0.592387 0.080488 0.124365
0.802331 -0.000445 -0.020306
0.902359 0.000000 0.000000
0.067328 0.089706 0.032486
0.107797 0.089462 0.030214
0.337874 0.110457 0.093974
0.593767 0.102721 0.119701
0.804050 -0.020057 -0.014266
0.903651 0.000000 0.000000
0.165887 0.288031 0.084068
0.184317 0.282462 0.083597
0.353125 0.288054 0.088878
0.601857 0.255390 -0.035168
0.822902 0.181245 -0.001133
0.912988 0.177968 0.000000
0.246522 0.530487 0.081453
0.265051 0.529233 0.071067
0.396938 0.519267 -0.027215
0.613976 0.491985 -0.001056
0.878314 0.483697 -0.000056
0.945143 0.495936 0.000000
0.268036 0.713085 -0.000273
0.283244 0.712154 -0.000242
0.426423 0.708277 0.000000
0.664011 0.729269 0.000000
0.938159 0.765462 0.000000
0.976223 0.770371 0.000000
0.296493 0.881471 -0.024436
0.311145 0.881512 -0.018856
0.452556 0.883005 -0.049909
0.715903 0.914809 -0.058232
0.987257 0.964782 -0.011841
1.001529 0.965365 0.000000
-0.135103 -0.401428 0.124589
-0.136532 -0.402077 0.105993
0.305378 -0.399411 0.130615
0.565299 -0.414489 0.155162
0.768571 -0.437978 0.020163
0.886690 -0.439922 0.000000
-0.032134 0.094193 0.099694
0.081045 0.078940 0.079578
0.331315 0.104730 0.117565
0.590826 0.098380 0.141263
0.803032 -0.018064 -0.030899
0.904353 0.000000 0.000000
0.161941 0.291765 0.085375
0.181249 0.286393 0.083078
0.349536 0.287080 0.096639
0.599606 0.253427 0.049847
0.823029 0.179267 -0.004607
0.913937 0.174096 0.000000
0.242830 0.531483 0.082555
0.261086 0.530230 0.073715
0.395275 0.520850 -0.027348
0.612207 0.493540 -0.001063
0.874750 0.485117 -0.000059
0.945813 0.495917 0.000000
0.265058 0.713968 -0.000220
0.280166 0.712857 -0.000196
0.424376 0.708929 0.000000
0.662527 0.729918 0.000000
0.937390 0.766653 0.000000
0.976336 0.771439 0.000000
0.293393 0.882286 -0.077568
0.310075 0.882316 -0.075346
0.451951 0.884158 -0.078532
0.715140 0.915530 -0.085069
0.986631 0.965818 -0.051750
1.001561 0.966120 -0.034199
-0.116686 -0.398119 0.329042
-0.129665 -0.397953 0.330074
-0.063671 -0.401941 0.314153
0.531704 -0.419532 0.314712
0.758215 -0.440285 0.279157
0.895157 -0.442262 0.262641
0.058491 0.115070 0.305749
0.059314 0.114838 0.306538
0.191843 0.106713 0.290574
0.563341 -0.021286 0.290184
0.790804 -0.002515 0.257436
0.911967 0.000000 0.240988
0.061400 0.299601 0.314851
0.038653 0.301334 0.317417
0.274390 0.259293 0.257041
0.570728 0.231102 0.255855
0.813935 0.147172 0.208895
0.924566 0.091714 0.193229
0.213311 0.515060 0.132654
0.232088 0.512237 0.131978
0.365957 0.498195 0.127708
0.591888 0.493893 0.129420
0.867999 0.485848 0.024118
0.953673 0.488665 0.031620
0.236913 0.723085 -0.005414
0.252637 0.722083 -0.004204
0.405128 0.717178 0.000000
0.650265 0.736657 0.000000
0.923581 0.770408 0.000000
0.980177 0.777696 0.000000
0.260613 0.889876 -0.194317
0.279016 0.889887 -0.194787
0.439143 0.892492 -0.192064
0.708465 0.921961 -0.182961
0.971949 0.976481 -0.172170
1.002918 0.974926 -0.171092
0.086454 -0.380590 0.595564
0.068390 -0.378515 0.596778
-0.169952 -0.382114 0.602484
0.257624 -0.421068 0.570112
0.642673 -0.445635 0.588529
0.848212 -0.450043 0.595737
0.107053 0.156330 0.553872
0.107173 0.155895 0.554994
0.084783 0.163454 0.560979
0.365498 0.068591 0.531484
0.701361 -0.003267 0.549386
0.879821 0.000000 0.560884
0.083160 0.269397 0.537897
0.081744 0.269459 0.539037
0.058860 0.271353 0.544294
0.388867 0.234552 0.532918
0.753046 -0.090867 0.535019
0.920511 -0.046575 0.544320
-0.040499 0.495745 0.493897
-0.040791 0.495727 0.494519
0.103453 0.486099 0.495017
0.503452 0.487616 0.502198
0.841607 0.442349 0.483491
0.983377 0.406616 0.476331
0.177854 0.687208 0.332763
0.192341 0.687192 0.330906
0.341978 0.674853 0.307764
0.609491 0.733263 0.351524
0.896622 0.778324 0.367585
0.993430 0.787009 0.397324
0.142364 0.870939 -0.079548
0.166040 0.866747 -0.103709
0.361293 0.854466 -0.182121
0.675816 0.923321 0.088093
0.955689 0.984663 0.143068
1.025055 0.996115 0.285944
0.045109 -0.398419 0.801045
0.043335 -0.398366 0.800738
-0.107810 -0.395669 0.805319
-0.194852 -0.425948 0.809877
0.405961 -0.453597 0.815934
0.637818 -0.463256 0.850374
0.038283 0.133560 0.769319
0.038591 0.133222 0.770683
0.033224 0.135907 0.773214
0.204466 -0.055194 0.787414
0.524454 -0.007721 0.792478
0.716374 0.000000 0.828862
0.006809 0.257533 0.757006
0.007205 0.257469 0.758436
0.007181 0.259308 0.761304
0.212521 0.210141 0.774282
0.556891 -0.077883 0.812348
0.758864 -0.002169 0.850695
-0.000766 0.471680 0.717816
-0.000754 0.471337 0.718442
-0.000244 0.473238 0.731583
0.234533 0.463799 0.771868
0.637084 0.415362 0.835433
0.846998 0.300619 0.870203
-0.000818 0.729521 0.715799
-0.000723 0.730727 0.716120
-0.005264 0.735210 0.732144
0.296023 0.752064 0.768573
0.783930 0.782454 0.827797
1.005933 0.749912 0.814130
0.010797 0.913336 0.629730
0.009698 0.914394 0.633541
-0.044652 0.922819 0.654350
0.504274 0.941616 0.691565
0.902046 1.002187 0.735606
1.046558 1.024482 0.777752
0.001058 -0.424195 0.853185
0.001058 -0.424353 0.852975
0.000808 -0.427426 0.849726
-0.127906 -0.446279 0.853035
0.386944 -0.463848 0.839078
0.563826 -0.465701 0.856601
0.000969 0.100053 0.847141
0.000886 0.099599 0.847142
0.000968 0.105280 0.847136
-0.112662 -0.045835 0.861902
0.453401 0.013532 0.862495
0.650807 0.000000 0.879515
-0.000325 0.243236 0.848189
-0.000322 0.243154 0.848296
-0.000307 0.246112 0.848323
-0.115247 0.194937 0.876777
0.465146 -0.061006 0.888383
0.691285 0.000000 0.917552
0.000000 0.480354 0.845016
0.000000 0.480313 0.845473
0.000000 0.481415 0.858810
-0.121700 0.466732 0.896462
0.504430 0.387124 0.935860
0.770728 0.226883 0.961558
0.000000 0.735154 0.837774
0.000000 0.734737 0.839945
0.000000 0.739973 0.851309
-0.132701 0.766084 0.913873
0.593449 0.764055 0.989941
0.892881 0.719533 0.997768
0.000000 0.878069 0.827014
0.000000 0.877596 0.827546
0.000000 0.883926 0.842157
-0.142981 0.915079 0.898609
0.671678 0.955702 0.973046
0.952222 0.952437 0.993616
