example_ofxGpuLutCube/bin/data/ofxGpuLutCube/LUT/A4 (contrasty warm).cube
LUT_3D_SIZE 16
0.034772 0.031912 0.031207
0.057405 0.028244 0.026970
0.083847 0.026269 0.026587
0.115882 0.028291 0.030106
0.162521 0.037962 0.039763
0.232446 0.057166 0.064042
0.337172 0.086008 0.097790
0.439357 0.097661 0.129249
0.516860 0.097168 0.134647
0.592387 0.080488 0.124365
0.655440 0.023661 0.090875
0.729289 -0.018991 0.018567
0.802331 -0.000445 -0.020306
0.862692 0.000000 0.000000
0.902708 0.000000 0.000000
0.902359 0.000000 0.000000
0.042816 0.044332 0.026919
0.052844 0.042466 0.024157
0.082551 0.032713 0.025149
0.115494 0.027996 0.028640
0.162295 0.037780 0.039606
0.232095 0.059144 0.063945
0.337128 0.085855 0.097737
0.439348 0.097618 0.129262
0.516835 0.097109 0.134630
0.592567 0.080445 0.124393
0.655461 0.025079 0.090966
0.729514 -0.020618 0.019443
0.802397 -0.000386 -0.020010
0.864311 0.000000 0.000000
0.902743 0.000000 0.000000
0.902515 0.000000 0.000000
0.054182 0.063996 0.026740
0.055293 0.064571 0.025676
0.075882 0.062126 0.022820
0.113462 0.052245 0.027332
0.163490 0.048794 0.039659
0.236743 0.065935 0.064643
0.337025 0.090819 0.097031
0.439465 0.101923 0.128745
0.516614 0.100847 0.133711
0.592754 0.084751 0.123609
0.655134 0.034602 0.088874
0.727992 -0.027193 0.016226
0.802565 -0.003663 -0.018310
0.864260 0.000000 0.000000
0.902914 0.000000 0.000000
0.902644 0.000000 0.000000
0.067328 0.089706 0.032486
0.066922 0.089641 0.032370
0.075320 0.089876 0.032265
0.107797 0.089462 0.030214
0.164692 0.086716 0.041525
0.238293 0.092800 0.062204
0.337874 0.110457 0.093974
0.438968 0.119768 0.125390
0.516249 0.116924 0.129999
0.593767 0.102721 0.119701
0.656123 0.064236 0.081275
0.730367 -0.044517 -0.028056
0.804050 -0.020057 -0.014266
0.866692 -0.005113 0.000000
0.904360 0.000000 0.000000
0.903651 0.000000 0.000000
0.086474 0.130189 0.042636
0.086216 0.130220 0.042680
0.091657 0.130353 0.042326
0.118323 0.133142 0.044074
0.169166 0.138243 0.050502
0.245085 0.144371 0.065368
0.339148 0.150330 0.090084
0.437618 0.154221 0.116052
0.519090 0.151036 0.121180
0.595946 0.137694 0.108019
0.656879 0.108289 0.062554
0.733547 0.031000 -0.029641
0.805295 -0.056861 -0.008801
0.869213 -0.043143 0.000000
0.907730 -0.038306 0.000000
0.905352 -0.041339 0.000000
0.120790 0.196855 0.062688
0.120846 0.196918 0.062756
0.124296 0.195923 0.062739
0.143520 0.194714 0.063906
0.186012 0.200603 0.065362
0.255185 0.209197 0.072191
0.346178 0.210419 0.088750
0.441255 0.212255 0.105364
0.525950 0.202340 0.101697
0.599302 0.187459 0.077475
0.661075 0.162572 -0.035495
0.740451 0.126914 -0.019642
0.813262 0.091848 -0.004034
0.876854 -0.037089 0.000000
0.911955 -0.053653 0.000000
0.907872 0.049869 0.000000
0.165887 0.288031 0.084068
0.165799 0.287976 0.084200
0.169016 0.287463 0.083074
0.184317 0.282462 0.083597
0.216704 0.277186 0.082016
0.268992 0.281666 0.085155
0.353125 0.288054 0.088878
0.446941 0.283938 0.086313
0.529865 0.274363 0.064088
0.601857 0.255390 -0.035168
0.672592 0.231901 -0.022192
0.749906 0.205255 -0.007108
0.822902 0.181245 -0.001133
0.886357 0.165096 0.000000
0.917005 0.174265 0.000000
0.912988 0.177968 0.000000
0.207554 0.389920 0.104971
0.207522 0.389993 0.104931
0.212628 0.389159 0.102845
0.228784 0.385989 0.100990
0.259986 0.375514 0.097887
0.294932 0.358820 0.088761
0.360095 0.370737 0.083790
0.450257 0.364973 0.058778
0.531171 0.349872 -0.033991
0.601899 0.329789 -0.019058
0.680950 0.312749 -0.007036
0.763295 0.296262 -0.002013
0.836952 0.278819 -0.000338
0.901667 0.258760 0.000000
0.925142 0.274333 0.000000
0.921242 0.273317 0.000000
0.230900 0.465474 0.101903
0.230857 0.465563 0.101998
0.234425 0.464332 0.101730
0.252240 0.465228 0.096536
0.286436 0.462229 0.086856
0.329785 0.458183 0.080361
0.383175 0.446453 0.054648
0.450814 0.446001 -0.029813
0.524921 0.425020 -0.017515
0.606068 0.408846 -0.004873
0.692184 0.398852 -0.001639
0.776232 0.390894 -0.000480
0.855720 0.385208 -0.000254
0.924639 0.384496 0.000000
0.935249 0.394703 0.000000
0.932742 0.393980 0.000000
0.246522 0.530487 0.081453
0.246329 0.530489 0.081447
0.250363 0.530684 0.080129
0.265051 0.529233 0.071067
0.299017 0.531525 0.045745
0.344122 0.529740 -0.012186
0.396938 0.519267 -0.027215
0.455369 0.507303 -0.016317
0.523541 0.503154 -0.004889
0.613976 0.491985 -0.001056
0.705475 0.485271 0.000135
0.794814 0.483365 -0.000268
0.878314 0.483697 -0.000056
0.945108 0.486656 0.000000
0.946727 0.494152 0.000000
0.945143 0.495936 0.000000
0.255066 0.590910 0.028595
0.254940 0.590910 0.028407
0.259427 0.590987 0.023039
0.273153 0.591317 -0.025825
0.304969 0.592428 -0.026969
0.345890 0.581965 -0.017626
0.400171 0.576885 -0.009574
0.465972 0.573636 -0.003407
0.538127 0.575494 -0.000840
0.620500 0.582803 -0.000108
0.721840 0.576277 -0.000108
0.815758 0.580014 -0.000081
0.900387 0.583748 0.000000
0.958254 0.589092 0.000000
0.956489 0.592157 0.000000
0.955885 0.593867 0.000000
0.261788 0.653767 -0.019873
0.261661 0.653753 -0.019362
0.263430 0.653951 -0.017140
0.276041 0.652896 -0.012386
0.306266 0.649056 -0.006358
0.355894 0.644214 -0.001609
0.413088 0.644055 -0.000846
0.480049 0.644662 -0.000250
0.556813 0.648886 0.000000
0.641744 0.659621 0.000000
0.737522 0.669191 0.000000
0.837428 0.672513 0.000000
0.921062 0.680448 0.000000
0.969454 0.682621 0.000000
0.967193 0.686073 0.000000
0.966948 0.688030 0.000000
0.268036 0.713085 -0.000273
0.268059 0.713067 -0.000273
0.269954 0.713225 -0.000273
0.283244 0.712154 -0.000242
0.308689 0.710518 -0.000153
0.359756 0.708533 0.000000
0.426423 0.708277 0.000000
0.494211 0.711318 0.000000
0.574385 0.717491 0.000000
0.664011 0.729269 0.000000
0.754364 0.748798 0.000000
0.855485 0.757525 0.000000
0.938159 0.765462 0.000000
0.980390 0.766071 0.000000
0.976245 0.768439 0.000000
0.976223 0.770371 0.000000
0.272494 0.765110 0.000000
0.272435 0.765105 0.000000
0.276072 0.765157 0.000000
0.286039 0.765419 0.000000
0.315292 0.764673 0.000000
0.360011 0.763920 0.000000
0.435077 0.762783 0.000000
0.506859 0.767051 0.000000
0.588658 0.775451 0.000000
0.681087 0.789765 0.000000
0.776117 0.804119 0.000000
0.868937 0.822466 0.000000
0.951444 0.832667 0.000000
0.986447 0.832005 0.000000
0.982485 0.833043 0.000000
0.982101 0.835232 0.000000
0.274990 0.801871 0.000000
0.275024 0.801867 0.000000
0.276913 0.801871 0.000000
0.290173 0.801974 0.000000
0.318205 0.801025 0.000000
0.363782 0.802170 0.000000
0.436523 0.801525 0.000000
0.515924 0.806066 0.000000
0.598528 0.816010 0.000000
0.691574 0.830830 0.000000
0.789977 0.846558 0.000000
0.877031 0.868253 0.000000
0.960074 0.878263 0.000000
0.990407 0.874048 0.000000
0.985454 0.875951 0.000000
0.985662 0.877742 0.000000
0.296493 0.881471 -0.024436
0.296442 0.881477 -0.021948
0.298255 0.881484 -0.018746
0.311145 0.881512 -0.018856
0.338409 0.881326 -0.025104
0.384544 0.882218 -0.036520
0.452556 0.883005 -0.049909
0.535026 0.887826 -0.060030
0.619291 0.898690 -0.063098
0.715903 0.914809 -0.058232
0.817978 0.932637 -0.045874
0.908698 0.952259 -0.028522
0.987257 0.964782 -0.011841
1.012309 0.963028 0.000000
1.003480 0.963344 0.000000
1.001529 0.965365 0.000000
-0.134168 -0.401500 0.056586
-0.132360 -0.401714 0.049258
-0.117636 -0.401866 0.037271
-0.089609 -0.401601 0.036200
0.091747 -0.401356 0.046377
0.193719 -0.400357 0.070857
0.313443 -0.398519 0.106138
0.420466 -0.399392 0.137933
0.497002 -0.404404 0.143873
0.568562 -0.413663 0.132949
0.625868 -0.425201 0.098306
0.696905 -0.433207 0.034911
0.771601 -0.437916 -0.018698
0.837897 -0.439203 0.000000
0.883733 -0.439461 0.000000
0.885697 -0.439896 0.000000
0.026001 0.043293 0.045214
0.035989 0.037583 0.040625
0.079560 0.027955 0.031776
0.114607 0.028772 0.032636
0.162299 0.036075 0.043250
0.232154 0.057446 0.064387
0.336993 0.085739 0.098479
0.439289 0.097482 0.129879
0.516682 0.097010 0.135135
0.592433 0.080359 0.125028
0.655256 0.021971 0.091362
0.729266 -0.020237 0.024114
0.802286 -0.000416 -0.020687
0.864386 0.000000 0.000000
0.902696 0.000000 0.000000
0.902486 0.000000 0.000000
0.054266 0.063979 0.023180
0.055548 0.064334 0.023930
0.073263 0.062267 0.025080
0.112148 0.049987 0.031497
0.163614 0.048858 0.041681
0.234914 0.063977 0.064942
0.336987 0.090665 0.097804
0.439232 0.101786 0.129264
0.516461 0.100716 0.134363
0.592723 0.084658 0.124214
0.654921 0.034506 0.090964
0.729422 -0.027066 0.016274
0.802556 -0.003635 -0.018842
0.864452 0.000000 0.000000
0.902976 0.000000 0.000000
0.902766 0.000000 0.000000
0.067045 0.089899 0.032426
0.066752 0.089799 0.032251
0.075266 0.090099 0.031944
0.107630 0.089712 0.029674
0.164581 0.086432 0.042196
0.238170 0.094496 0.064345
0.337634 0.110223 0.094704
0.438753 0.119665 0.125900
0.516148 0.116898 0.130621
0.593661 0.102570 0.120226
0.655994 0.064156 0.083331
0.730183 -0.044683 -0.026749
0.803841 -0.020287 -0.014789
0.866740 -0.005113 0.000000
0.904116 0.000000 0.000000
0.903688 0.000000 0.000000
0.086278 0.130239 0.042661
0.086081 0.130313 0.042731
0.091590 0.130388 0.042345
0.116449 0.133277 0.044087
0.169147 0.138061 0.049702
0.244913 0.144180 0.066068
0.339040 0.150193 0.090835
0.437425 0.154094 0.116670
0.518960 0.150950 0.121755
0.595836 0.137615 0.108783
0.656704 0.108149 0.063039
0.733432 0.035167 -0.029862
0.805392 -0.056860 -0.009288
0.869262 -0.042989 0.000000
0.907853 -0.038154 0.000000
0.905343 -0.041198 0.000000
0.120703 0.197006 0.062670
0.120677 0.196982 0.062746
0.124170 0.196074 0.062726
0.143287 0.194824 0.063847
0.185866 0.200547 0.066282
0.255130 0.209186 0.071496
0.346063 0.210378 0.089430
0.441189 0.212238 0.106151
0.525909 0.202343 0.102459
0.599108 0.187460 0.078626
0.662569 0.162569 -0.035395
0.740314 0.126910 -0.019929
0.813267 0.091091 -0.004224
0.876838 -0.037755 0.000000
0.911939 -0.054345 0.000000
0.907854 0.049251 0.000000
0.165692 0.288111 0.084168
0.165710 0.288047 0.084179
0.168703 0.287533 0.083175
0.185855 0.282568 0.083557
0.216624 0.277138 0.082086
0.268896 0.281650 0.085739
0.353022 0.288036 0.088859
0.446799 0.283948 0.086697
0.529844 0.274335 0.065537
0.601771 0.255320 -0.034843
0.672396 0.231877 -0.022590
0.749791 0.205209 -0.007302
0.822908 0.181127 -0.001134
0.886511 0.164949 0.000000
0.916990 0.174166 0.000000
0.913042 0.177809 0.000000
0.207426 0.389943 0.104971
0.207427 0.390009 0.104979
0.212448 0.389059 0.102848
0.228712 0.385991 0.101033
0.258403 0.375538 0.097857
0.294853 0.358828 0.088742
0.360071 0.370779 0.083739
0.450100 0.364986 0.058664
0.531096 0.349880 -0.034343
0.601860 0.329797 -0.019476
0.680855 0.312762 -0.007319
0.763228 0.296261 -0.002048
0.836862 0.278706 -0.000348
0.901667 0.258704 0.000000
0.925097 0.274251 0.000000
0.921232 0.273253 0.000000
0.230760 0.465633 0.102026
0.230719 0.465583 0.102004
0.234245 0.465999 0.101860
0.252145 0.465289 0.096532
0.286454 0.462371 0.086887
0.329835 0.458274 0.080453
0.383094 0.446500 0.054685
0.450813 0.446050 -0.029775
0.524871 0.425038 -0.017522
0.606013 0.408894 -0.004874
0.692137 0.398866 -0.001640
0.776157 0.390913 -0.000481
0.855707 0.385211 -0.000254
0.924639 0.384486 0.000000
0.935284 0.394725 0.000000
0.932740 0.393971 0.000000
0.246347 0.530571 0.081506
0.246254 0.530498 0.081460
0.250179 0.530713 0.080189
0.264959 0.529322 0.071092
0.298939 0.530101 0.045724
0.344023 0.529809 -0.012290
0.396835 0.519316 -0.027235
0.455267 0.507291 -0.016330
0.523503 0.503145 -0.004905
0.613969 0.492136 -0.001056
0.705486 0.485251 0.000134
0.794888 0.483513 -0.000268
0.878318 0.483746 -0.000056
0.945106 0.486755 0.000000
0.946726 0.494175 0.000000
0.945142 0.495921 0.000000
0.254975 0.590890 0.028684
0.254780 0.591048 0.028484
0.259242 0.590958 0.023151
0.272983 0.591512 -0.025791
0.304959 0.592572 -0.026978
0.345897 0.581991 -0.017627
0.400176 0.576951 -0.009574
0.465986 0.573625 -0.003407
0.538139 0.575559 -0.000840
0.620348 0.582861 -0.000108
0.721697 0.576335 -0.000108
0.815666 0.580083 -0.000081
0.900388 0.583816 0.000000
0.958252 0.587694 0.000000
0.956482 0.592214 0.000000
0.955880 0.593954 0.000000
0.261637 0.653773 -0.019900
0.261470 0.653754 -0.019388
0.264810 0.653917 -0.017166
0.275826 0.652903 -0.012408
0.306274 0.649019 -0.006372
0.355894 0.644230 -0.001610
0.413076 0.644023 -0.000846
0.480045 0.644637 -0.000250
0.556886 0.648817 0.000000
0.641637 0.659671 0.000000
0.739110 0.669262 0.000000
0.837300 0.672527 0.000000
0.921065 0.680554 0.000000
0.969455 0.682688 0.000000
0.967185 0.686125 0.000000
0.967020 0.688018 0.000000
0.268002 0.713283 -0.000273
0.267957 0.713064 -0.000273
0.269835 0.713350 -0.000273
0.283157 0.712180 -0.000242
0.308620 0.710612 -0.000153
0.359724 0.708606 0.000000
0.426371 0.708271 0.000000
0.494188 0.711379 0.000000
0.574291 0.717613 0.000000
0.663963 0.729610 0.000000
0.754264 0.747485 0.000000
0.855431 0.757817 0.000000
0.938163 0.765445 0.000000
0.980380 0.766067 0.000000
0.976236 0.768435 0.000000
0.976213 0.770369 0.000000
0.272389 0.765245 0.000000
0.272304 0.765226 0.000000
0.275986 0.765298 0.000000
0.285888 0.765483 0.000000
0.315227 0.764656 0.000000
0.359915 0.763900 0.000000
0.435005 0.762779 0.000000
0.506764 0.767023 0.000000
0.588575 0.775440 0.000000
0.680924 0.789813 0.000000
0.776006 0.804109 0.000000
0.868726 0.822516 0.000000
0.951520 0.832651 0.000000
0.986439 0.831994 0.000000
0.982553 0.833033 0.000000
0.982098 0.835220 0.000000
0.274893 0.801852 0.000000
0.274857 0.801849 0.000000
0.276806 0.801853 0.000000
0.289975 0.801951 0.000000
0.318139 0.801140 0.000000
0.363781 0.802090 0.000000
0.436471 0.801649 0.000000
0.515877 0.805995 0.000000
0.598457 0.816028 0.000000
0.691596 0.830865 0.000000
0.789909 0.846570 0.000000
0.877035 0.868286 0.000000
0.960083 0.878281 0.000000
0.990403 0.874137 0.000000
0.985451 0.876016 0.000000
0.985660 0.877831 0.000000
0.296552 0.881469 -0.040991
0.296666 0.881472 -0.039465
0.298719 0.881486 -0.034557
0.311496 0.881514 -0.029131
0.338485 0.881377 -0.030342
0.384630 0.882214 -0.039718
0.452589 0.883108 -0.052432
0.535243 0.887832 -0.062306
0.619321 0.898698 -0.065332
0.715880 0.914808 -0.060753
0.817939 0.932634 -0.049009
0.908629 0.952249 -0.032066
0.987278 0.964777 -0.014791
1.012291 0.963020 -0.000269
1.003461 0.963336 0.000000
1.001499 0.965356 0.000000
-0.135080 -0.401518 0.089743
-0.136511 -0.401418 0.091323
-0.134034 -0.401883 0.074823
-0.103181 -0.401862 0.055556
0.085005 -0.401521 0.058905
0.194057 -0.400553 0.077661
0.311431 -0.398727 0.112046
0.418968 -0.399576 0.142740
0.495799 -0.404596 0.148575
0.567732 -0.413792 0.138037
0.626222 -0.425237 0.106778
0.696102 -0.433199 0.050452
0.771700 -0.437916 -0.023356
0.838415 -0.439204 -0.000425
0.883710 -0.439462 0.000000
0.886034 -0.439896 0.000000
0.014686 0.038134 0.084284
-0.025249 0.040623 0.086484
0.038277 0.019131 0.068172
0.104586 0.015708 0.049389
0.159961 0.033370 0.053255
0.232554 0.056456 0.073950
0.335448 0.084312 0.103907
0.438003 0.096306 0.134291
0.515748 0.095972 0.139594
0.591733 0.079193 0.129780
0.655706 0.016187 0.098117
0.726995 -0.019353 0.043147
0.802570 -0.000377 -0.025933
0.863277 0.000000 -0.000480
0.902622 0.000000 0.000000
0.902821 0.000000 0.000000
-0.017170 0.065514 0.068425
-0.022594 0.064130 0.067258
0.045545 0.052755 0.054826
0.105268 0.047219 0.047747
0.159251 0.049803 0.053994
0.235292 0.062769 0.074319
0.335462 0.089283 0.103243
0.437885 0.100661 0.133636
0.515480 0.099689 0.138736
0.592095 0.083563 0.128952
0.655288 0.030499 0.097770
0.728849 -0.026322 0.038916
0.801110 -0.003398 -0.024057
0.864760 0.000000 -0.000425
0.902868 0.000000 0.000000
0.902877 0.000000 0.000000
0.063390 0.088735 0.030932
0.062994 0.088894 0.032272
0.074108 0.088210 0.034403
0.104652 0.085794 0.041802
0.163411 0.085143 0.054745
0.236741 0.093303 0.072395
0.336133 0.109079 0.100355
0.437242 0.118617 0.130203
0.515424 0.116019 0.135287
0.593045 0.101717 0.125184
0.654932 0.063461 0.090559
0.729266 -0.043938 0.018581
0.804151 -0.019567 -0.019624
0.866737 -0.005113 -0.000269
0.904431 0.000000 0.000000
0.903614 0.000000 0.000000
0.085292 0.131103 0.042246
0.085046 0.131240 0.042224
0.090396 0.129878 0.043433
0.115073 0.132881 0.042285
0.167792 0.138595 0.054928
0.243908 0.143036 0.072579
0.337723 0.149283 0.096927
0.436311 0.153263 0.121425
0.518217 0.150323 0.126670
0.595134 0.136940 0.114391
0.657332 0.105949 0.072653
0.733975 0.024701 -0.030368
0.806835 -0.056187 -0.012917
0.868129 -0.042475 0.000000
0.907708 -0.037089 0.000000
0.905747 -0.040171 0.000000
0.119841 0.197611 0.062745
0.119629 0.197730 0.062785
0.123055 0.196862 0.062741
0.143865 0.194075 0.063714
0.184232 0.201204 0.065962
0.254090 0.209885 0.072259
0.344690 0.209600 0.095454
0.440237 0.211639 0.111907
0.525130 0.201749 0.108368
0.598679 0.186975 0.086970
0.661600 0.162180 -0.023527
0.739431 0.124861 -0.023876
0.813579 0.091259 -0.006002
0.875903 -0.039585 0.000000
0.912312 -0.059632 0.000000
0.908375 0.044426 0.000000
0.164896 0.288898 0.084424
0.164841 0.288851 0.084472
0.169384 0.288446 0.083487
0.184671 0.283557 0.083979
0.217448 0.277003 0.082149
0.269525 0.282670 0.085386
0.352368 0.288145 0.089152
0.446017 0.283587 0.092335
0.528988 0.273988 0.075573
0.601355 0.254908 -0.030429
0.671292 0.231655 -0.026709
0.750683 0.203284 -0.010358
0.823141 0.181522 -0.001284
0.886611 0.163969 0.000000
0.917209 0.172760 0.000000
0.913109 0.177059 0.000000
0.206474 0.390692 0.105247
0.206466 0.390525 0.105244
0.211257 0.389942 0.103207
0.229101 0.384955 0.099877
0.257516 0.377402 0.097859
0.295917 0.359040 0.089227
0.359270 0.371051 0.083323
0.449776 0.365517 0.057803
0.530493 0.349870 -0.034494
0.601415 0.329801 -0.022991
0.681596 0.312813 -0.009478
0.764073 0.296492 -0.002111
0.837135 0.276423 -0.000396
0.901800 0.260032 0.000000
0.925424 0.273643 0.000000
0.921335 0.272686 0.000000
0.229853 0.465747 0.102151
0.229759 0.465757 0.102148
0.233222 0.466147 0.102001
0.252640 0.465532 0.096745
0.284499 0.462471 0.086926
0.330905 0.459902 0.080467
0.382769 0.446645 0.054712
0.450347 0.446309 -0.029958
0.524652 0.425411 -0.018078
0.605662 0.409121 -0.006068
0.691614 0.399079 -0.001653
0.777312 0.391170 -0.000481
0.855951 0.384911 -0.000260
0.924529 0.382687 0.000000
0.935516 0.394476 0.000000
0.932672 0.393703 0.000000
0.245581 0.530750 0.081720
0.245553 0.530743 0.081703
0.249462 0.530876 0.080323
0.264129 0.529606 0.072826
0.298494 0.530502 0.045475
0.343767 0.531570 -0.012409
0.396298 0.519611 -0.027256
0.455113 0.507471 -0.016348
0.523253 0.503334 -0.004917
0.613377 0.492358 -0.001057
0.706575 0.486889 0.000133
0.794199 0.485277 -0.000269
0.876877 0.483647 -0.000059
0.945374 0.486764 0.000000
0.946813 0.494242 0.000000
0.945309 0.495897 0.000000
0.254148 0.591207 0.029279
0.254187 0.591208 0.029110
0.256966 0.591297 0.023548
0.272306 0.591761 -0.024506
0.304361 0.591238 -0.027282
0.347140 0.580701 -0.017629
0.399545 0.577132 -0.009573
0.465615 0.573952 -0.003409
0.537785 0.575738 -0.000840
0.620115 0.582913 -0.000108
0.722866 0.576404 -0.000108
0.815529 0.580079 -0.000081
0.900726 0.583919 0.000000
0.958227 0.587673 0.000000
0.956612 0.592385 0.000000
0.955770 0.594089 0.000000
0.261018 0.654001 -0.020070
0.261026 0.653942 -0.019559
0.262790 0.654105 -0.017402
0.275361 0.652934 -0.012765
0.305815 0.649181 -0.006729
0.355419 0.645883 -0.001614
0.412647 0.644243 -0.000847
0.479671 0.644728 -0.000253
0.556570 0.648946 0.000000
0.641146 0.660046 0.000000
0.737097 0.669400 0.000000
0.836901 0.672904 0.000000
0.919810 0.680462 0.000000
0.969676 0.684343 0.000000
0.967320 0.685998 0.000000
0.967139 0.688119 0.000000
0.267373 0.713308 -0.000262
0.267373 0.713225 -0.000263
0.269334 0.713316 -0.000263
0.280836 0.713678 -0.000233
0.309898 0.712102 -0.000148
0.359366 0.708673 0.000000
0.425890 0.708447 0.000000
0.493818 0.711564 0.000000
0.573975 0.717885 0.000000
0.663650 0.729525 0.000000
0.755555 0.747657 0.000000
0.855180 0.757809 0.000000
0.938408 0.765928 0.000000
0.980547 0.766405 0.000000
0.976287 0.768694 0.000000
0.976256 0.770749 0.000000
0.271712 0.765353 0.000000
0.271651 0.765351 0.000000
0.275191 0.765357 0.000000
0.286991 0.765440 0.000000
0.313054 0.764826 0.000000
0.359706 0.764114 0.000000
0.434430 0.763073 0.000000
0.506481 0.767289 0.000000
0.588278 0.775622 0.000000
0.680545 0.790074 0.000000
0.775605 0.805814 0.000000
0.868415 0.822799 0.000000
0.950161 0.831532 0.000000
0.986677 0.832129 0.000000
0.982506 0.833507 0.000000
0.982154 0.835269 0.000000
0.274187 0.802145 0.000000
0.274130 0.802140 0.000000
0.277682 0.802143 0.000000
0.287638 0.802168 0.000000
0.317832 0.801435 0.000000
0.363549 0.800851 0.000000
0.435965 0.802148 0.000000
0.515505 0.806212 0.000000
0.598237 0.816285 0.000000
0.691372 0.830633 0.000000
0.788070 0.846677 0.000000
0.878406 0.868129 0.000000
0.958797 0.878379 0.000000
0.990558 0.874290 0.000000
0.985517 0.875999 0.000000
0.985585 0.877913 0.000000
0.295937 0.881576 -0.056991
0.296090 0.881631 -0.056879
0.298552 0.881585 -0.054855
0.311830 0.881574 -0.049595
0.338876 0.882915 -0.045947
0.383434 0.882210 -0.050664
0.452484 0.883318 -0.061134
0.535376 0.887770 -0.070130
0.619287 0.898997 -0.072934
0.715783 0.914906 -0.068598
0.817745 0.934254 -0.058030
0.908540 0.952396 -0.042800
0.986262 0.964932 -0.025323
1.012549 0.963158 -0.009433
1.003589 0.963495 -0.000538
1.001481 0.965400 0.000000
-0.135103 -0.401428 0.124589
-0.135679 -0.401396 0.124779
-0.139837 -0.401501 0.125142
-0.136532 -0.402077 0.105993
-0.051490 -0.402133 0.090464
0.190033 -0.400983 0.104385
0.305378 -0.399411 0.130615
0.414347 -0.400253 0.159989
0.492238 -0.405260 0.164464
0.565299 -0.414489 0.155162
0.623704 -0.425769 0.125674
0.694930 -0.433377 0.089023
0.768571 -0.437978 0.020163
0.837926 -0.439256 -0.014823
0.883466 -0.439514 -0.000746
0.886690 -0.439922 0.000000
0.014203 0.037071 0.115987
0.013144 0.037995 0.116147
-0.034048 0.031994 0.117249
0.046902 -0.023520 0.098073
0.141439 0.010489 0.082805
0.230302 0.052637 0.094709
0.330704 0.078955 0.121334
0.434196 0.092258 0.150409
0.512778 0.092027 0.154310
0.589717 0.074811 0.145598
0.653573 -0.020399 0.118662
0.727574 -0.016060 0.080621
0.801371 -0.000272 -0.015317
0.863033 0.000000 -0.016334
0.902447 0.000000 -0.000649
0.903569 0.000000 0.000000
0.008328 0.057217 0.115032
-0.006214 0.057811 0.115284
-0.038720 0.056815 0.117721
0.046479 0.040459 0.096624
0.147517 0.046249 0.080765
0.229297 0.060766 0.095196
0.331176 0.084053 0.120461
0.433973 0.096842 0.149511
0.512535 0.095941 0.153578
0.589973 0.079444 0.144791
0.653228 0.012318 0.118104
0.727609 -0.023327 0.080265
0.800199 -0.002517 -0.022989
0.862790 0.000000 -0.014363
0.903035 0.000000 -0.000425
0.903447 0.000000 0.000000
-0.032134 0.094193 0.099694
-0.035009 0.094416 0.100096
-0.045312 0.092481 0.098716
0.081045 0.078940 0.079578
0.152447 0.080913 0.082308
0.233606 0.089742 0.094705
0.331315 0.104730 0.117565
0.433037 0.115086 0.145618
0.513190 0.113160 0.150495
0.590826 0.098380 0.141263
0.653606 0.054451 0.112674
0.728242 -0.042133 0.072857
0.803032 -0.018064 -0.030899
0.864859 -0.004306 -0.010441
0.904311 0.000000 -0.000269
0.904353 0.000000 0.000000
0.079881 0.126570 0.057310
0.080005 0.126417 0.057428
0.086919 0.125651 0.058609
0.112038 0.125816 0.063929
0.162002 0.133701 0.078878
0.240090 0.140103 0.096223
0.333063 0.146436 0.115244
0.431960 0.150336 0.136641
0.516097 0.147948 0.142556
0.592784 0.134368 0.131723
0.656096 0.103588 0.100634
0.731371 -0.023076 0.046650
0.806018 -0.055142 -0.027828
0.869385 -0.039785 -0.005541
0.907729 -0.032921 0.000000
0.906418 -0.036281 0.000000
0.117019 0.200554 0.060128
0.116763 0.200619 0.060209
0.120024 0.201635 0.060169
0.142456 0.197478 0.060164
0.181300 0.199541 0.069447
0.250337 0.207020 0.090927
0.340389 0.207417 0.114600
0.436438 0.209372 0.129086
0.522431 0.199815 0.127279
0.596509 0.184860 0.110527
0.661295 0.160319 0.067680
0.738655 0.122786 -0.036341
0.811516 0.086598 -0.016055
0.875419 -0.050216 -0.001346
0.912787 -0.072788 0.000000
0.908986 -0.004721 0.000000
0.161941 0.291765 0.085375
0.161896 0.291723 0.085362
0.166318 0.289604 0.084347
0.181249 0.286393 0.083078
0.215885 0.279806 0.081996
0.267037 0.283166 0.083201
0.349536 0.287080 0.096639
0.442179 0.281612 0.114457
0.525832 0.272665 0.102683
0.599606 0.253427 0.049847
0.670776 0.228653 -0.038153
