example_ofxGpuLutCube/bin/data/ofxGpuLutCube/LUT/A40 (juicy violet fade).cube
LUT_3D_SIZE 16
0.172549 0.000000 0.109804
0.253333 0.003922 0.116863
0.321568 0.000000 0.121569
0.388235 0.000000 0.117647
0.449411 0.000000 0.120785
0.513725 0.000000 0.133333
0.567843 0.000000 0.141960
0.618039 0.000000 0.154510
0.667451 0.000000 0.170980
0.711372 0.003138 0.178823
0.756863 0.000000 0.184314
0.805491 0.000000 0.189019
0.845490 0.000000 0.201569
0.893333 0.002353 0.208628
0.946667 0.003138 0.218824
0.999882 0.003883 0.215647
0.218824 0.017255 0.123138
0.267921 0.004235 0.123608
0.334431 0.002196 0.125020
0.400314 0.000000 0.130667
0.460392 0.000628 0.137098
0.517647 0.000000 0.146667
0.569882 0.000000 0.154353
0.621961 0.002353 0.162353
0.671843 0.002196 0.178039
0.715294 0.000000 0.181176
0.756863 0.000000 0.185883
0.801569 0.000000 0.198431
0.843294 0.000314 0.200157
0.895843 0.001883 0.213333
0.948549 0.000628 0.218196
0.999922 0.003883 0.215686
0.244706 0.108235 0.142745
0.289882 0.101647 0.145255
0.345882 0.088470 0.145726
0.405647 0.055059 0.153569
0.469804 0.013961 0.158745
0.519216 0.000000 0.166274
0.575372 0.000000 0.170823
0.629804 0.000000 0.179608
0.671530 0.002510 0.176471
0.718432 0.002196 0.190431
0.761569 0.000000 0.198431
0.801882 0.000000 0.203451
0.847059 0.000941 0.207059
0.897412 0.001412 0.211451
0.949804 0.000471 0.214745
0.999922 0.002330 0.217239
0.289412 0.179608 0.165490
0.318431 0.176471 0.173020
0.361255 0.169569 0.172706
0.414902 0.162353 0.170980
0.473255 0.146196 0.180706
0.531765 0.123921 0.182745
0.586667 0.095373 0.186196
0.636079 0.056314 0.186980
0.680471 0.018510 0.195294
0.726275 0.000000 0.198431
0.760784 0.000000 0.203922
0.812549 0.000000 0.215530
0.854118 0.000000 0.212235
0.903529 0.000000 0.223373
0.952471 0.001726 0.224941
0.999969 0.000000 0.227435
0.316863 0.245490 0.190588
0.339764 0.246902 0.192941
0.373804 0.240470 0.192784
0.418039 0.234196 0.188549
0.472157 0.228236 0.188235
0.533333 0.211764 0.198431
0.591059 0.199059 0.206902
0.641568 0.180392 0.204706
0.688628 0.157647 0.214902
0.730980 0.137725 0.215529
0.771765 0.110588 0.218039
0.817882 0.079059 0.223372
0.857098 0.040157 0.224941
0.909019 0.001569 0.233725
0.958431 0.000000 0.231843
0.999961 0.000000 0.235310
0.352941 0.305882 0.211765
0.365490 0.305882 0.215686
0.386666 0.301961 0.207843
0.430588 0.298039 0.210196
0.475294 0.294902 0.214902
0.533333 0.286275 0.219608
0.586667 0.280784 0.219608
0.641568 0.266667 0.229020
0.683922 0.250196 0.228235
0.738823 0.232157 0.239216
0.780392 0.219608 0.235294
0.821961 0.202353 0.245490
0.868235 0.178824 0.247059
0.909019 0.160784 0.241569
0.972549 0.141176 0.249411
0.996117 0.121608 0.243176
0.378040 0.360000 0.232157
0.386510 0.362353 0.233725
0.410980 0.357490 0.231687
0.444706 0.359686 0.234667
0.486745 0.352000 0.234824
0.529412 0.346667 0.226667
0.582745 0.345412 0.236078
0.638589 0.336157 0.241255
0.685961 0.322039 0.241255
0.738039 0.309647 0.242667
0.781176 0.296471 0.254902
0.830745 0.285333 0.257255
0.874353 0.269020 0.250667
0.923451 0.258353 0.257255
0.974745 0.240628 0.253961
0.999969 0.229851 0.261184
0.392941 0.414117 0.248627
0.408785 0.411294 0.250823
0.429176 0.411451 0.252392
0.458039 0.408628 0.250666
0.497725 0.406274 0.247059
0.534902 0.404706 0.250980
0.587451 0.398118 0.257882
0.632314 0.393882 0.251137
0.689412 0.386196 0.259765
0.732392 0.374745 0.259451
0.782745 0.365490 0.261961
0.834667 0.356392 0.270588
0.880157 0.345098 0.271373
0.929726 0.337255 0.277020
0.984314 0.322666 0.269177
1.000000 0.313788 0.268298
0.424314 0.463530 0.267451
0.431686 0.462275 0.268549
0.448784 0.456627 0.264471
0.471373 0.459451 0.270432
0.502588 0.458353 0.269961
0.541961 0.454118 0.274510
0.582274 0.451451 0.270745
0.633725 0.447059 0.273412
0.680628 0.440785 0.272941
0.732235 0.434981 0.274667
0.780392 0.427451 0.284706
0.832784 0.419137 0.278902
0.882196 0.413020 0.282039
0.938353 0.406118 0.288157
0.992000 0.401569 0.289882
0.997647 0.397647 0.290149
0.448627 0.507451 0.285491
0.451608 0.507608 0.287059
0.465412 0.507922 0.282353
0.488157 0.510588 0.286432
0.513568 0.507451 0.290196
0.551372 0.500392 0.286275
0.587294 0.500235 0.286118
0.634039 0.496000 0.284549
0.678118 0.496471 0.294745
0.730510 0.489882 0.288941
0.777255 0.483922 0.292549
0.829961 0.480000 0.299922
0.882667 0.474823 0.292235
0.938353 0.468549 0.299922
0.992157 0.462902 0.298823
1.000000 0.464314 0.295687
0.462745 0.560784 0.301961
0.472157 0.557647 0.302745
0.480000 0.559216 0.302745
0.506667 0.558431 0.305882
0.528628 0.554510 0.302745
0.560784 0.556863 0.301961
0.598431 0.552941 0.301177
0.640000 0.552941 0.299608
0.681569 0.546667 0.305098
0.734118 0.549020 0.305098
0.780392 0.545098 0.309804
0.829804 0.544314 0.312156
0.882353 0.537255 0.313725
0.941177 0.537255 0.310588
0.997647 0.533333 0.312941
1.000000 0.533333 0.305882
0.487059 0.613334 0.312941
0.491765 0.614275 0.315764
0.504314 0.611608 0.317176
0.519216 0.610510 0.314039
0.541804 0.609726 0.312157
0.569411 0.614118 0.313725
0.607530 0.609569 0.312157
0.648314 0.605804 0.317804
0.692079 0.605334 0.314509
0.739922 0.602196 0.319686
0.787451 0.602353 0.319216
0.833412 0.599059 0.315764
0.885176 0.596079 0.319843
0.937725 0.594824 0.319216
0.994509 0.593883 0.321412
1.000000 0.600722 0.316831
0.501176 0.672941 0.320784
0.509804 0.671373 0.323137
0.516863 0.672784 0.323765
0.535843 0.671373 0.325490
0.555137 0.670588 0.319686
0.590588 0.669019 0.325490
0.619294 0.669490 0.324706
0.658196 0.671373 0.327059
0.701804 0.666981 0.325647
0.747608 0.666667 0.325020
0.796078 0.663530 0.329412
0.846431 0.662902 0.328000
0.892706 0.662118 0.331137
0.944314 0.662745 0.329098
0.998118 0.661804 0.325804
1.000000 0.667427 0.321545
0.512941 0.728627 0.323922
0.521255 0.734117 0.325334
0.530196 0.730196 0.324706
0.545725 0.731922 0.326275
0.568627 0.730981 0.322353
0.594510 0.734118 0.324706
0.629333 0.733960 0.327059
0.669490 0.733961 0.325333
0.710274 0.730981 0.323765
0.754667 0.730981 0.332392
0.805490 0.730981 0.330980
0.857726 0.727372 0.331137
0.906667 0.726118 0.328941
0.957020 0.729412 0.328314
0.999373 0.729726 0.327843
0.998416 0.732533 0.323906
0.536471 0.809412 0.327059
0.542588 0.813176 0.331608
0.555294 0.812549 0.329412
0.568941 0.812235 0.330039
0.586196 0.810980 0.338196
0.616470 0.814902 0.326274
0.651921 0.809255 0.332706
0.688627 0.813647 0.328314
0.729569 0.811764 0.327372
0.777255 0.809255 0.332549
0.829020 0.810980 0.327059
0.879215 0.811137 0.333804
0.928941 0.812235 0.325961
0.988078 0.814431 0.329883
0.997490 0.814274 0.323922
0.996886 0.816494 0.329436
0.545059 0.897765 0.313803
0.558377 0.900949 0.321647
0.564659 0.897804 0.321569
0.581192 0.897788 0.321632
0.606157 0.897804 0.320824
0.627490 0.901726 0.321608
0.666643 0.897812 0.319286
0.704274 0.904055 0.319239
0.746627 0.901726 0.321593
0.796792 0.901757 0.310721
0.846981 0.905686 0.313803
0.900314 0.910306 0.309851
0.959145 0.909569 0.304431
0.998431 0.913474 0.303655
0.999223 0.914235 0.294243
1.000000 0.921333 0.298195
0.188235 0.000000 0.199215
0.247686 0.000628 0.195451
0.325490 0.000000 0.196392
0.384314 0.001883 0.195451
0.445333 0.001255 0.200941
0.502745 0.000000 0.203922
0.563921 0.000000 0.208157
0.617098 0.000000 0.211137
0.665569 0.000000 0.209412
0.711215 0.002667 0.214588
0.752941 0.003138 0.217255
0.797647 0.000000 0.221961
0.844235 0.000000 0.230275
0.889412 0.001883 0.226039
0.945883 0.000000 0.235608
0.996784 0.000008 0.243882
0.224627 0.008471 0.199372
0.271686 0.002196 0.204047
0.329883 0.000251 0.198525
0.393192 0.000251 0.205930
0.453773 0.000784 0.205490
0.509333 0.002510 0.207687
0.565961 0.000031 0.211451
0.618447 0.000000 0.211169
0.665255 0.000000 0.213114
0.711874 0.002008 0.219608
0.754353 0.000000 0.217569
0.798306 0.000031 0.223498
0.842980 0.000000 0.230212
0.889412 0.000000 0.231875
0.945569 0.000000 0.235733
0.997248 0.001249 0.238138
0.260236 0.106667 0.212549
0.295906 0.097004 0.213020
0.345349 0.083137 0.211294
0.405678 0.056000 0.213427
0.460894 0.022149 0.211200
0.519686 0.002196 0.215529
0.570729 0.000628 0.217161
0.624565 0.000000 0.220643
0.668800 0.001067 0.218604
0.718180 0.000094 0.225349
0.757804 0.001255 0.226353
0.801475 0.001506 0.228235
0.844675 0.001067 0.231969
0.895373 0.000502 0.240032
0.947420 0.000471 0.239341
0.998679 0.000794 0.240174
0.295372 0.177412 0.217883
0.320565 0.174494 0.220392
0.362447 0.168440 0.221647
0.410259 0.160721 0.220173
0.471279 0.142714 0.224376
0.526745 0.126118 0.221490
0.580800 0.103216 0.224847
0.629992 0.067294 0.229176
0.674447 0.028486 0.228737
0.720784 0.000471 0.234667
0.760784 0.000000 0.236078
0.808784 0.000000 0.243953
0.848063 0.000188 0.237992
0.899577 0.000753 0.247906
0.949804 0.003671 0.243670
0.999939 0.001864 0.247391
0.321412 0.245333 0.226980
0.343341 0.240125 0.227263
0.371294 0.241945 0.229082
0.419200 0.233788 0.230902
0.472941 0.227828 0.235608
0.531137 0.213804 0.237961
0.585412 0.204392 0.243263
0.635953 0.185412 0.239341
0.681004 0.162667 0.242730
0.724047 0.140925 0.242792
0.773490 0.113725 0.247843
0.809694 0.086494 0.245553
0.857632 0.050102 0.247624
0.909584 0.006902 0.257506
0.956486 0.000753 0.252517
0.999967 0.000628 0.255653
0.356079 0.305882 0.244706
0.366275 0.302588 0.242039
0.392314 0.300706 0.245020
0.433255 0.298353 0.243451
0.475451 0.290980 0.244706
0.532549 0.288627 0.247059
0.585883 0.280941 0.245961
0.636392 0.260863 0.254902
0.685961 0.252235 0.252235
0.738196 0.234824 0.257098
0.781176 0.215686 0.257255
0.820235 0.199372 0.260079
0.867451 0.180706 0.264314
0.906039 0.164549 0.256627
0.962981 0.138980 0.263686
0.999992 0.121577 0.263537
0.381176 0.359216 0.256471
0.387043 0.359592 0.257883
0.418572 0.356831 0.259263
0.445082 0.355670 0.260612
0.489757 0.350714 0.264408
0.533333 0.348078 0.261020
0.585537 0.342525 0.260675
0.641286 0.335184 0.264878
0.688094 0.321725 0.263028
0.735529 0.307169 0.268643
0.781176 0.300392 0.271529
0.828957 0.281694 0.276894
0.876267 0.272157 0.279686
0.918588 0.258604 0.273098
0.975749 0.244047 0.271028
0.997358 0.232966 0.276103
0.401098 0.411138 0.274196
0.411765 0.413114 0.273098
0.432094 0.410008 0.273067
0.461490 0.406933 0.273882
0.496596 0.407843 0.272094
0.537569 0.402510 0.274353
0.585883 0.397427 0.276612
0.636079 0.393600 0.274980
0.690384 0.384565 0.282824
0.735592 0.376157 0.277239
0.781961 0.365490 0.285177
0.833161 0.354667 0.289537
0.880784 0.347263 0.294745
0.930949 0.338196 0.293020
0.983498 0.325051 0.287561
0.999534 0.317073 0.288650
0.428549 0.463216 0.287686
0.430557 0.461647 0.284016
0.451263 0.461585 0.290384
0.470463 0.456941 0.285961
0.502212 0.458102 0.281537
0.543686 0.454432 0.290824
0.587012 0.450478 0.288628
0.633914 0.445898 0.291702
0.682165 0.442165 0.291922
0.731702 0.437396 0.294933
0.781333 0.426667 0.298039
0.831185 0.418604 0.298510
0.881537 0.412863 0.301396
0.935059 0.407122 0.303874
0.993129 0.400878 0.306165
0.996254 0.396098 0.300097
0.446275 0.510588 0.302431
0.454714 0.510055 0.298165
0.468926 0.506572 0.301239
0.487937 0.507953 0.302808
0.516047 0.504690 0.305757
0.554039 0.504157 0.303530
0.590682 0.499702 0.308361
0.634008 0.497883 0.306102
0.679498 0.495436 0.307733
0.732235 0.492643 0.310808
0.777255 0.484706 0.309020
0.832440 0.479530 0.314980
0.881381 0.476172 0.310619
0.936941 0.470432 0.312596
0.990180 0.464440 0.316141
0.999845 0.462452 0.311248
0.472941 0.560784 0.319216
0.477647 0.557647 0.317647
0.484235 0.555765 0.313725
0.504627 0.555765 0.313412
0.531764 0.556863 0.316549
0.560784 0.554510 0.314509
0.599215 0.556706 0.317804
0.639530 0.554510 0.318745
0.683922 0.549020 0.320628
0.733961 0.544941 0.318275
0.781176 0.541960 0.320000
0.827451 0.541804 0.317490
0.884706 0.537255 0.327059
0.941647 0.530981 0.324706
0.990431 0.533333 0.321569
1.000000 0.533325 0.326267
0.487844 0.614275 0.327843
0.492800 0.612016 0.326682
0.507702 0.611231 0.324800
0.524392 0.614118 0.330196
0.545820 0.611576 0.330604
0.573333 0.614118 0.328313
0.612957 0.612957 0.323702
0.650824 0.608847 0.329631
0.690918 0.606777 0.332549
0.735153 0.605522 0.326149
0.784314 0.602196 0.328627
0.834228 0.597176 0.329569
0.885020 0.594447 0.329694
0.938196 0.594259 0.332267
0.994478 0.594008 0.330322
0.997490 0.595915 0.324543
0.506667 0.674510 0.334117
0.509615 0.674478 0.334682
0.521098 0.672628 0.335529
0.538196 0.673726 0.334839
0.560282 0.671624 0.338698
0.588235 0.670588 0.339608
0.622965 0.673412 0.339074
0.661804 0.670714 0.339137
0.702557 0.669459 0.342870
0.743749 0.666259 0.336219
0.794823 0.665098 0.338667
0.844047 0.661804 0.336376
0.893867 0.661804 0.340988
0.949584 0.662996 0.339827
0.994384 0.663310 0.338415
0.999969 0.667432 0.330987
0.519373 0.734117 0.338510
0.523890 0.734870 0.340643
0.533459 0.734149 0.336314
0.550369 0.734525 0.340611
0.573051 0.732612 0.338447
0.597961 0.734275 0.338353
0.634635 0.732361 0.340611
0.672408 0.732110 0.339827
0.712439 0.731671 0.335811
0.755985 0.729129 0.338604
0.799372 0.731294 0.342588
0.853741 0.729380 0.338384
0.906133 0.724863 0.339827
0.958996 0.730228 0.340643
0.999875 0.726808 0.340078
0.999995 0.730816 0.333796
0.539607 0.809569 0.343372
0.540517 0.812047 0.340204
0.551090 0.813929 0.344533
0.565678 0.812831 0.340518
0.590745 0.814463 0.344094
0.618039 0.811765 0.341804
0.654745 0.812894 0.345192
0.688691 0.813710 0.344188
0.730196 0.811921 0.341114
0.774526 0.811702 0.339012
0.821960 0.811764 0.340392
0.878682 0.810761 0.339074
0.931325 0.814149 0.339545
0.985004 0.811827 0.341521
1.000000 0.811890 0.340047
1.000000 0.819438 0.335846
0.545867 0.897819 0.324024
0.553881 0.897656 0.327796
0.560777 0.900475 0.331851
0.575426 0.898295 0.329184
0.606055 0.902353 0.334000
0.631373 0.898612 0.331757
0.661065 0.902177 0.327782
0.704259 0.902086 0.328965
0.749141 0.903274 0.332708
0.795550 0.899288 0.326345
0.850078 0.904863 0.322432
0.900320 0.909515 0.319752
0.960838 0.911583 0.322068
0.998742 0.913769 0.309429
1.000000 0.919858 0.307426
0.996878 0.925914 0.305231
0.193725 0.000000 0.266667
0.247529 0.000000 0.268549
0.321725 0.000000 0.268392
0.388235 0.000000 0.265726
0.450353 0.001569 0.261961
0.511372 0.000000 0.259608
0.556078 0.000000 0.263059
0.608628 0.001883 0.261177
0.658824 0.000000 0.261490
0.704157 0.002353 0.259451
0.747451 0.001569 0.265882
0.790274 0.001883 0.261961
0.836549 0.000000 0.261961
0.886902 0.000000 0.266981
0.939137 0.000784 0.266824
0.999843 0.000000 0.266659
0.234196 0.001569 0.265098
0.276392 0.001883 0.272941
0.329851 0.001130 0.267796
0.394604 0.000000 0.269553
0.450729 0.001255 0.262839
0.507451 0.000000 0.262745
0.562416 0.000000 0.264565
0.610855 0.002636 0.261647
0.658479 0.000690 0.262494
0.707420 0.000471 0.265349
0.749647 0.000000 0.264314
0.793976 0.000471 0.262494
0.839498 0.000000 0.264879
0.885741 0.001067 0.270776
0.938760 0.000690 0.266039
0.994715 0.004817 0.271007
0.264471 0.096000 0.275922
0.295655 0.089349 0.271875
0.347169 0.077114 0.274855
0.399122 0.057819 0.271937
0.456188 0.026980 0.269428
0.513411 0.005020 0.270118
0.564204 0.002479 0.267169
0.616533 0.000000 0.267294
0.663372 0.001506 0.269239
0.713318 0.000000 0.273443
0.755608 0.000000 0.269333
0.796141 0.000753 0.275357
0.846463 0.000502 0.271812
0.891294 0.001977 0.270557
0.942714 0.000753 0.272941
0.995965 0.001412 0.272017
0.300706 0.175530 0.277333
0.326557 0.170698 0.276549
0.365522 0.165051 0.280032
0.413333 0.156455 0.273788
0.469019 0.144596 0.282353
0.523765 0.128784 0.276235
0.573114 0.104565 0.277176
0.622243 0.078275 0.278902
0.670525 0.043232 0.274573
0.717020 0.008000 0.277647
0.759843 0.000000 0.275137
0.804047 0.000000 0.276831
0.846086 0.000377 0.270808
0.897349 0.000000 0.278682
0.945569 0.000125 0.274917
0.998994 0.000000 0.282333
0.329412 0.243451 0.282824
0.349867 0.239373 0.278369
0.376188 0.236643 0.280220
0.424879 0.231906 0.283106
0.472879 0.227106 0.284643
0.527529 0.216157 0.286745
0.578353 0.201004 0.284926
0.632596 0.186510 0.283043
0.679059 0.168000 0.284706
0.722824 0.146039 0.282008
0.764392 0.123451 0.284863
0.806965 0.101239 0.279686
0.854776 0.064471 0.285239
0.902117 0.025726 0.281726
0.956235 0.001318 0.280188
0.999976 0.000016 0.287820
0.358431 0.305882 0.287059
0.371765 0.301961 0.283137
0.395294 0.298980 0.287059
0.436863 0.293177 0.287373
0.473412 0.293334 0.286902
0.534118 0.286275 0.293333
0.579608 0.278117 0.289255
0.634667 0.265098 0.293804
0.682510 0.251921 0.288784
0.735216 0.234824 0.292079
0.774118 0.219608 0.298824
0.818510 0.205647 0.294275
0.859608 0.186039 0.293177
0.907921 0.171137 0.292863
0.962353 0.149804 0.290823
0.997608 0.133349 0.287059
0.386196 0.357490 0.296941
0.394635 0.356549 0.299357
0.420361 0.356518 0.300518
0.449349 0.353130 0.299106
0.489443 0.350149 0.301428
0.533490 0.348235 0.297098
0.586667 0.342274 0.299953
0.636926 0.332047 0.297349
0.684392 0.321537 0.301930
0.732769 0.308674 0.306698
0.780236 0.299921 0.304941
0.826855 0.285679 0.311467
0.870557 0.272690 0.309521
0.917459 0.260706 0.302274
0.971577 0.246118 0.302180
1.000000 0.237969 0.300243
0.405490 0.412078 0.307608
0.415969 0.411608 0.305631
0.435922 0.410886 0.307796
0.463624 0.407153 0.307545
0.497224 0.404988 0.306416
0.538510 0.401412 0.307608
0.583530 0.397553 0.310588
0.635514 0.392565 0.308706
0.685584 0.385192 0.315200
0.730071 0.376157 0.310024
0.776471 0.363921 0.313882
0.830181 0.356267 0.319247
0.878369 0.350431 0.318526
0.930133 0.339545 0.319749
0.980172 0.326212 0.316235
0.999038 0.318609 0.317343
0.432784 0.460078 0.317804
0.437773 0.458447 0.318306
0.455278 0.459231 0.316204
0.476800 0.459357 0.320596
0.507608 0.456282 0.320628
0.545098 0.452235 0.320000
0.586071 0.449725 0.319153
0.633663 0.445898 0.321443
0.683451 0.441036 0.321914
0.730165 0.435545 0.321035
0.781804 0.425726 0.325176
0.827670 0.419639 0.329349
0.879592 0.415592 0.326651
0.938792 0.407247 0.333145
0.989647 0.402447 0.329349
0.997656 0.397657 0.327558
0.454275 0.509019 0.331765
0.459357 0.506729 0.331357
0.473381 0.507483 0.329035
0.493208 0.507796 0.330855
0.521882 0.503874 0.332235
0.553726 0.501177 0.330039
0.590933 0.502996 0.335780
0.634949 0.499388 0.331482
0.680188 0.496283 0.335341
0.731106 0.489161 0.332988
0.779765 0.487059 0.338039
0.831153 0.481161 0.338353
0.878777 0.477835 0.334619
0.935372 0.473098 0.336533
0.989553 0.465036 0.335310
1.000000 0.465550 0.337085
0.468235 0.558431 0.338823
0.478745 0.560470 0.341176
0.490196 0.556863 0.342745
0.509647 0.557804 0.341333
0.536470 0.558118 0.338667
0.568627 0.556863 0.349020
0.602353 0.552000 0.342274
0.639216 0.549961 0.339608
0.684863 0.549020 0.344784
0.729725 0.548549 0.344471
0.782745 0.542745 0.344314
0.829647 0.539137 0.343059
0.884078 0.539921 0.349961
0.939451 0.538352 0.347608
0.994196 0.533333 0.341176
0.996094 0.535678 0.332643
0.490980 0.609098 0.350431
0.496000 0.611294 0.348079
0.509929 0.613835 0.352941
0.526494 0.613898 0.351279
0.549114 0.610980 0.349929
0.574118 0.610980 0.349961
0.612800 0.608439 0.349333
0.648031 0.605898 0.354071
0.695216 0.607216 0.351498
0.739075 0.601129 0.354479
0.784628 0.599215 0.349961
0.833381 0.599247 0.351467
0.887843 0.593726 0.354133
0.940894 0.593443 0.352471
0.993631 0.594384 0.346635
0.999987 0.598259 0.342265
0.506510 0.672314 0.356863
0.514384 0.674165 0.357020
0.523200 0.672565 0.359529
0.540204 0.673130 0.359373
0.562415 0.672565 0.355200
0.591216 0.672314 0.357804
0.622337 0.671028 0.356957
0.658824 0.669333 0.358902
0.704157 0.667608 0.359090
0.747231 0.666353 0.357898
0.794353 0.668078 0.356706
0.842196 0.665098 0.356361
0.898385 0.659765 0.357992
0.947890 0.659388 0.356016
0.995106 0.662055 0.356957
1.000000 0.666030 0.354971
0.517020 0.732863 0.355608
0.524486 0.736251 0.359310
0.535749 0.736470 0.355922
0.553098 0.737882 0.356549
0.574400 0.735592 0.359184
0.597961 0.733177 0.356549
0.634353 0.733176 0.357333
0.671717 0.733145 0.357584
0.711278 0.732863 0.356612
0.753976 0.732361 0.357302
0.804392 0.730980 0.358274
0.854243 0.731106 0.357176
0.906855 0.730039 0.357773
0.954447 0.730981 0.356643
0.999749 0.725804 0.355388
0.999049 0.731903 0.353707
0.538039 0.812863 0.357176
0.542682 0.812643 0.359153
0.552157 0.812862 0.362070
0.566306 0.812455 0.359247
0.590682 0.813113 0.360251
0.613961 0.813333 0.357804
0.649506 0.811482 0.360251
0.690008 0.813302 0.358839
0.730635 0.811043 0.358463
0.777192 0.811953 0.356675
0.824000 0.809882 0.357490
0.873569 0.812016 0.356894
0.928847 0.814274 0.357459
0.984596 0.814243 0.356486
1.000000 0.813647 0.350400
0.999514 0.815376 0.352145
0.544282 0.896290 0.349051
0.554497 0.898927 0.353128
0.564351 0.897827 0.350730
0.579749 0.898467 0.352933
0.597939 0.901247 0.347056
0.631349 0.900149 0.348298
0.661643 0.898154 0.348904
0.703196 0.901745 0.346243
0.746022 0.904972 0.346083
0.800069 0.899886 0.341118
0.850862 0.909514 0.344314
0.902069 0.908146 0.339092
0.959772 0.914062 0.336378
0.999984 0.913476 0.331841
1.000000 0.917352 0.325570
1.000000 0.924408 0.323255
0.208628 0.000000 0.330981
0.254117 0.000000 0.337255
0.315137 0.002981 0.335843
0.383373 0.000000 0.337882
0.454432 0.002353 0.330196
0.517647 0.000000 0.327843
0.564549 0.001883 0.318274
0.613333 0.000941 0.317333
0.658980 0.000941 0.317020
0.697725 0.002039 0.311843
0.737255 0.000000 0.311373
0.785568 0.002353 0.311372
0.832784 0.000000 0.311059
0.875922 0.002039 0.312000
0.933333 0.000471 0.312157
0.995122 0.000024 0.310533
0.250196 0.000314 0.334117
0.278181 0.000000 0.334651
0.331514 0.001412 0.332643
0.393883 0.000282 0.336659
0.455216 0.001945 0.329945
0.512627 0.000000 0.330353
0.565710 0.001883 0.321035
0.608439 0.001130 0.321537
0.656471 0.000000 0.313506
0.696847 0.001318 0.314196
0.746196 0.000314 0.313098
0.786855 0.001883 0.315043
0.834949 0.000000 0.311059
0.883514 0.002479 0.311059
0.935372 0.000000 0.309427
0.991708 0.004969 0.312110
0.274510 0.086431 0.336627
0.304345 0.082698 0.335906
0.350620 0.070181 0.341333
0.398369 0.054902 0.332078
0.460675 0.029302 0.337004
0.517020 0.007216 0.331608
0.560941 0.000941 0.326432
0.613522 0.000000 0.324706
0.655216 0.001004 0.318243
0.701522 0.000753 0.318086
0.742431 0.000941 0.315294
0.792251 0.000000 0.316612
0.837898 0.000565 0.316329
0.887624 0.000565 0.313882
0.936220 0.000753 0.316173
0.992050 0.000932 0.313234
0.302745 0.169569 0.339765
0.326494 0.167467 0.339231
0.363325 0.162071 0.338730
0.407561 0.155608 0.335278
0.464878 0.142055 0.337192
0.514823 0.127843 0.329098
0.568376 0.109584 0.331764
0.616345 0.087435 0.327216
0.662337 0.059577 0.330102
0.710274 0.023185 0.321098
0.749961 0.003765 0.321255
0.797459 0.000000 0.321318
0.838839 0.002165 0.317239
0.888941 0.000000 0.319373
0.939420 0.000000 0.315294
0.999915 0.000932 0.319837
0.335686 0.239529 0.339137
0.352063 0.236831 0.336690
0.380549 0.234008 0.334118
0.424125 0.229804 0.339796
0.473380 0.224502 0.338447
0.526588 0.210667 0.340549
0.575718 0.202071 0.340298
0.625914 0.189804 0.332643
0.669302 0.171137 0.332172
0.713537 0.156298 0.325835
0.761255 0.134902 0.330823
0.797961 0.113726 0.325020
0.845428 0.081663 0.322510
0.896941 0.047279 0.323357
0.947200 0.002730 0.322729
0.999914 0.000000 0.325959
0.364706 0.303529 0.340392
0.379608 0.299922 0.342275
0.402196 0.297725 0.343373
0.437647 0.293647 0.344000
0.484079 0.288314 0.342588
0.533333 0.282353 0.341961
0.579608 0.275765 0.339608
0.633726 0.266039 0.343373
0.679216 0.256471 0.337255
0.726274 0.240000 0.343373
0.764706 0.224314 0.340392
0.812236 0.208784 0.337725
0.852706 0.192941 0.334118
0.903843 0.179451 0.333647
0.953882 0.157804 0.329882
0.999953 0.135702 0.322431
0.391372 0.353412 0.345882
0.405145 0.355984 0.346510
0.418792 0.355106 0.345726
0.452737 0.350432 0.346353
0.489255 0.347702 0.348204
0.535059 0.344313 0.347137
0.583372 0.340298 0.346102
0.635482 0.331200 0.347200
0.680816 0.325208 0.353192
0.730290 0.312878 0.354918
0.779294 0.304784 0.352941
0.819765 0.287404 0.349459
0.864063 0.276486 0.350432
0.909239 0.263875 0.347420
0.966713 0.250353 0.343247
0.998132 0.238461 0.334930
0.418196 0.407216 0.352157
0.427451 0.407498 0.354855
0.443294 0.407906 0.353945
0.469428 0.404800 0.354604
0.500518 0.403702 0.352126
0.540392 0.399686 0.353726
0.585318 0.397804 0.354824
0.634385 0.391718 0.355231
