example_ofxGpuLutCube/bin/data/ofxGpuLutCube/LUT/A40 (juicy violet fade).cube
LUT_3D_SIZE 6
0.172549 0.000000 0.109804
0.388235 0.000000 0.117647
0.567843 0.000000 0.141960
0.711372 0.003138 0.178823
0.845490 0.000000 0.201569
0.999882 0.003883 0.215647
0.289412 0.179608 0.165490
0.414902 0.162353 0.170980
0.586667 0.095373 0.186196
0.726275 0.000000 0.198431
0.854118 0.000000 0.212235
0.999969 0.000000 0.227435
0.378040 0.360000 0.232157
0.444706 0.359686 0.234667
0.582745 0.345412 0.236078
0.738039 0.309647 0.242667
0.874353 0.269020 0.250667
0.999969 0.229851 0.261184
0.448627 0.507451 0.285491
0.488157 0.510588 0.286432
0.587294 0.500235 0.286118
0.730510 0.489882 0.288941
0.882667 0.474823 0.292235
1.000000 0.464314 0.295687
0.501176 0.672941 0.320784
0.535843 0.671373 0.325490
0.619294 0.669490 0.324706
0.747608 0.666667 0.325020
0.892706 0.662118 0.331137
1.000000 0.667427 0.321545
0.545059 0.897765 0.313803
0.581192 0.897788 0.321632
0.666643 0.897812 0.319286
0.796792 0.901757 0.310721
0.959145 0.909569 0.304431
1.000000 0.921333 0.298195
0.208628 0.000000 0.330981
0.383373 0.000000 0.337882
0.564549 0.001883 0.318274
0.697725 0.002039 0.311843
0.832784 0.000000 0.311059
0.995122 0.000024 0.310533
0.302745 0.169569 0.339765
0.407561 0.155608 0.335278
0.568376 0.109584 0.331764
0.710274 0.023185 0.321098
0.838839 0.002165 0.317239
0.999915 0.000932 0.319837
0.391372 0.353412 0.345882
0.452737 0.350432 0.346353
0.583372 0.340298 0.346102
0.730290 0.312878 0.354918
0.864063 0.276486 0.350432
0.998132 0.238461 0.334930
0.452863 0.506981 0.363921
0.497600 0.505286 0.368847
0.595639 0.500298 0.369977
0.728753 0.489757 0.370102
0.878400 0.475890 0.370824
0.998136 0.467457 0.362240
0.510431 0.672314 0.386510
0.542839 0.673537 0.385192
0.626008 0.668706 0.388423
0.746510 0.664502 0.387577
0.896847 0.662588 0.386573
1.000000 0.664922 0.377591
0.542729 0.900133 0.377216
0.577562 0.899853 0.371539
0.662251 0.900475 0.372754
0.793670 0.900641 0.362803
0.962990 0.911121 0.364591
0.997670 0.922086 0.349914
0.259608 0.000000 0.511373
0.374431 0.000314 0.514353
0.556078 0.000000 0.511373
0.727059 0.000000 0.493333
0.840000 0.000000 0.464314
0.987302 0.000000 0.451741
0.336470 0.154353 0.511059
0.417192 0.143780 0.507921
0.567969 0.115137 0.510965
0.719687 0.083671 0.493208
0.832565 0.003420 0.467325
0.974791 0.000005 0.442410
0.405804 0.348863 0.507765
0.463216 0.342117 0.504565
0.582996 0.334557 0.504063
0.704690 0.308894 0.492800
0.839592 0.275420 0.475075
0.997410 0.223725 0.458538
0.480157 0.502274 0.501647
0.514416 0.500518 0.502808
0.601726 0.493898 0.507796
0.730102 0.487874 0.504439
0.876078 0.479592 0.501208
0.999379 0.465269 0.491627
0.516392 0.671373 0.504941
0.544847 0.670839 0.503561
0.630902 0.668988 0.508486
0.749271 0.668612 0.501019
0.894839 0.658980 0.505757
0.999525 0.667738 0.494728
0.517686 0.899364 0.480839
0.556499 0.902192 0.482706
0.644861 0.901724 0.480842
0.783974 0.908753 0.476927
0.955339 0.915008 0.470979
1.000000 0.929059 0.457388
0.305098 0.000000 0.666666
0.384314 0.000314 0.662118
0.536314 0.000000 0.657098
0.706981 0.000000 0.653804
0.865569 0.001883 0.647843
0.999992 0.003106 0.633012
0.368941 0.139451 0.660706
0.427514 0.135184 0.659608
0.552408 0.117961 0.658008
0.706384 0.094274 0.650855
0.860424 0.054055 0.646902
1.000000 0.000000 0.634841
0.437804 0.331137 0.655530
0.480439 0.331012 0.654306
0.584972 0.328972 0.651357
0.714824 0.319373 0.646494
0.869459 0.302212 0.647027
0.998593 0.206708 0.616053
0.487843 0.498824 0.650510
0.518024 0.492675 0.649255
0.604832 0.490636 0.650290
0.726400 0.484047 0.644706
0.852235 0.445427 0.620580
0.999994 0.402261 0.593455
0.509804 0.669019 0.649098
0.541364 0.669271 0.651200
0.618384 0.668580 0.645490
0.740172 0.665098 0.643263
0.892549 0.658792 0.640910
0.999689 0.663184 0.634479
0.447153 0.904831 0.628275
0.482731 0.905628 0.626672
0.594548 0.911455 0.626248
0.752491 0.912191 0.624323
0.942014 0.922195 0.616847
1.000000 0.936047 0.604054
0.346667 0.000000 0.827451
0.407687 0.000941 0.824000
0.538353 0.002196 0.823059
0.699608 0.000000 0.817412
0.860235 0.000000 0.811137
1.000000 0.000000 0.814117
0.389961 0.121569 0.822902
0.439059 0.118682 0.821145
0.557051 0.105380 0.826102
0.704596 0.074322 0.813208
0.863341 0.008094 0.808031
0.999068 0.000009 0.813338
0.448470 0.327059 0.820706
0.486714 0.325710 0.815623
0.584032 0.319059 0.818102
0.715074 0.307545 0.813271
0.869271 0.287341 0.811388
0.999689 0.240366 0.816013
0.479843 0.493804 0.812706
0.513977 0.491138 0.813302
0.593412 0.489067 0.815122
0.719718 0.475890 0.810949
0.873569 0.458384 0.809694
0.995940 0.434066 0.813693
0.498039 0.667137 0.813961
0.527780 0.666949 0.812549
0.607687 0.666541 0.817004
0.729067 0.661616 0.813114
0.890416 0.654024 0.811420
0.999991 0.605537 0.771945
0.420517 0.905647 0.833702
0.454439 0.910488 0.833086
0.549032 0.913159 0.826982
0.699213 0.920057 0.821493
0.901021 0.928924 0.804726
0.999938 0.931537 0.800008
0.376471 0.003922 1.000000
0.433671 0.000016 0.995341
0.555294 0.000000 1.000000
0.722314 0.000000 0.996862
0.894808 0.000000 0.999976
1.000000 0.003883 0.999961
0.398447 0.060549 1.000000
0.450802 0.047985 0.998447
0.568632 0.009059 1.000000
0.727809 0.002369 1.000000
0.898265 0.000000 0.999045
0.998447 0.000000 1.000000
0.424353 0.305169 0.999223
0.470178 0.300299 0.998136
0.576929 0.289475 0.996258
0.733955 0.270471 0.997509
0.903197 0.233003 0.998758
0.999169 0.158760 0.994502
0.404926 0.490981 1.000000
0.447809 0.483172 0.998900
0.545137 0.468118 0.996894
0.713104 0.453172 0.999998
0.897363 0.430612 0.999485
1.000000 0.397011 1.000000
0.400839 0.696431 1.000000
0.438612 0.694088 0.998572
0.540089 0.689533 0.999987
0.693793 0.669602 0.997783
0.893076 0.645646 1.000000
0.993796 0.631373 0.998408
0.337451 0.929293 0.996117
0.385279 0.935404 0.997662
0.508259 0.935404 1.000000
0.679139 0.929215 0.996094
0.888494 0.925348 0.999953
0.999961 0.933175 0.996155
