example_ofxGpuLutCube/bin/data/ofxGpuLutCube/LUT/A41 (hard teal fade).cube
LUT_3D_SIZE 16
0.086275 0.137255 0.160784
0.094902 0.138039 0.161568
0.105882 0.141176 0.173333
0.136470 0.141176 0.170980
0.178039 0.141176 0.171765
0.247059 0.149020 0.172549
0.334902 0.144314 0.167843
0.443922 0.147451 0.166274
0.560000 0.145098 0.163137
0.688628 0.141960 0.164706
0.803922 0.141176 0.168627
0.894118 0.141176 0.174118
0.976470 0.146667 0.188235
1.000000 0.169412 0.216471
0.996862 0.202353 0.249411
1.000000 0.250862 0.301883
0.086275 0.138824 0.161568
0.094118 0.145098 0.174902
0.112941 0.146667 0.167059
0.136627 0.150902 0.169255
0.189176 0.156863 0.174432
0.247843 0.161568 0.173333
0.339608 0.162353 0.164706
0.454118 0.168000 0.170667
0.573647 0.173333 0.164078
0.693804 0.173490 0.162823
0.801569 0.178040 0.166275
0.897255 0.174274 0.172706
0.978667 0.179922 0.194353
0.998745 0.198431 0.218981
0.998588 0.233255 0.263686
0.996886 0.268926 0.309671
0.092549 0.156078 0.174118
0.095216 0.158745 0.168941
0.114353 0.159373 0.168157
0.142745 0.162824 0.173961
0.195764 0.173804 0.174588
0.265882 0.183529 0.168627
0.353569 0.196549 0.170510
0.465412 0.204078 0.165020
0.588706 0.209569 0.165961
0.703686 0.219921 0.159686
0.818823 0.218039 0.167843
0.907137 0.224785 0.181490
0.981177 0.231216 0.197647
1.000000 0.242980 0.226667
0.996078 0.268549 0.266824
0.999961 0.301906 0.316761
0.090196 0.181177 0.178039
0.097255 0.182902 0.175373
0.111843 0.183529 0.178196
0.135686 0.183686 0.173020
0.185098 0.194039 0.175216
0.266667 0.216471 0.166274
0.380392 0.242353 0.170980
0.491765 0.258039 0.164706
0.614432 0.270588 0.167216
0.729255 0.283294 0.163137
0.832157 0.283922 0.168627
0.917490 0.287216 0.189490
0.987137 0.295686 0.209412
0.999059 0.305882 0.239216
0.999686 0.323922 0.287843
0.999976 0.354408 0.330086
0.083137 0.220392 0.176471
0.097255 0.221176 0.172549
0.115765 0.221490 0.171137
0.148235 0.221490 0.172549
0.178824 0.225882 0.172863
0.247843 0.242353 0.172549
0.358432 0.282353 0.169725
0.514039 0.325804 0.159843
0.645961 0.349647 0.161882
0.761725 0.353726 0.168000
0.853333 0.360000 0.176471
0.928627 0.367059 0.195294
0.994824 0.368157 0.230275
1.000000 0.371137 0.264627
1.000000 0.388079 0.309019
1.000000 0.409334 0.351333
0.074510 0.282353 0.172549
0.092549 0.282353 0.169411
0.124706 0.280000 0.170980
0.161569 0.286275 0.167843
0.204706 0.287059 0.176471
0.254902 0.290196 0.176471
0.333333 0.311373 0.163922
0.478431 0.365490 0.160784
0.638431 0.407059 0.163137
0.784314 0.442353 0.168627
0.870588 0.443137 0.188235
0.941177 0.440000 0.225098
0.995294 0.440784 0.260392
1.000000 0.445490 0.293333
0.999216 0.458824 0.342745
1.000000 0.470549 0.391961
0.054118 0.365490 0.171765
0.087216 0.364078 0.164706
0.129412 0.365490 0.163137
0.178510 0.367529 0.169882
0.231216 0.369412 0.168941
0.291765 0.373333 0.161568
0.352627 0.375843 0.166431
0.445647 0.399843 0.153412
0.600157 0.448941 0.161568
0.745882 0.494275 0.166274
0.872157 0.516862 0.211765
0.951687 0.526118 0.255529
1.000000 0.521412 0.295530
0.999216 0.525490 0.336471
0.997490 0.529568 0.379608
1.000000 0.544274 0.432832
0.053333 0.456471 0.156078
0.093333 0.459451 0.159843
0.142431 0.460392 0.153882
0.203137 0.461960 0.156863
0.266981 0.467922 0.156706
0.329412 0.464314 0.157647
0.394196 0.469491 0.158902
0.466667 0.470588 0.153569
0.561569 0.486275 0.155765
0.706824 0.537569 0.163921
0.836079 0.565490 0.203137
0.932392 0.586510 0.265569
0.995137 0.598431 0.328471
0.994353 0.604862 0.384314
0.997333 0.601725 0.420078
1.000000 0.610181 0.462651
0.076079 0.553726 0.152157
0.117333 0.554196 0.153725
0.167216 0.558274 0.152784
0.230588 0.557647 0.157333
0.296157 0.557333 0.147137
0.364706 0.556863 0.154510
0.438118 0.559215 0.155922
0.511216 0.561569 0.153412
0.587922 0.562196 0.152627
0.677647 0.574588 0.154980
0.801569 0.610980 0.192157
0.901647 0.633725 0.257255
0.974118 0.649412 0.324549
1.000000 0.657726 0.395608
0.999529 0.671373 0.462745
1.000000 0.681530 0.506549
0.126275 0.650196 0.163922
0.164079 0.650196 0.162039
0.206745 0.648627 0.164706
0.268549 0.649725 0.163451
0.329412 0.650196 0.160157
0.400000 0.650196 0.160784
0.472157 0.649098 0.160627
0.544314 0.649255 0.167372
0.618510 0.649568 0.171137
0.691451 0.651608 0.177725
0.771765 0.652549 0.176471
0.874824 0.675294 0.235294
0.953412 0.691608 0.314353
0.998745 0.699137 0.398745
0.999372 0.706824 0.452078
0.999216 0.719930 0.511263
0.196078 0.729412 0.196078
0.221961 0.730196 0.196862
0.261176 0.728627 0.200000
0.306667 0.725490 0.193725
0.366274 0.730196 0.207843
0.423529 0.729412 0.200000
0.497255 0.729412 0.203138
0.568627 0.727843 0.207843
0.637647 0.731765 0.207843
0.713725 0.728628 0.221960
0.780392 0.729412 0.219608
0.850981 0.725490 0.236863
0.923921 0.733333 0.294118
0.985883 0.739608 0.381961
0.999216 0.749020 0.454902
0.996117 0.760745 0.525412
0.264314 0.793726 0.248628
0.293333 0.795294 0.250196
0.314666 0.793569 0.251451
0.354510 0.794510 0.249412
0.405490 0.794510 0.255686
0.463529 0.794510 0.257255
0.521569 0.794510 0.263529
0.585725 0.790902 0.263059
0.643137 0.792784 0.260863
0.718274 0.788392 0.266040
0.778823 0.786667 0.275294
0.849255 0.782431 0.280470
0.902745 0.780706 0.294432
0.955922 0.783843 0.342745
0.995921 0.781804 0.424784
1.000000 0.788941 0.504902
0.351372 0.845490 0.316078
0.366117 0.853020 0.324706
0.383686 0.852079 0.320628
0.410039 0.849255 0.315922
0.450353 0.847843 0.320000
0.497255 0.850196 0.327843
0.554039 0.850039 0.328941
0.606431 0.848471 0.338824
0.667922 0.844549 0.341647
0.724706 0.842981 0.347137
0.784314 0.844706 0.356078
0.842039 0.842667 0.358745
0.898824 0.839216 0.367059
0.948235 0.836079 0.377098
0.986510 0.823529 0.428706
1.000000 0.825074 0.511224
0.418039 0.884706 0.368628
0.425882 0.884706 0.372549
0.440000 0.884079 0.368784
0.458667 0.887059 0.370980
0.493647 0.886588 0.375216
0.534118 0.883137 0.382745
0.577569 0.884392 0.387451
0.625882 0.885490 0.392157
0.674196 0.880784 0.402510
0.727843 0.879216 0.403922
0.775686 0.880784 0.412549
0.826666 0.878745 0.419608
0.882196 0.874666 0.432314
0.932392 0.874353 0.447216
0.973177 0.868706 0.448471
0.999961 0.861985 0.494016
0.556078 0.920785 0.490196
0.577883 0.924549 0.501019
0.578196 0.922039 0.499294
0.586353 0.924235 0.494902
0.606902 0.921255 0.492863
0.631372 0.920000 0.498824
0.656784 0.918118 0.500549
0.693333 0.916863 0.507451
0.729255 0.919216 0.515137
0.768157 0.913411 0.517647
0.807059 0.913725 0.529411
0.847843 0.912156 0.534118
0.887373 0.910902 0.544785
0.926589 0.907294 0.549490
0.961882 0.902118 0.557019
0.988227 0.905098 0.577231
0.670274 0.941098 0.591843
0.682086 0.941105 0.595772
0.678188 0.937208 0.591875
0.686063 0.937239 0.595827
0.703270 0.940321 0.596635
0.717451 0.937255 0.595843
0.737843 0.934117 0.592784
0.762172 0.937200 0.608306
0.782612 0.935639 0.609937
0.806973 0.934078 0.607655
0.839177 0.929412 0.615529
0.870557 0.932470 0.626478
0.906580 0.927043 0.636659
0.940251 0.927796 0.639796
0.963906 0.925419 0.654628
0.980392 0.921569 0.666509
0.086275 0.145098 0.172549
0.091921 0.140549 0.172706
0.107764 0.139921 0.176785
0.131765 0.145098 0.176627
0.165490 0.149020 0.176628
0.226667 0.148236 0.185098
0.311686 0.145726 0.184314
0.418824 0.143372 0.183529
0.539922 0.142745 0.184000
0.667294 0.141176 0.183843
0.784314 0.137255 0.192157
0.887843 0.137255 0.201726
0.967529 0.151059 0.216471
0.999529 0.173961 0.243451
0.996862 0.217412 0.278588
0.996894 0.266518 0.322275
0.085961 0.145098 0.172549
0.094494 0.145098 0.171576
0.107419 0.148800 0.173584
0.130165 0.149647 0.175561
0.172330 0.156110 0.180643
0.230588 0.157647 0.182431
0.317113 0.160941 0.181396
0.423906 0.166494 0.187984
0.546980 0.168282 0.180863
0.675859 0.170039 0.188392
0.788235 0.166275 0.188706
0.886149 0.173239 0.202855
0.970823 0.181333 0.220863
0.996486 0.204706 0.245772
0.998243 0.238588 0.283357
1.000000 0.283785 0.331509
0.093961 0.158431 0.177412
0.095498 0.158275 0.177318
0.110870 0.157208 0.175592
0.134212 0.162008 0.180863
0.181114 0.169412 0.184847
0.245804 0.179294 0.181020
0.332329 0.189020 0.183812
0.443577 0.200000 0.185035
0.567153 0.205459 0.190776
0.688565 0.211733 0.186666
0.805804 0.216000 0.195137
0.897757 0.222118 0.205553
0.975184 0.231655 0.228486
1.000000 0.247561 0.254306
0.999749 0.278369 0.293334
0.998116 0.315170 0.341071
0.089412 0.178824 0.184470
0.098918 0.181082 0.179734
0.114133 0.178635 0.182400
0.135027 0.181961 0.180894
0.175969 0.191717 0.183059
0.256314 0.213019 0.182431
0.361004 0.236769 0.187137
0.473130 0.253930 0.180831
0.592910 0.264596 0.185192
0.713914 0.276926 0.186761
0.819451 0.281569 0.196862
0.907921 0.287718 0.209757
0.983373 0.293992 0.237522
0.998400 0.307702 0.268423
0.998745 0.327122 0.310023
0.995165 0.366778 0.353498
0.081882 0.218510 0.184314
0.096188 0.219012 0.181271
0.116078 0.218259 0.182808
0.143278 0.221114 0.181020
0.175624 0.221647 0.180989
0.240628 0.240941 0.182431
0.350964 0.278808 0.186259
0.504533 0.317082 0.181553
0.629992 0.338698 0.187639
0.746384 0.351373 0.194133
0.842039 0.360157 0.206745
0.916988 0.361820 0.225600
0.987671 0.365365 0.254620
0.999749 0.376471 0.291953
0.996988 0.392784 0.331608
0.999379 0.417379 0.367327
0.070588 0.274510 0.184314
0.088628 0.275137 0.174902
0.118117 0.279686 0.185569
0.152941 0.281569 0.185882
0.201569 0.282353 0.178510
0.247059 0.286275 0.181961
0.331765 0.309333 0.182588
0.476549 0.360314 0.179451
0.628235 0.401569 0.188549
0.777255 0.435137 0.202353
0.862745 0.443137 0.225098
0.935058 0.440000 0.247843
0.991843 0.443921 0.283922
0.997647 0.450980 0.320000
1.000000 0.462118 0.360784
1.000000 0.479921 0.406157
0.051451 0.358902 0.183059
0.085773 0.360784 0.182683
0.127090 0.362133 0.182180
0.173741 0.363420 0.180675
0.229208 0.364549 0.178918
0.291765 0.371921 0.179294
0.351686 0.372423 0.181490
0.444142 0.397020 0.175718
0.594008 0.446274 0.180800
0.744722 0.493742 0.202259
0.866353 0.516235 0.238275
0.951216 0.527623 0.286933
0.995671 0.525867 0.320565
0.995984 0.529694 0.357239
0.999467 0.537223 0.400157
0.999998 0.552093 0.446634
0.036235 0.457882 0.170823
0.079875 0.459263 0.175498
0.141051 0.456753 0.173490
0.201224 0.458353 0.175655
0.259702 0.461961 0.174777
0.327843 0.463216 0.177255
0.393349 0.465224 0.173584
0.466730 0.470118 0.174055
0.558055 0.486620 0.175655
0.708110 0.534996 0.188016
0.836079 0.567373 0.230745
0.926588 0.586039 0.289568
0.996047 0.601537 0.353223
0.999216 0.606682 0.405835
1.000000 0.602635 0.427482
1.000000 0.613307 0.482016
0.071059 0.554196 0.172392
0.113035 0.552125 0.174620
0.165647 0.551843 0.171231
0.228549 0.552376 0.173647
0.292925 0.556455 0.173082
0.363765 0.556078 0.176785
0.431247 0.558745 0.174369
0.505788 0.555796 0.176126
0.580518 0.560533 0.172768
0.670588 0.575216 0.180894
0.794824 0.610510 0.214431
0.899483 0.636518 0.282949
0.971012 0.651796 0.345506
0.999812 0.663279 0.417349
1.000000 0.675953 0.482479
0.999976 0.686386 0.529142
0.126118 0.646274 0.185098
0.163043 0.644110 0.187576
0.202604 0.649067 0.185631
0.263373 0.648565 0.187012
0.328596 0.644518 0.195043
0.398588 0.644549 0.188863
0.466855 0.649192 0.189898
0.541553 0.650290 0.192125
0.614619 0.648753 0.194070
0.692549 0.648941 0.199216
0.771137 0.652863 0.206745
0.871655 0.677678 0.261177
0.947388 0.692424 0.333522
0.996047 0.701020 0.412675
0.999498 0.706980 0.469176
0.999975 0.726064 0.527594
0.196862 0.729412 0.214118
0.222588 0.729412 0.214745
0.258039 0.729412 0.218823
0.307764 0.725804 0.221020
0.366274 0.731921 0.224314
0.428235 0.730196 0.221961
0.500392 0.728785 0.228235
0.571137 0.728628 0.226667
0.636078 0.727843 0.229804
0.712157 0.724863 0.230274
0.778040 0.723138 0.240785
0.847529 0.725961 0.256941
0.925490 0.734588 0.317961
0.981961 0.743215 0.398902
0.999843 0.755451 0.467608
0.996855 0.765435 0.539482
0.272785 0.794510 0.267451
0.296941 0.796204 0.267357
0.323890 0.799215 0.273098
0.363922 0.798368 0.273349
0.410385 0.798337 0.270055
0.461961 0.798431 0.279373
0.523765 0.792784 0.284581
0.588047 0.794196 0.284016
0.653271 0.792094 0.282886
0.714855 0.788800 0.287122
0.775687 0.785883 0.288314
0.843200 0.780204 0.302274
0.902619 0.781020 0.312408
0.956957 0.780016 0.353883
0.995262 0.779859 0.439686
0.999969 0.788987 0.512817
0.367372 0.852235 0.344157
0.380518 0.851765 0.343059
0.397584 0.851514 0.337506
0.426008 0.854024 0.343435
0.461616 0.851169 0.345318
0.510431 0.850510 0.346510
0.561537 0.853427 0.351216
0.610824 0.848565 0.353694
0.670212 0.846337 0.356612
0.727310 0.844643 0.366557
0.782118 0.842353 0.367216
0.840973 0.843357 0.374243
0.900047 0.838149 0.381334
0.947922 0.835608 0.391530
0.987608 0.825035 0.444235
0.999987 0.828529 0.529416
0.433569 0.884706 0.394980
0.450102 0.891388 0.403137
0.463090 0.887059 0.398651
0.484204 0.888283 0.398651
0.511655 0.889004 0.403765
0.546824 0.887059 0.408157
0.587137 0.887373 0.409851
0.636643 0.885396 0.409788
0.680000 0.883639 0.418949
0.732675 0.880220 0.421208
0.782118 0.876078 0.425412
0.831279 0.877522 0.434792
0.882290 0.876518 0.446557
0.930761 0.873788 0.456565
0.975812 0.865914 0.456377
0.999956 0.861015 0.512291
0.576471 0.924078 0.507921
0.580110 0.918933 0.507169
0.588769 0.921851 0.511561
0.600439 0.921381 0.513004
0.619921 0.918871 0.511121
0.642667 0.922667 0.518745
0.667890 0.919843 0.518369
0.700863 0.916361 0.519404
0.733741 0.916235 0.524361
0.769725 0.913098 0.531576
0.810196 0.915294 0.533333
0.850070 0.913882 0.544471
0.888628 0.909553 0.554980
0.927310 0.906133 0.558525
0.964141 0.904094 0.563608
0.988233 0.905096 0.584553
0.675051 0.943498 0.595819
0.690427 0.940360 0.603531
0.688077 0.939306 0.601828
0.696893 0.938808 0.603824
0.712862 0.939901 0.606342
0.722173 0.937247 0.607616
0.742398 0.937377 0.604548
0.764821 0.934560 0.616949
0.788369 0.932212 0.608452
0.807635 0.933308 0.612698
0.843796 0.934070 0.627992
0.875377 0.928772 0.628673
0.902108 0.929357 0.637159
0.936905 0.922353 0.650643
0.962949 0.921718 0.661726
0.981153 0.921561 0.668808
0.088628 0.143529 0.181961
0.093177 0.142745 0.178510
0.108863 0.142117 0.184314
0.128627 0.142745 0.188863
0.163451 0.146353 0.186667
0.215686 0.145098 0.195294
0.281882 0.142431 0.200784
0.388235 0.141490 0.201569
0.508235 0.138510 0.210353
0.636392 0.128627 0.214902
0.757647 0.125490 0.217255
0.871216 0.131294 0.236549
0.953882 0.152000 0.255216
0.999372 0.188392 0.284235
0.999216 0.231687 0.321568
0.999969 0.281475 0.365349
0.085333 0.147922 0.179921
0.096251 0.147483 0.182777
0.107545 0.148173 0.184565
0.130070 0.151028 0.189208
0.159215 0.154824 0.192157
0.218667 0.156863 0.197333
0.290573 0.157051 0.201255
0.395953 0.156988 0.203514
0.520471 0.159937 0.209223
0.647184 0.158463 0.218635
0.769882 0.160784 0.221961
0.872816 0.167059 0.238682
0.957553 0.182871 0.257694
0.999247 0.214494 0.288565
0.998902 0.252518 0.321161
1.000000 0.298877 0.367198
0.088784 0.155451 0.186823
0.096031 0.156392 0.187796
0.108769 0.159310 0.187294
0.130478 0.164204 0.189804
0.169318 0.171043 0.198619
0.220549 0.173647 0.196706
0.307420 0.182871 0.203263
0.416188 0.189961 0.207592
0.542180 0.196329 0.214745
0.660016 0.205616 0.216627
0.779608 0.206274 0.230118
0.878839 0.219357 0.242196
0.960596 0.233098 0.267545
0.999372 0.259451 0.292926
0.998745 0.291043 0.331953
0.997500 0.332612 0.372442
0.089255 0.178667 0.193098
0.097694 0.178416 0.192251
0.110557 0.180016 0.194949
0.131796 0.181333 0.190933
0.174306 0.191435 0.193443
0.247529 0.207687 0.202667
0.335153 0.221867 0.203357
0.443388 0.238902 0.210353
0.569192 0.253145 0.215780
0.691043 0.265882 0.223090
0.800471 0.271216 0.234510
0.893930 0.281098 0.248753
0.968377 0.295687 0.275451
1.000000 0.313537 0.304690
0.999874 0.341145 0.347169
0.997043 0.381379 0.387194
0.086118 0.215216 0.198588
0.093459 0.215529 0.193506
0.112408 0.214400 0.197521
0.143341 0.215184 0.197835
0.174118 0.217945 0.195325
0.240471 0.238118 0.202824
0.347451 0.272377 0.207655
0.488063 0.307921 0.212957
0.604926 0.326965 0.223498
0.722071 0.338447 0.223686
0.826353 0.350431 0.250039
0.909333 0.358086 0.266918
0.979106 0.367686 0.290980
1.000000 0.383216 0.327906
0.999623 0.403765 0.365898
1.000000 0.433194 0.406497
0.069020 0.276863 0.201569
0.088157 0.270588 0.195608
0.118118 0.272941 0.200000
0.149804 0.275922 0.194824
0.197490 0.277647 0.201098
0.247059 0.282353 0.200000
0.323137 0.309804 0.203608
0.473098 0.356863 0.207216
0.627294 0.401569 0.226040
0.764863 0.431686 0.245490
0.850980 0.437647 0.270588
0.926588 0.440000 0.293647
0.987451 0.447059 0.324392
1.000000 0.454902 0.356863
0.999529 0.471373 0.393255
0.998447 0.495584 0.434447
0.037961 0.354040 0.199216
0.072941 0.355357 0.204016
0.119090 0.357208 0.198149
0.166745 0.357804 0.202949
0.219859 0.360628 0.200659
0.280470 0.364392 0.202824
0.342902 0.368094 0.201600
0.442886 0.395545 0.202730
0.591561 0.445114 0.216031
0.736690 0.488753 0.245898
0.860549 0.516078 0.287687
0.940298 0.525867 0.326902
0.992408 0.528879 0.360125
0.997521 0.535969 0.388863
0.998745 0.546008 0.426980
0.998757 0.558420 0.471267
0.020078 0.449569 0.196392
0.069773 0.449600 0.201475
0.129663 0.452549 0.202824
0.189584 0.453114 0.205804
0.254306 0.454965 0.201161
0.319059 0.458510 0.201569
0.389427 0.458635 0.205145
0.458698 0.461082 0.203514
0.554604 0.482165 0.207655
0.706102 0.530792 0.230620
0.830745 0.563921 0.271059
0.926086 0.586886 0.332612
0.991937 0.607592 0.390902
0.999435 0.612549 0.432220
0.996800 0.611639 0.451263
1.000000 0.625810 0.499037
0.057883 0.546980 0.207216
0.100957 0.545663 0.207843
0.160126 0.548392 0.206494
0.222902 0.548392 0.207247
0.285051 0.550463 0.206086
0.357490 0.552784 0.210196
0.424502 0.553820 0.206588
0.502714 0.552784 0.212988
0.577067 0.556706 0.211890
0.664973 0.570384 0.216816
0.796235 0.610039 0.258823
0.898385 0.635608 0.316267
0.969663 0.654871 0.382808
0.999372 0.670274 0.452706
1.000000 0.682667 0.509333
0.998121 0.692847 0.547537
0.125961 0.644392 0.225569
0.158463 0.642886 0.224847
0.204236 0.644423 0.222306
0.263718 0.642541 0.222463
0.322667 0.643326 0.223592
0.397961 0.643451 0.229020
0.464784 0.645898 0.224565
0.538604 0.645616 0.227514
0.611106 0.646306 0.233820
0.688534 0.646212 0.231624
0.766902 0.652079 0.243451
0.867734 0.677647 0.297067
0.947576 0.697788 0.368126
0.990275 0.705882 0.440314
0.997866 0.712847 0.490698
0.999987 0.734219 0.558566
0.205490 0.727843 0.256471
0.225882 0.725961 0.249569
0.261961 0.726431 0.257725
0.312941 0.728000 0.258510
0.366274 0.725176 0.253961
0.431373 0.725490 0.260392
0.495373 0.726745 0.265098
0.566902 0.725490 0.259608
0.639216 0.726275 0.267451
0.709804 0.724706 0.269804
0.774118 0.723137 0.273725
0.845804 0.721255 0.288000
0.921568 0.736314 0.347765
0.981020 0.748392 0.431529
0.993412 0.754980 0.491451
1.000000 0.768611 0.559906
0.284078 0.790588 0.299765
0.306322 0.794949 0.302557
0.328283 0.797459 0.305255
0.366463 0.799435 0.303467
0.415467 0.795671 0.301867
0.472784 0.793725 0.312157
0.525647 0.795796 0.310369
0.585412 0.791843 0.314510
0.649977 0.790965 0.312847
0.711906 0.786322 0.313788
0.778196 0.784471 0.316549
0.839059 0.780612 0.324675
0.901961 0.778635 0.339827
0.954479 0.781710 0.377977
0.992910 0.783153 0.458918
1.000000 0.791175 0.535876
0.375059 0.849568 0.364078
0.388236 0.852957 0.365459
0.408157 0.851577 0.365082
0.436078 0.853459 0.366557
0.474855 0.852392 0.369914
0.515451 0.850196 0.374118
0.565271 0.849757 0.371451
0.615592 0.847592 0.378415
0.672596 0.846996 0.379733
0.728032 0.845961 0.386824
0.788549 0.842980 0.395922
0.839938 0.839655 0.394384
0.897192 0.838212 0.400220
0.946384 0.835671 0.411828
0.986855 0.824219 0.461929
0.999994 0.829020 0.547291
0.446275 0.886275 0.413177
0.461992 0.889349 0.420988
0.478369 0.885114 0.421521
0.496439 0.888188 0.422902
0.523420 0.888565 0.427263
0.558274 0.886588 0.428392
0.596643 0.887812 0.427012
0.642792 0.882761 0.434353
0.686494 0.883608 0.436706
0.735655 0.879843 0.437365
0.782902 0.878588 0.447843
0.833475 0.876831 0.452549
0.883922 0.875388 0.464439
0.929412 0.872470 0.469961
0.973616 0.867608 0.478149
0.999942 0.861481 0.526287
0.581334 0.924863 0.515608
0.596016 0.922761 0.524016
0.598588 0.920753 0.522384
0.615373 0.923294 0.528314
0.629773 0.921412 0.527310
0.652706 0.922196 0.531608
0.676988 0.919436 0.532611
0.708549 0.916674 0.537851
0.740110 0.913537 0.537882
0.773019 0.916235 0.543279
0.813176 0.912156 0.549647
0.852267 0.910023 0.560408
0.889851 0.909459 0.568188
0.928282 0.905349 0.573616
0.962635 0.904564 0.576878
0.990952 0.907567 0.595558
0.688384 0.939584 0.609977
0.697485 0.940850 0.615156
0.698286 0.938784 0.614030
0.705642 0.937211 0.615446
0.720438 0.937227 0.613138
0.729224 0.937216 0.615545
0.746184 0.934405 0.618154
0.768648 0.934241 0.621920
0.789341 0.934551 0.620929
0.819145 0.931435 0.628502
0.846941 0.933255 0.638894
0.877282 0.927509 0.644347
0.906289 0.927023 0.648601
0.935758 0.925919 0.656904
0.961531 0.924195 0.667788
0.981106 0.921553 0.676674
0.083137 0.145882 0.207059
0.090510 0.141176 0.203922
0.110431 0.142588 0.205804
0.126275 0.142745 0.204706
0.163137 0.148236 0.212392
0.214902 0.145098 0.219608
0.282980 0.141176 0.225255
0.372549 0.133804 0.232157
0.480157 0.121725 0.239373
0.603765 0.113412 0.250980
0.727059 0.116863 0.264314
0.842824 0.124392 0.280471
0.937255 0.153726 0.299765
0.998431 0.195922 0.330981
0.997490 0.253333 0.364706
0.997655 0.312008 0.402306
0.083451 0.152471 0.205020
0.096784 0.149428 0.206557
0.105945 0.152000 0.201882
0.129098 0.147608 0.203451
0.162133 0.155137 0.210604
0.209882 0.154980 0.218510
0.282698 0.153035 0.225694
0.372078 0.147608 0.232502
0.488251 0.146227 0.237992
0.612926 0.145631 0.250918
0.735529 0.150589 0.269333
0.848784 0.159969 0.285773
0.938290 0.186823 0.312753
0.996360 0.228298 0.336439
0.998368 0.269835 0.363137
1.000000 0.327097 0.409804
0.088471 0.162510 0.207843
0.095467 0.160345 0.206055
0.108737 0.161569 0.202981
0.130761 0.164706 0.206212
0.162510 0.167718 0.211388
0.214745 0.169882 0.215059
0.284549 0.175812 0.223027
0.387231 0.176941 0.232251
0.505349 0.183341 0.243451
0.630181 0.186353 0.256816
0.751843 0.197490 0.273411
0.857506 0.213961 0.288847
0.945192 0.235671 0.319090
0.996800 0.265882 0.342714
0.999247 0.309961 0.379263
0.997631 0.359076 0.417319
0.090824 0.178196 0.207059
0.092863 0.180989 0.204204
0.112690 0.183310 0.210949
0.132800 0.186416 0.212141
0.174024 0.192062 0.215843
0.231373 0.202196 0.223215
0.313317 0.213208 0.230526
0.413961 0.223310 0.239216
0.535592 0.237804 0.255435
0.652926 0.252236 0.262180
0.775530 0.264314 0.279373
0.872314 0.279655 0.295498
0.953224 0.297506 0.325772
0.999435 0.324769 0.351906
0.999498 0.355765 0.392471
0.997033 0.403484 0.428295
0.080000 0.217255 0.218824
0.092486 0.214776 0.214651
0.109710 0.216502 0.216659
0.139294 0.216031 0.218039
0.173177 0.220016 0.214620
0.239687 0.240157 0.227922
0.346635 0.269176 0.241255
0.457129 0.292957 0.252926
0.570855 0.309898 0.264973
0.691671 0.327404 0.275012
0.803451 0.341176 0.299137
0.890855 0.357302 0.316016
0.963231 0.369224 0.342117
1.000000 0.393443 0.376157
0.999561 0.421396 0.409694
0.999512 0.454803 0.445556
0.056471 0.272941 0.226667
0.076079 0.270588 0.222902
0.109019 0.269333 0.225725
0.146823 0.273569 0.221961
0.187137 0.274981 0.225569
0.235294 0.278431 0.220392
0.328000 0.307451 0.233098
0.468706 0.355137 0.253333
0.619294 0.397804 0.282667
0.736314 0.414902 0.295216
0.828235 0.425098 0.320784
0.908392 0.438431 0.342431
0.969098 0.447215 0.367059
1.000000 0.467451 0.403451
0.998431 0.482667 0.432941
0.998447 0.512094 0.474424
0.016000 0.347451 0.230275
0.059388 0.349929 0.233349
0.108455 0.349270 0.228863
0.159843 0.351561 0.229930
0.214180 0.356957 0.232345
0.275765 0.358275 0.230588
0.339294 0.360941 0.234949
0.438965 0.391216 0.243294
0.593569 0.439812 0.264785
0.734808 0.488596 0.301584
0.851608 0.518588 0.348706
0.926557 0.522259 0.376533
0.979294 0.531733 0.406337
0.997647 0.544345 0.436549
0.997866 0.559028 0.465255
1.000000 0.579224 0.499702
0.000941 0.446275 0.236392
0.052423 0.444831 0.242416
0.118337 0.445177 0.239906
0.179702 0.448847 0.241004
0.249662 0.448377 0.241475
0.313882 0.451608 0.241882
0.383310 0.455404 0.245679
0.447090 0.456722 0.239969
