example_ofxGpuLutCube/bin/data/ofxGpuLutCube/LUT/A41 (hard teal fade).cube
LUT_3D_SIZE 6
0.086275 0.137255 0.160784
0.136470 0.141176 0.170980
0.334902 0.144314 0.167843
0.688628 0.141960 0.164706
0.976470 0.146667 0.188235
1.000000 0.250862 0.301883
0.090196 0.181177 0.178039
0.135686 0.183686 0.173020
0.380392 0.242353 0.170980
0.729255 0.283294 0.163137
0.987137 0.295686 0.209412
0.999976 0.354408 0.330086
0.054118 0.365490 0.171765
0.178510 0.367529 0.169882
0.352627 0.375843 0.166431
0.745882 0.494275 0.166274
1.000000 0.521412 0.295530
1.000000 0.544274 0.432832
0.126275 0.650196 0.163922
0.268549 0.649725 0.163451
0.472157 0.649098 0.160627
0.691451 0.651608 0.177725
0.953412 0.691608 0.314353
0.999216 0.719930 0.511263
0.351372 0.845490 0.316078
0.410039 0.849255 0.315922
0.554039 0.850039 0.328941
0.724706 0.842981 0.347137
0.898824 0.839216 0.367059
1.000000 0.825074 0.511224
0.670274 0.941098 0.591843
0.686063 0.937239 0.595827
0.737843 0.934117 0.592784
0.806973 0.934078 0.607655
0.906580 0.927043 0.636659
0.980392 0.921569 0.666509
0.083137 0.145882 0.207059
0.126275 0.142745 0.204706
0.282980 0.141176 0.225255
0.603765 0.113412 0.250980
0.937255 0.153726 0.299765
0.997655 0.312008 0.402306
0.090824 0.178196 0.207059
0.132800 0.186416 0.212141
0.313317 0.213208 0.230526
0.652926 0.252236 0.262180
0.953224 0.297506 0.325772
0.997033 0.403484 0.428295
0.016000 0.347451 0.230275
0.159843 0.351561 0.229930
0.339294 0.360941 0.234949
0.734808 0.488596 0.301584
0.979294 0.531733 0.406337
1.000000 0.579224 0.499702
0.125961 0.637490 0.270431
0.261804 0.635702 0.268612
0.461992 0.641161 0.276832
0.682291 0.641506 0.280000
0.941271 0.696784 0.415153
0.996840 0.745970 0.591824
0.396392 0.846274 0.399686
0.450290 0.850259 0.397647
0.570322 0.848220 0.408282
0.732769 0.842290 0.420078
0.896220 0.836894 0.432094
0.999969 0.833864 0.570697
0.696243 0.938769 0.623317
0.713498 0.937236 0.627238
0.752540 0.934549 0.628711
0.819790 0.931271 0.640915
0.903987 0.925451 0.661641
0.981906 0.923929 0.686172
0.016470 0.141176 0.377255
0.155921 0.140862 0.373019
0.298824 0.141176 0.354981
0.600001 0.098196 0.413961
0.891294 0.148863 0.453490
1.000000 0.387294 0.533231
0.014431 0.205333 0.351843
0.141302 0.203012 0.349176
0.297851 0.202541 0.354886
0.600533 0.219702 0.411012
0.885678 0.292110 0.462934
0.998110 0.468213 0.550359
0.000157 0.353569 0.373804
0.154729 0.363702 0.375467
0.380675 0.397239 0.401537
0.675169 0.461961 0.456314
0.919216 0.537192 0.526243
0.999845 0.629702 0.612014
0.195138 0.624157 0.435451
0.297474 0.625035 0.437647
0.471529 0.630871 0.446463
0.673600 0.633914 0.446463
0.923953 0.723671 0.586102
0.998580 0.778919 0.688734
0.494432 0.837020 0.533961
0.529537 0.840439 0.541615
0.626384 0.835388 0.541961
0.751969 0.836392 0.550463
0.891639 0.833694 0.561977
0.983948 0.851084 0.679682
0.741804 0.930180 0.688463
0.759349 0.934555 0.695517
0.790780 0.930646 0.700537
0.844720 0.929373 0.705909
0.911649 0.927333 0.719409
0.975600 0.920761 0.737905
0.072157 0.148236 0.616471
0.231373 0.139607 0.609098
0.429647 0.122981 0.598745
0.637020 0.099765 0.585882
0.901804 0.180863 0.613019
0.999969 0.414729 0.641521
0.019451 0.242824 0.591529
0.212424 0.243796 0.594573
0.419043 0.240628 0.584878
0.629835 0.236831 0.576094
0.891545 0.309208 0.613176
0.999984 0.487285 0.651517
0.094117 0.425098 0.582902
0.242102 0.429710 0.578573
0.440533 0.436863 0.580769
0.650981 0.444863 0.582557
0.878275 0.520188 0.624910
0.996869 0.629704 0.682267
0.257882 0.626196 0.583059
0.351153 0.632125 0.587451
0.529537 0.645679 0.599404
0.722165 0.668047 0.626353
0.893898 0.727811 0.690698
0.987568 0.774606 0.735271
0.571922 0.827137 0.659294
0.614243 0.830055 0.667420
0.687592 0.826855 0.673067
0.775843 0.829584 0.673286
0.884863 0.829835 0.682353
0.972966 0.866138 0.788941
0.797545 0.925498 0.776392
0.800546 0.926991 0.772163
0.822666 0.925470 0.775904
0.868756 0.924047 0.782661
0.916226 0.925416 0.790199
0.966337 0.921468 0.794369
0.206274 0.202353 0.814117
0.315137 0.206745 0.812549
0.502745 0.218196 0.813020
0.718432 0.234039 0.797647
0.914196 0.268235 0.788078
0.997631 0.440549 0.770133
0.256314 0.327372 0.804863
0.346322 0.331671 0.803671
0.521914 0.339608 0.799937
0.719718 0.354321 0.795985
0.904408 0.357741 0.780016
0.998588 0.503807 0.770320
0.394980 0.530823 0.788549
0.460486 0.535404 0.785412
0.580078 0.538165 0.783498
0.734557 0.547106 0.781647
0.892455 0.546823 0.773804
0.996376 0.639415 0.778171
0.486588 0.683922 0.770510
0.544471 0.696188 0.777537
0.643796 0.704125 0.777286
0.759028 0.702839 0.768000
0.873035 0.693365 0.764706
0.974844 0.758530 0.793222
0.586667 0.828235 0.768471
0.626008 0.830118 0.774808
0.704847 0.827765 0.776816
0.800910 0.833287 0.790713
0.892047 0.841255 0.805773
0.958668 0.879029 0.852500
0.815568 0.925435 0.835231
0.828144 0.924814 0.840083
0.853859 0.923704 0.847294
0.888612 0.922756 0.849707
0.920754 0.921539 0.850950
0.955271 0.919992 0.856541
0.458550 0.438942 0.933176
0.500196 0.445255 0.927796
0.599121 0.459404 0.923091
0.741929 0.497788 0.918424
0.881624 0.544776 0.913639
0.996078 0.591921 0.909765
0.518157 0.514314 0.917608
0.556144 0.521962 0.922270
0.640883 0.537753 0.921834
0.766455 0.560063 0.917572
0.884108 0.586616 0.910667
0.999945 0.623278 0.905866
0.657130 0.673671 0.910580
0.677076 0.675995 0.909020
0.725213 0.679882 0.906470
0.806954 0.688513 0.908973
0.896006 0.700731 0.904102
0.985129 0.715168 0.899615
0.708871 0.763851 0.902635
0.727704 0.768576 0.897255
0.779133 0.780331 0.900136
0.839614 0.790504 0.899702
0.903027 0.788961 0.898744
0.976400 0.802220 0.901082
0.774039 0.861938 0.900282
0.789716 0.860355 0.899526
0.821694 0.864585 0.897639
0.867569 0.869784 0.897015
0.913226 0.876009 0.896547
0.956886 0.882282 0.897984
0.831372 0.929450 0.905804
0.843042 0.933239 0.901945
0.862712 0.929373 0.897999
0.896422 0.926220 0.898007
0.928596 0.921569 0.901961
0.952979 0.925412 0.902037
