example_ofxGpuLutCube/bin/data/ofxGpuLutCube/LUT/A42 (juicy pink fade).cube
LUT_3D_SIZE 16
0.250980 0.003922 0.117647
0.276863 0.003138 0.123921
0.318431 0.002353 0.125490
0.369412 0.000000 0.123922
0.421176 0.000000 0.126274
0.466667 0.000000 0.125490
0.559216 0.003138 0.110588
0.673725 0.000000 0.100392
0.764706 0.090981 0.077647
0.835294 0.173334 0.055686
0.898039 0.227451 0.023529
0.963921 0.260393 0.000000
1.000000 0.287843 0.000000
1.000000 0.305882 0.000000
1.000000 0.317647 0.006274
0.996117 0.321608 0.062549
0.269019 0.000000 0.127843
0.281569 0.000000 0.125647
0.314823 0.001883 0.125019
0.363451 0.000000 0.130353
0.407686 0.002510 0.123608
0.461961 0.000000 0.126274
0.545098 0.002510 0.113568
0.651922 0.043765 0.101333
0.738824 0.143530 0.078588
0.813647 0.207843 0.052078
0.880000 0.255686 0.019608
0.948392 0.289255 0.000000
1.000000 0.311216 0.002667
0.998431 0.325020 0.002824
1.000000 0.331451 0.005647
0.996855 0.338039 0.059428
0.287843 0.000000 0.134902
0.303530 0.000000 0.137098
0.323922 0.000628 0.143215
0.370510 0.002353 0.133176
0.409412 0.000784 0.125647
0.457255 0.015686 0.120000
0.540863 0.090823 0.110588
0.637020 0.158588 0.097098
0.724235 0.225569 0.077177
0.798432 0.274039 0.034824
0.871373 0.306667 0.006275
0.938039 0.327059 0.005020
0.996235 0.346667 0.000000
1.000000 0.350118 0.000000
0.997490 0.358902 0.005490
0.997655 0.361553 0.057922
0.312941 0.012549 0.149020
0.327373 0.011294 0.143529
0.352941 0.004706 0.153726
0.377255 0.000000 0.159216
0.415529 0.035451 0.148079
0.441569 0.095687 0.133333
0.504157 0.155294 0.121726
0.599216 0.222588 0.097569
0.682196 0.280314 0.069019
0.756235 0.328313 0.025255
0.832157 0.357647 0.003137
0.910588 0.378353 0.000941
0.984628 0.384470 0.005334
0.997647 0.388863 0.000000
0.996392 0.389333 0.003765
1.000000 0.391388 0.057098
0.348236 0.111372 0.159215
0.359372 0.130510 0.162353
0.378510 0.132235 0.165176
0.394510 0.141177 0.178824
0.414745 0.152000 0.196235
0.452549 0.211764 0.174118
0.505098 0.247372 0.141333
0.562980 0.280314 0.098196
0.646431 0.337726 0.060863
0.725961 0.383686 0.016941
0.798431 0.410196 0.000000
0.882510 0.427137 0.000784
0.959216 0.431530 0.000471
1.000000 0.430118 0.004079
1.000000 0.427294 0.011608
0.993757 0.429804 0.061875
0.356863 0.188235 0.160784
0.357647 0.232157 0.173333
0.370980 0.241569 0.167059
0.389804 0.248627 0.185882
0.410196 0.272941 0.198431
0.443137 0.290196 0.223529
0.516862 0.340392 0.204706
0.569412 0.372549 0.146667
0.616471 0.389804 0.090196
0.671373 0.418039 0.021961
0.749020 0.447059 0.000000
0.843138 0.466667 0.003138
0.930981 0.474510 0.000000
0.996863 0.472941 0.001569
1.000000 0.464314 0.007843
1.000000 0.466667 0.066510
0.337255 0.316863 0.169411
0.327686 0.370039 0.181804
0.339765 0.373333 0.179294
0.360471 0.382432 0.196392
0.397490 0.395451 0.204706
0.454902 0.415687 0.230589
0.505726 0.431843 0.263843
0.584941 0.466980 0.248157
0.633098 0.479686 0.184314
0.676236 0.481412 0.114980
0.717647 0.484706 0.018039
0.797019 0.503686 0.003765
0.887843 0.509019 0.000314
0.976471 0.519059 0.001883
0.999843 0.512784 0.014117
0.999992 0.510580 0.072761
0.292549 0.421961 0.180392
0.286274 0.456470 0.182588
0.308392 0.459765 0.192313
0.338823 0.469804 0.200471
0.385098 0.481569 0.219608
0.454902 0.496470 0.240000
0.515294 0.515608 0.268236
0.572863 0.522823 0.314510
0.643922 0.542902 0.305255
0.698823 0.543216 0.242824
0.742745 0.538039 0.172549
0.787922 0.545098 0.087373
0.842510 0.542902 0.000941
0.936784 0.550745 0.000941
0.998745 0.549961 0.001255
1.000000 0.544314 0.058691
0.260392 0.494118 0.195294
0.257255 0.531451 0.196078
0.285490 0.529568 0.203294
0.332549 0.534588 0.213961
0.384314 0.545412 0.229804
0.450196 0.553726 0.253333
0.516078 0.565019 0.280157
0.584000 0.583216 0.319529
0.642510 0.589333 0.368941
0.717961 0.601882 0.378353
0.767843 0.601569 0.309804
0.823686 0.594353 0.244079
0.876706 0.589961 0.178039
0.924235 0.586039 0.070275
0.994196 0.586667 0.001255
1.000000 0.585883 0.062541
0.246275 0.559215 0.210196
0.270118 0.579451 0.222745
0.294902 0.578824 0.227451
0.337725 0.584941 0.235608
0.395608 0.592313 0.246118
0.450196 0.605490 0.269019
0.511372 0.610981 0.293334
0.581804 0.629020 0.329726
0.653177 0.639059 0.370981
0.707451 0.640157 0.422117
0.783530 0.652549 0.437647
0.842510 0.649255 0.385098
0.897255 0.644706 0.319843
0.949490 0.635608 0.253490
0.996078 0.630588 0.178824
0.999961 0.625106 0.069216
0.282353 0.623529 0.243137
0.294902 0.632157 0.243921
0.316863 0.635294 0.252549
0.354510 0.637647 0.259608
0.409412 0.642353 0.274510
0.458824 0.658824 0.298039
0.521569 0.667451 0.327059
0.593726 0.677647 0.357647
0.662745 0.696471 0.392941
0.741176 0.709020 0.451765
0.796078 0.705882 0.501961
0.860393 0.717647 0.528628
0.912157 0.711372 0.459608
0.969412 0.701961 0.414117
1.000000 0.690980 0.351373
0.999961 0.682353 0.290235
0.310588 0.683137 0.275294
0.317019 0.681725 0.274510
0.339451 0.684706 0.276392
0.376000 0.688314 0.290196
0.411138 0.696628 0.308235
0.468236 0.705098 0.327843
0.531137 0.716706 0.355921
0.593412 0.724078 0.382275
0.658353 0.738039 0.414431
0.737255 0.750432 0.460392
0.808627 0.767059 0.505882
0.864471 0.763137 0.563137
0.916235 0.778040 0.604392
0.968784 0.764706 0.544157
0.998745 0.755922 0.484549
0.999937 0.747459 0.429921
0.340392 0.749019 0.320000
0.346510 0.752157 0.321569
0.360000 0.751059 0.325334
0.392784 0.753726 0.332078
0.433412 0.759216 0.354196
0.483137 0.768627 0.372549
0.537255 0.783216 0.394196
0.609255 0.793569 0.425882
0.675137 0.803137 0.463373
0.748078 0.816000 0.497569
0.821961 0.828235 0.542745
0.888157 0.836079 0.593569
0.924235 0.830118 0.641883
0.962196 0.834667 0.677177
0.999216 0.824314 0.626510
1.000000 0.814157 0.581263
0.356078 0.819608 0.366275
0.370196 0.815373 0.368941
0.377412 0.818196 0.373647
0.398745 0.821961 0.380078
0.440470 0.827922 0.391529
0.492549 0.832157 0.417255
0.546980 0.842196 0.437177
0.613490 0.846902 0.467765
0.677491 0.858039 0.494902
0.743216 0.867765 0.527686
0.819608 0.871373 0.570980
0.881255 0.880784 0.607059
0.936627 0.888000 0.652863
0.965490 0.878118 0.701804
0.987922 0.878745 0.731294
1.000000 0.869804 0.698102
0.397647 0.903529 0.440784
0.408471 0.904941 0.447373
0.416157 0.904784 0.446745
0.430589 0.903529 0.451765
0.465726 0.905882 0.460392
0.519216 0.907451 0.480000
0.573647 0.911372 0.501177
0.637177 0.913255 0.522667
0.696784 0.918432 0.550118
0.760784 0.919216 0.576941
0.824313 0.927059 0.618039
0.881568 0.927843 0.648314
0.937255 0.927216 0.686745
0.981177 0.931294 0.720627
0.993569 0.916235 0.751372
1.000000 0.912941 0.787451
0.447020 0.960666 0.513529
0.456282 0.967655 0.521381
0.475804 0.962196 0.515098
0.484573 0.965388 0.522988
0.508886 0.965357 0.537106
0.552784 0.964588 0.552627
0.603804 0.961482 0.566079
0.658706 0.966157 0.579491
0.722980 0.966141 0.609961
0.784204 0.964549 0.637420
0.839138 0.964588 0.666549
0.896400 0.961482 0.689310
0.943490 0.959153 0.714447
0.979686 0.964628 0.743412
1.000000 0.951326 0.771725
0.996039 0.941137 0.796038
0.258824 0.003922 0.137255
0.277961 0.000000 0.135058
0.312941 0.000000 0.135843
0.365490 0.000000 0.135843
0.413490 0.002510 0.134745
0.463529 0.000000 0.145882
0.553726 0.005647 0.140549
0.659764 0.001883 0.136784
0.743216 0.043451 0.123922
0.811765 0.152157 0.109019
0.874510 0.204706 0.090196
0.946667 0.251921 0.088471
1.000000 0.280314 0.076863
0.996078 0.306666 0.074353
1.000000 0.318275 0.084078
0.996894 0.327051 0.117505
0.264000 0.000000 0.130981
0.288847 0.000000 0.135247
0.316800 0.003138 0.132486
0.362666 0.000000 0.141772
0.401349 0.000533 0.145286
0.454118 0.000000 0.146039
0.535341 0.002761 0.136251
0.632753 0.012424 0.131545
0.726337 0.117898 0.128659
0.797585 0.190086 0.107702
0.860079 0.240785 0.089883
0.932894 0.277396 0.076988
0.993223 0.306824 0.070024
0.999655 0.319059 0.074133
0.999874 0.329569 0.081161
0.999998 0.342084 0.111580
0.292235 0.002039 0.147137
0.309647 0.002604 0.146039
0.326745 0.000471 0.153192
0.366871 0.000000 0.145035
0.411859 0.001506 0.147734
0.453333 0.006274 0.140078
0.536878 0.071404 0.141992
0.630902 0.142337 0.130604
0.710400 0.205773 0.118337
0.788078 0.252957 0.100047
0.857412 0.292706 0.086745
0.927373 0.322384 0.069490
0.992659 0.341208 0.064753
0.998557 0.350934 0.072941
0.998337 0.357616 0.085961
0.998447 0.362819 0.115859
0.317490 0.007843 0.155922
0.332423 0.007687 0.158243
0.355106 0.001224 0.168815
0.377694 0.003263 0.171482
0.412549 0.031780 0.163733
0.438588 0.085647 0.148079
0.495153 0.149584 0.139764
0.597553 0.206808 0.130416
0.673663 0.264784 0.115608
0.746730 0.311749 0.092267
0.821333 0.346980 0.068235
0.895937 0.369129 0.057161
0.974745 0.380455 0.057945
1.000000 0.387231 0.063498
0.998494 0.390212 0.076141
0.999686 0.392478 0.115203
0.352941 0.108235 0.168627
0.360690 0.130322 0.173929
0.377788 0.127718 0.179388
0.401255 0.137255 0.191843
0.414588 0.147169 0.216565
0.447216 0.202510 0.193568
0.497820 0.234384 0.154290
0.553694 0.268706 0.123137
0.635232 0.327498 0.100894
0.721223 0.370572 0.077679
0.790431 0.402353 0.059451
0.871749 0.419828 0.044581
0.950368 0.430463 0.045741
0.999843 0.428330 0.072785
0.999498 0.432282 0.093647
0.999845 0.432289 0.120537
0.367058 0.200000 0.178040
0.358902 0.231530 0.190274
0.373019 0.236235 0.194823
0.390588 0.248627 0.203922
0.410353 0.269176 0.217098
0.446275 0.289412 0.250196
0.512157 0.331608 0.224627
0.561569 0.360313 0.164392
0.600314 0.373961 0.114510
0.662589 0.406745 0.069961
0.745098 0.438432 0.047059
0.835138 0.454431 0.035294
0.917647 0.470745 0.033098
0.992627 0.477960 0.054274
1.000000 0.466196 0.078588
0.996862 0.466706 0.115160
0.335843 0.325490 0.185726
0.330949 0.364517 0.195733
0.340706 0.368000 0.201004
0.361851 0.377443 0.210322
0.398118 0.392031 0.220800
0.454745 0.414118 0.238745
0.506196 0.429961 0.284644
0.577349 0.466071 0.257161
0.629867 0.471843 0.206306
0.671310 0.476769 0.135153
0.711529 0.480157 0.054902
0.792596 0.496534 0.025506
0.884894 0.511279 0.032910
0.976690 0.514604 0.048314
0.999372 0.510149 0.079624
0.999992 0.504946 0.115534
0.292706 0.421177 0.193412
0.286588 0.458196 0.202510
0.308925 0.459702 0.202510
0.341082 0.468392 0.213772
0.387451 0.480000 0.227451
0.447530 0.494275 0.252078
0.513976 0.514510 0.277647
0.571545 0.520157 0.324549
0.640000 0.537066 0.313255
0.686902 0.538039 0.245616
0.735373 0.536941 0.187922
0.778761 0.536094 0.108079
0.844047 0.544157 0.015341
0.934431 0.548549 0.034855
0.997584 0.547514 0.062871
0.999987 0.546368 0.100326
0.253804 0.504157 0.202667
0.264031 0.529443 0.209349
0.290698 0.534619 0.221365
0.336659 0.537976 0.228298
0.387420 0.545475 0.245929
0.453333 0.556549 0.265098
0.518745 0.571388 0.292235
0.585349 0.583718 0.328000
0.644832 0.588863 0.377192
0.717522 0.604078 0.380361
0.761725 0.597177 0.318432
0.816314 0.596800 0.254996
0.872126 0.589647 0.188894
0.918745 0.590902 0.095937
0.990055 0.588549 0.054494
0.999689 0.587343 0.102313
0.256157 0.564706 0.220706
0.277553 0.585757 0.230871
0.300643 0.585192 0.237459
0.343874 0.586886 0.249882
0.400188 0.596235 0.263875
0.460392 0.609883 0.284863
0.517741 0.617412 0.308549
0.580518 0.625569 0.339231
0.653584 0.641004 0.379796
0.709019 0.643012 0.437867
0.777569 0.650039 0.447686
0.838525 0.647122 0.385035
0.891985 0.644455 0.323921
0.945820 0.635482 0.262432
0.991310 0.629647 0.188267
0.999379 0.622613 0.098965
0.290980 0.624313 0.255686
0.299608 0.640000 0.259608
0.324706 0.640471 0.269804
0.361569 0.644392 0.275137
0.413490 0.646902 0.287059
0.462745 0.658824 0.309804
0.528784 0.674510 0.348706
0.600000 0.683922 0.372706
0.661647 0.697725 0.404392
0.741647 0.709490 0.452549
0.789019 0.702745 0.510588
0.861334 0.718275 0.529255
0.915294 0.715451 0.467922
0.967529 0.702431 0.420863
0.999372 0.696627 0.348863
0.996117 0.682392 0.295804
0.318431 0.681568 0.285961
0.329600 0.686620 0.292675
0.341396 0.691639 0.291451
0.377851 0.693584 0.302996
0.422180 0.700768 0.321789
0.477176 0.705098 0.336941
0.531670 0.719090 0.363514
0.600094 0.728722 0.394823
0.662902 0.739577 0.424470
0.740549 0.750463 0.469522
0.808627 0.767059 0.508705
0.867263 0.764925 0.578667
0.921757 0.774525 0.608533
0.965741 0.770510 0.550274
0.999874 0.754353 0.490353
0.999994 0.747277 0.439276
0.349804 0.753726 0.334118
0.358682 0.759467 0.336628
0.369631 0.756612 0.342996
0.401569 0.759090 0.347294
0.436769 0.764831 0.365239
0.487843 0.773020 0.383059
0.547859 0.784753 0.410604
0.610730 0.797992 0.440345
0.680220 0.807059 0.476675
0.751686 0.814274 0.507169
0.820392 0.825098 0.545255
0.888534 0.836392 0.596988
0.923828 0.833600 0.645930
0.962761 0.834855 0.682541
0.998745 0.825537 0.634071
0.999201 0.818857 0.592206
0.364706 0.821177 0.374431
0.374714 0.823153 0.380079
0.383498 0.823655 0.381145
0.405522 0.824973 0.391247
0.445020 0.828925 0.403890
0.493804 0.838431 0.421804
0.548675 0.845961 0.449223
0.612894 0.850322 0.470745
0.680659 0.856188 0.500267
0.746353 0.868706 0.536439
0.815059 0.872470 0.571765
0.876831 0.881694 0.612486
0.940988 0.888659 0.655404
0.967153 0.879216 0.701459
0.990149 0.878024 0.737694
0.998757 0.870256 0.702223
0.402353 0.906667 0.447529
0.417098 0.910745 0.461176
0.426541 0.909772 0.459765
0.441380 0.907702 0.462306
0.475451 0.906792 0.468298
0.520628 0.907294 0.484549
0.575122 0.912376 0.505600
0.634353 0.915074 0.529380
0.698823 0.919216 0.554165
0.761914 0.917835 0.588110
0.829804 0.923294 0.617726
0.883984 0.930478 0.656753
0.938761 0.925710 0.690824
0.979012 0.929882 0.722478
0.999467 0.915074 0.756047
0.999969 0.912818 0.791164
0.462580 0.964565 0.521420
0.467106 0.968290 0.525153
0.480263 0.966594 0.527351
0.490505 0.964296 0.531275
0.512953 0.967843 0.540367
0.553647 0.963780 0.551953
0.607283 0.965253 0.569874
0.664671 0.964926 0.589487
0.723012 0.966149 0.611003
0.784888 0.965230 0.638118
0.843027 0.963820 0.667334
0.899518 0.964581 0.692127
0.943376 0.959934 0.719647
0.977747 0.958869 0.750194
0.999975 0.955200 0.778767
0.999153 0.944228 0.799059
0.264314 0.002353 0.152941
0.283294 0.000000 0.151530
0.310588 0.000941 0.156078
0.355451 0.000941 0.163294
0.406588 0.000000 0.161255
0.461961 0.000000 0.167843
0.555765 0.003451 0.176313
0.656784 0.000000 0.181490
0.729098 0.009098 0.172863
0.809882 0.126745 0.166745
0.874510 0.198431 0.159215
0.940079 0.249255 0.153569
0.998118 0.287530 0.154823
1.000000 0.309176 0.159373
0.999529 0.328628 0.167372
0.999976 0.342682 0.194384
0.272000 0.000000 0.149020
0.297725 0.000000 0.153568
0.315325 0.000973 0.154039
0.363890 0.000188 0.163137
0.407812 0.000628 0.160722
0.457569 0.000000 0.173804
0.534557 0.000251 0.172392
0.638965 0.000376 0.178227
0.722478 0.084235 0.174557
0.792251 0.174274 0.165804
0.864000 0.229804 0.155137
0.929380 0.273569 0.150902
0.996894 0.307796 0.153223
0.997929 0.325961 0.154980
0.997396 0.337506 0.160784
1.000000 0.349431 0.185351
0.297255 0.000000 0.159529
0.312565 0.000753 0.160659
0.336470 0.000000 0.162353
0.373020 0.000000 0.165459
0.412831 0.001883 0.172329
0.454274 0.004078 0.173177
0.537914 0.045459 0.179325
0.630839 0.119247 0.175373
0.712314 0.185976 0.168659
0.787702 0.244800 0.160314
0.855686 0.285490 0.152157
0.924894 0.320345 0.145098
0.990682 0.340768 0.151027
0.999372 0.354667 0.153569
0.997929 0.364455 0.165710
0.999994 0.373303 0.188946
0.326745 0.004706 0.170039
0.339514 0.007059 0.171922
0.361349 0.002918 0.180173
0.379576 0.004047 0.185004
0.410886 0.032408 0.176690
0.439059 0.082196 0.170039
0.502965 0.142933 0.173710
0.591561 0.199561 0.166149
0.676110 0.255373 0.159906
0.751435 0.302337 0.149773
0.823843 0.341804 0.138980
0.898228 0.368063 0.138855
0.976627 0.381490 0.142055
0.999749 0.388925 0.145631
0.999498 0.392627 0.158526
0.995940 0.399059 0.179438
0.358274 0.105882 0.187765
0.366149 0.121443 0.192816
0.376879 0.122761 0.205961
0.391341 0.131765 0.210039
0.407812 0.147545 0.229741
0.448157 0.190118 0.209098
0.489318 0.219513 0.173177
0.555043 0.262306 0.154573
0.641851 0.325176 0.145317
0.717459 0.368941 0.134620
0.790588 0.400157 0.125647
0.871687 0.420549 0.131200
0.956016 0.430588 0.137286
0.999247 0.433223 0.142369
0.999875 0.432188 0.161600
0.997352 0.438096 0.187111
0.363921 0.198431 0.195294
0.364549 0.221647 0.201568
0.374902 0.226353 0.208471
0.393255 0.240000 0.224471
0.407843 0.262431 0.239843
0.441569 0.286275 0.256471
0.494118 0.326274 0.233726
0.557490 0.345098 0.188549
0.594196 0.364549 0.142117
0.667451 0.407373 0.124236
0.745098 0.437647 0.118431
0.839216 0.461961 0.114824
0.923137 0.469804 0.123921
0.989020 0.475921 0.138039
1.000000 0.472157 0.142431
0.993749 0.470612 0.182691
0.335529 0.320784 0.207059
0.332549 0.353255 0.217726
0.347420 0.356486 0.221459
0.363545 0.369820 0.231624
0.399498 0.383435 0.244769
0.453647 0.407059 0.266510
0.504408 0.429741 0.305882
0.571702 0.460581 0.273098
0.621333 0.466980 0.222808
0.663687 0.469804 0.159498
0.705568 0.472471 0.111530
0.792722 0.496157 0.100549
0.889694 0.509239 0.115639
0.974965 0.514227 0.129004
0.998651 0.513882 0.150682
1.000000 0.509641 0.175168
0.296471 0.417255 0.211294
0.289977 0.450604 0.220549
0.309647 0.453490 0.223843
0.338415 0.462369 0.234918
0.389741 0.475232 0.252612
0.449412 0.492549 0.272470
0.511937 0.508329 0.296596
0.567247 0.518526 0.340423
0.630965 0.536533 0.326055
0.682635 0.534902 0.260455
0.726118 0.532549 0.205804
0.773396 0.535372 0.140455
0.844486 0.541019 0.096031
0.935749 0.550400 0.108612
0.999027 0.549741 0.136659
1.000000 0.549323 0.164183
0.264000 0.504941 0.222588
0.275577 0.529067 0.231592
0.296628 0.529412 0.237239
0.335435 0.533396 0.245553
0.391843 0.541616 0.262306
0.454274 0.553255 0.283608
0.517270 0.568941 0.309553
0.585443 0.582871 0.347169
0.638055 0.591561 0.393600
0.709678 0.603231 0.388517
0.758745 0.600471 0.331764
0.811325 0.595043 0.270306
0.865788 0.589678 0.208031
0.917647 0.587577 0.132424
0.995137 0.586039 0.124612
0.996254 0.591504 0.155545
0.271373 0.564549 0.241098
0.285302 0.583718 0.252078
0.305411 0.584220 0.254086
0.350086 0.585976 0.266855
0.399184 0.596612 0.277333
0.458039 0.605961 0.301176
0.515859 0.615624 0.324674
0.584879 0.623185 0.356675
0.651639 0.641349 0.392753
0.705161 0.642039 0.450259
0.777882 0.652863 0.460078
0.838526 0.650008 0.400032
0.889035 0.649004 0.343749
0.946510 0.637773 0.284957
0.993945 0.630965 0.210416
0.998739 0.624632 0.139565
0.295686 0.629020 0.272157
0.308706 0.640471 0.276549
0.330039 0.639843 0.282981
0.371137 0.642353 0.295843
0.419294 0.648314 0.306353
0.466667 0.661177 0.327843
0.528941 0.670588 0.358588
0.595137 0.684549 0.383373
0.670745 0.694902 0.424470
0.740706 0.705882 0.472784
0.791372 0.708235 0.521568
0.857255 0.721412 0.543059
0.912941 0.717647 0.480000
0.968471 0.707451 0.435922
0.998431 0.689569 0.368314
0.997670 0.683922 0.311490
0.320000 0.679686 0.301020
0.339702 0.692141 0.307764
0.349961 0.690071 0.310619
0.383655 0.693365 0.321286
0.424721 0.697851 0.333521
0.477804 0.706667 0.353568
0.536094 0.717804 0.379921
0.598494 0.725898 0.410353
0.663498 0.737851 0.439875
0.739796 0.751812 0.484706
0.810824 0.767216 0.526589
0.863059 0.767278 0.587357
0.915859 0.775875 0.612204
0.965365 0.770886 0.558274
0.999937 0.756706 0.503153
0.996102 0.751365 0.448916
0.355137 0.753098 0.344314
0.364361 0.759278 0.351404
0.376251 0.757082 0.353726
0.397804 0.759059 0.358776
0.441945 0.766651 0.376188
0.492549 0.773333 0.396549
0.550902 0.786478 0.424220
0.613176 0.794510 0.452988
0.682039 0.807812 0.485428
0.757521 0.816314 0.523765
0.825098 0.825569 0.562510
0.890322 0.837177 0.602228
0.924894 0.835420 0.657035
0.962573 0.839216 0.691012
0.994918 0.826259 0.641161
0.999043 0.820603 0.596812
0.369568 0.818196 0.385726
0.381365 0.825286 0.392816
0.395733 0.824094 0.397678
0.410447 0.824565 0.403671
0.449569 0.828141 0.417537
0.495530 0.835922 0.431529
0.551937 0.842792 0.454463
0.615906 0.847718 0.479310
0.683451 0.858635 0.512847
0.747639 0.867388 0.547953
0.818667 0.875137 0.584471
0.881757 0.884361 0.623686
0.939765 0.892518 0.667294
0.966902 0.880722 0.714573
0.987953 0.879467 0.742651
1.000000 0.872965 0.714860
0.406902 0.904000 0.457725
0.425725 0.910431 0.472000
0.430808 0.907294 0.472784
0.446557 0.907733 0.473380
0.473757 0.907482 0.478400
0.522667 0.909333 0.494431
0.578416 0.911906 0.517929
0.634635 0.915106 0.534745
0.699419 0.917490 0.567435
0.762447 0.921506 0.595106
0.826196 0.928157 0.627765
0.886181 0.926808 0.664596
0.939577 0.928533 0.698981
0.980110 0.930729 0.728282
0.997521 0.916392 0.760502
1.000000 0.915636 0.794492
0.462588 0.964549 0.529224
0.472781 0.966936 0.535545
0.479866 0.968005 0.536572
0.495517 0.968000 0.543523
0.519825 0.965315 0.544107
0.552902 0.964573 0.560619
0.607423 0.964293 0.577541
0.664891 0.965509 0.589713
0.723664 0.964938 0.621051
0.790176 0.962423 0.646425
0.843035 0.960682 0.673592
0.896940 0.958380 0.704805
0.945998 0.961637 0.726725
0.982871 0.959776 0.755238
0.998739 0.955515 0.778312
0.995365 0.944965 0.800644
0.274510 0.003922 0.185098
0.290196 0.001883 0.181177
0.310745 0.000000 0.181177
0.345882 0.000000 0.183529
0.385569 0.001883 0.195294
0.444706 0.000000 0.208628
0.538981 0.000000 0.217098
0.657725 0.000000 0.222432
0.742902 0.000000 0.236863
0.811608 0.091608 0.238274
0.884706 0.194510 0.236079
0.945725 0.255686 0.233098
0.997647 0.299294 0.235921
0.997019 0.326745 0.240157
1.000000 0.344627 0.247843
0.993765 0.365427 0.274392
0.286432 0.001255 0.178196
0.303216 0.000377 0.180863
0.321192 0.000816 0.175184
0.350933 0.000502 0.181490
0.400659 0.002510 0.194667
0.447686 0.000000 0.206118
0.537349 0.001600 0.209004
0.649914 0.000000 0.232502
0.721443 0.021584 0.229114
0.794823 0.147796 0.228863
0.869020 0.225098 0.230902
0.935561 0.277616 0.231184
0.996423 0.314353 0.232659
1.000000 0.338070 0.237428
0.998682 0.351906 0.238400
0.999995 0.369203 0.266011
0.303372 0.000000 0.187921
0.320565 0.000753 0.188580
0.343121 0.000628 0.182745
0.371074 0.000628 0.192941
0.418667 0.000282 0.208377
0.470745 0.000000 0.213020
0.549239 0.009726 0.229929
0.636172 0.078965 0.231404
0.717961 0.165020 0.229898
0.785757 0.234071 0.225004
0.856941 0.283137 0.229177
0.923639 0.320972 0.221773
0.995200 0.350369 0.236549
1.000000 0.365647 0.241851
0.999372 0.378133 0.252361
1.000000 0.390541 0.268190
0.331765 0.008941 0.194039
0.344408 0.012737 0.195294
0.361725 0.005083 0.198180
0.379671 0.007906 0.203232
0.407969 0.029898 0.206337
0.445177 0.083922 0.208941
0.516706 0.132110 0.217317
0.602384 0.185820 0.215530
0.679780 0.243953 0.212894
0.754134 0.296502 0.214839
0.827608 0.338980 0.209569
0.902777 0.368314 0.216627
0.978761 0.387231 0.224847
1.000000 0.396769 0.228925
0.999498 0.401381 0.237961
0.994671 0.416419 0.257211
0.362353 0.111372 0.213804
0.369694 0.122196 0.220173
0.378322 0.114385 0.225631
0.394008 0.123576 0.236988
0.412016 0.148706 0.248659
0.434039 0.174589 0.219451
0.486055 0.206275 0.207278
0.565836 0.264063 0.203639
0.646463 0.319153 0.201757
0.725396 0.365929 0.196204
0.795765 0.397177 0.198902
0.877428 0.421584 0.204078
0.959278 0.431906 0.214117
0.999529 0.440283 0.228079
0.997145 0.442792 0.239624
0.999534 0.445635 0.262385
0.363137 0.196078 0.218823
0.368470 0.219294 0.229804
0.376471 0.215686 0.236079
0.387294 0.227451 0.240314
0.408000 0.249412 0.259765
0.440784 0.283922 0.283922
0.492549 0.314823 0.257725
0.542588 0.329568 0.214745
0.598118 0.353569 0.184314
0.676392 0.405490 0.185726
0.752941 0.436863 0.180392
0.839373 0.461490 0.193726
0.926118 0.471373 0.198118
0.995922 0.478431 0.213804
1.000000 0.474510 0.222118
1.000000 0.474534 0.258730
0.341019 0.315921 0.232784
0.341239 0.349678 0.246368
0.349898 0.340894 0.243953
0.366431 0.355169 0.258322
0.401004 0.373866 0.267514
0.443765 0.398902 0.290353
0.505412 0.428612 0.326996
0.562698 0.452016 0.288471
0.609287 0.458667 0.245929
0.654620 0.457286 0.195733
0.713255 0.475294 0.171137
0.803420 0.495592 0.176941
0.896314 0.511090 0.192471
0.978572 0.518620 0.200188
0.998933 0.515294 0.222432
0.999987 0.511851 0.245418
0.302275 0.416314 0.235138
0.302306 0.448345 0.249914
0.316016 0.443545 0.252173
0.342212 0.452769 0.262933
0.388800 0.469804 0.273631
0.446431 0.483294 0.294745
0.511121 0.503216 0.320910
0.563922 0.519749 0.362949
