example_ofxGpuLutCube/bin/data/ofxGpuLutCube/LUT/A42 (juicy pink fade).cube
LUT_3D_SIZE 6
0.250980 0.003922 0.117647
0.369412 0.000000 0.123922
0.559216 0.003138 0.110588
0.835294 0.173334 0.055686
1.000000 0.287843 0.000000
0.996117 0.321608 0.062549
0.312941 0.012549 0.149020
0.377255 0.000000 0.159216
0.504157 0.155294 0.121726
0.756235 0.328313 0.025255
0.984628 0.384470 0.005334
1.000000 0.391388 0.057098
0.337255 0.316863 0.169411
0.360471 0.382432 0.196392
0.505726 0.431843 0.263843
0.676236 0.481412 0.114980
0.887843 0.509019 0.000314
0.999992 0.510580 0.072761
0.246275 0.559215 0.210196
0.337725 0.584941 0.235608
0.511372 0.610981 0.293334
0.707451 0.640157 0.422117
0.897255 0.644706 0.319843
0.999961 0.625106 0.069216
0.340392 0.749019 0.320000
0.392784 0.753726 0.332078
0.537255 0.783216 0.394196
0.748078 0.816000 0.497569
0.924235 0.830118 0.641883
1.000000 0.814157 0.581263
0.447020 0.960666 0.513529
0.484573 0.965388 0.522988
0.603804 0.961482 0.566079
0.784204 0.964549 0.637420
0.943490 0.959153 0.714447
0.996039 0.941137 0.796038
0.274510 0.003922 0.185098
0.345882 0.000000 0.183529
0.538981 0.000000 0.217098
0.811608 0.091608 0.238274
0.997647 0.299294 0.235921
0.993765 0.365427 0.274392
0.331765 0.008941 0.194039
0.379671 0.007906 0.203232
0.516706 0.132110 0.217317
0.754134 0.296502 0.214839
0.978761 0.387231 0.224847
0.994671 0.416419 0.257211
0.341019 0.315921 0.232784
0.366431 0.355169 0.258322
0.505412 0.428612 0.326996
0.654620 0.457286 0.195733
0.896314 0.511090 0.192471
0.999987 0.511851 0.245418
0.277647 0.562196 0.264628
0.351247 0.581898 0.283137
0.517333 0.611545 0.346510
0.709270 0.643608 0.474227
0.885051 0.644518 0.363388
1.000000 0.626030 0.190922
0.367686 0.755137 0.365020
0.406181 0.757459 0.378635
0.554541 0.785663 0.441004
0.755482 0.815059 0.539608
0.923576 0.838024 0.674667
0.999062 0.824819 0.611217
0.474338 0.968454 0.544894
0.501680 0.965209 0.551845
0.609021 0.962740 0.587001
0.786878 0.963349 0.651663
0.946154 0.960682 0.736998
0.997654 0.945059 0.810079
0.323138 0.000000 0.330981
0.373961 0.000000 0.325177
0.444549 0.000000 0.323922
0.701804 0.000000 0.374118
0.999059 0.182588 0.406431
0.999953 0.515960 0.548133
0.351530 0.009725 0.337412
0.388486 0.014306 0.338102
0.456941 0.000094 0.327937
0.732737 0.089789 0.377976
0.990839 0.446808 0.462526
0.999529 0.526336 0.524333
0.327059 0.313255 0.325020
0.363545 0.332831 0.333710
0.478400 0.376094 0.349396
0.670275 0.473318 0.360063
0.930008 0.541678 0.430431
0.999998 0.570657 0.484538
0.323451 0.558431 0.356392
0.378698 0.571702 0.371043
0.512784 0.591216 0.422839
0.704188 0.651043 0.548675
0.860016 0.638431 0.422087
0.999838 0.646424 0.408571
0.404393 0.754196 0.447686
0.443137 0.766149 0.464251
0.551781 0.776094 0.506102
0.757741 0.814306 0.605114
0.923325 0.856094 0.751310
0.998132 0.836894 0.657835
0.493232 0.970055 0.590525
0.530389 0.971007 0.602693
0.607418 0.963835 0.623386
0.784919 0.965242 0.699630
0.945772 0.965575 0.782535
0.999992 0.952870 0.850925
0.344314 0.000000 0.529411
0.379137 0.000000 0.518432
0.465098 0.000628 0.487529
0.614902 0.000000 0.477961
0.837176 0.001883 0.511686
1.000000 0.344792 0.581020
0.347765 0.036392 0.502432
0.382463 0.052110 0.503216
0.471372 0.063906 0.478369
0.619765 0.000251 0.480125
0.849161 0.066572 0.513067
0.999658 0.446852 0.595220
0.301804 0.333334 0.497412
0.358212 0.347827 0.500769
0.471529 0.351875 0.476737
0.620517 0.347388 0.475169
0.910023 0.514353 0.579765
0.996894 0.647749 0.702671
0.268079 0.553883 0.455687
0.339922 0.562729 0.462086
0.474949 0.564862 0.480094
0.637616 0.604863 0.523388
0.886463 0.657663 0.578949
0.999223 0.719015 0.666786
0.446745 0.754824 0.560784
0.478745 0.760659 0.574181
0.542055 0.762981 0.576157
0.726494 0.800282 0.660141
0.924612 0.872659 0.816628
0.999987 0.841252 0.699499
0.522235 0.975569 0.679114
0.535780 0.975875 0.680100
0.624351 0.974915 0.701236
0.756765 0.969138 0.746551
0.946295 0.971225 0.841203
0.999961 0.964651 0.905679
0.317647 0.000000 0.723921
0.373961 0.002039 0.718588
0.497412 0.002667 0.702745
0.641726 0.033569 0.679686
0.816628 0.000000 0.682823
0.994502 0.003883 0.680792
0.321569 0.103059 0.710275
0.384533 0.115671 0.716172
0.505286 0.147169 0.701490
0.638400 0.222839 0.678275
0.808376 0.134118 0.677710
0.997493 0.160403 0.681526
0.291294 0.379765 0.705255
0.355765 0.388204 0.705882
0.480753 0.410165 0.693553
0.623278 0.440659 0.672690
0.806118 0.409883 0.682980
1.000000 0.415903 0.692950
0.238275 0.585568 0.690196
0.313412 0.589459 0.697882
0.448031 0.586290 0.696314
0.619388 0.584816 0.679372
0.817004 0.568753 0.682792
1.000000 0.700707 0.790941
0.269020 0.761725 0.676863
0.333522 0.762635 0.681882
0.467796 0.763169 0.692016
0.666980 0.766369 0.714039
0.876863 0.818322 0.785223
0.994701 0.881675 0.843554
0.526776 0.980235 0.781859
0.572290 0.981799 0.792036
0.677906 0.979951 0.819162
0.796742 0.975409 0.848657
0.921360 0.975436 0.888110
0.996078 0.984267 0.960023
0.317647 0.144745 0.964471
0.371804 0.166761 0.965309
0.496510 0.224816 0.957483
0.643961 0.332266 0.948855
0.833647 0.411498 0.938612
1.000000 0.305646 0.956433
0.309066 0.271961 0.960643
0.370821 0.290427 0.962783
0.485468 0.338868 0.954588
0.640316 0.406389 0.946455
0.825887 0.456882 0.937374
1.000000 0.361334 0.943349
0.265914 0.481521 0.964502
0.331151 0.488570 0.960911
0.466378 0.500502 0.957312
0.641584 0.528836 0.952093
0.842321 0.553556 0.944540
0.999945 0.480744 0.944832
0.138102 0.609389 0.961349
0.248121 0.615349 0.960991
0.437338 0.626496 0.960406
0.643101 0.642260 0.950384
0.850739 0.654850 0.942825
1.000000 0.617176 0.946454
0.135827 0.794486 0.974643
0.250422 0.796102 0.964806
0.431391 0.798900 0.967776
0.643126 0.798893 0.968097
0.857190 0.813564 0.954364
0.997585 0.819514 0.946572
0.215025 1.000000 0.948746
0.310432 0.998462 0.942595
0.493154 0.999999 0.949593
0.709546 0.999160 0.956667
0.896415 0.995913 0.966963
0.999883 0.999844 0.999689
