example_ofxGpuLutCube/bin/data/ofxGpuLutCube/LUT/A43 (bright orange).cube
LUT_3D_SIZE 16
0.000000 0.000000 0.000000
0.044706 0.008627 0.012549
0.094902 0.021176 0.019608
0.156863 0.029804 0.024314
0.223529 0.050196 0.039216
0.329412 0.047059 0.050980
0.456470 0.066667 0.054118
0.583529 0.091765 0.070588
0.701176 0.120000 0.090981
0.784313 0.149020 0.120000
0.839216 0.196078 0.160784
0.887844 0.244706 0.209412
0.918431 0.306667 0.259608
0.951373 0.366275 0.320784
0.986666 0.432941 0.393725
0.999961 0.509647 0.462549
0.032942 0.032942 0.025098
0.046118 0.040941 0.033726
0.111529 0.058981 0.033569
0.168157 0.070902 0.042666
0.237647 0.082667 0.042510
0.337255 0.095687 0.052549
0.463216 0.113882 0.056314
0.591530 0.139294 0.073255
0.705569 0.163922 0.096627
0.784313 0.189333 0.124863
0.836863 0.225882 0.164706
0.880941 0.266039 0.207216
0.917176 0.319843 0.265883
0.947608 0.383529 0.329882
0.985255 0.450353 0.401255
0.999992 0.515129 0.465694
0.074510 0.071373 0.072941
0.079216 0.079216 0.075137
0.096470 0.090667 0.081882
0.182118 0.123608 0.063373
0.274196 0.140392 0.050667
0.374118 0.157647 0.054902
0.491765 0.185412 0.068863
0.614588 0.203921 0.082353
0.716078 0.225882 0.100549
0.785882 0.248157 0.129412
0.844706 0.275294 0.175686
0.877961 0.310902 0.223843
0.912627 0.354039 0.283922
0.948706 0.408628 0.343687
0.982745 0.467138 0.407059
1.000000 0.532455 0.472047
0.127059 0.124706 0.116863
0.131294 0.128627 0.120157
0.135686 0.137882 0.122666
0.157647 0.153098 0.132078
0.270902 0.199529 0.117490
0.409412 0.237647 0.072941
0.514039 0.263529 0.072470
0.628235 0.282667 0.092863
0.722510 0.297098 0.116235
0.790275 0.307921 0.153882
0.842353 0.332549 0.198431
0.875294 0.358431 0.244706
0.909019 0.397961 0.299765
0.943529 0.447529 0.359059
0.974118 0.496785 0.421961
1.000000 0.557529 0.496275
0.197647 0.193725 0.174902
0.206432 0.203765 0.184784
0.218039 0.207843 0.188235
0.216941 0.213019 0.193411
0.247215 0.237334 0.211922
0.386667 0.306667 0.175686
0.536157 0.354980 0.137883
0.653961 0.368157 0.104784
0.735686 0.377255 0.137255
0.798118 0.388079 0.187294
0.836078 0.396863 0.223529
0.872157 0.421961 0.282039
0.908078 0.452078 0.325961
0.933333 0.494118 0.389804
0.970980 0.540549 0.449569
0.996815 0.592808 0.508086
0.286275 0.274510 0.247059
0.290196 0.290196 0.258824
0.299608 0.287843 0.265098
0.301961 0.301961 0.270588
0.309020 0.309020 0.277647
0.349020 0.341176 0.294118
0.494118 0.414902 0.280000
0.643922 0.456471 0.228235
0.734118 0.464314 0.189804
0.792941 0.459608 0.217255
0.835294 0.466667 0.262745
0.872157 0.487059 0.312941
0.896470 0.509019 0.360784
0.931765 0.541961 0.416471
0.966274 0.581961 0.468235
0.996000 0.619530 0.521491
0.378039 0.378039 0.337255
0.402823 0.390275 0.354981
0.404706 0.393725 0.356078
0.410981 0.399216 0.363922
0.418510 0.408471 0.372549
0.430588 0.418823 0.389804
0.460235 0.450980 0.404392
0.596235 0.517177 0.385726
0.694745 0.544470 0.355608
0.776314 0.543216 0.317176
0.820392 0.540392 0.313726
0.867608 0.548863 0.351687
0.892549 0.566432 0.402823
0.928941 0.596078 0.454432
0.963137 0.624157 0.503843
0.995192 0.660275 0.552047
0.481568 0.473725 0.426666
0.495843 0.488000 0.440941
0.499137 0.488157 0.445804
0.499137 0.490823 0.450824
0.512157 0.496941 0.459137
0.516078 0.508235 0.461176
0.530823 0.516392 0.475765
0.559686 0.544000 0.493804
0.646118 0.592627 0.486902
0.730196 0.610980 0.461647
0.790588 0.614117 0.440000
0.846588 0.617255 0.433255
0.886431 0.625098 0.448314
0.924235 0.643765 0.489098
0.960470 0.665882 0.530981
0.998392 0.693294 0.570157
0.563137 0.555294 0.508235
0.574118 0.566275 0.519216
0.576157 0.563294 0.521098
0.577568 0.571608 0.525490
0.585098 0.569412 0.523922
0.591372 0.578824 0.534118
0.599687 0.584000 0.536941
0.603765 0.594039 0.547922
0.627608 0.614745 0.563451
0.686589 0.649726 0.560471
0.749804 0.669020 0.549804
0.810980 0.683137 0.540235
0.871843 0.691294 0.528785
0.921412 0.692392 0.538353
0.959686 0.712157 0.560784
0.999945 0.732471 0.596784
0.629020 0.619608 0.573334
0.632941 0.625098 0.578039
0.632941 0.625098 0.577255
0.636863 0.629020 0.578823
0.639372 0.631530 0.581334
0.641568 0.633725 0.586666
0.649255 0.640157 0.593725
0.651922 0.645020 0.598902
0.662275 0.650666 0.605020
0.676862 0.667451 0.618039
0.723922 0.693334 0.618039
0.787451 0.715765 0.607059
0.842667 0.733333 0.601569
0.903059 0.746196 0.601725
0.952784 0.758274 0.598902
0.996815 0.767019 0.612510
0.682353 0.666667 0.623529
0.679215 0.671372 0.624313
0.676078 0.672941 0.625882
0.684706 0.669020 0.624314
0.682353 0.670588 0.635294
0.690196 0.674510 0.631373
0.690980 0.683137 0.635294
0.695686 0.687843 0.640784
0.708235 0.692549 0.649412
0.709020 0.698039 0.660392
0.721569 0.713725 0.666667
0.766275 0.738039 0.663529
0.823529 0.761569 0.666667
0.885490 0.782745 0.663530
0.945883 0.800000 0.658040
0.999882 0.811765 0.654941
0.723138 0.715294 0.668236
0.721255 0.713412 0.666353
0.723608 0.714980 0.670275
0.722667 0.714823 0.667765
0.724549 0.716706 0.669647
0.724706 0.716862 0.669804
0.731608 0.723138 0.675451
0.739137 0.728157 0.690510
0.744627 0.730196 0.693490
0.746667 0.735686 0.698039
0.752157 0.744313 0.697255
0.768941 0.759059 0.723137
0.812549 0.783059 0.720941
0.868549 0.810196 0.717019
0.924863 0.837647 0.719529
0.980283 0.853255 0.717568
0.768627 0.755294 0.716863
0.771765 0.758902 0.715137
0.769882 0.762039 0.714980
0.769098 0.760157 0.720157
0.771608 0.761569 0.725804
0.775686 0.766274 0.723921
0.778039 0.767529 0.728471
0.783529 0.771921 0.731921
0.788863 0.776627 0.738510
0.794196 0.781647 0.744941
0.803137 0.789020 0.753726
0.805490 0.794196 0.757490
0.817098 0.809098 0.770039
0.855059 0.834667 0.778196
0.911373 0.860706 0.781177
0.959898 0.883859 0.774902
0.818823 0.807059 0.776471
0.819451 0.807686 0.777098
0.819764 0.808941 0.770824
0.818353 0.810824 0.774118
0.821177 0.814118 0.777255
0.826667 0.814902 0.779608
0.824314 0.819608 0.786039
0.832157 0.820392 0.789804
0.832314 0.825255 0.791216
0.840157 0.828392 0.802510
0.847843 0.836079 0.800784
0.851451 0.846745 0.816941
0.856000 0.851765 0.817098
0.870588 0.863530 0.834510
0.902118 0.883922 0.840470
0.944180 0.908957 0.846243
0.864314 0.861176 0.839215
0.868078 0.868078 0.836706
0.871843 0.860078 0.833569
0.867608 0.863843 0.833725
0.870431 0.866196 0.835922
0.877647 0.868235 0.840000
0.872157 0.871529 0.842039
0.883451 0.871686 0.846745
0.880000 0.880000 0.848627
0.885177 0.880000 0.860392
0.894902 0.885491 0.863530
0.894745 0.892392 0.863373
0.899922 0.896000 0.879529
0.911059 0.906196 0.886588
0.919843 0.914824 0.894745
0.941066 0.928588 0.905859
0.917569 0.913568 0.893961
0.917498 0.913576 0.893969
0.913631 0.914369 0.894761
0.917553 0.913631 0.894024
0.920636 0.916714 0.900212
0.921451 0.917529 0.897921
0.921491 0.917569 0.898737
0.926941 0.923020 0.907294
0.933192 0.929240 0.909631
0.933215 0.929294 0.910502
0.937177 0.933255 0.917569
0.941874 0.937953 0.922228
0.945812 0.944996 0.932377
0.952847 0.948926 0.933239
0.963757 0.959812 0.944133
0.964588 0.960745 0.952784
0.015686 0.015686 0.015686
0.021961 0.021961 0.021961
0.081882 0.034824 0.046432
0.154980 0.036863 0.050667
0.225412 0.053961 0.067451
0.325490 0.067451 0.083137
0.450039 0.084549 0.088471
0.577725 0.103843 0.103843
0.692863 0.133176 0.126275
0.779765 0.168627 0.149961
0.839216 0.206275 0.187451
0.880000 0.261177 0.227451
0.911059 0.316078 0.277490
0.946039 0.377569 0.344000
0.972392 0.445333 0.401412
0.999961 0.518282 0.472000
0.037647 0.037647 0.037333
0.058165 0.052863 0.046588
0.107890 0.061459 0.049725
0.162290 0.074134 0.059702
0.236486 0.087686 0.068110
0.336784 0.101804 0.080470
0.456596 0.122322 0.092267
0.585475 0.144972 0.110651
0.694651 0.173239 0.124423
0.776376 0.201443 0.159278
0.831530 0.237490 0.187451
0.873412 0.279843 0.233663
0.911843 0.333522 0.292329
0.944000 0.394447 0.345067
0.977129 0.453208 0.405522
0.999986 0.525308 0.474678
0.085647 0.084078 0.076235
0.090667 0.089726 0.081882
0.104345 0.101741 0.087498
0.192784 0.127498 0.073977
0.277647 0.139419 0.081318
0.369098 0.163137 0.089412
0.485458 0.185977 0.099608
0.607153 0.208879 0.115200
0.709490 0.229961 0.136533
0.780831 0.254776 0.165835
0.837020 0.281882 0.205176
0.872313 0.322196 0.250510
0.909302 0.364267 0.301271
0.940518 0.421522 0.356424
0.979922 0.476016 0.420016
1.000000 0.540711 0.481100
0.135059 0.136470 0.122981
0.141898 0.138980 0.126431
0.147984 0.147263 0.126839
0.175028 0.164643 0.139953
0.275106 0.208188 0.121380
0.407059 0.235294 0.101804
0.512157 0.261898 0.107859
0.624282 0.281537 0.121474
0.719059 0.298165 0.146133
0.782369 0.315545 0.177255
0.834823 0.338353 0.216000
0.873318 0.366651 0.265914
0.905788 0.407404 0.316831
0.937098 0.452863 0.373427
0.971137 0.501773 0.433945
0.999958 0.564392 0.498973
0.209412 0.205490 0.185882
0.216471 0.212549 0.192941
0.220298 0.216377 0.197396
0.227828 0.224471 0.203639
0.251106 0.248345 0.217475
0.395922 0.315294 0.184314
0.545098 0.354447 0.153192
0.650792 0.367655 0.132455
0.730416 0.378604 0.164235
0.789145 0.388988 0.205616
0.829490 0.404706 0.238902
0.867953 0.423498 0.291012
0.905757 0.458604 0.346823
0.933804 0.499859 0.403859
0.970196 0.543435 0.460737
0.996853 0.595170 0.510031
0.291765 0.289412 0.258824
0.300078 0.298196 0.267451
0.311843 0.300078 0.276392
0.309804 0.309804 0.278431
0.328628 0.316863 0.289412
0.355294 0.342745 0.305882
0.501804 0.424470 0.281255
0.644549 0.457098 0.237020
0.733333 0.459608 0.203922
0.787765 0.460236 0.234510
0.828235 0.467451 0.275294
0.863529 0.487059 0.323922
0.896314 0.512941 0.376627
0.928941 0.547765 0.424627
0.961882 0.588549 0.481098
0.996000 0.626533 0.530855
0.396706 0.384941 0.349647
0.409883 0.398118 0.362824
0.408094 0.403012 0.365490
0.417098 0.404706 0.369412
0.423780 0.415906 0.378228
0.436392 0.427607 0.390902
0.470463 0.453145 0.404204
0.600659 0.521725 0.389522
0.698071 0.547827 0.358589
0.777192 0.542212 0.323764
0.822117 0.540549 0.332863
0.861867 0.547733 0.368721
0.892361 0.570824 0.414212
0.924863 0.599843 0.458824
0.960000 0.628235 0.512157
0.992869 0.663395 0.559834
0.490667 0.481883 0.435294
0.502024 0.494181 0.447122
0.501051 0.494808 0.448596
0.505663 0.500078 0.452831
0.514886 0.502902 0.458070
0.523451 0.512941 0.473882
0.534620 0.522039 0.478965
0.562572 0.548016 0.497224
0.650824 0.593694 0.487843
0.725898 0.610667 0.457569
0.794510 0.618039 0.443922
0.845428 0.616031 0.433098
0.884675 0.625443 0.457443
0.924330 0.646902 0.496031
0.960533 0.667765 0.537035
0.994922 0.695477 0.576560
0.570667 0.562823 0.515765
0.581835 0.570228 0.525051
0.584628 0.571451 0.526274
0.584000 0.576157 0.529098
0.593726 0.572581 0.530761
0.592941 0.584157 0.537569
0.600784 0.592816 0.544188
0.609914 0.602071 0.553757
0.628455 0.618290 0.567592
0.690196 0.650259 0.557678
0.750902 0.668235 0.553098
0.811859 0.679498 0.537474
0.869616 0.690541 0.533082
0.923106 0.694651 0.542306
0.957302 0.712094 0.568502
0.999904 0.732191 0.596492
0.630275 0.621176 0.572235
0.637616 0.628518 0.580957
0.641631 0.627514 0.587388
0.636486 0.626447 0.582557
0.638306 0.630400 0.583122
0.644549 0.634510 0.594980
0.650070 0.641914 0.594384
0.654651 0.646682 0.598682
0.661584 0.652800 0.605867
0.677364 0.667953 0.619012
0.722196 0.693961 0.618510
0.786949 0.715890 0.612204
0.841349 0.735027 0.602698
0.905004 0.748675 0.604894
0.954949 0.758808 0.603483
0.997275 0.766398 0.617523
0.678431 0.670588 0.623529
0.682353 0.674510 0.627451
0.682667 0.674824 0.627765
0.686275 0.678431 0.631373
0.687059 0.678902 0.632314
0.690196 0.682353 0.635294
0.697412 0.684549 0.645020
0.701333 0.689412 0.644392
0.705098 0.690980 0.647059
0.709020 0.697255 0.661961
0.721569 0.713725 0.666667
0.769568 0.738824 0.663686
0.824314 0.764235 0.663686
0.882039 0.783059 0.661961
0.940862 0.800000 0.659608
0.993639 0.814870 0.662706
0.720784 0.712941 0.665882
0.723922 0.716078 0.669020
0.727749 0.713945 0.670337
0.727874 0.714384 0.671718
0.729161 0.714886 0.671435
0.734117 0.719843 0.676392
0.738667 0.724298 0.683012
0.740863 0.725490 0.688471
0.744251 0.731137 0.686965
0.751310 0.738792 0.699733
0.754824 0.746039 0.701020
0.768314 0.756423 0.721129
0.812612 0.784376 0.719749
0.868643 0.811608 0.712596
0.924643 0.836424 0.718808
0.981867 0.852510 0.717662
0.770196 0.757177 0.721882
0.771325 0.759561 0.724267
0.771890 0.761788 0.719435
0.769662 0.763545 0.720784
0.771890 0.762949 0.721945
0.777883 0.765019 0.727372
0.780424 0.770792 0.731106
0.783561 0.772110 0.735874
0.785820 0.780737 0.734431
0.794573 0.783812 0.745631
0.797647 0.790588 0.757490
0.801098 0.795922 0.758431
0.817631 0.808314 0.772706
0.859231 0.834824 0.774212
0.911498 0.859828 0.780737
0.960985 0.884635 0.776299
0.815686 0.810980 0.775843
0.815310 0.809192 0.772957
0.815718 0.812047 0.774055
0.821396 0.809632 0.779608
0.822024 0.811200 0.775592
0.825882 0.813647 0.782118
0.824690 0.820267 0.783341
0.832157 0.820392 0.788173
0.833067 0.830149 0.792847
0.840220 0.834290 0.801757
0.849882 0.838118 0.807529
0.853177 0.842729 0.818855
0.859012 0.849882 0.817788
0.868706 0.867294 0.836392
0.903153 0.885051 0.839341
0.942322 0.907089 0.844380
0.872314 0.860549 0.838117
0.866667 0.864314 0.833725
0.872627 0.863027 0.834855
0.869114 0.865851 0.836235
0.870902 0.867137 0.836706
0.875451 0.865569 0.837804
0.878055 0.866981 0.845741
0.880533 0.873318 0.847530
0.882604 0.877333 0.854243
0.890102 0.881286 0.859545
0.899294 0.887843 0.865725
0.897380 0.894400 0.865945
0.900926 0.896251 0.876643
0.910870 0.907012 0.882886
0.919906 0.914164 0.894494
0.944017 0.931694 0.908989
0.917514 0.913576 0.893969
0.917545 0.913607 0.894000
0.918033 0.914073 0.897572
0.917594 0.913634 0.895740
0.922046 0.916881 0.897274
0.921467 0.917529 0.898698
0.930180 0.918805 0.905570
0.926706 0.921749 0.902204
0.929299 0.925377 0.909217
0.935708 0.931787 0.913590
0.940274 0.936353 0.920667
0.944974 0.941052 0.925335
0.949846 0.946546 0.930549
0.952831 0.948910 0.934155
0.959882 0.956908 0.942301
0.965388 0.961482 0.947404
0.036863 0.036863 0.036863
0.040784 0.040784 0.040784
0.054118 0.051294 0.049568
0.107451 0.078588 0.080157
0.203451 0.070902 0.096157
0.323922 0.072157 0.108235
0.449412 0.088471 0.131294
0.577569 0.112000 0.146353
0.689569 0.142902 0.170510
0.777098 0.184000 0.192471
0.831373 0.230588 0.224314
0.870588 0.286275 0.265882
0.902588 0.343529 0.313725
0.938353 0.404236 0.376000
0.972549 0.470902 0.429961
0.999937 0.532392 0.495498
0.057255 0.057255 0.050039
0.065882 0.065882 0.058667
0.088690 0.077647 0.070055
0.157302 0.086337 0.091922
0.241380 0.091608 0.104063
0.340392 0.107921 0.118117
0.454023 0.129882 0.129192
0.582431 0.149082 0.147231
0.692204 0.179137 0.166180
0.773302 0.217035 0.197930
0.826980 0.255373 0.229176
0.865725 0.304157 0.272031
0.906792 0.354039 0.322227
0.934181 0.412957 0.373867
0.967906 0.475357 0.429271
0.999936 0.539412 0.492079
0.099765 0.095843 0.088000
0.108549 0.104627 0.096784
0.141302 0.118306 0.102494
0.201004 0.132235 0.101271
0.275639 0.145851 0.116831
0.374118 0.163137 0.125334
0.485866 0.187577 0.136188
0.605647 0.211200 0.157741
0.704941 0.234886 0.175874
0.778980 0.264533 0.209035
0.830745 0.296471 0.244236
0.864659 0.338541 0.285208
0.901678 0.383969 0.332957
0.939043 0.439655 0.386290
0.970510 0.496722 0.443420
0.999940 0.556384 0.502457
0.153568 0.149647 0.133961
0.157961 0.154039 0.138353
0.162353 0.162949 0.147921
0.200439 0.179294 0.148706
0.302431 0.215717 0.137976
0.407687 0.232000 0.128627
0.515262 0.260549 0.145192
0.621365 0.283451 0.163859
0.713286 0.302525 0.186886
0.780235 0.325616 0.214431
0.827765 0.350745 0.252079
0.865820 0.382682 0.297192
0.895937 0.423310 0.349490
0.930071 0.469553 0.402510
0.961757 0.522008 0.452047
0.998533 0.573820 0.513608
0.222274 0.218353 0.198745
0.230431 0.226510 0.206902
0.237270 0.229710 0.207655
0.241255 0.237333 0.217725
0.276455 0.266102 0.224220
0.418823 0.321098 0.196549
0.547576 0.354698 0.164518
0.650416 0.364863 0.175686
0.726243 0.381804 0.202102
0.782432 0.393474 0.236298
0.828863 0.410196 0.280157
0.866133 0.438400 0.322196
0.898447 0.471655 0.373521
0.926275 0.513820 0.429835
0.960627 0.555326 0.478714
0.998681 0.603043 0.527291
0.304313 0.299608 0.269804
0.314981 0.310275 0.280470
0.319373 0.311843 0.279843
0.322196 0.322196 0.290824
0.336157 0.329098 0.296941
0.381177 0.362353 0.315294
0.511843 0.427137 0.286275
0.651137 0.457412 0.250353
0.731922 0.462745 0.235765
0.782275 0.462274 0.272314
0.819608 0.473725 0.302745
0.857255 0.499608 0.357647
0.891451 0.523922 0.399059
0.925334 0.556706 0.450039
0.959530 0.594039 0.499137
0.996784 0.628941 0.541098
0.405020 0.393255 0.357961
0.418729 0.406965 0.371670
0.419733 0.413616 0.376439
0.426259 0.414369 0.379074
0.437051 0.423153 0.384094
0.439373 0.435608 0.396078
0.483608 0.466792 0.419074
0.606588 0.529788 0.388581
0.702588 0.546510 0.368188
0.777474 0.545506 0.337914
0.818353 0.542588 0.343372
0.853616 0.555827 0.392721
0.888000 0.579577 0.435608
0.926463 0.605051 0.481349
0.957678 0.635200 0.522855
0.995036 0.667046 0.570839
0.496628 0.488784 0.441726
0.508047 0.499702 0.454024
0.512596 0.500894 0.459388
0.514290 0.506447 0.459388
0.520502 0.509145 0.466855
0.528471 0.518275 0.478275
0.542714 0.528157 0.486714
0.570039 0.556016 0.499263
0.655780 0.597772 0.492612
0.730008 0.612674 0.467953
0.791372 0.619608 0.451765
0.844831 0.617851 0.443765
0.882980 0.627670 0.473286
0.921663 0.650322 0.511937
0.955953 0.675765 0.546730
0.994109 0.700011 0.578433
0.577098 0.569255 0.522196
0.582871 0.575027 0.527969
0.587075 0.578730 0.528627
0.589616 0.579890 0.533145
0.593788 0.581867 0.537349
0.599530 0.587922 0.542118
0.602635 0.597051 0.548769
0.613114 0.604141 0.557082
0.634071 0.620768 0.573804
0.695184 0.654180 0.567938
0.753726 0.672941 0.553726
0.816282 0.684047 0.545851
0.869428 0.693553 0.538196
0.918337 0.696157 0.546541
0.960627 0.715043 0.573145
0.998659 0.734226 0.601340
0.636706 0.625726 0.580235
0.643169 0.629177 0.584690
0.640031 0.630933 0.587325
0.642981 0.632879 0.586667
0.646118 0.635922 0.589428
0.647686 0.640784 0.594666
0.656000 0.641757 0.597522
0.657538 0.647529 0.602510
0.664502 0.655153 0.608345
0.676486 0.669584 0.622525
0.725490 0.695059 0.618667
0.788298 0.716988 0.613804
0.846086 0.732894 0.610039
0.902902 0.748173 0.606180
0.957741 0.755827 0.609788
0.999915 0.768737 0.627067
0.682353 0.674510 0.627451
0.682353 0.674510 0.627451
0.686275 0.677490 0.633255
0.687373 0.676078 0.631373
0.691294 0.680314 0.632471
0.692549 0.678431 0.638431
0.701961 0.686275 0.641255
0.699608 0.690196 0.647843
0.705882 0.694902 0.651608
0.711059 0.703216 0.656157
0.721569 0.713725 0.666667
0.771921 0.738039 0.669961
0.827294 0.767686 0.665726
0.886118 0.783373 0.664157
0.944628 0.801255 0.660863
0.999882 0.813302 0.664290
0.723922 0.716078 0.669020
0.725867 0.717019 0.672973
0.726086 0.718996 0.673443
0.729098 0.720973 0.674761
0.729192 0.719498 0.677678
0.731294 0.722824 0.676706
0.735247 0.727153 0.680847
0.740173 0.730353 0.689224
0.743341 0.735184 0.689067
0.748706 0.738196 0.699137
0.759216 0.746039 0.702275
0.769098 0.758337 0.720031
0.813647 0.787294 0.722667
0.866855 0.814494 0.713443
0.924580 0.835639 0.719184
0.980282 0.850958 0.723872
0.771137 0.759373 0.724079
0.771765 0.760000 0.724706
0.772957 0.760878 0.723702
0.770698 0.763733 0.725333
0.772141 0.766118 0.726588
0.777255 0.767373 0.730196
0.780329 0.773114 0.731325
0.785161 0.774839 0.736972
0.788580 0.781490 0.738949
0.795388 0.783121 0.747827
0.802980 0.790588 0.755294
0.803985 0.796926 0.760063
0.818886 0.810322 0.772957
0.854557 0.835639 0.773992
0.911624 0.860769 0.780800
0.959592 0.884513 0.780253
0.818510 0.809569 0.775216
0.821490 0.809725 0.776314
0.819922 0.810981 0.777568
0.823498 0.811733 0.778133
0.823874 0.815624 0.780706
0.825726 0.813961 0.781804
0.825882 0.821177 0.788925
0.831122 0.823592 0.790463
0.837396 0.828455 0.793726
0.840282 0.834165 0.798494
0.848314 0.838431 0.805019
0.848941 0.844706 0.817255
0.860988 0.853741 0.820078
0.872282 0.862212 0.834196
0.903404 0.885678 0.839404
0.945161 0.908939 0.845299
0.871059 0.859294 0.831843
0.873004 0.862651 0.834729
0.867169 0.865757 0.834855
0.873820 0.862620 0.838745
0.874071 0.868518 0.839153
0.877490 0.869490 0.840784
0.873443 0.871184 0.844580
0.878086 0.873537 0.852047
0.881882 0.877773 0.855906
0.888251 0.883420 0.861772
0.899137 0.887372 0.863059
0.898698 0.892110 0.870337
0.904533 0.899106 0.879498
0.912439 0.905161 0.886620
0.919969 0.915294 0.895686
0.938756 0.929539 0.907735
0.915200 0.911278 0.891671
0.919859 0.915937 0.898659
0.918461 0.914539 0.894932
0.920334 0.914549 0.897286
0.921412 0.917495 0.899426
0.921444 0.917537 0.901765
0.924130 0.920209 0.902154
0.927239 0.923330 0.906045
0.930692 0.930497 0.912924
0.934943 0.931021 0.915319
0.939466 0.935545 0.919859
0.941551 0.937621 0.919608
0.945048 0.948863 0.929304
0.952847 0.948957 0.941019
0.960345 0.956466 0.943876
0.963035 0.962267 0.949663
0.059608 0.059608 0.054902
0.061647 0.061647 0.056314
0.075921 0.070432 0.067294
0.088471 0.088471 0.080628
0.150275 0.125804 0.125490
0.284706 0.125490 0.157647
0.426510 0.116863 0.177098
0.576470 0.096157 0.188706
0.689412 0.141804 0.215372
0.768784 0.201098 0.241725
0.825882 0.261961 0.276079
0.866667 0.319216 0.317333
0.896314 0.378039 0.361725
0.929255 0.435922 0.410824
0.963922 0.492549 0.459922
0.997514 0.552808 0.518298
0.079843 0.079843 0.075764
0.083765 0.083765 0.075922
0.096408 0.093177 0.085334
0.120188 0.114761 0.104471
0.198118 0.133898 0.137694
0.316862 0.132235 0.159843
0.457663 0.128439 0.178196
0.584722 0.142306 0.189772
0.690886 0.184690 0.219043
0.768282 0.232533 0.246776
0.824784 0.282039 0.280157
0.860173 0.333678 0.318777
0.897945 0.388863 0.365835
0.925396 0.442604 0.411137
0.959404 0.498447 0.464910
0.996287 0.556885 0.512819
0.116235 0.112314 0.103216
0.127969 0.124047 0.113066
0.139922 0.136000 0.120000
0.192565 0.145632 0.142055
0.278337 0.153537 0.153255
0.379608 0.165647 0.167372
0.487623 0.187639 0.183937
0.602353 0.212204 0.201443
0.698478 0.245271 0.229522
0.772424 0.278212 0.252173
0.825412 0.319216 0.295216
0.858573 0.365867 0.329631
0.896345 0.413114 0.373145
0.927122 0.464471 0.423623
0.957145 0.519373 0.474980
0.998477 0.568999 0.524441
0.166275 0.162353 0.145255
0.182337 0.178415 0.161318
0.187670 0.184879 0.169381
0.239059 0.203294 0.163765
0.320596 0.219984 0.161663
0.417255 0.237804 0.176471
0.517804 0.259169 0.192502
0.620173 0.281757 0.212675
0.708235 0.308204 0.237239
0.773240 0.337945 0.266227
0.819922 0.367686 0.300235
0.855059 0.407529 0.343686
0.888941 0.449663 0.387388
0.922635 0.490196 0.436141
0.956549 0.539294 0.481569
0.998455 0.587474 0.535873
0.243451 0.239530 0.219922
0.251828 0.248283 0.227545
0.256439 0.252831 0.226667
0.264471 0.261616 0.232785
0.321632 0.290729 0.237271
0.449412 0.331608 0.213647
0.555200 0.349239 0.208439
0.649067 0.366431 0.226447
0.721725 0.388267 0.255749
0.779577 0.402980 0.288941
0.820863 0.425255 0.321882
0.855184 0.456283 0.362949
0.886118 0.492361 0.410573
0.919059 0.535592 0.464345
0.958651 0.572078 0.506071
0.999587 0.608723 0.548155
0.330196 0.318431 0.283137
0.338353 0.326588 0.291294
0.342588 0.330823 0.296784
0.341333 0.341333 0.309961
0.359059 0.345882 0.312941
0.408628 0.385098 0.325490
0.537412 0.440941 0.303529
0.659294 0.458039 0.273725
0.729569 0.464157 0.275137
0.778353 0.470117 0.311686
0.818039 0.488628 0.345882
0.848628 0.512157 0.396863
0.883451 0.539451 0.432941
0.914510 0.574118 0.482353
0.949333 0.604706 0.523137
0.986588 0.641490 0.563059
0.425568 0.413804 0.378510
0.434134 0.422369 0.387075
0.438432 0.428392 0.387922
0.440188 0.428423 0.393129
0.449161 0.437584 0.401851
0.452078 0.452078 0.412863
0.507451 0.485177 0.427953
0.620737 0.533616 0.401694
0.711310 0.549647 0.385443
0.775404 0.546604 0.367561
0.812549 0.550118 0.383843
0.847718 0.565741 0.427671
0.879561 0.589835 0.464910
0.915765 0.615843 0.508392
0.949773 0.644141 0.539545
0.987995 0.675682 0.584043
0.509804 0.501961 0.454902
0.521318 0.513475 0.466416
0.524549 0.513757 0.471467
0.524455 0.517553 0.473318
0.533647 0.520941 0.483576
0.539922 0.529568 0.485333
0.551184 0.538698 0.493930
0.582588 0.567749 0.509114
