example_ofxGpuLutCube/bin/data/ofxGpuLutCube/LUT/A43 (bright orange).cube
LUT_3D_SIZE 6
0.000000 0.000000 0.000000
0.156863 0.029804 0.024314
0.456470 0.066667 0.054118
0.784313 0.149020 0.120000
0.918431 0.306667 0.259608
0.999961 0.509647 0.462549
0.127059 0.124706 0.116863
0.157647 0.153098 0.132078
0.514039 0.263529 0.072470
0.790275 0.307921 0.153882
0.909019 0.397961 0.299765
1.000000 0.557529 0.496275
0.378039 0.378039 0.337255
0.410981 0.399216 0.363922
0.460235 0.450980 0.404392
0.776314 0.543216 0.317176
0.892549 0.566432 0.402823
0.995192 0.660275 0.552047
0.629020 0.619608 0.573334
0.636863 0.629020 0.578823
0.649255 0.640157 0.593725
0.676862 0.667451 0.618039
0.842667 0.733333 0.601569
0.996815 0.767019 0.612510
0.768627 0.755294 0.716863
0.769098 0.760157 0.720157
0.778039 0.767529 0.728471
0.794196 0.781647 0.744941
0.817098 0.809098 0.770039
0.959898 0.883859 0.774902
0.917569 0.913568 0.893961
0.917553 0.913631 0.894024
0.921491 0.917569 0.898737
0.933215 0.929294 0.910502
0.945812 0.944996 0.932377
0.964588 0.960745 0.952784
0.059608 0.059608 0.054902
0.088471 0.088471 0.080628
0.426510 0.116863 0.177098
0.768784 0.201098 0.241725
0.896314 0.378039 0.361725
0.997514 0.552808 0.518298
0.166275 0.162353 0.145255
0.239059 0.203294 0.163765
0.517804 0.259169 0.192502
0.773240 0.337945 0.266227
0.888941 0.449663 0.387388
0.998455 0.587474 0.535873
0.425568 0.413804 0.378510
0.440188 0.428423 0.393129
0.507451 0.485177 0.427953
0.775404 0.546604 0.367561
0.879561 0.589835 0.464910
0.987995 0.675682 0.584043
0.642196 0.628079 0.584157
0.648000 0.637083 0.596612
0.658228 0.647247 0.601820
0.685835 0.671529 0.623780
0.848502 0.735435 0.613145
0.995694 0.769228 0.628673
0.773333 0.761569 0.726275
0.778039 0.765239 0.725992
0.780957 0.774588 0.739482
0.798933 0.787357 0.748675
0.824439 0.812298 0.778133
0.960844 0.887779 0.785358
0.921412 0.917490 0.897882
0.921442 0.917520 0.900413
0.924130 0.920209 0.902159
0.931688 0.927729 0.912036
0.947039 0.948086 0.929915
0.966141 0.962235 0.949733
0.163137 0.159216 0.143529
0.189333 0.185412 0.168941
0.271216 0.270589 0.241098
0.646118 0.394039 0.429020
0.841569 0.498039 0.513725
0.975569 0.606965 0.600745
0.272471 0.270118 0.239529
0.295875 0.293522 0.262933
0.386918 0.373679 0.339419
0.713945 0.438055 0.452706
0.852831 0.537537 0.524110
0.975094 0.626282 0.611555
0.485804 0.477961 0.430902
0.521349 0.513506 0.466447
0.615718 0.555451 0.475137
0.752251 0.578165 0.503373
0.858981 0.630589 0.568314
0.983544 0.686077 0.632248
0.663843 0.656000 0.608941
0.669270 0.661427 0.614368
0.676361 0.668518 0.621333
0.717616 0.696345 0.639561
0.869961 0.740862 0.631373
0.999131 0.778124 0.672242
0.782432 0.770667 0.735373
0.788988 0.777224 0.741930
0.791843 0.786792 0.745788
0.805270 0.798306 0.761757
0.836455 0.823906 0.786949
0.978540 0.890004 0.799158
0.922259 0.918337 0.898729
0.923820 0.919898 0.900290
0.934308 0.922919 0.909678
0.939659 0.935738 0.920021
0.953137 0.949216 0.933529
0.972392 0.968486 0.960557
0.362353 0.350588 0.316863
0.384313 0.372549 0.337255
0.427451 0.414902 0.378823
0.525490 0.517647 0.470588
0.715608 0.639530 0.614588
0.904173 0.683891 0.697184
0.447373 0.437333 0.396863
0.464314 0.456157 0.410039
0.494526 0.486683 0.439624
0.581177 0.568376 0.527561
0.744188 0.646118 0.628894
0.923156 0.690162 0.697812
0.578823 0.565961 0.521412
0.600063 0.592220 0.545161
0.619984 0.609631 0.563827
0.683074 0.649286 0.611639
0.819639 0.675231 0.656973
0.969475 0.711628 0.710516
0.684079 0.676235 0.629177
0.694055 0.684957 0.638525
0.714384 0.700267 0.656345
0.767529 0.720094 0.662871
0.878651 0.743686 0.674165
0.995339 0.782080 0.734204
0.804549 0.792784 0.757490
0.807279 0.795514 0.760220
0.810353 0.804236 0.770698
0.826541 0.813773 0.778479
0.861051 0.844675 0.802353
0.997267 0.893631 0.803769
0.933215 0.929294 0.912792
0.932936 0.929015 0.913320
0.937013 0.933091 0.917366
0.947490 0.943584 0.924784
0.960197 0.956279 0.942152
0.973247 0.972431 0.964588
0.602353 0.594510 0.547451
0.610196 0.602353 0.555294
0.626980 0.619137 0.572078
0.652549 0.644706 0.597647
0.695529 0.687686 0.640627
0.794408 0.778722 0.743427
0.632157 0.624314 0.577255
0.638996 0.631153 0.584094
0.653365 0.645521 0.598463
0.672188 0.664345 0.617286
0.714196 0.705098 0.659232
0.803216 0.789098 0.753804
0.687530 0.679058 0.632314
0.690196 0.682353 0.635294
0.698824 0.690981 0.643922
0.713380 0.705537 0.658479
0.751247 0.743529 0.702118
0.867299 0.803079 0.786585
0.737882 0.730039 0.682981
0.743404 0.734306 0.691012
0.758526 0.750369 0.704251
0.772800 0.761820 0.724173
0.819733 0.800157 0.771075
0.946143 0.832897 0.826304
0.821804 0.810039 0.776000
0.824314 0.812549 0.780392
0.836235 0.826353 0.797898
0.855028 0.852204 0.821773
0.905914 0.874541 0.828016
0.999945 0.898791 0.854383
0.944965 0.941043 0.925357
0.944398 0.940476 0.924791
0.953139 0.949218 0.933531
0.960997 0.957076 0.944496
0.966204 0.966180 0.958337
0.982698 0.982675 0.974785
0.772353 0.760627 0.725215
0.774738 0.763012 0.727600
0.781082 0.769317 0.734023
0.799067 0.787302 0.752008
0.817122 0.805357 0.770062
0.850862 0.839098 0.811569
0.784157 0.772392 0.737098
0.787451 0.775687 0.740392
0.792816 0.781051 0.745757
0.810824 0.799059 0.763765
0.825926 0.814162 0.778867
0.860197 0.848502 0.821027
0.812432 0.800667 0.765373
0.814482 0.802717 0.767423
0.820463 0.808698 0.779616
0.835176 0.823411 0.788117
0.852726 0.840962 0.813473
0.880573 0.871255 0.842988
0.853969 0.842204 0.814674
0.854031 0.842267 0.814737
0.861837 0.850072 0.822621
0.867396 0.864949 0.834392
0.878888 0.878770 0.847437
0.909710 0.905788 0.886181
0.899506 0.895584 0.875977
0.901059 0.897138 0.877530
0.907336 0.903415 0.883807
0.917580 0.913658 0.894051
0.929956 0.926035 0.910325
0.954502 0.950580 0.937999
0.960705 0.956784 0.941097
0.963051 0.962973 0.954974
0.965474 0.967702 0.950634
0.973286 0.973208 0.965365
0.985851 0.985851 0.978008
0.999922 0.999922 0.999921
