example_ofxGpuLutCube/bin/data/ofxGpuLutCube/LUT/A44 (gray fade).cube
LUT_3D_SIZE 6
0.180392 0.235294 0.278431
0.187451 0.240000 0.275294
0.352157 0.243137 0.301961
0.519216 0.253333 0.313725
0.682353 0.312941 0.353726
0.886157 0.392118 0.435216
0.178824 0.273725 0.294902
0.211451 0.275294 0.292392
0.339608 0.294118 0.298824
0.487843 0.309333 0.312314
0.652235 0.361725 0.365020
0.873608 0.425859 0.436016
0.160784 0.421961 0.315294
0.225098 0.418353 0.313098
0.353255 0.413334 0.322510
0.452549 0.406275 0.341333
0.585412 0.427922 0.379922
0.830432 0.506557 0.449380
0.249411 0.592941 0.407059
0.289255 0.589020 0.409098
0.386510 0.589647 0.411137
0.505883 0.573961 0.412079
0.618823 0.565804 0.413804
0.819483 0.612533 0.461137
0.374118 0.798431 0.531764
0.407216 0.803294 0.536628
0.493333 0.800784 0.542745
0.600000 0.796549 0.539608
0.719059 0.783686 0.532549
0.872039 0.792165 0.550581
0.686001 0.929334 0.768431
0.701749 0.929396 0.772416
0.730769 0.933255 0.784855
0.783365 0.930926 0.796690
0.836722 0.930886 0.805216
0.901961 0.929412 0.800116
0.184314 0.253333 0.328627
0.203765 0.250980 0.322823
0.362667 0.241412 0.348706
0.493961 0.302902 0.387294
0.680471 0.366274 0.444235
0.891631 0.429726 0.504235
0.166588 0.286118 0.332078
0.220141 0.282886 0.333678
0.340674 0.312251 0.358400
0.475577 0.358714 0.402102
0.658071 0.397961 0.441663
0.880194 0.460485 0.509144
0.209098 0.410039 0.378196
0.257412 0.408188 0.380769
0.345506 0.412424 0.388141
0.435859 0.413835 0.400565
0.599279 0.452737 0.435671
0.846687 0.524165 0.499865
0.269020 0.576314 0.453647
0.306196 0.576376 0.453835
0.396329 0.584031 0.465067
0.502212 0.571106 0.460361
0.615843 0.565019 0.457977
0.810192 0.613092 0.498457
0.397647 0.797020 0.576157
0.424941 0.793788 0.577443
0.505537 0.794980 0.579827
0.613929 0.793506 0.588580
0.720627 0.779357 0.568000
0.865766 0.792156 0.582733
0.703247 0.930902 0.781796
0.709553 0.929334 0.784149
0.742358 0.930623 0.795882
0.791224 0.930133 0.811566
0.843763 0.929340 0.818447
0.899569 0.923223 0.813278
0.012549 0.254902 0.489412
0.198118 0.249725 0.492863
0.370353 0.252078 0.503686
0.496471 0.304470 0.491137
0.675294 0.366745 0.539608
0.897882 0.465773 0.621130
0.180078 0.315294 0.486432
0.246306 0.321255 0.480314
0.359216 0.338572 0.481757
0.482730 0.367059 0.492298
0.671498 0.416251 0.550557
0.889597 0.511777 0.636765
0.236863 0.429020 0.488471
0.280941 0.426290 0.484831
0.375561 0.445521 0.500549
0.488000 0.468612 0.522886
0.670180 0.528188 0.584596
0.865177 0.601660 0.657829
0.290667 0.578196 0.545725
0.327247 0.575530 0.546259
0.418667 0.590682 0.559090
0.527373 0.595012 0.567686
0.615561 0.574745 0.548957
0.828046 0.642425 0.613542
0.428392 0.789333 0.654902
0.465631 0.786478 0.656784
0.536878 0.789177 0.671028
0.635514 0.797741 0.675639
0.725992 0.779043 0.657412
0.861376 0.795887 0.663944
0.733098 0.929357 0.824941
0.735155 0.923562 0.822463
0.763405 0.927928 0.824983
0.803175 0.928681 0.838452
0.855048 0.929641 0.851070
0.898077 0.929342 0.839262
0.109020 0.277647 0.688627
0.229020 0.274039 0.698196
0.391216 0.306510 0.699294
0.548549 0.343059 0.692392
0.691294 0.375687 0.691294
0.904925 0.454824 0.746557
0.222274 0.366118 0.683922
0.280690 0.373490 0.683043
0.399624 0.384000 0.683796
0.542682 0.397271 0.683859
0.687310 0.422494 0.692235
0.894152 0.507068 0.749931
0.273883 0.481882 0.674196
0.317898 0.484016 0.668518
0.416251 0.495028 0.673035
0.532329 0.506165 0.676706
0.679121 0.523765 0.696596
0.882204 0.607012 0.758687
0.325019 0.615686 0.695843
0.363074 0.611263 0.690886
0.451545 0.623655 0.695906
0.575843 0.643137 0.707326
0.719906 0.672565 0.736628
0.870037 0.761837 0.799223
0.436706 0.790588 0.752157
0.465412 0.787765 0.745820
0.548455 0.790902 0.754698
0.667796 0.798212 0.774055
0.751687 0.797522 0.773804
0.855729 0.799466 0.763076
0.728471 0.929341 0.852518
0.741578 0.928565 0.856679
0.785500 0.925903 0.868740
0.821201 0.924798 0.873013
0.864706 0.927489 0.884317
0.902706 0.926235 0.877600
0.261176 0.362353 0.880784
0.323608 0.369412 0.880628
0.444549 0.389020 0.880471
0.586980 0.416627 0.873568
0.734745 0.456314 0.872000
0.888494 0.512902 0.883843
0.310588 0.437647 0.873412
0.355765 0.438275 0.876078
0.461898 0.450824 0.873443
0.596706 0.476298 0.872659
0.739420 0.513976 0.876361
0.885550 0.552927 0.881576
0.409412 0.569726 0.862118
0.435796 0.570322 0.862400
0.511749 0.577663 0.866980
0.620988 0.589898 0.863749
0.744533 0.610949 0.865161
0.880842 0.644822 0.878535
0.484549 0.693177 0.867451
0.505537 0.693992 0.862494
0.575529 0.703341 0.858164
0.670400 0.714823 0.860894
0.765051 0.730855 0.866165
0.883650 0.756036 0.881059
0.573333 0.809255 0.867451
0.587702 0.808628 0.866479
0.639247 0.810792 0.868110
0.713004 0.816533 0.866730
0.801726 0.833349 0.873161
0.888720 0.861291 0.891744
0.744902 0.929294 0.905843
0.750446 0.926955 0.907426
0.780514 0.921872 0.906183
0.823430 0.927744 0.911313
0.885235 0.924529 0.920568
0.915992 0.923898 0.919930
0.501647 0.548746 0.972510
0.525223 0.560510 0.972463
0.589608 0.579380 0.968611
0.683773 0.610745 0.965451
0.783412 0.650768 0.966996
0.874432 0.697765 0.960745
0.551137 0.612329 0.965482
0.573078 0.616265 0.967018
0.625228 0.631939 0.967366
0.706510 0.657059 0.968244
0.793649 0.690460 0.959834
0.878391 0.721404 0.956901
0.641396 0.712808 0.953812
0.658593 0.720414 0.962629
0.690969 0.725045 0.961815
0.749975 0.741785 0.963042
0.820147 0.755164 0.957763
0.882282 0.770141 0.949882
0.728510 0.807020 0.952133
0.736850 0.807517 0.950286
0.756212 0.810182 0.949161
0.794477 0.811782 0.949809
0.839997 0.823332 0.948527
0.890188 0.829781 0.945851
0.762314 0.868196 0.947443
0.768569 0.866659 0.945065
0.793501 0.868231 0.941937
0.825077 0.876058 0.941159
0.868193 0.880607 0.937586
0.899577 0.883969 0.938831
0.803842 0.925411 0.937177
0.811647 0.925451 0.941098
0.823428 0.921561 0.937255
0.854047 0.924643 0.940330
0.897115 0.923875 0.937177
0.917646 0.921569 0.937255
