example_ofxGpuLutCube/bin/data/ofxGpuLutCube/LUT/A44 (gray fade).cube
LUT_3D_SIZE 16
0.180392 0.235294 0.278431
0.180392 0.235294 0.278431
0.182745 0.237647 0.280784
0.187451 0.240000 0.275294
0.225098 0.242353 0.286275
0.290196 0.250980 0.294118
0.352157 0.243137 0.301961
0.421177 0.237647 0.307451
0.472157 0.236079 0.309804
0.519216 0.253333 0.313725
0.568627 0.270588 0.321569
0.621961 0.294118 0.334117
0.682353 0.312941 0.353726
0.742745 0.339608 0.373333
0.821176 0.367843 0.403922
0.886157 0.392118 0.435216
0.184314 0.231373 0.278431
0.180392 0.235294 0.278431
0.181647 0.234039 0.279372
0.197177 0.240784 0.279373
0.234666 0.245333 0.292392
0.294902 0.247843 0.301177
0.356863 0.243294 0.303373
0.421647 0.244392 0.307137
0.467765 0.250980 0.306980
0.517804 0.262745 0.310274
0.563922 0.280000 0.322353
0.616784 0.300392 0.332235
0.679059 0.324549 0.357333
0.741961 0.347451 0.378823
0.819451 0.376314 0.406117
0.883780 0.396847 0.434471
0.178824 0.238431 0.280000
0.178824 0.238431 0.280000
0.180392 0.240000 0.284392
0.203137 0.246118 0.289412
0.238118 0.253490 0.294589
0.287843 0.258039 0.296471
0.350275 0.261491 0.299765
0.408000 0.264627 0.302588
0.458824 0.274666 0.304000
0.503686 0.281882 0.308706
0.551373 0.301176 0.323137
0.610981 0.314981 0.335686
0.666039 0.337882 0.362666
0.735216 0.361725 0.386039
0.809255 0.387451 0.408314
0.881396 0.414808 0.438337
0.178824 0.273725 0.294902
0.177098 0.271059 0.292549
0.180392 0.274353 0.293177
0.211451 0.275294 0.292392
0.243451 0.280314 0.290353
0.287843 0.284706 0.297255
0.339608 0.294118 0.298824
0.394980 0.292549 0.303059
0.446118 0.301176 0.301804
0.487843 0.309333 0.312314
0.537255 0.322353 0.323922
0.599215 0.338824 0.345882
0.652235 0.361725 0.365020
0.722980 0.381961 0.386510
0.807373 0.404235 0.416000
0.873608 0.425859 0.436016
0.152941 0.318432 0.287844
0.159530 0.315765 0.289098
0.180706 0.315608 0.289725
0.214431 0.323137 0.296471
0.255843 0.323137 0.293334
0.297255 0.323137 0.293334
0.342745 0.326432 0.294589
0.379922 0.325490 0.294589
0.420706 0.331294 0.307765
0.467765 0.339451 0.321569
0.511373 0.348236 0.327059
0.573333 0.368470 0.353725
0.633882 0.386510 0.368785
0.703529 0.409098 0.389647
0.790274 0.427765 0.411294
0.864188 0.450157 0.436000
0.145098 0.376471 0.290196
0.158432 0.373333 0.283137
0.185882 0.376471 0.290196
0.220392 0.378039 0.294118
0.268235 0.375687 0.300392
0.305882 0.372549 0.298039
0.342745 0.367843 0.305882
0.385098 0.365490 0.309804
0.416471 0.364706 0.320000
0.452549 0.367843 0.326274
0.486275 0.380392 0.337255
0.544313 0.390588 0.362353
0.611765 0.410980 0.377255
0.682353 0.425882 0.392941
0.765490 0.454118 0.418039
0.846941 0.478353 0.439216
0.160784 0.421961 0.315294
0.169411 0.414745 0.313882
0.192157 0.420235 0.311686
0.225098 0.418353 0.313098
0.263373 0.422588 0.319216
0.302745 0.420392 0.318431
0.353255 0.413334 0.322510
0.382118 0.410196 0.322196
0.420392 0.405491 0.330667
0.452549 0.406275 0.341333
0.483137 0.409412 0.354510
0.524549 0.414745 0.367686
0.585412 0.427922 0.379922
0.660392 0.452235 0.402667
0.744941 0.475922 0.424628
0.830432 0.506557 0.449380
0.192941 0.471373 0.345882
0.200314 0.465569 0.338667
0.222588 0.466510 0.344941
0.250353 0.469177 0.346039
0.281412 0.469490 0.352941
0.320000 0.471373 0.348235
0.353255 0.467137 0.349020
0.393098 0.460079 0.355294
0.423686 0.455843 0.360941
0.457569 0.451451 0.361882
0.495686 0.447843 0.371765
0.537098 0.453804 0.380392
0.578039 0.461177 0.389333
0.634510 0.472784 0.399843
0.724863 0.501961 0.423215
0.820188 0.530886 0.451679
0.224314 0.527059 0.375686
0.231844 0.519373 0.373333
0.244706 0.520157 0.377255
0.270745 0.520784 0.378824
0.301019 0.526588 0.382275
0.341176 0.526275 0.380392
0.367530 0.525647 0.387451
0.406118 0.518275 0.388079
0.443137 0.511059 0.383686
0.477490 0.506196 0.384785
0.509804 0.501176 0.385098
0.550902 0.504157 0.397961
0.597490 0.510588 0.405020
0.651137 0.517804 0.410510
0.713726 0.531765 0.422745
0.795898 0.556792 0.444635
0.249411 0.592941 0.407059
0.250823 0.585725 0.403765
0.265726 0.586353 0.406274
0.289255 0.589020 0.409098
0.318588 0.588235 0.412706
0.359215 0.590588 0.418039
0.386510 0.589647 0.411137
0.430118 0.586980 0.412079
0.467137 0.582118 0.414431
0.505883 0.573961 0.412079
0.538823 0.568627 0.410196
0.576157 0.564862 0.414274
0.618823 0.565804 0.413804
0.675452 0.574118 0.420549
0.744941 0.592157 0.442823
0.819483 0.612533 0.461137
0.270588 0.658824 0.435294
0.274510 0.658824 0.435294
0.294118 0.658824 0.440000
0.310588 0.654902 0.437647
0.342745 0.661961 0.442353
0.376471 0.662745 0.447059
0.418039 0.663529 0.446275
0.457255 0.658824 0.445490
0.493333 0.654902 0.447059
0.535686 0.647059 0.446275
0.568627 0.647059 0.447059
0.609412 0.630589 0.443137
0.647843 0.629020 0.440784
0.699608 0.635294 0.445490
0.769412 0.653333 0.458824
0.842941 0.670549 0.478313
0.310588 0.739608 0.482353
0.312784 0.730824 0.471216
0.330353 0.738353 0.480000
0.352000 0.735216 0.481883
0.377883 0.734118 0.481882
0.409412 0.733334 0.481568
0.444392 0.733490 0.486118
0.489098 0.736314 0.496000
0.530039 0.733961 0.491451
0.570667 0.731922 0.488628
0.610980 0.722353 0.490196
0.653176 0.714980 0.482196
0.685019 0.704784 0.477019
0.738980 0.706353 0.482667
0.804078 0.722510 0.494275
0.867287 0.742651 0.519106
0.374118 0.798431 0.531764
0.376628 0.800000 0.533333
0.388549 0.799059 0.528471
0.407216 0.803294 0.536628
0.435608 0.798745 0.535216
0.461176 0.802353 0.535686
0.493333 0.800784 0.542745
0.530981 0.806274 0.549019
0.565333 0.801412 0.544157
0.600000 0.796549 0.539608
0.641568 0.794510 0.539608
0.682667 0.787921 0.538667
0.719059 0.783686 0.532549
0.760628 0.779451 0.526432
0.819608 0.785412 0.540392
0.872039 0.792165 0.550581
0.469019 0.860392 0.606274
0.475608 0.859294 0.605490
0.481725 0.862902 0.611765
0.497882 0.863373 0.614745
0.513569 0.858039 0.610353
0.535686 0.861961 0.614118
0.561568 0.857255 0.612549
0.592314 0.859608 0.618196
0.626824 0.859608 0.625255
0.657726 0.856157 0.626667
0.685490 0.858039 0.623530
0.718745 0.853020 0.620236
0.752627 0.848314 0.608471
0.794667 0.847686 0.614118
0.832628 0.850510 0.611137
0.876753 0.858023 0.626612
0.562353 0.900392 0.673725
0.566431 0.897098 0.673725
0.567059 0.896470 0.673725
0.583529 0.897255 0.678431
0.594980 0.898824 0.684863
0.610196 0.899608 0.683138
0.633412 0.897098 0.687686
0.660863 0.896941 0.695529
0.686118 0.896470 0.701176
0.709490 0.899765 0.702431
0.730980 0.896470 0.704314
0.756549 0.899765 0.698039
0.786980 0.893961 0.702745
0.822431 0.896157 0.703216
0.849098 0.896314 0.704157
0.886965 0.896502 0.709796
0.686001 0.929334 0.768431
0.693804 0.933255 0.772353
0.699341 0.926988 0.770008
0.701749 0.929396 0.772416
0.709514 0.932439 0.773161
0.717490 0.933255 0.780235
0.730769 0.933255 0.784855
0.747984 0.930902 0.789529
0.767623 0.935569 0.794274
0.783365 0.930926 0.796690
0.799843 0.933255 0.803648
0.824863 0.929373 0.800510
0.836722 0.930886 0.805216
0.861883 0.931702 0.806039
0.877670 0.931702 0.804573
0.901961 0.929412 0.800116
0.180392 0.235294 0.278431
0.181020 0.235922 0.279059
0.179765 0.236078 0.278745
0.191843 0.240157 0.279686
0.232314 0.249568 0.293490
0.290980 0.251764 0.294902
0.354196 0.243765 0.302588
0.419765 0.241255 0.306353
0.472941 0.248470 0.305098
0.520314 0.266196 0.315137
0.564706 0.283137 0.331765
0.621333 0.308235 0.351373
0.680784 0.332549 0.379608
0.753725 0.349804 0.401569
0.823529 0.372706 0.417725
0.890008 0.403036 0.448581
0.180549 0.235451 0.278588
0.180392 0.235294 0.278431
0.179702 0.236016 0.278682
0.203985 0.242259 0.281945
0.240690 0.250102 0.296376
0.298353 0.249725 0.297569
0.360251 0.249004 0.303341
0.416220 0.250698 0.301051
0.463843 0.258353 0.306572
0.516769 0.278337 0.321349
0.558275 0.293177 0.335529
0.612486 0.314196 0.354792
0.674698 0.338227 0.378259
0.746322 0.360847 0.401914
0.818322 0.383655 0.421992
0.894394 0.408524 0.451032
0.178824 0.238431 0.280000
0.181459 0.237114 0.280000
0.182902 0.239121 0.280816
0.206777 0.246180 0.284769
0.238683 0.255310 0.291984
0.291765 0.263843 0.296628
0.351749 0.269334 0.301333
0.409224 0.273913 0.305757
0.455059 0.279812 0.312627
0.499953 0.292424 0.323137
0.548392 0.313412 0.340078
0.608314 0.331012 0.362604
0.670651 0.353035 0.382745
0.734274 0.373835 0.402259
0.808879 0.394886 0.424314
0.882356 0.416573 0.450755
0.183215 0.274666 0.293020
0.179702 0.271153 0.289035
0.192000 0.273945 0.290133
0.216000 0.275765 0.293114
0.244549 0.279843 0.290918
0.288157 0.287059 0.300549
0.342525 0.293553 0.301804
0.394886 0.298196 0.308204
0.441663 0.308643 0.315576
0.485177 0.319310 0.330635
0.532706 0.336157 0.349804
0.590055 0.353004 0.364047
0.654400 0.371765 0.385945
0.728251 0.389804 0.403325
0.805302 0.411263 0.427326
0.875909 0.439910 0.453893
0.161725 0.317020 0.296157
0.167090 0.315420 0.295749
0.191153 0.315796 0.294902
0.221239 0.320377 0.300957
0.256471 0.322980 0.302118
0.295530 0.320628 0.297883
0.332643 0.325208 0.307670
0.376690 0.327122 0.314917
0.416377 0.333616 0.318996
0.464220 0.346949 0.338415
0.511216 0.360000 0.350588
0.571670 0.374965 0.370698
0.635671 0.393004 0.388957
0.706698 0.412486 0.406463
0.788988 0.433098 0.430055
0.865280 0.454700 0.451545
0.160784 0.371765 0.309020
0.163607 0.368627 0.301020
0.196235 0.367529 0.302431
0.224314 0.371765 0.305882
0.264157 0.371921 0.313098
0.301961 0.372549 0.312941
0.336941 0.368000 0.319059
0.377098 0.367059 0.323138
0.410039 0.365490 0.332078
0.448000 0.371294 0.345098
0.493334 0.381176 0.356863
0.549804 0.396862 0.376000
0.614431 0.416000 0.391059
0.685961 0.436079 0.405961
0.771922 0.460549 0.427608
0.850847 0.482282 0.450941
0.170823 0.415216 0.323137
0.180737 0.412580 0.322918
0.202071 0.415122 0.326431
0.234824 0.417474 0.333584
0.267671 0.418102 0.334557
0.306039 0.417255 0.332549
0.345161 0.411702 0.337317
0.381992 0.412204 0.344345
0.417506 0.408847 0.350149
0.451451 0.408157 0.359059
0.485490 0.410039 0.367059
0.524141 0.414871 0.373490
0.590620 0.436769 0.392282
0.663027 0.456471 0.411263
0.747576 0.479341 0.430808
0.831556 0.506759 0.453631
0.205804 0.468392 0.360000
0.214306 0.461898 0.356957
0.229553 0.462965 0.361945
0.255404 0.464816 0.360972
0.284487 0.469961 0.364235
0.323294 0.466510 0.368314
0.354510 0.466008 0.365961
0.391215 0.460863 0.369569
0.421804 0.458133 0.369631
0.457663 0.452236 0.373929
0.494745 0.457255 0.385569
0.531576 0.457380 0.386008
0.578886 0.463216 0.398274
0.634761 0.477867 0.406588
0.728031 0.502839 0.429522
0.823341 0.530157 0.462651
0.233412 0.518902 0.387294
0.241725 0.516800 0.384408
0.251984 0.519968 0.385883
0.277929 0.518086 0.387043
0.304659 0.522541 0.392063
0.338196 0.525019 0.394510
0.370855 0.522604 0.395890
0.409004 0.516079 0.395231
0.439121 0.512816 0.398306
0.474541 0.506980 0.398212
0.511686 0.503059 0.397961
0.551216 0.504219 0.404581
0.597302 0.511278 0.413866
0.651137 0.518557 0.416376
0.714353 0.532141 0.427765
0.795470 0.555220 0.450108
0.250823 0.585098 0.412863
0.259702 0.583153 0.413114
0.267984 0.583906 0.414180
0.289977 0.584784 0.412235
0.322510 0.584816 0.414776
0.354196 0.589020 0.418824
0.392408 0.587734 0.423498
0.430933 0.584345 0.422933
0.467043 0.579106 0.421866
0.506447 0.570824 0.419953
0.538353 0.567843 0.425255
0.573333 0.561726 0.417725
0.618541 0.563545 0.427357
0.672314 0.573208 0.433851
0.747608 0.592157 0.450824
0.812896 0.614993 0.463520
0.270588 0.658824 0.447059
0.276079 0.654118 0.443921
0.293333 0.653333 0.447059
0.312470 0.656157 0.447059
0.340862 0.655059 0.447373
0.373333 0.658824 0.453333
0.412863 0.659451 0.456314
0.455686 0.658824 0.456471
0.492863 0.652863 0.453647
0.530823 0.648784 0.453333
0.568627 0.639216 0.450980
0.609255 0.630432 0.449568
0.644706 0.626039 0.441726
0.698510 0.636078 0.454745
0.768627 0.650196 0.469019
0.835176 0.666628 0.490118
0.315294 0.732706 0.489098
0.314353 0.730039 0.485334
0.330855 0.728157 0.487247
0.349522 0.730071 0.487341
0.379733 0.730447 0.491639
0.412549 0.735686 0.492549
0.446588 0.734934 0.494494
0.490478 0.738196 0.500298
0.529349 0.733553 0.501176
0.568627 0.729568 0.500110
0.609725 0.721569 0.492863
0.652894 0.713600 0.496094
0.684361 0.707388 0.483670
0.737819 0.707608 0.487718
0.799216 0.720000 0.501647
0.861075 0.734574 0.521360
0.374118 0.796863 0.535686
0.375059 0.796392 0.535686
0.389302 0.798055 0.536502
0.404706 0.798902 0.541019
0.427639 0.799686 0.540925
0.459765 0.797019 0.542117
0.494432 0.801882 0.547388
0.528753 0.801694 0.553129
0.569286 0.800000 0.550996
0.602259 0.796078 0.550463
0.644078 0.791059 0.546510
0.681192 0.785663 0.543059
0.716423 0.780675 0.535655
0.757710 0.780424 0.537130
0.814557 0.785004 0.539796
0.869710 0.794184 0.550611
0.475608 0.858039 0.610353
0.475985 0.858667 0.609098
0.480785 0.857631 0.610761
0.497945 0.859169 0.615874
0.513286 0.857568 0.616784
0.536785 0.859922 0.618196
0.563639 0.856941 0.620894
0.593067 0.858792 0.626416
0.626071 0.857757 0.628894
0.657412 0.858918 0.632659
0.685961 0.858039 0.624942
0.720220 0.850259 0.623028
0.756800 0.848941 0.619420
0.793412 0.845710 0.619326
0.834886 0.847059 0.617882
0.875823 0.855668 0.630079
0.569569 0.898980 0.679059
0.566714 0.896125 0.681224
0.573616 0.897663 0.684361
0.582902 0.896564 0.677930
0.600439 0.896502 0.687435
0.609255 0.897098 0.686902
0.632408 0.897349 0.688973
0.658635 0.898353 0.698980
0.684079 0.894745 0.701961
0.709804 0.893208 0.706008
0.733647 0.898353 0.708549
0.756957 0.899451 0.701333
0.788957 0.895937 0.705349
0.821396 0.896376 0.705129
0.852894 0.897694 0.708392
0.886208 0.893169 0.706565
0.693028 0.932478 0.771576
0.687412 0.929969 0.769066
0.691975 0.931357 0.770489
0.695469 0.932439 0.772353
0.706292 0.926409 0.773194
0.716635 0.932439 0.779420
0.730897 0.931663 0.784039
0.746781 0.929652 0.788295
0.763710 0.931189 0.792380
0.784149 0.929368 0.796070
0.806094 0.930110 0.803726
0.817311 0.932624 0.799991
0.839083 0.932772 0.808503
0.856135 0.929235 0.808038
0.877005 0.931112 0.803958
0.901883 0.929412 0.801583
0.185882 0.240784 0.291765
0.188078 0.242980 0.293961
0.182745 0.240784 0.291765
0.201255 0.243608 0.287843
0.237647 0.247059 0.297255
0.295686 0.247059 0.306667
0.355451 0.243608 0.315765
0.413020 0.250980 0.324706
0.458039 0.270432 0.337255
0.500079 0.290510 0.356078
0.552941 0.311372 0.371765
0.612392 0.330353 0.388235
0.677647 0.346353 0.407059
0.749176 0.367372 0.423686
0.825726 0.388235 0.450980
0.891616 0.414824 0.476769
0.179921 0.242666 0.293647
0.182588 0.243639 0.294620
0.184690 0.241098 0.292079
0.208126 0.244894 0.292612
0.247623 0.246055 0.300800
0.301961 0.252863 0.313882
0.352094 0.257443 0.322479
0.405647 0.267608 0.330102
0.452016 0.280973 0.344439
0.499514 0.297945 0.356894
0.551373 0.317961 0.373490
0.605898 0.338039 0.390086
0.674133 0.353506 0.407937
0.742588 0.375122 0.426353
0.822212 0.396549 0.450635
0.892540 0.420477 0.472273
0.177098 0.244863 0.295216
0.179608 0.244236 0.294274
0.183906 0.247404 0.297443
0.206369 0.250604 0.297663
0.242353 0.259796 0.305914
0.291922 0.267451 0.317176
0.342243 0.278118 0.321349
0.394353 0.287310 0.333365
0.438369 0.299890 0.341710
0.489004 0.315231 0.359718
0.537569 0.331137 0.377098
0.601349 0.348863 0.391373
0.664345 0.365804 0.411043
0.735749 0.384188 0.426761
0.813333 0.403922 0.447749
0.882190 0.428640 0.471129
0.173490 0.273725 0.304000
0.179357 0.273380 0.304282
0.193255 0.275043 0.305600
0.213835 0.274478 0.306196
0.242667 0.283671 0.314541
0.290196 0.290667 0.319059
0.338008 0.297757 0.325114
0.386698 0.308675 0.338227
0.431812 0.320847 0.343027
0.479279 0.335749 0.362416
0.526118 0.349647 0.375216
0.588831 0.367372 0.393976
0.653804 0.381584 0.410039
0.727059 0.400941 0.427828
0.807749 0.420831 0.453490
0.877490 0.446974 0.471162
0.172392 0.315765 0.315608
0.176126 0.312627 0.314886
0.196486 0.312564 0.313976
0.221521 0.316737 0.316580
0.250196 0.320345 0.318337
0.289412 0.323294 0.323608
0.327529 0.324329 0.330196
0.370259 0.330980 0.338008
0.415875 0.343529 0.350243
0.462118 0.354008 0.364894
0.509804 0.371137 0.376784
0.569632 0.385286 0.394541
0.635890 0.400721 0.408251
0.709678 0.421553 0.430400
0.793255 0.442416 0.451514
0.867443 0.463156 0.473961
0.172549 0.368627 0.333333
0.179608 0.362823 0.327059
0.202196 0.364706 0.328627
0.231216 0.366588 0.334118
0.265098 0.366588 0.335686
0.301961 0.368627 0.337255
0.331294 0.368156 0.337569
0.368627 0.364706 0.345726
0.405177 0.368627 0.353569
0.444236 0.375687 0.368000
0.489412 0.389804 0.378823
0.552941 0.402353 0.399216
0.616628 0.423686 0.411451
0.692078 0.440627 0.429333
0.773804 0.467137 0.448784
0.857059 0.492463 0.472871
0.194510 0.413334 0.352627
0.200094 0.405867 0.348235
0.219608 0.408251 0.350933
0.243420 0.412392 0.354886
0.274070 0.413428 0.354479
0.306980 0.412392 0.356392
0.344345 0.411357 0.361318
0.377129 0.407592 0.359906
0.410980 0.406463 0.367686
0.441255 0.412016 0.371074
0.478588 0.412549 0.382745
0.520063 0.421365 0.395890
0.593318 0.442447 0.410667
0.666227 0.464314 0.431153
0.747388 0.485114 0.445114
0.840099 0.513968 0.472097
0.221333 0.461647 0.375529
0.230557 0.456533 0.375247
0.244298 0.458667 0.378008
0.267922 0.458886 0.380706
0.293836 0.460831 0.386196
0.324549 0.465569 0.388392
0.356078 0.463718 0.385883
0.387890 0.457757 0.386416
0.415529 0.457098 0.388862
0.451670 0.450761 0.391466
0.487843 0.454745 0.397177
0.528126 0.459765 0.400439
0.574212 0.463467 0.412894
0.641035 0.482353 0.425349
0.733051 0.509898 0.447655
0.823350 0.539659 0.475223
0.245490 0.519843 0.407216
0.252267 0.511310 0.404047
0.260518 0.512690 0.407592
0.281725 0.514259 0.409537
0.311529 0.515985 0.410792
0.342902 0.519216 0.412235
0.372078 0.520157 0.412863
0.408377 0.515294 0.409883
0.439655 0.509302 0.411231
0.470274 0.503780 0.411294
0.504314 0.501176 0.408942
0.547451 0.505600 0.415624
0.595765 0.509490 0.423717
0.647059 0.516329 0.431185
0.711090 0.530384 0.439341
0.799024 0.560684 0.467536
0.262274 0.581334 0.434039
0.265663 0.576816 0.433192
0.278369 0.578416 0.429020
0.297945 0.581365 0.432314
0.323451 0.583153 0.431686
0.360000 0.585882 0.433883
0.394761 0.585757 0.440722
0.433914 0.584377 0.442729
0.468549 0.578667 0.437584
0.504784 0.572455 0.434855
0.536941 0.562824 0.432941
0.573867 0.559843 0.432439
0.619828 0.565145 0.437459
0.671561 0.574996 0.445898
0.742337 0.592533 0.459043
0.819104 0.611392 0.478681
0.277647 0.651765 0.458039
0.286431 0.650980 0.460079
0.300235 0.650039 0.454745
0.320784 0.653333 0.461177
0.345412 0.652078 0.460079
0.372549 0.654902 0.461961
0.417725 0.658040 0.469177
0.458196 0.656471 0.468863
0.494118 0.650980 0.468235
0.535059 0.643137 0.469961
0.566274 0.639216 0.467451
0.603451 0.626353 0.458824
0.644236 0.627451 0.458510
0.697255 0.633726 0.465098
0.766274 0.646588 0.473883
0.835145 0.666628 0.493317
0.320157 0.729412 0.501804
0.323357 0.730259 0.498259
0.339671 0.728000 0.502682
0.356204 0.729976 0.500988
0.381835 0.728659 0.501051
0.414902 0.732549 0.505098
0.452267 0.732706 0.512659
0.491984 0.734588 0.513725
0.531953 0.731702 0.514322
0.570635 0.727153 0.513663
0.608314 0.720784 0.508862
0.647686 0.713726 0.504470
0.682981 0.705224 0.498886
0.736784 0.705694 0.501773
0.796549 0.718776 0.513506
0.861048 0.740318 0.529198
0.383373 0.797804 0.550588
0.386290 0.794447 0.548988
0.398620 0.796612 0.548674
0.414808 0.797616 0.556141
0.437898 0.798619 0.554667
0.464157 0.795451 0.557333
0.495718 0.798275 0.559028
0.532800 0.802918 0.561349
0.568157 0.800690 0.565679
0.604267 0.797177 0.565428
0.640941 0.791216 0.555451
0.681349 0.786008 0.557051
0.718682 0.782400 0.547639
0.757333 0.778353 0.546980
0.811670 0.782055 0.550212
0.869020 0.793711 0.566998
0.478432 0.855686 0.624784
0.480251 0.855718 0.622180
0.490981 0.855686 0.622306
0.502024 0.856063 0.624533
0.519373 0.855153 0.622965
0.541177 0.854118 0.628078
0.566745 0.854777 0.633349
0.594949 0.857286 0.637961
0.630275 0.860078 0.642384
0.661961 0.856471 0.645051
0.687843 0.856471 0.638745
0.722196 0.850384 0.636110
0.757082 0.850918 0.630714
0.792533 0.847216 0.631122
0.832157 0.847341 0.625506
0.876761 0.854716 0.637168
0.579137 0.896784 0.693647
0.577318 0.894965 0.691827
0.580580 0.896596 0.690510
0.590902 0.895278 0.694149
0.602227 0.893678 0.693898
0.618823 0.896000 0.693804
0.637114 0.897976 0.700298
0.663529 0.895373 0.704784
0.688283 0.895655 0.712627
0.714635 0.897537 0.714667
0.736628 0.897569 0.718118
0.761004 0.896094 0.714824
0.789772 0.894557 0.713945
0.823059 0.893083 0.714416
0.849851 0.895278 0.716141
0.889283 0.895239 0.720436
0.690000 0.927820 0.771655
0.689961 0.929334 0.768509
0.696962 0.929327 0.778914
0.704064 0.929813 0.776921
0.712814 0.928270 0.779575
0.725192 0.929334 0.780196
0.735427 0.929349 0.784918
0.751941 0.928402 0.791495
0.771667 0.930272 0.796844
0.790586 0.929496 0.803144
0.811530 0.933215 0.811491
0.819666 0.928748 0.807302
0.843777 0.933236 0.809220
0.861869 0.930290 0.812005
0.878055 0.929701 0.811625
0.894964 0.927028 0.805420
0.184314 0.253333 0.328627
0.181961 0.250980 0.323137
0.184784 0.253804 0.329098
0.203765 0.250980 0.322823
0.246588 0.251137 0.329725
0.301961 0.248627 0.338824
0.362667 0.241412 0.348706
0.411608 0.250666 0.353726
0.452706 0.275294 0.368313
0.493961 0.302902 0.387294
0.548235 0.329412 0.408628
0.607059 0.351843 0.424941
0.680471 0.366274 0.444235
0.751843 0.380549 0.459294
0.824314 0.402980 0.480157
0.891631 0.429726 0.504235
0.185569 0.254588 0.331451
0.182494 0.251513 0.326996
0.185788 0.252580 0.328377
0.218353 0.250478 0.329851
0.255561 0.249035 0.333616
0.302745 0.249412 0.342588
0.355764 0.254965 0.347828
0.403137 0.270557 0.359372
0.447843 0.288941 0.372612
0.491922 0.315608 0.390714
0.546981 0.340078 0.411137
0.608941 0.359153 0.429647
0.675953 0.373082 0.445459
0.749271 0.390023 0.462243
0.826102 0.410573 0.484486
0.894868 0.439114 0.511771
0.181020 0.254118 0.327843
0.183623 0.254839 0.325428
0.194478 0.257129 0.325992
0.220392 0.258039 0.328973
0.245239 0.262902 0.329820
0.296627 0.267765 0.341333
0.340831 0.282698 0.350557
0.388455 0.296502 0.361882
0.435294 0.313349 0.374745
0.482792 0.337224 0.392376
0.538666 0.355451 0.415372
0.603263 0.366933 0.428392
0.668580 0.383749 0.445114
0.738133 0.398839 0.460079
0.818227 0.419074 0.487090
0.886116 0.443726 0.508991
0.166588 0.286118 0.332078
0.176878 0.283796 0.331953
0.192659 0.281004 0.329882
0.220141 0.282886 0.333678
0.250353 0.291137 0.336690
0.293177 0.296941 0.345882
0.340674 0.312251 0.358400
0.383216 0.324486 0.370510
0.425726 0.343090 0.384878
0.475577 0.358714 0.402102
0.531765 0.371765 0.414588
0.590839 0.381114 0.426981
0.658071 0.397961 0.441663
0.731074 0.414902 0.458886
0.812486 0.434635 0.482824
0.880194 0.460485 0.509144
0.170196 0.314510 0.335686
0.177788 0.313851 0.336596
0.195733 0.317741 0.336690
0.223780 0.321098 0.341396
0.259388 0.324424 0.353098
0.294275 0.332392 0.357804
0.328627 0.335623 0.360784
0.370918 0.346855 0.374902
0.414871 0.359498 0.389114
0.460455 0.369819 0.400032
0.510275 0.385882 0.409883
0.578636 0.399529 0.428894
0.643137 0.413678 0.442604
0.716267 0.432408 0.464659
0.798588 0.450196 0.481663
0.870157 0.474130 0.502368
0.178039 0.365490 0.353726
0.189020 0.361255 0.354510
0.210824 0.363765 0.356706
0.238431 0.367059 0.363137
0.271686 0.367372 0.371294
0.300392 0.372549 0.374118
0.330667 0.368627 0.369882
0.364078 0.371608 0.382745
0.397333 0.378824 0.386980
0.446274 0.389804 0.401726
0.498824 0.400784 0.412549
0.556863 0.418510 0.424784
0.621961 0.435294 0.441569
0.702431 0.456471 0.458510
0.781961 0.479216 0.480000
0.852439 0.498000 0.496478
0.209098 0.410039 0.378196
0.212016 0.406432 0.376000
0.235984 0.406494 0.378102
0.257412 0.408188 0.380769
0.285742 0.411420 0.387419
0.312000 0.414118 0.389176
0.345506 0.412424 0.388141
0.373239 0.410855 0.387043
0.406871 0.413961 0.395545
0.435859 0.413835 0.400565
0.474981 0.418824 0.410824
0.530259 0.434698 0.423027
0.599279 0.452737 0.435671
0.671372 0.474290 0.456063
0.759309 0.494996 0.472878
0.846687 0.524165 0.499865
0.240627 0.461490 0.405490
0.245176 0.456000 0.403357
0.258227 0.455059 0.405490
0.276580 0.456157 0.403294
0.298980 0.460361 0.409945
0.330353 0.464157 0.411608
0.360157 0.464565 0.409882
0.388329 0.458918 0.410416
