example_ofxGpuLutCube/bin/data/ofxGpuLutCube/LUT/A45 (gray teal fade).cube
LUT_3D_SIZE 6
0.019608 0.054902 0.043137
0.089412 0.071373 0.059608
0.187451 0.082353 0.077647
0.414902 0.067451 0.105098
0.669019 0.071373 0.152157
0.811687 0.309530 0.274314
0.051765 0.130196 0.085490
0.105882 0.144314 0.090981
0.241255 0.148706 0.102118
0.460863 0.154510 0.124549
0.683922 0.206275 0.171608
0.810079 0.377082 0.307247
0.021176 0.345098 0.123922
0.155922 0.367373 0.147137
0.318274 0.381804 0.190118
0.537569 0.416941 0.193411
0.689726 0.434980 0.245490
0.782667 0.530902 0.420235
0.226667 0.589020 0.294117
0.297255 0.599059 0.310274
0.421961 0.605490 0.360784
0.548235 0.610981 0.438274
0.661804 0.641882 0.496000
0.741921 0.660353 0.555255
0.490981 0.718431 0.564706
0.502118 0.721726 0.571922
0.549490 0.727372 0.595451
0.612863 0.726745 0.629804
0.661647 0.735059 0.671373
0.717584 0.756879 0.718392
0.639138 0.799922 0.744941
0.650941 0.799961 0.741137
0.671286 0.803067 0.748942
0.697176 0.806941 0.760000
0.721530 0.803883 0.776432
0.745136 0.807882 0.795922
0.023529 0.058824 0.078431
0.078275 0.075294 0.096941
0.201098 0.099922 0.120157
0.417412 0.100549 0.153882
0.660235 0.123451 0.207529
0.810016 0.327569 0.337804
0.064627 0.131451 0.122510
0.111529 0.144565 0.126086
0.245710 0.160941 0.149270
0.458510 0.172267 0.175372
0.675577 0.230839 0.226980
0.797219 0.396039 0.369051
0.062431 0.344784 0.191059
0.163200 0.361192 0.205835
0.323482 0.381428 0.240157
0.536157 0.408000 0.243294
0.687310 0.444800 0.308675
0.771259 0.544806 0.465406
0.240628 0.588392 0.349804
0.316392 0.600628 0.373898
0.425788 0.606243 0.403200
0.543749 0.611075 0.468580
0.658071 0.640126 0.522353
0.733899 0.661277 0.578559
0.499451 0.719843 0.592000
0.512627 0.726745 0.601255
0.558369 0.730384 0.618823
0.611671 0.729820 0.639718
0.661208 0.735749 0.678777
0.717608 0.759961 0.721187
0.645404 0.806188 0.751255
0.656367 0.802281 0.752834
0.670530 0.800447 0.755795
0.694005 0.801520 0.761494
0.721986 0.806202 0.777820
0.745098 0.807843 0.796077
0.011765 0.072157 0.147451
0.063059 0.084236 0.170510
0.195922 0.103373 0.212706
0.419451 0.101804 0.258981
0.661490 0.149333 0.330039
0.789671 0.375459 0.465694
0.059608 0.135686 0.196078
0.100392 0.147984 0.216283
0.240816 0.164047 0.254400
0.457349 0.181616 0.294431
0.669647 0.262933 0.363765
0.775600 0.436680 0.482670
0.058823 0.329098 0.309490
0.164894 0.352722 0.337004
0.337411 0.380424 0.353004
0.529161 0.406212 0.381553
0.666290 0.469584 0.454714
0.753049 0.556023 0.544729
0.274039 0.592157 0.464628
0.339984 0.597490 0.485145
0.438463 0.603608 0.500581
0.540831 0.615843 0.543592
0.651577 0.636675 0.567404
0.738288 0.661448 0.617453
0.504157 0.720000 0.628078
0.518431 0.727059 0.637678
0.560094 0.726494 0.647310
0.611514 0.729129 0.668424
0.661647 0.738761 0.696439
0.721476 0.760745 0.727471
0.647749 0.796878 0.747435
0.654435 0.803572 0.760317
0.667953 0.797482 0.762133
0.695242 0.803106 0.767151
0.721839 0.805133 0.777218
0.748941 0.811655 0.799828
0.000000 0.087059 0.305098
0.000000 0.095373 0.323137
0.144627 0.110274 0.373961
0.408314 0.103373 0.446902
0.653333 0.168314 0.515922
0.769309 0.381788 0.589663
0.001883 0.144628 0.355294
0.000753 0.150871 0.373773
0.194604 0.162353 0.421177
0.448063 0.187388 0.484832
0.653208 0.269647 0.529381
0.766348 0.445562 0.598912
0.000314 0.325804 0.453490
0.118808 0.347608 0.476392
0.301647 0.369380 0.506635
0.509929 0.420831 0.550871
0.646149 0.486526 0.586510
0.739719 0.568033 0.634306
0.277647 0.578510 0.571608
0.331984 0.586102 0.581585
0.437020 0.599655 0.597616
0.542871 0.613459 0.615592
0.642730 0.629428 0.632847
0.732641 0.657975 0.664562
0.500235 0.720784 0.674824
0.520972 0.724518 0.677647
0.553318 0.725710 0.688377
0.608690 0.730886 0.705474
0.664314 0.738635 0.722949
0.722772 0.758718 0.738809
0.635263 0.799969 0.760753
0.643059 0.800000 0.764667
0.662000 0.799335 0.771840
0.688086 0.806231 0.776566
0.724919 0.808257 0.788157
0.748949 0.811694 0.801482
0.001569 0.103529 0.568627
0.002353 0.106823 0.581647
0.000314 0.115764 0.608314
0.400314 0.116706 0.647372
0.640627 0.208941 0.681255
0.757537 0.407608 0.701074
0.000941 0.152941 0.592941
0.000251 0.159686 0.605616
0.098479 0.174118 0.627608
0.437302 0.206086 0.656847
0.637145 0.296533 0.674573
0.748019 0.457726 0.702985
0.001726 0.337726 0.636079
0.000000 0.339482 0.640879
0.264596 0.365490 0.659577
0.495153 0.431279 0.682259
0.639906 0.493961 0.696879
0.729647 0.566510 0.713813
0.269020 0.574588 0.663843
0.326902 0.583216 0.676392
0.413428 0.591247 0.683953
0.527592 0.607592 0.696471
0.635169 0.628581 0.712815
0.722290 0.663781 0.734059
0.490040 0.717490 0.724392
0.517020 0.721255 0.733176
0.546667 0.725553 0.730949
0.607310 0.729694 0.743404
0.664941 0.737035 0.751969
0.725887 0.753073 0.766248
0.642267 0.799961 0.785828
0.646987 0.799975 0.785391
0.662983 0.803847 0.788185
0.683122 0.804353 0.785757
0.716814 0.810148 0.796690
0.748996 0.811741 0.807819
0.000000 0.133255 0.776275
0.002330 0.131702 0.778682
0.027357 0.141882 0.780243
0.447012 0.189655 0.788902
0.646251 0.336266 0.799859
0.748981 0.505569 0.799883
0.001592 0.174871 0.771655
0.001413 0.182551 0.775414
0.130598 0.204287 0.781196
0.460648 0.259829 0.789564
0.642500 0.393617 0.793167
0.743474 0.527608 0.794447
0.000777 0.339616 0.780314
0.000025 0.348433 0.777516
0.262656 0.383007 0.782210
0.497530 0.449216 0.787724
0.640972 0.534405 0.793391
0.730957 0.605435 0.795977
0.247122 0.581145 0.769356
0.274872 0.578539 0.775577
0.359057 0.574764 0.777793
0.509176 0.598105 0.790673
0.636549 0.639216 0.791329
0.726266 0.680722 0.800760
0.522337 0.730180 0.789788
0.527681 0.731137 0.792096
0.551327 0.727564 0.790220
0.587664 0.726417 0.795995
0.659622 0.734116 0.795074
0.731741 0.758408 0.808588
0.650979 0.807765 0.807959
0.654800 0.811663 0.811742
0.669585 0.807027 0.814885
0.690118 0.807035 0.816454
0.719122 0.813240 0.821036
0.753017 0.811841 0.823605
