example_ofxGpuLutCube/bin/data/ofxGpuLutCube/LUT/A45 (gray teal fade).cube
LUT_3D_SIZE 16
0.019608 0.054902 0.043137
0.036863 0.058824 0.051764
0.056471 0.064314 0.052549
0.089412 0.071373 0.059608
0.109020 0.071372 0.063529
0.149020 0.078431 0.070588
0.187451 0.082353 0.077647
0.250980 0.084706 0.084706
0.331764 0.082353 0.094902
0.414902 0.067451 0.105098
0.509804 0.050980 0.121569
0.592157 0.043137 0.134902
0.669019 0.071373 0.152157
0.727059 0.133333 0.173333
0.778039 0.211764 0.214117
0.811687 0.309530 0.274314
0.029020 0.078431 0.051764
0.041412 0.076079 0.056471
0.058824 0.079373 0.061647
0.088941 0.080000 0.065098
0.119843 0.083922 0.074510
0.146667 0.087844 0.076079
0.196863 0.095686 0.080000
0.258039 0.094902 0.091765
0.334745 0.094902 0.100549
0.418353 0.084706 0.106823
0.509020 0.080000 0.122353
0.596706 0.072941 0.137882
0.667451 0.107451 0.155137
0.729412 0.157647 0.178824
0.775216 0.228079 0.217882
0.807765 0.321334 0.288369
0.043922 0.099608 0.072157
0.052392 0.103373 0.068079
0.073412 0.103686 0.073725
0.097098 0.108863 0.078275
0.129882 0.110588 0.077490
0.170196 0.115294 0.080000
0.219294 0.114980 0.088628
0.281412 0.116235 0.099294
0.356706 0.113882 0.109490
0.443922 0.114510 0.113725
0.527059 0.109019 0.126275
0.606431 0.121569 0.139294
0.671686 0.151059 0.164392
0.727216 0.199373 0.187608
0.778039 0.263373 0.229961
0.811702 0.344094 0.289255
0.051765 0.130196 0.085490
0.058824 0.134118 0.086431
0.083765 0.135529 0.086118
0.105882 0.144314 0.090981
0.146196 0.150902 0.096314
0.185098 0.148235 0.094118
0.241255 0.148706 0.102118
0.306510 0.150588 0.109647
0.385255 0.151843 0.115137
0.460863 0.154510 0.124549
0.545882 0.162353 0.136470
0.615216 0.180862 0.149020
0.683922 0.206275 0.171608
0.733961 0.252392 0.198275
0.769412 0.302745 0.236863
0.810079 0.377082 0.307247
0.062745 0.185882 0.104313
0.069020 0.189647 0.099765
0.091608 0.192157 0.108235
0.127373 0.196863 0.112000
0.164235 0.203294 0.113098
0.214902 0.213333 0.121569
0.280627 0.213176 0.117647
0.345098 0.212706 0.116549
0.416157 0.216157 0.131764
0.497098 0.221019 0.135529
0.567843 0.234510 0.145098
0.634196 0.252863 0.162039
0.691451 0.279686 0.184784
0.732863 0.314824 0.221490
0.771451 0.367059 0.269804
0.799153 0.428863 0.331647
0.054902 0.250980 0.113725
0.079215 0.262745 0.120785
0.101961 0.266667 0.125490
0.140392 0.266667 0.131765
0.178039 0.273726 0.133333
0.231373 0.274510 0.141176
0.298039 0.294902 0.152941
0.372549 0.307451 0.138823
0.448628 0.309804 0.146667
0.525490 0.302745 0.152157
0.580392 0.313725 0.160784
0.646274 0.334117 0.181961
0.685490 0.356078 0.210980
0.724706 0.389020 0.248628
0.763137 0.425882 0.294902
0.792079 0.478313 0.372353
0.021176 0.345098 0.123922
0.057255 0.362981 0.141020
0.103686 0.368628 0.144000
0.155922 0.367373 0.147137
0.206274 0.369255 0.161098
0.264314 0.375686 0.173333
0.318274 0.381804 0.190118
0.390588 0.402353 0.204392
0.469804 0.413804 0.192471
0.537569 0.416941 0.193411
0.599216 0.409412 0.203922
0.648000 0.416628 0.211765
0.689726 0.434980 0.245490
0.725490 0.460863 0.290824
0.757804 0.494275 0.347137
0.782667 0.530902 0.420235
0.014902 0.442353 0.161569
0.068706 0.460863 0.176157
0.120941 0.460392 0.172235
0.176627 0.461176 0.181647
0.232157 0.464784 0.190902
0.290981 0.470588 0.207843
0.351059 0.478902 0.223216
0.413490 0.479372 0.247529
0.469804 0.494745 0.272471
0.538980 0.504000 0.269491
0.594510 0.508235 0.276079
0.643608 0.511373 0.287843
0.683608 0.512000 0.308078
0.719529 0.529568 0.340235
0.745098 0.547451 0.395451
0.765451 0.579491 0.458713
0.110589 0.523137 0.214902
0.144314 0.538823 0.227608
0.180549 0.537412 0.224314
0.227294 0.540235 0.231686
0.275608 0.541177 0.247843
0.329412 0.544314 0.264314
0.382745 0.548549 0.276078
0.440627 0.549804 0.305726
0.488314 0.558274 0.334588
0.537255 0.572392 0.371922
0.584314 0.579608 0.375686
0.632000 0.586196 0.385412
0.671373 0.590431 0.404078
0.708078 0.596706 0.439059
0.730196 0.603765 0.461961
0.758353 0.620313 0.514408
0.226667 0.589020 0.294117
0.247059 0.604706 0.302745
0.266667 0.600785 0.306667
0.297255 0.599059 0.310274
0.336941 0.602667 0.322039
0.378039 0.601569 0.334118
0.421961 0.605490 0.360784
0.462745 0.605804 0.374432
0.504314 0.611294 0.405804
0.548235 0.610981 0.438274
0.580392 0.621960 0.456471
0.621647 0.634196 0.487686
0.661804 0.641882 0.496000
0.693490 0.644078 0.517490
0.716863 0.648627 0.529255
0.741921 0.660353 0.555255
0.333333 0.639216 0.396078
0.349804 0.647843 0.396862
0.354510 0.644706 0.405490
0.377255 0.647059 0.406275
0.403138 0.644706 0.409412
0.435294 0.650980 0.427451
0.464314 0.654902 0.440000
0.503529 0.654902 0.470588
0.532549 0.657255 0.490981
0.563137 0.661961 0.509020
0.592157 0.670588 0.533333
0.617255 0.668236 0.550589
0.651765 0.682353 0.578039
0.683137 0.690981 0.596863
0.711372 0.697255 0.599216
0.733255 0.705843 0.631216
0.413334 0.680000 0.480000
0.425882 0.687844 0.490196
0.433726 0.684706 0.488628
0.439530 0.682667 0.485804
0.462745 0.685333 0.493333
0.480000 0.687844 0.509019
0.507608 0.690353 0.520157
0.530353 0.691294 0.536313
0.554824 0.691294 0.549333
0.579451 0.694745 0.568941
0.603922 0.695687 0.581961
0.622275 0.699451 0.595765
0.645019 0.703529 0.613333
0.670902 0.718275 0.633569
0.698196 0.720941 0.645176
0.717608 0.730157 0.658769
0.490981 0.718431 0.564706
0.497255 0.724706 0.570980
0.497098 0.719843 0.568471
0.502118 0.721726 0.571922
0.516549 0.722039 0.580863
0.528627 0.724706 0.587451
0.549490 0.727372 0.595451
0.569412 0.727059 0.608157
0.590745 0.727216 0.619765
0.612863 0.726745 0.629804
0.632157 0.734902 0.647059
0.643921 0.732549 0.658039
0.661647 0.735059 0.671373
0.675294 0.743529 0.677961
0.700706 0.749334 0.696785
0.717584 0.756879 0.718392
0.535686 0.745098 0.624314
0.542745 0.745098 0.626667
0.540392 0.742745 0.624314
0.548235 0.745882 0.629020
0.559059 0.748706 0.633726
0.569412 0.749804 0.638431
0.585098 0.751373 0.644706
0.596706 0.750432 0.650039
0.612235 0.752314 0.657255
0.625255 0.753726 0.670432
0.643137 0.756863 0.678431
0.664157 0.757961 0.695216
0.674510 0.758588 0.706353
0.686589 0.763137 0.716078
0.701647 0.764392 0.721255
0.716824 0.772510 0.735647
0.602353 0.778823 0.699608
0.615843 0.778196 0.706039
0.609569 0.775687 0.701647
0.614117 0.776471 0.704313
0.622275 0.778039 0.707451
0.624314 0.779608 0.707451
0.630745 0.777098 0.709020
0.645490 0.778823 0.715294
0.655216 0.781490 0.721098
0.661020 0.782745 0.723921
0.673726 0.783530 0.728628
0.689412 0.782274 0.738823
0.701177 0.784000 0.747294
0.712313 0.789333 0.754510
0.723922 0.790588 0.759216
0.729404 0.794517 0.770133
0.639138 0.799922 0.744941
0.653937 0.803075 0.744212
0.652439 0.798353 0.745741
0.650941 0.799961 0.741137
0.658738 0.799914 0.745027
0.658785 0.799961 0.745059
0.671286 0.803067 0.748942
0.674447 0.799984 0.748981
0.684620 0.802267 0.755208
0.697176 0.806941 0.760000
0.701922 0.803883 0.768509
0.714384 0.804698 0.773208
0.721530 0.803883 0.776432
0.733255 0.807765 0.792000
0.733372 0.807804 0.792039
0.745136 0.807882 0.795922
0.021177 0.058824 0.057255
0.037020 0.058981 0.059765
0.057255 0.064627 0.062118
0.081569 0.070588 0.065098
0.111372 0.081569 0.075294
0.148236 0.087059 0.086275
0.195922 0.090824 0.087687
0.254431 0.094274 0.098510
0.323608 0.089883 0.106353
0.415373 0.083294 0.124706
0.498039 0.065098 0.127059
0.588236 0.063529 0.140078
0.658980 0.084078 0.158118
0.719686 0.141176 0.184471
0.768941 0.210039 0.217569
0.811679 0.305647 0.282941
0.030745 0.075294 0.060863
0.042792 0.079341 0.068204
0.063059 0.082384 0.068016
0.085114 0.083451 0.075263
0.117459 0.090604 0.078086
0.155451 0.095530 0.091295
0.202886 0.100863 0.088596
0.259671 0.102745 0.104972
0.332831 0.101553 0.111717
0.412517 0.096439 0.118431
0.499608 0.083922 0.129726
0.588518 0.085459 0.142870
0.662118 0.111341 0.161474
0.721694 0.163545 0.187388
0.764016 0.221961 0.216188
0.809622 0.311740 0.285136
0.045177 0.099294 0.081255
0.053114 0.103404 0.078024
0.075451 0.103749 0.083357
0.097537 0.107388 0.085083
0.127592 0.108800 0.085678
0.172863 0.114039 0.093491
0.220706 0.119059 0.103059
0.284173 0.121035 0.109741
0.354949 0.123828 0.117270
0.433412 0.117176 0.123451
0.521882 0.118431 0.134902
0.599592 0.130573 0.152345
0.670526 0.153663 0.169506
0.729192 0.201130 0.193161
0.773302 0.262118 0.233663
0.808386 0.344097 0.298490
0.058980 0.127059 0.088314
0.063341 0.136565 0.092706
0.087028 0.135498 0.096753
0.107043 0.141741 0.101428
0.141459 0.148486 0.098918
0.192628 0.148706 0.107294
0.247561 0.153098 0.115859
0.307106 0.155420 0.119435
0.378165 0.156079 0.124549
0.457412 0.160251 0.132518
0.535686 0.167843 0.145098
0.611827 0.181866 0.161443
0.678087 0.209851 0.178636
0.727498 0.252894 0.205333
0.768565 0.304000 0.243890
0.804151 0.379713 0.314790
0.072941 0.186666 0.109804
0.082479 0.192815 0.109270
0.099545 0.192690 0.115733
0.130259 0.196612 0.122290
0.164674 0.202165 0.128596
0.214745 0.209255 0.129098
0.278086 0.211169 0.131388
0.341647 0.214808 0.123231
0.411608 0.216377 0.137757
0.490039 0.223592 0.143843
0.558275 0.232157 0.154823
0.627263 0.250792 0.168722
0.683263 0.282667 0.196235
0.727279 0.321851 0.228863
0.767215 0.365208 0.275419
0.796947 0.432740 0.350055
0.068236 0.247843 0.134117
0.084549 0.260392 0.130980
0.103216 0.262432 0.129098
0.143373 0.267765 0.141490
0.180235 0.273098 0.149490
0.229020 0.281569 0.154510
0.293333 0.294118 0.161568
0.368157 0.305411 0.151843
0.438118 0.304157 0.154353
0.516236 0.301961 0.154981
0.580392 0.313725 0.176471
0.637647 0.330196 0.188549
0.683921 0.357647 0.216471
0.724392 0.387137 0.257726
0.756706 0.421176 0.299138
0.792071 0.478306 0.380188
0.033569 0.351530 0.149334
0.063718 0.365615 0.154573
0.110494 0.366588 0.154008
0.158275 0.365490 0.161286
0.206086 0.366212 0.169035
0.261804 0.373176 0.179608
0.318902 0.382400 0.195765
0.392251 0.403984 0.207969
0.471529 0.413961 0.205239
0.530667 0.414180 0.198776
0.595451 0.411451 0.216314
0.647341 0.413929 0.222714
0.691043 0.434416 0.257475
0.724737 0.465130 0.299639
0.754510 0.493145 0.354133
0.778940 0.533552 0.424968
0.029490 0.444392 0.176941
0.078212 0.461145 0.190494
0.125365 0.461647 0.188204
0.179483 0.462180 0.193537
0.236831 0.465569 0.200847
0.292549 0.470118 0.216157
0.353475 0.475451 0.231529
0.410228 0.479278 0.258698
0.470118 0.493804 0.281820
0.536878 0.503184 0.275294
0.592628 0.504000 0.278902
0.637333 0.507671 0.290102
0.685239 0.513851 0.314290
0.720816 0.527090 0.349051
0.742557 0.545192 0.397867
0.763565 0.577294 0.459633
0.122353 0.525490 0.226510
0.160157 0.543530 0.243294
0.189679 0.543404 0.243326
0.237365 0.544628 0.251859
0.281883 0.545569 0.261490
0.334118 0.548549 0.273098
0.391843 0.550400 0.298573
0.442698 0.553443 0.321286
0.486745 0.559373 0.340235
0.535969 0.566839 0.376031
0.582588 0.575529 0.380078
0.631404 0.584251 0.396329
0.669365 0.586824 0.414369
0.705255 0.596235 0.440784
0.732266 0.607686 0.473192
0.755248 0.625991 0.521012
0.227451 0.596078 0.306510
0.258918 0.601695 0.322604
0.275514 0.603828 0.322886
0.305224 0.603106 0.325553
0.338980 0.602698 0.331702
0.384000 0.601883 0.347138
0.426918 0.603483 0.368910
0.467357 0.607812 0.387451
0.505004 0.610792 0.410008
0.543749 0.610918 0.437208
0.579765 0.621176 0.463843
0.620612 0.632314 0.494557
0.658227 0.644173 0.496879
0.689098 0.644078 0.520690
0.716486 0.648251 0.529286
0.740516 0.662387 0.566972
0.337255 0.643137 0.407843
0.356863 0.654118 0.413334
0.366275 0.654118 0.423529
0.382745 0.652549 0.419608
0.413961 0.654745 0.431216
0.440785 0.654902 0.441569
0.469490 0.655529 0.453961
0.505725 0.657569 0.478118
0.531765 0.657255 0.496471
0.563137 0.659451 0.515294
0.585098 0.659608 0.534117
0.619608 0.671843 0.553569
0.649255 0.683608 0.578039
0.679530 0.690510 0.595765
0.712000 0.694118 0.605804
0.730157 0.702706 0.632087
0.418666 0.684549 0.491451
0.428423 0.690008 0.501584
0.440784 0.686024 0.503686
0.451514 0.686651 0.505820
0.470243 0.691106 0.509114
0.488628 0.694902 0.524393
0.509365 0.691639 0.529914
0.532329 0.694149 0.542369
0.557082 0.693992 0.555702
0.579106 0.693145 0.571922
0.604549 0.696314 0.582588
0.624094 0.700266 0.597082
0.648376 0.705694 0.618572
0.673129 0.714698 0.638149
0.696345 0.719216 0.643075
0.719937 0.727517 0.664888
0.496941 0.721882 0.578039
0.500267 0.725208 0.582306
0.505568 0.722604 0.581930
0.511247 0.724894 0.585914
0.522165 0.728157 0.587922
0.535843 0.728314 0.597176
0.556047 0.731545 0.605333
0.573521 0.729098 0.617569
0.592408 0.728627 0.624439
0.615623 0.728627 0.634635
0.628549 0.731294 0.643764
0.641035 0.733647 0.656376
0.663436 0.736470 0.673788
0.677459 0.743780 0.681318
0.695341 0.750243 0.696063
0.715725 0.758116 0.720224
0.544000 0.743686 0.631373
0.550808 0.747639 0.638369
0.548580 0.746918 0.637145
0.555796 0.747169 0.640502
0.563890 0.750055 0.643388
0.575059 0.750118 0.647686
0.591874 0.751686 0.651921
0.601977 0.751937 0.660549
0.614243 0.753004 0.663718
0.628079 0.752533 0.675451
0.643921 0.757020 0.682980
0.662714 0.756455 0.697035
0.673569 0.758588 0.708235
0.685773 0.762322 0.715263
0.697725 0.762761 0.723294
0.717769 0.772514 0.740985
0.608941 0.779137 0.703059
0.613490 0.776847 0.704972
0.615121 0.778730 0.705568
0.615498 0.778730 0.705945
0.624345 0.778729 0.709020
0.626039 0.780863 0.708863
0.635859 0.780518 0.713788
0.645616 0.779231 0.716518
0.655310 0.780800 0.721977
0.661459 0.779890 0.730478
0.676235 0.781020 0.728628
0.692800 0.786290 0.737192
0.702055 0.785788 0.748235
0.707137 0.787451 0.752157
0.717270 0.790714 0.764172
0.729403 0.794503 0.771430
0.650823 0.799961 0.742651
0.651524 0.800544 0.743336
0.655751 0.801679 0.744403
0.658675 0.799929 0.752769
0.655646 0.796822 0.748195
0.666510 0.799922 0.745035
0.669920 0.801390 0.757048
0.674781 0.800271 0.750198
0.682293 0.799956 0.760654
0.690916 0.796881 0.761539
0.701137 0.803891 0.762298
0.713654 0.803851 0.772400
0.721985 0.804385 0.775978
0.729357 0.803873 0.780340
0.739505 0.804698 0.790486
0.745059 0.807851 0.795945
0.023529 0.062745 0.070588
0.036706 0.060079 0.071843
0.053333 0.064314 0.077647
0.085490 0.072000 0.080000
0.108235 0.075294 0.078431
0.146667 0.091765 0.091765
0.197176 0.094432 0.105411
0.258510 0.098980 0.108235
0.332706 0.098196 0.125490
0.415373 0.093333 0.136313
0.501961 0.080000 0.142745
0.584784 0.078588 0.158118
0.663216 0.107137 0.180078
0.723294 0.154667 0.205647
0.766902 0.225569 0.240785
0.810133 0.312706 0.302565
0.031373 0.078431 0.077490
0.042604 0.080972 0.084330
0.061930 0.080690 0.084581
0.087561 0.089694 0.088063
0.113035 0.094839 0.092298
0.158745 0.100078 0.101961
0.204047 0.106792 0.106008
0.262306 0.108612 0.114541
0.336816 0.108894 0.127184
0.421239 0.106792 0.136063
0.506510 0.096157 0.149647
0.590243 0.099514 0.160565
0.660612 0.126996 0.179514
0.719686 0.174149 0.206118
0.767247 0.237239 0.240314
0.808642 0.322737 0.301324
0.048000 0.101176 0.091294
0.055843 0.102431 0.092141
0.075106 0.105129 0.095122
0.099514 0.110180 0.095592
0.131953 0.114008 0.101992
0.174118 0.119216 0.110588
0.222620 0.122541 0.116518
0.287278 0.126212 0.126714
0.358620 0.129224 0.132110
0.439623 0.129757 0.144000
0.520157 0.127216 0.153882
0.598337 0.139765 0.168094
0.667420 0.167372 0.188800
0.728377 0.212769 0.214620
0.770384 0.272753 0.256534
0.808177 0.353947 0.317133
0.064157 0.129568 0.106667
0.070369 0.135404 0.104847
0.091326 0.138792 0.111215
0.109427 0.143937 0.112721
0.149616 0.150117 0.113945
0.192941 0.153098 0.118275
0.244549 0.153977 0.128847
0.309020 0.158212 0.131859
0.380486 0.163357 0.139670
0.458635 0.165647 0.148267
0.536784 0.171451 0.157804
0.611482 0.187169 0.177287
0.675671 0.218855 0.198369
0.726212 0.260957 0.223184
0.765961 0.313412 0.268737
0.799462 0.387246 0.335303
0.074824 0.185882 0.122510
0.084392 0.192941 0.125365
0.106133 0.193443 0.131671
0.131890 0.197522 0.133741
0.165647 0.199153 0.137568
0.218039 0.212549 0.144314
0.280094 0.213239 0.144376
0.343247 0.214776 0.140549
0.416377 0.219451 0.156329
0.489600 0.227138 0.162635
0.561098 0.239529 0.172235
0.627921 0.257663 0.190870
0.683545 0.288879 0.216972
0.727812 0.326776 0.253333
0.766400 0.374776 0.296753
0.796602 0.437152 0.363773
0.072157 0.249412 0.144314
0.084706 0.259608 0.145098
0.111686 0.262745 0.144941
0.146667 0.266667 0.150588
0.189490 0.270274 0.163608
0.239216 0.276078 0.170196
0.294118 0.293333 0.176157
0.367686 0.303529 0.171294
0.439372 0.302902 0.166431
0.514196 0.304314 0.174588
0.581177 0.315294 0.192157
0.640000 0.332235 0.211294
0.683922 0.362510 0.244863
0.724392 0.391372 0.279843
0.757961 0.429020 0.318275
0.784251 0.486102 0.393576
0.048627 0.343686 0.163921
0.080283 0.362228 0.178698
0.114572 0.365396 0.170824
0.160784 0.363890 0.175467
0.213208 0.367498 0.191341
0.266667 0.371608 0.197177
0.319372 0.380361 0.214369
0.393130 0.398965 0.222024
0.468016 0.414683 0.217663
0.534243 0.409789 0.219921
0.592157 0.408628 0.225725
0.645490 0.417726 0.242196
0.686243 0.438933 0.274730
0.728125 0.465789 0.319937
0.752408 0.498886 0.375059
0.776259 0.539166 0.441727
0.046431 0.439843 0.189176
0.088314 0.462902 0.211200
0.132800 0.461992 0.203200
0.182651 0.460329 0.212329
0.240753 0.465004 0.223718
0.293961 0.468706 0.232627
0.353380 0.475231 0.252110
0.411577 0.477490 0.268675
0.470588 0.493239 0.294526
0.535843 0.500612 0.289537
0.589333 0.503843 0.295843
0.634196 0.507451 0.305098
0.681851 0.512878 0.328251
0.717427 0.528627 0.367310
0.737349 0.547922 0.412925
0.762141 0.579335 0.477322
0.131764 0.527372 0.247216
0.163733 0.544784 0.263122
0.194886 0.541710 0.267357
0.237867 0.541710 0.270933
0.285553 0.542024 0.276706
0.334431 0.547294 0.288627
0.391435 0.550306 0.308800
0.443200 0.551530 0.336502
0.489412 0.556486 0.359090
0.533678 0.569129 0.390557
0.582432 0.577569 0.390275
0.628329 0.582525 0.410227
0.668298 0.589773 0.426353
0.701647 0.595232 0.450008
0.730071 0.605365 0.486933
0.755372 0.626124 0.531812
0.231686 0.591216 0.322824
0.262149 0.601067 0.337443
0.282291 0.603451 0.343498
0.308957 0.603890 0.348424
0.344408 0.604518 0.353819
0.387608 0.605020 0.364706
0.428926 0.603514 0.381710
0.467639 0.606180 0.405302
0.503875 0.612486 0.423310
0.542274 0.613208 0.454526
0.576471 0.622745 0.478431
0.618290 0.632094 0.500643
0.656000 0.642573 0.506980
0.687090 0.646400 0.524800
0.716549 0.648941 0.537317
0.735768 0.662042 0.570720
0.341961 0.643137 0.418823
0.363294 0.648627 0.430275
0.373177 0.650039 0.433569
0.387294 0.653333 0.436392
0.414745 0.651451 0.439843
0.444706 0.653333 0.454118
0.474039 0.653019 0.465412
0.500392 0.658039 0.485490
0.532236 0.658667 0.505726
0.563451 0.661647 0.523137
0.588235 0.662745 0.540392
0.616000 0.669490 0.559373
0.651765 0.678431 0.585882
0.678745 0.687843 0.600941
0.709176 0.692549 0.605177
0.733278 0.705858 0.635255
0.422275 0.687059 0.504471
0.434290 0.688879 0.516486
0.444392 0.686432 0.515608
0.451827 0.689255 0.518870
0.471121 0.688377 0.523514
0.490510 0.690510 0.529726
0.512220 0.693177 0.537004
0.532706 0.690510 0.547514
0.556204 0.692518 0.558024
0.579671 0.694965 0.573396
0.603137 0.695373 0.589647
0.622745 0.701553 0.603514
0.649129 0.705443 0.624345
0.671969 0.713255 0.637647
0.696847 0.717584 0.649725
0.718855 0.728298 0.672518
0.493961 0.722980 0.582902
0.501804 0.723765 0.586510
0.508173 0.724643 0.590212
0.512094 0.728565 0.594133
0.525020 0.726431 0.596926
0.533490 0.725647 0.602039
0.555608 0.728502 0.613365
0.576251 0.726871 0.619796
0.594039 0.728627 0.627137
0.613647 0.729631 0.636110
0.632628 0.733490 0.648784
0.644737 0.735874 0.660675
0.663059 0.736470 0.675169
0.676831 0.739859 0.685898
0.697255 0.749898 0.700047
0.716190 0.757329 0.716367
0.544314 0.745098 0.635765
0.548863 0.746824 0.638431
0.550024 0.749678 0.640220
0.559937 0.750369 0.644580
0.565522 0.750557 0.645772
0.576314 0.750745 0.649882
0.590243 0.750243 0.656126
0.602792 0.752565 0.662745
0.617035 0.753161 0.669333
0.630024 0.754479 0.678651
0.646902 0.756549 0.688000
0.663592 0.755890 0.697098
0.673882 0.759969 0.707670
0.686024 0.762573 0.716078
0.699984 0.764266 0.725051
0.717774 0.772990 0.736284
0.604706 0.780863 0.705568
0.612329 0.780957 0.706447
0.612549 0.781553 0.706070
0.613271 0.780392 0.709145
0.620894 0.777914 0.711592
0.627765 0.780706 0.709647
0.635514 0.781992 0.714227
0.644392 0.778573 0.715074
0.652078 0.780267 0.720094
0.660455 0.781773 0.727969
0.675608 0.785412 0.736784
0.691012 0.784910 0.742620
0.701961 0.784878 0.749302
0.709270 0.788769 0.753475
0.720784 0.790588 0.763294
0.729062 0.794169 0.769826
0.647733 0.796918 0.741137
0.655134 0.799495 0.750766
0.656215 0.797470 0.750293
0.655445 0.801359 0.748766
0.658901 0.800083 0.749837
0.660314 0.801490 0.754400
0.670492 0.799981 0.756727
0.675402 0.802756 0.750844
0.682275 0.800000 0.760666
0.692179 0.802014 0.754955
0.704212 0.806204 0.770815
0.711132 0.807023 0.773705
0.722601 0.807749 0.778900
0.732152 0.805141 0.780974
0.737080 0.807816 0.784312
0.746557 0.810894 0.794353
0.023529 0.058824 0.078431
0.032157 0.059608 0.083137
0.049412 0.069020 0.091294
0.078275 0.075294 0.096941
0.112627 0.083922 0.107451
0.149020 0.090196 0.114510
0.201098 0.099922 0.120157
0.255530 0.101961 0.126588
0.333804 0.103843 0.140078
0.417412 0.100549 0.153882
0.505098 0.094118 0.170980
0.589177 0.099451 0.184000
0.660235 0.123451 0.207529
0.718118 0.175059 0.231687
0.765804 0.238745 0.265882
0.810016 0.327569 0.337804
0.036549 0.080627 0.089726
0.040345 0.081318 0.093302
0.061647 0.082667 0.096125
0.086149 0.089130 0.102839
0.114196 0.098070 0.109835
0.155137 0.102902 0.115608
0.204643 0.107984 0.122792
0.264408 0.114008 0.133270
0.340518 0.116204 0.146322
0.423875 0.113631 0.160910
0.508549 0.112470 0.174588
0.594667 0.116831 0.190431
0.664533 0.142651 0.206526
0.718902 0.189521 0.233977
0.764361 0.246996 0.268706
0.803494 0.334345 0.334375
0.045333 0.100235 0.104157
0.058008 0.102996 0.107137
0.074980 0.104910 0.110557
0.098322 0.110713 0.112847
0.133867 0.117867 0.122102
0.174902 0.121725 0.125961
0.224941 0.129412 0.140957
0.283796 0.133961 0.146133
0.361381 0.136470 0.156831
0.440220 0.137506 0.163200
0.525961 0.138510 0.176784
0.602039 0.150463 0.189051
0.672879 0.181647 0.215623
0.728878 0.225820 0.243012
0.769129 0.284988 0.286118
0.805376 0.365725 0.350069
0.064627 0.131451 0.122510
0.069741 0.135561 0.122667
0.092424 0.137913 0.126933
0.111529 0.144565 0.126086
0.150086 0.147012 0.136094
0.189961 0.150745 0.142902
0.245710 0.160941 0.149270
0.308612 0.162886 0.152126
0.378635 0.167247 0.162008
0.458510 0.172267 0.175372
0.538039 0.181961 0.184470
0.612235 0.199686 0.204643
0.675577 0.230839 0.226980
0.721694 0.272408 0.252518
0.762855 0.320910 0.293898
0.797219 0.396039 0.369051
0.073882 0.184627 0.141804
0.088314 0.192941 0.145569
0.104910 0.192721 0.146604
0.133553 0.196831 0.152690
0.167310 0.201726 0.157365
0.218039 0.208628 0.161098
0.280408 0.207184 0.158086
0.349333 0.216753 0.170039
0.413584 0.222871 0.176502
0.492486 0.231969 0.186447
0.562353 0.244078 0.199843
0.628612 0.264534 0.221898
0.680345 0.296502 0.242855
0.723671 0.337945 0.283357
0.762071 0.382369 0.324517
0.790649 0.443755 0.392933
0.080784 0.250980 0.167843
0.090196 0.261177 0.168627
0.116863 0.261177 0.172235
0.153726 0.265726 0.175843
0.189647 0.272157 0.179137
0.236863 0.280784 0.191372
0.300392 0.292549 0.192784
0.370667 0.301961 0.194353
0.444078 0.295686 0.189647
0.517961 0.303529 0.193882
0.576471 0.317647 0.220392
0.633726 0.335686 0.234510
0.682510 0.363765 0.272941
0.728314 0.399372 0.311373
0.752941 0.434196 0.348706
0.781890 0.492353 0.422588
0.062431 0.344784 0.191059
0.088345 0.359937 0.201224
0.120314 0.360722 0.201129
0.163200 0.361192 0.205835
0.215812 0.362479 0.213302
0.270588 0.369098 0.220235
0.323482 0.381428 0.240157
0.394196 0.399090 0.247937
0.472973 0.409067 0.241286
0.536157 0.408000 0.243294
0.591843 0.407216 0.251294
0.641757 0.420894 0.272439
0.687310 0.444800 0.308675
0.720847 0.472784 0.348643
0.749083 0.505820 0.398023
0.771259 0.544806 0.465406
0.063373 0.441412 0.224000
0.097443 0.458510 0.236267
0.141051 0.457851 0.237522
0.188549 0.459200 0.243827
0.244612 0.463247 0.249443
0.301333 0.466667 0.262431
0.357365 0.472879 0.277522
0.415874 0.477867 0.298447
