example_ofxGpuLutCube/bin/data/ofxGpuLutCube/LUT/A46 (gray violet fade).cube
LUT_3D_SIZE 6
0.000000 0.000000 0.050980
0.053333 0.002353 0.069804
0.436079 0.000000 0.058824
0.705882 0.087843 0.172549
0.916078 0.300392 0.335686
1.000000 0.466628 0.505843
0.001569 0.163922 0.047059
0.200941 0.179608 0.062902
0.472941 0.220078 0.124706
0.717647 0.297725 0.240157
0.920941 0.406902 0.385882
1.000000 0.540329 0.545828
0.267451 0.467451 0.243922
0.344314 0.459608 0.239530
0.533490 0.493647 0.294274
0.730196 0.527373 0.373961
0.920000 0.590902 0.489412
1.000000 0.688589 0.643851
0.491765 0.742745 0.493333
0.521412 0.732235 0.489098
0.622432 0.739294 0.509333
0.769412 0.760157 0.558902
0.925490 0.795137 0.635451
1.000000 0.832933 0.745812
0.676079 0.932549 0.722353
0.698353 0.936470 0.726902
0.753726 0.940863 0.743529
0.834981 0.942432 0.765804
0.937098 0.944941 0.796079
0.997631 0.958369 0.852510
0.893922 1.000000 0.925294
0.903357 1.000000 0.926925
0.914462 0.996894 0.930110
0.933333 1.000000 0.929412
0.968588 0.999961 0.941137
0.996039 0.996117 0.949020
0.001569 0.002353 0.189804
0.168784 0.000000 0.193726
0.453333 0.000784 0.254902
0.706353 0.232941 0.360471
0.911843 0.381961 0.479059
0.999945 0.523827 0.606165
0.010824 0.189490 0.231216
0.233192 0.200690 0.248471
0.482322 0.262275 0.309835
0.715984 0.358275 0.401035
0.915765 0.457192 0.506667
0.997816 0.583474 0.635195
0.311216 0.477647 0.363765
0.377286 0.470965 0.365929
0.543718 0.502369 0.409600
0.732047 0.548549 0.482353
0.914165 0.611106 0.572706
0.999205 0.706315 0.699343
0.506667 0.735529 0.562667
0.534369 0.723514 0.552784
0.634886 0.743341 0.580329
0.774651 0.763828 0.622431
0.924643 0.796204 0.686902
0.996894 0.841504 0.780287
0.690981 0.933020 0.761882
0.709835 0.935247 0.760847
0.755576 0.937004 0.763922
0.842855 0.941678 0.792502
0.934588 0.945223 0.821772
0.999062 0.960146 0.874797
0.904172 0.999984 0.927804
0.909685 0.999991 0.932438
0.918540 0.999514 0.933278
0.943522 1.000000 0.941168
0.968636 0.999991 0.941223
0.992157 1.000000 0.949098
0.000000 0.000784 0.476078
0.236549 0.002196 0.481412
0.490510 0.088628 0.515451
0.719373 0.265098 0.566117
0.905255 0.411765 0.635137
1.000000 0.559968 0.729381
0.185412 0.252863 0.500392
0.304627 0.260141 0.497255
0.513726 0.310275 0.539514
0.719530 0.392565 0.589051
0.905851 0.495843 0.665726
0.998439 0.623765 0.752113
0.356078 0.503373 0.565647
0.421239 0.495435 0.558275
0.573082 0.536784 0.604329
0.733804 0.582996 0.655278
0.898635 0.644612 0.709553
0.999379 0.736398 0.796035
0.534902 0.738666 0.689569
0.562196 0.734400 0.688094
0.656439 0.753977 0.712345
0.783216 0.774212 0.740047
0.917521 0.805302 0.780518
0.999372 0.854033 0.843876
0.712784 0.934902 0.828706
0.732988 0.929631 0.823561
0.779012 0.933678 0.830871
0.852016 0.940361 0.851200
0.936784 0.946917 0.866322
0.996578 0.960463 0.911775
0.910494 0.996862 0.945780
0.919415 0.997962 0.950847
0.923282 0.999994 0.946811
0.951528 0.999379 0.960077
0.971752 1.000000 0.959921
0.993741 1.000000 0.959310
0.125490 0.057255 0.748235
0.293804 0.125961 0.752784
0.516392 0.235922 0.779137
0.728157 0.341804 0.799216
0.908235 0.441098 0.820235
0.999992 0.586596 0.856510
0.314981 0.340863 0.767215
0.392879 0.348863 0.764549
0.551498 0.391498 0.785631
0.731200 0.446086 0.801098
0.910023 0.524392 0.834196
0.999534 0.644052 0.873961
0.449255 0.551373 0.787137
0.494714 0.557114 0.785819
0.611482 0.583153 0.801098
0.755576 0.617255 0.818918
0.904564 0.660894 0.846996
0.999379 0.747228 0.884992
0.577098 0.762039 0.840470
0.604204 0.759372 0.839592
0.688282 0.773679 0.852863
0.802165 0.791780 0.861898
0.916486 0.815937 0.876894
1.000000 0.866883 0.909896
0.719529 0.934745 0.896000
0.736627 0.933270 0.898008
0.791780 0.935623 0.904094
0.867326 0.942212 0.916800
0.942933 0.947859 0.925898
0.999689 0.967489 0.947763
0.909686 1.000000 0.960745
0.917565 1.000000 0.962163
0.941110 1.000000 0.964736
0.956882 0.999994 0.968633
0.979859 0.999534 0.975197
0.999153 0.996925 0.976471
0.363921 0.305882 0.971765
0.439059 0.330039 0.974745
0.584314 0.386353 0.972549
0.748706 0.457412 0.974274
0.908078 0.543529 0.977098
0.997623 0.626549 0.979608
0.462431 0.455686 0.973961
0.503686 0.458573 0.968816
0.616816 0.493145 0.970384
0.768408 0.545663 0.977694
0.906290 0.591812 0.970698
0.999379 0.668148 0.984251
0.587294 0.648627 0.977569
0.611388 0.647372 0.969098
0.685427 0.666384 0.971357
0.793475 0.688095 0.969882
0.913506 0.716329 0.974557
0.997653 0.762287 0.977106
0.673098 0.800000 0.962667
0.704031 0.810980 0.971137
0.759843 0.818071 0.967310
0.832439 0.824596 0.970133
0.921098 0.837898 0.968722
1.000000 0.870686 0.977517
0.770980 0.933020 0.970824
0.787231 0.933177 0.971294
0.830274 0.938792 0.977475
0.883859 0.945192 0.973302
0.954573 0.953663 0.975686
0.999984 0.971725 0.983845
0.923835 1.000000 0.992133
0.926387 0.999991 0.988110
0.943797 1.000000 0.989956
0.963917 1.000000 0.988230
0.984336 0.999991 0.996037
0.998408 0.998408 0.995224
0.564706 0.505804 1.000000
0.596078 0.517647 1.000000
0.671388 0.553718 0.999216
0.782777 0.609349 0.996109
0.888698 0.668235 0.997670
0.988196 0.733372 1.000000
0.610196 0.582730 0.993788
0.638422 0.593374 0.998136
0.701798 0.614883 1.000000
0.796892 0.656921 1.000000
0.896993 0.706828 0.998593
0.990495 0.763121 0.999969
0.710549 0.723914 0.999992
0.726279 0.727063 0.999220
0.763804 0.736503 0.997509
0.837655 0.762513 0.998596
0.912215 0.795462 0.997819
0.987435 0.829035 0.999200
0.795294 0.850196 0.996862
0.810921 0.851023 0.999180
0.838419 0.859144 0.999372
0.884532 0.868864 0.999826
0.936342 0.884709 0.996404
0.985906 0.908134 0.996894
0.873686 0.941969 1.000000
0.881559 0.944304 1.000000
0.904449 0.950592 0.999467
0.939603 0.957638 1.000000
0.974725 0.970803 0.999048
0.999898 0.980384 1.000000
0.941098 1.000000 1.000000
0.941867 1.000000 0.998462
0.952941 1.000000 1.000000
0.974809 0.999999 0.999969
0.997647 0.999953 0.999953
1.000000 1.000000 1.000000
