example_ofxGpuLutCube/bin/data/ofxGpuLutCube/LUT/A46 (gray violet fade).cube
LUT_3D_SIZE 16
0.000000 0.000000 0.050980
0.000000 0.000000 0.070588
0.000000 0.003922 0.062745
0.053333 0.002353 0.069804
0.185882 0.003138 0.067451
0.313725 0.000000 0.054902
0.436079 0.000000 0.058824
0.530981 0.000000 0.077647
0.617255 0.001569 0.116078
0.705882 0.087843 0.172549
0.780392 0.168627 0.223529
0.850196 0.239216 0.280000
0.916078 0.300392 0.335686
0.985883 0.358432 0.397647
0.996862 0.421176 0.459608
1.000000 0.466628 0.505843
0.003922 0.000000 0.062745
0.001255 0.001412 0.069647
0.002196 0.002667 0.066196
0.104314 0.004236 0.060706
0.236079 0.003137 0.057412
0.352157 0.005490 0.047843
0.452549 0.015059 0.064314
0.551059 0.033098 0.097726
0.632941 0.090667 0.137569
0.713255 0.154353 0.190588
0.785883 0.217255 0.244706
0.854588 0.271373 0.293176
0.921882 0.323451 0.343059
0.989804 0.379765 0.404392
1.000000 0.440941 0.474666
0.999992 0.479961 0.514407
0.000000 0.027451 0.060392
0.000784 0.026823 0.061177
0.036549 0.040628 0.057882
0.133961 0.063216 0.052392
0.237333 0.086274 0.047373
0.346667 0.103530 0.058039
0.447373 0.122823 0.084549
0.543372 0.139451 0.116706
0.630588 0.170980 0.162039
0.708078 0.215686 0.201255
0.783529 0.261176 0.255686
0.852392 0.310275 0.303529
0.919059 0.357490 0.355922
0.982902 0.404549 0.410196
0.998117 0.461961 0.476863
0.997655 0.505020 0.520706
0.001569 0.163922 0.047059
0.024314 0.149020 0.043922
0.119216 0.163294 0.058980
0.200941 0.179608 0.062902
0.282667 0.195608 0.088941
0.383529 0.206274 0.097255
0.472941 0.220078 0.124706
0.559216 0.240157 0.157647
0.641882 0.267765 0.200314
0.717647 0.297725 0.240157
0.789020 0.330981 0.284706
0.852549 0.369098 0.328314
0.920941 0.406902 0.385882
0.983373 0.453020 0.438745
1.000000 0.502275 0.496628
1.000000 0.540329 0.545828
0.034510 0.250196 0.087843
0.077176 0.237176 0.084706
0.145255 0.248000 0.090353
0.232000 0.263059 0.107608
0.313412 0.275451 0.119216
0.393725 0.293333 0.138823
0.479529 0.306039 0.170980
0.565177 0.323921 0.202510
0.640784 0.349020 0.236863
0.714353 0.369255 0.279844
0.781176 0.400785 0.316078
0.854117 0.435451 0.365490
0.917647 0.465883 0.414118
0.981961 0.501804 0.461490
0.997490 0.541804 0.522196
1.000000 0.585780 0.571686
0.168627 0.376471 0.164706
0.170980 0.352941 0.141960
0.221177 0.360000 0.154510
0.290196 0.374902 0.173333
0.364706 0.383530 0.188235
0.435294 0.396078 0.203922
0.501961 0.403922 0.225098
0.582745 0.413333 0.250196
0.650196 0.436863 0.288628
0.725490 0.450980 0.323921
0.788235 0.478431 0.360784
0.860393 0.499608 0.409412
0.920000 0.528627 0.447843
0.981177 0.561569 0.498824
1.000000 0.598431 0.561569
1.000000 0.635216 0.607804
0.267451 0.467451 0.243922
0.255058 0.443294 0.215843
0.293647 0.447843 0.221961
0.344314 0.459608 0.239530
0.400627 0.473255 0.255529
0.467451 0.482353 0.273725
0.533490 0.493647 0.294274
0.599059 0.502432 0.314196
0.664314 0.510745 0.340862
0.730196 0.527373 0.373961
0.792941 0.548235 0.410196
0.860549 0.569569 0.448784
0.920000 0.590902 0.489412
0.980863 0.623215 0.540078
0.996862 0.653333 0.593255
1.000000 0.688589 0.643851
0.354510 0.566275 0.323137
0.346353 0.544000 0.304628
0.368784 0.547137 0.312941
0.410510 0.556549 0.325961
0.453647 0.561255 0.330510
0.503529 0.570196 0.348235
0.559686 0.580078 0.360470
0.624470 0.586196 0.380235
0.682667 0.599372 0.404235
0.743686 0.607843 0.432627
0.806275 0.625882 0.465882
0.860863 0.642823 0.499608
0.920471 0.662275 0.538039
0.982902 0.688471 0.586196
1.000000 0.714980 0.629490
1.000000 0.738761 0.676000
0.422745 0.656471 0.410196
0.418039 0.637020 0.390274
0.439843 0.641098 0.402823
0.465726 0.646118 0.402039
0.501961 0.649412 0.409725
0.548235 0.653333 0.423530
0.592784 0.659294 0.437490
0.643294 0.667294 0.451608
0.696628 0.673412 0.468549
0.753882 0.681726 0.485176
0.810196 0.692549 0.511373
0.871843 0.710588 0.544314
0.923921 0.726275 0.582274
0.979137 0.746510 0.627294
0.999529 0.771294 0.665412
0.999976 0.792870 0.712086
0.491765 0.742745 0.493333
0.483765 0.725333 0.472471
0.499608 0.725490 0.484706
0.521412 0.732235 0.489098
0.551686 0.730823 0.496471
0.585098 0.734118 0.501176
0.622432 0.739294 0.509333
0.673255 0.743059 0.525490
0.723294 0.752628 0.546353
0.769412 0.760157 0.558902
0.825882 0.769412 0.577255
0.876235 0.784470 0.602510
0.925490 0.795137 0.635451
0.977725 0.805334 0.669334
0.997490 0.817255 0.703372
1.000000 0.832933 0.745812
0.552941 0.823529 0.576471
0.545882 0.804706 0.561568
0.556863 0.807843 0.568627
0.574902 0.810196 0.574902
0.600000 0.811765 0.576471
0.623529 0.811765 0.576471
0.661177 0.813334 0.588235
0.702745 0.813333 0.595294
0.741177 0.826667 0.610196
0.792157 0.827451 0.625882
0.835294 0.835294 0.639216
0.884706 0.843921 0.652549
0.927843 0.850196 0.681569
0.970196 0.865098 0.710588
0.995294 0.874510 0.750588
1.000000 0.886236 0.792039
0.603922 0.880000 0.645490
0.614902 0.881568 0.651765
0.625882 0.880784 0.653333
0.635922 0.879216 0.655686
0.655843 0.884706 0.657255
0.676079 0.883922 0.664314
0.705255 0.888000 0.672314
0.739921 0.890824 0.677961
0.773804 0.888314 0.686902
0.813333 0.889255 0.692549
0.843921 0.891765 0.705098
0.889255 0.895687 0.713725
0.923922 0.896471 0.726275
0.964706 0.908549 0.755294
0.996392 0.913882 0.785255
1.000000 0.922322 0.810141
0.676079 0.932549 0.722353
0.683137 0.936784 0.727530
0.687530 0.936470 0.727686
0.698353 0.936470 0.726902
0.706667 0.934118 0.734118
0.730196 0.936470 0.737255
0.753726 0.940863 0.743529
0.778039 0.938980 0.746667
0.809098 0.938980 0.757177
0.834981 0.942432 0.765804
0.869020 0.944314 0.778039
0.901647 0.944627 0.787294
0.937098 0.944941 0.796079
0.964549 0.947608 0.811765
0.991686 0.952628 0.832941
0.997631 0.958369 0.852510
0.736470 0.967843 0.779608
0.743059 0.972079 0.783843
0.741333 0.969568 0.783686
0.749961 0.972706 0.788706
0.761882 0.971294 0.787137
0.778039 0.972549 0.801569
0.796863 0.972392 0.803765
0.816314 0.973020 0.806118
0.836863 0.977255 0.816941
0.863216 0.974902 0.822431
0.890196 0.973333 0.830588
0.918588 0.975373 0.842824
0.939451 0.977255 0.850196
0.963137 0.979608 0.860392
0.985882 0.977255 0.869020
1.000000 0.985074 0.888604
0.820392 0.998431 0.866666
0.834667 0.999372 0.869961
0.834824 0.999529 0.870902
0.838745 1.000000 0.874039
0.851608 0.999843 0.875921
0.852549 1.000000 0.869804
0.862745 1.000000 0.880628
0.878274 0.998117 0.884706
0.897726 0.998745 0.886588
0.907451 0.998588 0.894117
0.931764 0.992941 0.900392
0.943686 0.999216 0.906667
0.956863 0.999529 0.912941
0.973804 0.999686 0.925961
0.991373 0.997490 0.930196
0.996862 1.000000 0.944227
0.893922 1.000000 0.925294
0.901773 0.999969 0.925419
0.891671 0.997631 0.919898
0.903357 1.000000 0.926925
0.908863 0.999992 0.923091
0.913607 0.996117 0.929294
0.914462 0.996894 0.930110
0.928478 0.999961 0.927004
0.931725 0.998423 0.927820
0.933333 1.000000 0.929412
0.949020 1.000000 0.933333
0.950620 1.000000 0.934149
0.968588 0.999961 0.941137
0.979585 0.998423 0.941137
0.987451 1.000000 0.948196
0.996039 0.996117 0.949020
0.000784 0.003138 0.062745
0.002510 0.001412 0.062745
0.000314 0.000471 0.067765
0.080785 0.003451 0.070745
0.217568 0.000000 0.078118
0.333333 0.003138 0.101176
0.440784 0.003138 0.120314
0.541176 0.001255 0.154981
0.632627 0.068235 0.192000
0.713098 0.154824 0.235921
0.787451 0.214118 0.284706
0.856784 0.276392 0.324392
0.925490 0.330510 0.380863
0.990902 0.384784 0.434510
0.996235 0.443922 0.488000
0.999992 0.490118 0.538777
0.003294 0.000000 0.066823
0.000502 0.001255 0.066071
0.018447 0.000000 0.064157
0.138761 0.000879 0.070055
0.251388 0.003482 0.095467
0.357804 0.009569 0.110588
0.457474 0.031718 0.134023
0.555514 0.082133 0.168659
0.639843 0.138039 0.201726
0.722070 0.197521 0.251137
0.791058 0.253333 0.294431
0.864345 0.302620 0.341428
0.928596 0.350839 0.389333
0.994353 0.407655 0.443828
0.996706 0.461961 0.501930
0.999379 0.507565 0.552573
0.001569 0.032784 0.067765
0.001255 0.036235 0.061741
0.041161 0.047090 0.060549
0.144188 0.064031 0.081412
0.240627 0.090353 0.097130
0.351373 0.107137 0.122196
0.449663 0.134275 0.147137
0.544816 0.163545 0.177318
0.633882 0.202227 0.219451
0.710745 0.248157 0.255874
0.791686 0.292236 0.306667
0.860989 0.335592 0.350902
0.923419 0.380957 0.393224
0.987451 0.426792 0.443608
0.998996 0.478588 0.504251
1.000000 0.521164 0.550984
0.003922 0.168941 0.101961
0.019733 0.158274 0.098636
0.113004 0.165992 0.105568
0.206651 0.179043 0.118714
0.290980 0.195922 0.132925
0.387137 0.210196 0.151372
0.474039 0.230526 0.185098
0.564016 0.256816 0.210165
0.645741 0.286776 0.251106
0.724298 0.319529 0.286620
0.796235 0.354823 0.332235
0.861051 0.389553 0.371921
0.925051 0.426070 0.420235
0.991655 0.468392 0.473506
1.000000 0.518965 0.527624
0.999534 0.560856 0.575409
0.042039 0.254118 0.134118
0.081726 0.239310 0.127498
0.154918 0.250102 0.130102
0.239435 0.264157 0.146384
0.317804 0.283953 0.165490
0.398275 0.297883 0.184941
0.485020 0.316518 0.211326
0.568973 0.336533 0.241945
0.640502 0.359624 0.272910
0.724581 0.383498 0.319310
0.791373 0.413961 0.352941
0.855874 0.443639 0.395137
0.922259 0.476423 0.441945
0.983247 0.514008 0.491012
0.999874 0.555451 0.544533
0.999347 0.595045 0.587198
0.186666 0.374118 0.196079
0.188863 0.352941 0.184628
0.232784 0.364235 0.196235
0.300078 0.376314 0.206432
0.362510 0.384941 0.223529
0.435294 0.400000 0.240785
0.510431 0.405647 0.261177
0.589490 0.427137 0.289255
0.657882 0.445961 0.323608
0.732863 0.464000 0.360784
0.792941 0.487059 0.397647
0.858824 0.510745 0.434510
0.924235 0.539137 0.474039
0.989490 0.570667 0.521568
0.997490 0.610196 0.577569
0.996078 0.646981 0.625043
0.276706 0.464942 0.268863
0.263216 0.442039 0.246306
0.300737 0.453208 0.258824
0.353349 0.459827 0.269836
0.405020 0.471467 0.284079
0.469020 0.483137 0.296471
0.537318 0.494933 0.319843
0.602416 0.507796 0.341804
0.664972 0.520878 0.360565
0.734996 0.533961 0.399529
0.798902 0.556235 0.435451
0.861804 0.574243 0.470149
0.923043 0.600219 0.514667
0.980612 0.627388 0.552878
1.000000 0.663153 0.610667
0.999372 0.694988 0.655729
0.359529 0.569569 0.343686
0.350117 0.541176 0.327216
0.372800 0.548172 0.334620
0.411859 0.555388 0.344000
0.457130 0.561788 0.356455
0.506980 0.569098 0.369098
0.564988 0.582463 0.382557
0.628549 0.592659 0.405271
0.687435 0.605333 0.430745
0.747043 0.615278 0.457725
0.805490 0.633255 0.483294
0.865349 0.648722 0.518212
0.922039 0.669522 0.555953
0.978604 0.695090 0.598306
0.998996 0.712816 0.635169
0.999689 0.741266 0.687086
0.427608 0.651295 0.423844
0.419922 0.632627 0.405867
0.439184 0.633286 0.409851
0.465286 0.640753 0.415404
0.502086 0.644047 0.429396
0.543686 0.651765 0.439059
0.589584 0.658447 0.446933
0.643451 0.663529 0.465412
0.697004 0.673474 0.481663
0.755043 0.685020 0.506980
0.812078 0.694118 0.532549
0.872847 0.710682 0.561569
0.922196 0.730071 0.598369
0.977600 0.751372 0.636235
0.999749 0.773898 0.680000
1.000000 0.793689 0.726929
0.493804 0.733961 0.506510
0.482416 0.719278 0.487906
0.498102 0.719937 0.490510
0.523169 0.722980 0.499671
0.548925 0.726275 0.502620
0.583216 0.733490 0.516863
0.626322 0.737411 0.524486
0.672721 0.744094 0.537349
0.722447 0.754196 0.552784
0.777318 0.764078 0.574682
0.826039 0.769412 0.594353
0.876863 0.781836 0.613804
0.928941 0.793631 0.644863
0.973647 0.807122 0.673317
0.998745 0.820235 0.706447
0.997484 0.834306 0.756582
0.545098 0.811765 0.574118
0.541333 0.799372 0.562509
0.553726 0.800000 0.563137
0.571294 0.802039 0.570196
0.595294 0.806902 0.579765
0.623529 0.810981 0.585883
0.659765 0.811765 0.589961
0.698667 0.814745 0.602981
0.737255 0.820392 0.612549
0.788863 0.823372 0.625412
0.830589 0.829020 0.640000
0.878902 0.843294 0.662902
0.929726 0.851451 0.687843
0.970824 0.866353 0.713725
0.995294 0.873726 0.758745
1.000000 0.882353 0.799882
0.612863 0.882196 0.657412
0.610447 0.882039 0.651012
0.624408 0.879310 0.655435
0.641883 0.880627 0.661020
0.654462 0.882196 0.656878
0.683294 0.886118 0.668078
0.711184 0.884988 0.677333
0.740800 0.889820 0.685459
0.775843 0.890855 0.696973
0.812173 0.890039 0.701176
0.845333 0.893177 0.712784
0.890071 0.896439 0.723733
0.926463 0.900518 0.737851
0.963827 0.907043 0.756612
0.991906 0.913254 0.783969
0.997515 0.919835 0.814245
0.679372 0.936000 0.728314
0.680784 0.933020 0.725647
0.683702 0.935059 0.728941
0.699483 0.937035 0.734400
0.712753 0.936000 0.738259
0.734745 0.936157 0.744000
0.750337 0.937130 0.744784
0.776816 0.937568 0.751780
0.808126 0.938855 0.760000
0.838431 0.942557 0.769161
0.874039 0.943686 0.781804
0.898447 0.946635 0.791749
0.937694 0.945663 0.804957
0.964831 0.951655 0.817224
0.992816 0.953757 0.836079
0.999534 0.961827 0.863733
0.742588 0.969726 0.795138
0.748863 0.974651 0.797804
0.751561 0.972737 0.796267
0.759906 0.974714 0.799843
0.774620 0.971482 0.801161
0.787765 0.974902 0.806431
0.802353 0.976784 0.813334
0.822557 0.974682 0.816063
0.846839 0.974588 0.823467
0.867231 0.977977 0.827200
0.891765 0.974745 0.840471
0.915796 0.975686 0.845773
0.939325 0.976440 0.853835
0.963702 0.980706 0.865537
0.988172 0.976125 0.874729
0.999487 0.981984 0.895136
0.829647 1.000000 0.871373
0.825851 0.999090 0.868173
0.828361 0.998839 0.869459
0.837522 1.000000 0.873224
0.851734 0.999216 0.878557
0.855530 0.999216 0.878431
0.868110 0.999843 0.884392
0.881537 0.999278 0.887122
0.898824 0.997019 0.891451
0.905474 0.999874 0.896063
0.927843 1.000000 0.903529
0.944910 0.998839 0.908016
0.959467 0.999937 0.917114
0.976565 0.999247 0.920565
0.989208 0.998714 0.930353
0.996076 0.999998 0.943515
0.900220 0.999969 0.925341
0.901804 1.000000 0.925372
0.904133 1.000000 0.927702
0.908375 1.000000 0.932995
0.909633 1.000000 0.929280
0.914384 1.000000 0.933176
0.916320 0.998751 0.925445
0.927246 0.997945 0.935082
0.932944 1.000000 0.930926
0.939601 0.996869 0.935630
0.949051 1.000000 0.933364
0.955779 0.996892 0.935236
0.962260 0.999198 0.938524
0.973042 0.996561 0.941659
0.987445 0.999975 0.947421
0.996070 0.996863 0.948243
0.001569 0.000000 0.105098
0.000000 0.000000 0.107294
0.021804 0.002353 0.098353
0.103686 0.000000 0.112314
0.223216 0.001883 0.142902
0.336470 0.000000 0.167059
0.441255 0.002353 0.194196
0.538824 0.053020 0.224941
0.626667 0.138039 0.260392
0.711686 0.201569 0.297883
0.784314 0.254118 0.343529
0.854745 0.307451 0.378509
0.921725 0.354353 0.425412
0.985883 0.407059 0.472941
0.998431 0.461490 0.522980
0.999976 0.507349 0.565427
0.001883 0.008471 0.124706
0.000251 0.000000 0.117898
0.051012 0.000439 0.123200
0.149553 0.003326 0.134557
0.257098 0.004769 0.157333
0.360314 0.031372 0.183059
0.455592 0.079059 0.206368
0.549396 0.126243 0.230745
0.631812 0.181584 0.270620
0.717176 0.237176 0.312533
0.785098 0.285334 0.346980
0.855341 0.326902 0.385067
0.922196 0.374243 0.430180
0.988706 0.424910 0.483796
0.998619 0.479937 0.536157
0.999987 0.523514 0.582944
0.001412 0.050510 0.113569
0.001412 0.050792 0.112188
0.061082 0.058102 0.124800
0.151780 0.075326 0.140267
0.259545 0.095686 0.161820
0.358431 0.119372 0.185725
0.453929 0.152470 0.211137
0.543780 0.191153 0.241694
0.632596 0.230400 0.279404
0.710243 0.274385 0.312377
0.783843 0.311686 0.354510
0.851765 0.356769 0.397804
0.917678 0.395326 0.435075
0.980675 0.442384 0.479373
0.998463 0.494055 0.537067
0.997184 0.533100 0.572662
0.001255 0.175686 0.167373
0.036016 0.163985 0.157741
0.127153 0.175373 0.164298
0.213584 0.188549 0.180486
0.302745 0.203263 0.194761
0.387294 0.219608 0.211137
0.477114 0.242290 0.238431
0.560596 0.272439 0.267545
0.644204 0.304125 0.303467
0.720941 0.336502 0.337067
0.788549 0.368471 0.378823
0.854745 0.404361 0.414870
0.923169 0.437930 0.455216
0.983247 0.482478 0.504627
0.997992 0.530949 0.558651
0.998441 0.570281 0.598508
0.080314 0.262431 0.192941
0.104439 0.246683 0.181365
0.170572 0.257255 0.193255
0.247624 0.272910 0.202102
0.329349 0.287028 0.221145
0.406745 0.303686 0.240471
0.483984 0.323733 0.262432
0.568659 0.344345 0.291420
0.646714 0.370322 0.330071
0.717647 0.396800 0.361538
0.785882 0.424000 0.394510
0.853428 0.454902 0.436863
0.918086 0.485647 0.477804
0.978447 0.522102 0.523765
1.000000 0.564862 0.573741
0.997670 0.599329 0.614847
0.209412 0.380392 0.250980
0.207843 0.361098 0.232941
0.253490 0.366274 0.243608
0.309019 0.377882 0.257726
0.373334 0.388235 0.268236
0.441569 0.401569 0.285490
0.513412 0.413647 0.302902
0.588235 0.427294 0.333647
0.661333 0.450980 0.368627
0.729725 0.473098 0.399215
0.796078 0.495686 0.436079
0.861334 0.516549 0.473098
0.922353 0.545255 0.502902
0.983529 0.579608 0.555294
1.000000 0.614588 0.602196
0.999976 0.654800 0.646996
0.300236 0.466353 0.312157
0.284894 0.447686 0.288753
0.315325 0.453522 0.294118
0.362227 0.463216 0.309271
0.412392 0.475671 0.322290
0.476079 0.484706 0.338196
0.536816 0.495686 0.359059
0.600188 0.507137 0.377977
0.663749 0.526965 0.402949
0.731796 0.542776 0.432031
0.792941 0.560314 0.460706
0.857632 0.581177 0.497255
0.920784 0.606463 0.536376
0.978980 0.633192 0.581271
0.998494 0.666886 0.626510
0.999997 0.700627 0.671613
0.370980 0.570196 0.378980
0.363326 0.545914 0.364204
0.387765 0.550023 0.371325
0.420235 0.557804 0.380831
0.460831 0.563765 0.387984
0.514353 0.570667 0.402353
0.569694 0.584659 0.419263
0.628455 0.592784 0.439090
0.684486 0.609004 0.456063
0.746886 0.617788 0.481161
0.803922 0.634667 0.507137
0.864816 0.648440 0.538353
0.921977 0.673569 0.581114
0.977757 0.697632 0.623184
0.998870 0.715733 0.653992
1.000000 0.747192 0.701333
0.437020 0.654432 0.451765
0.426510 0.633851 0.434071
0.445114 0.636047 0.433726
0.472565 0.640408 0.445710
0.506259 0.648000 0.455843
0.544941 0.651608 0.464784
0.592533 0.656596 0.476486
0.642196 0.665255 0.489569
0.696000 0.675357 0.508110
0.755388 0.682886 0.528439
0.810510 0.696628 0.555922
0.871153 0.713412 0.579921
0.920878 0.732737 0.612612
0.974431 0.750933 0.651828
0.998745 0.772800 0.695498
0.999038 0.796348 0.740434
0.501647 0.734432 0.531137
0.489286 0.718588 0.511623
0.503373 0.721412 0.511467
0.526212 0.725114 0.518118
0.552251 0.728816 0.526494
0.589333 0.733333 0.536157
0.628235 0.741427 0.549177
0.674604 0.746134 0.560659
0.723106 0.755420 0.575090
0.775781 0.762510 0.589929
0.825569 0.773020 0.609098
0.879498 0.781302 0.633788
0.929788 0.797333 0.660769
0.971545 0.805302 0.690008
0.999561 0.818573 0.724110
0.999689 0.838519 0.764263
0.556863 0.808628 0.598431
0.549804 0.796862 0.584314
0.561569 0.799843 0.590431
0.579765 0.803294 0.590745
0.605019 0.803138 0.598588
0.626667 0.806275 0.599216
0.660549 0.807843 0.607686
0.700392 0.811765 0.619765
0.742118 0.818039 0.634196
0.789334 0.826667 0.650353
0.833726 0.832941 0.660392
0.879215 0.843921 0.678432
0.924706 0.850980 0.700706
0.966431 0.865726 0.730980
0.996235 0.873726 0.763922
1.000000 0.887788 0.805435
0.619294 0.882039 0.671843
0.619985 0.877710 0.666510
0.628925 0.882039 0.670839
0.644078 0.881631 0.675483
0.656314 0.880784 0.679372
0.685647 0.882353 0.682980
0.712816 0.884863 0.689569
0.740078 0.887655 0.694337
0.777725 0.889632 0.706290
0.811608 0.890510 0.711247
0.847843 0.892549 0.723451
0.885773 0.896847 0.732674
0.925647 0.898604 0.748204
0.963765 0.907670 0.769663
0.991373 0.911059 0.792816
0.999208 0.924024 0.825840
0.680784 0.937882 0.742275
0.685647 0.933114 0.737914
0.694839 0.933270 0.744565
0.706196 0.937851 0.745318
0.714729 0.937035 0.746667
0.735843 0.935059 0.748392
0.751875 0.937286 0.752659
0.777474 0.935968 0.759278
0.808126 0.939357 0.766651
0.836737 0.943373 0.778541
0.874196 0.942902 0.790588
0.902620 0.946478 0.802949
0.935937 0.945882 0.812047
0.961380 0.948047 0.826008
0.992784 0.952910 0.842353
0.999365 0.961391 0.865536
0.743373 0.971922 0.798902
0.751780 0.974431 0.804831
0.756329 0.972769 0.807687
0.768753 0.975028 0.811733
0.776721 0.974463 0.811545
0.789490 0.972392 0.814745
0.805992 0.972957 0.819482
0.822306 0.975937 0.820831
0.848188 0.975686 0.829835
0.867200 0.975843 0.834071
0.894902 0.978196 0.847843
0.915984 0.980079 0.852737
0.940329 0.979200 0.862934
0.961631 0.979765 0.870118
0.988392 0.978228 0.878118
1.000000 0.983663 0.894565
0.836392 1.000000 0.877490
0.825224 0.999153 0.868455
0.838337 0.999216 0.875043
0.842541 0.999404 0.878149
0.854118 0.999216 0.885647
0.861020 0.996392 0.887372
0.870274 0.999184 0.887592
0.881506 0.998870 0.892172
0.901208 0.998463 0.894400
0.909490 0.999216 0.898259
0.927059 0.998274 0.902274
0.944627 0.996141 0.915357
0.958620 0.999278 0.921600
0.978165 0.997082 0.927247
0.989835 0.997270 0.931325
0.998238 0.999358 0.945065
0.903333 0.999976 0.926949
0.902170 0.997826 0.929115
0.903396 0.999980 0.930100
0.908686 1.000000 0.932370
0.908449 0.999997 0.929633
0.913607 0.996117 0.929341
0.915716 0.998136 0.931360
0.926326 0.997019 0.934185
0.931746 1.000000 0.932508
0.943180 0.999969 0.940779
0.946706 1.000000 0.933349
0.957505 0.999686 0.937260
0.966307 0.997661 0.938847
0.974044 0.997495 0.942593
0.984783 0.999987 0.945564
0.995984 0.996109 0.948966
0.001569 0.002353 0.189804
0.001255 0.001883 0.189176
0.086275 0.000628 0.190902
0.168784 0.000000 0.193726
0.243451 0.000471 0.210667
0.350588 0.001569 0.230588
0.453333 0.000784 0.254902
0.545412 0.080000 0.287059
0.633725 0.166118 0.322980
0.706353 0.232941 0.360471
0.784314 0.290981 0.407059
0.850980 0.336785 0.443137
0.911843 0.381961 0.479059
0.976471 0.428078 0.525334
0.995765 0.480314 0.566274
0.999945 0.523827 0.606165
0.000000 0.007059 0.216784
0.002071 0.004079 0.199404
0.096251 0.002039 0.209349
0.188078 0.003514 0.216251
0.271624 0.006776 0.225757
0.373020 0.038745 0.242667
0.463593 0.097381 0.272973
0.550306 0.149490 0.300518
0.636612 0.214055 0.337631
0.714039 0.266729 0.374996
0.787137 0.315294 0.414117
0.852800 0.357490 0.446839
0.913945 0.400032 0.485679
0.980988 0.446086 0.528282
0.998274 0.497412 0.578102
0.999987 0.541560 0.617021
0.000628 0.074980 0.196392
0.001380 0.073381 0.188486
0.092580 0.078024 0.199529
0.181773 0.088627 0.213396
0.270243 0.106667 0.223655
0.367216 0.135843 0.254588
0.461647 0.173490 0.285271
0.544345 0.217255 0.307043
0.628894 0.260612 0.346886
0.705443 0.302808 0.376973
0.784627 0.340392 0.419294
0.847372 0.379734 0.454055
0.911592 0.418259 0.487843
0.973427 0.460455 0.528471
1.000000 0.510149 0.579231
1.000000 0.552833 0.616392
0.010824 0.189490 0.231216
0.059482 0.181490 0.226259
0.150808 0.189679 0.231937
0.233192 0.200690 0.248471
0.319059 0.215969 0.266918
0.399686 0.233725 0.280470
0.482322 0.262275 0.309835
0.563639 0.292141 0.332926
0.642949 0.324078 0.368659
0.715984 0.358275 0.401035
0.787765 0.390588 0.438902
0.845522 0.422557 0.470714
0.915765 0.457192 0.506667
0.977882 0.499765 0.546824
0.999498 0.544690 0.595577
0.997816 0.583474 0.635195
0.111686 0.269490 0.252079
0.130823 0.255247 0.243890
0.192157 0.270651 0.251639
0.267451 0.286463 0.268894
0.343498 0.301773 0.291451
0.418823 0.319059 0.307922
0.491514 0.336094 0.322353
0.571890 0.357929 0.354447
0.642980 0.385067 0.386918
0.719216 0.411106 0.419420
0.785255 0.442824 0.450667
0.851294 0.471216 0.485490
0.910557 0.498165 0.521725
0.976314 0.538855 0.561757
1.000000 0.576627 0.611859
1.000000 0.612795 0.651663
0.229020 0.386667 0.319216
0.235137 0.367059 0.296000
0.272314 0.373177 0.303059
0.329412 0.385725 0.315921
0.386039 0.398902 0.329725
0.453333 0.407843 0.346667
0.523608 0.418510 0.368000
0.593569 0.440157 0.394196
0.661804 0.462118 0.420392
0.727686 0.483451 0.452079
0.792157 0.505882 0.480784
0.856941 0.527529 0.514196
0.916078 0.554510 0.549020
0.979608 0.593412 0.592000
1.000000 0.626980 0.631373
1.000000 0.662651 0.674424
0.311216 0.477647 0.363765
0.305694 0.457381 0.344533
0.337255 0.458667 0.355733
0.377286 0.470965 0.365929
0.424564 0.480000 0.377098
0.480000 0.490981 0.390745
0.543718 0.502369 0.409600
0.605271 0.513788 0.427702
0.668424 0.530949 0.450353
0.732047 0.548549 0.482353
0.791216 0.568000 0.511216
0.853992 0.588267 0.541898
0.914165 0.611106 0.572706
0.973553 0.640690 0.609475
0.999906 0.676769 0.657161
0.999205 0.706315 0.699343
0.390118 0.570980 0.431059
0.380706 0.548266 0.408972
0.405333 0.551623 0.420831
0.435702 0.558965 0.429427
0.470463 0.568816 0.435545
0.517490 0.573177 0.448000
0.574243 0.586321 0.461490
0.629427 0.597051 0.482761
