example_ofxGpuLutCube/bin/data/ofxGpuLutCube/LUT/A47 (violet magenta fade).cube
LUT_3D_SIZE 16
0.282353 0.172549 0.258824
0.286275 0.177255 0.261176
0.291765 0.178039 0.256471
0.304314 0.178824 0.261177
0.317647 0.180392 0.260393
0.345098 0.172549 0.262745
0.372549 0.176471 0.260393
0.424314 0.176471 0.265098
0.469804 0.178824 0.257255
0.537255 0.183530 0.254902
0.588235 0.192157 0.262745
0.649412 0.196862 0.262745
0.704313 0.210980 0.261177
0.773333 0.221961 0.257255
0.840000 0.241568 0.262745
0.886236 0.258746 0.266706
0.280784 0.180392 0.263529
0.287687 0.178667 0.262588
0.294902 0.181176 0.259608
0.306980 0.181961 0.262902
0.323451 0.178667 0.259608
0.345882 0.181176 0.259608
0.378353 0.181804 0.262118
0.426980 0.183686 0.264000
0.479686 0.191686 0.260549
0.531137 0.192314 0.257569
0.585098 0.200784 0.259608
0.648471 0.208627 0.263216
0.710902 0.223059 0.259138
0.769569 0.236392 0.255686
0.836706 0.251608 0.260236
0.890933 0.271325 0.267483
0.283922 0.185882 0.260392
0.292549 0.189804 0.264314
0.298510 0.187921 0.264784
0.310902 0.190588 0.261177
0.326431 0.191059 0.264785
0.352157 0.189020 0.264314
0.387451 0.194980 0.263530
0.430118 0.203137 0.258196
0.480628 0.206432 0.258824
0.535216 0.210196 0.256784
0.590588 0.218823 0.257255
0.646588 0.233255 0.261490
0.711216 0.242039 0.262118
0.772392 0.256471 0.260706
0.838118 0.269961 0.265098
0.891686 0.287043 0.268212
0.292549 0.198431 0.261177
0.298824 0.197647 0.262745
0.307451 0.199059 0.263530
0.316392 0.196706 0.258824
0.333647 0.203451 0.259922
0.356863 0.207843 0.261961
0.386510 0.220079 0.259295
0.433725 0.223373 0.257725
0.482981 0.233098 0.265098
0.534432 0.239216 0.258353
0.589804 0.247843 0.256471
0.650667 0.260078 0.257569
0.710118 0.273569 0.256471
0.774118 0.288471 0.261804
0.839843 0.303686 0.264157
0.886228 0.319192 0.270612
0.304313 0.210981 0.267451
0.311372 0.207843 0.265883
0.314666 0.211922 0.264471
0.328470 0.214902 0.263529
0.340392 0.213333 0.265098
0.367843 0.218824 0.263529
0.397019 0.234667 0.265255
0.440784 0.256627 0.262274
0.487843 0.265098 0.259138
0.542118 0.278588 0.259294
0.596078 0.284706 0.265883
0.654588 0.297882 0.255530
0.712157 0.312470 0.256157
0.774431 0.324235 0.258981
0.838275 0.342745 0.260079
0.886165 0.355294 0.277608
0.317647 0.235294 0.270588
0.319216 0.235294 0.271372
0.327059 0.236863 0.268235
0.345098 0.239216 0.266667
0.363137 0.242353 0.267451
0.384314 0.239216 0.266667
0.414902 0.247843 0.264314
0.458039 0.266667 0.265098
0.499608 0.298824 0.258824
0.546667 0.317647 0.255686
0.592157 0.329412 0.262745
0.661177 0.342745 0.259608
0.717647 0.358431 0.256471
0.778039 0.377255 0.257255
0.836079 0.392157 0.259608
0.882275 0.400039 0.270588
0.334902 0.272157 0.272157
0.341176 0.272941 0.270588
0.347922 0.271059 0.272627
0.364235 0.276863 0.272941
0.384941 0.277490 0.270431
0.413334 0.280784 0.269019
0.435294 0.269647 0.270118
0.479687 0.285490 0.269490
0.518432 0.310274 0.263843
0.561255 0.338039 0.263843
0.611765 0.374118 0.259608
0.661020 0.396078 0.256784
0.718431 0.408628 0.257726
0.781490 0.427451 0.263373
0.836863 0.445333 0.269647
0.877615 0.451733 0.288596
0.360000 0.320784 0.273725
0.364078 0.319529 0.272470
0.370510 0.320313 0.271686
0.390745 0.325177 0.272470
0.410667 0.328000 0.270902
0.440784 0.327843 0.275294
0.470431 0.327059 0.267451
0.498824 0.313882 0.271529
0.543373 0.331294 0.273098
0.582118 0.362039 0.266980
0.629020 0.389804 0.268235
0.674196 0.430902 0.268235
0.723608 0.467294 0.264000
0.778980 0.486118 0.266510
0.836863 0.494118 0.279843
0.879906 0.502714 0.293278
0.391372 0.374118 0.283922
0.393725 0.376157 0.281882
0.400784 0.375059 0.276863
0.417255 0.378039 0.277176
0.439529 0.381490 0.281098
0.462745 0.382745 0.276863
0.496157 0.384000 0.274824
0.526902 0.382745 0.272941
0.557019 0.369255 0.275765
0.606275 0.391372 0.276235
0.645490 0.415686 0.277647
0.692079 0.454902 0.278745
0.736784 0.489412 0.273569
0.784941 0.532235 0.272784
0.827137 0.552157 0.282353
0.860369 0.556839 0.300369
0.418824 0.432157 0.290980
0.417098 0.430432 0.289255
0.429804 0.433569 0.291451
0.447843 0.438431 0.290824
0.461176 0.438588 0.291138
0.492549 0.437647 0.286275
0.517961 0.443608 0.280627
0.557804 0.449882 0.281882
0.588549 0.445176 0.284549
0.622902 0.427608 0.291922
0.662745 0.444706 0.286275
0.710902 0.481883 0.284236
0.757333 0.514196 0.287530
0.804392 0.556078 0.294745
0.832941 0.587608 0.304157
0.864227 0.609341 0.329326
0.447059 0.501961 0.301961
0.447843 0.502745 0.302745
0.459608 0.505882 0.299608
0.472941 0.508235 0.300392
0.493334 0.506666 0.298039
0.513725 0.509804 0.298039
0.543529 0.514509 0.297255
0.579608 0.519216 0.292549
0.627451 0.520000 0.294118
0.658824 0.515294 0.298823
0.694118 0.490196 0.294118
0.742745 0.505882 0.302745
0.778823 0.540392 0.306667
0.808628 0.569412 0.309804
0.846275 0.599216 0.336471
0.870510 0.623451 0.352863
0.480784 0.583529 0.327059
0.478902 0.578510 0.320470
0.491765 0.581647 0.320628
0.500392 0.584314 0.319843
0.519686 0.586196 0.319686
0.542745 0.581177 0.316078
0.575843 0.588392 0.314509
0.609098 0.592470 0.313255
0.646118 0.598745 0.311686
0.701647 0.605177 0.310275
0.731765 0.590588 0.312157
0.759530 0.565490 0.322353
0.799529 0.571137 0.330667
0.831216 0.591216 0.350118
0.850823 0.618039 0.363451
0.873655 0.639930 0.392863
0.509019 0.657255 0.349020
0.516863 0.654902 0.348235
0.525334 0.655530 0.351216
0.534902 0.659608 0.349020
0.557177 0.657412 0.349490
0.575686 0.661176 0.349804
0.601882 0.662902 0.349490
0.634667 0.662745 0.344314
0.667451 0.665726 0.345255
0.714824 0.665098 0.341333
0.754510 0.669804 0.339608
0.780863 0.652549 0.346667
0.808628 0.622432 0.358588
0.841882 0.614745 0.371765
0.861647 0.633569 0.390902
0.870549 0.656408 0.408635
0.552157 0.716863 0.395294
0.553098 0.716863 0.392471
0.562510 0.715451 0.397804
0.571137 0.716236 0.402510
0.588706 0.716863 0.396706
0.607059 0.712941 0.395294
0.630118 0.717647 0.391373
0.658353 0.718274 0.397647
0.688785 0.716863 0.398431
0.718118 0.720470 0.396235
0.756078 0.718431 0.396079
0.794667 0.715765 0.398745
0.818980 0.695059 0.406274
0.839686 0.671686 0.416000
0.857883 0.662432 0.434510
0.869812 0.679177 0.458000
0.593725 0.754510 0.454902
0.600941 0.751843 0.455530
0.601569 0.750588 0.454902
0.613647 0.751843 0.458823
0.623686 0.752000 0.455687
0.640000 0.752157 0.458823
0.658510 0.751372 0.460235
0.673725 0.749490 0.461020
0.705098 0.754196 0.460235
0.727843 0.751529 0.465255
0.760784 0.752157 0.459608
0.787922 0.751843 0.467765
0.825412 0.750745 0.471686
0.841726 0.734902 0.477961
0.858040 0.711372 0.492549
0.875255 0.705859 0.516832
0.662549 0.780392 0.544941
0.662659 0.780384 0.544973
0.666526 0.780290 0.552682
0.670470 0.780353 0.548785
0.680596 0.781121 0.556542
0.697804 0.780353 0.556589
0.703412 0.784236 0.561294
0.716761 0.780329 0.561263
0.737882 0.785749 0.556604
0.763020 0.784236 0.572235
0.780314 0.780353 0.568353
0.804636 0.785051 0.569137
0.828941 0.786541 0.584714
0.845475 0.777961 0.587961
0.858032 0.769262 0.603561
0.866706 0.764511 0.619255
0.289412 0.179608 0.265883
0.283922 0.177255 0.254117
0.293647 0.178981 0.257726
0.305726 0.178353 0.260706
0.315451 0.179765 0.258667
0.345098 0.180392 0.260393
0.372392 0.178510 0.262275
0.418667 0.179608 0.261020
0.474824 0.178196 0.260863
0.535529 0.181647 0.263529
0.584314 0.184314 0.266667
0.650039 0.194666 0.263529
0.710118 0.205804 0.270902
0.772862 0.217098 0.264000
0.835451 0.234353 0.268236
0.886228 0.254863 0.278407
0.289412 0.180235 0.264628
0.287059 0.178039 0.261961
0.295686 0.181961 0.261145
0.306666 0.181176 0.263529
0.323827 0.179043 0.262243
0.347451 0.185098 0.262745
0.378636 0.186228 0.266134
0.423812 0.189239 0.262181
0.472659 0.190651 0.265475
0.530855 0.191812 0.261020
0.584471 0.197019 0.265255
0.647624 0.207153 0.269020
0.710651 0.219545 0.264314
0.775655 0.233632 0.263435
0.833412 0.244392 0.267043
0.890689 0.270516 0.276370
0.286275 0.188235 0.267451
0.292675 0.188925 0.264565
0.298980 0.188392 0.265255
0.310400 0.189710 0.265945
0.324549 0.194384 0.266761
0.349491 0.195137 0.268863
0.383969 0.197647 0.267326
0.428298 0.202635 0.263843
0.477835 0.205930 0.266667
0.533584 0.206777 0.263467
0.591843 0.220078 0.264314
0.649318 0.228235 0.268863
0.710714 0.240439 0.265945
0.772643 0.254714 0.268486
0.839529 0.270086 0.272784
0.891369 0.286367 0.274803
0.299451 0.196078 0.266823
0.301710 0.195827 0.262494
0.304000 0.197176 0.262055
0.316675 0.196360 0.261679
0.331106 0.203389 0.266949
0.355294 0.210353 0.267138
0.387263 0.216659 0.265443
0.436518 0.221772 0.266259
0.483922 0.227451 0.264157
0.539294 0.234824 0.263843
0.592313 0.244706 0.263059
0.653176 0.258165 0.260769
0.711812 0.271592 0.266039
0.776251 0.284926 0.271059
0.838839 0.300957 0.271937
0.889911 0.314955 0.283081
0.304470 0.211608 0.266196
0.306102 0.210479 0.265757
0.314353 0.209474 0.266479
0.326274 0.214212 0.270023
0.339482 0.213239 0.265914
0.367843 0.218824 0.269804
0.394510 0.234667 0.266071
0.438494 0.252926 0.266416
0.489538 0.263530 0.263028
0.540925 0.274980 0.266008
0.596392 0.285020 0.266981
0.654714 0.295090 0.261898
0.712157 0.309270 0.261490
0.776219 0.324078 0.265977
0.838369 0.339702 0.268330
0.886171 0.355280 0.278712
0.317647 0.239216 0.274510
0.320941 0.238588 0.273882
0.326745 0.236549 0.268863
0.343216 0.238902 0.274196
0.360627 0.239843 0.271216
0.380392 0.235294 0.266667
0.417098 0.248627 0.273726
0.459608 0.268235 0.266667
0.497726 0.294589 0.264784
0.546824 0.316235 0.262902
0.599216 0.330196 0.266667
0.657726 0.339294 0.263216
0.720000 0.359843 0.264628
0.776157 0.373020 0.261804
0.837490 0.388078 0.268549
0.880690 0.399969 0.279968
0.335529 0.272157 0.275294
0.343812 0.271655 0.277929
0.348800 0.275200 0.275137
0.363576 0.275702 0.274855
0.386823 0.276235 0.278745
0.411922 0.280941 0.273882
0.435169 0.268894 0.275012
0.480188 0.288000 0.271749
0.516675 0.314761 0.270839
0.561819 0.339169 0.265161
0.611138 0.376471 0.265412
0.663216 0.394165 0.263435
0.720251 0.410447 0.265663
0.781804 0.427451 0.267765
0.833725 0.441035 0.275922
0.875379 0.449222 0.294405
0.360157 0.322039 0.281255
0.364329 0.318055 0.278055
0.372957 0.321600 0.277961
0.388235 0.324518 0.277208
0.411012 0.324926 0.272502
0.440784 0.330039 0.280314
0.469459 0.331106 0.273223
0.495059 0.317490 0.275357
0.543749 0.334526 0.275671
0.581647 0.362823 0.272188
0.629177 0.393098 0.275294
0.672721 0.430306 0.267859
0.723545 0.466227 0.271718
0.781176 0.485177 0.274918
0.832628 0.495969 0.282949
0.877754 0.502100 0.297398
0.387608 0.374118 0.283922
0.392314 0.374745 0.281412
0.400031 0.375310 0.285396
0.415341 0.376627 0.282604
0.436926 0.378855 0.281882
0.466040 0.381961 0.282039
0.496534 0.384282 0.273788
0.528126 0.382400 0.281067
0.554949 0.365772 0.278400
0.600785 0.389145 0.277898
0.645490 0.414118 0.280784
0.686620 0.455373 0.278212
0.736816 0.493836 0.277365
0.785255 0.534274 0.281224
0.829396 0.550588 0.289443
0.865649 0.556234 0.307296
0.413490 0.435451 0.291608
0.420957 0.434290 0.294369
0.427796 0.434478 0.293522
0.439812 0.435357 0.292141
0.459012 0.437616 0.290165
0.489882 0.441255 0.289569
0.519561 0.447592 0.284926
0.557773 0.449349 0.285365
0.588549 0.447686 0.285804
0.621145 0.425600 0.290824
0.662275 0.446118 0.293334
0.708737 0.479561 0.289475
0.758619 0.516329 0.297757
0.803671 0.551467 0.300361
0.834322 0.585631 0.309019
0.857362 0.609519 0.331087
0.447059 0.501961 0.303530
0.447843 0.501490 0.302118
0.456157 0.503216 0.307137
0.474510 0.505882 0.305882
0.493961 0.509647 0.309647
0.513725 0.509020 0.299608
0.543686 0.514666 0.298980
0.587451 0.519216 0.304471
0.624314 0.523922 0.297883
0.658040 0.514509 0.304627
0.690980 0.493334 0.301961
0.736157 0.510118 0.303530
0.777569 0.539922 0.311686
0.808942 0.576000 0.321883
0.838275 0.599059 0.337569
0.861890 0.623458 0.358361
0.476079 0.580392 0.330353
0.480659 0.577600 0.328973
0.493741 0.577349 0.325678
0.502086 0.582243 0.326118
0.521694 0.583184 0.325522
0.542902 0.587608 0.321255
0.576283 0.589020 0.324863
0.607184 0.593004 0.325020
0.647780 0.600125 0.315169
0.696816 0.605020 0.313882
0.724706 0.589804 0.319216
0.760627 0.566306 0.325898
0.799153 0.569380 0.336565
0.828894 0.593851 0.350619
0.850196 0.616470 0.368910
0.869921 0.636215 0.389150
0.510588 0.658196 0.353412
0.515011 0.655059 0.352879
0.524894 0.655090 0.350777
0.536314 0.654902 0.352251
0.550714 0.657161 0.348925
0.573804 0.659294 0.348863
0.601663 0.662620 0.353129
0.633914 0.661302 0.345882
0.667451 0.666667 0.346196
0.711059 0.666981 0.345725
0.753412 0.671059 0.346510
0.776314 0.648533 0.353098
0.806777 0.624941 0.360533
0.839059 0.618353 0.374902
0.858635 0.635765 0.392533
0.873981 0.658452 0.420334
0.552157 0.714980 0.399059
0.553318 0.714447 0.398839
0.561161 0.714102 0.397773
0.568722 0.713820 0.400471
0.586259 0.713161 0.396957
0.606902 0.713725 0.395608
0.627828 0.716706 0.398243
0.656031 0.718651 0.397145
0.688314 0.716894 0.396957
0.719216 0.720063 0.401851
0.760628 0.718902 0.401569
0.793694 0.715733 0.401788
0.819639 0.696094 0.408031
0.839341 0.672627 0.420549
0.859075 0.662212 0.436141
0.874474 0.676850 0.463289
0.593882 0.754667 0.455059
0.596926 0.750086 0.453020
0.602730 0.751749 0.461083
0.609789 0.751749 0.459200
0.624439 0.751498 0.462871
0.635451 0.750745 0.459608
0.658384 0.751749 0.460863
0.675357 0.750212 0.465412
0.701553 0.750369 0.464627
0.730478 0.754133 0.468204
0.761882 0.751216 0.469804
0.790180 0.753349 0.470337
0.823717 0.750243 0.475953
0.841223 0.731388 0.475451
0.857694 0.712031 0.492957
0.873230 0.704144 0.516361
0.662549 0.784275 0.549585
0.662546 0.780347 0.544847
0.669308 0.783922 0.550003
0.670431 0.780314 0.548761
0.681523 0.779711 0.555931
0.690008 0.784204 0.556557
0.705907 0.780208 0.560516
0.717517 0.781082 0.562693
0.735892 0.782201 0.562383
0.755966 0.783459 0.570850
0.780314 0.780353 0.568353
0.804777 0.781744 0.575401
0.825857 0.782504 0.576573
0.845344 0.778725 0.588271
0.858659 0.768640 0.602396
0.863514 0.761435 0.623844
0.283137 0.178039 0.265098
0.288157 0.178353 0.264628
0.294118 0.180392 0.266667
0.307294 0.178980 0.270588
0.316863 0.179608 0.266824
0.342745 0.178039 0.264314
0.370667 0.178039 0.265098
0.423686 0.175843 0.269490
0.469177 0.179765 0.271529
0.530353 0.178353 0.270275
0.581961 0.181961 0.268235
0.647373 0.183843 0.269177
0.707294 0.197961 0.276549
0.772235 0.212863 0.274980
0.840941 0.230432 0.281255
0.889302 0.253231 0.289381
0.284549 0.178510 0.263529
0.290227 0.180423 0.266698
0.295969 0.182243 0.268518
0.309208 0.181459 0.270337
0.318086 0.180831 0.266165
0.346824 0.182118 0.270902
0.376941 0.182431 0.266196
0.420518 0.184439 0.270776
0.470902 0.183373 0.266133
0.529255 0.189020 0.266981
0.587451 0.189804 0.270431
0.643827 0.199435 0.272220
0.708204 0.211043 0.272408
0.773490 0.225286 0.270808
0.841569 0.242666 0.281098
0.888236 0.262209 0.282631
0.290981 0.187294 0.267765
0.295059 0.187608 0.266823
0.298416 0.190494 0.271122
0.306635 0.190369 0.267765
0.324800 0.190055 0.271937
0.345726 0.192784 0.269177
0.380581 0.194886 0.267200
0.426008 0.197710 0.266322
0.475890 0.202416 0.273004
0.533678 0.205867 0.270651
0.588863 0.215216 0.267294
0.646494 0.222494 0.276831
0.708047 0.234510 0.273788
0.774965 0.247686 0.277176
0.836674 0.265537 0.278933
0.889162 0.283397 0.286242
0.297412 0.197490 0.272000
0.300675 0.196298 0.270243
0.306196 0.197490 0.269835
0.317145 0.197584 0.266478
0.329506 0.203671 0.268926
0.352314 0.207216 0.273882
0.384251 0.214714 0.273788
0.434761 0.216722 0.270463
0.482918 0.227796 0.274604
0.539074 0.234134 0.272470
0.592000 0.241412 0.270274
0.650886 0.252235 0.268957
0.709082 0.265286 0.272157
0.776471 0.278023 0.279435
0.840314 0.298165 0.281851
0.884781 0.313833 0.288755
0.305098 0.211294 0.270275
0.312062 0.208345 0.268016
0.317114 0.210981 0.271121
0.329161 0.211922 0.271341
0.339702 0.214149 0.268079
0.367529 0.226353 0.274039
0.394604 0.236455 0.271027
0.437114 0.249412 0.272125
0.490133 0.259420 0.270808
0.540392 0.270400 0.272000
0.592157 0.278745 0.271530
0.655623 0.290573 0.269208
0.713224 0.307482 0.270839
0.778384 0.319279 0.278306
0.837114 0.337663 0.277961
0.887713 0.354778 0.291238
0.321569 0.235294 0.282353
0.320000 0.233726 0.280784
0.330824 0.239686 0.281725
0.341176 0.239216 0.277647
0.363137 0.239216 0.281569
0.381961 0.235294 0.271373
0.413647 0.251294 0.281882
0.452079 0.271687 0.275451
0.493333 0.298824 0.274510
0.544628 0.311686 0.268549
0.596078 0.323922 0.269804
0.656471 0.337255 0.269804
0.717020 0.352941 0.270274
0.776471 0.371765 0.276863
0.840784 0.390588 0.285491
0.886150 0.396839 0.299545
0.336314 0.273569 0.280000
0.335435 0.272502 0.278494
0.349302 0.273882 0.279906
0.361098 0.276423 0.279969
0.384377 0.274102 0.280314
0.411765 0.280784 0.281569
0.436173 0.272408 0.284047
0.479247 0.289443 0.272502
0.516267 0.314729 0.277428
0.560816 0.341396 0.274792
0.606745 0.372392 0.272627
0.660142 0.391592 0.274573
0.719372 0.404141 0.275639
0.781772 0.426353 0.282667
0.838023 0.438526 0.288251
0.875537 0.445159 0.301603
0.360941 0.321725 0.284863
0.360439 0.319812 0.283137
0.374588 0.319655 0.284738
0.389741 0.322886 0.284267
0.410071 0.326369 0.280470
0.438745 0.328314 0.283922
0.471027 0.329286 0.281882
0.496251 0.316047 0.281631
0.541396 0.335310 0.282353
0.578071 0.365427 0.279310
0.624470 0.392000 0.279059
0.671341 0.432847 0.280471
0.722227 0.464628 0.283263
0.780549 0.481568 0.285334
0.835232 0.493083 0.292675
0.876790 0.498817 0.305382
0.388235 0.375686 0.290824
0.391372 0.371451 0.288941
0.400973 0.375812 0.294243
0.414400 0.375780 0.291137
0.436518 0.377349 0.288816
0.464157 0.382588 0.287686
0.495467 0.384094 0.283577
0.526024 0.381521 0.286275
0.559655 0.367310 0.287655
0.602039 0.385882 0.287875
0.643451 0.419608 0.291608
0.687969 0.456910 0.287342
0.738071 0.494714 0.288973
0.781741 0.532392 0.287561
0.829145 0.549239 0.303686
0.864717 0.554496 0.320761
0.416941 0.435608 0.306510
0.418824 0.431843 0.301176
0.429239 0.432784 0.301522
0.443890 0.433631 0.299576
0.459890 0.437741 0.298070
0.492079 0.442353 0.300549
0.518871 0.445365 0.298353
0.554353 0.450322 0.292110
0.584502 0.447341 0.295938
0.623780 0.427859 0.301428
0.666824 0.444706 0.299608
0.711373 0.481663 0.301271
0.758902 0.519498 0.304219
0.803231 0.553757 0.308737
0.834479 0.588173 0.322416
0.862209 0.607972 0.340972
0.447059 0.500392 0.312941
0.447843 0.501176 0.313725
0.457883 0.504941 0.316706
0.475294 0.507921 0.315137
0.492706 0.507765 0.316078
0.517647 0.509804 0.312941
0.546667 0.516863 0.312784
0.581177 0.516863 0.309804
0.620079 0.524235 0.304471
0.653333 0.514509 0.309333
0.694118 0.494118 0.309804
0.738039 0.509647 0.319843
0.778196 0.543686 0.323765
0.810196 0.571137 0.328471
0.839373 0.600157 0.348392
0.862698 0.623482 0.368580
0.479215 0.583529 0.337882
0.480282 0.577977 0.331482
0.493459 0.582086 0.332047
0.502149 0.580173 0.332831
0.522541 0.582494 0.334714
0.544470 0.586667 0.329255
0.576408 0.587137 0.329443
0.611232 0.590651 0.331388
0.646933 0.596549 0.323420
0.696251 0.606087 0.325428
0.725177 0.589490 0.325490
0.760063 0.566808 0.334964
0.798965 0.572016 0.341867
0.827043 0.595482 0.360188
0.848220 0.619702 0.373961
0.866152 0.645917 0.398544
0.511529 0.654275 0.358431
0.514322 0.656502 0.360031
0.525929 0.654557 0.359812
0.536847 0.656502 0.360627
0.552628 0.658855 0.358682
0.575686 0.661176 0.359529
0.601820 0.661773 0.358243
0.633161 0.663624 0.352722
0.667639 0.666416 0.354980
0.711969 0.666322 0.355075
0.749961 0.671687 0.356235
0.776251 0.651043 0.362259
0.808502 0.624408 0.364016
0.836235 0.617882 0.383812
0.856753 0.636047 0.397929
0.868974 0.660347 0.425366
0.552314 0.714039 0.402353
0.555671 0.714008 0.402510
0.563545 0.714792 0.407247
0.574024 0.716675 0.410102
0.587075 0.716675 0.407247
0.605490 0.716392 0.406431
0.626165 0.718180 0.404580
0.655279 0.718243 0.404643
0.688722 0.717428 0.407529
0.716988 0.717835 0.405333
0.755451 0.721725 0.408000
0.793349 0.718839 0.411545
0.818384 0.697475 0.413584
0.840032 0.673506 0.424314
0.857757 0.664345 0.443859
0.871020 0.678706 0.469893
0.592627 0.750275 0.461647
0.600722 0.752094 0.462526
0.601977 0.751561 0.463530
0.610165 0.751592 0.467545
0.623937 0.751122 0.467263
0.635764 0.750118 0.466510
0.654525 0.750776 0.464471
0.676455 0.750651 0.471592
0.703875 0.752063 0.470714
0.728157 0.752439 0.471655
0.757334 0.754196 0.477333
0.791184 0.752910 0.471624
0.820675 0.749710 0.479122
0.841035 0.735404 0.485553
0.854494 0.715451 0.501678
0.869944 0.707421 0.517153
0.662549 0.778839 0.546494
0.664941 0.781114 0.548808
0.667125 0.781729 0.551333
0.672008 0.781890 0.554282
0.681537 0.780626 0.557592
0.688494 0.778777 0.558988
0.703717 0.779860 0.561668
0.718638 0.778775 0.566014
0.736369 0.780329 0.570643
0.761932 0.781875 0.575225
0.781867 0.781906 0.577749
0.805893 0.781581 0.579991
0.826922 0.782667 0.584971
0.843341 0.779343 0.595928
0.858452 0.768533 0.607074
0.865059 0.766086 0.627051
0.282353 0.184314 0.270588
0.288000 0.178196 0.268392
0.294588 0.176941 0.271059
0.305882 0.178510 0.272000
0.318745 0.182275 0.276863
0.345098 0.178039 0.279216
0.373333 0.174432 0.273255
0.423686 0.167686 0.275137
0.473569 0.168000 0.279216
0.528314 0.162039 0.275765
0.589804 0.170196 0.284706
0.649412 0.176785 0.284392
0.707294 0.184157 0.284392
0.773333 0.196078 0.286745
0.836863 0.215529 0.291294
0.891671 0.236847 0.305843
0.288000 0.181961 0.270902
0.290729 0.180925 0.271121
0.298228 0.182337 0.273318
0.305161 0.183435 0.272376
0.322918 0.186133 0.278808
0.347451 0.182745 0.276863
0.378698 0.179733 0.274227
0.421929 0.172737 0.275922
0.474227 0.173114 0.279529
0.534337 0.176753 0.277804
0.585098 0.185098 0.279215
0.648000 0.186384 0.287028
0.707796 0.198243 0.286432
0.771828 0.215121 0.284141
0.837867 0.227263 0.291514
0.886981 0.254202 0.301478
0.287843 0.189804 0.273098
0.296157 0.186353 0.273380
0.299357 0.189176 0.275451
0.308266 0.189176 0.276110
0.325961 0.189804 0.278965
0.352941 0.188235 0.274510
0.385255 0.189616 0.279749
0.424565 0.188016 0.278777
0.474635 0.190965 0.280847
0.531169 0.195984 0.283389
0.589176 0.204078 0.281098
0.646243 0.210008 0.286306
0.706322 0.223467 0.287341
0.776345 0.235451 0.292800
0.836988 0.252643 0.294431
0.889294 0.274289 0.302670
0.299137 0.196392 0.274666
0.302180 0.198557 0.274573
0.307294 0.201412 0.275922
0.314855 0.199435 0.275607
0.332612 0.204141 0.275294
0.358274 0.205333 0.278902
0.387608 0.208439 0.283232
0.432157 0.211137 0.280126
0.482855 0.220016 0.282165
0.538855 0.224973 0.282510
0.588706 0.236706 0.283765
0.648000 0.244047 0.283671
0.711843 0.256314 0.286620
0.776533 0.268329 0.292643
0.839529 0.287718 0.294274
0.884936 0.304259 0.306768
0.307294 0.214902 0.278588
0.308643 0.212831 0.277270
0.318432 0.214055 0.280722
0.330824 0.214588 0.277647
0.339012 0.213176 0.277051
0.365804 0.224627 0.279529
0.395294 0.236173 0.276674
0.441851 0.243263 0.278337
0.490228 0.253271 0.279278
0.539168 0.260329 0.281537
0.592941 0.269019 0.282981
0.653992 0.283012 0.282227
0.714761 0.298196 0.284643
0.778071 0.311561 0.289757
0.842949 0.330510 0.299137
0.885726 0.346592 0.306623
0.320000 0.241569 0.284706
0.321412 0.237647 0.283451
0.329412 0.235922 0.286432
0.342902 0.236235 0.286431
0.356863 0.239216 0.282510
0.384314 0.235294 0.278431
0.413490 0.251764 0.282039
0.452079 0.274510 0.277804
0.496157 0.296471 0.280784
0.549333 0.305411 0.278745
0.598431 0.316863 0.284706
0.661177 0.329726 0.286432
0.715137 0.348235 0.283765
0.774745 0.366117 0.291608
0.843137 0.379608 0.298824
0.887773 0.394470 0.317592
0.336157 0.275608 0.291138
0.339388 0.272879 0.285898
0.347765 0.273098 0.287436
0.359373 0.273663 0.286432
0.387765 0.274980 0.290667
0.409098 0.274980 0.285961
0.437961 0.269490 0.293773
0.476078 0.293051 0.280565
0.514667 0.317396 0.289757
0.561318 0.345192 0.286275
0.607530 0.368627 0.289098
0.660706 0.385475 0.289945
0.721537 0.397804 0.294463
0.774118 0.420110 0.295310
0.838620 0.433349 0.302745
0.875561 0.443100 0.320271
0.359372 0.319372 0.295843
0.366180 0.318871 0.294871
0.372769 0.320408 0.293679
0.389145 0.321914 0.292110
0.409883 0.325804 0.291137
0.437804 0.327216 0.291137
0.470839 0.326243 0.294714
0.494181 0.317019 0.294400
