example_ofxGpuLutCube/bin/data/ofxGpuLutCube/LUT/A47 (violet magenta fade).cube
LUT_3D_SIZE 6
0.282353 0.172549 0.258824
0.304314 0.178824 0.261177
0.372549 0.176471 0.260393
0.537255 0.183530 0.254902
0.704313 0.210980 0.261177
0.886236 0.258746 0.266706
0.292549 0.198431 0.261177
0.316392 0.196706 0.258824
0.386510 0.220079 0.259295
0.534432 0.239216 0.258353
0.710118 0.273569 0.256471
0.886228 0.319192 0.270612
0.334902 0.272157 0.272157
0.364235 0.276863 0.272941
0.435294 0.269647 0.270118
0.561255 0.338039 0.263843
0.718431 0.408628 0.257726
0.877615 0.451733 0.288596
0.418824 0.432157 0.290980
0.447843 0.438431 0.290824
0.517961 0.443608 0.280627
0.622902 0.427608 0.291922
0.757333 0.514196 0.287530
0.864227 0.609341 0.329326
0.509019 0.657255 0.349020
0.534902 0.659608 0.349020
0.601882 0.662902 0.349490
0.714824 0.665098 0.341333
0.808628 0.622432 0.358588
0.870549 0.656408 0.408635
0.662549 0.780392 0.544941
0.670470 0.780353 0.548785
0.703412 0.784236 0.561294
0.763020 0.784236 0.572235
0.828941 0.786541 0.584714
0.866706 0.764511 0.619255
0.282353 0.184314 0.270588
0.305882 0.178510 0.272000
0.373333 0.174432 0.273255
0.528314 0.162039 0.275765
0.707294 0.184157 0.284392
0.891671 0.236847 0.305843
0.299137 0.196392 0.274666
0.314855 0.199435 0.275607
0.387608 0.208439 0.283232
0.538855 0.224973 0.282510
0.711843 0.256314 0.286620
0.884936 0.304259 0.306768
0.336157 0.275608 0.291138
0.359373 0.273663 0.286432
0.437961 0.269490 0.293773
0.561318 0.345192 0.286275
0.721537 0.397804 0.294463
0.875561 0.443100 0.320271
0.415529 0.435137 0.311215
0.444863 0.434635 0.314635
0.514886 0.446933 0.309051
0.622620 0.428298 0.313882
0.754729 0.520000 0.313882
0.860643 0.606549 0.356345
0.512000 0.656314 0.370510
0.532674 0.655279 0.370416
0.603326 0.658667 0.369914
0.713349 0.665851 0.362416
0.806400 0.626447 0.376910
0.864281 0.664096 0.436188
0.666510 0.780314 0.552784
0.674386 0.781873 0.561334
0.706089 0.778166 0.568224
0.756136 0.780332 0.580110
0.825035 0.782662 0.590626
0.858047 0.768431 0.624792
0.294118 0.176471 0.319216
0.314666 0.180392 0.319686
0.378196 0.178196 0.324863
0.532549 0.142745 0.342431
0.706353 0.107294 0.351687
0.898729 0.159851 0.381906
0.303373 0.200000 0.318118
0.321914 0.201098 0.319278
0.396863 0.200941 0.325020
0.545914 0.186761 0.338604
0.720376 0.182714 0.353004
0.896657 0.252937 0.381299
0.331137 0.284079 0.332392
0.363922 0.286557 0.337129
0.442980 0.292455 0.348267
0.564612 0.328972 0.352408
0.724330 0.369161 0.361976
0.889150 0.414519 0.393818
0.420862 0.436863 0.372078
0.447686 0.441757 0.373898
0.516235 0.447372 0.371420
0.620580 0.441035 0.376283
0.747984 0.537976 0.385726
0.862616 0.596670 0.424715
0.510745 0.655373 0.420235
0.531451 0.657725 0.424471
0.590243 0.661929 0.431059
0.702777 0.668455 0.425443
0.799592 0.630682 0.434824
0.857687 0.678079 0.496745
0.670470 0.780353 0.588078
0.679229 0.780356 0.593810
0.709854 0.776618 0.600797
0.754110 0.782844 0.612352
0.822052 0.782966 0.615466
0.862674 0.772377 0.646839
0.309804 0.173333 0.421960
0.340706 0.170980 0.422745
0.420392 0.164706 0.421647
0.538823 0.149961 0.429804
0.720470 0.134274 0.460706
0.904125 0.178721 0.484659
0.319530 0.206275 0.419137
0.352345 0.205365 0.416502
0.426729 0.201506 0.418039
0.547138 0.195263 0.432377
0.726212 0.200941 0.463435
0.895123 0.252135 0.489200
0.352627 0.299608 0.426196
0.382243 0.302996 0.427608
0.459922 0.303027 0.432973
0.579200 0.313569 0.447121
0.746164 0.328690 0.464032
0.883726 0.378626 0.493611
0.416471 0.458824 0.446745
0.441537 0.457977 0.445616
0.516298 0.466667 0.459263
0.615937 0.486651 0.461020
0.759059 0.533522 0.480565
0.866778 0.565777 0.511653
0.514510 0.663843 0.505882
0.532674 0.663749 0.508110
0.584408 0.666353 0.511812
0.682196 0.670902 0.518023
0.785694 0.648659 0.518651
0.839926 0.708475 0.578906
0.681482 0.783459 0.636785
0.682271 0.783464 0.630507
0.712334 0.780337 0.638508
0.753643 0.783446 0.650136
0.807635 0.785931 0.658807
0.855592 0.777122 0.677451
0.352157 0.164706 0.585098
0.389647 0.160784 0.581804
0.484392 0.150902 0.582745
0.613490 0.130196 0.582432
0.755608 0.135843 0.586510
0.894024 0.229718 0.599184
0.354510 0.209412 0.580706
0.396235 0.205082 0.580047
0.489726 0.202667 0.583875
0.614745 0.199373 0.587671
0.762636 0.213114 0.593569
0.888260 0.298119 0.596869
0.381020 0.331765 0.579765
0.412361 0.329224 0.582557
0.503341 0.330510 0.582933
0.625632 0.332424 0.585725
0.769286 0.352941 0.597020
0.878204 0.424243 0.606706
0.421490 0.501020 0.595764
0.447718 0.499608 0.590055
0.522918 0.499577 0.596361
0.640502 0.503153 0.599278
0.772862 0.530761 0.608596
0.855329 0.585838 0.632907
0.496314 0.682823 0.611608
0.517051 0.682290 0.609945
0.587012 0.680910 0.616784
0.679529 0.686118 0.630839
0.761568 0.691357 0.638714
0.825526 0.717466 0.664137
0.690078 0.781867 0.679937
0.700116 0.781755 0.686830
0.722267 0.780624 0.690428
0.748973 0.786099 0.698118
0.790231 0.788143 0.704811
0.843875 0.788157 0.713647
0.399922 0.184236 0.752863
0.437655 0.184236 0.756730
0.523945 0.188965 0.755969
0.652510 0.207686 0.752823
0.786666 0.246102 0.748957
0.913725 0.309647 0.748825
0.409341 0.245451 0.752071
0.443572 0.251026 0.748942
0.530968 0.256408 0.750841
0.654593 0.278287 0.753609
0.783724 0.312941 0.749691
0.912008 0.370792 0.744981
0.434377 0.383482 0.751294
0.463307 0.389714 0.744122
0.540229 0.398327 0.749563
0.660209 0.413857 0.748948
0.780703 0.441429 0.747368
0.892440 0.484557 0.740212
0.483812 0.552941 0.743490
0.506899 0.548712 0.742644
0.569561 0.561652 0.739234
0.665583 0.574686 0.741278
0.767225 0.599596 0.736072
0.855640 0.633608 0.734078
0.594400 0.710510 0.738729
0.604588 0.712093 0.736677
0.645274 0.712568 0.735313
0.699308 0.711675 0.731876
0.763271 0.717755 0.733410
0.832824 0.730918 0.734901
0.697960 0.799921 0.748864
0.705709 0.799859 0.748863
0.722228 0.799106 0.751977
0.751270 0.799812 0.752031
0.787404 0.797576 0.754361
0.835215 0.807764 0.776236
