example_ofxGpuLutCube/bin/data/ofxGpuLutCube/LUT/A48 (light blue fade).cube
LUT_3D_SIZE 6
0.125490 0.121569 0.145098
0.266667 0.127843 0.157647
0.473725 0.090196 0.157647
0.752941 0.006275 0.150589
0.974902 0.002353 0.166274
0.996117 0.000039 0.211804
0.081569 0.252549 0.149020
0.227294 0.252549 0.143529
0.445490 0.246118 0.138353
0.726745 0.253333 0.129412
0.957804 0.230118 0.139921
0.998431 0.182769 0.198321
0.000000 0.451765 0.168627
0.131608 0.458353 0.163294
0.388079 0.443608 0.127530
0.652706 0.457098 0.059294
0.918118 0.465882 0.018039
1.000000 0.429843 0.124643
0.000000 0.694117 0.101176
0.003922 0.697569 0.095059
0.301804 0.694902 0.053333
0.589961 0.682510 0.000157
0.860078 0.683138 0.003138
0.996894 0.651796 0.000031
0.000000 0.909804 0.000000
0.000628 0.907294 0.002196
0.005333 0.905412 0.000314
0.478745 0.899608 0.000000
0.760157 0.884078 0.000941
0.999953 0.876902 0.000024
0.000039 0.999961 0.136510
0.000055 0.999984 0.144392
0.000039 0.999961 0.152314
0.274541 1.000000 0.161043
0.617357 0.999984 0.175789
0.870510 0.992274 0.135922
0.131765 0.141176 0.366275
0.267922 0.135373 0.341804
0.406588 0.159216 0.317804
0.659608 0.123294 0.354981
0.919686 0.000000 0.347608
0.998408 0.002330 0.348996
0.124706 0.245333 0.305412
0.228518 0.242824 0.299671
0.367435 0.247122 0.310588
0.614619 0.223718 0.323420
0.905067 0.191216 0.334023
0.999059 0.192461 0.327871
0.009883 0.405177 0.318432
0.174714 0.398870 0.318181
0.336439 0.389710 0.309208
0.572267 0.401380 0.278777
0.875106 0.428549 0.286933
0.999531 0.422772 0.276867
0.000000 0.657569 0.317333
0.000000 0.656471 0.320627
0.281412 0.652549 0.312722
0.551373 0.639780 0.255122
0.824722 0.651953 0.150369
0.996413 0.643785 0.073457
0.000941 0.894118 0.256470
0.000941 0.893710 0.254933
0.001569 0.894714 0.227671
0.486902 0.885020 0.164675
0.758839 0.879937 0.000941
0.999336 0.877515 0.000000
0.002369 1.000000 0.139686
0.003897 1.000000 0.144424
0.003009 0.997650 0.152030
0.273015 0.999997 0.168520
0.622002 0.998130 0.180323
0.875969 0.998462 0.127380
0.190588 0.172549 0.659608
0.332235 0.177255 0.657882
0.526745 0.169098 0.621961
0.666667 0.145255 0.561569
0.898667 0.152628 0.576941
0.996117 0.208486 0.580385
0.155137 0.317019 0.603608
0.285836 0.312690 0.602666
0.467388 0.291577 0.576345
0.610823 0.264659 0.526965
0.867420 0.285271 0.569129
0.999987 0.328510 0.576577
0.000000 0.470118 0.555765
0.181208 0.461051 0.545129
0.399968 0.443765 0.524769
0.570290 0.431498 0.517271
0.819420 0.464816 0.544627
0.998751 0.531373 0.581109
0.002510 0.638431 0.520157
0.002071 0.633412 0.530980
0.329255 0.619106 0.523514
0.563169 0.619953 0.525302
0.785663 0.626228 0.491671
0.997513 0.660511 0.511424
0.001255 0.874510 0.516235
0.003137 0.871216 0.533992
0.406118 0.856565 0.561945
0.579138 0.852392 0.547451
0.758431 0.852047 0.488314
0.999948 0.853504 0.309432
0.006220 1.000000 0.452910
0.000017 0.999997 0.443056
0.007132 0.999379 0.403989
0.354976 0.999379 0.303398
0.625252 1.000000 0.188139
0.890024 0.999961 0.122007
0.281569 0.265098 0.872157
0.366745 0.264628 0.864157
0.524863 0.261020 0.848470
0.713882 0.246118 0.830902
0.894902 0.224471 0.808157
1.000000 0.290855 0.793717
0.310274 0.386667 0.840627
0.378071 0.389490 0.839404
0.524141 0.374745 0.824439
0.692079 0.364047 0.808439
0.869365 0.337788 0.789396
0.998739 0.405831 0.788223
0.317961 0.541960 0.796863
0.408628 0.557961 0.799906
0.532361 0.563922 0.782274
0.669898 0.548047 0.768345
0.825851 0.527153 0.760408
0.997482 0.583145 0.770491
0.155608 0.676549 0.754824
0.299200 0.678023 0.756894
0.482134 0.677176 0.749051
0.647843 0.686808 0.733365
0.790275 0.678588 0.721380
0.984206 0.735935 0.758423
0.001255 0.863530 0.733961
0.002196 0.861176 0.728314
0.380361 0.853773 0.721631
0.641098 0.837083 0.727718
0.797396 0.838024 0.738792
0.976301 0.855018 0.706803
0.000031 0.996894 0.601843
0.003106 0.999689 0.614797
0.517876 0.999372 0.711012
0.736648 0.997411 0.765524
0.819995 0.999424 0.737653
0.940235 0.996807 0.643311
0.404706 0.397647 0.988235
0.448628 0.403294 0.988079
0.553412 0.416000 0.988392
0.685020 0.423529 0.977255
0.836706 0.432000 0.966118
0.998321 0.446989 0.969341
0.475922 0.512157 0.973333
0.511373 0.516926 0.977443
0.591090 0.519435 0.974808
0.707733 0.519216 0.968282
0.839843 0.520345 0.957333
0.995183 0.520279 0.962811
0.593883 0.678275 0.955138
0.611796 0.677333 0.951059
0.666384 0.675075 0.956518
0.745318 0.671436 0.949176
0.849412 0.662149 0.943968
0.984509 0.650662 0.951183
0.574431 0.755765 0.938980
0.611482 0.763702 0.936910
0.687467 0.782902 0.931451
0.774651 0.792220 0.925396
0.853992 0.781208 0.920031
0.977302 0.773336 0.925037
0.494118 0.855686 0.925334
0.539671 0.857757 0.921976
0.634227 0.863059 0.922510
0.757333 0.867765 0.910337
0.863780 0.881569 0.898071
0.966624 0.891702 0.904577
0.002534 0.999961 0.905921
0.252100 0.999355 0.902020
0.507016 0.999987 0.895458
0.724969 0.999903 0.892441
0.907962 0.988461 0.916792
0.973993 0.992024 0.918377
0.615568 0.607765 1.000000
0.633545 0.610173 1.000000
0.675208 0.612541 0.999961
0.744259 0.629741 0.996886
0.830510 0.635192 0.997647
0.925529 0.639099 0.999961
0.664965 0.672926 0.999984
0.678952 0.675870 0.999976
0.712381 0.677121 1.000000
0.771702 0.681948 1.000000
0.846050 0.682934 0.998441
0.931050 0.680721 1.000000
0.748212 0.781953 1.000000
0.755908 0.784601 0.999969
0.781300 0.778855 1.000000
0.820971 0.778225 0.997515
0.877595 0.778032 0.997515
0.946643 0.770195 0.993850
0.814800 0.873655 0.999961
0.825012 0.874502 0.999060
0.842516 0.875451 0.999379
0.866620 0.876055 0.999969
0.908387 0.866672 0.999686
0.964697 0.861200 1.000000
0.777239 0.909004 0.997655
0.797744 0.912910 0.997670
0.835238 0.926362 0.999997
0.897196 0.938979 0.998758
0.942735 0.950598 1.000000
0.981921 0.950549 0.998439
0.507174 0.999882 0.996156
0.556445 0.997545 1.000000
0.672892 0.999890 0.998455
0.817467 0.999191 0.999200
0.940393 0.999999 1.000000
0.999921 0.999923 0.999845
