example_ofxGpuLutCube/bin/data/ofxGpuLutCube/LUT/A48 (light blue fade).cube
LUT_3D_SIZE 16
0.125490 0.121569 0.145098
0.144313 0.134117 0.152941
0.198431 0.133333 0.159216
0.266667 0.127843 0.157647
0.330980 0.115294 0.156863
0.400000 0.101961 0.152941
0.473725 0.090196 0.157647
0.572549 0.069020 0.154510
0.669019 0.043922 0.156078
0.752941 0.006275 0.150589
0.843137 0.000000 0.160784
0.911373 0.000000 0.156863
0.974902 0.002353 0.166274
0.996863 0.000000 0.180392
0.996862 0.000000 0.196078
0.996117 0.000039 0.211804
0.122353 0.157647 0.153725
0.149804 0.152000 0.154667
0.190902 0.154039 0.153883
0.259138 0.155608 0.152627
0.318275 0.146980 0.156392
0.394509 0.139608 0.145098
0.466510 0.132392 0.149177
0.555451 0.127372 0.147922
0.655843 0.119215 0.151530
0.748235 0.100863 0.152314
0.834510 0.083137 0.152941
0.899138 0.058824 0.150432
0.972549 0.021804 0.161255
0.999686 0.000941 0.172549
1.000000 0.000000 0.189490
0.996078 0.000000 0.210134
0.108235 0.200784 0.152157
0.144941 0.203922 0.151530
0.187765 0.197490 0.149334
0.239843 0.194353 0.146196
0.306509 0.193725 0.145255
0.382745 0.192941 0.143529
0.469020 0.187921 0.141490
0.551059 0.189647 0.141176
0.649412 0.187608 0.139764
0.744627 0.178510 0.138353
0.830588 0.168627 0.143529
0.899137 0.161882 0.146196
0.972078 0.141176 0.153726
0.998431 0.122196 0.167372
1.000000 0.090824 0.184000
0.994533 0.064337 0.202298
0.081569 0.252549 0.149020
0.120314 0.253647 0.154353
0.171922 0.250196 0.142117
0.227294 0.252549 0.143529
0.292549 0.244706 0.137568
0.363921 0.242353 0.129412
0.445490 0.246118 0.138353
0.532863 0.248784 0.135059
0.634667 0.249255 0.135215
0.726745 0.253333 0.129412
0.807843 0.250981 0.130980
0.887843 0.242353 0.136471
0.957804 0.230118 0.139921
0.998431 0.214275 0.155137
1.000000 0.198902 0.170667
0.998431 0.182769 0.198321
0.010980 0.312156 0.156863
0.069333 0.315608 0.154353
0.141176 0.312156 0.159059
0.208470 0.312157 0.154824
0.275921 0.304784 0.135843
0.332549 0.292549 0.131764
0.417883 0.297882 0.126902
0.504784 0.308549 0.129569
0.603922 0.319373 0.129883
0.707608 0.325334 0.122667
0.790588 0.325490 0.121569
0.875608 0.318432 0.117961
0.948078 0.316392 0.120628
0.998431 0.298981 0.133333
0.999372 0.283294 0.153098
1.000000 0.266674 0.179553
0.003922 0.372549 0.168627
0.001569 0.382745 0.168627
0.094118 0.378824 0.162353
0.178039 0.376471 0.162353
0.254902 0.365490 0.148236
0.329412 0.364706 0.141176
0.393726 0.360000 0.116863
0.480784 0.366274 0.116078
0.570196 0.379608 0.113725
0.675294 0.394509 0.105882
0.768627 0.392157 0.094118
0.856470 0.396078 0.094118
0.933333 0.389804 0.082353
0.998431 0.379608 0.094118
0.992941 0.366275 0.120000
1.000000 0.349059 0.160745
0.000000 0.451765 0.168627
0.000000 0.461334 0.166588
0.003765 0.454902 0.163608
0.131608 0.458353 0.163294
0.228863 0.450510 0.155608
0.316863 0.446274 0.148236
0.388079 0.443608 0.127530
0.457412 0.432784 0.100863
0.544471 0.439373 0.078431
0.652706 0.457098 0.059294
0.747451 0.465882 0.054118
0.838431 0.465882 0.034510
0.918118 0.465882 0.018039
0.992941 0.458196 0.019451
1.000000 0.445020 0.076235
1.000000 0.429843 0.124643
0.001569 0.532549 0.158431
0.002353 0.542745 0.159216
0.001569 0.541333 0.155451
0.005647 0.543686 0.145098
0.173020 0.536627 0.150118
0.283137 0.537255 0.138039
0.375686 0.528941 0.112000
0.460392 0.522353 0.079373
0.536470 0.518117 0.031059
0.615216 0.520627 0.002981
0.724706 0.527843 0.002353
0.816784 0.539451 0.000314
0.900392 0.541176 0.002353
0.977882 0.533333 0.003765
1.000000 0.518588 0.004392
1.000000 0.504329 0.073561
0.001569 0.618039 0.138039
0.000000 0.627451 0.135059
0.001569 0.623530 0.131764
0.000628 0.622589 0.130823
0.038588 0.619765 0.120470
0.237647 0.614902 0.116863
0.345569 0.610353 0.098039
0.440157 0.608784 0.052392
0.528471 0.606902 0.003451
0.610510 0.602353 0.000471
0.691765 0.600000 0.001569
0.794510 0.609412 0.000000
0.881569 0.613334 0.000000
0.962824 0.604549 0.002510
0.998117 0.594196 0.002510
0.996094 0.580408 0.000016
0.000000 0.694117 0.101176
0.000628 0.707137 0.104941
0.004235 0.697098 0.101961
0.003922 0.697569 0.095059
0.000784 0.700392 0.092078
0.136471 0.692549 0.076863
0.301804 0.694902 0.053333
0.408157 0.692863 0.001882
0.498980 0.690039 0.001883
0.589961 0.682510 0.000157
0.678431 0.684706 0.003138
0.759372 0.682353 0.000157
0.860078 0.683138 0.003138
0.939294 0.677647 0.000000
0.998588 0.664314 0.000000
0.996894 0.651796 0.000031
0.003922 0.772549 0.047059
0.000000 0.776471 0.027451
0.002353 0.778039 0.019608
0.002353 0.772549 0.007059
0.000000 0.769411 0.000000
0.000000 0.772549 0.000000
0.223529 0.769411 0.010981
0.360000 0.770980 0.000000
0.472157 0.767059 0.000000
0.567843 0.768627 0.003922
0.662745 0.764706 0.000000
0.745098 0.763922 0.003138
0.839216 0.760784 0.000000
0.921569 0.752941 0.002353
0.992941 0.741960 0.000000
0.996117 0.729451 0.003961
0.003138 0.842353 0.000000
0.000628 0.844863 0.000000
0.000471 0.843765 0.000471
0.000000 0.839216 0.003138
0.000000 0.839843 0.001255
0.000000 0.845490 0.000000
0.055059 0.840784 0.003922
0.299921 0.839216 0.000000
0.426980 0.838431 0.002353
0.531608 0.837020 0.003138
0.632941 0.833726 0.004706
0.714666 0.829020 0.000000
0.803137 0.822432 0.000000
0.895373 0.823686 0.003138
0.973020 0.815686 0.004392
0.999992 0.799255 0.003883
0.000000 0.909804 0.000000
0.002510 0.910588 0.002353
0.000000 0.905725 0.006275
0.000628 0.907294 0.002196
0.000000 0.906667 0.002510
0.002353 0.909019 0.001569
0.005333 0.905412 0.000314
0.179765 0.904313 0.003922
0.351216 0.902274 0.000941
0.478745 0.899608 0.000000
0.576471 0.897255 0.000000
0.671059 0.892549 0.000000
0.760157 0.884078 0.000941
0.850667 0.880784 0.004706
0.940706 0.881098 0.000000
0.999953 0.876902 0.000024
0.000000 0.960000 0.000000
0.000000 0.958902 0.000000
0.000000 0.959216 0.000000
0.002039 0.961412 0.000941
0.000000 0.955137 0.000471
0.002353 0.956078 0.000000
0.000000 0.960941 0.000000
0.000000 0.952785 0.000000
0.254432 0.949804 0.000628
0.409412 0.948706 0.000314
0.521568 0.947451 0.000000
0.616628 0.944314 0.000000
0.709804 0.937411 0.001883
0.800784 0.937412 0.000941
0.883137 0.929412 0.000000
0.966902 0.930180 0.000000
0.003138 0.999216 0.003138
0.000157 0.999372 0.000157
0.001255 0.998117 0.000000
0.000784 1.000000 0.000784
0.001255 0.996078 0.000628
0.000000 0.999216 0.003138
0.000628 0.996706 0.000000
0.000000 0.998745 0.002824
0.074824 0.997647 0.000471
0.329883 0.992157 0.000000
0.454117 0.993725 0.003138
0.562039 0.987921 0.000157
0.659608 0.986196 0.001569
0.753412 0.984627 0.000000
0.836235 0.981177 0.000000
0.919843 0.974902 0.001592
0.000039 0.999961 0.136510
0.000039 1.000000 0.144392
0.000024 0.999984 0.134282
0.000055 0.999984 0.144392
0.000039 1.000000 0.137404
0.000039 1.000000 0.152235
0.000039 0.999961 0.152314
0.001553 1.000000 0.161694
0.004706 1.000000 0.164047
0.274541 1.000000 0.161043
0.411804 1.000000 0.179804
0.527130 1.000000 0.189278
0.617357 0.999984 0.175789
0.705984 1.000000 0.165467
0.781326 0.999969 0.151647
0.870510 0.992274 0.135922
0.139607 0.138824 0.197647
0.162510 0.136627 0.195451
0.199529 0.130980 0.195608
0.244706 0.136000 0.197490
0.300078 0.137412 0.205491
0.356079 0.127843 0.207059
0.427764 0.116706 0.201725
0.525804 0.099922 0.206745
0.616471 0.076863 0.208628
0.715137 0.032000 0.210353
0.803138 0.003922 0.207843
0.882823 0.000000 0.206275
0.958588 0.000000 0.202039
1.000000 0.000000 0.200470
0.999216 0.000000 0.196079
0.999184 0.003106 0.209372
0.128628 0.158431 0.189961
0.153882 0.155263 0.187514
0.178918 0.156800 0.187482
0.227702 0.160878 0.194384
0.277396 0.159561 0.201129
0.344628 0.155294 0.197647
0.422337 0.145035 0.199435
0.508894 0.138353 0.205490
0.607153 0.123859 0.205616
0.708800 0.100549 0.206243
0.799216 0.078432 0.200784
0.879623 0.049443 0.206275
0.957772 0.015937 0.200345
0.999372 0.002290 0.199184
0.999341 0.000000 0.196392
0.998588 0.000000 0.209189
0.123137 0.193725 0.200000
0.150243 0.189647 0.194321
0.176063 0.187639 0.193192
0.217004 0.186541 0.193161
0.272941 0.186447 0.196424
0.341333 0.187765 0.198588
0.419012 0.185067 0.202416
0.506227 0.184377 0.200471
0.603545 0.179263 0.201631
0.702212 0.172392 0.195357
0.799529 0.159686 0.199843
0.875984 0.150306 0.200784
0.954227 0.136188 0.197992
0.998525 0.121600 0.191498
0.998494 0.107137 0.189898
0.997965 0.082377 0.193890
0.119215 0.233255 0.203451
0.142777 0.233035 0.201976
0.177506 0.229773 0.200282
0.207184 0.229804 0.199498
0.261333 0.225506 0.189365
0.327529 0.226353 0.188706
0.404141 0.232188 0.197051
0.493773 0.233412 0.192659
0.584847 0.239404 0.197020
0.686243 0.238588 0.194478
0.783059 0.235137 0.193726
0.869365 0.231404 0.189176
0.947796 0.221930 0.190400
0.999874 0.211859 0.180863
0.998682 0.201255 0.175906
0.998745 0.186380 0.192102
0.087844 0.295059 0.208627
0.120533 0.290981 0.211765
0.159781 0.285020 0.208471
0.201255 0.284643 0.206181
0.252518 0.281569 0.198933
0.307294 0.277647 0.182745
0.385945 0.283389 0.180392
0.476674 0.292800 0.185192
0.570541 0.302212 0.185663
0.673443 0.309019 0.186698
0.769882 0.309333 0.178667
0.852894 0.305726 0.179859
0.938259 0.304533 0.175749
0.999749 0.293804 0.170541
0.998714 0.288942 0.159812
1.000000 0.272032 0.177183
0.014118 0.352941 0.216470
0.064471 0.357333 0.218196
0.121725 0.355294 0.212863
0.186039 0.348706 0.213804
0.244079 0.347451 0.207059
0.301961 0.344314 0.191372
0.367529 0.340392 0.178039
0.448470 0.349804 0.165490
0.544157 0.358745 0.169882
0.653334 0.375372 0.169725
0.751372 0.379608 0.163921
0.835294 0.379608 0.157647
0.926274 0.381177 0.158431
0.995294 0.373804 0.142275
0.993569 0.365961 0.132706
1.000000 0.352980 0.156785
0.003138 0.431216 0.223529
0.000502 0.439937 0.220110
0.020424 0.437835 0.213396
0.144439 0.432220 0.213302
0.223624 0.431404 0.209223
0.305098 0.423529 0.202980
0.373804 0.418667 0.184470
0.438651 0.416784 0.161412
0.519655 0.423467 0.139074
0.626479 0.440408 0.134431
0.730353 0.452549 0.130510
0.820612 0.457506 0.124235
0.909929 0.457412 0.117082
0.988172 0.450635 0.112219
0.999498 0.443639 0.090227
0.997513 0.427515 0.119972
0.000314 0.518118 0.211138
0.001004 0.526337 0.210949
0.005365 0.524078 0.209726
0.018729 0.524141 0.198776
0.176973 0.518023 0.196361
0.281569 0.512157 0.196392
0.363953 0.507043 0.178385
0.439122 0.505631 0.151184
0.517961 0.497349 0.130730
0.595702 0.503184 0.094525
0.706353 0.519215 0.077333
0.798023 0.528878 0.056408
0.893208 0.532235 0.039655
0.969694 0.528345 0.017192
0.998494 0.516925 0.002730
1.000000 0.503246 0.078838
0.000000 0.609098 0.188863
0.000000 0.617820 0.193662
0.000816 0.617067 0.186886
0.000125 0.612863 0.184973
0.040345 0.605773 0.184659
0.228392 0.607216 0.176000
0.336721 0.603388 0.169004
0.427608 0.599435 0.137788
0.516235 0.594385 0.108141
0.598777 0.588047 0.049035
0.680314 0.586510 0.003608
0.779890 0.598714 0.001318
0.875232 0.606149 0.000471
0.958902 0.603263 0.000188
0.999906 0.590400 0.000251
0.998117 0.581189 0.002038
0.001255 0.687059 0.170039
0.002510 0.697883 0.171451
0.002008 0.695373 0.169945
0.003702 0.688722 0.166212
0.003075 0.689381 0.165271
0.122980 0.688628 0.151373
0.295498 0.687122 0.144439
0.400188 0.683702 0.121757
0.492079 0.677867 0.071561
0.580768 0.673977 0.008000
0.666824 0.669804 0.000000
0.760094 0.670871 0.002761
0.853271 0.677020 0.000251
0.942212 0.679561 0.000502
0.999090 0.664188 0.004518
0.993633 0.651647 0.001404
0.003922 0.767058 0.137255
0.000784 0.769411 0.136470
0.001883 0.773647 0.131294
0.000000 0.772235 0.122353
0.005647 0.767373 0.117176
0.000000 0.771765 0.105883
0.218353 0.765333 0.088000
0.356863 0.768784 0.056941
0.469647 0.763922 0.006588
0.559373 0.760157 0.000784
0.654118 0.756079 0.000000
0.737882 0.756706 0.000000
0.836392 0.755608 0.000314
0.921883 0.755608 0.000000
0.992941 0.741490 0.004863
0.999969 0.723976 0.003138
0.000000 0.835922 0.049568
0.000157 0.841726 0.047216
0.001035 0.839843 0.042918
0.003012 0.841318 0.024690
0.000000 0.840188 0.012487
0.002510 0.840784 0.005804
0.052988 0.839404 0.001631
0.297161 0.839624 0.001757
0.427231 0.831843 0.000847
0.528847 0.830306 0.000753
0.619451 0.829020 0.001255
0.715670 0.828392 0.000000
0.805835 0.824376 0.000000
0.892549 0.824345 0.002887
0.977035 0.813177 0.000628
0.999992 0.796118 0.005616
0.000314 0.906196 0.001569
0.000000 0.906698 0.001506
0.001255 0.906980 0.001255
0.000125 0.906855 0.001381
0.002071 0.906761 0.000628
0.005333 0.904784 0.001569
0.002761 0.904094 0.000878
0.182714 0.904063 0.007875
0.357929 0.901804 0.003200
0.480565 0.898039 0.001977
0.580706 0.894274 0.001883
0.671404 0.891326 0.001349
0.761349 0.886934 0.000000
0.846526 0.883325 0.000000
0.942588 0.882572 0.000000
0.999955 0.873773 0.004821
0.001726 0.959686 0.001726
0.002730 0.959686 0.000722
0.000000 0.957773 0.000690
0.003200 0.959561 0.002479
0.001851 0.959373 0.001506
0.002824 0.956863 0.000784
0.000188 0.958682 0.000251
0.000816 0.956643 0.000000
0.252298 0.950965 0.000753
0.408973 0.950776 0.001945
0.522353 0.948235 0.000000
0.617694 0.944251 0.000000
0.712847 0.939137 0.001067
0.801380 0.937318 0.001412
0.890635 0.926808 0.001506
0.971157 0.928620 0.001434
0.000628 0.999216 0.002510
0.000000 0.999969 0.000753
0.000377 1.000000 0.000000
0.002510 0.999247 0.000659
0.000000 0.998965 0.000000
0.003138 0.999686 0.005334
0.000628 0.999341 0.000000
0.000941 0.997867 0.000377
0.081318 0.998620 0.000000
0.331357 0.992125 0.000722
0.460549 0.994353 0.000628
0.564047 0.989302 0.000126
0.663404 0.986980 0.002353
0.754290 0.980675 0.004110
0.837271 0.978572 0.004706
0.919653 0.974712 0.001404
0.003145 1.000000 0.136628
0.000660 0.997515 0.141857
0.000055 0.999981 0.137544
0.001887 0.999997 0.144402
0.003145 1.000000 0.142234
0.000031 0.999969 0.152298
0.003895 0.997509 0.152609
0.001280 0.998757 0.160154
0.004706 1.000000 0.163115
0.270820 0.999379 0.166640
0.419671 1.000000 0.183726
0.524606 0.999998 0.195432
0.619694 0.998124 0.184968
0.707050 0.999987 0.167004
0.786334 1.000000 0.154234
0.868204 1.000000 0.125874
0.129412 0.139608 0.278431
0.167686 0.138353 0.278589
0.213020 0.134274 0.274980
0.250510 0.138980 0.256314
0.291451 0.141490 0.250353
0.343529 0.149020 0.258039
0.407687 0.146196 0.263216
0.490981 0.137098 0.274039
0.581019 0.115608 0.277490
0.675294 0.062275 0.277490
0.767843 0.002353 0.269019
0.858510 0.000000 0.275138
0.935686 0.000000 0.271373
1.000000 0.000628 0.269804
1.000000 0.002353 0.262745
1.000000 0.000000 0.262745
0.134118 0.166588 0.254118
0.164612 0.169976 0.253051
0.195169 0.168973 0.251451
0.227890 0.169757 0.243577
0.263247 0.170039 0.245051
0.326275 0.174588 0.251765
0.397271 0.169286 0.263153
0.473977 0.158965 0.269867
0.564267 0.141710 0.269521
0.663875 0.107137 0.269427
0.762039 0.059294 0.263059
0.851765 0.012957 0.269145
0.934714 0.002071 0.267325
0.997867 0.000000 0.266855
1.000000 0.000471 0.260612
0.998136 0.002353 0.258676
0.127529 0.202824 0.250824
0.159028 0.200000 0.249475
0.189208 0.198933 0.244298
0.216784 0.199404 0.246965
0.261271 0.200910 0.251702
0.316392 0.200157 0.257098
0.383906 0.195953 0.255561
0.464690 0.191467 0.260047
0.558808 0.177882 0.264533
0.659828 0.163953 0.262996
0.760000 0.145882 0.265098
0.848627 0.128659 0.263686
0.933082 0.109177 0.260424
0.996925 0.098384 0.259670
1.000000 0.086996 0.258133
0.995793 0.082187 0.253813
0.132392 0.228235 0.246118
0.151530 0.228455 0.241475
0.182306 0.227482 0.239749
0.218039 0.234604 0.248126
0.260047 0.231812 0.247969
0.306666 0.228235 0.246274
0.375372 0.227608 0.247498
0.455467 0.229741 0.252173
0.543655 0.232251 0.258008
0.649537 0.228675 0.258572
0.748549 0.221020 0.257882
0.841663 0.212016 0.257412
0.925929 0.203859 0.255655
0.994416 0.198526 0.251828
0.998431 0.191812 0.249820
1.000000 0.182288 0.239387
0.111373 0.285647 0.254431
0.134745 0.283546 0.256408
0.170949 0.276392 0.258008
0.212706 0.278024 0.256251
0.248125 0.272753 0.249224
0.290980 0.271686 0.232627
0.364863 0.271153 0.239059
0.443671 0.279529 0.246651
0.536157 0.286934 0.248565
0.640784 0.287059 0.242761
0.738823 0.293020 0.246902
0.832533 0.293270 0.250071
0.916863 0.288220 0.242761
0.992157 0.283263 0.244016
0.998745 0.278432 0.233412
0.998740 0.270926 0.231391
0.062745 0.345098 0.261961
0.098824 0.340235 0.265569
0.146353 0.337255 0.259608
0.198588 0.333333 0.264785
0.241255 0.329883 0.260079
0.295686 0.327843 0.250196
0.351373 0.321882 0.233882
0.420078 0.331765 0.226196
0.515922 0.340392 0.231529
0.621490 0.354667 0.228706
0.720784 0.361569 0.225882
0.816628 0.370196 0.227921
0.906667 0.366118 0.225882
0.988706 0.362196 0.220863
0.997647 0.359216 0.212549
1.000000 0.349044 0.206298
0.001255 0.413020 0.267922
0.001004 0.421114 0.266039
0.079373 0.414902 0.262965
0.159624 0.410008 0.266196
0.227702 0.405679 0.270839
0.292863 0.404549 0.260706
0.350871 0.401600 0.241663
0.408063 0.395325 0.214933
0.499012 0.397961 0.211200
0.600314 0.419922 0.208125
0.706039 0.432941 0.204549
0.804706 0.439435 0.204236
0.895498 0.444329 0.204549
0.978478 0.443043 0.193757
0.998494 0.439216 0.184910
0.999503 0.426379 0.173796
0.000941 0.494118 0.267294
0.000000 0.505380 0.268110
0.004016 0.497412 0.269239
0.041663 0.499200 0.260455
0.180926 0.493647 0.260486
0.273882 0.491294 0.258823
0.351278 0.486777 0.247467
0.419200 0.481475 0.225067
0.491420 0.475325 0.202102
0.572141 0.480471 0.176439
0.680157 0.498510 0.173804
0.784628 0.510023 0.166682
0.879059 0.519372 0.160126
0.963137 0.517176 0.152784
1.000000 0.508643 0.138416
0.999068 0.501829 0.114880
0.001882 0.588706 0.255216
0.001883 0.596926 0.257475
0.000377 0.594353 0.257317
0.000565 0.590588 0.255780
0.055968 0.588235 0.251890
0.227451 0.584941 0.245647
0.327027 0.582494 0.243263
0.417161 0.577882 0.223435
0.493710 0.575059 0.198243
0.570855 0.568659 0.166965
0.661333 0.568628 0.123922
0.764988 0.584690 0.104408
0.863090 0.592973 0.086055
0.950682 0.592471 0.061020
0.999718 0.587953 0.033067
0.999994 0.579291 0.008342
0.000000 0.674196 0.243294
0.001632 0.678651 0.243043
0.000000 0.678369 0.241412
0.001883 0.676110 0.244330
0.000659 0.673443 0.238682
0.129412 0.674980 0.236235
0.282761 0.674792 0.224941
0.391498 0.668581 0.218039
0.480063 0.664659 0.185161
0.568722 0.657945 0.153600
0.655530 0.655059 0.099921
0.739765 0.657286 0.009914
0.842667 0.666384 0.002259
0.932737 0.669616 0.002416
0.998588 0.662933 0.003138
0.995173 0.649018 0.000031
0.003922 0.755294 0.229020
0.000000 0.760000 0.221490
0.000000 0.762666 0.225098
0.003294 0.759216 0.216941
0.000314 0.754510 0.215687
0.000000 0.761569 0.203921
0.220079 0.754824 0.209726
0.354353 0.755294 0.180549
0.460549 0.748392 0.161412
0.551687 0.750275 0.114196
0.643137 0.745098 0.044706
0.730824 0.740392 0.000471
0.824471 0.746510 0.000941
0.917647 0.747451 0.000941
0.994823 0.739294 0.003138
1.000000 0.725514 0.001569
0.001255 0.830902 0.189490
0.000314 0.835231 0.191624
0.001035 0.834981 0.175717
0.000502 0.831812 0.182745
0.000471 0.832345 0.174337
0.002196 0.830275 0.164079
0.074008 0.831404 0.152063
0.292392 0.827890 0.130949
0.422055 0.825976 0.102337
0.519059 0.823874 0.024031
0.617412 0.822118 0.000471
0.704063 0.820518 0.000753
0.797835 0.816157 0.000000
0.892392 0.819200 0.000188
0.977726 0.812392 0.000000
0.999992 0.796118 0.000000
0.000941 0.901176 0.109333
0.001130 0.901145 0.106196
0.000816 0.902745 0.098980
0.000565 0.903310 0.088408
0.000188 0.904063 0.073443
0.000941 0.899451 0.052862
0.005271 0.898165 0.026792
0.191843 0.901333 0.013773
0.361882 0.899200 0.001192
0.475640 0.895341 0.000282
0.580235 0.892549 0.000000
0.674604 0.890981 0.000816
0.765678 0.885553 0.000000
0.854808 0.880596 0.000941
0.945851 0.881286 0.000188
0.998546 0.875985 0.000009
0.000941 0.959373 0.000000
0.000000 0.957898 0.000314
0.000565 0.958682 0.001945
0.002730 0.959184 0.003106
0.000282 0.958902 0.000000
0.001412 0.956863 0.002667
0.000000 0.956957 0.000000
0.006212 0.956518 0.000000
0.260047 0.953568 0.003984
0.411357 0.950714 0.000502
0.527216 0.945255 0.000000
0.622086 0.944941 0.003985
0.712596 0.939639 0.000377
0.801537 0.935341 0.000565
0.889506 0.926745 0.000000
0.973035 0.929255 0.003299
0.001255 0.997804 0.001726
0.000251 1.000000 0.001883
0.002071 1.000000 0.001255
0.000000 0.999592 0.003514
0.002479 0.998118 0.000439
0.000000 0.999216 0.003138
0.001600 0.998368 0.000094
0.004330 0.997710 0.003138
0.088377 0.997145 0.001600
0.335028 0.993129 0.001694
0.466667 0.991372 0.001255
0.567153 0.990526 0.002071
0.664690 0.984816 0.000188
0.750557 0.981459 0.001130
0.838149 0.978573 0.001632
0.919856 0.971948 0.004074
0.000039 0.997670 0.132745
0.002675 1.000000 0.136628
0.002984 0.999994 0.143765
0.002974 1.000000 0.144411
0.000350 0.998757 0.143228
0.000016 0.996894 0.150683
0.001413 0.999366 0.152764
0.003727 0.999994 0.163462
0.004706 1.000000 0.161548
0.270643 1.000000 0.168787
0.417263 1.000000 0.183710
0.526664 0.999534 0.187181
0.620621 0.999976 0.182833
0.704368 0.999991 0.163889
0.786936 0.998739 0.153569
0.874338 0.999976 0.132039
0.131765 0.141176 0.366275
0.164549 0.136941 0.363137
0.219294 0.135686 0.357019
0.267922 0.135373 0.341804
0.309176 0.142902 0.325176
0.341176 0.152941 0.306667
0.406588 0.159216 0.317804
0.481569 0.158275 0.334745
0.565647 0.147451 0.346667
0.659608 0.123294 0.354981
0.752941 0.076863 0.363137
0.835608 0.005020 0.356863
0.919686 0.000000 0.347608
0.988863 0.002510 0.343216
0.996706 0.002196 0.343216
0.998408 0.002330 0.348996
0.138196 0.176471 0.327686
0.166055 0.176722 0.329569
0.204173 0.176879 0.326996
0.245584 0.176973 0.317898
0.285459 0.177632 0.303122
0.327843 0.176471 0.302902
0.395357 0.183090 0.316392
0.466824 0.183906 0.328377
0.548486 0.175184 0.342525
0.643765 0.148455 0.349804
0.744471 0.113255 0.350588
0.826384 0.052706 0.350682
0.909804 0.003514 0.343529
0.988329 0.001130 0.335592
0.998117 0.000000 0.339012
0.998428 0.004819 0.340981
0.138824 0.210980 0.323765
0.163733 0.215874 0.314447
0.200157 0.211859 0.314196
0.238400 0.210353 0.306635
0.273223 0.209035 0.303404
0.312470 0.208628 0.297883
0.378384 0.217035 0.318651
0.452392 0.214494 0.326682
0.541961 0.202823 0.334525
0.634604 0.184000 0.339733
0.732392 0.157333 0.341647
0.820518 0.119341 0.335153
0.908580 0.094651 0.339200
0.988737 0.088784 0.338541
1.000000 0.090384 0.336627
1.000000 0.107074 0.336930
0.124706 0.245333 0.305412
0.153506 0.249381 0.306949
0.187012 0.245929 0.300832
0.228518 0.242824 0.299671
0.263404 0.244988 0.304314
0.303059 0.246902 0.304471
0.367435 0.247122 0.310588
0.436518 0.242102 0.318212
0.516361 0.238055 0.322918
0.614619 0.223718 0.323420
0.717490 0.208784 0.329569
0.813961 0.198055 0.327184
0.905067 0.191216 0.334023
0.979859 0.188141 0.330227
0.998745 0.184439 0.326870
0.999059 0.192461 0.327871
0.116706 0.282510 0.303216
0.141867 0.281192 0.297726
0.175466 0.278651 0.295310
0.218039 0.278745 0.301051
0.263812 0.284173 0.305474
0.311058 0.296470 0.312941
0.364141 0.283075 0.302933
0.429929 0.280282 0.306604
0.511718 0.280063 0.309553
0.604643 0.281757 0.316706
0.705255 0.276706 0.318117
0.804612 0.272031 0.319498
0.896690 0.272031 0.316580
0.976690 0.276298 0.327906
0.999467 0.270902 0.319655
1.000000 0.274494 0.314061
0.092549 0.337255 0.311373
0.120628 0.336784 0.311686
0.162510 0.331765 0.310588
0.205333 0.329098 0.307294
0.248941 0.328941 0.313255
0.299608 0.329412 0.305882
0.343843 0.324235 0.291608
0.416785 0.322510 0.294431
0.496470 0.331137 0.292078
0.591529 0.334431 0.296000
0.693333 0.344314 0.303530
0.794039 0.350588 0.303215
0.886274 0.351373 0.306667
0.970980 0.353569 0.304000
1.000000 0.349020 0.297098
1.000000 0.342808 0.291804
0.009883 0.405177 0.318432
0.017443 0.412863 0.324862
0.105286 0.404737 0.321694
0.174714 0.398870 0.318181
0.236549 0.395388 0.318369
0.290196 0.389177 0.315137
0.336439 0.389710 0.309208
0.392753 0.382839 0.279153
0.477208 0.387200 0.278651
0.572267 0.401380 0.278777
0.680471 0.412863 0.285647
0.777569 0.421804 0.285490
0.875106 0.428549 0.286933
0.965961 0.430620 0.283388
0.998745 0.426980 0.281067
0.999531 0.422772 0.276867
0.000000 0.486902 0.327372
0.000000 0.493616 0.329475
0.000941 0.488627 0.330698
0.093333 0.480000 0.326839
0.199937 0.472188 0.322823
0.262588 0.472471 0.319059
0.338792 0.465130 0.316455
0.400565 0.458792 0.293647
