example_ofxGpuLutCube/bin/data/ofxGpuLutCube/LUT/A49 (light green fade).cube
LUT_3D_SIZE 6
0.109804 0.160784 0.125490
0.175686 0.168627 0.139608
0.280000 0.188235 0.157647
0.423529 0.222745 0.178823
0.635294 0.260392 0.219608
0.878274 0.325451 0.286197
0.119216 0.240000 0.159216
0.181020 0.247843 0.163137
0.283451 0.258039 0.183216
0.443137 0.284392 0.198431
0.653647 0.322353 0.237334
0.880643 0.388965 0.302666
0.123921 0.384314 0.211765
0.190902 0.391372 0.211137
0.316235 0.407216 0.230902
0.477333 0.426510 0.246902
0.681255 0.469176 0.284863
0.881412 0.524667 0.362274
0.142745 0.600000 0.291765
0.221333 0.602824 0.292863
0.364549 0.613333 0.303373
0.540078 0.627608 0.336314
0.721569 0.650196 0.381961
0.872094 0.688588 0.485444
0.414902 0.791372 0.464314
0.448628 0.791372 0.471373
0.525804 0.791372 0.483137
0.634824 0.793882 0.512000
0.751373 0.798431 0.551529
0.859545 0.818808 0.624275
0.717490 0.882275 0.701765
0.729239 0.882377 0.705749
0.750455 0.879984 0.711239
0.784189 0.883875 0.726110
0.828965 0.883890 0.746526
0.874509 0.886274 0.772431
0.117647 0.168627 0.202353
0.180236 0.180392 0.207059
0.275608 0.210510 0.219921
0.430275 0.235451 0.250666
0.648314 0.258510 0.281255
0.875161 0.335569 0.345027
0.131451 0.244863 0.223373
0.180580 0.252329 0.227106
0.289318 0.266510 0.246682
0.447968 0.287937 0.261334
0.661522 0.323357 0.296126
0.880317 0.397390 0.363179
0.132549 0.390902 0.269019
0.188173 0.395482 0.268235
0.317490 0.412863 0.285930
0.485177 0.431467 0.300518
0.688157 0.470871 0.341333
0.874723 0.536094 0.420938
0.153255 0.602667 0.346980
0.226855 0.604580 0.350588
0.374494 0.614118 0.359655
0.544157 0.630871 0.387169
0.716643 0.655247 0.430620
0.868937 0.696722 0.529810
0.440785 0.790902 0.509177
0.468580 0.790243 0.511278
0.541678 0.791372 0.522824
0.640941 0.793600 0.547294
0.752941 0.801349 0.579294
0.861075 0.821176 0.647790
0.724534 0.882290 0.709663
0.732196 0.885232 0.712651
0.755148 0.881727 0.718030
0.785804 0.883859 0.730871
0.829407 0.884328 0.750140
0.874509 0.886212 0.775514
0.118431 0.172549 0.321569
0.186510 0.192471 0.333961
0.298353 0.219608 0.342588
0.442667 0.246431 0.368157
0.652706 0.280000 0.414745
0.877459 0.355192 0.472110
0.130196 0.255059 0.341490
0.186165 0.263028 0.350526
0.301553 0.275702 0.361851
0.454055 0.303059 0.386008
0.665537 0.339482 0.432031
0.877490 0.409313 0.484772
0.121569 0.403765 0.388079
0.189396 0.409474 0.391216
0.327247 0.424910 0.413271
0.495059 0.446118 0.432596
0.699859 0.476768 0.466572
0.872968 0.551334 0.521399
0.184157 0.603451 0.466824
0.253867 0.608157 0.468298
0.389929 0.619765 0.481977
0.556737 0.633286 0.508424
0.718745 0.661239 0.540486
0.863715 0.707255 0.609003
0.462431 0.788706 0.573804
0.497443 0.789020 0.581428
0.574337 0.789145 0.598338
0.663780 0.795545 0.619357
0.760690 0.801192 0.641506
0.858251 0.819295 0.691675
0.737835 0.879200 0.731679
0.740735 0.881991 0.740712
0.758990 0.881685 0.737984
0.796425 0.883092 0.752552
0.841586 0.885417 0.769633
0.878282 0.886243 0.798118
0.125490 0.196862 0.528627
0.194039 0.205490 0.527059
0.329569 0.224157 0.538667
0.490981 0.247843 0.556549
0.674196 0.293020 0.587765
0.873584 0.385741 0.631247
0.108706 0.271373 0.538353
0.192345 0.277020 0.542902
0.331200 0.291357 0.553788
0.493553 0.314008 0.567937
0.677992 0.354761 0.593663
0.875923 0.440845 0.638668
0.099451 0.422745 0.573804
0.196392 0.428612 0.575624
0.341835 0.441569 0.583498
0.516894 0.461145 0.597145
0.699137 0.496188 0.620517
0.869235 0.562282 0.646734
0.233883 0.611294 0.616471
0.299357 0.615467 0.618322
0.419828 0.626824 0.628047
0.575906 0.643169 0.637867
0.728753 0.668518 0.657537
0.861884 0.712419 0.688262
0.478902 0.787765 0.674196
0.504879 0.789584 0.679184
0.575812 0.792063 0.682039
0.676675 0.795953 0.698761
0.770321 0.802635 0.713819
0.856397 0.825043 0.748962
0.724486 0.885420 0.759890
0.729294 0.883090 0.759137
0.764731 0.881677 0.771848
0.797491 0.885265 0.784112
0.839784 0.884333 0.790215
0.878353 0.883898 0.810941
0.123922 0.221176 0.745098
0.205647 0.228079 0.742588
0.349490 0.248941 0.750902
0.511843 0.283451 0.750275
0.674981 0.339608 0.758274
0.846110 0.426588 0.775663
0.122353 0.296471 0.743216
0.208251 0.299326 0.748957
0.351561 0.315545 0.750619
0.515796 0.348800 0.756141
0.678996 0.400251 0.760000
0.847236 0.478994 0.779552
0.209098 0.454431 0.756235
0.267420 0.459859 0.756800
0.395827 0.473976 0.756486
0.542776 0.497255 0.757302
0.695498 0.539106 0.763639
0.847273 0.593647 0.782723
0.378824 0.634510 0.766431
0.413992 0.635671 0.763263
0.502243 0.644079 0.764486
0.620706 0.665161 0.767373
0.734149 0.687216 0.772455
0.858856 0.716055 0.790075
0.551215 0.781177 0.779608
0.572988 0.780926 0.779922
0.625286 0.785600 0.778604
0.696377 0.793380 0.779922
0.783310 0.805835 0.786573
0.860989 0.819764 0.801258
0.733914 0.880721 0.817200
0.736235 0.881382 0.814765
0.761606 0.882297 0.818617
0.799416 0.883409 0.816588
0.846199 0.884650 0.823498
0.879992 0.884737 0.832980
0.192118 0.286236 0.866706
0.255671 0.297945 0.872894
0.373294 0.329294 0.873647
0.519208 0.378706 0.874432
0.669765 0.448510 0.872863
0.799922 0.533293 0.866627
0.245357 0.357568 0.872063
0.296501 0.367774 0.873490
0.397895 0.393608 0.875200
0.539258 0.436295 0.870549
0.681529 0.499974 0.867209
0.810055 0.573270 0.868126
0.371615 0.509788 0.859640
0.404123 0.522248 0.870654
0.482439 0.539065 0.868287
0.598987 0.570124 0.868489
0.716500 0.611700 0.865170
0.813365 0.656392 0.858792
0.558282 0.686957 0.858793
0.574912 0.687954 0.859114
0.607159 0.690352 0.856329
0.682929 0.704732 0.857567
0.764952 0.725109 0.861404
0.842282 0.752071 0.862659
0.684572 0.806981 0.854902
0.693176 0.808573 0.858124
0.718499 0.806709 0.858864
0.754489 0.811740 0.854075
0.812518 0.821487 0.852712
0.867310 0.834510 0.859561
0.784079 0.890078 0.862667
0.785733 0.891616 0.864290
0.799827 0.890086 0.858871
0.823435 0.890117 0.866588
0.862682 0.890133 0.862683
0.890273 0.886429 0.866590
