example_ofxGpuLutCube/bin/data/ofxGpuLutCube/LUT/A49 (light green fade).cube
LUT_3D_SIZE 16
0.109804 0.160784 0.125490
0.127843 0.164706 0.134117
0.149804 0.166274 0.138823
0.175686 0.168627 0.139608
0.202353 0.177255 0.145098
0.235294 0.184314 0.149020
0.280000 0.188235 0.157647
0.323921 0.201569 0.168627
0.372549 0.211765 0.173333
0.423529 0.222745 0.178823
0.490196 0.239216 0.192157
0.563137 0.247843 0.203922
0.635294 0.260392 0.219608
0.719216 0.276863 0.233726
0.807843 0.301177 0.250980
0.878274 0.325451 0.286197
0.117647 0.181961 0.141176
0.132863 0.181490 0.139921
0.150118 0.183843 0.135843
0.177569 0.186980 0.142902
0.207059 0.192941 0.145882
0.236863 0.197647 0.156863
0.276863 0.204863 0.158118
0.322824 0.212863 0.169411
0.371922 0.226667 0.181020
0.429647 0.238589 0.183530
0.488627 0.247843 0.196078
0.563294 0.257882 0.206275
0.638745 0.274039 0.216941
0.722353 0.289726 0.235451
0.807059 0.309804 0.258510
0.872000 0.337208 0.283067
0.118431 0.208628 0.145882
0.132549 0.207843 0.143529
0.159372 0.210510 0.148079
0.181490 0.214275 0.151529
0.209882 0.214588 0.153412
0.245490 0.219608 0.156863
0.280000 0.228863 0.166588
0.323294 0.236863 0.174588
0.376784 0.244706 0.185412
0.435294 0.255686 0.192941
0.498039 0.266667 0.203922
0.566588 0.280000 0.212863
0.645333 0.292863 0.224627
0.724392 0.308235 0.238902
0.806588 0.330039 0.262432
0.878290 0.359937 0.291663
0.119216 0.240000 0.159216
0.132863 0.243608 0.157647
0.154823 0.247216 0.162510
0.181020 0.247843 0.163137
0.213647 0.247843 0.174118
0.241569 0.250196 0.172549
0.283451 0.258039 0.183216
0.330980 0.266510 0.188549
0.384314 0.275137 0.192784
0.443137 0.284392 0.198431
0.505882 0.297255 0.212549
0.572549 0.306980 0.215686
0.653647 0.322353 0.237334
0.733333 0.341804 0.249255
0.808157 0.359843 0.271843
0.880643 0.388965 0.302666
0.129412 0.279216 0.175687
0.139137 0.280000 0.178196
0.154980 0.282039 0.177882
0.181490 0.286275 0.180235
0.218039 0.288627 0.186039
0.253333 0.290981 0.187451
0.289883 0.297098 0.192784
0.337883 0.308706 0.197804
0.390274 0.317961 0.205490
0.447216 0.326432 0.214118
0.512941 0.336471 0.222745
0.580236 0.351216 0.235765
0.661804 0.368941 0.245490
0.734118 0.382588 0.259137
0.812706 0.401412 0.288157
0.876016 0.425843 0.320738
0.129412 0.325490 0.188235
0.141176 0.325490 0.184314
0.152157 0.329412 0.189804
0.183529 0.333333 0.198431
0.218039 0.336471 0.196862
0.258824 0.345098 0.203922
0.302745 0.348236 0.207843
0.348235 0.352941 0.209412
0.399216 0.363137 0.221961
0.461176 0.374902 0.229804
0.521569 0.380392 0.239216
0.599215 0.401569 0.254902
0.670588 0.413333 0.262745
0.740392 0.429804 0.283137
0.815686 0.450196 0.308235
0.878353 0.474432 0.337177
0.123921 0.384314 0.211765
0.137255 0.386981 0.209568
0.155765 0.387451 0.206902
0.190902 0.391372 0.211137
0.222117 0.395137 0.216627
0.270588 0.402353 0.223529
0.316235 0.407216 0.230902
0.368000 0.412235 0.231059
0.417255 0.419451 0.240471
0.477333 0.426510 0.246902
0.541176 0.438431 0.258040
0.614275 0.454274 0.271843
0.681255 0.469176 0.284863
0.755608 0.485804 0.309333
0.823059 0.504784 0.329412
0.881412 0.524667 0.362274
0.120000 0.453333 0.235294
0.132863 0.456470 0.232157
0.159059 0.455059 0.233726
0.195294 0.460549 0.237804
0.234510 0.462745 0.241569
0.282353 0.466667 0.244706
0.328157 0.469490 0.247529
0.383686 0.477334 0.253647
0.436706 0.483294 0.260392
0.491922 0.486431 0.266667
0.556863 0.502745 0.282353
0.626980 0.516078 0.295059
0.692706 0.528784 0.312627
0.762353 0.546823 0.340079
0.828549 0.562666 0.364078
0.878353 0.581130 0.399153
0.118431 0.527059 0.256471
0.132392 0.524235 0.254431
0.165176 0.525490 0.256314
0.203608 0.530353 0.264941
0.241568 0.530667 0.264314
0.294118 0.534902 0.266667
0.345725 0.540863 0.275294
0.401412 0.545726 0.279059
0.457255 0.553412 0.291765
0.519059 0.561568 0.299765
0.573333 0.564706 0.306667
0.648471 0.576470 0.321098
0.709177 0.589020 0.344157
0.775530 0.600941 0.369882
0.827451 0.620236 0.397961
0.878313 0.636823 0.443836
0.142745 0.600000 0.291765
0.159216 0.602040 0.290039
0.185883 0.598745 0.292706
0.221333 0.602824 0.292863
0.266667 0.606588 0.298824
0.320000 0.608628 0.307451
0.364549 0.613333 0.303373
0.422745 0.614118 0.312941
0.477334 0.622274 0.320784
0.540078 0.627608 0.336314
0.596078 0.632157 0.346667
0.658510 0.643451 0.357334
0.721569 0.650196 0.381961
0.779608 0.665412 0.407373
0.829020 0.675921 0.444549
0.872094 0.688588 0.485444
0.203922 0.674510 0.333333
0.214118 0.670588 0.326274
0.238431 0.674510 0.335686
0.267451 0.676863 0.343529
0.308235 0.678431 0.340392
0.349020 0.678431 0.345098
0.402353 0.682353 0.353725
0.449412 0.686275 0.354510
0.507451 0.687059 0.369412
0.561569 0.694118 0.377255
0.619608 0.701961 0.400000
0.672157 0.701961 0.408627
0.727843 0.709804 0.429804
0.785883 0.720000 0.456471
0.829804 0.729412 0.495686
0.870470 0.741137 0.533215
0.302745 0.741960 0.398431
0.312000 0.739608 0.396392
0.327059 0.738039 0.395294
0.344000 0.738353 0.392784
0.373804 0.740863 0.397177
0.411765 0.739608 0.403137
0.454274 0.742902 0.410353
0.501176 0.747608 0.421490
0.548078 0.747451 0.429804
0.593411 0.750745 0.441569
0.640000 0.751373 0.458039
0.689255 0.752628 0.467922
0.735686 0.757020 0.485176
0.787294 0.766275 0.509334
0.828392 0.774745 0.541804
0.868133 0.788949 0.581890
0.414902 0.791372 0.464314
0.422432 0.788706 0.470274
0.430588 0.791372 0.465098
0.448628 0.791372 0.471373
0.466667 0.789020 0.472157
0.495687 0.792941 0.476079
0.525804 0.791372 0.483137
0.558431 0.792000 0.494431
0.602040 0.793412 0.507922
0.634824 0.793882 0.512000
0.676078 0.797647 0.526275
0.714510 0.801883 0.540392
0.751373 0.798431 0.551529
0.782118 0.803137 0.571765
0.824314 0.809882 0.591059
0.859545 0.818808 0.624275
0.530980 0.828235 0.546667
0.534431 0.826981 0.546980
0.536628 0.827922 0.546980
0.549177 0.831216 0.551372
0.562353 0.830431 0.554823
0.582745 0.829804 0.560784
0.605804 0.830902 0.564706
0.632157 0.831216 0.573333
0.659294 0.831216 0.581020
0.685020 0.832157 0.591059
0.716078 0.831373 0.600784
0.744314 0.834196 0.611765
0.772078 0.832784 0.620392
0.801569 0.837020 0.637647
0.831373 0.836392 0.648471
0.858746 0.845475 0.673686
0.630588 0.861176 0.626667
0.631372 0.861176 0.632157
0.640000 0.858039 0.629804
0.643137 0.861176 0.636079
0.655373 0.858510 0.634823
0.667451 0.861176 0.639215
0.682510 0.862588 0.643922
0.697255 0.863059 0.650510
0.719216 0.859294 0.655373
0.739765 0.861333 0.662745
0.755294 0.858824 0.668235
0.777412 0.861490 0.680628
0.800000 0.859608 0.687843
0.825098 0.861647 0.698039
0.840941 0.867765 0.706823
0.858855 0.865130 0.719247
0.717490 0.882275 0.701765
0.721334 0.886197 0.705686
0.725294 0.878431 0.701804
0.729239 0.882377 0.705749
0.735522 0.882275 0.708824
0.737098 0.882275 0.709686
0.750455 0.879984 0.711239
0.759890 0.883867 0.721373
0.774769 0.882314 0.721412
0.784189 0.883875 0.726110
0.799922 0.882353 0.729294
0.817106 0.883130 0.741843
0.828965 0.883890 0.746526
0.845451 0.886220 0.752847
0.861922 0.889310 0.767694
0.874509 0.886274 0.772431
0.114509 0.161568 0.147451
0.129569 0.164863 0.146823
0.149804 0.164706 0.144314
0.175373 0.174588 0.155451
0.202981 0.184941 0.162196
0.238432 0.198431 0.165490
0.275294 0.201098 0.173961
0.322039 0.211138 0.183059
0.368157 0.214588 0.188078
0.428393 0.224941 0.200314
0.490196 0.238432 0.205491
0.560941 0.248000 0.220079
0.638902 0.263686 0.231687
0.722039 0.280471 0.248313
0.800000 0.301177 0.266667
0.875914 0.329326 0.301843
0.120785 0.179922 0.152314
0.134117 0.184094 0.156016
0.150714 0.187012 0.153506
0.176721 0.191623 0.163420
0.206777 0.197365 0.162855
0.241882 0.204079 0.170039
0.277616 0.210416 0.178228
0.320627 0.217161 0.186416
0.370228 0.229898 0.194604
0.431686 0.239216 0.202761
0.490824 0.246118 0.209412
0.563921 0.260361 0.219043
0.642133 0.273318 0.239655
0.725960 0.293020 0.248941
0.804549 0.310933 0.272565
0.877148 0.344359 0.298886
0.123137 0.209412 0.159216
0.132016 0.209506 0.162447
0.155922 0.212235 0.162667
0.175216 0.216690 0.165459
0.208126 0.219765 0.173365
0.240784 0.225098 0.181961
0.283200 0.230777 0.186290
0.325835 0.239749 0.191592
0.376063 0.247153 0.200816
0.434792 0.256345 0.204486
0.498039 0.265882 0.218667
0.568157 0.278902 0.225035
0.648628 0.295373 0.239843
0.730070 0.309678 0.256690
0.806494 0.330761 0.272533
0.874847 0.356337 0.298930
0.123137 0.240000 0.175059
0.134776 0.244235 0.176377
0.156204 0.246086 0.176282
0.180047 0.248031 0.176565
0.209506 0.250824 0.185349
0.244706 0.256157 0.190431
0.285710 0.260643 0.194447
0.329757 0.267859 0.201820
0.382902 0.277459 0.205145
0.442855 0.284957 0.210729
0.506510 0.296784 0.221804
0.575718 0.309710 0.234353
0.656878 0.323765 0.245741
0.735655 0.341208 0.262212
0.811074 0.361726 0.288157
0.876886 0.392686 0.313663
0.132706 0.280628 0.190902
0.136690 0.280157 0.187012
0.155859 0.281161 0.190588
0.183467 0.286306 0.194321
0.214494 0.291608 0.195168
0.250980 0.295059 0.202039
0.288251 0.299639 0.206620
0.335310 0.308518 0.210541
0.390431 0.316706 0.218541
0.450604 0.329192 0.224408
0.512941 0.338823 0.235294
0.579828 0.351247 0.241286
0.660863 0.364078 0.257726
0.737757 0.381553 0.273035
0.815686 0.400910 0.301710
0.880154 0.431620 0.330726
0.130196 0.330196 0.202353
0.145882 0.330196 0.203451
0.160313 0.331137 0.209255
0.189176 0.331137 0.205177
0.221333 0.337882 0.215059
0.258824 0.341176 0.213334
0.296628 0.348549 0.218667
0.347137 0.356863 0.222745
0.400627 0.363451 0.230432
0.460392 0.372549 0.238745
0.525490 0.384314 0.250980
0.595922 0.397490 0.261020
0.674040 0.416784 0.277647
0.744314 0.433726 0.294902
0.815686 0.450823 0.317490
0.882165 0.478360 0.348926
0.124549 0.385412 0.219765
0.137255 0.384314 0.221177
0.159906 0.389396 0.226102
0.187043 0.393443 0.225349
0.224753 0.397521 0.227231
0.270588 0.401726 0.232314
0.316235 0.408188 0.238839
0.367216 0.413522 0.243388
0.420392 0.422212 0.251262
0.479624 0.427325 0.256471
0.542745 0.439216 0.268235
0.609381 0.456251 0.280878
0.682949 0.470337 0.295185
0.756580 0.487310 0.316298
0.823153 0.508706 0.341239
0.879090 0.530910 0.374353
0.117333 0.454588 0.245019
0.132800 0.453616 0.241255
0.159718 0.455059 0.244329
0.195608 0.459514 0.246745
0.231529 0.462808 0.248627
0.280000 0.467451 0.252863
0.331326 0.472784 0.259733
0.385192 0.479153 0.264722
0.436643 0.484831 0.272282
0.495969 0.490008 0.278745
0.558431 0.500392 0.292392
0.626886 0.512690 0.303718
0.695561 0.530949 0.325334
0.762667 0.546196 0.347859
0.824816 0.563231 0.371043
0.879553 0.582385 0.409175
0.117490 0.525490 0.265412
0.135122 0.526745 0.266730
0.164518 0.525772 0.267639
0.202039 0.531231 0.271498
0.243294 0.531639 0.274447
0.294902 0.534902 0.277804
0.345631 0.540988 0.282541
0.402886 0.546729 0.292518
0.455812 0.554165 0.299263
0.519467 0.561412 0.308706
0.574902 0.566275 0.317490
0.644957 0.576627 0.334871
0.707200 0.591341 0.354855
0.771451 0.602290 0.377036
0.828204 0.620235 0.408659
0.877514 0.638226 0.453385
0.142902 0.599530 0.297882
0.158588 0.599122 0.299922
0.187827 0.600063 0.303247
0.221459 0.604894 0.303278
0.267702 0.606965 0.306259
0.319373 0.608000 0.314824
0.368659 0.610416 0.312816
0.423969 0.616377 0.325867
0.476235 0.621741 0.330792
0.539922 0.627420 0.343153
0.597333 0.635451 0.357490
0.661397 0.639906 0.371639
0.719216 0.651953 0.391749
0.780612 0.663216 0.413082
0.828863 0.676549 0.454023
0.874052 0.690949 0.495605
0.204706 0.671372 0.341960
0.218039 0.671216 0.339608
0.245019 0.672941 0.342588
0.272157 0.673725 0.345882
0.308863 0.677647 0.351687
0.356079 0.678431 0.356863
0.402981 0.682981 0.360941
0.450196 0.683137 0.368470
0.507764 0.687530 0.375530
0.561412 0.690823 0.391373
0.611765 0.694118 0.400000
0.672941 0.702745 0.417255
0.729098 0.711059 0.442039
0.779294 0.720314 0.465882
0.828235 0.728785 0.503216
0.866581 0.741105 0.541098
0.301177 0.737255 0.400784
0.314541 0.736721 0.400376
0.328314 0.736470 0.403922
0.352000 0.737412 0.403294
0.378949 0.740612 0.407342
0.416314 0.742902 0.412235
0.456314 0.741773 0.420894
0.502274 0.745694 0.431435
0.545067 0.747451 0.436894
0.594541 0.749082 0.448031
0.640471 0.751373 0.459137
0.689255 0.756298 0.478149
0.736878 0.757114 0.493992
0.783686 0.767059 0.516549
0.829051 0.774902 0.548800
0.861915 0.785067 0.585773
0.424628 0.790902 0.473255
0.425820 0.789710 0.472973
0.435169 0.791215 0.477208
0.450667 0.790713 0.480596
0.470369 0.791969 0.483200
0.501961 0.789020 0.489255
0.530918 0.793067 0.496659
0.561663 0.792000 0.502996
0.601569 0.790588 0.511561
0.638337 0.794918 0.524706
0.674823 0.796392 0.531294
0.712470 0.797647 0.544627
0.753537 0.799404 0.558463
0.787765 0.803514 0.574463
0.825945 0.811043 0.597678
0.858303 0.821292 0.630036
0.537726 0.830274 0.554980
0.537569 0.830118 0.554823
0.542776 0.829490 0.557490
0.551561 0.830588 0.553568
0.564487 0.828235 0.560753
0.584157 0.829804 0.562510
0.608125 0.831278 0.574368
0.632910 0.829616 0.579168
0.659169 0.829867 0.584910
0.687435 0.832941 0.595482
0.717647 0.832941 0.603294
0.741867 0.831153 0.616345
0.772549 0.835012 0.627765
0.803075 0.837584 0.640722
0.829584 0.838275 0.650824
0.857503 0.845475 0.674618
0.638431 0.858040 0.632157
0.631436 0.858573 0.630181
0.641286 0.859514 0.634322
0.644110 0.860894 0.636424
0.659137 0.863655 0.638965
0.667451 0.861176 0.643922
0.683577 0.860047 0.645992
0.700957 0.858981 0.650792
0.715074 0.860800 0.655122
0.739890 0.861302 0.663310
0.755922 0.858510 0.669019
0.779263 0.863216 0.682730
0.798933 0.862400 0.690322
0.818604 0.862934 0.696565
0.841569 0.865255 0.711843
0.860057 0.862595 0.724855
0.717514 0.882282 0.701883
0.717611 0.882469 0.702039
0.721901 0.881995 0.703133
0.729210 0.882300 0.705774
0.735635 0.882463 0.708990
0.737106 0.882282 0.709694
0.752764 0.882306 0.713554
0.760652 0.882314 0.717485
0.775974 0.882314 0.721412
0.783418 0.882949 0.726116
0.803804 0.886236 0.733176
0.811415 0.885731 0.741680
0.830065 0.884967 0.747672
0.846972 0.887773 0.754384
0.861114 0.888875 0.767228
0.874455 0.886266 0.772431
0.121569 0.164706 0.172549
0.130196 0.167843 0.174118
0.151530 0.170980 0.176627
0.178824 0.178824 0.180078
0.202510 0.184314 0.176941
0.238431 0.197647 0.189804
0.275137 0.207530 0.196863
0.316549 0.212863 0.200628
0.370196 0.221176 0.211451
0.433098 0.228706 0.218981
0.498039 0.243137 0.230588
0.563608 0.250039 0.239059
0.640157 0.260706 0.247215
0.726431 0.279216 0.269961
0.804392 0.298510 0.289726
0.875922 0.332416 0.316008
0.119843 0.180706 0.172078
0.136878 0.186290 0.179985
0.152220 0.191153 0.176534
0.176345 0.196517 0.182588
0.203796 0.202792 0.183435
0.239530 0.210510 0.191686
0.276267 0.218133 0.201349
0.320439 0.221647 0.205679
0.374870 0.232784 0.215341
0.432659 0.236737 0.221678
0.497412 0.250039 0.234196
0.568941 0.260016 0.241537
0.643545 0.273569 0.255404
0.727780 0.289600 0.271279
0.808000 0.313098 0.289412
0.880582 0.344965 0.321439
0.126431 0.210039 0.180078
0.135717 0.212612 0.181679
0.157427 0.212675 0.186353
0.178447 0.218667 0.186635
0.210227 0.222243 0.196988
0.243137 0.229961 0.199687
0.283231 0.231937 0.205992
0.325678 0.240471 0.214776
0.377475 0.250792 0.219514
0.440314 0.258573 0.230777
0.501333 0.267608 0.236235
0.571043 0.280502 0.248878
0.648690 0.292957 0.260079
0.726494 0.308957 0.274227
0.807875 0.332894 0.294181
0.876401 0.362257 0.317416
0.126431 0.242353 0.191059
0.139200 0.244549 0.194572
0.157584 0.245804 0.198714
0.179796 0.247937 0.201349
0.210353 0.251890 0.205020
0.247529 0.257255 0.208471
0.285836 0.265067 0.217569
0.332078 0.270902 0.219420
0.385882 0.278777 0.227828
0.443922 0.288565 0.232722
0.506353 0.298824 0.245177
0.580079 0.311812 0.252643
0.654808 0.323733 0.264251
0.734713 0.341051 0.281475
0.811984 0.363702 0.303059
0.880769 0.393794 0.334157
0.135843 0.282353 0.212235
0.142274 0.283985 0.208973
0.159718 0.283734 0.214275
0.185443 0.287435 0.216157
0.216627 0.291420 0.215561
0.249569 0.296470 0.220392
0.291137 0.300392 0.222212
0.338133 0.310055 0.229961
0.393192 0.317427 0.236643
0.452894 0.328188 0.243482
0.514980 0.336941 0.251608
0.583341 0.351874 0.263373
0.663624 0.363200 0.276204
0.737976 0.383749 0.294024
0.815498 0.404361 0.320627
0.882212 0.434121 0.354097
0.133333 0.329412 0.218823
0.149020 0.329412 0.219137
0.161883 0.333333 0.223686
0.188392 0.334274 0.224157
0.219451 0.338039 0.228549
0.263530 0.346667 0.235294
0.300392 0.349491 0.239059
0.349333 0.355451 0.238588
0.402981 0.366118 0.252549
0.463216 0.374902 0.257882
0.527059 0.386667 0.270588
0.596863 0.400000 0.279059
0.672628 0.414275 0.291295
0.745412 0.433726 0.315137
0.820078 0.456942 0.336941
0.878321 0.482275 0.367749
0.125019 0.387765 0.239686
0.136909 0.388110 0.239624
0.158839 0.393192 0.240941
0.189082 0.393600 0.242447
0.228392 0.398557 0.249600
0.268392 0.400313 0.248314
0.313820 0.410478 0.256941
0.365271 0.415561 0.261804
0.418447 0.419796 0.265788
0.479027 0.428486 0.273318
0.539765 0.442353 0.282510
0.609600 0.454965 0.294682
0.683734 0.470118 0.312910
0.756110 0.490667 0.335498
0.822588 0.509145 0.360126
0.874725 0.530460 0.391620
0.112313 0.453961 0.260549
0.127467 0.455090 0.260957
0.156925 0.456031 0.261741
0.191153 0.460612 0.263498
0.232471 0.461804 0.266039
0.280000 0.466667 0.271373
0.329004 0.473443 0.277835
0.385161 0.480220 0.284141
0.439749 0.487875 0.290730
0.496910 0.488816 0.296627
0.556392 0.501804 0.306196
0.627169 0.512596 0.322510
0.697788 0.531953 0.341710
0.761757 0.545882 0.365898
0.824910 0.563890 0.389835
0.875829 0.585529 0.428621
0.120628 0.525647 0.284235
0.132706 0.527623 0.282039
0.162541 0.528220 0.285145
0.199498 0.532110 0.290039
0.245333 0.532706 0.291702
0.293961 0.536470 0.296627
0.345506 0.543216 0.301208
0.402666 0.547859 0.308423
0.457067 0.552376 0.317396
0.520157 0.559561 0.325553
0.578824 0.566275 0.337725
0.645678 0.578918 0.350337
0.707420 0.592031 0.370196
0.771137 0.603451 0.395921
0.826133 0.623278 0.429365
0.874417 0.641366 0.465029
0.147922 0.601569 0.320471
0.157020 0.602447 0.315765
0.188957 0.602667 0.317961
0.223655 0.604612 0.323294
0.271216 0.607153 0.327027
0.320941 0.609412 0.331137
0.369443 0.612423 0.335435
0.423843 0.618353 0.339608
0.481694 0.625600 0.351718
0.541741 0.625600 0.359874
0.594666 0.635294 0.372549
0.659828 0.642416 0.386573
0.718243 0.654557 0.409851
0.776314 0.664753 0.431435
0.829522 0.677521 0.470683
0.867093 0.691420 0.506906
0.213333 0.672157 0.362353
0.228235 0.671372 0.360784
0.250039 0.677490 0.362980
0.275294 0.674510 0.362353
0.312941 0.672941 0.365490
0.359216 0.680000 0.371765
0.403922 0.680470 0.373961
0.452549 0.684863 0.382745
0.511373 0.690196 0.395764
0.563137 0.691765 0.405334
0.614902 0.698039 0.417255
0.674196 0.700549 0.433255
0.726275 0.711372 0.450196
0.781804 0.723137 0.476863
0.824784 0.729098 0.508706
0.866589 0.741176 0.548981
0.314667 0.739608 0.418353
0.320188 0.736157 0.415373
0.338384 0.738353 0.417851
0.360502 0.737819 0.420172
0.386071 0.739670 0.425945
0.424627 0.741647 0.431843
0.459922 0.744251 0.435106
0.504031 0.743153 0.442384
0.549239 0.747420 0.452298
0.598212 0.751122 0.465443
0.643608 0.751843 0.476706
0.689632 0.755043 0.485804
0.734714 0.759529 0.503184
0.784439 0.766934 0.525647
0.829553 0.775624 0.558463
0.862321 0.786177 0.590364
0.426039 0.788078 0.482823
0.434070 0.789553 0.483169
0.446212 0.789114 0.485114
0.461804 0.790902 0.490824
0.477741 0.790714 0.494557
0.505255 0.792314 0.501333
0.534933 0.789930 0.505883
0.569004 0.790714 0.514918
0.604298 0.793067 0.521631
0.638714 0.793098 0.533082
0.676863 0.794980 0.537883
0.714384 0.799341 0.552157
0.754573 0.800157 0.567059
0.785004 0.803671 0.580141
0.825882 0.811231 0.607090
0.858782 0.821768 0.636199
0.537726 0.828078 0.559373
0.543718 0.828424 0.562071
0.549082 0.828769 0.563357
0.558086 0.828424 0.566557
0.571702 0.830306 0.569726
0.590275 0.828706 0.573020
0.610071 0.830620 0.581647
0.633475 0.829553 0.587953
0.662400 0.831216 0.595043
0.690981 0.830588 0.604235
0.717804 0.831529 0.610666
0.744941 0.832973 0.621804
0.776000 0.835138 0.632596
0.803765 0.836079 0.648628
0.828079 0.838275 0.657725
0.856275 0.845465 0.681544
0.639372 0.857726 0.635921
0.641474 0.860769 0.638776
0.645960 0.859232 0.637302
0.648376 0.859577 0.638118
0.659890 0.860016 0.640565
0.669333 0.859294 0.644235
0.685333 0.859294 0.649882
0.703027 0.858792 0.654871
0.720471 0.860549 0.661333
0.740235 0.858510 0.667921
0.759529 0.857726 0.673882
0.780047 0.861208 0.689098
0.801349 0.861145 0.690949
0.822965 0.863279 0.705129
0.842196 0.865255 0.714196
0.862395 0.864924 0.725620
0.719035 0.882298 0.704988
0.721597 0.884333 0.707975
0.728264 0.881362 0.704852
0.729861 0.882935 0.706425
0.735225 0.880416 0.710152
0.739466 0.879984 0.713607
0.753255 0.882784 0.714039
0.759862 0.881551 0.719715
0.774802 0.882309 0.721476
0.785147 0.884041 0.731021
0.799922 0.886197 0.734808
0.817948 0.882318 0.741066
0.827567 0.885265 0.746573
0.845903 0.885305 0.756110
0.860350 0.887801 0.766154
0.875961 0.887757 0.773938
0.117647 0.168627 0.202353
0.130196 0.167372 0.201412
0.155294 0.171608 0.205020
0.180236 0.180392 0.207059
0.207216 0.189020 0.209569
0.239216 0.196078 0.216471
0.275608 0.210510 0.219921
0.323294 0.218039 0.232784
0.370824 0.231843 0.240941
0.430275 0.235451 0.250666
0.495686 0.247843 0.265882
0.568157 0.248784 0.272000
0.648314 0.258510 0.281255
0.728627 0.272941 0.299608
0.802667 0.295373 0.312941
0.875161 0.335569 0.345027
0.121255 0.188078 0.204392
0.133396 0.187200 0.205553
0.154698 0.192219 0.205710
0.177663 0.195012 0.209506
0.206494 0.207718 0.212863
0.239216 0.215686 0.220392
0.274196 0.222557 0.222368
0.319529 0.229804 0.232063
0.372172 0.238212 0.241569
0.436392 0.244643 0.253082
0.497882 0.254118 0.262745
0.572863 0.260141 0.272220
0.649286 0.268643 0.282635
0.726964 0.283263 0.297788
0.807153 0.307859 0.318682
0.876229 0.346391 0.349349
0.131608 0.210980 0.211138
0.138918 0.215718 0.210510
0.158996 0.215780 0.215874
0.179953 0.220235 0.216251
0.207749 0.225506 0.220141
0.239216 0.235294 0.224314
0.278871 0.240377 0.232910
0.324486 0.248439 0.239592
0.379325 0.254808 0.248659
0.436267 0.260204 0.255906
0.503529 0.267294 0.265726
0.576188 0.276706 0.274761
0.654086 0.291106 0.289757
0.731388 0.307921 0.304439
0.810855 0.332173 0.323420
0.878116 0.365250 0.350173
0.131451 0.244863 0.223373
0.143153 0.246902 0.225224
0.157584 0.247655 0.224565
0.180580 0.252329 0.227106
0.212863 0.255749 0.231310
0.247529 0.259765 0.236079
0.289318 0.266510 0.246682
0.334212 0.270620 0.247749
0.388298 0.279216 0.252235
0.447968 0.287937 0.261334
0.512941 0.298196 0.269804
0.582745 0.306635 0.280847
0.661522 0.323357 0.296126
0.736753 0.339828 0.311937
0.814620 0.364392 0.334368
0.880317 0.397390 0.363179
0.138980 0.279216 0.233412
0.151655 0.284298 0.230871
0.161851 0.284393 0.237522
0.185882 0.288879 0.238369
0.217255 0.294808 0.240188
0.253647 0.300392 0.246432
0.297035 0.304627 0.251231
0.344690 0.311937 0.256439
0.394886 0.317710 0.261804
0.456314 0.327687 0.268674
0.522039 0.338823 0.280471
0.590683 0.349302 0.289882
0.668423 0.363984 0.305882
0.743780 0.386479 0.323702
0.817819 0.403702 0.347325
0.878458 0.434899 0.376692
0.139608 0.331765 0.247843
0.147294 0.333177 0.247059
0.166274 0.334274 0.251765
0.187765 0.337725 0.252235
0.219294 0.341490 0.257255
0.258824 0.345098 0.259608
0.303059 0.350588 0.266667
0.356078 0.359843 0.273255
0.408784 0.368627 0.277020
0.469333 0.376471 0.285804
0.533333 0.385882 0.290981
0.601882 0.398431 0.308235
0.673882 0.413961 0.320471
0.747608 0.435765 0.342745
0.817725 0.456000 0.361882
0.876761 0.484604 0.390510
0.132549 0.390902 0.269019
0.144282 0.387890 0.268549
0.161882 0.393725 0.268926
0.188173 0.395482 0.268235
0.223906 0.398118 0.272816
0.268236 0.401725 0.274667
0.317490 0.412863 0.285930
0.368690 0.415404 0.286620
0.424157 0.423937 0.296753
0.485177 0.431467 0.300518
0.545882 0.443608 0.318431
0.615749 0.456753 0.323702
0.688157 0.470871 0.341333
0.755702 0.486777 0.360847
0.820737 0.510620 0.386196
0.874723 0.536094 0.420938
0.118588 0.458196 0.290510
0.132706 0.458196 0.289255
0.157114 0.458635 0.288816
0.189114 0.462965 0.292455
0.230777 0.464345 0.294808
0.279059 0.469333 0.295843
0.329349 0.476361 0.304188
0.384377 0.481726 0.308110
