example_ofxGpuLutCube/bin/data/ofxGpuLutCube/LUT/A5 (contrasty warm greenish).cube
LUT_3D_SIZE 6
-0.026229 -0.017769 0.000000
0.150167 -0.003566 0.000000
0.294998 0.000000 0.000000
0.461949 0.000000 0.000000
0.734344 0.000000 0.000000
1.002146 0.000000 0.000000
-0.004540 0.113281 0.000000
0.158462 0.112716 0.000000
0.303373 0.038324 0.000000
0.474241 -0.047357 0.000000
0.764864 -0.010251 0.000000
1.000963 0.000000 0.000000
0.099932 0.270128 0.000000
0.180592 0.300891 0.000000
0.343456 0.276927 0.000000
0.534169 0.266953 0.000000
0.876525 0.250034 0.000000
1.000005 0.231605 0.000000
0.209213 0.520039 0.000000
0.268650 0.544550 0.000000
0.419419 0.599079 0.000000
0.708570 0.628753 0.000000
0.937765 0.604165 0.000000
1.000028 0.624976 0.000000
0.383046 0.926023 0.000000
0.441463 0.926514 0.000000
0.573494 0.929743 -0.000551
0.740495 0.946467 -0.013031
0.970518 0.912932 0.027081
1.000022 0.876782 -0.096803
0.607242 1.071751 -0.018902
0.635429 1.071751 -0.003595
0.738597 1.071851 -0.003701
0.879734 1.071813 0.032121
0.974058 1.066412 0.342803
1.000546 1.073282 0.503743
-0.273708 -0.490541 0.140991
-0.288866 -0.490540 0.136750
-0.189304 -0.490401 0.048550
0.364129 -0.490325 -0.033212
0.726059 -0.488681 -0.152808
1.000784 -0.490564 -0.222018
-0.000539 0.121430 0.132004
-0.054095 0.064777 0.101357
0.303625 -0.041131 0.025608
0.487949 -0.038152 -0.000788
0.804434 -0.004336 0.000000
1.000104 0.000000 0.000000
-0.025983 0.261705 0.052151
0.086412 0.276683 0.043565
0.352555 0.285519 -0.002076
0.561895 0.271205 0.000000
0.891582 0.229949 0.000000
1.000028 0.187369 0.000000
0.209903 0.538565 0.000000
0.270101 0.571581 0.000000
0.422713 0.632970 0.000000
0.714912 0.636598 0.000000
0.946583 0.606016 0.000000
1.000028 0.620429 0.000000
0.384171 0.929349 0.000000
0.442966 0.929204 0.000000
0.571857 0.932294 -0.000540
0.738102 0.953108 -0.013351
0.972790 0.916662 0.029212
1.000081 0.877540 -0.099375
0.609659 1.071751 -0.088696
0.638037 1.071751 -0.085734
0.742183 1.071844 -0.057987
0.848652 1.055737 0.165092
0.970631 1.066655 0.354379
1.000175 1.073112 0.512948
-0.239924 -0.467481 0.287998
-0.256536 -0.468764 0.287840
-0.280085 -0.473981 0.242166
0.333055 -0.481356 0.197553
0.815419 -0.488329 0.197237
1.000012 -0.490564 0.206000
0.000000 0.052125 0.301229
-0.017416 0.029419 0.304251
0.156163 -0.048421 0.264363
0.476710 -0.014846 0.240666
0.863461 -0.000103 0.252475
1.000028 0.000000 0.243147
-0.000297 0.302089 0.338829
-0.002202 0.330376 0.332258
0.205449 0.225467 0.222601
0.592733 0.272468 0.210909
0.898183 0.199823 0.207111
1.000028 0.206315 0.227639
0.058951 0.565296 0.306136
0.134237 0.557971 0.289812
0.282065 0.619904 0.209706
0.679433 0.633474 0.175903
0.957892 0.615318 0.147911
1.000028 0.632879 0.278802
0.286740 0.864757 0.194553
0.353029 0.870196 0.189653
0.496749 0.909997 0.220885
0.667519 0.939457 0.285950
0.960001 0.916390 0.306959
1.000077 0.876705 0.446855
0.536371 1.022552 0.456043
0.568536 1.027460 0.465661
0.687220 1.038011 0.475775
0.833010 1.052517 0.506414
0.945055 1.066024 0.570686
1.000028 1.073284 0.586578
-0.252821 -0.470916 0.537399
-0.267646 -0.472395 0.537008
-0.309965 -0.476508 0.573631
0.302932 -0.481819 0.708111
0.812970 -0.487163 0.682337
1.000121 -0.490540 0.651253
0.000000 -0.056619 0.575740
-0.000405 -0.055695 0.575045
0.070566 -0.019642 0.613718
0.435357 -0.002160 0.719320
0.853386 0.000000 0.672995
1.000028 0.000000 0.655043
0.000000 0.373152 0.693879
-0.000428 0.371832 0.691255
-0.084906 0.323711 0.728969
0.480152 0.267257 0.727470
0.930213 0.043572 0.629018
1.000058 0.331163 0.659712
-0.000463 0.700504 0.787189
-0.007293 0.710935 0.787699
-0.054969 0.784545 0.748556
0.548503 0.663745 0.694234
0.959000 0.641528 0.605785
1.000028 0.657979 0.665221
0.218761 0.898565 0.661067
0.283201 0.899130 0.653970
0.457921 0.910836 0.649136
0.601587 0.963497 0.662120
0.935441 0.908642 0.660020
1.000028 0.872971 0.698210
0.583017 1.033760 0.732460
0.608408 1.035952 0.732055
0.707234 1.043461 0.721784
0.836447 1.054463 0.711030
0.936465 1.064905 0.724508
1.000699 1.074488 0.716991
-0.288369 -0.478742 1.005589
-0.299027 -0.478877 1.006077
-0.336282 -0.480509 1.008865
0.288580 -0.483635 1.014332
0.756404 -0.486581 1.017183
1.007021 -0.454652 0.986059
0.009901 0.009502 0.990618
0.009898 0.009565 0.990658
-0.049613 0.011206 0.991794
0.434588 0.014376 0.995408
0.781954 -0.043784 0.993968
1.008750 0.274580 0.962099
0.024211 0.375259 0.998363
0.024196 0.375309 0.998352
-0.046910 0.358861 0.998972
0.483615 0.333979 0.999041
0.790870 0.405265 0.993106
1.006160 0.506888 0.947519
0.048564 0.723682 1.000032
0.048500 0.723448 1.000032
0.031207 0.734499 1.000032
0.538148 0.687240 0.998683
0.819569 0.690509 0.979708
1.003408 0.686866 0.913462
-0.089747 0.945636 1.000107
-0.132481 0.947246 0.999855
0.308341 0.948104 0.998396
0.552591 0.969693 0.972920
0.856623 0.907843 0.938324
1.001070 0.871706 0.888615
0.683273 1.055187 0.922344
0.702134 1.055224 0.919889
0.771689 1.058994 0.918298
0.863773 1.061743 0.901864
0.919101 1.064061 0.889205
1.006355 1.073162 0.826135
-0.303144 -0.469829 1.000032
-0.310106 -0.469829 1.000032
-0.335807 -0.470057 1.000032
0.380648 -0.445268 1.000044
0.753678 -0.362834 1.000803
0.991981 0.166565 1.006482
0.171850 0.266209 1.000032
0.171850 0.266209 1.000032
0.159449 0.265856 1.000032
0.494423 0.309421 1.000033
0.777523 0.396951 1.000016
0.991051 0.510346 1.000053
0.231210 0.514805 1.000015
0.231203 0.514807 1.000015
0.210187 0.514716 1.000006
0.550943 0.524278 1.000007
0.791996 0.565510 1.000032
0.987645 0.617458 1.000032
0.283073 0.759780 1.000089
0.283071 0.759809 1.000089
0.293355 0.759867 1.000105
0.606821 0.746821 1.000032
0.823399 0.744661 1.000032
0.981876 0.746289 1.000032
0.509510 0.920130 1.000018
0.509181 0.920107 1.000019
0.562686 0.919854 1.000029
0.691402 0.918845 1.000032
0.846739 0.897547 1.000032
0.984422 0.864826 1.000032
0.737134 1.000996 1.000032
0.745698 1.001038 1.000032
0.779971 1.001555 1.000032
0.832256 1.002113 1.000032
0.883974 1.003401 1.000032
0.942126 1.009991 1.000032
