example_ofxGpuLutCube/bin/data/ofxGpuLutCube/LUT/A5 (contrasty warm greenish).cube
LUT_3D_SIZE 16
-0.026229 -0.017769 0.000000
0.051512 -0.013938 0.000000
0.091199 -0.008237 0.000000
0.150167 -0.003566 0.000000
0.212928 -0.001570 0.000000
0.254563 0.000000 0.000000
0.294998 0.000000 0.000000
0.340835 0.000000 0.000000
0.395779 0.000000 0.000000
0.461949 0.000000 0.000000
0.536393 0.000000 0.000000
0.624239 0.000000 0.000000
0.734344 0.000000 0.000000
0.889891 0.000000 0.000000
1.001956 0.000000 0.000000
1.002146 0.000000 0.000000
-0.020192 0.030149 0.000000
-0.029755 -0.022860 0.000000
0.084844 -0.032328 0.000000
0.148956 -0.026269 0.000000
0.211439 -0.018475 0.000000
0.254912 -0.010997 0.000000
0.294811 -0.005236 0.000000
0.341990 -0.001698 0.000000
0.397694 -0.000400 0.000000
0.464558 0.000000 0.000000
0.538309 0.000000 0.000000
0.626339 0.000000 0.000000
0.737726 0.000000 0.000000
0.894413 0.000000 0.000000
1.002841 0.000000 0.000000
1.001945 0.000000 0.000000
-0.016650 0.064789 0.000000
-0.041911 0.068519 0.000000
0.082638 0.056802 0.000000
0.157315 0.012983 0.000000
0.214060 -0.037390 0.000000
0.253153 -0.038784 0.000000
0.296716 -0.032797 0.000000
0.345640 -0.024375 0.000000
0.402539 -0.015733 0.000000
0.469349 -0.007610 0.000000
0.539569 -0.000790 0.000000
0.630921 -0.000340 0.000000
0.745267 -0.000243 0.000000
0.904632 0.000000 0.000000
1.004391 0.000000 0.000000
1.001537 0.000000 0.000000
-0.004540 0.113281 0.000000
-0.023461 0.115803 0.000000
0.059361 0.131616 0.000000
0.158462 0.112716 0.000000
0.219886 0.089185 0.000000
0.258518 0.065858 0.000000
0.303373 0.038324 0.000000
0.353048 -0.033419 0.000000
0.409132 -0.048289 0.000000
0.474241 -0.047357 0.000000
0.544517 -0.036596 0.000000
0.641339 -0.023174 0.000000
0.764864 -0.010251 0.000000
0.921734 -0.002422 0.000000
1.006928 0.000000 0.000000
1.000963 0.000000 0.000000
0.034661 0.158458 0.000000
0.043235 0.162149 0.000000
0.080211 0.178273 0.000000
0.135688 0.182204 0.000000
0.221157 0.159792 0.000000
0.268665 0.138667 0.000000
0.315986 0.125232 0.000000
0.364136 0.108273 0.000000
0.417172 0.092992 0.000000
0.481836 0.074255 0.000000
0.556545 -0.027878 0.000000
0.663825 -0.075906 0.000000
0.795490 -0.073159 0.000000
0.943129 -0.061078 0.000000
1.009031 -0.049455 0.000000
1.000414 -0.044540 0.000000
0.061927 0.205617 0.000000
0.068593 0.209142 0.000000
0.101209 0.221006 0.000000
0.146045 0.237643 0.000000
0.209892 0.236625 0.000000
0.281568 0.212342 0.000000
0.329696 0.198606 0.000000
0.379888 0.189028 0.000000
0.436554 0.181231 0.000000
0.499358 0.169345 0.000000
0.586231 0.158458 0.000000
0.699480 0.149215 0.000000
0.840026 0.123569 0.000000
0.960892 0.077965 0.000000
1.008570 -0.080091 0.000000
1.000099 -0.079799 0.000000
0.099932 0.270128 0.000000
0.105781 0.272819 0.000000
0.131967 0.283750 0.000000
0.180592 0.300891 0.000000
0.222306 0.304594 0.000000
0.277309 0.294152 0.000000
0.343456 0.276927 0.000000
0.400767 0.268432 0.000000
0.459200 0.263442 0.000000
0.534169 0.266953 0.000000
0.633886 0.273453 0.000000
0.760584 0.268238 0.000000
0.876525 0.250034 0.000000
0.970026 0.232119 0.000000
1.006762 0.220108 0.000000
1.000005 0.231605 0.000000
0.136281 0.339744 0.000000
0.140963 0.341883 0.000000
0.164586 0.353659 0.000000
0.209626 0.370006 0.000000
0.245718 0.374583 0.000000
0.279119 0.382620 0.000000
0.348156 0.366976 0.000000
0.422645 0.355352 0.000000
0.495821 0.359367 0.000000
0.587430 0.371114 0.000000
0.699144 0.387631 0.000000
0.812132 0.397411 0.000000
0.899650 0.388519 0.000000
0.978139 0.379279 0.000000
1.005009 0.379478 0.000000
1.000028 0.400798 0.000000
0.171718 0.421798 0.000000
0.179871 0.424918 0.000000
0.204045 0.436513 0.000000
0.233595 0.446508 0.000000
0.271203 0.454867 0.000000
0.311482 0.457187 0.000000
0.358733 0.472306 0.000000
0.448278 0.473972 0.000000
0.552666 0.480708 0.000000
0.659455 0.497658 0.000000
0.762055 0.506806 0.000000
0.842914 0.504040 0.000000
0.920799 0.499263 0.000000
0.990010 0.492874 0.000000
1.003142 0.502887 0.000000
1.000028 0.520911 0.000000
0.209213 0.520039 0.000000
0.215916 0.523061 0.000000
0.237238 0.530972 0.000000
0.268650 0.544550 0.000000
0.309713 0.565771 0.000000
0.360856 0.577036 0.000000
0.419419 0.599079 0.000000
0.493443 0.621707 0.000000
0.603442 0.627943 0.000000
0.708570 0.628753 0.000000
0.790282 0.620185 0.000000
0.867916 0.610462 0.000000
0.937765 0.604165 0.000000
1.002963 0.609359 0.000000
1.001483 0.614757 0.000000
1.000028 0.624976 0.000000
0.274256 0.681974 0.000000
0.279105 0.684058 0.000000
0.304706 0.693797 0.000000
0.339677 0.699475 0.000000
0.380730 0.709890 0.000000
0.433109 0.717457 0.000000
0.498643 0.736501 0.000000
0.551072 0.753234 0.000000
0.620744 0.758466 0.000000
0.717384 0.745263 0.000000
0.813610 0.731150 0.000000
0.884514 0.720077 -0.000214
0.957626 0.716114 -0.001449
1.005192 0.717469 -0.002178
1.000590 0.718179 -0.002186
1.000028 0.721841 -0.001787
0.342253 0.829325 0.000000
0.346185 0.829413 0.000000
0.365360 0.830679 0.000000
0.403539 0.831059 0.000000
0.446175 0.837066 0.000000
0.487021 0.841351 0.000000
0.538037 0.845787 0.000000
0.592682 0.850836 0.000000
0.644079 0.859434 -0.000193
0.716993 0.855072 -0.001891
0.812047 0.841332 -0.005353
0.900404 0.831244 -0.010070
0.967085 0.819562 -0.014428
1.005009 0.810829 -0.015960
1.000313 0.807649 -0.020209
1.000025 0.805099 -0.025751
0.383046 0.926023 0.000000
0.386806 0.925734 0.000000
0.406459 0.925631 0.000000
0.441463 0.926514 0.000000
0.487148 0.926257 -0.000254
0.528023 0.927638 -0.000339
0.573494 0.929743 -0.000551
0.625087 0.932111 -0.003548
0.683098 0.937316 -0.007993
0.740495 0.946467 -0.013031
0.816487 0.942665 -0.017245
0.903470 0.928751 -0.011188
0.970518 0.912932 0.027081
1.004545 0.897808 0.027853
1.000356 0.886161 -0.070733
1.000022 0.876782 -0.096803
0.427503 1.002011 0.000000
0.430456 1.002059 0.000000
0.445315 1.001974 0.000000
0.474373 1.001916 -0.000182
0.519839 1.002024 -0.000428
0.573041 1.001374 0.001075
0.618332 1.003041 -0.002627
0.667332 1.004012 -0.007707
0.717655 1.003536 0.007462
0.771147 1.003444 0.025158
0.824985 1.005779 0.036063
0.893818 1.001189 0.040176
0.964515 0.992752 -0.044743
1.004976 0.971751 -0.103234
1.000561 0.953970 -0.131755
1.000009 0.941036 0.255182
0.483822 1.001467 0.000000
0.486452 1.001466 0.000000
0.498173 1.001466 0.000000
0.524529 1.001458 -0.000322
0.558431 1.001478 0.000672
0.604444 1.001452 -0.001434
0.657575 1.001291 -0.006233
0.703562 1.001172 -0.007416
0.748183 1.000381 0.021566
0.799028 1.001003 0.026470
0.850562 1.000684 -0.052521
0.899292 1.002635 -0.103489
0.945898 1.003458 -0.107314
0.999299 1.004683 0.159707
1.001363 1.004186 0.296811
1.000100 0.994036 0.377425
0.607242 1.071751 -0.018902
0.609077 1.071751 -0.015105
0.617936 1.071751 -0.009131
0.635429 1.071751 -0.003595
0.663035 1.071801 -0.000510
0.698046 1.070921 -0.001898
0.738597 1.071851 -0.003701
0.783178 1.070952 0.021045
0.833919 1.071649 0.032327
0.879734 1.071813 0.032121
0.910675 1.072114 0.072492
0.937290 1.062688 0.239207
0.974058 1.066412 0.342803
1.004479 1.072374 0.422508
1.007196 1.072599 0.483013
1.000546 1.073282 0.503743
-0.273724 -0.490591 0.046306
-0.276248 -0.490574 0.033661
-0.275279 -0.490548 0.010287
-0.256641 -0.490541 0.000807
-0.226217 -0.490453 -0.001461
-0.198587 -0.490400 -0.001581
-0.152742 -0.490400 -0.005576
0.102384 -0.490378 -0.010267
0.231567 -0.490443 -0.014659
0.338866 -0.490495 -0.026644
0.443294 -0.489676 -0.064317
0.559217 -0.488345 -0.109691
0.695959 -0.488681 -0.151032
0.876470 -0.490032 -0.184975
0.998031 -0.490561 -0.209117
1.001456 -0.490564 -0.220851
-0.007227 0.020021 0.024815
-0.042067 -0.033218 0.017070
0.083331 -0.033303 -0.010173
0.156017 -0.025153 -0.003742
0.216166 -0.016122 -0.001090
0.256713 -0.008675 0.000000
0.297719 -0.003362 0.000000
0.344925 -0.001297 0.000000
0.400312 -0.000177 0.000000
0.467545 0.000000 0.000000
0.540771 0.000000 0.000000
0.629308 0.000000 0.000000
0.740479 0.000000 0.000000
0.897811 0.000000 0.000000
1.003180 0.000000 0.000000
1.001796 0.000000 0.000000
-0.008745 0.077793 -0.010385
-0.042799 0.079707 -0.009036
0.074786 0.055882 -0.005324
0.159477 -0.029693 -0.001087
0.215714 -0.041504 -0.000339
0.255203 -0.039411 0.000000
0.299655 -0.030801 0.000000
0.348986 -0.022218 0.000000
0.405999 -0.013436 0.000000
0.472791 -0.005780 0.000000
0.544509 -0.000356 0.000000
0.634473 -0.000318 0.000000
0.748413 -0.000204 0.000000
0.908118 0.000000 0.000000
1.005098 0.000000 0.000000
1.001398 0.000000 0.000000
-0.017784 0.114554 -0.002552
-0.035151 0.114586 -0.001788
0.025260 0.130584 0.000670
0.156636 0.113528 0.000956
0.221903 0.085356 -0.000341
0.261403 0.057605 0.000000
0.306039 0.025749 0.000000
0.355523 -0.040441 0.000000
0.412195 -0.050126 0.000000
0.477297 -0.044931 0.000000
0.548978 -0.033435 0.000000
0.642702 -0.020394 0.000000
0.769776 -0.009086 0.000000
0.923548 -0.000807 0.000000
1.007578 0.000000 0.000000
1.000832 0.000000 0.000000
0.026622 0.157768 -0.000462
0.034126 0.159283 -0.000449
0.066543 0.175536 -0.000449
0.127130 0.183317 -0.000390
0.220255 0.161938 -0.000236
0.271345 0.140148 0.000000
0.318500 0.123159 0.000000
0.366281 0.105314 0.000000
0.419709 0.089021 0.000000
0.484522 0.066668 0.000000
0.560462 -0.053179 0.000000
0.666396 -0.074514 0.000000
0.800133 -0.070373 0.000000
0.946671 -0.057290 0.000000
1.009371 -0.044899 0.000000
1.000321 -0.039622 0.000000
0.058260 0.204462 0.000000
0.065836 0.208343 0.000000
0.099771 0.222524 0.000000
0.141348 0.240552 0.000000
0.206592 0.237479 0.000000
0.282938 0.212702 0.000000
0.331308 0.198677 0.000000
0.382038 0.188574 0.000000
0.439078 0.180119 0.000000
0.502290 0.167671 0.000000
0.590166 0.154834 0.000000
0.702389 0.142938 0.000000
0.844000 0.112513 0.000000
0.963015 0.055579 0.000000
1.008491 -0.092477 0.000000
1.000054 -0.091324 0.000000
0.097781 0.270210 0.000000
0.103505 0.272950 0.000000
0.131324 0.283443 0.000000
0.178375 0.303287 0.000000
0.219843 0.308742 0.000000
0.276890 0.296024 0.000000
0.344573 0.278182 0.000000
0.402449 0.269168 0.000000
0.461172 0.263541 0.000000
0.537534 0.267179 0.000000
0.635783 0.271133 0.000000
0.762575 0.267693 0.000000
0.878527 0.246944 0.000000
0.972277 0.231354 0.000000
1.006458 0.217162 0.000000
1.000028 0.229024 0.000000
0.134332 0.339964 0.000000
0.138924 0.342163 0.000000
0.164125 0.352096 0.000000
0.207354 0.371245 0.000000
0.246607 0.376925 0.000000
0.276986 0.384167 0.000000
0.348175 0.369102 0.000000
0.424333 0.356892 0.000000
0.498645 0.361181 0.000000
0.590624 0.372270 0.000000
0.702052 0.386903 0.000000
0.814180 0.397713 0.000000
0.900454 0.386939 0.000000
0.979091 0.377763 0.000000
1.004817 0.378103 0.000000
1.000028 0.399374 0.000000
0.171633 0.422500 0.000000
0.178934 0.425613 0.000000
0.203823 0.437071 0.000000
0.233992 0.448391 0.000000
0.271534 0.455534 0.000000
0.310058 0.458737 0.000000
0.358845 0.475780 0.000000
0.449559 0.476997 0.000000
0.555205 0.483039 0.000000
0.661821 0.499058 0.000000
0.763068 0.508215 0.000000
0.843975 0.504434 0.000000
0.921962 0.498620 0.000000
0.991059 0.492368 0.000000
1.003031 0.502396 0.000000
1.000028 0.520404 0.000000
0.209201 0.521098 0.000000
0.216051 0.524250 0.000000
0.237197 0.532051 0.000000
0.268470 0.547155 0.000000
0.311951 0.567925 0.000000
0.363462 0.580355 0.000000
0.420025 0.602402 0.000000
0.494405 0.624995 0.000000
0.604489 0.630137 0.000000
0.709105 0.629351 0.000000
0.791360 0.621291 0.000000
0.868543 0.611538 0.000000
0.937454 0.603959 0.000000
1.002851 0.609108 0.000000
1.001447 0.614699 0.000000
1.000028 0.624762 0.000000
0.274480 0.683573 0.000000
0.279407 0.685746 0.000000
0.304937 0.693902 0.000000
0.339867 0.701044 0.000000
0.381143 0.709787 0.000000
0.434047 0.720365 0.000000
0.499150 0.737887 0.000000
0.550655 0.754598 0.000000
0.620327 0.759342 0.000000
0.717706 0.746082 0.000000
0.813143 0.732417 0.000000
0.886352 0.719578 -0.000219
0.957539 0.715946 -0.001454
1.005192 0.717399 -0.002187
1.000590 0.718205 -0.002198
1.000028 0.721745 -0.001798
0.342130 0.829869 0.000000
0.345989 0.830020 0.000000
0.365329 0.829709 0.000000
0.403295 0.833202 0.000000
0.446042 0.837347 0.000000
0.486892 0.841881 0.000000
0.537875 0.846144 0.000000
0.592644 0.851458 0.000000
0.644050 0.859833 -0.000193
0.716806 0.855599 -0.002159
0.812001 0.841750 -0.005488
0.900174 0.831746 -0.010103
0.967034 0.821090 -0.014450
1.005009 0.810817 -0.015989
1.000313 0.807783 -0.020237
1.000025 0.805218 -0.025794
0.382438 0.925749 0.000000
0.386479 0.925960 0.000000
0.404350 0.925372 0.000000
0.441127 0.926725 0.000000
0.487082 0.926422 -0.000250
0.527789 0.927780 -0.000334
0.573298 0.929992 -0.000544
0.624864 0.932165 -0.003540
0.683015 0.937468 -0.007986
0.740537 0.946559 -0.013062
0.814913 0.942707 -0.016773
0.903437 0.930298 -0.011206
0.970542 0.912931 0.027098
1.004545 0.897536 0.028053
1.000356 0.886368 -0.070771
1.000022 0.876529 -0.096817
0.427008 1.002054 0.000000
0.429779 1.002091 0.000000
0.444887 1.002006 0.000000
0.473790 1.001962 -0.000172
0.518101 1.001586 -0.000414
0.572751 1.001561 0.001062
0.618114 1.002590 -0.002606
0.666959 1.004181 -0.007690
0.717395 1.003540 0.007422
0.771180 1.003561 0.025143
0.824941 1.005747 0.036030
0.893780 1.001242 0.040183
0.964547 0.992385 -0.044391
1.004976 0.971824 -0.102840
1.000561 0.953710 -0.131714
1.000009 0.941014 0.255449
0.483286 1.001462 0.000000
0.485744 1.001461 0.000000
0.499302 1.001461 0.000000
0.522237 1.001466 -0.000310
0.559741 1.001495 0.000629
0.604388 1.001466 -0.001444
0.657030 1.001304 -0.006212
0.703503 1.001173 -0.007517
0.747954 1.000366 0.021513
0.798808 1.000993 0.026667
0.848642 1.000670 -0.052369
0.899087 1.002637 -0.103412
0.945943 1.003474 -0.107191
0.999299 1.004703 0.157410
1.001363 1.004203 0.296690
1.000100 0.994049 0.377296
0.606826 1.071751 -0.039949
0.608821 1.071751 -0.039313
0.617932 1.071751 -0.035639
0.635872 1.071751 -0.027178
0.662095 1.071801 -0.016613
0.698252 1.070918 -0.008469
0.738251 1.071851 -0.004577
0.782845 1.070950 0.020998
0.833230 1.071642 0.032273
0.879087 1.071814 0.032447
0.911366 1.072106 0.070494
0.936336 1.062689 0.239228
0.973166 1.066412 0.342583
1.003534 1.072374 0.422583
1.006702 1.072599 0.482770
1.000451 1.073282 0.503771
-0.273535 -0.490552 0.087256
-0.275376 -0.490547 0.087551
-0.281580 -0.490542 0.084740
-0.277590 -0.490540 0.053320
-0.246592 -0.490452 0.028605
-0.204377 -0.490400 0.005060
-0.151471 -0.490400 -0.005055
0.124208 -0.490377 -0.010285
0.243452 -0.490441 -0.014643
0.348966 -0.490494 -0.026402
0.448182 -0.489675 -0.064176
0.567931 -0.488344 -0.109616
0.706147 -0.488681 -0.150980
0.887022 -0.490032 -0.184945
1.000174 -0.490561 -0.209060
1.001171 -0.490564 -0.220817
0.000000 -0.038922 0.084977
-0.014929 -0.037658 0.085852
-0.054216 -0.031259 0.071531
0.113022 -0.021178 0.033633
0.199118 -0.012903 0.015809
0.254804 -0.006160 -0.009265
0.299305 -0.002038 -0.001702
0.349781 -0.000734 -0.001402
0.406158 0.000000 -0.000211
0.473844 0.000000 0.000000
0.544575 0.000000 0.000000
0.635608 0.000000 0.000000
0.749500 0.000000 0.000000
0.906649 0.000000 0.000000
1.004754 0.000000 0.000000
1.001393 0.000000 0.000000
-0.001062 0.079036 0.075653
-0.014661 0.083251 0.067012
-0.059505 0.021001 0.052456
0.131930 -0.041009 0.016490
0.213021 -0.043718 -0.010324
0.257208 -0.036904 -0.006383
0.303202 -0.027809 -0.001820
0.354431 -0.019209 -0.000816
0.412144 -0.010618 -0.000082
0.478151 -0.003349 0.000000
0.549517 -0.000252 0.000000
0.645507 -0.000189 0.000000
0.762933 0.000000 0.000000
0.917951 0.000000 0.000000
1.007177 0.000000 0.000000
1.000950 0.000000 0.000000
-0.006761 0.126725 0.039808
-0.017347 0.128569 0.036670
-0.066232 0.137540 0.008726
0.134728 0.108364 -0.012093
0.217194 0.075866 -0.007407
0.264090 0.043098 -0.003301
0.311105 -0.027569 -0.000831
0.359687 -0.045908 -0.000278
0.415732 -0.050561 0.000000
0.481824 -0.041740 0.000000
0.553871 -0.029100 0.000000
0.653792 -0.016113 0.000000
0.784346 -0.007171 0.000000
0.936411 0.000000 0.000000
1.009645 0.000000 0.000000
1.000422 0.000000 0.000000
-0.023448 0.159844 0.015245
-0.030948 0.158208 0.015410
-0.045795 0.165915 0.011180
0.102633 0.185599 -0.003390
0.220602 0.160362 -0.004120
0.275831 0.137634 -0.001517
0.322677 0.119085 -0.000287
0.370798 0.100408 -0.000096
0.424856 0.082987 0.000000
0.489287 0.054168 0.000000
0.569568 -0.069059 0.000000
0.677895 -0.073026 0.000000
0.815242 -0.063215 0.000000
0.954990 -0.044794 0.000000
1.009699 -0.025197 0.000000
1.000085 -0.013687 0.000000
0.034807 0.202426 -0.007453
0.039727 0.204626 -0.006215
0.071356 0.217164 -0.002867
0.117290 0.241647 -0.001858
0.203074 0.243167 -0.002272
0.285237 0.216741 -0.000615
0.334817 0.198859 0.000000
0.386900 0.187777 0.000000
0.444447 0.178088 0.000000
0.509394 0.165295 0.000000
0.601020 0.152687 0.000000
0.717385 0.134849 0.000000
0.857240 0.088078 0.000000
0.971916 -0.083519 0.000000
1.007149 -0.115689 0.000000
1.000028 -0.114064 0.000000
0.087204 0.269535 -0.003311
0.094079 0.272522 -0.003197
0.125574 0.285435 -0.002933
0.167824 0.304101 -0.002128
0.210777 0.317557 -0.001149
0.276568 0.301172 -0.000269
0.347834 0.281056 0.000000
0.406847 0.271023 0.000000
0.467567 0.265023 0.000000
0.547393 0.268627 0.000000
0.648423 0.271035 0.000000
0.773587 0.260692 0.000000
0.886355 0.234920 0.000000
0.978307 0.220051 0.000000
1.005461 0.201792 0.000000
1.000028 0.215030 0.000000
0.126797 0.340453 -0.000638
0.131957 0.342912 -0.000554
0.159361 0.353672 -0.000382
0.206118 0.373826 -0.000211
0.242103 0.384603 -0.000123
0.272620 0.393048 0.000000
0.348483 0.374469 0.000000
0.429227 0.361525 0.000000
0.507047 0.366703 0.000000
0.601375 0.376424 0.000000
0.713009 0.391623 0.000000
0.822362 0.396845 0.000000
0.907876 0.384452 0.000000
0.983980 0.372286 0.000000
1.004057 0.370510 0.000000
1.000028 0.391602 0.000000
0.168880 0.425119 0.000000
0.173544 0.427640 0.000000
0.197739 0.439176 0.000000
0.231198 0.450858 0.000000
0.270655 0.460605 0.000000
0.306498 0.468584 0.000000
0.359408 0.486238 0.000000
0.454896 0.486982 0.000000
0.564168 0.490598 0.000000
0.672217 0.505978 0.000000
0.768656 0.509008 0.000000
0.850091 0.504253 0.000000
0.927114 0.496593 0.000000
0.994446 0.490297 0.000000
1.002472 0.499920 0.000000
1.000028 0.517442 0.000000
0.210619 0.527036 0.000000
0.217503 0.530216 0.000000
0.237445 0.539143 0.000000
0.269924 0.557589 0.000000
0.313749 0.577010 0.000000
0.368498 0.589376 0.000000
0.421591 0.614266 0.000000
0.497351 0.635909 0.000000
0.608420 0.637809 0.000000
0.711693 0.632689 0.000000
0.794844 0.621876 0.000000
0.872671 0.611885 0.000000
0.941911 0.605174 0.000000
1.004865 0.608910 0.000000
1.001105 0.613605 0.000000
1.000028 0.623723 0.000000
0.278128 0.692792 0.000000
0.283500 0.695186 0.000000
0.307213 0.704362 0.000000
0.340903 0.708790 0.000000
0.384741 0.716941 0.000000
0.437057 0.728661 0.000000
0.501497 0.743760 0.000000
0.547837 0.760207 0.000000
0.618791 0.764147 0.000000
0.717534 0.749780 0.000000
0.815277 0.733559 0.000000
0.888462 0.722535 -0.000260
0.960942 0.718354 -0.001740
1.005399 0.719223 -0.002544
1.000450 0.718377 -0.002435
1.000028 0.721242 -0.001862
0.343862 0.834067 0.000000
0.347898 0.834092 0.000000
0.367095 0.835281 0.000000
0.407220 0.837452 0.000000
0.444138 0.840752 0.000000
0.486541 0.844720 0.000000
0.537960 0.848335 0.000000
0.592672 0.853026 0.000000
0.641813 0.862550 -0.000204
0.715475 0.859033 -0.002428
0.815242 0.846166 -0.005885
0.902899 0.834088 -0.010588
0.969344 0.823910 -0.014848
1.004583 0.812897 -0.015799
1.000264 0.808287 -0.020652
1.000025 0.805000 -0.026666
0.383433 0.927140 0.000000
0.387404 0.927167 0.000000
0.405142 0.928182 0.000000
0.441833 0.927922 0.000000
0.486577 0.927119 -0.000259
0.526320 0.929240 -0.000346
0.573013 0.930815 -0.000561
0.624874 0.933693 -0.003597
0.684511 0.939950 -0.008091
0.739898 0.949705 -0.013223
0.816074 0.946618 -0.016262
0.902491 0.931943 -0.007191
0.971589 0.914687 0.029063
1.005195 0.899095 0.023901
1.000308 0.887114 -0.074616
1.000022 0.877066 -0.099527
0.426145 1.002256 0.000000
0.429136 1.002239 0.000000
0.443917 1.002132 0.000000
0.476105 1.002111 -0.000184
0.520075 1.002154 -0.000437
0.573331 1.001656 0.001099
0.618498 1.003181 -0.002641
0.667490 1.004262 -0.007722
0.717832 1.003619 0.007924
0.771526 1.003739 0.025584
0.823637 1.003707 0.035969
0.894160 1.003167 0.037343
0.964393 0.995129 -0.048862
1.004888 0.972034 -0.107473
1.000537 0.954702 -0.120625
1.000010 0.941513 0.263475
0.482895 1.001403 0.000000
0.485508 1.001402 0.000000
0.497249 1.001402 0.000000
0.521805 1.001398 -0.000325
0.558652 1.001421 0.000674
0.604770 1.001394 -0.001425
0.657517 1.001231 -0.006254
0.703848 1.001109 -0.007312
0.747681 1.000306 0.020662
0.798862 1.001059 0.016473
0.851934 1.000808 -0.059048
0.898932 1.002571 -0.103831
0.945910 1.002211 -0.106231
0.999299 1.005684 0.173953
1.001364 1.005251 0.301945
1.000098 0.994689 0.381650
0.607338 1.071751 -0.064600
0.609407 1.071751 -0.064479
0.618647 1.071751 -0.063651
0.637218 1.071751 -0.060040
0.664025 1.071800 -0.050714
0.698564 1.070925 -0.036579
0.739519 1.071850 -0.024344
0.783745 1.070956 0.014282
0.833406 1.071641 0.030371
0.876801 1.071951 0.036515
0.904789 1.069907 0.108635
0.935943 1.062819 0.244353
0.971369 1.066430 0.347608
1.001929 1.072261 0.424854
1.005944 1.072468 0.485183
1.000326 1.073176 0.506200
-0.273708 -0.490541 0.140991
-0.275489 -0.490541 0.141155
-0.280614 -0.490540 0.140567
-0.288866 -0.490540 0.136750
-0.294074 -0.490453 0.114075
-0.242101 -0.490401 0.064105
-0.189304 -0.490401 0.048550
0.026227 -0.490378 0.035690
0.236072 -0.490442 0.008194
0.364129 -0.490325 -0.033212
0.460319 -0.489293 -0.069030
0.583249 -0.488138 -0.112435
0.726059 -0.488681 -0.152808
0.904088 -0.490032 -0.186315
1.002666 -0.490561 -0.210258
1.000784 -0.490564 -0.222018
0.000000 -0.030605 0.132319
-0.003246 -0.028739 0.132699
-0.024751 -0.023619 0.131599
-0.035093 -0.015840 0.128787
0.089164 -0.009197 0.099784
0.225525 -0.004272 0.051251
0.284710 -0.001369 0.041423
0.339672 -0.000271 0.030095
0.407255 0.000000 -0.007906
0.481438 0.000000 -0.006186
0.552270 0.000000 -0.000199
0.647438 0.000000 -0.000261
0.765965 0.000000 0.000000
0.921229 0.000000 0.000000
1.006723 0.000000 0.000000
1.000860 0.000000 0.000000
0.000000 0.041468 0.136816
-0.002728 0.039925 0.137602
-0.027020 -0.041867 0.135678
-0.039439 -0.044606 0.115302
0.139584 -0.039345 0.072073
0.239881 -0.033433 0.035919
0.293255 -0.024651 0.031527
0.348175 -0.015454 0.021078
0.418775 -0.007414 -0.011646
0.484530 -0.000996 -0.003323
0.555246 -0.000293 0.000988
0.656044 -0.000220 -0.000337
0.781346 0.000000 0.000000
0.934091 0.000000 0.000000
1.009244 0.000000 0.000000
1.000452 0.000000 0.000000
-0.000539 0.121430 0.132004
-0.001956 0.128852 0.127553
-0.026469 0.138012 0.107815
-0.054095 0.064777 0.101357
0.159041 0.057796 0.060565
0.257276 0.035642 0.026133
0.303625 -0.041131 0.025608
0.358668 -0.050666 -0.005961
0.421660 -0.048430 -0.007237
0.487949 -0.038152 -0.000788
0.564337 -0.025068 0.000677
0.667455 -0.012113 -0.000301
0.804434 -0.004336 0.000000
0.949720 0.000000 0.000000
1.010472 0.000000 0.000000
1.000104 0.000000 0.000000
-0.006244 0.184814 0.084088
-0.011181 0.187515 0.082610
-0.027784 0.201914 0.072954
-0.077957 0.192165 0.041999
0.161852 0.155654 0.052691
0.262583 0.131411 0.026565
0.321842 0.112317 -0.008724
0.377808 0.093188 -0.008933
0.432965 0.073594 -0.003226
0.496829 0.023038 -0.000220
0.582226 -0.074491 -0.000220
0.695629 -0.072704 -0.000165
0.833155 -0.058650 0.000000
0.966312 -0.037908 0.000000
1.008004 -0.016681 0.000000
1.000028 0.000000 0.000000
-0.017400 0.204962 0.073242
-0.021451 0.203045 0.073016
-0.017438 0.198173 0.071638
-0.057668 0.207975 0.063583
0.147303 0.238652 0.037980
0.287458 0.221066 -0.021996
0.341278 0.199845 -0.009503
0.394333 0.186461 -0.003473
0.451623 0.176114 -0.000244
0.520077 0.162394 0.000000
0.616706 0.148301 0.000000
0.733853 0.126506 0.000000
0.868788 0.071511 0.000000
0.976227 -0.103968 0.000000
1.006175 -0.110665 0.000000
1.000028 -0.107646 0.000000
-0.025983 0.261705 0.052151
-0.031689 0.260389 0.051676
0.017400 0.260105 0.048406
0.086412 0.276683 0.043565
0.157501 0.307436 0.030637
0.274485 0.310326 -0.014944
