example_ofxGpuLutCube/bin/data/ofxGpuLutCube/LUT/A50 (orange gray fade).cube
LUT_3D_SIZE 16
0.156863 0.125490 0.113725
0.207059 0.128628 0.114509
0.267451 0.123137 0.121569
0.335686 0.126275 0.114510
0.404706 0.117647 0.122353
0.466667 0.113725 0.113725
0.541177 0.109020 0.120785
0.623529 0.101961 0.120000
0.700392 0.096471 0.113725
0.783529 0.083137 0.116078
0.858824 0.074510 0.117647
0.920000 0.061961 0.117647
0.995294 0.043922 0.116863
0.997647 0.035294 0.110588
0.999216 0.021177 0.116078
0.999961 0.011804 0.102079
0.184314 0.155294 0.143529
0.194039 0.162666 0.148392
0.274039 0.169255 0.117490
0.341490 0.166118 0.121098
0.402353 0.159843 0.120471
0.478431 0.158432 0.115294
0.551530 0.152941 0.120000
0.632000 0.146666 0.121882
0.711059 0.142118 0.119216
0.786196 0.128157 0.122196
0.854902 0.120000 0.114509
0.928627 0.108863 0.116863
0.992941 0.102275 0.117176
0.997961 0.099608 0.108392
1.000000 0.092549 0.113725
0.996894 0.084737 0.106698
0.214902 0.183529 0.175686
0.214275 0.183843 0.171765
0.223686 0.193725 0.172078
0.337412 0.217568 0.132863
0.412549 0.214588 0.125176
0.480784 0.211765 0.120784
0.559216 0.205961 0.117490
0.636549 0.197804 0.123922
0.712157 0.192157 0.119059
0.793725 0.185882 0.120785
0.858039 0.179608 0.115294
0.928627 0.172549 0.114667
0.996235 0.167059 0.112157
0.999059 0.160157 0.119216
1.000000 0.156079 0.110431
0.998447 0.151388 0.108251
0.249412 0.214902 0.204706
0.245804 0.218196 0.206431
0.253333 0.222118 0.199216
0.269647 0.226823 0.208628
0.381177 0.264785 0.167059
0.490196 0.267451 0.122353
0.567059 0.269177 0.124079
0.648941 0.263373 0.120314
0.722510 0.259451 0.122980
0.798118 0.252236 0.112157
0.871373 0.248628 0.116078
0.936000 0.242667 0.111843
0.993882 0.237804 0.107608
0.999372 0.229490 0.112784
1.000000 0.225883 0.107451
0.992988 0.221977 0.105122
0.284706 0.257255 0.233725
0.288627 0.248784 0.240941
0.292549 0.256471 0.239216
0.296000 0.260235 0.242039
0.312470 0.270274 0.251608
0.440000 0.319216 0.196863
0.567529 0.338039 0.136000
0.660235 0.336941 0.108549
0.733804 0.333647 0.112157
0.804549 0.321726 0.110745
0.871372 0.320784 0.109804
0.944000 0.311843 0.111059
0.999059 0.306353 0.112156
0.998117 0.299608 0.104784
0.996078 0.294745 0.108392
1.000000 0.287067 0.100447
0.333333 0.290196 0.274510
0.333333 0.294118 0.286275
0.334902 0.294118 0.283137
0.332549 0.301961 0.280000
0.345098 0.301961 0.284706
0.360784 0.317647 0.294118
0.492549 0.374118 0.250196
0.637647 0.403922 0.166274
0.741177 0.407843 0.110588
0.815686 0.397647 0.101177
0.882353 0.388235 0.098039
0.949020 0.389019 0.105882
1.000000 0.378824 0.101961
0.996078 0.372549 0.105882
1.000000 0.368627 0.101961
1.000000 0.360823 0.105843
0.378824 0.335686 0.320000
0.386353 0.339451 0.315294
0.385412 0.332863 0.320314
0.385883 0.342745 0.325490
0.394196 0.342274 0.323137
0.387451 0.350589 0.330196
0.420549 0.366432 0.342274
0.556863 0.431373 0.291922
0.696157 0.461490 0.220393
0.817412 0.467921 0.113255
0.893334 0.469804 0.094118
0.962353 0.458667 0.097725
1.000000 0.450667 0.088471
1.000000 0.443138 0.093490
0.999372 0.439216 0.093020
0.999216 0.437647 0.098792
0.429804 0.381961 0.363137
0.427921 0.384784 0.369098
0.430118 0.384157 0.369412
0.432157 0.389020 0.372078
0.436549 0.388706 0.370823
0.440784 0.390588 0.374118
0.447686 0.399216 0.373490
0.473726 0.414902 0.388392
0.610667 0.480000 0.338196
0.755765 0.516862 0.262431
0.875295 0.541961 0.152941
0.966118 0.530510 0.091138
0.997019 0.524549 0.082353
1.000000 0.518117 0.087686
0.998745 0.509490 0.090980
1.000000 0.506667 0.087059
0.482353 0.434510 0.414118
0.483294 0.434196 0.410980
0.483137 0.432157 0.403922
0.487059 0.433726 0.419137
0.481098 0.438902 0.422745
0.490196 0.442353 0.421961
0.493647 0.443922 0.426039
0.496471 0.447372 0.426667
0.526902 0.473098 0.438902
0.664784 0.540235 0.389490
0.802353 0.581177 0.320784
0.931137 0.598275 0.220236
0.997019 0.602353 0.114980
1.000000 0.592157 0.074824
0.999529 0.585882 0.081569
1.000000 0.567890 0.085482
0.537255 0.480000 0.459608
0.535059 0.483451 0.461804
0.536157 0.480784 0.466666
0.538823 0.485333 0.462432
0.541333 0.490353 0.466823
0.541961 0.492549 0.470588
0.544941 0.493020 0.471529
0.548392 0.500706 0.478588
0.559843 0.508863 0.480628
0.587608 0.527529 0.499451
0.716078 0.595294 0.458039
0.859137 0.640471 0.379765
0.972078 0.664628 0.289255
0.998431 0.664627 0.156235
1.000000 0.655687 0.102745
1.000000 0.640063 0.083161
0.596078 0.545098 0.521569
0.592941 0.540392 0.517647
0.596863 0.539608 0.527843
0.596078 0.545098 0.513725
0.596862 0.541176 0.529412
0.603922 0.545098 0.525490
0.604706 0.552157 0.529412
0.607843 0.556863 0.533333
0.615686 0.556863 0.537255
0.619608 0.568627 0.545098
0.639216 0.588235 0.556863
0.774117 0.658039 0.520785
0.904314 0.702745 0.463530
1.000000 0.727843 0.374118
1.000000 0.732549 0.250980
1.000000 0.717686 0.141254
0.659608 0.602353 0.581961
0.654117 0.603137 0.579608
0.650353 0.604236 0.574902
0.656000 0.603765 0.584000
0.658667 0.606902 0.585726
0.661177 0.607059 0.592941
0.661961 0.607687 0.594039
0.668392 0.616784 0.593569
0.672157 0.620392 0.599216
0.679372 0.621961 0.605176
0.688628 0.629804 0.610196
0.708235 0.656471 0.633412
0.820079 0.718745 0.596078
0.939138 0.768941 0.533490
0.999686 0.790431 0.463372
0.993726 0.791404 0.367294
0.716078 0.661176 0.649412
0.718431 0.666196 0.646432
0.721726 0.664471 0.652706
0.716863 0.666667 0.653333
0.718431 0.671216 0.642667
0.724706 0.669804 0.658039
0.726118 0.672628 0.660392
0.729412 0.675451 0.660863
0.733490 0.681882 0.668393
0.734745 0.683608 0.670588
0.745882 0.693333 0.674510
0.752000 0.698824 0.684863
0.766902 0.721882 0.703686
0.870118 0.782118 0.674039
0.987137 0.827922 0.624314
0.996117 0.851726 0.568753
0.774902 0.731764 0.716078
0.778039 0.734902 0.719216
0.780706 0.737255 0.717019
0.781177 0.733333 0.725176
0.783216 0.735373 0.721883
0.789804 0.734902 0.727843
0.782745 0.739608 0.728627
0.795294 0.740392 0.728627
0.788863 0.749020 0.735216
0.795608 0.752470 0.740863
0.803137 0.760000 0.749020
0.805176 0.764392 0.756549
0.813334 0.772079 0.758588
0.832941 0.793569 0.780235
0.914980 0.841568 0.756079
0.999906 0.886996 0.719270
0.840784 0.800785 0.792941
0.840784 0.801569 0.793725
0.841098 0.802667 0.794353
0.844706 0.804706 0.796863
0.847843 0.803921 0.797647
0.848627 0.808628 0.800785
0.846118 0.811921 0.801569
0.855216 0.812235 0.809412
0.853334 0.817882 0.808157
0.862118 0.822902 0.815216
0.863530 0.824314 0.816471
0.868078 0.830118 0.822431
0.874823 0.835608 0.830431
0.881412 0.843137 0.842196
0.888628 0.866667 0.855687
0.940267 0.901843 0.858871
0.909608 0.878235 0.870392
0.908839 0.877466 0.869623
0.907247 0.875922 0.864180
0.901945 0.882141 0.870416
0.909671 0.878298 0.870455
0.913568 0.882196 0.874353
0.906580 0.886855 0.872023
0.909726 0.888447 0.881380
0.921396 0.888471 0.885286
0.917561 0.897835 0.886102
0.921491 0.897882 0.897804
0.926118 0.905733 0.896298
0.934737 0.911161 0.915835
0.941757 0.919781 0.915122
0.941835 0.925333 0.913568
0.956745 0.941058 0.937137
0.178040 0.158432 0.145882
0.178040 0.158432 0.145882
0.227137 0.162196 0.162666
0.322823 0.137882 0.158118
0.398902 0.132706 0.155921
0.467451 0.125490 0.163137
0.539921 0.118431 0.157490
0.625568 0.107608 0.156706
0.707451 0.100078 0.153882
0.777882 0.087844 0.150902
0.859608 0.070588 0.147451
0.924706 0.061333 0.152000
0.992941 0.044863 0.152627
0.997490 0.029804 0.136941
1.000000 0.015686 0.146667
0.993718 0.007851 0.139608
0.193882 0.170039 0.155764
0.215498 0.171733 0.164266
0.271153 0.171733 0.158777
0.334525 0.165647 0.164267
0.399780 0.163859 0.159686
0.472000 0.159843 0.156706
0.544376 0.152628 0.158432
0.630714 0.144282 0.156016
0.704439 0.140737 0.149992
0.787702 0.131608 0.152220
0.856785 0.121255 0.147922
0.925679 0.112533 0.147922
0.995231 0.102118 0.147388
0.999216 0.094933 0.139262
0.999498 0.083608 0.140486
0.999998 0.081071 0.137121
0.230432 0.198431 0.186980
0.231749 0.199749 0.188298
0.251420 0.213992 0.178949
0.344973 0.220235 0.160251
0.409161 0.212204 0.159592
0.476235 0.208941 0.156706
0.554322 0.205239 0.154761
0.633286 0.200377 0.154792
0.710777 0.193412 0.154949
0.788047 0.181082 0.143780
0.860392 0.177255 0.154510
0.934651 0.173647 0.146071
0.995733 0.164988 0.144031
0.999874 0.155953 0.146980
0.996235 0.154541 0.137318
0.999534 0.143746 0.139178
0.266510 0.229177 0.217255
0.261584 0.230243 0.216345
0.267953 0.230275 0.218290
0.285992 0.247874 0.213867
0.400910 0.274824 0.180423
0.490353 0.265882 0.154353
0.567874 0.267953 0.153475
0.646808 0.264439 0.155263
0.721851 0.256032 0.155608
0.795169 0.250855 0.146855
0.867137 0.244706 0.147608
0.934180 0.240628 0.143529
0.994824 0.233098 0.138102
1.000000 0.228424 0.146290
0.998745 0.222023 0.137098
0.994212 0.219642 0.140188
0.300549 0.265255 0.245647
0.301051 0.265757 0.246149
0.304847 0.265443 0.255624
0.305788 0.271624 0.252392
0.330792 0.285710 0.261490
0.460235 0.324706 0.201883
0.573333 0.337004 0.160000
0.657757 0.331388 0.144721
0.732957 0.326839 0.146039
0.805051 0.324863 0.147765
0.877176 0.316236 0.138039
0.946165 0.309678 0.140643
0.998902 0.301741 0.138823
0.996486 0.301459 0.141051
0.996862 0.298165 0.138980
0.995612 0.290988 0.127278
0.341960 0.298823 0.283137
0.341333 0.302902 0.292706
0.340863 0.302117 0.288941
0.346824 0.306666 0.295372
0.356706 0.311686 0.295373
0.377255 0.326274 0.294902
0.507294 0.379451 0.249725
0.651765 0.401255 0.176785
0.743059 0.400314 0.139608
0.818823 0.395451 0.134117
0.884706 0.385098 0.130981
0.945412 0.384157 0.136784
0.999529 0.376627 0.141019
0.998117 0.370666 0.136314
0.996078 0.368627 0.132078
1.000000 0.356871 0.130988
0.386510 0.343372 0.327686
0.387420 0.344282 0.328596
0.387075 0.350212 0.331388
0.394228 0.350338 0.334588
0.394102 0.351530 0.332988
0.398117 0.354510 0.339294
0.428894 0.375027 0.343906
0.569317 0.434510 0.291169
0.706447 0.465569 0.223310
0.823498 0.470588 0.145474
0.893490 0.466510 0.124549
0.957302 0.460047 0.129663
0.999749 0.450635 0.126965
0.998494 0.445333 0.123765
1.000000 0.435420 0.129537
1.000000 0.432000 0.129085
0.436706 0.387765 0.373176
0.441757 0.387043 0.375216
0.436235 0.392470 0.378353
0.443012 0.393223 0.370071
0.446651 0.395043 0.377161
0.440784 0.397647 0.381333
0.449380 0.404424 0.385537
0.483482 0.423655 0.392564
0.620737 0.490196 0.344878
0.761035 0.522133 0.267702
0.885333 0.538510 0.171294
0.964863 0.532486 0.126023
1.000000 0.525302 0.121788
1.000000 0.516518 0.121067
0.999780 0.510808 0.125427
0.997666 0.502431 0.119278
0.487529 0.436079 0.413961
0.489883 0.438431 0.416314
0.488188 0.438212 0.417443
0.490196 0.439216 0.415435
0.495467 0.438682 0.426165
0.493490 0.445961 0.427137
0.499984 0.447498 0.423153
0.502902 0.454306 0.432533
0.534934 0.476706 0.445992
0.676392 0.544784 0.396392
0.807529 0.581647 0.324392
0.935404 0.599624 0.227263
0.999718 0.600784 0.144063
0.999812 0.592188 0.115984
1.000000 0.584188 0.115231
1.000000 0.574460 0.122658
0.541647 0.488471 0.472470
0.541961 0.490949 0.467514
0.541427 0.488816 0.467043
0.540737 0.488502 0.473757
0.543655 0.492361 0.469239
0.549647 0.498353 0.476706
0.556392 0.499388 0.479937
0.556141 0.505067 0.481820
0.561412 0.507294 0.486024
0.591875 0.531325 0.502463
0.722823 0.600000 0.455373
0.861333 0.644549 0.389867
0.976000 0.666824 0.301836
0.998808 0.663498 0.176031
1.000000 0.652675 0.132643
0.999379 0.645667 0.119547
0.596862 0.545882 0.522353
0.596705 0.544470 0.521569
0.602823 0.540549 0.522981
0.600000 0.548236 0.527059
0.600000 0.548236 0.527059
0.604706 0.553725 0.530196
0.610039 0.554353 0.547294
0.613647 0.562667 0.539137
0.616470 0.563922 0.539608
0.620235 0.568470 0.547294
0.644706 0.589804 0.573334
0.777568 0.659451 0.523138
0.907922 0.706353 0.465569
0.997177 0.728157 0.380706
1.000000 0.728785 0.261490
0.996117 0.717647 0.162494
0.658353 0.603294 0.591216
0.656031 0.605020 0.581584
0.657161 0.605114 0.585537
0.661585 0.605020 0.585694
0.664972 0.607467 0.593475
0.664471 0.612706 0.591529
0.667012 0.614243 0.596078
0.672376 0.620863 0.593914
0.674510 0.621710 0.600596
0.680910 0.628800 0.608659
0.688942 0.633883 0.618667
0.710776 0.657883 0.632063
0.829835 0.720847 0.596611
0.949710 0.770855 0.542431
0.999718 0.790588 0.465914
0.993129 0.790170 0.379192
0.717490 0.668235 0.654588
0.718870 0.664157 0.652330
0.723043 0.666416 0.654086
0.723137 0.667765 0.654023
0.722102 0.671561 0.648973
0.725647 0.669333 0.657255
0.727498 0.676267 0.657380
0.729223 0.679780 0.664188
0.732424 0.688031 0.669083
0.739859 0.689663 0.677082
0.747294 0.694118 0.680941
0.749647 0.700863 0.684047
0.770259 0.723545 0.706416
0.876580 0.784721 0.674949
0.985568 0.829176 0.625569
0.997015 0.856117 0.571376
0.778667 0.734588 0.725490
0.778980 0.734902 0.722353
0.782557 0.735090 0.723357
0.783843 0.736502 0.720878
0.780204 0.737067 0.720753
0.782745 0.739608 0.726432
0.786290 0.746541 0.730102
0.789992 0.746855 0.732047
0.795294 0.749898 0.738667
0.802290 0.755388 0.744283
0.801569 0.760000 0.746039
0.807153 0.764517 0.753098
0.814714 0.772330 0.759247
0.834479 0.795232 0.780173
0.915482 0.846212 0.752690
0.998023 0.886663 0.711493
0.843922 0.804078 0.796235
0.844580 0.802730 0.794886
0.844769 0.808565 0.799216
0.847215 0.808000 0.800157
0.846212 0.805710 0.799122
0.847843 0.808628 0.800785
0.851733 0.812549 0.804612
0.857318 0.816345 0.809130
0.856910 0.818949 0.811168
0.862243 0.823027 0.815686
0.866980 0.827608 0.822902
0.872596 0.836204 0.827106
0.877427 0.838212 0.831090
0.879341 0.846745 0.842917
0.896816 0.866949 0.857976
0.940888 0.900601 0.853839
0.909647 0.878211 0.870361
0.909647 0.878274 0.870431
0.907635 0.879951 0.870880
0.908075 0.879032 0.870412
0.909810 0.878422 0.870447
0.913568 0.879090 0.880526
0.916085 0.886576 0.878103
0.910485 0.890789 0.879074
0.913643 0.892019 0.885992
0.917341 0.896957 0.887516
0.923028 0.897114 0.897804
0.928532 0.908960 0.899103
0.931639 0.908094 0.912737
0.936624 0.915619 0.910376
0.943730 0.927973 0.922514
0.957436 0.941749 0.943962
0.209412 0.178039 0.166274
0.210196 0.178824 0.167059
0.214588 0.186039 0.174745
0.243765 0.206275 0.196863
0.345098 0.189020 0.213333
0.454118 0.150588 0.207843
0.537255 0.123922 0.197176
0.623529 0.105098 0.197647
0.702431 0.092549 0.198431
0.780863 0.078118 0.196549
0.850980 0.065098 0.186666
0.920470 0.046745 0.185568
0.994353 0.029961 0.184314
0.996078 0.012079 0.183216
0.994823 0.002353 0.187765
1.000000 0.000000 0.181914
0.225882 0.193569 0.182274
0.229804 0.198431 0.186667
0.231498 0.202196 0.190714
0.289725 0.209286 0.212549
0.379263 0.185224 0.209318
0.468863 0.162196 0.201098
0.543874 0.152220 0.199937
0.623875 0.142055 0.197773
0.703372 0.133521 0.195545
0.783530 0.126180 0.194227
0.858824 0.112628 0.187921
0.924424 0.100926 0.187420
0.993318 0.093679 0.187357
0.998651 0.086871 0.182180
0.999749 0.077271 0.182996
0.999995 0.073881 0.179292
0.242824 0.206431 0.197177
0.251953 0.214996 0.206024
0.279404 0.222557 0.211326
0.341710 0.216282 0.205930
0.408596 0.211639 0.206463
0.475765 0.205333 0.198431
0.552376 0.198118 0.200157
0.631906 0.196518 0.198965
0.710651 0.186667 0.195765
0.785882 0.182526 0.189020
0.857412 0.171922 0.186196
0.927247 0.165302 0.189616
0.993976 0.159435 0.184471
0.998588 0.152314 0.183906
1.000000 0.147702 0.180612
0.996245 0.148062 0.180236
0.283137 0.246902 0.230118
0.283012 0.246776 0.229992
0.287404 0.250980 0.237208
0.329129 0.265349 0.227639
0.419043 0.269992 0.201569
0.488941 0.265726 0.200784
0.565051 0.261239 0.199498
0.640534 0.259231 0.192753
0.720565 0.251796 0.197804
0.796047 0.247498 0.189365
0.862118 0.240157 0.188549
0.931106 0.237114 0.185537
0.993129 0.229333 0.188329
1.000000 0.223310 0.188518
1.000000 0.220988 0.182620
0.995783 0.217409 0.179765
0.315765 0.277960 0.259608
0.317898 0.280094 0.261741
0.318651 0.282039 0.259106
0.322949 0.283326 0.272282
0.359028 0.303749 0.260424
0.488000 0.333490 0.226824
0.577192 0.329569 0.196141
0.652235 0.325929 0.188674
0.728815 0.320188 0.188580
0.803294 0.316361 0.189208
0.874824 0.310117 0.185568
0.940047 0.305067 0.182557
0.994133 0.301333 0.179263
0.999247 0.294965 0.177600
0.998494 0.292612 0.174965
0.999685 0.286286 0.181156
0.358431 0.315294 0.299608
0.358431 0.315294 0.299608
0.359843 0.316706 0.299765
0.361412 0.320157 0.298510
0.364235 0.322040 0.299608
0.401569 0.346667 0.303529
0.531765 0.387137 0.257255
0.662588 0.401412 0.199216
0.746039 0.398588 0.183529
0.816157 0.390902 0.178980
0.879216 0.382745 0.184314
0.947451 0.380392 0.177412
0.997177 0.374275 0.183059
1.000000 0.371608 0.178667
0.993725 0.366274 0.177098
1.000000 0.358471 0.179616
0.399686 0.356549 0.340863
0.398902 0.355765 0.340079
0.401349 0.358682 0.342526
0.403420 0.360282 0.341710
0.408063 0.361914 0.342526
0.406902 0.366274 0.349333
0.449224 0.391623 0.354384
0.588957 0.443545 0.297663
0.721035 0.470306 0.232533
0.822337 0.466761 0.183969
0.894745 0.459922 0.177412
0.955357 0.453867 0.170102
0.999812 0.451231 0.174149
0.999812 0.442635 0.172800
1.000000 0.435200 0.178385
1.000000 0.432013 0.180643
0.445647 0.397804 0.383686
0.447780 0.396549 0.383561
0.448690 0.400188 0.389114
0.449004 0.403859 0.384282
0.456282 0.404110 0.388957
0.451765 0.408628 0.391686
0.462180 0.413490 0.393631
0.502337 0.437710 0.394259
0.633726 0.501741 0.348047
0.775623 0.526870 0.278651
0.891451 0.537255 0.201098
0.967372 0.527310 0.172674
1.000000 0.522509 0.170008
0.999623 0.516392 0.174086
0.999184 0.509270 0.169286
1.000000 0.501954 0.173327
0.499608 0.448000 0.426353
0.498322 0.446714 0.425067
0.495812 0.447027 0.425569
0.495310 0.448408 0.428455
0.499043 0.451012 0.431059
0.506667 0.453333 0.436863
0.510776 0.457537 0.440220
0.515043 0.461365 0.443106
0.549490 0.489224 0.454149
0.689851 0.553286 0.399686
0.814902 0.589020 0.338981
0.945757 0.600502 0.242792
0.999153 0.599467 0.182494
0.998776 0.590557 0.167561
0.998431 0.582400 0.165239
0.999984 0.574617 0.165352
0.548392 0.497412 0.473882
0.549490 0.498510 0.474980
0.549553 0.499420 0.471529
0.550996 0.497349 0.481820
0.553537 0.499200 0.477835
0.557020 0.501647 0.487529
0.560063 0.508455 0.484486
0.559404 0.509114 0.491420
0.571420 0.515169 0.494274
0.602635 0.544157 0.507326
0.737882 0.608157 0.457883
0.869271 0.647655 0.399843
0.984188 0.666730 0.316612
0.998870 0.664973 0.205867
0.993945 0.653992 0.173490
0.999969 0.645358 0.162869
0.603922 0.552941 0.529412
0.602667 0.551686 0.528157
0.606118 0.549647 0.534745
0.608784 0.551843 0.531294
0.611294 0.555608 0.534431
0.607843 0.555294 0.536470
0.616471 0.558902 0.539451
0.616314 0.565804 0.548392
0.626823 0.571137 0.549961
0.630589 0.573804 0.558274
0.654902 0.599216 0.578039
0.790745 0.667608 0.519686
0.913569 0.712000 0.477020
0.998431 0.728000 0.390745
0.997647 0.727843 0.270588
0.999976 0.717671 0.207122
0.661961 0.610980 0.587451
0.663028 0.612047 0.588518
0.661616 0.610698 0.590934
0.666071 0.613616 0.593004
0.667702 0.613208 0.595200
0.669804 0.618039 0.596863
0.672628 0.618698 0.597741
0.671969 0.624722 0.601286
0.682980 0.627012 0.607467
0.685082 0.634416 0.613710
0.691922 0.637490 0.620392
0.719655 0.662588 0.636612
0.837020 0.725710 0.595326
0.954698 0.772016 0.549961
0.999529 0.792408 0.473130
0.995002 0.794833 0.383718
0.723294 0.670275 0.657882
0.722604 0.670149 0.657569
0.723796 0.672753 0.658290
0.728973 0.673506 0.661741
0.726463 0.674667 0.659231
0.728314 0.677647 0.667294
0.729255 0.680000 0.666353
0.735184 0.685302 0.669271
0.741302 0.686871 0.671812
0.741772 0.694588 0.681506
0.747294 0.699451 0.680000
0.755702 0.703341 0.690259
0.774557 0.729537 0.710086
0.879655 0.787984 0.678024
0.988674 0.830871 0.628361
0.995186 0.856278 0.584228
0.781961 0.738823 0.725020
0.781867 0.738730 0.724925
0.786165 0.737098 0.729349
0.787482 0.740392 0.730729
0.784251 0.743686 0.733772
0.791059 0.743216 0.730980
0.789176 0.746792 0.737694
0.793977 0.750839 0.737537
0.794855 0.754761 0.744282
0.803012 0.758933 0.748831
0.806118 0.765333 0.754353
0.812894 0.771012 0.756957
0.816314 0.776973 0.769035
0.835733 0.794729 0.786133
0.915859 0.847373 0.756455
0.999911 0.889971 0.724127
0.846588 0.807373 0.799530
0.847529 0.808314 0.800471
0.843984 0.808220 0.798494
0.850259 0.810259 0.803294
0.850980 0.811451 0.803608
0.849882 0.810196 0.802353
0.851388 0.814243 0.806651
0.856753 0.817537 0.809694
0.856220 0.822274 0.811796
0.862463 0.823749 0.816031
0.868706 0.829490 0.825255
0.870651 0.837710 0.828863
0.880283 0.843576 0.834479
0.884424 0.848408 0.841161
0.898259 0.870024 0.863184
0.944969 0.904367 0.856036
0.909647 0.878274 0.870431
0.911981 0.880609 0.872766
0.903435 0.882778 0.873818
0.913549 0.882206 0.874353
0.913573 0.882191 0.874333
0.915914 0.884542 0.876698
0.916483 0.886626 0.878259
0.912240 0.892515 0.880773
0.919710 0.892050 0.885492
0.919078 0.899470 0.887682
0.925310 0.905678 0.893985
0.929023 0.907879 0.901961
0.934737 0.913520 0.906458
0.940864 0.917344 0.919180
0.941563 0.925838 0.915005
0.960510 0.944824 0.940824
0.240000 0.208628 0.196863
0.236706 0.205333 0.193568
0.242981 0.213961 0.195137
0.249412 0.218039 0.206275
0.278902 0.242667 0.227451
0.363921 0.248628 0.261961
0.483137 0.208314 0.269020
0.602196 0.155137 0.262588
0.698510 0.099451 0.256314
0.775059 0.046588 0.238902
0.853333 0.030588 0.238431
0.924706 0.008941 0.238902
0.992000 0.000000 0.239216
1.000000 0.000000 0.236863
0.996392 0.000000 0.235608
1.000000 0.000000 0.232125
0.254902 0.223529 0.211765
0.255027 0.223655 0.211890
0.260361 0.224910 0.215184
0.268298 0.230965 0.219043
0.296282 0.257945 0.243733
0.394196 0.242353 0.262745
0.508988 0.206902 0.264408
0.619545 0.160188 0.261804
0.699953 0.123608 0.249349
0.780737 0.101083 0.242384
0.855843 0.095686 0.242353
0.923608 0.083514 0.239529
0.990619 0.073600 0.233757
1.000000 0.060863 0.235294
1.000000 0.053710 0.234227
0.999995 0.057407 0.233564
0.275451 0.237804 0.225255
0.281286 0.243639 0.231090
0.283796 0.246776 0.231090
0.291514 0.254902 0.237365
0.347545 0.261772 0.264094
0.453961 0.234823 0.264314
0.545976 0.208502 0.258792
0.628706 0.183498 0.250290
0.709616 0.171827 0.244612
0.781678 0.164988 0.241004
0.857412 0.157490 0.240784
0.925961 0.154384 0.237710
0.994102 0.147859 0.238682
0.998212 0.140988 0.234353
1.000000 0.137443 0.233600
0.999958 0.135532 0.232930
0.292392 0.257098 0.237490
0.299451 0.262651 0.243796
0.311090 0.272910 0.257443
0.353757 0.269616 0.255592
0.418949 0.263404 0.251389
0.488471 0.256000 0.249255
0.562290 0.252581 0.246745
0.642133 0.245082 0.246494
0.716267 0.241945 0.245522
0.791686 0.235012 0.240722
0.867608 0.231059 0.238275
0.929286 0.226981 0.237428
0.994071 0.219012 0.240094
0.994917 0.218572 0.232000
0.997365 0.213522 0.230682
0.999068 0.212388 0.227947
0.336941 0.294432 0.278431
0.339419 0.296910 0.280910
0.341365 0.300737 0.283796
0.345851 0.305223 0.286965
0.408941 0.325522 0.269490
0.504784 0.325804 0.248471
0.574651 0.323043 0.241004
0.652235 0.320125 0.241976
0.727121 0.313694 0.239718
0.801349 0.310117 0.238212
0.871843 0.303529 0.234667
0.936031 0.300957 0.236988
0.995577 0.294525 0.232377
1.000000 0.289694 0.234510
0.999592 0.288879 0.232471
0.998757 0.285013 0.230287
0.377255 0.334118 0.318431
0.377255 0.334118 0.318431
0.383529 0.333333 0.320000
0.379765 0.336627 0.320941
0.381647 0.341647 0.316549
0.447059 0.367059 0.314510
0.566588 0.395608 0.267451
0.671529 0.395137 0.236863
0.743373 0.388863 0.239059
0.813804 0.384941 0.233883
0.882353 0.378039 0.241568
0.946510 0.375687 0.238431
0.997647 0.367059 0.234980
0.996235 0.365804 0.235137
1.000000 0.363137 0.234353
1.000000 0.359231 0.231389
0.415686 0.372549 0.356863
0.415780 0.372643 0.356957
0.416972 0.373835 0.358149
0.419545 0.376032 0.360470
0.427451 0.378667 0.358588
0.426196 0.383059 0.363294
0.481475 0.411075 0.363922
0.619890 0.457130 0.309427
0.741459 0.470996 0.257506
0.827138 0.464471 0.229741
0.889569 0.457412 0.232000
0.956706 0.447216 0.231969
0.998117 0.445302 0.229616
1.000000 0.439435 0.226416
0.999623 0.435702 0.233663
0.997823 0.429208 0.229035
0.466040 0.413020 0.400628
0.466040 0.413020 0.400628
0.465443 0.416471 0.394259
0.467357 0.416753 0.397741
0.467702 0.420235 0.406118
0.468235 0.425098 0.401569
0.478212 0.427545 0.409349
0.528157 0.460392 0.406086
