example_ofxGpuLutCube/bin/data/ofxGpuLutCube/LUT/A50 (orange gray fade).cube
LUT_3D_SIZE 6
0.156863 0.125490 0.113725
0.335686 0.126275 0.114510
0.541177 0.109020 0.120785
0.783529 0.083137 0.116078
0.995294 0.043922 0.116863
0.999961 0.011804 0.102079
0.249412 0.214902 0.204706
0.269647 0.226823 0.208628
0.567059 0.269177 0.124079
0.798118 0.252236 0.112157
0.993882 0.237804 0.107608
0.992988 0.221977 0.105122
0.378824 0.335686 0.320000
0.385883 0.342745 0.325490
0.420549 0.366432 0.342274
0.817412 0.467921 0.113255
1.000000 0.450667 0.088471
0.999216 0.437647 0.098792
0.537255 0.480000 0.459608
0.538823 0.485333 0.462432
0.544941 0.493020 0.471529
0.587608 0.527529 0.499451
0.972078 0.664628 0.289255
1.000000 0.640063 0.083161
0.716078 0.661176 0.649412
0.716863 0.666667 0.653333
0.726118 0.672628 0.660392
0.734745 0.683608 0.670588
0.766902 0.721882 0.703686
0.996117 0.851726 0.568753
0.909608 0.878235 0.870392
0.901945 0.882141 0.870416
0.906580 0.886855 0.872023
0.917561 0.897835 0.886102
0.934737 0.911161 0.915835
0.956745 0.941058 0.937137
0.240000 0.208628 0.196863
0.249412 0.218039 0.206275
0.483137 0.208314 0.269020
0.775059 0.046588 0.238902
0.992000 0.000000 0.239216
1.000000 0.000000 0.232125
0.292392 0.257098 0.237490
0.353757 0.269616 0.255592
0.562290 0.252581 0.246745
0.791686 0.235012 0.240722
0.994071 0.219012 0.240094
0.999068 0.212388 0.227947
0.415686 0.372549 0.356863
0.419545 0.376032 0.360470
0.481475 0.411075 0.363922
0.827138 0.464471 0.229741
0.998117 0.445302 0.229616
0.997823 0.429208 0.229035
0.561098 0.510118 0.486588
0.562604 0.512816 0.491451
0.571200 0.519028 0.494086
0.628612 0.558337 0.513474
0.985977 0.669145 0.330259
0.999049 0.645498 0.232769
0.733804 0.678902 0.667137
0.730918 0.681663 0.668016
0.735624 0.688157 0.668643
0.747765 0.703216 0.688377
0.783090 0.736376 0.719372
0.998579 0.861122 0.584847
0.913568 0.882196 0.874353
0.912816 0.884549 0.879812
0.912386 0.893903 0.884662
0.919962 0.901334 0.891934
0.937139 0.914194 0.912238
0.955208 0.944164 0.943271
0.351373 0.308235 0.292549
0.363137 0.320000 0.304314
0.384000 0.345882 0.325804
0.537882 0.422274 0.430118
0.920000 0.287686 0.468706
0.999992 0.065263 0.432988
0.403922 0.360784 0.341333
0.410259 0.363921 0.345851
0.426008 0.378039 0.362227
0.643796 0.409161 0.453961
0.970918 0.279529 0.448314
0.998113 0.197668 0.425402
0.467922 0.417568 0.395922
0.489318 0.437710 0.416063
0.600533 0.449976 0.437396
0.810635 0.434541 0.428831
0.998117 0.431247 0.423780
0.999994 0.427600 0.417901
0.619451 0.568470 0.544941
0.621208 0.569976 0.546824
0.629961 0.576972 0.557334
0.735090 0.632565 0.547608
0.999341 0.665035 0.443608
1.000000 0.643373 0.439048
0.758902 0.715765 0.702588
0.762353 0.719215 0.703529
0.769976 0.724204 0.708392
0.778667 0.735529 0.720345
0.831121 0.778792 0.744188
0.999503 0.869151 0.610329
0.922243 0.902612 0.890855
0.925101 0.905375 0.893651
0.928014 0.909027 0.902853
0.936355 0.915005 0.912346
0.951542 0.931142 0.929519
0.968423 0.964447 0.956691
0.499608 0.447843 0.426667
0.503529 0.452549 0.429020
0.516706 0.465726 0.442196
0.542118 0.491138 0.467608
0.653804 0.596236 0.583059
0.977035 0.598432 0.701890
0.536313 0.485333 0.461804
0.542306 0.489067 0.466667
0.551435 0.500455 0.476925
0.566431 0.513474 0.493051
0.673161 0.622996 0.607373
0.999854 0.590318 0.708530
0.597804 0.546824 0.523294
0.610918 0.556926 0.541176
0.619451 0.567843 0.546196
0.639059 0.586667 0.564235
0.812361 0.633098 0.661522
1.000000 0.559301 0.684425
0.656314 0.602824 0.586824
0.664565 0.611953 0.596831
0.698196 0.643294 0.631529
0.816126 0.656126 0.646745
0.996517 0.649318 0.642384
0.999350 0.645203 0.638271
0.803451 0.761569 0.752784
0.810227 0.769412 0.760627
0.822965 0.781396 0.773553
0.833443 0.788832 0.779482
0.914259 0.843200 0.781239
1.000000 0.861702 0.685354
0.952047 0.936282 0.932400
0.952039 0.935351 0.931910
0.955209 0.939465 0.935553
0.959888 0.944196 0.945229
0.971195 0.961991 0.949687
0.984973 0.983373 0.977883
0.680784 0.627451 0.610980
0.684706 0.631372 0.614902
0.690667 0.637333 0.620863
0.704313 0.651765 0.632941
0.724235 0.672157 0.656941
0.811647 0.768509 0.757529
0.702118 0.650980 0.632941
0.705663 0.650918 0.631623
0.713757 0.659796 0.645208
0.724424 0.669522 0.657757
0.740267 0.688753 0.674353
0.825299 0.779537 0.773092
0.749647 0.699451 0.686118
0.746604 0.703467 0.687781
0.750745 0.707608 0.691922
0.758808 0.715671 0.699984
0.775467 0.727718 0.714196
0.858880 0.821559 0.814005
0.795451 0.746667 0.735373
0.795639 0.752502 0.739325
0.812580 0.774149 0.760847
0.820988 0.779420 0.770635
0.834604 0.794792 0.786949
0.956875 0.862108 0.881672
0.838118 0.798902 0.791059
0.842698 0.803482 0.795639
0.856533 0.823906 0.815561
0.885459 0.854086 0.846243
0.976941 0.880722 0.873820
0.999030 0.882809 0.879321
0.969286 0.958259 0.952784
0.967967 0.963928 0.956124
0.978686 0.973211 0.970027
0.995996 0.995973 0.995926
0.999907 0.998307 0.999884
0.997694 0.996156 0.997694
0.882157 0.850706 0.842863
0.882196 0.850745 0.842941
0.885334 0.853961 0.846079
0.893177 0.861804 0.853922
0.904133 0.872761 0.864879
0.905842 0.886118 0.874392
0.890039 0.858667 0.850784
0.892402 0.860982 0.853139
0.897380 0.866002 0.858162
0.903667 0.872295 0.864452
0.905616 0.881231 0.871059
0.913670 0.893945 0.882219
0.912831 0.883788 0.875169
0.915942 0.886899 0.878279
0.910698 0.890973 0.879247
0.918828 0.899126 0.887393
0.929257 0.909592 0.897846
0.937106 0.913615 0.913498
0.941027 0.923749 0.920526
0.944165 0.920675 0.920557
0.945012 0.929255 0.925349
0.948120 0.932430 0.928510
0.955961 0.940274 0.936353
0.964588 0.948902 0.944980
0.962290 0.958251 0.950447
0.966226 0.962187 0.954383
0.974000 0.966196 0.970000
0.989376 0.981572 0.985376
0.997534 0.992828 0.995181
1.000000 0.999953 0.999976
0.999882 0.999804 0.999843
0.999906 0.999827 0.999867
1.000000 0.999999 1.000000
1.000000 1.000000 1.000000
1.000000 1.000000 1.000000
1.000000 1.000000 1.000000
