example_ofxGpuLutCube/bin/data/ofxGpuLutCube/LUT/A6 (teal faded).cube
LUT_3D_SIZE 16
-0.006387 0.007424 0.020471
-0.021434 0.008367 0.019716
0.056125 0.008464 0.020075
0.123991 0.013231 0.019256
0.184519 0.018316 0.019299
0.238423 0.025309 0.018808
0.291287 0.035775 0.018239
0.347519 0.045866 0.017730
0.410691 0.057408 0.018145
0.476400 0.071543 0.019464
0.533312 0.084561 0.021276
0.584527 0.096563 0.022204
0.626743 0.106129 0.025099
0.663624 0.116527 0.027083
0.696187 0.125161 0.029066
0.731196 0.136035 0.031505
0.006367 0.010090 0.024785
-0.020897 0.009956 0.022754
0.023831 0.007411 0.018635
0.102025 0.016871 0.019470
0.171796 0.025124 0.019777
0.232469 0.034158 0.020816
0.291438 0.045171 0.018801
0.353092 0.057341 0.018251
0.419922 0.071011 0.019160
0.487788 0.086295 0.020697
0.546592 0.099609 0.022373
0.594414 0.111394 0.023515
0.633619 0.120560 0.026635
0.669929 0.128810 0.028171
0.701798 0.136895 0.029148
0.735904 0.145542 0.031080
0.009310 0.013870 0.032457
-0.013929 0.016709 0.033631
-0.026003 0.017574 0.026179
0.076055 0.022319 0.018034
0.151980 0.034314 0.019476
0.218033 0.045109 0.021262
0.280765 0.056284 0.020061
0.344511 0.068655 0.019228
0.412948 0.082078 0.019657
0.481256 0.096606 0.020750
0.540193 0.109330 0.021431
0.588971 0.120356 0.023768
0.629641 0.129780 0.024513
0.664008 0.138195 0.026057
0.697525 0.146647 0.028733
0.732748 0.155395 0.030636
0.010814 0.037464 0.043108
0.005741 0.040680 0.045500
-0.021126 0.047592 0.045714
0.056672 0.046797 0.029678
0.127123 0.050966 0.022627
0.196086 0.065971 0.020729
0.265065 0.075127 0.020358
0.332250 0.085172 0.019708
0.401036 0.097606 0.019922
0.470263 0.111938 0.020749
0.529875 0.124031 0.021983
0.579926 0.136357 0.024043
0.622650 0.144155 0.024057
0.658190 0.152675 0.027383
0.692906 0.159878 0.028225
0.729731 0.168783 0.030222
0.012117 0.070189 0.057004
0.012088 0.071972 0.058025
-0.017811 0.076543 0.061543
0.043282 0.086995 0.055809
0.113290 0.083945 0.037301
0.182494 0.087601 0.025314
0.252474 0.101278 0.022497
0.324876 0.112545 0.020574
0.399056 0.121918 0.020209
0.471920 0.134083 0.021321
0.534541 0.147676 0.022940
0.584227 0.156000 0.023227
0.626644 0.165170 0.024327
0.664969 0.174087 0.026063
0.697977 0.179866 0.028566
0.734484 0.187515 0.030623
0.012795 0.104864 0.071185
0.013948 0.104302 0.070305
0.010308 0.105659 0.073512
0.029674 0.116876 0.075540
0.100040 0.130411 0.062574
0.169538 0.121435 0.042225
0.242982 0.124769 0.028733
0.317049 0.139429 0.023625
0.394972 0.152996 0.021589
0.473759 0.163790 0.021618
0.539366 0.173271 0.022884
0.592591 0.184239 0.024254
0.636116 0.192191 0.026334
0.673617 0.199811 0.028285
0.706983 0.205699 0.029115
0.743017 0.213429 0.031314
0.013230 0.140042 0.084326
0.014939 0.138132 0.082692
0.018031 0.137423 0.085208
0.027363 0.146636 0.089720
0.080422 0.162596 0.085352
0.160372 0.177054 0.070483
0.231529 0.161040 0.044487
0.311240 0.163477 0.029666
0.391686 0.180860 0.025261
0.472356 0.198128 0.024165
0.543316 0.209598 0.024075
0.598771 0.218181 0.025459
0.645737 0.224349 0.025733
0.683215 0.230263 0.028027
0.717165 0.237829 0.029065
0.753713 0.245593 0.031401
0.013419 0.179057 0.099416
0.015890 0.176447 0.097490
0.025574 0.174398 0.097558
0.033883 0.179920 0.102361
0.066559 0.195985 0.104083
0.135297 0.216364 0.097036
0.225683 0.225533 0.076937
0.299787 0.204829 0.047530
0.385625 0.209138 0.032982
0.471670 0.227951 0.028854
0.542866 0.246520 0.029688
0.603880 0.260060 0.027355
0.652137 0.271335 0.028881
0.692636 0.277069 0.028729
0.726647 0.282395 0.029685
0.765043 0.289606 0.031243
0.013160 0.221975 0.116028
0.018667 0.219189 0.113937
0.030359 0.216462 0.113100
0.041237 0.220839 0.117526
0.060121 0.232981 0.121396
0.113422 0.251451 0.117455
0.200574 0.279642 0.111874
0.299158 0.280532 0.084887
0.376438 0.255325 0.052602
0.466475 0.261690 0.038569
0.545070 0.281904 0.036962
0.608099 0.300914 0.036146
0.657481 0.319677 0.037291
0.699803 0.333084 0.037568
0.737768 0.341765 0.036405
0.777378 0.349845 0.036546
0.015928 0.270062 0.134981
0.022890 0.267283 0.133149
0.035904 0.263033 0.132548
0.047914 0.268067 0.132319
0.060947 0.275885 0.138463
0.103576 0.296368 0.140582
0.176200 0.319812 0.136847
0.284038 0.350777 0.128556
0.387420 0.340351 0.093836
0.466922 0.315831 0.060707
0.549279 0.322286 0.049070
0.614539 0.341912 0.047077
0.670092 0.362629 0.046748
0.714980 0.384075 0.049505
0.753660 0.400921 0.050754
0.793289 0.416995 0.052724
0.021740 0.320886 0.155071
0.028917 0.318188 0.153334
0.044080 0.316650 0.150922
0.057360 0.318760 0.152828
0.069869 0.327313 0.156805
0.102962 0.346521 0.163157
0.172559 0.369382 0.161483
0.272397 0.403098 0.160478
0.400227 0.431099 0.143553
0.493873 0.403730 0.101668
0.564515 0.385566 0.073022
0.634928 0.394025 0.066032
0.691614 0.410793 0.063198
0.736300 0.431637 0.065822
0.775110 0.452199 0.068622
0.813572 0.474110 0.072585
0.031106 0.373844 0.177204
0.038531 0.373429 0.176781
0.055133 0.371727 0.175844
0.070155 0.374723 0.176259
0.084982 0.385472 0.179059
0.114322 0.404069 0.186849
0.183503 0.427501 0.188093
0.286619 0.461229 0.187309
0.416269 0.500905 0.180635
0.535894 0.508041 0.153848
0.605661 0.472286 0.114398
0.660391 0.463013 0.096424
0.718542 0.474472 0.090145
0.761617 0.488318 0.089295
0.798910 0.504708 0.090297
0.835366 0.523508 0.092562
0.042330 0.426132 0.197765
0.049303 0.427583 0.198402
0.069445 0.427375 0.198744
0.086814 0.430742 0.197474
0.103299 0.440550 0.200095
0.134984 0.462435 0.210905
0.208802 0.488670 0.212724
0.319067 0.523558 0.212704
0.446588 0.562860 0.208254
0.569706 0.585065 0.191131
0.652189 0.568699 0.159548
0.697472 0.540605 0.133462
0.745181 0.535631 0.119276
0.787860 0.544702 0.113878
0.822476 0.556297 0.113580
0.856932 0.571652 0.114523
0.053462 0.473532 0.214893
0.060674 0.476557 0.216394
0.083704 0.479524 0.219836
0.101925 0.482681 0.218104
0.119959 0.495997 0.219834
0.157761 0.517613 0.229123
0.244435 0.547066 0.233420
0.359157 0.582349 0.233157
0.484147 0.620178 0.231348
0.603884 0.647033 0.219060
0.687555 0.643259 0.196111
0.735583 0.620697 0.169539
0.772123 0.599118 0.150995
0.807652 0.597018 0.140500
0.842507 0.604836 0.137777
0.875905 0.616896 0.137399
0.064298 0.517035 0.230734
0.071404 0.520822 0.231922
0.096343 0.526371 0.237191
0.117815 0.531680 0.234917
0.138869 0.543697 0.237978
0.185543 0.567232 0.247933
0.280216 0.598971 0.251354
0.392558 0.632332 0.253138
0.516698 0.667392 0.249479
0.631550 0.692663 0.237177
0.708792 0.695269 0.221898
0.765220 0.687136 0.202844
0.799607 0.665677 0.182229
0.827815 0.649900 0.168379
0.857732 0.648980 0.160848
0.890842 0.657638 0.158407
0.082281 0.601543 0.268753
0.090436 0.606596 0.268710
0.111320 0.612279 0.270843
0.134362 0.620826 0.270481
0.157291 0.636487 0.275253
0.210458 0.661192 0.282257
0.313653 0.692023 0.287477
0.429265 0.724716 0.289183
0.555836 0.758594 0.283702
0.667458 0.784440 0.272826
0.747161 0.795314 0.260655
0.803794 0.792246 0.246339
0.846483 0.781781 0.227640
0.874053 0.761803 0.209950
0.897983 0.747935 0.198190
0.926652 0.747837 0.192537
-0.038693 -0.273311 -0.117664
-0.045136 -0.275024 -0.118490
0.049962 -0.277894 -0.119840
0.128818 -0.282386 -0.121425
0.195571 -0.289752 -0.123674
0.247539 -0.300617 -0.126380
0.293326 -0.313891 -0.128593
0.337276 -0.328178 -0.128978
0.386929 -0.341477 -0.126678
0.441677 -0.350713 -0.121983
0.495383 -0.353847 -0.115835
0.543383 -0.351323 -0.108334
0.585619 -0.343991 -0.099882
0.623227 -0.334705 -0.091739
0.656481 -0.326997 -0.084842
0.693723 -0.321113 -0.080725
0.006407 0.009412 0.044719
-0.022317 0.010456 0.044657
0.021328 0.011038 0.035334
0.103810 0.020519 0.033994
0.174519 0.028287 0.031782
0.236144 0.038439 0.029661
0.298008 0.050070 0.028048
0.359563 0.061771 0.026739
0.426343 0.075040 0.027424
0.493004 0.089132 0.028888
0.549309 0.102451 0.029160
0.597491 0.113349 0.031641
0.636131 0.120997 0.033799
0.669479 0.130254 0.036056
0.703265 0.140140 0.037666
0.737325 0.149545 0.040122
0.009216 0.017036 0.052123
-0.014460 0.019223 0.052659
-0.029573 0.023092 0.045659
0.081949 0.027918 0.037994
0.155154 0.040547 0.035495
0.223415 0.051258 0.033126
0.287526 0.062650 0.030160
0.352387 0.074867 0.027808
0.421440 0.088554 0.027740
0.488825 0.102795 0.028879
0.546351 0.115967 0.029708
0.594521 0.125402 0.031823
0.632306 0.133009 0.034182
0.668584 0.143209 0.034422
0.700811 0.149869 0.036717
0.736024 0.158660 0.038808
0.010623 0.042850 0.062609
0.007826 0.044547 0.061841
-0.028447 0.050411 0.063492
0.056653 0.052581 0.046565
0.136074 0.057948 0.033357
0.206391 0.069169 0.030762
0.273840 0.077522 0.029995
0.340086 0.087786 0.027868
0.409636 0.100687 0.027456
0.478119 0.115111 0.028386
0.539133 0.127136 0.029571
0.587228 0.139498 0.031484
0.628069 0.148160 0.032034
0.663095 0.155246 0.033986
0.697469 0.162491 0.036237
0.733467 0.171373 0.038343
0.011742 0.077255 0.076707
0.012963 0.077149 0.073820
-0.020661 0.078446 0.075239
0.033603 0.089900 0.071595
0.115956 0.090635 0.050585
0.189626 0.093697 0.035103
0.261160 0.104748 0.031309
0.334078 0.113130 0.028363
0.408152 0.122319 0.027636
0.479775 0.135026 0.028742
0.541171 0.147027 0.030214
0.589861 0.158797 0.032062
0.633669 0.165993 0.032625
0.670143 0.173456 0.034545
0.702492 0.180661 0.036698
0.738619 0.188259 0.038847
0.012399 0.112410 0.089420
0.014343 0.110513 0.085340
-0.011179 0.110160 0.084398
0.017460 0.118401 0.088911
0.094702 0.132741 0.076470
0.173857 0.126730 0.052572
0.249833 0.130024 0.036975
0.325352 0.143424 0.031004
0.404548 0.153352 0.028427
0.482513 0.162669 0.028939
0.546562 0.172089 0.031065
0.597597 0.180944 0.031215
0.641638 0.189800 0.033318
0.677405 0.197806 0.035377
0.711516 0.204761 0.037349
0.747268 0.212724 0.039663
0.012892 0.148186 0.101634
0.014820 0.145307 0.097007
0.015282 0.142230 0.096706
0.023919 0.147826 0.100831
0.072813 0.166132 0.097777
0.157221 0.178941 0.081101
0.236224 0.165552 0.052286
0.319387 0.168352 0.036333
0.399514 0.184766 0.031669
0.481202 0.198560 0.030402
0.551534 0.207185 0.030198
0.605377 0.215695 0.032844
0.651804 0.221134 0.033274
0.687971 0.228379 0.035641
0.722090 0.234798 0.037667
0.758593 0.243422 0.040101
0.013083 0.187706 0.115815
0.015609 0.184825 0.111303
0.021051 0.182678 0.109290
0.031069 0.184082 0.112822
0.059522 0.197388 0.115701
0.128560 0.219867 0.109530
0.223340 0.230165 0.086723
0.305768 0.209500 0.054155
0.393937 0.212748 0.038133
0.479757 0.231457 0.034209
0.550776 0.249948 0.033651
0.610876 0.258894 0.034156
0.657841 0.266092 0.034498
0.698459 0.270646 0.035480
0.732656 0.276797 0.036577
0.771066 0.285232 0.039028
0.013641 0.231347 0.131801
0.017710 0.228504 0.127702
0.026818 0.225017 0.126967
0.039413 0.225871 0.129290
0.056524 0.236523 0.133430
0.107148 0.254532 0.129468
0.192531 0.280755 0.121593
0.297797 0.284940 0.093748
0.382579 0.260342 0.058997
0.475362 0.265052 0.043123
0.552545 0.284119 0.041279
0.614884 0.303813 0.041241
0.665779 0.321249 0.041234
0.708790 0.330517 0.040800
0.744662 0.336855 0.040250
0.784896 0.345093 0.041200
0.017241 0.279623 0.149867
0.021634 0.277615 0.146601
0.033246 0.274882 0.144935
0.047140 0.272312 0.145190
0.061006 0.282181 0.148107
0.094826 0.298006 0.152999
0.166672 0.321052 0.147143
0.275425 0.352535 0.138669
0.387921 0.346393 0.102505
0.473597 0.320259 0.066186
0.558706 0.328029 0.054633
0.624237 0.345157 0.052434
0.679302 0.367122 0.051679
0.724098 0.387966 0.054028
0.761579 0.403061 0.055421
0.801320 0.416923 0.057125
0.023682 0.330604 0.169795
0.028364 0.329839 0.167359
0.040565 0.326701 0.166073
0.056901 0.325775 0.165926
0.069922 0.332672 0.168492
0.097445 0.350794 0.174684
0.162216 0.371838 0.173434
0.261260 0.404516 0.170808
0.395139 0.436281 0.154870
0.498226 0.412019 0.110894
0.574864 0.390864 0.079279
0.643920 0.400453 0.070167
0.702460 0.417881 0.069608
0.746712 0.439163 0.073481
0.784628 0.460849 0.076170
0.822703 0.481785 0.079912
0.033440 0.383909 0.191474
0.038719 0.385145 0.190138
0.050893 0.383323 0.190120
0.070664 0.382775 0.189639
0.087133 0.392333 0.190896
0.109565 0.406832 0.198713
0.169856 0.430170 0.201643
0.272042 0.463013 0.199226
0.408507 0.505209 0.192427
0.536579 0.517406 0.166451
0.612346 0.482086 0.123889
0.670983 0.471599 0.104029
0.728648 0.482611 0.097836
0.773016 0.497815 0.097713
0.808930 0.514008 0.099307
0.845503 0.534042 0.102328
0.044614 0.435042 0.211129
0.050152 0.438188 0.210373
0.064255 0.439036 0.212077
0.084974 0.441869 0.213682
0.101619 0.449013 0.213407
0.128751 0.465717 0.222830
0.192813 0.491597 0.227836
0.301897 0.525904 0.226277
0.437127 0.567076 0.221676
0.568334 0.594659 0.205747
0.656717 0.582516 0.173632
0.706960 0.551849 0.144226
0.754340 0.544766 0.129580
0.799404 0.553437 0.125023
0.832939 0.566826 0.124036
0.866992 0.583068 0.125660
0.055874 0.482420 0.230908
0.061901 0.486121 0.229601
0.076101 0.489556 0.232937
0.100832 0.494194 0.236923
0.119112 0.502163 0.235878
0.149400 0.520722 0.244106
0.223217 0.549486 0.250143
0.340244 0.584566 0.248311
0.471915 0.624194 0.246307
0.601302 0.654774 0.233204
0.690645 0.653396 0.209942
0.743602 0.632714 0.184404
0.781454 0.610300 0.163744
0.816839 0.608536 0.153664
0.852817 0.616046 0.149350
0.885112 0.628256 0.149116
0.066899 0.525511 0.250331
0.073165 0.530227 0.248448
0.086090 0.534585 0.251188
0.114282 0.541571 0.255916
0.138906 0.550572 0.255625
0.173723 0.569715 0.262046
0.256706 0.600211 0.266762
0.372308 0.633800 0.267659
0.501452 0.669795 0.263915
0.626173 0.699535 0.251112
0.710665 0.705723 0.235178
0.768843 0.697941 0.215636
0.807211 0.677692 0.194993
0.835716 0.660268 0.179922
0.867431 0.659744 0.172590
0.898580 0.668417 0.170364
0.084483 0.610075 0.289327
0.090887 0.615908 0.286858
0.101937 0.622193 0.286401
0.128165 0.629183 0.290297
0.149203 0.641079 0.290577
0.191765 0.662744 0.298883
0.288109 0.693720 0.302166
0.406106 0.726612 0.304664
0.537842 0.761490 0.299256
0.658529 0.790714 0.287606
0.745364 0.803528 0.276430
0.803981 0.802704 0.259891
0.852790 0.794743 0.243102
0.882185 0.773879 0.223571
0.906468 0.758360 0.211072
0.934537 0.757529 0.204958
-0.039141 -0.277344 -0.117944
-0.044517 -0.279262 -0.118688
0.038867 -0.282128 -0.120815
0.138381 -0.285905 -0.123236
0.206215 -0.291991 -0.126623
0.259118 -0.301776 -0.130234
0.306957 -0.314839 -0.133268
0.350594 -0.329538 -0.134006
0.396694 -0.343870 -0.131868
0.445083 -0.354684 -0.127050
0.491765 -0.359311 -0.120268
0.538851 -0.357911 -0.112382
0.577351 -0.351804 -0.103422
0.611599 -0.342865 -0.093875
0.647857 -0.335245 -0.086309
0.685713 -0.329610 -0.081254
0.007515 0.015679 0.074114
-0.021251 0.015399 0.075796
-0.027704 0.013924 0.065040
0.110532 0.013773 0.052564
0.181917 0.022115 0.048891
0.243836 0.031425 0.045430
0.303778 0.043273 0.041750
0.364040 0.054929 0.039275
0.429213 0.067359 0.038577
0.493768 0.080878 0.039433
0.550551 0.094541 0.040992
0.595125 0.105695 0.042524
0.633021 0.115828 0.044687
0.668720 0.124354 0.046246
0.700433 0.134749 0.048370
0.734918 0.147800 0.051698
0.009280 0.023629 0.079134
-0.011145 0.024513 0.081490
-0.037835 0.031985 0.082329
0.079102 0.034808 0.063336
0.150612 0.044187 0.060080
0.215798 0.060351 0.056421
0.284047 0.072651 0.051129
0.353149 0.084188 0.043862
0.424675 0.096702 0.040288
0.493596 0.109687 0.039990
0.551217 0.121878 0.042082
0.596684 0.131547 0.042013
0.635799 0.137946 0.043896
0.670115 0.145949 0.044828
0.703058 0.154765 0.047827
0.737981 0.164053 0.050465
0.010207 0.050348 0.092051
0.010581 0.050887 0.090954
-0.031583 0.053901 0.091912
0.047367 0.063270 0.078825
0.130730 0.069244 0.065109
0.200813 0.080054 0.062492
0.269841 0.089512 0.055278
0.339999 0.099087 0.047549
0.412408 0.110632 0.041926
0.483512 0.123732 0.040455
0.544192 0.136137 0.041277
0.592489 0.145746 0.042978
0.634408 0.152848 0.042703
0.669024 0.160102 0.045103
0.701172 0.167437 0.046766
0.736718 0.176195 0.049256
0.011128 0.088039 0.108171
0.013254 0.087022 0.104003
-0.017904 0.085220 0.100946
-0.019246 0.092233 0.097568
0.109310 0.098292 0.077499
0.188785 0.102636 0.060960
0.263341 0.111418 0.053946
0.336971 0.117787 0.046392
0.411524 0.127234 0.041683
0.484671 0.140080 0.040855
0.548473 0.152335 0.041589
0.596161 0.162564 0.041973
0.637761 0.170536 0.043019
0.675416 0.178189 0.045578
0.707095 0.183832 0.047045
0.742792 0.191513 0.049804
0.011747 0.124779 0.121397
0.014079 0.122063 0.115286
0.007863 0.115579 0.108745
-0.025833 0.120700 0.109340
0.081052 0.134953 0.104061
0.170311 0.134247 0.076990
0.252193 0.137545 0.053900
0.329874 0.147865 0.046465
0.409839 0.153989 0.041649
0.488206 0.163051 0.040800
0.551007 0.174021 0.040987
0.603157 0.183653 0.042299
0.647044 0.191120 0.043948
0.682735 0.199366 0.046558
0.715629 0.205985 0.047903
0.751289 0.214180 0.050776
0.012075 0.161818 0.133689
0.014964 0.157856 0.126478
0.014815 0.152266 0.118545
-0.005165 0.151670 0.119723
0.060060 0.165825 0.121094
0.143977 0.184488 0.107770
0.234689 0.172409 0.071343
0.321969 0.174778 0.049540
0.403375 0.189041 0.044157
0.487420 0.198178 0.041510
0.557771 0.205613 0.042067
0.611395 0.212162 0.042769
0.655625 0.218623 0.044423
0.693519 0.226516 0.046907
0.726134 0.233891 0.048466
0.762769 0.242847 0.051117
0.012349 0.201368 0.146557
0.016770 0.197659 0.139359
0.017991 0.192306 0.130087
0.025441 0.187892 0.130660
0.048044 0.200003 0.137341
0.112715 0.219054 0.132816
0.212478 0.234247 0.107555
0.305966 0.215511 0.068291
0.397597 0.217421 0.048080
0.483739 0.234859 0.043537
0.555917 0.248490 0.043725
0.615889 0.256254 0.044136
0.662965 0.262491 0.042402
0.702398 0.265931 0.046001
0.737805 0.272419 0.047314
0.776618 0.282205 0.050604
0.014633 0.244942 0.160776
0.019346 0.241688 0.154136
0.023992 0.235429 0.145675
0.033820 0.232394 0.143614
0.048667 0.239065 0.150292
0.092997 0.254703 0.152383
0.174592 0.279930 0.141760
0.288952 0.290880 0.111095
0.384320 0.265828 0.070008
0.479959 0.269051 0.051183
0.558945 0.288621 0.048479
0.621156 0.307612 0.047548
0.671894 0.318052 0.047731
0.714928 0.325550 0.047393
0.750885 0.330636 0.046680
0.790930 0.339390 0.049311
0.018690 0.292319 0.176737
0.023678 0.290130 0.171301
0.027267 0.286507 0.164079
0.043157 0.283547 0.161934
0.057712 0.286816 0.167829
0.084330 0.301850 0.171169
0.148998 0.320669 0.166776
0.256971 0.352073 0.155000
0.383252 0.353747 0.117496
0.476970 0.325658 0.075786
0.564780 0.333025 0.062870
0.632673 0.351244 0.059879
0.686982 0.373847 0.058033
0.730219 0.390445 0.060566
0.769100 0.403184 0.060418
0.808844 0.415734 0.062090
0.025715 0.342959 0.195721
0.030819 0.342524 0.191403
0.037338 0.341954 0.185098
0.051525 0.337539 0.184264
0.068947 0.342330 0.187046
0.091335 0.354779 0.192079
0.146212 0.374072 0.193820
0.241246 0.403921 0.187322
0.381148 0.440828 0.172376
0.499158 0.422760 0.125954
0.578231 0.396688 0.089705
0.651479 0.404624 0.078173
0.709609 0.425276 0.077191
0.754352 0.447024 0.080619
0.792940 0.468418 0.084008
0.831458 0.488291 0.087161
0.035927 0.395550 0.216291
0.041603 0.397131 0.212958
0.048528 0.397523 0.209392
0.064275 0.398157 0.209297
0.084914 0.403059 0.213183
0.106616 0.412563 0.216531
0.154604 0.433863 0.222608
0.248455 0.463248 0.219366
0.392259 0.506590 0.208926
0.530844 0.526138 0.183336
0.615825 0.493124 0.139175
0.677313 0.477660 0.113369
0.737177 0.490753 0.106835
0.781499 0.505582 0.107592
0.818259 0.523294 0.108721
0.854966 0.544558 0.112222
0.047482 0.446146 0.236438
0.053415 0.449225 0.233511
0.059145 0.451405 0.230366
0.079350 0.452996 0.233503
0.101703 0.460270 0.237026
0.125300 0.471312 0.242076
0.175905 0.494163 0.248463
0.277502 0.526272 0.246196
0.419589 0.568311 0.238257
0.561270 0.602786 0.223609
0.658671 0.595682 0.191394
0.712752 0.562522 0.158787
0.759622 0.555220 0.142116
0.805872 0.564266 0.137013
0.841881 0.576888 0.135569
0.876030 0.594860 0.137746
0.059106 0.493209 0.256301
0.065014 0.496612 0.252893
0.073548 0.500536 0.250055
0.092275 0.505252 0.253879
0.118831 0.512194 0.258854
0.144693 0.525785 0.262942
0.201214 0.550597 0.271557
0.313102 0.584179 0.269597
0.452747 0.624665 0.263084
0.592183 0.660198 0.250241
0.686131 0.662333 0.227421
0.748762 0.646244 0.200672
0.786851 0.619881 0.177847
0.825369 0.619295 0.166722
0.861504 0.627147 0.162685
0.893082 0.640241 0.162461
0.070174 0.535989 0.276260
0.076169 0.540348 0.272458
0.082007 0.544123 0.268711
0.106263 0.549430 0.273565
0.134829 0.558572 0.279106
0.166710 0.573267 0.281861
0.232523 0.600455 0.288959
0.346121 0.632996 0.286911
0.481556 0.670426 0.281617
0.615632 0.704446 0.268924
0.707601 0.715105 0.253403
0.771013 0.709153 0.233899
0.812481 0.688886 0.209963
0.842721 0.671314 0.195124
0.875986 0.670931 0.186954
0.905296 0.679409 0.184518
0.087432 0.619958 0.315094
0.093232 0.624958 0.310770
0.099925 0.629760 0.306679
0.117533 0.636104 0.309423
0.143850 0.647525 0.316298
0.177281 0.663966 0.319478
0.259159 0.693454 0.323980
0.378855 0.725942 0.323318
0.514706 0.762333 0.318842
0.645060 0.795153 0.307177
0.738367 0.810837 0.293439
0.802126 0.812365 0.279676
0.857466 0.806614 0.261661
0.889411 0.784912 0.241217
0.913471 0.768972 0.227285
0.941832 0.767374 0.220159
-0.040152 -0.281814 -0.111785
-0.043519 -0.283422 -0.113634
-0.032956 -0.285803 -0.117483
0.123170 -0.289127 -0.121302
0.209476 -0.294375 -0.124861
0.268902 -0.302749 -0.129220
0.317431 -0.314822 -0.132020
0.362507 -0.329367 -0.135450
0.407326 -0.344426 -0.135378
0.452113 -0.356785 -0.131650
0.495298 -0.363196 -0.124967
0.534526 -0.363425 -0.116774
0.569723 -0.359001 -0.107080
0.602703 -0.351064 -0.095288
0.635071 -0.344121 -0.085867
0.672044 -0.339383 -0.079253
0.008243 0.028254 0.108661
-0.014626 0.022800 0.108192
-0.039766 0.015621 0.098839
0.089857 0.015415 0.084662
0.187159 0.026110 0.081296
0.255554 0.033978 0.078250
0.312532 0.038514 0.070824
0.369429 0.046192 0.062148
0.430232 0.056050 0.056252
0.490484 0.067486 0.054712
0.544160 0.078709 0.055621
0.587346 0.090766 0.056277
0.625563 0.100570 0.057507
0.659557 0.111126 0.058655
0.693533 0.122650 0.061125
0.729311 0.137459 0.064076
0.009434 0.041856 0.114664
0.006133 0.040694 0.116196
-0.035296 0.041750 0.117777
0.051322 0.035411 0.097083
0.157323 0.040687 0.081089
0.224043 0.048410 0.077828
0.286108 0.062313 0.071638
0.353428 0.074698 0.062238
0.424309 0.088127 0.054702
0.492445 0.101398 0.052237
0.550919 0.113460 0.052395
0.595659 0.122992 0.053540
0.634107 0.132445 0.055554
0.669067 0.141662 0.057469
0.699931 0.150308 0.059686
0.735222 0.162405 0.063113
0.010099 0.061253 0.123385
0.011595 0.060264 0.123140
-0.023802 0.061266 0.124346
-0.029684 0.073116 0.120620
0.126466 0.074835 0.096747
0.190114 0.084865 0.088318
0.255479 0.098881 0.086406
0.328519 0.112123 0.079062
0.405625 0.123017 0.069182
0.481465 0.134323 0.063169
0.544555 0.145443 0.059539
0.595043 0.151567 0.058331
0.635930 0.158172 0.057081
0.670142 0.165803 0.058419
0.702945 0.172981 0.060164
0.738051 0.181756 0.062726
0.010813 0.098907 0.142649
0.012851 0.097264 0.139802
-0.011122 0.094194 0.135398
-0.034938 0.096804 0.132340
0.088611 0.107960 0.116257
0.178480 0.114790 0.102316
0.247099 0.124709 0.095974
0.322183 0.134330 0.086969
0.402070 0.143429 0.075526
0.480575 0.154026 0.067012
0.546536 0.163491 0.061153
0.598885 0.173130 0.060275
0.642217 0.180308 0.059630
0.677244 0.184696 0.059454
0.709978 0.191054 0.061440
0.744619 0.198274 0.063960
0.011326 0.137651 0.159042
0.013675 0.135442 0.154327
0.012867 0.130088 0.147442
-0.023649 0.124825 0.139833
0.054351 0.136866 0.135273
0.156049 0.144143 0.114816
0.241646 0.149720 0.096125
0.321283 0.158416 0.086717
0.403299 0.163423 0.075311
0.484071 0.172134 0.066345
0.552542 0.183357 0.063416
0.604653 0.191902 0.061449
0.648216 0.198559 0.059373
0.685182 0.205217 0.060846
0.718315 0.212401 0.062685
0.753797 0.220254 0.065293
0.011577 0.176525 0.173076
0.015305 0.173691 0.167196
0.019384 0.166644 0.158145
0.011598 0.158862 0.148720
0.034764 0.166329 0.149331
0.119447 0.185519 0.143691
0.223092 0.182665 0.112080
0.316139 0.185750 0.081914
0.400418 0.195618 0.071798
0.486758 0.200029 0.063809
0.556969 0.207832 0.060623
0.612114 0.215546 0.059103
0.658014 0.224590 0.060767
0.695697 0.231019 0.062410
0.728176 0.238089 0.063745
0.764813 0.247191 0.066689
0.013462 0.216415 0.185995
0.017705 0.213863 0.179589
0.021777 0.208201 0.168519
