example_ofxGpuLutCube/bin/data/ofxGpuLutCube/LUT/A6 (teal faded).cube
LUT_3D_SIZE 6
-0.006387 0.007424 0.020471
0.123991 0.013231 0.019256
0.291287 0.035775 0.018239
0.476400 0.071543 0.019464
0.626743 0.106129 0.025099
0.731196 0.136035 0.031505
0.010814 0.037464 0.043108
0.056672 0.046797 0.029678
0.265065 0.075127 0.020358
0.470263 0.111938 0.020749
0.622650 0.144155 0.024057
0.729731 0.168783 0.030222
0.013230 0.140042 0.084326
0.027363 0.146636 0.089720
0.231529 0.161040 0.044487
0.472356 0.198128 0.024165
0.645737 0.224349 0.025733
0.753713 0.245593 0.031401
0.015928 0.270062 0.134981
0.047914 0.268067 0.132319
0.176200 0.319812 0.136847
0.466922 0.315831 0.060707
0.670092 0.362629 0.046748
0.793289 0.416995 0.052724
0.042330 0.426132 0.197765
0.086814 0.430742 0.197474
0.208802 0.488670 0.212724
0.569706 0.585065 0.191131
0.745181 0.535631 0.119276
0.856932 0.571652 0.114523
0.082281 0.601543 0.268753
0.134362 0.620826 0.270481
0.313653 0.692023 0.287477
0.667458 0.784440 0.272826
0.846483 0.781781 0.227640
0.926652 0.747837 0.192537
-0.040152 -0.281814 -0.111785
0.123170 -0.289127 -0.121302
0.317431 -0.314822 -0.132020
0.452113 -0.356785 -0.131650
0.569723 -0.359001 -0.107080
0.672044 -0.339383 -0.079253
0.010099 0.061253 0.123385
-0.029684 0.073116 0.120620
0.255479 0.098881 0.086406
0.481465 0.134323 0.063169
0.635930 0.158172 0.057081
0.738051 0.181756 0.062726
0.011577 0.176525 0.173076
0.011598 0.158862 0.148720
0.223092 0.182665 0.112080
0.486758 0.200029 0.063809
0.658014 0.224590 0.060767
0.764813 0.247191 0.066689
0.021664 0.307100 0.214064
0.037019 0.296201 0.189483
0.125829 0.319337 0.196929
0.473004 0.332066 0.092210
0.688270 0.377579 0.067755
0.813154 0.411482 0.071353
0.051277 0.459428 0.272417
0.072151 0.463712 0.256236
0.161682 0.495148 0.272731
0.544253 0.605231 0.244510
0.763317 0.560328 0.157210
0.882009 0.604632 0.151402
0.091052 0.631824 0.348524
0.109437 0.641993 0.329292
0.230709 0.692360 0.354099
0.625848 0.794881 0.327529
0.856017 0.813738 0.282128
0.947378 0.777180 0.238024
-0.045266 -0.295915 0.102376
0.053058 -0.302177 -0.100683
0.308127 -0.315043 -0.100624
0.478804 -0.354919 -0.110303
0.574275 -0.369339 -0.026793
0.655677 -0.353975 0.082010
0.010007 0.129393 0.233005
-0.015639 0.113481 0.230546
0.232673 0.086879 0.164892
0.476312 0.113243 0.137421
0.616443 0.124157 0.113529
0.718334 0.155299 0.103370
0.014103 0.206319 0.266530
0.027698 0.198028 0.258817
0.119581 0.211833 0.250928
0.443465 0.229059 0.177715
0.644606 0.262564 0.157690
0.762034 0.280690 0.151236
0.028781 0.338820 0.314166
0.046725 0.344118 0.306214
0.080446 0.330626 0.284566
0.432369 0.374411 0.226066
0.681527 0.393303 0.165717
0.817102 0.413257 0.160657
0.061389 0.492945 0.378167
0.083112 0.506606 0.368673
0.128775 0.511160 0.353310
0.415853 0.586418 0.363486
0.753697 0.591228 0.244260
0.892369 0.637522 0.212179
0.102294 0.667558 0.471005
0.123989 0.678191 0.452443
0.167083 0.694543 0.433073
0.520985 0.786955 0.450263
0.839298 0.838710 0.359666
0.955953 0.805977 0.291830
-0.049737 -0.292710 0.273948
-0.022183 -0.319488 0.160735
0.201164 -0.324508 0.142239
0.475335 -0.347714 0.137085
0.582012 -0.381659 0.133962
0.652030 -0.370057 0.192916
0.014647 0.209996 0.366600
0.028639 0.188278 0.371708
0.112461 0.100706 0.297816
0.439526 0.124499 0.254602
0.617928 0.149543 0.231336
0.703853 0.162145 0.226323
0.022468 0.273091 0.390286
0.039766 0.274626 0.397258
0.075358 0.266145 0.398344
0.377678 0.219184 0.287187
0.627151 0.245247 0.247418
0.732430 0.255041 0.236438
0.032062 0.348279 0.407947
0.053542 0.363182 0.423898
0.088866 0.371501 0.428493
0.270934 0.402628 0.423268
0.638407 0.426583 0.340963
0.798802 0.467507 0.336020
0.068334 0.510190 0.493294
0.094453 0.540572 0.509444
0.125036 0.558816 0.515225
0.254414 0.579897 0.510055
0.711115 0.661499 0.463488
0.892166 0.677865 0.418286
0.112072 0.693853 0.599413
0.136583 0.718627 0.606448
0.156819 0.729867 0.592432
0.349110 0.773043 0.589139
0.771516 0.873069 0.576003
0.957890 0.858112 0.494583
-0.051350 -0.270139 0.397509
-0.012926 -0.325411 0.292181
0.188854 -0.340198 0.213815
0.383075 -0.350394 0.200370
0.594677 -0.379515 0.202720
0.656825 -0.395787 0.205410
0.024508 0.274814 0.476411
0.040812 0.244639 0.477424
0.088723 0.141978 0.411879
0.305560 0.116785 0.336978
0.593082 0.159984 0.329147
0.707563 0.180123 0.314405
0.033722 0.332375 0.493053
0.052607 0.332910 0.502815
0.081361 0.322731 0.509905
0.258200 0.218351 0.400755
0.594338 0.242299 0.341125
0.738563 0.273316 0.331348
0.043160 0.395135 0.504645
0.064502 0.408793 0.521793
0.089343 0.425064 0.536851
0.195775 0.439898 0.548624
0.589300 0.421438 0.428140
0.782336 0.453818 0.402407
0.069217 0.507167 0.561224
0.095993 0.537239 0.587992
0.130226 0.563458 0.608325
0.241623 0.599362 0.634348
0.609372 0.689956 0.637316
0.867300 0.710494 0.593939
0.118747 0.704975 0.679395
0.145756 0.736932 0.705455
0.173351 0.761854 0.723257
0.254085 0.792069 0.733724
0.599278 0.858872 0.725759
0.941168 0.924426 0.689967
-0.048109 -0.211547 0.495658
0.058365 -0.316334 0.380738
0.204773 -0.339449 0.289380
0.362144 -0.354575 0.242293
0.563769 -0.378865 0.219577
0.662577 -0.409865 0.223782
0.034038 0.321047 0.552934
0.051798 0.282341 0.552197
0.096181 0.171027 0.479154
0.287244 0.126443 0.395407
0.513285 0.163472 0.387197
0.697260 0.191808 0.379743
0.043491 0.376053 0.565788
0.061457 0.369475 0.572691
0.088125 0.350157 0.576183
0.228432 0.236412 0.473651
0.491409 0.240394 0.408773
0.728396 0.274522 0.394232
0.054144 0.439825 0.577780
0.074040 0.450599 0.591886
0.100689 0.463345 0.605755
0.185789 0.463909 0.614326
0.486928 0.411088 0.510863
0.774855 0.442616 0.455459
0.076021 0.530350 0.622521
0.099901 0.552464 0.643878
0.135846 0.578373 0.666590
0.228709 0.616146 0.697469
0.517538 0.681870 0.709865
0.842253 0.699147 0.639717
0.109870 0.651732 0.693578
0.136883 0.678927 0.715439
0.177583 0.704036 0.736315
0.263315 0.739676 0.763610
0.462570 0.797252 0.797323
0.876190 0.895410 0.775626
