example_ofxGpuLutCube/bin/data/ofxGpuLutCube/LUT/A7 (teal faded_1).cube
LUT_3D_SIZE 16
0.000000 0.000000 0.000000
0.000000 0.000000 0.000000
0.001327 0.000213 0.000205
0.026506 0.002873 0.002274
0.075400 0.005789 0.004298
0.142335 0.009729 0.005513
0.218784 0.014675 0.006022
0.295203 0.020924 0.004889
0.367537 0.027910 0.002421
0.439899 0.037835 0.000198
0.509608 0.052176 0.000126
0.584747 0.066986 0.000031
0.664556 0.082172 0.000031
0.746909 0.098287 0.000031
0.786458 0.105940 0.000031
0.786458 0.105940 0.000031
0.000000 0.000000 0.000000
0.000000 0.000000 0.000000
0.001327 0.000213 0.000205
0.026530 0.002839 0.002275
0.075214 0.005766 0.004310
0.142010 0.009686 0.005525
0.218272 0.014635 0.006024
0.294728 0.020894 0.004889
0.367432 0.027890 0.002433
0.439782 0.037847 0.000198
0.509664 0.052180 0.000126
0.585039 0.067029 0.000031
0.665161 0.082302 0.000031
0.747679 0.098443 0.000031
0.786458 0.105940 0.000031
0.786458 0.105940 0.000031
0.000358 0.001455 0.000330
0.000351 0.001467 0.000323
0.002363 0.001458 0.000375
0.027132 0.002567 0.002390
0.071529 0.006319 0.004319
0.132947 0.012100 0.005808
0.203677 0.018305 0.006616
0.278147 0.025345 0.006228
0.354413 0.032953 0.004187
0.431192 0.042679 0.000811
0.505806 0.055654 0.000169
0.582738 0.069183 0.000031
0.660648 0.083745 0.000031
0.741197 0.098576 0.000031
0.789481 0.107581 0.000031
0.789709 0.107629 0.000031
0.004105 0.030053 0.004176
0.004093 0.030037 0.004164
0.010517 0.030721 0.005147
0.032841 0.021917 0.005214
0.073621 0.020455 0.006411
0.132914 0.028775 0.008234
0.200989 0.039527 0.009856
0.272358 0.052116 0.010407
0.346608 0.064976 0.010392
0.423737 0.076729 0.009593
0.505361 0.085745 0.007457
0.589993 0.094867 0.004062
0.675497 0.104435 0.001392
0.757587 0.116342 0.000567
0.811432 0.124297 0.000031
0.811981 0.124392 0.000031
0.007884 0.082125 0.007884
0.007888 0.082061 0.007888
0.011904 0.082320 0.009565
0.058403 0.085653 0.012811
0.088168 0.061848 0.011421
0.141396 0.055701 0.011781
0.207893 0.066331 0.013103
0.278415 0.079950 0.014448
0.351903 0.093726 0.015540
0.428836 0.107374 0.016079
0.511441 0.120796 0.016119
0.598627 0.134331 0.015604
0.688944 0.147980 0.014448
0.781405 0.159665 0.012476
0.841679 0.165704 0.010398
0.842313 0.165766 0.010380
0.012258 0.153112 0.012253
0.012242 0.152978 0.012237
0.015803 0.152138 0.014227
0.064390 0.156590 0.018869
0.139839 0.156804 0.019728
0.162202 0.118487 0.017189
0.221457 0.108984 0.017281
0.291690 0.116452 0.018623
0.365557 0.130949 0.020208
0.444211 0.145327 0.021521
0.528680 0.159117 0.022283
0.618474 0.172617 0.022508
0.711950 0.186064 0.022230
0.808162 0.199590 0.021547
0.870994 0.208624 0.020837
0.871651 0.208711 0.020826
0.017050 0.234429 0.017050
0.017041 0.234238 0.017041
0.020594 0.233672 0.020301
0.065012 0.238945 0.026841
0.155044 0.240527 0.026629
0.230308 0.236068 0.027617
0.245957 0.186127 0.024016
0.308399 0.173347 0.023976
0.382558 0.175963 0.024959
0.462943 0.189823 0.026698
0.550183 0.203828 0.028082
0.643354 0.217194 0.028890
0.741024 0.230106 0.029319
0.841335 0.243095 0.029146
0.898022 0.251134 0.028900
0.898290 0.251204 0.028899
0.021974 0.317553 0.021974
0.021984 0.317459 0.021984
0.026370 0.319301 0.026370
0.060230 0.327784 0.036768
0.159323 0.325696 0.033917
0.260242 0.331960 0.035517
0.322230 0.315148 0.035370
0.333842 0.258620 0.031260
0.399486 0.245207 0.031249
0.479527 0.242158 0.031914
0.568301 0.253022 0.033507
0.663846 0.266151 0.034982
0.764878 0.278617 0.035905
0.869805 0.290876 0.036297
0.905950 0.296125 0.036503
0.905957 0.296154 0.036509
0.026735 0.398923 0.026735
0.026845 0.399073 0.026845
0.033396 0.405791 0.033396
0.055843 0.418307 0.046564
0.159323 0.414598 0.042338
0.265615 0.418819 0.042578
0.369490 0.427196 0.044821
0.415228 0.394179 0.043159
0.424438 0.332282 0.038581
0.496603 0.317161 0.038572
0.585546 0.309930 0.039047
0.681876 0.314908 0.040178
0.784662 0.327143 0.041646
0.891274 0.339311 0.042644
0.912555 0.343454 0.042994
0.912560 0.343481 0.042998
0.032334 0.485424 0.032334
0.032526 0.485710 0.032526
0.040565 0.495461 0.040565
0.057646 0.508855 0.054556
0.154887 0.507694 0.052253
0.266213 0.510367 0.050399
0.375129 0.519425 0.052135
0.482222 0.525257 0.054431
0.512443 0.471782 0.050929
0.520686 0.403273 0.045835
0.600579 0.385862 0.045743
0.697073 0.375392 0.046029
0.799331 0.373949 0.046623
0.906672 0.385226 0.047968
0.917990 0.388709 0.048362
0.917996 0.388728 0.048364
0.038883 0.575764 0.038883
0.039087 0.576235 0.039087
0.047425 0.589896 0.047425
0.062024 0.604239 0.062024
0.138317 0.610523 0.066137
0.259800 0.608880 0.059658
0.371776 0.617443 0.060145
0.492020 0.629590 0.062669
0.602924 0.628517 0.064580
0.615397 0.550390 0.058876
0.620792 0.471896 0.052940
0.707478 0.451822 0.052720
0.809657 0.439113 0.052859
0.914901 0.430356 0.052754
0.922040 0.431530 0.052903
0.922040 0.431560 0.052902
0.045508 0.669943 0.045508
0.045715 0.670515 0.045715
0.053923 0.687695 0.053923
0.068105 0.702683 0.068105
0.109521 0.721864 0.083958
0.244907 0.714357 0.071169
0.362418 0.721150 0.069206
0.483902 0.733163 0.070851
0.622724 0.745519 0.073915
0.719682 0.724709 0.074132
0.721182 0.628689 0.066859
0.722753 0.539940 0.060018
0.815276 0.517282 0.059653
0.919948 0.502078 0.059612
0.926748 0.488881 0.058465
0.926742 0.488743 0.058452
0.052106 0.765893 0.052106
0.052313 0.766549 0.052313
0.060363 0.786787 0.060363
0.074020 0.803798 0.074020
0.096915 0.828459 0.094335
0.222076 0.825928 0.085167
0.346464 0.829856 0.079900
0.470344 0.840709 0.079856
0.610960 0.853731 0.082273
0.761137 0.861630 0.085367
0.834767 0.817237 0.083360
0.827232 0.705870 0.074740
0.825156 0.607893 0.067118
0.920491 0.582862 0.066563
0.932289 0.568193 0.065522
0.932275 0.568019 0.065506
0.058849 0.862722 0.058849
0.059059 0.863474 0.059059
0.066826 0.887029 0.066826
0.080069 0.906240 0.080069
0.099232 0.929342 0.099232
0.177309 0.947115 0.108034
0.324508 0.941193 0.093524
0.452549 0.949293 0.089737
0.593386 0.960132 0.090816
0.747211 0.970437 0.094674
0.895341 0.969926 0.096142
0.940125 0.900854 0.091738
0.929413 0.781681 0.082450
0.923500 0.674547 0.074030
0.937518 0.654002 0.072630
0.937502 0.653834 0.072614
0.063094 0.925263 0.063094
0.063305 0.926009 0.063305
0.071018 0.950035 0.071018
0.084165 0.969109 0.084165
0.104675 0.990906 0.104675
0.182562 0.999344 0.149072
0.310190 0.998587 0.101090
0.440629 0.994142 0.094170
0.581107 0.994586 0.093666
0.735019 0.997820 0.096661
0.889292 0.993291 0.114809
0.950043 0.992319 0.133213
0.949518 0.907004 0.092403
0.944287 0.785805 0.083081
0.940650 0.712866 0.077350
0.940601 0.712141 0.077292
0.063135 0.925909 0.063135
0.063347 0.926652 0.063347
0.071064 0.950681 0.071064
0.084209 0.969762 0.084209
0.104850 0.991476 0.104850
0.183349 0.999349 0.150002
0.310112 0.998590 0.101101
0.440514 0.994144 0.094172
0.580956 0.994585 0.093666
0.734870 0.997815 0.096657
0.889128 0.993299 0.114748
0.949966 0.992328 0.134293
0.949571 0.908307 0.092504
0.944341 0.787054 0.083180
0.940678 0.713544 0.077403
0.940627 0.712781 0.077341
0.000000 0.000000 0.000000
0.000000 0.000000 0.000000
0.001325 0.000211 0.000204
0.026518 0.002867 0.002278
0.075345 0.005790 0.004295
0.142252 0.009715 0.005509
0.218644 0.014663 0.006024
0.295101 0.020909 0.004899
0.367466 0.027900 0.002429
0.439759 0.037855 0.000198
0.509567 0.052135 0.000126
0.584712 0.066945 0.000031
0.664426 0.082167 0.000031
0.746814 0.098262 0.000031
0.786458 0.105940 0.000031
0.786458 0.105940 0.000031
0.000000 0.000000 0.000000
0.000000 0.000000 0.000000
0.001335 0.000213 0.000205
0.026590 0.002842 0.002283
0.075259 0.005774 0.004307
0.142038 0.009681 0.005522
0.218233 0.014630 0.006026
0.294701 0.020885 0.004898
0.367414 0.027887 0.002438
0.439704 0.037875 0.000198
0.509692 0.052157 0.000126
0.585089 0.067007 0.000031
0.665124 0.082315 0.000031
0.747681 0.098436 0.000031
0.786458 0.105940 0.000031
0.786458 0.105940 0.000031
0.000351 0.001461 0.000324
0.000345 0.001478 0.000317
0.002367 0.001488 0.000378
0.027636 0.002658 0.002431
0.072770 0.006383 0.004348
0.134502 0.012072 0.005813
0.205210 0.018234 0.006591
0.279429 0.025286 0.006146
0.355498 0.032910 0.004104
0.432123 0.042695 0.000779
0.506726 0.055738 0.000166
0.583965 0.069336 0.000031
0.662435 0.083996 0.000031
0.743771 0.099002 0.000031
0.789380 0.107511 0.000031
0.789591 0.107555 0.000031
0.004104 0.030052 0.004174
0.004097 0.030067 0.004168
0.010278 0.031050 0.005134
0.033016 0.022044 0.005239
0.074331 0.020509 0.006425
0.134107 0.028845 0.008249
0.202360 0.039658 0.009843
0.273766 0.052292 0.010388
0.347980 0.065013 0.010341
0.425171 0.076620 0.009487
0.507004 0.085597 0.007289
0.591888 0.094728 0.003888
0.677575 0.104448 0.001327
0.760160 0.116468 0.000531
0.812424 0.124179 0.000031
0.812934 0.124267 0.000031
0.007898 0.082085 0.007898
0.007905 0.082078 0.007905
0.011770 0.082923 0.009517
0.058065 0.086122 0.012833
0.088438 0.062027 0.011442
0.142020 0.055760 0.011779
0.208842 0.066439 0.013122
0.279503 0.080113 0.014459
0.353081 0.093934 0.015549
0.430188 0.107626 0.016093
0.513059 0.121057 0.016113
0.600668 0.134566 0.015570
0.691458 0.147933 0.014289
0.784535 0.159426 0.012166
0.843790 0.165236 0.010057
0.844381 0.165293 0.010040
0.012258 0.153091 0.012252
0.012245 0.153018 0.012240
0.015659 0.152843 0.014177
0.063555 0.157240 0.018912
0.139600 0.157278 0.019761
0.162468 0.118712 0.017212
0.221936 0.109085 0.017295
0.292341 0.116699 0.018644
0.366332 0.131250 0.020244
0.445097 0.145658 0.021552
0.529801 0.159437 0.022315
0.619923 0.172905 0.022522
0.713848 0.186308 0.022216
0.810628 0.199780 0.021480
0.872193 0.208605 0.020776
0.872807 0.208688 0.020766
0.017048 0.234397 0.017048
0.017041 0.234255 0.017041
0.020504 0.234259 0.020230
0.064003 0.239614 0.026905
0.154312 0.241034 0.026666
0.230407 0.236641 0.027662
0.246174 0.186457 0.024047
0.308701 0.173595 0.024000
0.382940 0.176377 0.024998
0.463427 0.190264 0.026743
0.550832 0.204253 0.028128
0.644219 0.217581 0.028941
0.742179 0.230454 0.029352
0.842892 0.243400 0.029155
0.898060 0.251222 0.028918
0.898311 0.251288 0.028918
0.021972 0.317557 0.021972
0.021983 0.317491 0.021983
0.026333 0.319717 0.026333
0.059372 0.328283 0.036793
0.158441 0.326149 0.033963
0.259672 0.332280 0.035534
0.322303 0.315640 0.035409
0.333986 0.259016 0.031292
0.399704 0.245502 0.031276
0.479894 0.242514 0.031950
0.568834 0.253430 0.033551
0.664543 0.266530 0.035024
0.765750 0.278966 0.035941
0.870887 0.291205 0.036328
0.905991 0.296352 0.036538
0.905998 0.296381 0.036544
0.026734 0.398923 0.026734
0.026843 0.399100 0.026843
0.033357 0.406193 0.033357
0.055479 0.418631 0.046493
0.158359 0.415010 0.042402
0.264882 0.419122 0.042596
0.368979 0.427434 0.044831
0.415421 0.394774 0.043209
0.424601 0.332655 0.038615
0.496876 0.317439 0.038600
0.585971 0.310200 0.039074
0.682489 0.315287 0.040221
0.785435 0.327489 0.041686
0.892155 0.339630 0.042675
0.912586 0.343690 0.043024
0.912591 0.343717 0.043027
0.032326 0.485403 0.032326
0.032516 0.485722 0.032516
0.040516 0.495927 0.040516
0.057399 0.509294 0.054506
0.153662 0.508281 0.052397
0.265308 0.510767 0.050439
0.374376 0.519723 0.052149
0.481840 0.525617 0.054451
0.512670 0.472414 0.050981
0.520877 0.403641 0.045866
0.600894 0.386126 0.045771
0.697541 0.375593 0.046050
0.799986 0.374285 0.046661
0.907041 0.385518 0.048000
0.918012 0.388968 0.048390
0.918017 0.388988 0.048392
0.038863 0.575889 0.038863
0.039065 0.576392 0.039065
0.047366 0.590464 0.047366
0.061923 0.604772 0.061923
0.136462 0.611479 0.066514
0.258726 0.609441 0.059738
0.370905 0.617870 0.060174
0.491236 0.629929 0.062684
0.602706 0.629034 0.064616
0.615668 0.551051 0.058930
0.621007 0.472272 0.052973
0.707828 0.452075 0.052745
0.810182 0.439290 0.052880
0.915018 0.430576 0.052778
0.922067 0.431805 0.052932
0.922067 0.431836 0.052931
0.045481 0.670251 0.045481
0.045687 0.670859 0.045687
0.053869 0.688438 0.053869
0.068024 0.703388 0.068024
0.108661 0.722512 0.083915
0.243630 0.715152 0.071313
0.361421 0.721772 0.069271
0.483003 0.733669 0.070885
0.621993 0.745975 0.073939
0.719860 0.725537 0.074198
0.721495 0.629388 0.066916
0.723011 0.540318 0.060052
0.815664 0.517542 0.059681
0.920082 0.502212 0.059626
0.926751 0.488954 0.058474
0.926744 0.488815 0.058461
0.052086 0.766509 0.052086
0.052293 0.767180 0.052293
0.060311 0.787686 0.060311
0.073933 0.804614 0.073933
0.096557 0.829062 0.094148
0.220263 0.827003 0.085495
0.345242 0.830659 0.080022
0.469309 0.841397 0.079915
0.610040 0.854324 0.082309
0.760531 0.862240 0.085402
0.835079 0.818186 0.083438
0.827628 0.706612 0.074804
0.825456 0.608281 0.067152
0.920899 0.583158 0.066597
0.932310 0.568404 0.065542
0.932297 0.568230 0.065527
0.058863 0.863311 0.058863
0.059070 0.864084 0.059070
0.066775 0.887941 0.066775
0.079941 0.907151 0.079941
0.099011 0.930086 0.099011
0.175374 0.948257 0.108371
0.323048 0.942096 0.093705
0.451330 0.950059 0.089824
0.592282 0.960815 0.090866
0.746347 0.971055 0.094710
0.895001 0.970567 0.096185
0.940368 0.902009 0.091831
0.929853 0.782475 0.082520
0.923876 0.674996 0.074072
0.937537 0.654319 0.072656
0.937521 0.654150 0.072640
0.063123 0.925754 0.063123
0.063331 0.926526 0.063331
0.070960 0.950944 0.070960
0.083971 0.969772 0.083971
0.104384 0.991207 0.104384
0.181239 0.999336 0.148918
0.308712 0.998615 0.101359
0.439342 0.994163 0.094198
0.579910 0.994568 0.093659
0.734047 0.997795 0.096645
0.888555 0.993329 0.114630
0.950038 0.992319 0.133285
0.949551 0.907978 0.092477
0.944317 0.786446 0.083130
0.940680 0.713265 0.077383
0.940633 0.712538 0.077324
0.063165 0.926401 0.063165
0.063373 0.927171 0.063373
0.071006 0.951589 0.071006
0.084013 0.970398 0.084013
0.104547 0.991743 0.104547
0.181966 0.999340 0.149786
0.308632 0.998619 0.101370
0.439226 0.994166 0.094201
0.579758 0.994568 0.093659
0.733896 0.997790 0.096641
0.888395 0.993337 0.114572
0.949966 0.992328 0.134293
0.949604 0.909284 0.092579
0.944372 0.787697 0.083229
0.940710 0.713942 0.077436
0.940659 0.713178 0.077374
0.000083 0.000150 0.000320
0.000079 0.000152 0.000318
0.001734 0.000272 0.000574
0.026434 0.002984 0.003466
0.074099 0.005861 0.006462
0.139910 0.009743 0.008391
0.214845 0.014747 0.009871
0.292168 0.021014 0.009119
0.365827 0.028470 0.007594
0.441501 0.037172 0.003843
0.512897 0.051124 0.001437
0.588427 0.065682 0.000183
0.665683 0.081658 0.000031
0.746386 0.097898 0.000031
0.788868 0.106290 0.000031
0.788864 0.106292 0.000031
0.000079 0.000152 0.000318
0.000076 0.000154 0.000318
0.001843 0.000304 0.000661
0.027150 0.003054 0.003546
0.075409 0.005927 0.006444
0.141312 0.009807 0.008334
0.215925 0.014830 0.009744
0.292883 0.021079 0.009052
0.366558 0.028542 0.007484
0.442325 0.037340 0.003748
0.514013 0.051360 0.001414
0.590012 0.066017 0.000178
0.667703 0.082054 0.000031
0.748576 0.098337 0.000031
0.788852 0.106296 0.000031
0.788847 0.106298 0.000031
0.000352 0.001934 0.000812
0.000349 0.002007 0.000839
0.002269 0.002417 0.001271
0.035162 0.004053 0.004084
0.089470 0.007798 0.005849
0.155969 0.011818 0.006938
0.226402 0.016949 0.007430
0.298895 0.023256 0.006728
0.373004 0.031003 0.004369
0.448350 0.041154 0.001508
0.523895 0.055067 0.000536
0.604176 0.070473 0.000031
0.690122 0.087251 0.000031
0.781452 0.105165 0.000031
0.790563 0.106868 0.000031
0.790560 0.106869 0.000031
0.003865 0.030337 0.004536
0.003935 0.030734 0.004607
0.005786 0.034900 0.005342
0.034404 0.027530 0.006651
0.085343 0.027392 0.007471
0.152548 0.036082 0.009581
0.223220 0.047027 0.010490
0.294951 0.056209 0.010258
0.369386 0.065055 0.009403
0.447921 0.073158 0.007213
0.532445 0.081406 0.003902
0.619062 0.091251 0.001236
0.706579 0.103456 0.000298
0.795785 0.117178 0.000031
0.825194 0.121841 0.000031
0.825178 0.121822 0.000031
0.008094 0.081323 0.009075
0.008133 0.082070 0.009087
0.009049 0.090623 0.009240
0.044314 0.092349 0.012778
0.092406 0.070738 0.012240
0.152152 0.064887 0.012599
0.223451 0.077058 0.014263
0.296567 0.091458 0.015782
0.371931 0.106155 0.017045
0.451905 0.119840 0.017620
0.538526 0.131404 0.017303
0.630577 0.139690 0.015312
0.727574 0.147606 0.012102
0.828802 0.154894 0.007491
0.873125 0.158227 0.005137
0.873112 0.158208 0.005127
0.012408 0.152050 0.013516
0.012436 0.152807 0.013511
0.013332 0.161940 0.013819
0.042608 0.165199 0.018807
0.125897 0.164593 0.020118
0.166301 0.129266 0.018127
0.229694 0.118352 0.018306
0.303075 0.130578 0.020034
0.379231 0.145966 0.021861
0.460631 0.160419 0.023311
0.548696 0.174056 0.024173
0.643219 0.187043 0.024410
0.743273 0.199858 0.023983
0.847667 0.212041 0.022712
0.891487 0.217869 0.022217
0.891497 0.217865 0.022221
0.017341 0.232853 0.018471
0.017357 0.233393 0.018452
0.019065 0.241410 0.019230
0.040701 0.248136 0.027360
0.130044 0.247361 0.027032
0.224156 0.246231 0.028273
0.249484 0.198598 0.025073
0.314366 0.185310 0.025054
0.391420 0.192259 0.026612
0.474524 0.206676 0.028462
0.564606 0.220094 0.029948
0.660673 0.232909 0.030925
0.762205 0.245289 0.031310
0.867566 0.257903 0.031079
0.900914 0.263669 0.031376
0.900923 0.263686 0.031383
0.022346 0.316633 0.023191
0.022352 0.316959 0.023167
0.025293 0.324898 0.025293
0.042416 0.334595 0.036608
0.131068 0.332132 0.034706
0.237440 0.335610 0.035491
0.320026 0.328143 0.036310
0.337149 0.272106 0.032412
0.405956 0.256359 0.032277
0.490372 0.256984 0.033364
0.582560 0.268947 0.035169
0.681088 0.281181 0.036655
0.784119 0.293250 0.037660
0.890353 0.305670 0.038177
0.908425 0.310948 0.038898
0.908425 0.310972 0.038900
0.027390 0.398129 0.027899
0.027413 0.398677 0.027888
0.031729 0.411301 0.031729
0.046630 0.422889 0.044844
0.127408 0.421567 0.044089
0.239032 0.422957 0.042716
0.348311 0.430144 0.044690
0.416209 0.409250 0.044342
0.429269 0.345601 0.039766
0.505691 0.327847 0.039606
0.599079 0.321027 0.040192
0.699295 0.329747 0.041769
0.804343 0.341543 0.043221
0.908162 0.354506 0.044739
0.914966 0.358623 0.045327
0.914968 0.358661 0.045329
0.032514 0.484299 0.032542
0.032605 0.485069 0.032632
0.038258 0.501863 0.038258
0.052414 0.514734 0.052414
0.115306 0.518733 0.056663
0.235577 0.516389 0.051151
0.347981 0.523174 0.052082
0.463675 0.531676 0.054582
0.516859 0.490771 0.052478
0.526850 0.416696 0.046997
0.611129 0.396448 0.046772
0.711896 0.385101 0.047058
0.817676 0.387958 0.048116
0.914909 0.401115 0.050296
0.920208 0.404546 0.050707
0.920213 0.404573 0.050710
0.037573 0.577137 0.037573
0.037775 0.578009 0.037775
0.045295 0.597309 0.045295
0.059358 0.610686 0.059358
0.095753 0.624497 0.072342
0.225117 0.617469 0.061577
0.341749 0.623141 0.060484
0.462092 0.633254 0.062498
0.587376 0.637122 0.064938
0.620731 0.570345 0.060507
0.627535 0.485788 0.054153
0.717880 0.462694 0.053763
0.823778 0.447897 0.053770
0.919079 0.445439 0.054897
0.924052 0.448114 0.055157
0.924051 0.448139 0.055159
0.044230 0.673183 0.044230
0.044426 0.674231 0.044426
0.052246 0.696447 0.052246
0.065974 0.711226 0.065974
0.088709 0.730729 0.083427
0.206951 0.726024 0.074465
0.330399 0.729080 0.070244
0.451761 0.738875 0.071026
0.591143 0.750177 0.073780
0.715555 0.743856 0.075502
0.726400 0.649487 0.068531
0.728775 0.554500 0.061262
0.824332 0.528966 0.060750
0.923515 0.512742 0.061089
0.928078 0.499768 0.059975
0.928070 0.499655 0.059965
0.051084 0.772127 0.051084
0.051278 0.773368 0.051278
0.058999 0.799653 0.058999
0.072242 0.815802 0.072242
0.090570 0.836899 0.090570
0.171431 0.846131 0.094079
0.311002 0.842194 0.082466
0.437100 0.849551 0.080664
0.576264 0.860528 0.082373
0.731239 0.868788 0.085390
0.834627 0.839565 0.085055
0.832718 0.727850 0.076527
0.830192 0.623407 0.068407
0.926680 0.596796 0.067992
0.933497 0.580863 0.066877
0.933487 0.580689 0.066861
0.057711 0.874857 0.057711
0.057922 0.876246 0.057922
0.065752 0.905111 0.065752
0.078506 0.922195 0.078506
0.096274 0.943090 0.096274
0.137445 0.966166 0.113083
0.286697 0.957674 0.096594
0.418507 0.962041 0.091474
0.558316 0.970749 0.091495
0.714800 0.979178 0.094866
0.871375 0.979743 0.096471
0.944045 0.931453 0.094253
0.936566 0.806546 0.084575
0.929794 0.692910 0.075589
0.938605 0.670706 0.074114
0.938594 0.670529 0.074100
0.062133 0.940720 0.062133
0.062335 0.942128 0.062335
0.069734 0.967159 0.069734
0.081914 0.979940 0.081914
0.101351 0.996045 0.101351
0.153090 0.999172 0.148170
0.274987 0.999316 0.108411
0.407186 0.994807 0.095081
0.546894 0.994262 0.093606
0.702180 0.997107 0.096045
0.859695 0.994865 0.108361
0.949777 0.992335 0.135055
0.950666 0.937292 0.095688
0.945575 0.810304 0.085071
0.941931 0.732867 0.079025
0.941895 0.732123 0.078968
0.062179 0.941381 0.062179
0.062381 0.942789 0.062381
0.069759 0.967526 0.069759
0.081918 0.979975 0.081918
0.101343 0.996041 0.101343
0.152997 0.999172 0.148180
0.274903 0.999318 0.108425
0.407076 0.994808 0.095083
0.546765 0.994261 0.093605
0.702034 0.997104 0.096040
0.859581 0.994871 0.108339
0.949772 0.992335 0.135050
0.950711 0.938635 0.095852
0.945633 0.811607 0.085172
0.941971 0.733556 0.079080
0.941933 0.732772 0.079020
0.000829 0.004016 0.007878
0.000830 0.003991 0.007822
0.001577 0.003710 0.009149
0.027850 0.003985 0.026722
0.075713 0.006734 0.031627
0.140146 0.010606 0.036832
0.214096 0.015591 0.041688
0.290407 0.022074 0.043726
0.365413 0.029280 0.044897
0.440453 0.038230 0.042384
0.521026 0.048446 0.035956
0.606471 0.059446 0.026650
0.696128 0.071409 0.014414
0.781716 0.086981 0.004645
0.822924 0.097878 0.003105
0.823054 0.097913 0.003099
0.000832 0.003993 0.007824
0.000836 0.003979 0.007793
0.001602 0.003856 0.009440
0.028518 0.004054 0.027350
0.076928 0.006827 0.031982
0.141523 0.010707 0.036984
0.215232 0.015696 0.041702
0.291257 0.022141 0.043756
0.366174 0.029368 0.044863
0.441440 0.038343 0.042309
0.522393 0.048615 0.035898
0.608340 0.059700 0.026647
0.698354 0.071714 0.014346
0.783892 0.087417 0.004626
0.822935 0.097879 0.003106
0.823054 0.097913 0.003099
0.001714 0.009077 0.011656
0.001754 0.009304 0.012021
0.002058 0.009777 0.016901
0.034503 0.005616 0.033641
0.091101 0.008148 0.033730
0.157618 0.011926 0.035431
0.227989 0.017049 0.037667
0.300014 0.023599 0.038656
0.374317 0.031148 0.038146
0.452335 0.040335 0.034391
0.536666 0.051076 0.028151
0.627635 0.062756 0.019920
0.724748 0.076275 0.010599
0.817726 0.094374 0.004432
0.828280 0.096661 0.004435
0.828252 0.096673 0.004444
0.005197 0.033076 0.017499
0.005245 0.033448 0.017722
0.006004 0.037077 0.021715
0.033511 0.035797 0.029957
0.104720 0.027558 0.023775
0.184076 0.026260 0.017688
0.258404 0.030998 0.016819
0.332805 0.038236 0.015014
0.407763 0.046646 0.011648
0.484964 0.055796 0.006804
0.561854 0.067644 0.003620
0.641070 0.081085 0.001858
0.724801 0.095158 0.000200
0.807460 0.111157 0.000031
0.828133 0.116521 0.000890
0.828106 0.116516 0.000883
0.008918 0.082586 0.026006
0.008946 0.083197 0.026041
0.009245 0.090907 0.026680
0.022497 0.099640 0.020175
0.092759 0.081277 0.028743
0.174410 0.075094 0.017027
0.255099 0.084221 0.016483
0.334371 0.094805 0.016780
0.412623 0.102920 0.016483
0.493862 0.110580 0.015211
0.579658 0.117225 0.012490
0.670171 0.124430 0.008984
0.763868 0.132368 0.005007
0.855115 0.143008 0.002225
0.873413 0.154563 0.006862
0.873403 0.154549 0.006851
0.013287 0.151912 0.035576
0.013322 0.152619 0.035455
0.013772 0.161818 0.033641
0.019607 0.177091 0.019609
0.100670 0.171020 0.026114
0.171810 0.142898 0.030367
0.251270 0.131892 0.021486
0.335271 0.142405 0.021534
0.417424 0.155446 0.023065
0.501303 0.168820 0.024215
0.591089 0.180632 0.024816
0.685634 0.190720 0.024352
0.784020 0.198025 0.022475
0.881258 0.206596 0.020415
0.893996 0.219972 0.025996
0.893992 0.219945 0.025993
0.018392 0.232103 0.043504
0.018428 0.232671 0.043340
0.018930 0.242352 0.038844
0.023297 0.260866 0.024426
0.088310 0.260843 0.028814
0.206373 0.251359 0.036242
0.255925 0.213576 0.035569
0.336358 0.197637 0.027770
0.423709 0.205824 0.028158
0.512900 0.217585 0.029667
0.606112 0.229240 0.030968
0.703806 0.240936 0.031772
0.805170 0.252934 0.032013
0.898277 0.269301 0.033433
0.906845 0.284385 0.038965
0.906842 0.284409 0.038968
0.023881 0.315975 0.049412
0.023899 0.316327 0.049314
0.024344 0.327670 0.041305
0.028701 0.347763 0.029573
0.078197 0.353047 0.038882
0.204394 0.343798 0.037333
0.312204 0.337906 0.043310
0.344065 0.287802 0.042467
