example_ofxGpuLutCube/bin/data/ofxGpuLutCube/LUT/A7 (teal faded_1).cube
LUT_3D_SIZE 6
0.000000 0.000000 0.000000
0.026506 0.002873 0.002274
0.218784 0.014675 0.006022
0.439899 0.037835 0.000198
0.664556 0.082172 0.000031
0.786458 0.105940 0.000031
0.004105 0.030053 0.004176
0.032841 0.021917 0.005214
0.200989 0.039527 0.009856
0.423737 0.076729 0.009593
0.675497 0.104435 0.001392
0.811981 0.124392 0.000031
0.017050 0.234429 0.017050
0.065012 0.238945 0.026841
0.245957 0.186127 0.024016
0.462943 0.189823 0.026698
0.741024 0.230106 0.029319
0.898290 0.251204 0.028899
0.032334 0.485424 0.032334
0.057646 0.508855 0.054556
0.375129 0.519425 0.052135
0.520686 0.403273 0.045835
0.799331 0.373949 0.046623
0.917996 0.388728 0.048364
0.052106 0.765893 0.052106
0.074020 0.803798 0.074020
0.346464 0.829856 0.079900
0.761137 0.861630 0.085367
0.825156 0.607893 0.067118
0.932275 0.568019 0.065506
0.063135 0.925909 0.063135
0.084209 0.969762 0.084209
0.310112 0.998590 0.101101
0.734870 0.997815 0.096657
0.949571 0.908307 0.092504
0.940627 0.712781 0.077341
0.000829 0.004016 0.007878
0.027850 0.003985 0.026722
0.214096 0.015591 0.041688
0.440453 0.038230 0.042384
0.696128 0.071409 0.014414
0.823054 0.097913 0.003099
0.005197 0.033076 0.017499
0.033511 0.035797 0.029957
0.258404 0.030998 0.016819
0.484964 0.055796 0.006804
0.724801 0.095158 0.000200
0.828106 0.116516 0.000883
0.018392 0.232103 0.043504
0.023297 0.260866 0.024426
0.255925 0.213576 0.035569
0.512900 0.217585 0.029667
0.805170 0.252934 0.032013
0.906842 0.284409 0.038968
0.035112 0.484448 0.057258
0.041287 0.527826 0.041287
0.310760 0.533633 0.052949
0.535708 0.434065 0.052747
0.857325 0.400006 0.049442
0.925805 0.428659 0.059390
0.052738 0.774666 0.052776
0.062332 0.823353 0.062332
0.250522 0.860094 0.087405
0.692543 0.872924 0.085717
0.845437 0.642232 0.070448
0.938224 0.601293 0.071989
0.060973 0.941851 0.060973
0.081284 0.979344 0.081284
0.245373 0.999826 0.128640
0.664025 0.999152 0.098944
0.953709 0.958408 0.111027
0.945777 0.755366 0.083512
0.005799 0.030734 0.062648
0.005779 0.030403 0.083050
0.224359 0.019662 0.215282
0.446292 0.042028 0.229343
0.703243 0.074119 0.207277
0.843436 0.091901 0.187930
0.009888 0.082485 0.101011
0.010877 0.087554 0.148615
0.260758 0.029208 0.248907
0.491384 0.055054 0.224643
0.756926 0.087220 0.191219
0.853553 0.109386 0.190085
0.022494 0.252436 0.137551
0.023155 0.279053 0.154614
0.248722 0.259146 0.236748
0.561005 0.229157 0.197607
0.893134 0.220847 0.151590
0.906370 0.269017 0.212278
0.037138 0.494658 0.168369
0.039052 0.543295 0.170396
0.177855 0.577078 0.189250
0.546069 0.492266 0.246965
0.919893 0.458237 0.162914
0.932072 0.495954 0.254758
0.054278 0.779316 0.212789
0.058109 0.839643 0.197256
0.096514 0.953067 0.102307
0.566354 0.897515 0.174241
0.857684 0.715434 0.220716
0.943500 0.665066 0.258561
0.065176 0.947689 0.209466
0.082766 0.981374 0.247024
0.204808 0.999572 0.305276
0.553407 1.000000 0.259675
0.954500 0.994587 0.342458
0.952611 0.832735 0.250231
0.009608 0.070488 0.139122
0.008083 0.051055 0.113075
0.149871 0.040850 0.446482
0.456465 0.048740 0.438529
0.717074 0.080040 0.418983
0.845367 0.095797 0.400613
0.014443 0.140350 0.189244
0.015569 0.146783 0.251818
0.111402 0.067236 0.512428
0.496387 0.059705 0.475537
0.767926 0.092146 0.427562
0.856470 0.114565 0.408938
0.026550 0.316653 0.299166
0.028811 0.345803 0.345932
0.124745 0.343887 0.469743
0.559910 0.215608 0.531300
0.894297 0.216963 0.461710
0.908868 0.273275 0.449597
0.041670 0.524014 0.286740
0.042329 0.575061 0.311562
0.175560 0.593503 0.413009
0.539982 0.551728 0.514547
0.925981 0.498541 0.450506
0.937410 0.536426 0.492718
0.057938 0.803766 0.287548
0.060187 0.865515 0.295020
0.093266 0.949407 0.382404
0.401828 0.936942 0.400143
0.868576 0.799082 0.472215
0.951148 0.766185 0.499153
0.068343 0.966755 0.312348
0.090830 0.989687 0.387390
0.213028 0.999679 0.522978
0.480624 1.000000 0.486365
0.928942 0.997252 0.554101
0.957805 0.920344 0.474226
0.013693 0.120651 0.238020
0.009587 0.068313 0.148362
0.021521 0.119185 0.588688
0.390921 0.069245 0.733881
0.718794 0.087658 0.687801
0.846278 0.102367 0.668509
0.018790 0.193634 0.283250
0.020755 0.210880 0.372061
0.019257 0.156232 0.555370
0.373037 0.090539 0.802888
0.765150 0.098095 0.730970
0.856658 0.120206 0.688739
0.031962 0.382658 0.427113
0.034888 0.418322 0.496456
0.042575 0.447121 0.743705
0.299260 0.286674 0.898773
0.888589 0.208999 0.845536
0.910844 0.275272 0.737322
0.047237 0.611592 0.544010
0.050386 0.652896 0.600922
0.060462 0.732080 0.750605
0.347443 0.653964 0.829895
0.924781 0.465464 0.876523
0.940233 0.528901 0.795152
0.062616 0.826003 0.435317
0.063261 0.889880 0.466818
0.099388 0.968296 0.581784
0.398555 0.943625 0.694847
0.864105 0.876151 0.821403
0.960050 0.872219 0.819605
0.076758 0.975475 0.418851
0.114873 0.999184 0.505839
0.274330 1.000000 0.605084
0.514431 1.000000 0.700527
0.851610 1.000000 0.830013
0.968512 0.999668 0.848115
0.016270 0.152672 0.303217
0.011406 0.089494 0.197255
0.018440 0.149769 0.521825
0.273170 0.103677 0.864095
0.715650 0.092619 0.847793
0.845406 0.107445 0.837872
0.021329 0.224377 0.342854
0.023819 0.248681 0.446050
0.019759 0.181170 0.524273
0.243324 0.138787 0.871510
0.731963 0.112774 0.858674
0.855285 0.123604 0.849965
0.035062 0.420543 0.502025
0.038363 0.460585 0.582446
0.061025 0.481588 0.755390
0.207107 0.366839 0.879655
0.773938 0.271185 0.909292
0.910895 0.274864 0.906625
0.050945 0.654741 0.640812
0.054256 0.698042 0.701592
0.090912 0.757346 0.811888
0.379586 0.685886 0.843211
0.798382 0.523827 0.937952
0.940859 0.517732 0.939069
0.068683 0.942414 0.664385
0.086024 0.963919 0.725472
0.160683 0.992250 0.822429
0.455952 0.966145 0.865605
0.812330 0.920389 0.945559
0.961485 0.861946 0.966670
0.079395 0.978537 0.527832
0.128033 0.999436 0.617045
0.306186 1.000000 0.713977
0.546352 1.000000 0.819064
0.880776 1.000000 0.944491
1.000000 1.000000 1.000000
