example_ofxGpuLutCube/bin/data/ofxGpuLutCube/LUT/A8 (cold bright contrasty).cube
LUT_3D_SIZE 6
-0.003367 -0.003556 0.000304
0.079068 -0.005115 0.004304
0.302680 -0.006861 0.009535
0.647289 -0.010709 0.017863
0.911282 -0.013705 0.026024
1.001127 -0.015279 0.030114
-0.005869 0.082385 0.007648
0.085876 0.085380 0.010329
0.308300 0.091231 0.015521
0.651265 0.102212 0.026565
0.911463 0.109027 0.032923
1.001078 0.111892 0.038467
-0.011029 0.315472 0.017856
0.097362 0.320311 0.022524
0.319004 0.324052 0.029125
0.655584 0.330424 0.039285
0.914328 0.339499 0.055351
1.000998 0.348817 0.065628
-0.018967 0.664937 0.038725
0.113404 0.666142 0.043385
0.337149 0.672962 0.061414
0.675420 0.682250 0.065286
0.919100 0.684014 0.064440
1.000890 0.685454 0.064483
0.007701 0.924207 0.065955
0.151280 0.925659 0.065390
0.365433 0.925927 0.064573
0.681389 0.926299 0.064992
0.922060 0.927377 0.068133
1.000829 0.927572 0.072664
0.047358 1.071751 0.067701
0.171128 1.071751 0.067375
0.381509 1.071751 0.066970
0.690166 1.071751 0.069288
0.923506 1.071751 0.080239
1.000902 1.071751 0.087697
-0.030648 -0.490543 0.126449
0.037282 -0.490544 0.130027
0.289016 -0.490550 0.135226
0.641431 -0.490565 0.143382
0.909306 -0.490590 0.150152
1.001040 -0.490603 0.152514
-0.006314 0.083373 0.133902
0.086701 0.086501 0.136627
0.309392 0.092519 0.141042
0.651540 0.103230 0.150031
0.911366 0.110260 0.156166
1.001068 0.113074 0.160529
-0.011616 0.316634 0.143299
0.100730 0.321270 0.147925
0.319697 0.324947 0.152523
0.655783 0.331117 0.161353
0.913923 0.342488 0.177357
1.000999 0.351912 0.183736
-0.019806 0.665567 0.160888
0.114227 0.666501 0.164358
0.340597 0.674788 0.182182
0.676433 0.682952 0.181956
0.919088 0.684449 0.181715
1.000881 0.685799 0.181586
0.018965 0.924476 0.182491
0.156554 0.924861 0.182438
0.366446 0.926096 0.181703
0.681733 0.926460 0.182036
0.922002 0.927718 0.186077
1.000830 0.927822 0.190681
0.049299 1.071751 0.180720
0.172976 1.071751 0.180189
0.382578 1.071751 0.179496
0.690575 1.071751 0.183017
0.923733 1.071751 0.194055
1.000900 1.071751 0.200087
-0.031685 -0.490544 0.354817
0.038924 -0.490547 0.356435
0.290973 -0.490553 0.360030
0.643020 -0.490573 0.366834
0.909557 -0.490599 0.371369
1.001024 -0.490591 0.373945
-0.007139 0.085253 0.350807
0.088125 0.088101 0.353545
0.311587 0.095348 0.356953
0.652246 0.105091 0.363914
0.913029 0.112753 0.370138
1.001064 0.115218 0.372619
-0.012628 0.319258 0.359138
0.101546 0.322306 0.362007
0.321271 0.326717 0.366321
0.656510 0.332684 0.373578
0.915836 0.349185 0.388495
1.000956 0.356850 0.388631
-0.021613 0.666348 0.373066
0.118677 0.668924 0.378572
0.347324 0.677707 0.389255
0.677360 0.683526 0.387429
0.919056 0.685143 0.387501
1.000877 0.686447 0.387373
0.032345 0.925352 0.387983
0.159250 0.925373 0.387791
0.368677 0.925921 0.387455
0.682596 0.926817 0.387897
0.921802 0.926716 0.393010
1.000825 0.928312 0.397405
0.052043 1.071751 0.374971
0.175479 1.071751 0.374660
0.384054 1.071751 0.373915
0.691323 1.071751 0.379609
0.923765 1.071751 0.387929
1.000886 1.071751 0.393893
-0.033354 -0.490546 0.671400
0.045245 -0.490550 0.673068
0.293938 -0.490560 0.674663
0.644780 -0.490584 0.678223
0.909502 -0.490593 0.680681
1.001010 -0.490610 0.681941
-0.008352 0.088321 0.660709
0.090219 0.092868 0.661971
0.315002 0.099590 0.664685
0.653407 0.108072 0.668149
0.912428 0.114339 0.670312
1.001058 0.118275 0.673324
-0.014047 0.321940 0.665578
0.103275 0.324921 0.666904
0.323376 0.328906 0.669449
0.659510 0.338820 0.675737
0.917165 0.356444 0.680034
1.000934 0.362529 0.679599
-0.024066 0.668823 0.674162
0.129018 0.673970 0.677735
0.356803 0.681056 0.679981
0.678722 0.684285 0.679272
0.920613 0.686161 0.679587
1.000858 0.687546 0.679319
0.040306 0.925587 0.679358
0.160867 0.926840 0.679409
0.370896 0.926432 0.679354
0.683970 0.927143 0.680153
0.921744 0.928394 0.683778
1.000827 0.928471 0.686710
0.056118 1.071751 0.664354
0.179266 1.071751 0.664341
0.385867 1.071751 0.664322
0.691743 1.071751 0.669591
0.925102 1.071751 0.675228
1.000876 1.071751 0.676836
-0.034759 -0.490548 0.905091
0.047235 -0.490553 0.904972
0.296350 -0.490563 0.906246
0.645724 -0.490594 0.907271
0.910989 -0.490606 0.908392
1.000998 -0.490623 0.908280
-0.009466 0.090874 0.896684
0.093940 0.093730 0.896740
0.316965 0.102074 0.898189
0.654489 0.110572 0.899233
0.914283 0.116452 0.899887
1.001036 0.126428 0.901582
-0.015100 0.323875 0.898329
0.105338 0.326884 0.899732
0.324659 0.330481 0.899509
0.663366 0.346116 0.902297
0.916897 0.360494 0.902354
1.000912 0.363960 0.902254
-0.023910 0.672024 0.901798
0.137358 0.677221 0.901798
0.362266 0.682607 0.902341
0.679868 0.685021 0.902254
0.920546 0.686978 0.902366
1.000854 0.688406 0.902493
0.043010 0.925849 0.902262
0.164101 0.925776 0.902263
0.372881 0.926462 0.902283
0.684996 0.927165 0.903062
0.921738 0.927346 0.903429
1.000822 0.928895 0.905203
0.058796 1.071751 0.894454
0.180536 1.071751 0.894374
0.388026 1.071751 0.894977
0.692166 1.071751 0.896759
0.924971 1.071751 0.898949
1.000870 1.071751 0.899010
-0.035580 -0.490550 1.003326
0.048558 -0.490555 1.003354
0.297608 -0.490568 1.003319
0.646017 -0.490599 1.003253
0.911125 -0.490614 1.003191
1.000989 -0.490629 1.003171
-0.010102 0.092306 1.000032
0.097224 0.096875 1.000032
0.317762 0.103312 1.000032
0.655086 0.111833 1.000032
0.912954 0.117865 1.000032
1.001022 0.130485 1.000032
-0.015652 0.324686 1.000032
0.106654 0.327485 1.000032
0.325304 0.331102 1.000032
0.665176 0.349167 1.000032
0.918226 0.363775 1.000032
1.000915 0.364372 1.000032
-0.022531 0.674333 1.000032
0.142221 0.679015 1.000032
0.363783 0.683235 1.000032
0.680466 0.685443 1.000032
0.920398 0.687363 1.000032
1.000845 0.688962 1.000032
0.044546 0.925960 1.000032
0.165402 0.925717 1.000032
0.373796 0.926582 1.000032
0.685445 0.927456 1.000032
0.921675 0.927559 1.000032
1.000816 0.928768 1.000032
0.052699 1.000011 1.000032
0.171718 1.000011 1.000032
0.378494 1.000011 1.000032
0.686923 1.000011 1.000032
0.923280 1.000011 1.000032
1.000803 1.000011 1.000032
