example_ofxGpuLutCube/bin/data/ofxGpuLutCube/LUT/A8 (cold bright contrasty).cube
LUT_3D_SIZE 16
-0.003367 -0.003556 0.000304
-0.020455 -0.004158 -0.001917
0.021558 -0.004729 0.002484
0.079068 -0.005115 0.004304
0.136365 -0.005449 0.005305
0.209837 -0.006007 0.008291
0.302680 -0.006861 0.009535
0.411533 -0.007905 0.011825
0.529498 -0.009164 0.014627
0.647289 -0.010709 0.017863
0.754891 -0.012235 0.021698
0.843713 -0.013176 0.025412
0.911282 -0.013705 0.026024
0.963766 -0.014327 0.026794
0.998346 -0.014919 0.029078
1.001127 -0.015279 0.030114
-0.004207 -0.021927 -0.001059
-0.020366 -0.021616 0.005222
0.029531 -0.021723 0.007193
0.081615 -0.021718 0.006989
0.138060 -0.022211 0.008716
0.213286 -0.022695 0.008695
0.304361 -0.022655 0.011266
0.413250 -0.022711 0.013813
0.530934 -0.022574 0.016950
0.648429 -0.021553 0.020556
0.756484 -0.017122 0.024117
0.845223 -0.013383 0.026648
0.911115 -0.016500 0.028595
0.963747 -0.010649 0.029337
0.998269 -0.007520 0.031530
1.001121 0.008725 0.032633
-0.005005 0.029475 0.005854
-0.020772 0.030396 0.006532
0.029880 0.033325 0.006440
0.082538 0.033391 0.008317
0.139684 0.033323 0.010741
0.213079 0.038550 0.011058
0.305942 0.038825 0.013144
0.414886 0.042363 0.015944
0.532430 0.046674 0.019341
0.649956 0.051408 0.023457
0.756785 0.055999 0.026588
0.843919 0.055537 0.028144
0.911567 0.059721 0.031247
0.963673 0.060609 0.032026
0.998586 0.061593 0.033972
1.001100 0.063064 0.035260
-0.005869 0.082385 0.007648
-0.021018 0.083300 0.008485
0.032596 0.083269 0.008324
0.085876 0.085380 0.010329
0.142081 0.087093 0.011882
0.216908 0.087333 0.014189
0.308300 0.091231 0.015521
0.416980 0.094433 0.018722
0.534441 0.098457 0.022706
0.651265 0.102212 0.026565
0.757751 0.105471 0.030019
0.845694 0.106129 0.031278
0.911463 0.109027 0.032923
0.963515 0.109586 0.035330
0.998662 0.110840 0.037121
1.001078 0.111892 0.038467
-0.007072 0.142710 0.009798
-0.021278 0.143659 0.010664
0.036786 0.143415 0.012068
0.087884 0.145640 0.012498
0.145105 0.147907 0.014139
0.217764 0.150258 0.016811
0.311314 0.151673 0.018956
0.419910 0.155323 0.022756
0.536417 0.158732 0.026437
0.652212 0.161247 0.029461
0.758550 0.162268 0.032052
0.845254 0.165172 0.035556
0.913066 0.167927 0.036849
0.964889 0.168427 0.039245
0.998725 0.169418 0.040793
1.001065 0.170214 0.042049
-0.008752 0.219014 0.012909
-0.021065 0.219927 0.014095
0.042018 0.221271 0.015027
0.092835 0.221771 0.015650
0.148826 0.222982 0.017668
0.221645 0.225804 0.021189
0.315368 0.228684 0.024071
0.422633 0.231149 0.027047
0.538322 0.233548 0.030347
0.653664 0.236076 0.033865
0.759340 0.238715 0.037206
0.847141 0.239438 0.038939
0.912452 0.241471 0.042781
0.964543 0.241422 0.043408
0.998628 0.243618 0.045799
1.001045 0.245865 0.049135
-0.011029 0.315472 0.017856
-0.019297 0.316562 0.019410
0.048170 0.317804 0.019842
0.097362 0.320311 0.022524
0.155269 0.319741 0.024491
0.227268 0.322161 0.026701
0.319004 0.324052 0.029125
0.425682 0.326056 0.032343
0.540702 0.328369 0.035926
0.655584 0.330424 0.039285
0.760457 0.332216 0.042534
0.847546 0.335731 0.047842
0.914328 0.339499 0.055351
0.965643 0.342864 0.059502
0.999050 0.346341 0.063890
1.000998 0.348817 0.065628
-0.013580 0.428484 0.025181
-0.009657 0.429620 0.026614
0.055843 0.429413 0.026987
0.104411 0.430256 0.029638
0.160082 0.432133 0.029638
0.231513 0.432724 0.032586
0.322727 0.434934 0.035582
0.428574 0.436440 0.038552
0.542850 0.437902 0.041579
0.658139 0.441726 0.049740
0.764569 0.449253 0.060030
0.852652 0.453300 0.065897
0.917010 0.457580 0.067119
0.966564 0.459921 0.066234
0.999219 0.461879 0.066008
1.000945 0.463281 0.065518
-0.016092 0.547606 0.031413
0.015353 0.548191 0.032739
0.061183 0.548646 0.034693
0.107513 0.549040 0.035463
0.165562 0.549957 0.037543
0.237234 0.550863 0.037901
0.325673 0.552387 0.041711
0.433317 0.555533 0.049611
0.551064 0.561253 0.061442
0.666887 0.566673 0.066622
0.771007 0.569985 0.065803
0.855167 0.572978 0.066055
0.918245 0.574847 0.064452
0.967546 0.574896 0.064481
0.999423 0.575301 0.064484
1.000911 0.575722 0.064489
-0.018967 0.664937 0.038725
0.023090 0.665399 0.040104
0.067382 0.665821 0.041168
0.113404 0.666142 0.043385
0.167928 0.667623 0.045025
0.241441 0.668648 0.053254
0.337149 0.672962 0.061414
0.447256 0.676617 0.066418
0.562968 0.679997 0.066384
0.675420 0.682250 0.065286
0.775674 0.684051 0.065388
0.856340 0.683756 0.065031
0.919100 0.684014 0.064440
0.968707 0.684323 0.064484
0.999317 0.685048 0.064484
1.000890 0.685454 0.064483
-0.022662 0.770980 0.045995
0.031967 0.771821 0.049638
0.076907 0.773389 0.053260
0.124423 0.774059 0.057984
0.185168 0.774808 0.064123
0.257899 0.777097 0.065679
0.352651 0.779181 0.066342
0.460217 0.781298 0.065461
0.570562 0.782043 0.064639
0.678003 0.782383 0.064476
0.777647 0.782591 0.064650
0.857378 0.783177 0.064404
0.920700 0.784413 0.065233
0.968393 0.783141 0.065154
0.999492 0.784035 0.064967
1.000869 0.784512 0.064881
-0.020886 0.859059 0.061242
0.049335 0.859962 0.064529
0.092100 0.859968 0.066017
0.138442 0.860740 0.066138
0.198299 0.862988 0.065336
0.272809 0.863164 0.064674
0.362977 0.863486 0.064825
0.464607 0.863762 0.064494
0.572808 0.864247 0.064537
0.679961 0.864505 0.064647
0.778034 0.865305 0.064493
0.858501 0.864039 0.064262
0.920361 0.866393 0.065693
0.969665 0.866253 0.065044
0.999534 0.866249 0.066310
1.000846 0.866184 0.067323
0.007701 0.924207 0.065955
0.062256 0.924491 0.065658
0.104022 0.925415 0.065441
0.151280 0.925659 0.065390
0.208617 0.924762 0.064473
0.277869 0.924814 0.064573
0.365433 0.925927 0.064573
0.466802 0.926011 0.064579
0.574823 0.926269 0.064526
0.681389 0.926299 0.064992
0.779117 0.927525 0.064096
0.860297 0.927624 0.065482
0.922060 0.927377 0.068133
0.969468 0.927600 0.067839
0.999681 0.927232 0.071011
1.000829 0.927572 0.072664
0.027611 0.970679 0.065245
0.073398 0.970979 0.065255
0.113615 0.970463 0.065255
0.158202 0.970800 0.065353
0.209717 0.971568 0.064501
0.280769 0.971817 0.064589
0.367925 0.971403 0.064589
0.468865 0.971653 0.064578
0.576355 0.971920 0.064555
0.682225 0.972112 0.065059
0.779530 0.971760 0.064882
0.859782 0.971940 0.069273
0.921898 0.972690 0.069920
0.969389 0.972676 0.074579
0.999695 0.972611 0.075423
1.000823 0.972656 0.077374
0.037676 1.005541 0.065003
0.077969 1.005531 0.064605
0.114258 1.005531 0.065024
0.158465 1.005497 0.064666
0.214386 1.005432 0.064550
0.281700 1.005401 0.064589
0.369635 1.005401 0.064589
0.470287 1.005384 0.064564
0.577301 1.005350 0.064540
0.683415 1.005334 0.065306
0.779240 1.005334 0.068595
0.861307 1.005306 0.071465
0.921736 1.005258 0.075740
0.969402 1.005235 0.076995
0.999575 1.005235 0.079306
1.000827 1.005233 0.081326
0.047358 1.071751 0.067701
0.087379 1.071751 0.067658
0.125955 1.071751 0.067523
0.171128 1.071751 0.067375
0.226384 1.071751 0.067281
0.295351 1.071751 0.067162
0.381509 1.071751 0.066970
0.480846 1.071751 0.066676
0.585837 1.071751 0.066391
0.690166 1.071751 0.069288
0.784538 1.071751 0.072741
0.863503 1.071751 0.078047
0.923506 1.071751 0.080239
0.970400 1.071751 0.083265
1.000023 1.071751 0.085670
1.000902 1.071751 0.087697
-0.030168 -0.490542 0.032835
-0.046391 -0.490543 0.033042
-0.055774 -0.490543 0.035653
0.033893 -0.490544 0.039586
0.112248 -0.490545 0.039902
0.193648 -0.490547 0.041668
0.288361 -0.490549 0.043894
0.400170 -0.490553 0.046720
0.520865 -0.490559 0.049959
0.641000 -0.490566 0.053245
0.750417 -0.490571 0.055838
0.842475 -0.490579 0.058929
0.909288 -0.490586 0.061265
0.962728 -0.490591 0.061582
0.997921 -0.490596 0.062345
1.001047 -0.490599 0.063281
-0.004345 -0.021926 0.041589
-0.020510 -0.021494 0.044060
0.029405 -0.021827 0.045262
0.079872 -0.022114 0.045870
0.140063 -0.022092 0.046827
0.211664 -0.022418 0.046685
0.304614 -0.022558 0.049514
0.413504 -0.022664 0.051870
0.531200 -0.022502 0.054791
0.648608 -0.021240 0.058202
0.756621 -0.019308 0.062069
0.845338 -0.016643 0.064314
0.911307 -0.011242 0.066632
0.963708 -0.009290 0.067416
0.998500 -0.005330 0.068236
1.001110 0.010232 0.069500
-0.005158 0.029779 0.044402
-0.021005 0.030670 0.045000
0.032493 0.030577 0.045139
0.082950 0.033637 0.045470
0.139872 0.033810 0.047312
0.215100 0.036358 0.049065
0.306279 0.039255 0.051317
0.415162 0.042818 0.053873
0.532688 0.047189 0.057148
0.650043 0.052104 0.060947
0.758567 0.056652 0.064460
0.844113 0.058227 0.065624
0.911503 0.058477 0.067589
0.963652 0.060988 0.069978
0.998568 0.062342 0.070619
1.001094 0.063373 0.071967
-0.006021 0.082645 0.046045
-0.021278 0.083600 0.046807
0.035075 0.085151 0.046839
0.084010 0.085772 0.048894
0.144009 0.087672 0.049933
0.215363 0.089872 0.050359
0.308611 0.091585 0.053624
0.417342 0.094842 0.056524
0.534733 0.099017 0.060317
0.651213 0.102524 0.063739
0.757989 0.104041 0.066114
0.845683 0.106323 0.068407
0.911469 0.109467 0.070741
0.963511 0.109973 0.073131
0.998683 0.111159 0.073621
1.001077 0.112183 0.075071
-0.007230 0.143026 0.048109
-0.021135 0.143907 0.048935
0.036573 0.145523 0.050313
0.088022 0.145982 0.050785
0.146785 0.146820 0.051877
0.219608 0.149097 0.054420
0.311547 0.152249 0.056885
0.420265 0.155786 0.060365
0.536716 0.158955 0.063638
0.652206 0.161434 0.066515
0.758901 0.164012 0.069314
0.845301 0.166913 0.072528
0.913061 0.166433 0.074686
0.964884 0.168794 0.077067
0.998730 0.169662 0.077215
1.001063 0.170445 0.078423
-0.008935 0.219368 0.051153
-0.020956 0.220369 0.052170
0.041444 0.219994 0.053061
0.092666 0.222425 0.055449
0.150407 0.223411 0.055077
0.223240 0.226274 0.058378
0.315666 0.228993 0.061598
0.422867 0.231528 0.064270
0.538419 0.233813 0.067398
0.653674 0.236332 0.070760
0.759547 0.238868 0.074320
0.847193 0.241350 0.077581
0.912482 0.241929 0.077571
0.964531 0.242618 0.079110
0.998549 0.243968 0.082578
1.001041 0.246995 0.086504
-0.011216 0.315849 0.055914
-0.019136 0.316908 0.057195
0.049550 0.318352 0.059434
0.099434 0.319076 0.060386
0.156884 0.319989 0.061518
0.227305 0.322322 0.063626
0.319193 0.324221 0.066348
0.425895 0.326360 0.069379
0.540855 0.328662 0.072748
0.655626 0.330749 0.076034
0.760620 0.332509 0.078027
0.847758 0.334324 0.084822
0.914381 0.340552 0.092551
0.965632 0.343580 0.096486
0.999145 0.347285 0.099633
1.000995 0.349698 0.101074
-0.013736 0.428776 0.062675
-0.010587 0.429740 0.063806
0.057089 0.429610 0.064527
0.104439 0.430443 0.065299
0.160291 0.432298 0.067977
0.232016 0.434469 0.068979
0.322955 0.435011 0.072440
0.428943 0.436595 0.075362
0.543117 0.438169 0.078689
0.658520 0.442539 0.087067
0.764988 0.449399 0.097122
0.851577 0.454164 0.101827
0.916955 0.458030 0.101639
0.966563 0.461757 0.100823
0.999209 0.462337 0.100604
1.000945 0.463615 0.100187
-0.016248 0.547727 0.068510
0.015244 0.548287 0.069749
0.062506 0.550221 0.071889
0.109553 0.548989 0.072730
0.164239 0.550126 0.074222
0.236127 0.551331 0.076628
0.325964 0.552488 0.078768
0.433839 0.556101 0.086968
0.551935 0.561987 0.097846
0.667492 0.567110 0.101672
0.770400 0.572265 0.102340
0.855900 0.573570 0.099683
0.918287 0.574891 0.099316
0.967540 0.575004 0.099326
0.999476 0.575328 0.099326
1.000909 0.575889 0.099332
-0.019199 0.665070 0.075431
0.023345 0.665597 0.076722
0.067444 0.665812 0.078123
0.113530 0.667677 0.078848
0.169140 0.667817 0.081489
0.243936 0.670661 0.089734
0.338274 0.673411 0.097771
0.448049 0.677271 0.101554
0.563931 0.680392 0.101051
0.675778 0.682507 0.099976
0.775354 0.684447 0.098611
0.856639 0.682350 0.099893
0.919077 0.684166 0.099391
0.968697 0.684614 0.099362
0.999355 0.685231 0.099311
1.000887 0.685743 0.099311
-0.022954 0.771089 0.083062
0.033318 0.772045 0.086629
0.077701 0.773582 0.090490
0.125242 0.774089 0.093651
0.186029 0.776675 0.098621
0.258286 0.776828 0.101647
0.353693 0.779623 0.100916
0.460917 0.781254 0.100106
0.570748 0.782182 0.099442
0.678212 0.782516 0.099316
0.776323 0.782609 0.099416
0.859174 0.784811 0.099280
0.920550 0.784500 0.098563
0.968388 0.783299 0.100004
0.999495 0.784281 0.099753
1.000868 0.784650 0.099689
-0.020238 0.859499 0.097521
0.051147 0.860039 0.100334
0.091667 0.860440 0.100842
0.139753 0.860775 0.102025
0.200033 0.863025 0.101394
0.274487 0.863111 0.100848
0.363450 0.863667 0.099472
0.464869 0.863746 0.099344
0.572968 0.864005 0.099369
0.680304 0.864663 0.099379
0.778446 0.864951 0.100608
0.858796 0.865504 0.100516
0.920342 0.866252 0.099131
0.969671 0.866462 0.101822
0.999548 0.866210 0.101293
1.000848 0.866316 0.102554
0.011873 0.924140 0.100583
0.063741 0.924679 0.100354
0.105445 0.925343 0.100273
0.154317 0.925808 0.100179
0.210237 0.924907 0.099194
0.277889 0.924824 0.099269
0.365777 0.926054 0.099359
0.466971 0.926015 0.099413
0.575011 0.926310 0.099357
0.681621 0.926409 0.099672
0.777980 0.927516 0.100130
0.859095 0.927555 0.101556
0.922051 0.927311 0.103149
0.969490 0.927623 0.104479
0.999587 0.927238 0.106140
1.000835 0.927580 0.107792
0.029816 0.970720 0.100077
0.074899 0.970979 0.100147
0.113662 0.970498 0.098664
0.156317 0.970787 0.098715
0.211573 0.971774 0.099433
0.279252 0.970342 0.099425
0.368161 0.971614 0.099425
0.469121 0.971765 0.099407
0.576555 0.971988 0.099408
0.682567 0.971857 0.099701
0.779941 0.971758 0.100993
0.858708 0.971688 0.103647
0.921861 0.972668 0.106526
0.969413 0.972822 0.107845
0.999580 0.972563 0.110588
1.000830 0.972791 0.112335
0.038055 1.005537 0.099755
0.078057 1.005527 0.099389
0.116231 1.005527 0.099909
0.160603 1.005491 0.099532
0.212895 1.005465 0.099440
0.283713 1.005475 0.099425
0.369939 1.005432 0.099425
0.470605 1.005373 0.099381
0.577472 1.005352 0.099362
0.683319 1.005344 0.100217
0.780991 1.005344 0.104645
0.861402 1.005319 0.107834
0.921673 1.005263 0.110426
0.969404 1.005231 0.111799
0.999583 1.005231 0.114287
1.000828 1.005225 0.116141
0.047832 1.071751 0.102164
0.087630 1.071751 0.102094
0.127691 1.071751 0.101930
0.171493 1.071751 0.101754
0.226599 1.071751 0.101568
0.295486 1.071751 0.101351
0.381752 1.071751 0.101125
0.481018 1.071751 0.100779
0.586070 1.071751 0.100683
0.690210 1.071751 0.103655
0.784726 1.071751 0.108368
0.863663 1.071751 0.112361
0.923597 1.071751 0.115772
0.970386 1.071751 0.117184
1.000079 1.071751 0.119901
1.000899 1.071751 0.121757
-0.030373 -0.490543 0.076973
-0.046794 -0.490543 0.077525
-0.055402 -0.490543 0.079583
0.034395 -0.490544 0.081702
0.115062 -0.490545 0.082805
0.192120 -0.490547 0.085748
0.288694 -0.490550 0.086250
0.400527 -0.490554 0.088881
0.521092 -0.490560 0.091828
0.641070 -0.490565 0.094875
0.750685 -0.490575 0.097566
0.842686 -0.490583 0.100686
0.909236 -0.490589 0.102271
0.962716 -0.490593 0.102750
0.997939 -0.490598 0.103592
1.001044 -0.490601 0.104522
-0.004464 -0.021767 0.083414
-0.020554 -0.021561 0.084784
0.028550 -0.021881 0.085718
0.081806 -0.022059 0.085272
0.138649 -0.022302 0.085785
0.212220 -0.022572 0.088674
0.305025 -0.022617 0.089994
0.413892 -0.022627 0.092398
0.531496 -0.022335 0.095241
0.649038 -0.020825 0.098497
0.757132 -0.015906 0.102554
0.844318 -0.012268 0.104765
0.911371 -0.010907 0.104740
0.963705 -0.008776 0.107184
0.998503 0.006577 0.108060
1.001109 0.011428 0.109234
-0.005273 0.030161 0.085147
-0.020882 0.031122 0.085781
0.032103 0.031112 0.085856
0.083088 0.031434 0.087998
0.142329 0.037470 0.087740
0.213744 0.037348 0.089340
0.306751 0.039887 0.091798
0.415417 0.043365 0.094348
0.532939 0.047747 0.097510
0.650334 0.052658 0.101159
0.757485 0.054868 0.104863
0.844418 0.058521 0.105896
0.911458 0.060798 0.108808
0.963612 0.061396 0.109584
0.998624 0.062708 0.110333
1.001093 0.063771 0.111620
-0.006154 0.082864 0.086769
-0.021272 0.084011 0.087400
0.034708 0.085376 0.089048
0.084466 0.086149 0.089418
0.142828 0.086168 0.090073
0.215835 0.088459 0.092085
0.309014 0.092050 0.093978
0.417705 0.095446 0.096938
0.535033 0.099472 0.100578
0.651389 0.102872 0.103616
0.756787 0.106253 0.106435
0.845864 0.108523 0.108363
0.911405 0.107913 0.110163
0.964945 0.110423 0.112563
0.998627 0.111532 0.113218
1.001072 0.112639 0.114556
-0.007395 0.143338 0.088727
-0.021366 0.144140 0.089513
0.038510 0.145664 0.090899
0.088612 0.146020 0.091396
0.145625 0.148840 0.093522
0.219889 0.151190 0.095821
0.311991 0.152689 0.097166
0.420475 0.156333 0.100633
0.536910 0.159265 0.103580
0.652291 0.161783 0.106344
0.759223 0.164371 0.109372
0.845540 0.165449 0.112544
0.913099 0.168616 0.113972
0.964738 0.169029 0.116195
0.998727 0.170043 0.116525
1.001057 0.170578 0.117663
-0.009131 0.219615 0.091729
-0.020992 0.220536 0.092636
0.043407 0.221876 0.093779
0.093456 0.222363 0.094398
0.150989 0.225167 0.096457
0.223624 0.226323 0.099432
0.316021 0.229321 0.101614
0.423224 0.231829 0.104211
0.538640 0.234196 0.107237
0.653948 0.236631 0.110470
0.759875 0.239201 0.114315
0.845938 0.241450 0.115892
0.912635 0.242777 0.117376
0.964529 0.242085 0.120799
0.998683 0.244798 0.122389
1.001041 0.248070 0.126715
-0.011402 0.316237 0.096375
-0.018585 0.317259 0.097602
0.049476 0.318461 0.100038
0.098368 0.319266 0.099313
0.155366 0.321961 0.102724
0.227400 0.322823 0.104582
0.319429 0.324604 0.106109
0.426086 0.326755 0.109176
0.541082 0.328913 0.112381
0.655760 0.330864 0.115441
0.760940 0.332519 0.117880
0.848047 0.335945 0.124636
0.914071 0.341536 0.131049
0.965624 0.345091 0.136304
0.998891 0.348288 0.138202
1.001001 0.350980 0.139463
-0.013895 0.429169 0.102819
-0.008820 0.429882 0.103765
0.057018 0.431535 0.104828
0.104784 0.432001 0.105390
0.162191 0.430695 0.107378
0.233830 0.433137 0.109777
0.323141 0.435301 0.112001
0.429058 0.436792 0.114886
0.543367 0.438632 0.118478
0.659188 0.443477 0.127192
0.765129 0.451511 0.137171
0.852318 0.455177 0.140624
0.916929 0.458775 0.139267
0.968015 0.460647 0.138484
0.999182 0.463087 0.138296
1.000944 0.464032 0.137931
-0.016415 0.547967 0.108283
0.016264 0.548613 0.109604
0.062293 0.548835 0.110265
0.109763 0.550719 0.112571
0.164523 0.552100 0.113496
0.235145 0.552087 0.116317
0.326285 0.552980 0.118449
0.434565 0.556754 0.127056
0.552690 0.562839 0.136876
0.668035 0.567787 0.139666
0.772827 0.571701 0.138361
0.856501 0.572684 0.137818
0.918104 0.575045 0.137235
0.967445 0.575057 0.137295
0.999455 0.575527 0.137295
1.000904 0.576020 0.137300
-0.019467 0.665232 0.114963
0.023779 0.665780 0.116308
0.067631 0.666088 0.116253
0.113686 0.667642 0.118356
0.170309 0.668326 0.123278
0.244815 0.669626 0.128923
0.339338 0.674014 0.136859
0.448970 0.677886 0.139566
0.564811 0.680824 0.138827
0.676127 0.682815 0.137775
0.774507 0.683423 0.138133
0.858634 0.684465 0.137687
0.918998 0.684345 0.137249
0.968681 0.686208 0.137261
0.999394 0.685369 0.137261
1.000883 0.685803 0.137259
-0.023127 0.771526 0.123088
0.034372 0.772407 0.126449
0.078362 0.772273 0.130759
0.127920 0.776049 0.133572
0.185559 0.776834 0.139291
0.260288 0.778683 0.139265
0.355052 0.779839 0.138765
0.461489 0.781486 0.137886
0.570954 0.781957 0.137335
0.678524 0.782532 0.137283
0.776739 0.782560 0.137317
0.859444 0.783395 0.137129
0.920551 0.783110 0.138060
0.968365 0.783356 0.137935
0.999576 0.784404 0.137711
1.000861 0.784573 0.137612
-0.019576 0.859549 0.136662
0.052407 0.860336 0.138835
0.094351 0.862009 0.138595
0.142945 0.861082 0.139168
0.200123 0.861496 0.137643
0.276005 0.863254 0.137321
0.363652 0.863698 0.137427
0.464929 0.863882 0.137310
0.573208 0.864158 0.137327
0.680494 0.864774 0.137440
0.777181 0.865160 0.137050
0.859035 0.865770 0.138493
0.920441 0.866467 0.137469
0.969648 0.865279 0.138640
0.999648 0.866263 0.139684
1.000841 0.866512 0.140930
0.015634 0.924190 0.138349
0.065154 0.924628 0.138171
0.106949 0.925355 0.138065
0.155988 0.925761 0.138077
0.208765 0.924961 0.137260
0.278337 0.924836 0.137366
0.366100 0.926117 0.137366
0.467564 0.925961 0.137364
0.575223 0.926417 0.137327
0.681853 0.926398 0.137707
0.778203 0.927565 0.138146
0.859279 0.927608 0.139459
0.921971 0.927613 0.141488
0.969474 0.926357 0.142835
0.999599 0.927591 0.144496
1.000830 0.927573 0.146063
0.032305 0.970876 0.138024
0.076259 0.971164 0.137846
0.114105 0.970743 0.138039
0.157893 0.970897 0.137935
0.211913 0.971783 0.137309
0.281113 0.970412 0.137372
0.368557 0.971633 0.137372
0.469390 0.971734 0.137355
0.576780 0.971984 0.137359
0.682628 0.971778 0.137674
0.780049 0.971866 0.138840
0.860451 0.971511 0.143117
0.921871 0.972811 0.144533
0.969401 0.971352 0.145856
0.999653 0.972778 0.148692
1.000826 0.972834 0.150448
0.038474 1.005515 0.137555
0.078688 1.005507 0.137278
0.115392 1.005507 0.137573
0.159585 1.005476 0.137319
0.213024 1.005458 0.137352
0.283674 1.005471 0.137372
0.370114 1.005427 0.137372
0.470762 1.005368 0.137324
0.577661 1.005349 0.137302
0.683575 1.005346 0.138589
0.781165 1.005346 0.142511
0.860032 1.005319 0.146139
0.921677 1.005298 0.148218
0.969399 1.005303 0.151158
0.999579 1.005261 0.152174
1.000826 1.005211 0.154095
0.048347 1.071751 0.138798
0.088617 1.071751 0.138646
0.126881 1.071751 0.138439
0.172501 1.071751 0.138313
0.226877 1.071751 0.138124
0.297171 1.071751 0.137848
0.382042 1.071751 0.137587
0.481208 1.071751 0.137182
0.586241 1.071751 0.137276
0.690472 1.071751 0.140519
0.785004 1.071751 0.145009
0.864069 1.071751 0.149436
0.923650 1.071751 0.151994
0.970385 1.071751 0.154903
1.000078 1.071751 0.156216
1.000898 1.071751 0.158120
-0.030648 -0.490543 0.126449
-0.046935 -0.490543 0.127654
-0.054546 -0.490544 0.130600
0.037282 -0.490544 0.130027
0.113001 -0.490545 0.131760
0.192222 -0.490547 0.134565
0.289016 -0.490550 0.135226
0.400797 -0.490555 0.137681
0.521428 -0.490561 0.140483
0.641431 -0.490565 0.143382
0.751208 -0.490574 0.146478
0.841575 -0.490583 0.147852
0.909306 -0.490590 0.150152
0.962701 -0.490595 0.150565
0.997953 -0.490600 0.151589
1.001040 -0.490603 0.152514
-0.004612 -0.021649 0.131473
-0.020853 -0.021789 0.131924
0.030831 -0.022111 0.132166
0.082153 -0.022376 0.133966
0.139029 -0.022775 0.134219
0.214248 -0.022432 0.135502
0.305314 -0.022656 0.137116
0.414214 -0.022628 0.139400
0.531888 -0.022238 0.142137
0.649325 -0.020609 0.145371
0.756083 -0.018580 0.148216
0.844672 -0.015022 0.150242
0.911529 -0.007334 0.152508
0.963665 -0.005527 0.153263
0.998554 0.009157 0.154281
1.001098 0.012658 0.155405
-0.005409 0.030521 0.132345
-0.020871 0.031571 0.132972
0.031508 0.034295 0.133129
0.083454 0.034413 0.135036
0.140826 0.034967 0.136111
0.214011 0.037805 0.136079
0.307058 0.040207 0.138839
0.415835 0.044093 0.141270
0.533338 0.048590 0.144372
0.650704 0.053549 0.147956
0.757909 0.057978 0.150494
0.844870 0.059673 0.152872
0.911625 0.059307 0.154843
0.963574 0.061868 0.155612
0.998676 0.063187 0.156507
1.001082 0.064247 0.157706
-0.006314 0.083373 0.133902
-0.021064 0.084620 0.134603
0.034073 0.084130 0.136286
0.086701 0.086501 0.136627
0.143139 0.088588 0.136960
0.217917 0.091086 0.138945
0.309392 0.092519 0.141042
0.418161 0.096071 0.143813
0.535438 0.100265 0.147298
0.651540 0.103230 0.150031
0.758792 0.105322 0.151932
0.845984 0.107036 0.154973
0.911366 0.110260 0.156166
0.964928 0.110693 0.158535
0.998634 0.111958 0.159265
1.001068 0.113074 0.160529
-0.007584 0.143715 0.135847
-0.021067 0.144664 0.136730
0.038066 0.144217 0.136554
0.088916 0.148177 0.138575
0.145974 0.147801 0.140368
0.220106 0.150108 0.140924
0.312457 0.153377 0.144151
0.420908 0.156840 0.147328
0.537160 0.159610 0.149938
0.652660 0.162255 0.152763
0.757862 0.164773 0.154561
0.847341 0.167915 0.157530
0.912948 0.167386 0.159754
0.964769 0.171097 0.161965
0.998754 0.170100 0.162286
1.001057 0.170809 0.163357
-0.009353 0.220016 0.138723
-0.020676 0.221008 0.139831
0.042795 0.222131 0.139306
0.093819 0.224380 0.143140
0.150943 0.223903 0.142929
0.225310 0.226764 0.145885
0.316281 0.229822 0.148230
0.423428 0.232091 0.150606
0.538826 0.234556 0.153539
0.654130 0.237036 0.156724
0.760113 0.239512 0.159253
0.845981 0.239975 0.162157
0.914069 0.241248 0.164207
0.964506 0.243625 0.165695
0.998619 0.246396 0.169419
1.001042 0.249467 0.173340
-0.011616 0.316634 0.143299
-0.018093 0.317781 0.144602
0.051064 0.318873 0.145399
0.100730 0.321270 0.147925
0.157246 0.322109 0.147372
0.229258 0.323225 0.150786
0.319697 0.324947 0.152523
0.426352 0.327171 0.155355
0.541319 0.329292 0.158439
0.655783 0.331117 0.161353
0.761004 0.332862 0.164207
0.848050 0.339321 0.172368
0.913923 0.342488 0.177357
0.965557 0.345853 0.182018
0.998912 0.349349 0.183205
1.000999 0.351912 0.183736
