example_ofxGpuLutCube/bin/data/ofxGpuLutCube/LUT/A9 (dark warm contrasty).cube
LUT_3D_SIZE 16
0.029269 0.062669 0.097681
0.045024 0.062701 0.097142
0.061139 0.063887 0.096649
0.076151 0.064137 0.096262
0.094017 0.062682 0.095404
0.116993 0.062990 0.094646
0.144064 0.063903 0.094580
0.179440 0.064175 0.093791
0.227045 0.064494 0.093123
0.289605 0.064724 0.092241
0.365845 0.065543 0.092489
0.453378 0.065685 0.090153
0.541433 0.067123 0.090034
0.617492 0.065907 0.089131
0.684177 0.066681 0.087960
0.750047 0.067151 0.086975
0.031155 0.080553 0.096639
0.047291 0.080762 0.096067
0.062789 0.081767 0.095657
0.079568 0.080421 0.093535
0.098503 0.081121 0.095364
0.122864 0.083107 0.092879
0.150480 0.082214 0.093029
0.188279 0.082595 0.092219
0.239586 0.082994 0.091457
0.305607 0.083299 0.090584
0.384126 0.084009 0.089223
0.476233 0.084340 0.088459
0.561023 0.084644 0.088018
0.634775 0.085098 0.087095
0.700376 0.085590 0.086013
0.763623 0.086144 0.084950
0.033073 0.098460 0.095608
0.049419 0.098760 0.094944
0.064375 0.099609 0.094594
0.081004 0.099932 0.094058
0.101935 0.099536 0.093716
0.126195 0.100023 0.093006
0.156691 0.100582 0.091582
0.196866 0.101075 0.090806
0.251337 0.101509 0.089928
0.320755 0.101963 0.088969
0.404285 0.102371 0.089341
0.494886 0.103015 0.088464
0.577725 0.102340 0.086259
0.650736 0.104428 0.085432
0.714382 0.104651 0.084329
0.775084 0.105346 0.083288
0.035204 0.119613 0.094453
0.051866 0.120048 0.093647
0.067615 0.120702 0.093460
0.086092 0.121061 0.092815
0.104820 0.121609 0.092155
0.131119 0.122102 0.089681
0.163799 0.122414 0.090080
0.206676 0.122980 0.089195
0.264677 0.123575 0.088334
0.337421 0.124124 0.087386
0.422826 0.125863 0.086218
0.513807 0.124867 0.085286
0.595661 0.125189 0.084570
0.667751 0.127395 0.083719
0.728134 0.127453 0.082617
0.786231 0.128301 0.081572
0.037713 0.145448 0.093123
0.054696 0.146127 0.092297
0.071234 0.146325 0.092256
0.089673 0.146906 0.089917
0.110326 0.147070 0.090516
0.137440 0.149432 0.089651
0.171660 0.149274 0.088450
0.217791 0.150028 0.087559
0.279381 0.150775 0.086671
0.355435 0.151550 0.085691
0.444536 0.152764 0.084691
0.534400 0.153450 0.083713
0.614522 0.155106 0.082827
0.683055 0.156051 0.081960
0.741623 0.155608 0.080838
0.797500 0.156822 0.079810
0.040494 0.178248 0.091684
0.057820 0.179149 0.090803
0.073535 0.180353 0.089228
0.093490 0.181165 0.090153
0.115453 0.181632 0.088732
0.145332 0.182684 0.087814
0.180580 0.183488 0.086698
0.230163 0.184497 0.085828
0.295390 0.185493 0.084895
0.375043 0.186592 0.083911
0.467840 0.187124 0.082935
0.555419 0.189759 0.081938
0.633242 0.190259 0.081068
0.699507 0.191417 0.080246
0.755220 0.192053 0.079077
0.808272 0.193444 0.078009
0.043511 0.221720 0.090109
0.061228 0.222924 0.089169
0.077612 0.225118 0.089396
0.097569 0.226128 0.086958
0.122156 0.225970 0.086981
0.151510 0.227400 0.086016
0.190660 0.229130 0.084934
0.243915 0.230351 0.084040
0.312969 0.231804 0.083063
0.396181 0.233236 0.082066
0.489922 0.234807 0.081101
0.576855 0.236128 0.080142
0.650245 0.237765 0.079373
0.715632 0.239189 0.076924
0.768824 0.240574 0.077306
0.818880 0.242342 0.076164
0.046879 0.278427 0.088412
0.064898 0.280206 0.087468
0.083541 0.281485 0.086142
0.101829 0.282917 0.085371
0.128753 0.285539 0.085161
0.161302 0.285677 0.084107
0.201918 0.288205 0.083089
0.259091 0.289870 0.082142
0.331943 0.291709 0.081159
0.419090 0.293607 0.080157
0.512169 0.294202 0.079200
0.598821 0.296070 0.078301
0.669861 0.298850 0.076049
0.731732 0.300484 0.075209
0.781915 0.302809 0.075480
0.829443 0.304912 0.074345
0.050554 0.348556 0.086601
0.069050 0.350663 0.085635
0.088003 0.352976 0.084436
0.108053 0.354681 0.083563
0.135479 0.356596 0.083193
0.167643 0.358690 0.082149
0.214618 0.360383 0.081137
0.275692 0.362545 0.080185
0.352517 0.364843 0.079187
0.443297 0.367050 0.078202
0.538406 0.370116 0.077229
0.619690 0.370753 0.076336
0.689070 0.374512 0.074102
0.746299 0.376571 0.074889
0.794605 0.378109 0.073506
0.839986 0.380707 0.072504
0.054514 0.430250 0.084671
0.073620 0.432676 0.083706
0.092715 0.434496 0.082514
0.114318 0.436392 0.081653
0.143515 0.438835 0.081209
0.178891 0.442959 0.080166
0.228507 0.444122 0.079170
0.293667 0.446553 0.078201
0.374670 0.449060 0.077211
0.468820 0.451489 0.076227
0.560368 0.454026 0.075206
0.639396 0.456547 0.074160
0.704660 0.458547 0.073710
0.761967 0.460715 0.072919
0.806813 0.463805 0.071612
0.849876 0.466391 0.070702
0.058799 0.516421 0.082762
0.078430 0.518956 0.081791
0.097591 0.520575 0.080597
0.122425 0.524275 0.079737
0.152881 0.526058 0.079278
0.189675 0.526873 0.078287
0.243489 0.529843 0.077247
0.312922 0.532135 0.076242
0.398166 0.534594 0.075282
0.494438 0.536976 0.074305
0.584617 0.539700 0.073224
0.659819 0.542162 0.073761
0.720691 0.544038 0.071876
0.774882 0.545982 0.071241
0.817689 0.547897 0.069874
0.858515 0.550261 0.068980
0.063056 0.592972 0.080830
0.083384 0.595224 0.079848
0.104072 0.597277 0.078668
0.129090 0.599158 0.077835
0.160072 0.600788 0.077503
0.203114 0.603012 0.074838
0.259401 0.604837 0.075383
0.333115 0.606977 0.074346
0.422483 0.608940 0.073400
0.519574 0.611047 0.072473
0.605605 0.612879 0.071384
0.676911 0.614989 0.070337
0.736136 0.616071 0.070438
0.786068 0.619038 0.068194
0.827811 0.620320 0.068269
0.866942 0.622081 0.067399
0.067592 0.658650 0.078956
0.088503 0.660537 0.077975
0.110747 0.663179 0.076753
0.135621 0.663228 0.075911
0.170013 0.666063 0.074034
0.215560 0.667882 0.074728
0.276293 0.668728 0.073539
0.354177 0.670595 0.072575
0.446886 0.672206 0.071651
0.542885 0.674039 0.070724
0.624213 0.674897 0.069669
0.692469 0.676824 0.068677
0.748673 0.679976 0.067476
0.797617 0.679676 0.066830
0.836540 0.681377 0.066813
0.873872 0.683037 0.065895
0.072038 0.714359 0.077132
0.093869 0.715639 0.076125
0.115576 0.717625 0.074749
0.145518 0.718670 0.075506
0.180506 0.719871 0.073766
0.227920 0.721368 0.072901
0.293913 0.722957 0.071729
0.375623 0.724467 0.070867
0.471049 0.725853 0.069963
0.564650 0.727315 0.069062
0.642935 0.728868 0.067877
0.708240 0.730414 0.066964
0.760506 0.730055 0.067760
0.806867 0.732784 0.065475
0.844374 0.733385 0.065355
0.880065 0.734583 0.064612
0.076748 0.761655 0.075307
0.099234 0.763013 0.074284
0.122256 0.763561 0.074519
0.152074 0.764718 0.073638
0.191391 0.767299 0.072181
0.243462 0.768354 0.071344
0.311950 0.768908 0.070131
0.397319 0.770031 0.069215
0.494216 0.771383 0.068362
0.584302 0.772267 0.067492
0.659538 0.773235 0.067815
0.720099 0.774166 0.065289
0.771831 0.775195 0.064844
0.816005 0.776053 0.065839
0.851527 0.777220 0.064031
0.885922 0.778235 0.063328
0.089181 0.863642 0.060381
0.112929 0.864940 0.059123
0.140493 0.865796 0.057432
0.173222 0.866992 0.056532
0.217188 0.866601 0.054616
0.279191 0.868906 0.053456
0.356492 0.869975 0.054188
0.450098 0.870858 0.053154
0.550838 0.872072 0.052350
0.639140 0.873003 0.051577
0.711025 0.872782 0.049755
0.767822 0.875152 0.051336
0.816180 0.875995 0.049346
0.852845 0.876775 0.049052
0.884308 0.876814 0.048897
0.914287 0.877694 0.048381
-0.034315 -0.390272 0.123141
-0.027161 -0.390630 0.122481
-0.022706 -0.391035 0.122244
-0.018294 -0.391383 0.120203
-0.032138 -0.391891 0.121665
-0.058188 -0.392448 0.120750
-0.083860 -0.392929 0.119366
-0.103018 -0.393403 0.118539
-0.082959 -0.393877 0.117656
0.143781 -0.394190 0.116748
0.261802 -0.394473 0.115603
0.378678 -0.395196 0.114679
0.484183 -0.395596 0.113381
0.574483 -0.395871 0.112352
0.649755 -0.396073 0.111433
0.722177 -0.396210 0.110192
0.031479 0.080658 0.116212
0.047626 0.080851 0.115472
0.063035 0.081875 0.115301
0.079726 0.080347 0.114736
0.098356 0.082759 0.112384
0.121701 0.081536 0.111447
0.151625 0.082423 0.111819
0.189825 0.082707 0.110879
0.241613 0.083135 0.109977
0.308342 0.083468 0.108948
0.388959 0.084188 0.108004
0.478834 0.084547 0.106917
0.563171 0.084797 0.107011
0.638155 0.085246 0.104347
0.702881 0.085766 0.103695
0.765861 0.086327 0.102446
0.033408 0.098559 0.114950
0.049816 0.098883 0.114094
0.066204 0.099693 0.112399
0.082952 0.099930 0.113302
0.103499 0.101185 0.112137
0.128494 0.100135 0.111271
0.157911 0.100754 0.110086
0.198572 0.101243 0.109165
0.253792 0.101701 0.108188
0.323808 0.102193 0.107122
0.406129 0.102623 0.106234
0.497579 0.103028 0.105075
0.582843 0.104083 0.104901
0.653593 0.104687 0.103945
0.716777 0.104904 0.101697
0.776920 0.105565 0.100495
0.035660 0.119731 0.113557
0.052340 0.120227 0.112597
0.068035 0.120757 0.112753
0.084761 0.121081 0.111907
0.106571 0.121747 0.110231
0.132007 0.122396 0.109294
0.165111 0.122670 0.108287
0.208702 0.123184 0.107341
0.267223 0.123807 0.106263
0.340587 0.124428 0.105211
0.428112 0.124457 0.104325
0.518291 0.126736 0.103182
0.600588 0.125507 0.102924
0.670791 0.126248 0.100342
0.730615 0.127798 0.099747
0.788299 0.128560 0.098489
0.038187 0.145669 0.111958
0.055144 0.146406 0.111010
0.071659 0.146638 0.109655
0.090077 0.148842 0.108857
0.110723 0.147356 0.108419
0.138784 0.148163 0.107312
0.173196 0.149581 0.106447
0.220032 0.150300 0.105370
0.282207 0.151068 0.104327
0.358928 0.151809 0.103171
0.448492 0.153036 0.102399
0.537654 0.153906 0.101196
0.617860 0.154271 0.101044
0.685897 0.155155 0.098490
0.744117 0.156169 0.097796
0.799222 0.157138 0.096511
0.040983 0.178531 0.110244
0.058271 0.179590 0.109270
0.075409 0.179303 0.108080
0.093739 0.180027 0.107262
0.117883 0.182024 0.106433
0.145298 0.183048 0.105328
0.182390 0.183883 0.104457
0.232574 0.184836 0.103400
0.298556 0.185824 0.102294
0.378878 0.186863 0.101139
0.470699 0.189092 0.100424
0.560874 0.188583 0.099351
0.636680 0.189409 0.097477
0.702403 0.190498 0.096523
0.757689 0.192596 0.095676
0.810057 0.193891 0.094431
0.044099 0.222054 0.108383
0.061696 0.223446 0.107363
0.079477 0.224008 0.106236
0.099412 0.224996 0.105395
0.123091 0.228067 0.104331
0.151830 0.227705 0.103244
0.192644 0.229489 0.102387
0.246574 0.230798 0.101321
0.316255 0.232273 0.100230
0.400376 0.233715 0.099062
0.493086 0.235067 0.098486
0.579522 0.236595 0.095716
0.653420 0.238331 0.095528
0.718673 0.239781 0.094560
0.770935 0.241102 0.093590
0.820717 0.242828 0.092419
0.047458 0.278994 0.106444
0.065608 0.280766 0.105285
0.083782 0.282040 0.104299
0.103782 0.285118 0.103342
0.129971 0.284424 0.102186
0.161758 0.287937 0.101046
0.204130 0.288734 0.100272
0.261955 0.290515 0.099125
0.335584 0.292315 0.098032
0.423166 0.294079 0.096903
0.517396 0.296209 0.094650
0.601678 0.298064 0.095139
0.673251 0.299386 0.093449
0.733356 0.301227 0.092467
0.784152 0.303371 0.091523
0.831389 0.305628 0.090318
0.051198 0.349180 0.104291
0.069862 0.351353 0.103146
0.088392 0.353418 0.102144
0.110110 0.355204 0.101177
0.136855 0.357368 0.099869
0.169991 0.359581 0.098832
0.216941 0.361198 0.098055
0.278840 0.363347 0.096956
0.356342 0.365554 0.095802
0.447616 0.367759 0.094673
0.542136 0.370677 0.093986
0.622705 0.372904 0.092807
0.692122 0.373508 0.091305
0.749094 0.377185 0.090447
0.796748 0.378901 0.089395
0.841515 0.381426 0.088312
0.055174 0.430906 0.102122
0.074413 0.433481 0.100900
0.093081 0.436623 0.099986
0.116560 0.438853 0.098890
0.143526 0.439829 0.099246
0.181341 0.442274 0.096545
0.231016 0.444982 0.095836
0.296911 0.447445 0.094720
0.378678 0.449935 0.093580
0.473218 0.452419 0.092412
0.564436 0.454865 0.091676
0.644075 0.457377 0.090514
0.708756 0.460884 0.089295
0.762852 0.462836 0.088443
0.808465 0.464633 0.087352
0.851269 0.467072 0.086285
0.059445 0.517199 0.099876
0.079229 0.519607 0.098706
0.099733 0.521371 0.097741
0.123097 0.523445 0.096730
0.153291 0.525400 0.095378
0.192466 0.529329 0.094386
0.246298 0.530597 0.093571
0.316479 0.532967 0.092506
0.402389 0.535338 0.091404
0.498920 0.537778 0.090282
0.587435 0.540433 0.089490
0.662881 0.542896 0.088327
0.724813 0.544671 0.087382
0.775836 0.546461 0.086583
0.819462 0.548724 0.085390
0.859934 0.550868 0.084426
0.063856 0.593694 0.097702
0.084257 0.595863 0.096568
0.104701 0.598155 0.095559
0.129636 0.599964 0.094644
0.162348 0.601548 0.093425
0.204326 0.603654 0.092325
0.262444 0.605482 0.091512
0.336780 0.607553 0.090381
0.426553 0.609676 0.089325
0.523769 0.611763 0.088245
0.608481 0.613505 0.087394
0.679763 0.615584 0.086263
0.740081 0.618015 0.085587
0.788082 0.619658 0.084806
0.829406 0.620777 0.083550
0.867858 0.622705 0.082642
0.068338 0.659225 0.095587
0.089479 0.661204 0.094423
0.111356 0.662332 0.093446
0.137832 0.663907 0.092481
0.172296 0.666596 0.091313
0.216807 0.666890 0.090346
0.279452 0.669388 0.089372
0.357987 0.671154 0.088404
0.451170 0.672754 0.087367
0.546934 0.674519 0.086313
0.627375 0.675424 0.085419
0.695399 0.678701 0.084309
0.752675 0.678736 0.084048
0.799693 0.680009 0.083347
0.837974 0.681918 0.081875
0.874911 0.683372 0.081045
0.072899 0.714860 0.093468
0.094773 0.716292 0.092340
0.116189 0.718076 0.091325
0.145991 0.719390 0.090376
0.182890 0.721855 0.089435
0.231113 0.721929 0.088443
0.297079 0.723330 0.087480
0.379607 0.724918 0.086485
0.475134 0.726268 0.085471
0.568336 0.727720 0.084554
0.646115 0.729261 0.083508
0.709262 0.730818 0.082536
0.762857 0.731842 0.081096
0.809181 0.733081 0.080446
0.845718 0.733660 0.080463
0.881243 0.735059 0.079595
0.077464 0.761860 0.091491
0.100202 0.763277 0.090406
0.124396 0.765358 0.089352
0.154358 0.764992 0.088411
0.192405 0.766027 0.087624
0.244672 0.767393 0.086637
0.315485 0.769273 0.085625
0.401119 0.770581 0.084666
0.498235 0.771624 0.083719
0.587571 0.772843 0.082828
0.661026 0.773358 0.081647
0.722254 0.774667 0.080749
0.774325 0.775604 0.081401
0.816376 0.776121 0.079115
0.852805 0.777658 0.079008
0.886692 0.778425 0.078249
0.090109 0.864101 0.074202
0.114045 0.865078 0.072795
0.141282 0.866240 0.071508
0.173988 0.867157 0.070461
0.221270 0.868265 0.069959
0.280684 0.869256 0.068906
0.360042 0.870200 0.067635
0.454114 0.871243 0.066719
0.554677 0.872183 0.065757
0.642169 0.873417 0.064900
0.712223 0.874174 0.065619
0.771079 0.875507 0.062719
0.816586 0.874939 0.062673
0.854573 0.876829 0.064591
0.885069 0.877154 0.062420
0.914643 0.877770 0.061843
-0.034750 -0.390459 0.147932
-0.027496 -0.390770 0.147205
-0.023760 -0.391173 0.147166
-0.022022 -0.391750 0.145075
-0.038287 -0.392222 0.145234
-0.056773 -0.392650 0.144147
-0.085342 -0.393070 0.143148
-0.104194 -0.393519 0.142162
-0.081238 -0.393974 0.141108
0.147865 -0.394446 0.139889
0.265913 -0.394821 0.139141
0.383202 -0.395178 0.138133
0.486918 -0.395483 0.135480
0.576694 -0.395805 0.134174
0.652840 -0.396109 0.133548
0.724672 -0.396296 0.132107
0.031822 0.080751 0.139575
0.048136 0.081027 0.138765
0.063466 0.080513 0.137297
0.080101 0.080764 0.136691
0.099933 0.083048 0.136186
0.122028 0.081764 0.135037
0.152758 0.082490 0.134173
0.191317 0.082876 0.133112
0.243726 0.083215 0.131974
0.311092 0.083637 0.130727
0.391949 0.084318 0.130281
0.482855 0.083089 0.127561
0.567140 0.085061 0.126189
0.641309 0.085510 0.126528
0.705666 0.085969 0.124466
0.767747 0.086466 0.123055
0.033801 0.098631 0.138090
0.050382 0.099073 0.137091
0.064961 0.100052 0.135878
0.083297 0.098695 0.135197
0.103559 0.100051 0.134104
0.129220 0.100432 0.132894
0.159203 0.100935 0.132127
0.200397 0.101391 0.130995
0.256155 0.101858 0.129808
0.326703 0.102372 0.128612
0.411022 0.102865 0.126624
0.501883 0.103328 0.125444
0.585155 0.104332 0.125451
0.657135 0.103251 0.124122
0.719496 0.105179 0.122159
0.779156 0.105735 0.120703
0.036102 0.119891 0.136341
0.052982 0.120476 0.135153
0.068427 0.119455 0.135877
0.086843 0.121581 0.131735
0.106688 0.120434 0.131969
0.134547 0.122695 0.130661
0.166511 0.122856 0.130001
0.210661 0.123414 0.128773
0.269941 0.124026 0.127523
0.343902 0.124712 0.126315
0.431697 0.124941 0.124320
0.523050 0.125492 0.124759
0.602757 0.127477 0.121367
0.672617 0.126500 0.120165
0.733268 0.128076 0.119814
0.790400 0.128836 0.118348
0.038694 0.145934 0.134420
0.055756 0.146599 0.133248
0.072031 0.146876 0.130718
0.090317 0.147308 0.131447
0.112791 0.149267 0.129461
0.139855 0.148385 0.128199
0.174844 0.149820 0.127691
0.222189 0.150575 0.126450
0.285109 0.151303 0.125241
0.362553 0.152206 0.123865
0.452474 0.151961 0.123691
0.542862 0.152722 0.120728
0.621439 0.154450 0.120682
0.689096 0.155242 0.119489
0.746507 0.156415 0.117403
0.801165 0.157439 0.115966
0.041500 0.178794 0.132298
0.058967 0.179734 0.131069
0.075792 0.180879 0.130249
0.095828 0.181673 0.129163
0.118441 0.182320 0.128641
0.146750 0.183482 0.127379
0.184135 0.184223 0.125348
0.235079 0.185244 0.124097
0.301767 0.186233 0.122744
0.382529 0.187380 0.121431
0.475182 0.188059 0.119557
0.563003 0.189087 0.118423
0.638715 0.191318 0.116747
0.705503 0.192320 0.115483
0.760259 0.192922 0.115016
0.811914 0.194264 0.113609
0.044656 0.222443 0.130067
0.062460 0.223721 0.128794
0.079961 0.225726 0.128031
0.100018 0.226896 0.126943
0.124012 0.226882 0.124421
0.155304 0.228241 0.123180
0.194532 0.230024 0.122868
0.249344 0.231334 0.121596
0.319677 0.232788 0.120314
0.404429 0.234167 0.118935
0.497894 0.235651 0.118774
0.583772 0.236922 0.115867
0.658367 0.238652 0.114391
0.720000 0.240039 0.114826
0.773189 0.241604 0.112591
0.822487 0.243382 0.111219
0.048062 0.279540 0.127719
0.066359 0.281240 0.126370
0.084304 0.284263 0.124090
0.104387 0.283978 0.124533
0.129529 0.286872 0.123500
0.163698 0.288642 0.122275
0.206305 0.289385 0.120278
0.264848 0.291102 0.119084
0.339139 0.292890 0.117758
0.427452 0.294720 0.116449
0.520932 0.296782 0.114582
0.604600 0.298542 0.114956
0.676154 0.301548 0.111933
0.736055 0.303370 0.110756
0.786145 0.304097 0.110156
0.832958 0.306225 0.108830
0.051853 0.349897 0.125223
0.070659 0.352124 0.123846
0.088918 0.352673 0.123289
0.112245 0.356065 0.122033
0.138333 0.356644 0.119273
0.172290 0.358906 0.119659
0.219407 0.362034 0.117757
0.281953 0.364095 0.116482
0.360125 0.366300 0.115149
0.451911 0.368667 0.113906
0.546111 0.371438 0.112054
0.625890 0.373790 0.110701
0.695061 0.375878 0.109520
0.751905 0.376299 0.110090
0.798521 0.379658 0.107704
0.843183 0.382177 0.106465
0.055890 0.431831 0.122632
0.075259 0.434456 0.121307
0.093674 0.436093 0.119151
0.116857 0.439885 0.119585
0.146808 0.440720 0.118417
0.182217 0.443119 0.115474
0.233638 0.445837 0.115159
0.300292 0.448189 0.113887
0.382705 0.450724 0.112588
0.477690 0.453314 0.111338
0.568677 0.455755 0.109488
0.645943 0.458314 0.109783
0.711947 0.460182 0.107265
0.765486 0.463918 0.106251
0.810378 0.465507 0.105391
0.852660 0.468022 0.104209
0.060187 0.517986 0.120009
0.080143 0.520520 0.118645
0.100263 0.522206 0.116566
0.125143 0.524354 0.115364
0.155135 0.526216 0.114332
0.193412 0.530089 0.114668
0.249141 0.531422 0.112620
0.319892 0.533752 0.111340
0.406611 0.536234 0.110068
0.503056 0.538545 0.108862
0.591830 0.539822 0.106966
0.666220 0.543721 0.105559
0.726198 0.545418 0.105152
0.778560 0.547344 0.104196
0.821101 0.549420 0.103228
0.861401 0.551617 0.102050
0.064564 0.594360 0.117502
0.085226 0.596603 0.116103
0.105211 0.598696 0.115669
0.131835 0.600636 0.114535
0.164409 0.602223 0.111964
0.207179 0.604328 0.110607
0.265365 0.606113 0.110143
0.340486 0.608261 0.108918
0.430802 0.610289 0.107656
0.527654 0.612392 0.106535
0.612909 0.614202 0.104402
0.682935 0.616278 0.104771
0.741332 0.618659 0.103073
0.790676 0.618697 0.102212
0.830916 0.621484 0.101133
0.869115 0.623297 0.100070
0.069114 0.659969 0.114936
0.090399 0.661822 0.113594
0.111899 0.662885 0.111400
0.138446 0.666137 0.110270
0.172985 0.665697 0.109457
0.219654 0.669067 0.109880
0.282579 0.669950 0.107692
0.361741 0.671627 0.106616
0.455484 0.673461 0.105391
0.550720 0.674870 0.104284
0.631976 0.677684 0.103594
0.696515 0.677655 0.102372
0.755190 0.680851 0.101200
0.800708 0.680682 0.100391
0.839321 0.682290 0.099242
0.876136 0.684000 0.098235
0.073712 0.715276 0.112583
0.095717 0.716870 0.111214
0.118421 0.718518 0.110604
0.148376 0.719872 0.109411
0.183615 0.720877 0.108832
0.234054 0.720822 0.107653
0.300258 0.723860 0.105465
0.383584 0.725321 0.104416
0.479278 0.726602 0.103291
0.571846 0.728129 0.102126
0.648999 0.729521 0.101373
0.713239 0.731229 0.100188
0.765398 0.730643 0.099603
0.809970 0.733070 0.098886
0.847080 0.734087 0.097483
0.882206 0.735127 0.096580
0.078344 0.762496 0.110245
0.101210 0.763826 0.108878
0.125046 0.764480 0.108257
0.154972 0.765519 0.107079
0.194814 0.767824 0.105208
0.247647 0.769183 0.104159
0.318670 0.769470 0.103418
0.405151 0.770812 0.102374
0.502230 0.772061 0.101268
0.590806 0.773103 0.100258
0.663865 0.775305 0.099329
0.724470 0.774855 0.098286
0.776195 0.777200 0.096501
0.818472 0.778148 0.095887
0.853611 0.777729 0.095906
0.887498 0.778883 0.095134
0.090993 0.864565 0.089304
0.115208 0.865703 0.087832
0.141985 0.866734 0.084997
0.176397 0.867741 0.083783
0.222428 0.868676 0.084223
0.283446 0.869612 0.083081
0.363664 0.870762 0.082097
0.457972 0.871677 0.081001
0.558354 0.872664 0.080045
0.645051 0.873570 0.079281
0.716216 0.874616 0.078318
0.771314 0.875613 0.077490
0.818445 0.876407 0.078622
0.856274 0.875684 0.078370
0.885675 0.877336 0.076611
0.915147 0.878087 0.076088
-0.035101 -0.390646 0.178915
-0.028081 -0.391020 0.178001
-0.019106 -0.391399 0.176836
-0.014801 -0.391998 0.176093
-0.037059 -0.392460 0.174631
-0.059979 -0.392768 0.173281
-0.087043 -0.393283 0.172730
-0.105096 -0.393738 0.171459
-0.079458 -0.394166 0.170072
0.151836 -0.394602 0.168668
0.269776 -0.395004 0.166969
0.388135 -0.395445 0.165536
0.491543 -0.395723 0.163742
0.580797 -0.395712 0.162164
0.655921 -0.396102 0.160735
0.727368 -0.396416 0.158915
0.032217 0.080835 0.168703
0.048411 0.081126 0.167520
0.063605 0.080504 0.166567
0.080331 0.082488 0.165669
0.099780 0.081554 0.163351
0.124245 0.081934 0.163593
0.153880 0.082618 0.161693
0.192976 0.083024 0.160378
0.245941 0.083370 0.158985
0.314062 0.083806 0.157527
0.395400 0.084382 0.156017
0.485460 0.084799 0.154504
0.571086 0.085044 0.154103
0.643332 0.085503 0.151111
0.708227 0.086043 0.149790
0.770065 0.086649 0.148038
0.034265 0.098769 0.166697
0.050794 0.099154 0.165411
0.066975 0.100024 0.164623
0.083705 0.098679 0.163651
0.103655 0.100136 0.162213
0.129921 0.100571 0.160731
0.160494 0.101100 0.159091
0.202192 0.101550 0.157734
0.258578 0.102010 0.156270
0.330140 0.102559 0.154737
0.413178 0.102983 0.153372
0.506861 0.103441 0.151822
0.587253 0.104346 0.151284
0.660535 0.104894 0.148226
0.721986 0.105214 0.146955
0.781247 0.105951 0.145160
0.036542 0.120080 0.164465
0.053369 0.120471 0.163008
0.068674 0.121081 0.162522
0.087137 0.121467 0.159700
0.108777 0.122121 0.159441
0.135750 0.122690 0.157920
0.168052 0.122993 0.156441
0.212773 0.123617 0.154976
0.272653 0.124218 0.153479
0.347438 0.124875 0.151871
0.434237 0.124952 0.150677
0.524886 0.125466 0.147541
0.606662 0.127398 0.146925
0.675809 0.128048 0.145399
0.735835 0.128170 0.144027
0.792386 0.129089 0.142245
0.039171 0.146061 0.162029
0.056269 0.146731 0.160535
0.074050 0.148474 0.158609
0.090775 0.147386 0.158982
0.113445 0.149367 0.156570
0.139597 0.150153 0.155043
0.176535 0.149998 0.153632
0.224449 0.150826 0.152113
0.288146 0.151616 0.150601
0.366264 0.152359 0.148965
0.456848 0.153550 0.147866
0.546713 0.154194 0.144783
0.623575 0.156103 0.144216
0.692232 0.157075 0.142599
0.749219 0.156657 0.141180
0.803104 0.157762 0.139392
0.042053 0.179133 0.159450
0.059523 0.180038 0.157906
0.076250 0.181343 0.156172
0.096315 0.182029 0.154794
0.119396 0.182622 0.153703
0.148477 0.183628 0.152117
0.186020 0.184567 0.150753
0.237541 0.185551 0.149201
0.305000 0.186575 0.147606
0.386414 0.187660 0.145975
0.479695 0.189746 0.144833
0.566855 0.190803 0.141700
0.643460 0.191509 0.141192
0.708369 0.191121 0.139715
0.762323 0.193301 0.138181
0.813716 0.194698 0.136501
0.045261 0.222862 0.156600
0.063158 0.224211 0.155049
0.080495 0.224738 0.153370
0.100422 0.225672 0.152068
0.125036 0.229113 0.150693
0.155524 0.228863 0.149106
0.196607 0.230533 0.147742
0.252092 0.231846 0.146185
0.323072 0.233221 0.144579
0.408537 0.234748 0.142940
0.501110 0.236163 0.141728
0.588055 0.237650 0.140151
0.661674 0.239333 0.138242
0.722904 0.240821 0.136879
0.775519 0.242129 0.135289
0.824273 0.243899 0.133652
0.048754 0.280082 0.153695
0.067046 0.281878 0.152060
0.084769 0.283127 0.150463
0.106378 0.286220 0.149100
0.132334 0.285818 0.147576
