example_ofxGpuLutCube/bin/data/ofxGpuLutCube/LUT/A9 (dark warm contrasty).cube
LUT_3D_SIZE 6
0.029269 0.062669 0.097681
0.076151 0.064137 0.096262
0.144064 0.063903 0.094580
0.289605 0.064724 0.092241
0.541433 0.067123 0.090034
0.750047 0.067151 0.086975
0.035204 0.119613 0.094453
0.086092 0.121061 0.092815
0.163799 0.122414 0.090080
0.337421 0.124124 0.087386
0.595661 0.125189 0.084570
0.786231 0.128301 0.081572
0.043511 0.221720 0.090109
0.097569 0.226128 0.086958
0.190660 0.229130 0.084934
0.396181 0.233236 0.082066
0.650245 0.237765 0.079373
0.818880 0.242342 0.076164
0.054514 0.430250 0.084671
0.114318 0.436392 0.081653
0.228507 0.444122 0.079170
0.468820 0.451489 0.076227
0.704660 0.458547 0.073710
0.849876 0.466391 0.070702
0.067592 0.658650 0.078956
0.135621 0.663228 0.075911
0.276293 0.668728 0.073539
0.542885 0.674039 0.070724
0.748673 0.679976 0.067476
0.873872 0.683037 0.065895
0.089181 0.863642 0.060381
0.173222 0.866992 0.056532
0.356492 0.869975 0.054188
0.639140 0.873003 0.051577
0.816180 0.875995 0.049346
0.914287 0.877694 0.048381
-0.035101 -0.390646 0.178915
-0.014801 -0.391998 0.176093
-0.087043 -0.393283 0.172730
0.151836 -0.394602 0.168668
0.491543 -0.395723 0.163742
0.727368 -0.396416 0.158915
0.036542 0.120080 0.164465
0.087137 0.121467 0.159700
0.168052 0.122993 0.156441
0.347438 0.124875 0.151871
0.606662 0.127398 0.146925
0.792386 0.129089 0.142245
0.045261 0.222862 0.156600
0.100422 0.225672 0.152068
0.196607 0.230533 0.147742
0.408537 0.234748 0.142940
0.661674 0.239333 0.138242
0.824273 0.243899 0.133652
0.056619 0.432659 0.147512
0.119114 0.440625 0.142850
0.236192 0.446791 0.138354
0.482209 0.454170 0.133745
0.713340 0.460761 0.129909
0.854078 0.468829 0.125366
0.069927 0.660535 0.138230
0.140571 0.665049 0.133406
0.285692 0.670527 0.129598
0.554612 0.675578 0.125453
0.756118 0.679716 0.121509
0.877260 0.684343 0.118431
0.091917 0.864858 0.105990
0.178681 0.866557 0.100407
0.367118 0.870864 0.097653
0.648112 0.873705 0.094669
0.819035 0.876826 0.093465
0.915862 0.878417 0.091580
-0.036100 -0.391162 0.335437
-0.032961 -0.392488 0.329291
-0.091750 -0.393702 0.321722
0.165378 -0.394964 0.312918
0.505962 -0.395777 0.303783
0.735157 -0.396710 0.292523
0.038068 0.120570 0.305626
0.089769 0.121984 0.296384
0.172732 0.123677 0.288518
0.357967 0.125565 0.279012
0.617430 0.128161 0.269836
0.798791 0.129829 0.259204
0.047114 0.224126 0.288937
0.103483 0.228739 0.279634
0.203087 0.231961 0.270208
0.420815 0.236197 0.260457
0.671588 0.241180 0.250984
0.829840 0.245592 0.241713
0.058830 0.435009 0.270026
0.121044 0.441569 0.260803
0.244508 0.449185 0.251152
0.495399 0.456844 0.242054
0.721964 0.465090 0.234681
0.858440 0.471289 0.225585
0.072417 0.662336 0.251161
0.144119 0.666983 0.241754
0.295524 0.672211 0.233878
0.566114 0.677042 0.226074
0.762182 0.682599 0.218580
0.880523 0.685562 0.212471
0.094772 0.866087 0.183620
0.184016 0.869164 0.174433
0.378140 0.871976 0.166970
0.656783 0.874906 0.161552
0.823195 0.876005 0.158869
0.917339 0.878777 0.157100
-0.037092 -0.391670 0.577664
-0.033677 -0.392842 0.570492
-0.096090 -0.394160 0.561259
0.179584 -0.395387 0.550124
0.517197 -0.396264 0.537229
0.743797 -0.396899 0.522629
0.039684 0.121095 0.534926
0.093006 0.122495 0.524195
0.177747 0.124358 0.512770
0.369030 0.126312 0.499537
0.628646 0.127593 0.486475
0.805384 0.130656 0.470807
0.049174 0.225567 0.513307
0.106808 0.228305 0.500791
0.210003 0.233562 0.487264
0.434464 0.237949 0.472804
0.681753 0.242580 0.457960
0.835421 0.247263 0.443992
0.061216 0.437755 0.486578
0.126101 0.445716 0.472555
0.253403 0.452121 0.458792
0.509513 0.459597 0.444391
0.730955 0.465844 0.431672
0.863021 0.473678 0.417978
0.075094 0.664231 0.458485
0.149271 0.669008 0.444205
0.305680 0.674139 0.431349
0.577961 0.678787 0.418285
0.770094 0.682547 0.406798
0.883899 0.686981 0.396450
0.097844 0.867058 0.381782
0.188432 0.870162 0.366412
0.389296 0.872860 0.353066
0.665059 0.875574 0.341688
0.826154 0.876661 0.333852
0.918715 0.879547 0.327160
-0.038121 -0.392216 0.755491
-0.035469 -0.393021 0.750399
-0.099688 -0.394597 0.745311
0.194474 -0.395787 0.738368
0.529857 -0.396624 0.729900
0.752115 -0.397202 0.720045
0.041418 0.121647 0.721494
0.094254 0.122903 0.713844
0.183169 0.125148 0.706824
0.380531 0.126999 0.697712
0.639794 0.128353 0.688308
0.811870 0.131486 0.677657
0.051266 0.226853 0.706857
0.110091 0.231450 0.697470
0.217214 0.235158 0.689382
0.448081 0.239589 0.679098
0.691722 0.244169 0.669197
0.841094 0.249001 0.658090
0.063709 0.440357 0.688469
0.131086 0.446667 0.679054
0.262508 0.454810 0.669037
0.523137 0.462355 0.658036
0.737988 0.470007 0.648402
0.867681 0.476098 0.637555
0.077826 0.666265 0.668443
0.153050 0.670926 0.657428
0.316476 0.675877 0.647897
0.588959 0.680564 0.637489
0.775942 0.685499 0.628674
0.887071 0.688373 0.619421
0.101028 0.868418 0.620050
0.195666 0.871243 0.609315
0.400662 0.873857 0.598404
0.673065 0.876540 0.588734
0.831778 0.878881 0.582507
0.920389 0.880257 0.575488
-0.039022 -0.392766 0.863414
-0.039875 -0.393782 0.860949
-0.102712 -0.395008 0.856833
0.209945 -0.396012 0.852216
0.543704 -0.396844 0.846768
0.759788 -0.397406 0.840064
0.043106 0.122213 0.840186
0.097318 0.123676 0.835588
0.188868 0.125747 0.830438
0.392513 0.127716 0.824668
0.648930 0.129247 0.817972
0.817509 0.132245 0.811490
0.053315 0.228304 0.830556
0.113309 0.231134 0.824427
0.224807 0.236699 0.819197
0.461568 0.241220 0.812717
0.700981 0.245885 0.805507
0.845962 0.250595 0.799134
0.066112 0.442928 0.818413
0.134615 0.449425 0.813801
0.271713 0.457305 0.806008
0.536000 0.464977 0.798861
0.744780 0.472229 0.791908
0.871523 0.478398 0.785759
0.080500 0.668052 0.805355
0.158537 0.674091 0.799219
0.326815 0.677527 0.792416
0.599097 0.682152 0.785540
0.779975 0.685126 0.780364
0.889922 0.689493 0.774296
0.096165 0.812248 0.792129
0.186926 0.815259 0.785905
0.385514 0.817296 0.779897
0.644907 0.819587 0.774332
0.803537 0.821650 0.768807
0.901755 0.822842 0.766009
