example_ofxGpuLutCube/bin/data/ofxGpuLutCube/LUT/Brannan.cube
TITLE "16x16x16 Adobe/IRIDAS cube 3D LUT exported with GrossGrade v0.1.027.1 (beta) 64 bit"
DOMAIN_MIN 0 0 0
DOMAIN_MAX 1 1 1
LUT_3D_SIZE 16
0.097999997 0.039200000 0.086300001
0.126806661 0.047359999 0.094360001
0.165739998 0.054900002 0.097999997
0.197680026 0.058800001 0.099580005
0.235586673 0.059840005 0.099066667
0.273233354 0.070600003 0.105899997
0.320800036 0.080000006 0.111360006
0.366046697 0.084220000 0.115520000
0.426413327 0.088379994 0.123680003
0.489439994 0.094099998 0.131740004
0.563366592 0.100666657 0.145099998
0.637686670 0.109800003 0.149000004
0.700399995 0.116820000 0.156100005
0.771793365 0.128880009 0.171980008
0.840486586 0.144313291 0.179873317
0.917599976 0.160799995 0.184300005
0.106160000 0.067479998 0.090460002
0.126546666 0.067479998 0.090460002
0.162893340 0.071906671 0.097999997
0.197160020 0.079186670 0.098266661
0.231926695 0.084220007 0.099066667
0.273233354 0.087346673 0.101999998
0.319466710 0.096706674 0.110060006
0.366046697 0.101173334 0.111880004
0.422726631 0.112926669 0.125239998
0.491520047 0.124986671 0.135173336
0.560253263 0.132273331 0.137559995
0.634473383 0.143026680 0.140420005
0.697279990 0.157940000 0.156100005
0.771793365 0.172506690 0.171460018
0.840753257 0.181179985 0.176493332
0.921859980 0.189506665 0.184560001
0.113700002 0.095673338 0.097999997
0.134606674 0.095933340 0.098266661
0.162893340 0.092293337 0.097999997
0.197680026 0.099840008 0.099060006
0.236626670 0.105653346 0.103040002
0.274013340 0.113973349 0.105379999
0.318680048 0.125253350 0.109800003
0.363100022 0.138300017 0.116573334
0.425066650 0.153473333 0.126279995
0.488906652 0.166273341 0.133300006
0.558166623 0.175426647 0.143800005
0.629266679 0.181973338 0.145099998
0.697019994 0.196613342 0.151873335
0.764946699 0.209386691 0.164700016
0.841019928 0.229326651 0.180393323
0.917599976 0.234533340 0.180920005
0.114480004 0.128640011 0.102779999
0.139126673 0.129680008 0.098800004
0.170953333 0.129420012 0.098800004
0.196900025 0.127860010 0.098800004
0.233240023 0.136206686 0.097766683
0.273233354 0.150060013 0.103299998
0.320000052 0.161600024 0.109800003
0.366046697 0.171219990 0.114739999
0.422206640 0.180633351 0.122593328
0.483880013 0.190560013 0.128619999
0.562866628 0.208619997 0.144580007
0.630566657 0.218580022 0.145099998
0.695699990 0.230620027 0.156100005
0.771793365 0.245980039 0.171200007
0.840486586 0.261939973 0.178293318
0.918399990 0.276080012 0.184300005
0.122639999 0.168886676 0.103040002
0.149786666 0.171746671 0.104859993
0.175660014 0.171746671 0.101999998
0.207300022 0.167846680 0.099066667
0.235586673 0.167846680 0.101999998
0.271346658 0.179320008 0.104080006
0.320266724 0.188240021 0.105120011
0.365733355 0.205746666 0.116320007
0.427453309 0.220146671 0.122853324
0.487580031 0.230346680 0.129686683
0.560286641 0.244986668 0.142499998
0.633473337 0.257006675 0.146920010
0.697279990 0.270033330 0.155006662
0.768846691 0.292046696 0.169640005
0.844479918 0.308779985 0.177273333
0.924459994 0.327866673 0.184300005
0.131999999 0.213033348 0.103299998
0.157940000 0.214366674 0.104600005
0.186913341 0.214366674 0.104600005
0.218840018 0.214366674 0.104079999
0.247286677 0.214366674 0.108499996
0.270600021 0.214366674 0.104599997
0.321540028 0.223793343 0.109800003
0.367866695 0.236373335 0.115520000
0.423246652 0.247313336 0.122379996
0.484440029 0.263773352 0.130700007
0.559466600 0.279733360 0.141200006
0.635286689 0.298293352 0.148220003
0.697766662 0.313473344 0.156586662
0.770980060 0.335413367 0.170680001
0.844479918 0.355013341 0.176499993
0.920266628 0.373833358 0.182999998
0.136460021 0.256500036 0.108239993
0.167046666 0.256240040 0.108239993
0.196373343 0.256500036 0.109800003
0.228220016 0.256500036 0.109019995
0.254406661 0.256500036 0.107460007
0.282593369 0.259880036 0.111100003
0.322360039 0.256500006 0.109800003
0.365206689 0.272140026 0.116860017
0.426106662 0.288633376 0.125759989
0.485480011 0.304320037 0.131740004
0.558393240 0.324206680 0.142499983
0.633980036 0.341433346 0.146400005
0.696500003 0.366280049 0.156880006
0.767806709 0.383286744 0.169900015
0.842619896 0.399253309 0.180393293
0.919200003 0.421200037 0.188199997
0.144840002 0.310833365 0.115520000
0.175146669 0.310573369 0.115259998
0.205993339 0.309013337 0.116300002
0.236359999 0.307713360 0.115280010
0.263766676 0.307946682 0.114479996
0.295173347 0.309533358 0.113973342
0.337766677 0.309273362 0.115786672
0.366046697 0.309013337 0.115520008
0.420906663 0.323420048 0.119993336
0.486013323 0.345626682 0.130180001
0.558426619 0.364193380 0.141200006
0.633686721 0.382473379 0.145879999
0.695166707 0.402366668 0.156586647
0.768846691 0.427966684 0.168859988
0.842353284 0.458533317 0.175926656
0.916093290 0.485466689 0.184560001
0.152899995 0.363666654 0.121600002
0.178066656 0.367566645 0.121860005
0.215973347 0.368086636 0.122120000
0.247573346 0.368866622 0.122900002
0.277126670 0.369646639 0.124720000
0.311393321 0.369646639 0.125499994
0.350080013 0.368086636 0.122120008
0.383513331 0.369386643 0.123153336
0.424546659 0.369433343 0.125973329
0.487566710 0.387953311 0.133613333
0.558439910 0.401840001 0.138566658
0.633686721 0.427166671 0.148219988
0.697279990 0.457506627 0.158979997
0.768100083 0.490446687 0.168599993
0.842619956 0.507933319 0.177533299
0.921286643 0.518173337 0.185906678
0.163139999 0.432940006 0.131740004
0.190606669 0.430860013 0.128099993
0.227460012 0.432680011 0.131219998
0.260380000 0.438400000 0.134100005
0.293346703 0.438400000 0.132806674
0.327873349 0.434760004 0.130699992
0.369420052 0.435280025 0.130960003
0.402606666 0.435020030 0.131740004
0.441553324 0.429766685 0.129659995
0.490220010 0.438400000 0.131740004
0.559173286 0.458040029 0.139900014
0.635793388 0.488920003 0.145359993
0.697260022 0.504300058 0.158439979
0.768873394 0.523900032 0.172526687
0.840746582 0.547719955 0.178839982
0.919200003 0.577239990 0.186639994
0.167300001 0.513733268 0.138566658
0.202873319 0.513733268 0.141166642
0.236093342 0.514773309 0.139086649
0.267986685 0.514513314 0.138046652
0.305633336 0.517666578 0.139606655
0.341199994 0.516333282 0.137266651
0.384046674 0.514773309 0.139606655
0.420913339 0.514513314 0.140386656
0.464053333 0.516853273 0.137300014
0.508199990 0.520006657 0.142499968
0.558166623 0.512433410 0.137300014
0.633426666 0.536459923 0.147439986
0.694613338 0.560486615 0.155566663
0.766526699 0.589553356 0.168860003
0.843413234 0.610979915 0.179099992
0.921599984 0.624866664 0.185599998
0.179360002 0.600280046 0.145099998
0.215159997 0.600540042 0.148220003
0.243113354 0.599240005 0.144580007
0.285493374 0.602600038 0.149259999
0.320773363 0.601320028 0.145099998
0.354493350 0.602620006 0.143540010
0.399233341 0.602880001 0.146400005
0.441326678 0.601320028 0.146919996
0.484953314 0.600280046 0.146920010
0.527340055 0.607039988 0.145620003
0.579626620 0.605480015 0.146399990
0.635793388 0.609146714 0.146139994
0.696500003 0.615673363 0.157159984
0.768340051 0.632933319 0.171460018
0.841546595 0.652013361 0.177279994
0.913986623 0.669273317 0.180686653
0.186639994 0.664319992 0.159219995
0.227226675 0.665106654 0.156619996
0.256213367 0.665619969 0.156100005
0.294900000 0.669000030 0.159999996
0.337486655 0.665899992 0.157940000
0.368373334 0.665619969 0.155320004
0.421959996 0.668219984 0.159219995
0.461186707 0.665099978 0.153986678
0.505073309 0.664319992 0.157399997
0.545080006 0.665099978 0.156880006
0.601853311 0.663800001 0.158699989
0.647853374 0.664319992 0.155320004
0.692520022 0.667439997 0.156100005
0.771266699 0.687820017 0.172239989
0.840759873 0.703793228 0.176493302
0.921599984 0.724699974 0.185079992
0.202860013 0.740913391 0.168080002
0.236086681 0.737533391 0.164440006
0.268780023 0.737533391 0.161839992
0.312926710 0.743513405 0.168080002
0.349806666 0.738053441 0.168080002
0.393173367 0.742213368 0.171460018
0.440280050 0.739873350 0.167039990
0.484426707 0.740913391 0.168080002
0.526546657 0.740393400 0.168080002
0.567086697 0.740913391 0.165740013
0.623293281 0.740913391 0.168080002
0.670573354 0.740913391 0.167559996
0.712119997 0.741173387 0.171460018
0.764946699 0.738053322 0.164700001
0.843693256 0.760520041 0.179086655
0.921599984 0.774406672 0.184300005
0.211533323 0.816986561 0.176499993
0.247613341 0.816726565 0.179613322
0.287073284 0.819846511 0.182993293
0.323620021 0.817506552 0.180653319
0.366539985 0.816726565 0.179613307
0.406013340 0.815686584 0.176233321
0.461693317 0.814899862 0.179873317
0.502466679 0.816986501 0.179873317
0.547446609 0.815166593 0.178053305
0.587473333 0.814119935 0.175973311
0.640039921 0.815686584 0.176233336
0.684446633 0.813086569 0.178833321
0.735699892 0.823046505 0.182473317
0.780900061 0.816726446 0.176493302
0.836846590 0.813086569 0.172499999
0.925239980 0.833206594 0.188199997
0.223499998 0.886300027 0.184300005
0.259846658 0.886300027 0.184300005
0.289953351 0.879973352 0.178059995
0.341220021 0.888639987 0.187419996
0.382766694 0.886300027 0.181440011
0.427433372 0.886300027 0.184300005
0.483900040 0.883960009 0.185860008
0.521026671 0.882613361 0.182480007
0.565486670 0.886300027 0.186379999
0.611760020 0.886300027 0.184300005
0.660166621 0.883700013 0.184300005
0.701713324 0.880506694 0.184300005
0.748199999 0.881600022 0.182740003
0.794006705 0.882919967 0.184819996
0.852546573 0.886040032 0.184040010
0.921599984 0.886300027 0.184300005
0.106419995 0.047359999 0.103306666
0.127066657 0.047619998 0.103306666
0.162893340 0.055160005 0.110846668
0.199500009 0.059060000 0.111886673
0.237380013 0.059840005 0.118646674
0.273233354 0.069040000 0.123946674
0.322066694 0.074500002 0.135940000
0.363913357 0.082400002 0.145626664
0.424546659 0.086300001 0.150306657
0.485746682 0.096440002 0.160546675
0.561033309 0.099366657 0.171986669
0.636619985 0.107720003 0.183006659
0.702740014 0.116039999 0.188726678
0.765466690 0.131740034 0.196626678
0.839966595 0.137033328 0.204686657
0.925239980 0.160540000 0.228020012
0.106160000 0.063486673 0.103039995
0.134873345 0.075286672 0.110846668
0.170173317 0.079186670 0.114746675
0.205226690 0.084226675 0.120226681
0.243906677 0.089166678 0.127066657
0.282079995 0.096446671 0.132273346
0.332306683 0.101166673 0.142766669
0.381173342 0.111366674 0.148486659
0.448619962 0.123426668 0.163926676
0.506393313 0.132013336 0.170693353
0.577739954 0.144066662 0.176733330
0.652773321 0.159740001 0.183786675
0.718959987 0.168613330 0.196086660
0.778573334 0.181173354 0.205213338
0.863819838 0.193239972 0.224026635
0.938340008 0.205993339 0.229326665
0.113960005 0.092293337 0.107206672
0.139386669 0.100620002 0.111886680
0.170693338 0.100620002 0.111626670
0.208086684 0.108513340 0.116586678
0.246506676 0.114240021 0.124466680
0.283380002 0.126300007 0.132540002
0.333346695 0.135693356 0.144326687
0.380133331 0.148233339 0.148746669
0.446539968 0.163413346 0.163926676
0.504833341 0.172266677 0.168873340
0.577746630 0.180899978 0.177253336
0.650433362 0.194266677 0.185353354
0.715066671 0.211533323 0.195046678
0.780113399 0.226693377 0.207553372
0.863553226 0.237653330 0.220906660
0.934353352 0.243386686 0.225600004
0.114753343 0.129160017 0.111366674
0.144593343 0.138800025 0.119966678
0.169673339 0.132293344 0.113200009
0.204966694 0.138540030 0.116313338
0.243646666 0.150060028 0.124206670
0.284160018 0.163666666 0.133046672
0.336206734 0.170440018 0.141206667
0.378053367 0.181460008 0.146686688
0.441553295 0.192433342 0.156079993
0.504306674 0.206786692 0.168866664
0.580939949 0.221186668 0.178813323
0.648900032 0.229520023 0.185613349
0.717906654 0.248126671 0.197906673
0.774666667 0.258566707 0.205213338
0.859833121 0.275299966 0.220126659
0.941460013 0.296206683 0.231926665
0.120799996 0.174606666 0.117606670
0.156313330 0.179053336 0.125246689
0.183533341 0.177213341 0.124206670
0.217020005 0.178793341 0.122313343
0.247033343 0.178013340 0.127586678
0.281819999 0.191093355 0.131746680
0.333866686 0.199513361 0.140686676
0.385593355 0.215153351 0.149533331
0.443159968 0.227433339 0.158419997
0.509020030 0.245506689 0.170720011
0.579339921 0.255973339 0.176733330
0.652800024 0.271386713 0.189273342
0.719739974 0.287353337 0.195306659
0.782466710 0.308253348 0.204693332
0.861153185 0.323893309 0.220119983
0.941959977 0.344346702 0.230866671
0.129659995 0.213300020 0.126546666
0.166006669 0.220153347 0.131746680
0.199753344 0.223020017 0.135673344
0.228220016 0.220940009 0.136460021
0.257006645 0.220420003 0.135940015
0.282333374 0.225353360 0.135413349
0.339606702 0.237153351 0.147446677
0.383513361 0.248873353 0.146406665
0.443419993 0.261179984 0.161586657
0.506933331 0.279740036 0.169386670
0.583813310 0.296213359 0.179600000
0.652540028 0.311633348 0.187173352
0.719219983 0.338546664 0.199733332
0.781940043 0.352160007 0.207033336
0.867206514 0.373579979 0.224286646
0.941726685 0.389280021 0.230106667
0.133860022 0.254100025 0.133340016
0.170693323 0.271360010 0.142766669
0.205746680 0.269280046 0.143026680
0.238960013 0.272920042 0.149006665
0.265333354 0.270320028 0.144066676
0.294140041 0.270580053 0.144326672
0.337766677 0.269020021 0.145106658
0.381693333 0.288366705 0.150313333
0.439733326 0.305066675 0.160546675
0.505086660 0.321060061 0.168346658
0.581739962 0.345113367 0.179626659
0.649420023 0.362080008 0.188766658
0.720499992 0.380940020 0.198426679
0.777253389 0.401853353 0.207293347
0.861966491 0.424580008 0.221686646
0.939640045 0.450466722 0.231926680
0.146660000 0.306413352 0.143286675
0.180413321 0.326793343 0.152173340
0.218573332 0.324973345 0.147966668
0.247306675 0.326013327 0.151113346
0.277126640 0.325753361 0.149266660
0.310873330 0.327313364 0.149793342
0.350079983 0.322893351 0.150313333
0.383513361 0.330173343 0.149306670
0.446539968 0.350346655 0.165226653
0.508260012 0.364186674 0.171766683
0.580393314 0.383533329 0.179366663
0.651239991 0.406006694 0.190073341
0.717666626 0.424320042 0.198173359
0.781933427 0.455420047 0.208593354
0.866166532 0.484686643 0.226153314
0.941720009 0.497786671 0.229286671
0.155553326 0.363666654 0.148746654
0.190339997 0.385606647 0.156599998
0.227980003 0.386133313 0.160026670
0.259079993 0.389033318 0.159506664
0.293086648 0.387733340 0.160546675
0.328606665 0.385093302 0.160286665
0.367080003 0.387733340 0.162106663
0.401820004 0.389293343 0.161846682
0.443159968 0.387686670 0.161846682
0.503526628 0.402359992 0.164446667
0.580406606 0.429253310 0.180926681
0.649420023 0.457513332 0.188993350
0.713980019 0.481819987 0.196353346
0.780126691 0.501953363 0.206506684
0.861166477 0.522340000 0.218566656
0.940159976 0.538306653 0.227200001
0.155300006 0.431900024 0.156073332
0.202613339 0.460386664 0.170173332
0.240300015 0.462520033 0.172293350
0.268506676 0.463299990 0.170953333
0.302506685 0.460406691 0.167073339
0.338853329 0.463299990 0.169933334
0.375920027 0.463560015 0.168640003
0.417526692 0.463820010 0.170733348
0.465880007 0.464340031 0.172560021
0.505606651 0.462780029 0.174119994
0.581473291 0.488613307 0.179626659
0.649640024 0.507959962 0.185613349
0.715586662 0.523366690 0.194266692
0.781693399 0.550066710 0.206513330
0.869019866 0.580153286 0.222466663
0.947700024 0.599446654 0.232446671
0.168339998 0.515033305 0.168086678
0.213593319 0.535939991 0.178326666
0.244153321 0.537239969 0.175666675
0.278946668 0.538279951 0.175666675
0.320753366 0.536206663 0.177253336
0.357653350 0.534899950 0.175406665
0.400500000 0.537499905 0.179366663
0.441853344 0.534899950 0.176993340
0.483659983 0.538539946 0.177253321
0.528646648 0.537759960 0.175433323
0.582219958 0.536199927 0.181706667
0.652020037 0.557106614 0.187166661
0.715319991 0.585373282 0.195046648
0.783513427 0.606533289 0.212033316
0.865639806 0.625640035 0.222493321
0.944060028 0.641346574 0.232706666
0.178293332 0.601053357 0.180146664
0.224553332 0.614086688 0.186133340
0.257513344 0.616193354 0.184566662
0.294126689 0.614086688 0.186386675
0.336973339 0.615679979 0.188213333
0.373086691 0.615939975 0.188733339
0.415940046 0.616720021 0.188473344
0.461713374 0.615419984 0.187693343
0.503260016 0.615953326 0.187173337
0.544286728 0.612786651 0.184046671
0.605759919 0.616720021 0.191100001
0.653313339 0.614893317 0.192693338
0.717399955 0.633726716 0.198946670
0.779853404 0.648633361 0.207033351
0.868239820 0.675846696 0.223766640
0.943800032 0.687840044 0.229813337
0.187686682 0.664319992 0.181966662
0.235566676 0.687826693 0.193226695
0.275033355 0.685226619 0.197146684
0.307206690 0.688606679 0.194286674
0.345393330 0.687826693 0.192400008
0.387200028 0.690686703 0.196106672
0.435326755 0.689386666 0.193753362
0.480013371 0.690686703 0.193486691
0.526546657 0.687826693 0.194793344
0.567080021 0.688606679 0.194806665
0.624066591 0.688346684 0.194806680
0.665899992 0.690946698 0.196613342
0.717400014 0.687566698 0.196086675
0.781693399 0.705353320 0.206513330
0.856193244 0.724433184 0.217259988
0.944580019 0.742226660 0.229586676
0.202600017 0.737533391 0.196886674
0.247613341 0.757913351 0.208333358
0.283953369 0.757393360 0.209120005
0.326033384 0.760513365 0.212053344
0.363680035 0.760253370 0.209133357
0.407060027 0.757133365 0.208853349
0.460653394 0.758433402 0.207033351
0.502733350 0.757913351 0.206253350
0.550080001 0.755573392 0.209419996
0.593193352 0.759733379 0.211793348
0.643673301 0.760253370 0.211793348
0.681053340 0.759213388 0.211000010
0.733866632 0.757133365 0.207553372
0.780373454 0.757913351 0.208593354
0.860353231 0.774146676 0.221173316
0.944580019 0.785593390 0.231653348
0.211793318 0.816986561 0.208333299
0.256733358 0.837893248 0.224813312
0.296979994 0.833993256 0.224026635
0.341733277 0.839973271 0.227759972
0.382499963 0.839973271 0.223759964
0.428499967 0.840493202 0.223499954
0.480780005 0.839193225 0.222726643
0.522373378 0.838673234 0.223546639
0.570199847 0.832173228 0.222199962
0.618053257 0.837633252 0.223759964
0.664579928 0.840493262 0.223759949
0.699626684 0.836853266 0.223246664
0.755046546 0.840493262 0.226433322
0.800766587 0.840753257 0.223759964
0.860879898 0.840493262 0.227493301
0.934613347 0.849426568 0.232446656
0.219860002 0.889940023 0.216746673
0.261153340 0.898786664 0.225333333
0.312940001 0.899306655 0.225073338
0.351106673 0.898786664 0.226906687
0.402626693 0.899046659 0.229320005
0.447560012 0.900113344 0.228540003
0.498560041 0.899046659 0.228540003
0.538806677 0.897486687 0.228540003
0.587686658 0.899306655 0.232446671
0.633179963 0.899046659 0.226406664
0.677946687 0.900640011 0.228806674
0.716086686 0.899306655 0.227740005
0.763379991 0.899046659 0.228806674
0.809433401 0.899046659 0.221686661
0.876579940 0.899046659 0.228273347
0.934086680 0.895406663 0.228806674
0.117080003 0.054380000 0.134873345
0.134873331 0.054900002 0.131493345
0.162359998 0.054900002 0.130973339
0.196640030 0.055680003 0.135920003
0.235586673 0.060373340 0.144853339
0.270566672 0.067479998 0.155793339
0.324426711 0.076060005 0.171213329
0.367033362 0.080266669 0.174380004
0.426626652 0.087859996 0.184053347
0.489439994 0.091499999 0.191120014
0.558913291 0.102746658 0.200793326
0.633686721 0.109800003 0.210426673
0.699620008 0.117353328 0.223513335
0.762086689 0.126019999 0.229580015
0.840746582 0.137553334 0.237393335
0.924979985 0.160799995 0.253613323
0.113960005 0.071906671 0.128373325
0.139126673 0.079446666 0.135660022
0.163153321 0.075806670 0.135653347
0.207826689 0.087346673 0.147713348
0.247026667 0.088126674 0.155786663
0.283120036 0.095406666 0.163146660
0.334126681 0.101166673 0.172260001
0.380133331 0.109546669 0.178540006
0.441293299 0.125506669 0.185093343
0.506133318 0.133833349 0.195593342
0.580639958 0.147186667 0.210686684
0.653580010 0.161326677 0.223773345
0.719226658 0.169399992 0.231393337
0.781420052 0.180653349 0.240513355
0.864866555 0.196879968 0.256733298
0.938073337 0.202093348 0.261940002
0.113700002 0.092293337 0.128113329
0.142766669 0.096713334 0.139646664
0.179113343 0.109033346 0.151093349
0.216500014 0.116573341 0.152140006
0.255186677 0.129153326 0.163413346
0.295706719 0.138286695 0.168613344
0.352160037 0.148493350 0.181193352
0.404986680 0.164193317 0.192146674
0.469006658 0.174086660 0.201313332
0.526820064 0.180893332 0.208346695
0.605506599 0.196599990 0.226946652
0.671920002 0.209386677 0.235313341
0.735700011 0.224306673 0.242073342
0.798673391 0.236340031 0.248126686
0.880819917 0.250486672 0.261686683
0.958980024 0.263506681 0.277633339
0.118400007 0.129420012 0.139899999
0.148233339 0.138273373 0.148753345
0.184053347 0.143820032 0.150073349
0.217020020 0.153440028 0.152660012
0.253106654 0.164720014 0.170433342
0.293873370 0.171480000 0.173813343
0.349040061 0.180100039 0.181193352
0.401813358 0.194240004 0.190600008
0.467746645 0.206533328 0.198159993
0.527599990 0.221193358 0.209386677
0.599726617 0.231126696 0.220913336
0.667180002 0.249166667 0.231386676
0.736479998 0.259873360 0.243633345
0.801026702 0.277133346 0.250493348
0.881339848 0.296473354 0.261426657
0.963413358 0.316860020 0.280753344
0.121600002 0.172266662 0.146673337
0.155793324 0.178793341 0.158980012
0.200273350 0.185900018 0.167833328
0.228213355 0.188240007 0.167053342
0.252313316 0.188760027 0.164453343
0.297513336 0.204966679 0.171213329
0.353460014 0.219626695 0.184053332
0.404206693 0.231113344 0.188733339
0.467733294 0.242606670 0.198973328
0.530460000 0.258320004 0.209920004
0.607833266 0.272673368 0.224826664
0.669000030 0.293853343 0.230606675
0.737000048 0.309026688 0.244726658
0.805506766 0.327853382 0.249700010
0.880566537 0.345653355 0.258293360
0.958979964 0.367066681 0.276593328
0.127853334 0.214366674 0.154493347
0.162886664 0.222493351 0.163673341
0.210426688 0.238973349 0.174593344
0.236880019 0.239493355 0.172793329
0.266140014 0.233446687 0.173046663
0.299333364 0.235073358 0.171993345
0.351120025 0.248353362 0.182753339
0.404480010 0.266126662 0.188486665
0.468266666 0.277099997 0.197626680
0.530460000 0.298046678 0.210186675
0.605506659 0.314526647 0.223546654
0.672426641 0.338046700 0.233753338
0.736999989 0.356586665 0.244200006
0.802346706 0.374626726 0.254133344
0.877639890 0.387719959 0.261426657
0.963153362 0.414106697 0.278413355
0.134900004 0.256500036 0.161593348
0.174333334 0.271880031 0.172260001
0.220913351 0.288620055 0.181713343
0.248093337 0.289660037 0.180673331
0.276086658 0.287580073 0.179833353
0.307433367 0.284200042 0.176453367
0.352940023 0.295180053 0.183013335
0.405000031 0.305340022 0.187186673
0.465899974 0.322333366 0.198453322
0.527340055 0.346140057 0.210453331
0.603913307 0.364706725 0.224059999
0.667686701 0.384833395 0.231399998
0.736739993 0.403673351 0.242073327
0.797906697 0.421413392 0.244946659
0.881339967 0.452026665 0.259086668
0.957113385 0.480533391 0.277126700
0.143540010 0.309013337 0.176206663
0.181446671 0.325233370 0.180673331
0.230880022 0.347173333 0.190813333
0.258573353 0.351126701 0.191866681
0.292293370 0.346913368 0.190293342
0.328340054 0.350306690 0.192946672
0.364166707 0.347173363 0.191613331
0.404206693 0.348993361 0.190813333
0.467226684 0.365480036 0.198926657
0.527860045 0.384566694 0.211253330
0.603686631 0.403666675 0.223513320
0.672986686 0.430060029 0.234793350
0.736219943 0.456206650 0.243926659
0.803926706 0.480773389 0.251240045
0.878146589 0.496746689 0.260646671
0.959479988 0.517400026 0.277893335
0.157113329 0.367873341 0.183273330
0.190080002 0.387953311 0.187439993
0.239993349 0.409946650 0.197413340
0.268746674 0.411799967 0.198713332
0.308480024 0.412299991 0.197933331
0.338846684 0.410226643 0.197413340
0.382213384 0.410479993 0.197413340
0.422213346 0.410466641 0.198973343
0.470086664 0.412066638 0.199753329
0.518419981 0.426126659 0.203653365
0.607066631 0.464593291 0.226426661
0.668226659 0.483679980 0.229293361
0.736220002 0.504553318 0.243400007
0.799713373 0.522866666 0.247060031
0.880259991 0.545059919 0.258306682
0.963153303 0.576766610 0.277373344
0.158720002 0.437359989 0.188733339
0.204433352 0.464080006 0.202873349
0.247580007 0.484933376 0.210733339
0.286013365 0.492559999 0.213593334
0.323373377 0.489146680 0.210440010
0.355286688 0.491240025 0.210166678
