example_ofxGpuLutCube/bin/data/ofxGpuLutCube/LUT/Brannan.cube
TITLE "16x16x16 Adobe/IRIDAS cube 3D LUT exported with GrossGrade v0.1.027.1 (beta) 64 bit"
DOMAIN_MIN 0 0 0
DOMAIN_MAX 1 1 1
LUT_3D_SIZE 6
0.097999997 0.039200000 0.086300001
0.197680026 0.058800001 0.099580005
0.320800036 0.080000006 0.111360006
0.489439994 0.094099998 0.131740004
0.700399995 0.116820000 0.156100005
0.917599976 0.160799995 0.184300005
0.114480004 0.128640011 0.102779999
0.196900025 0.127860010 0.098800004
0.320000052 0.161600024 0.109800003
0.483880013 0.190560013 0.128619999
0.695699990 0.230620027 0.156100005
0.918399990 0.276080012 0.184300005
0.136460021 0.256500036 0.108239993
0.228220016 0.256500036 0.109019995
0.322360039 0.256500006 0.109800003
0.485480011 0.304320037 0.131740004
0.696500003 0.366280049 0.156880006
0.919200003 0.421200037 0.188199997
0.163139999 0.432940006 0.131740004
0.260380000 0.438400000 0.134100005
0.369420052 0.435280025 0.130960003
0.490220010 0.438400000 0.131740004
0.697260022 0.504300058 0.158439979
0.919200003 0.577239990 0.186639994
0.186639994 0.664319992 0.159219995
0.294900000 0.669000030 0.159999996
0.421959996 0.668219984 0.159219995
0.545080006 0.665099978 0.156880006
0.692520022 0.667439997 0.156100005
0.921599984 0.724699974 0.185079992
0.223499998 0.886300027 0.184300005
0.341220021 0.888639987 0.187419996
0.483900040 0.883960009 0.185860008
0.611760020 0.886300027 0.184300005
0.748199999 0.881600022 0.182740003
0.921599984 0.886300027 0.184300005
0.115280010 0.055680003 0.165500015
0.199240014 0.054900002 0.164720014
0.325480044 0.076060005 0.193720028
0.490999997 0.090980001 0.221180022
0.697279990 0.120020002 0.250220031
0.924719989 0.156900004 0.287100017
0.118400007 0.130200014 0.167840004
0.231420025 0.161600009 0.188220024
0.367880046 0.195280030 0.218060017
0.546679974 0.231380031 0.248600021
0.754519999 0.275300026 0.287080050
0.990559995 0.333340019 0.345120013
0.132520005 0.252540052 0.187440023
0.258060008 0.307440042 0.219620034
0.370200038 0.312180042 0.224300027
0.543540001 0.363920033 0.248620018
0.753720045 0.422760040 0.285460025
0.982760012 0.497260034 0.334120035
0.162359998 0.439180017 0.220400006
0.294140041 0.505879998 0.250980020
0.421180010 0.505879998 0.249400020
0.547460020 0.507440090 0.247820020
0.753720045 0.574900091 0.283160031
0.987440050 0.635280013 0.334120035
0.187479988 0.668219984 0.245460019
0.337240040 0.729440033 0.283900023
0.482340038 0.727039993 0.287080050
0.615680039 0.729420006 0.285460025
0.754540026 0.727039993 0.287080020
0.987439990 0.778840005 0.336460024
0.223499998 0.887080014 0.279200017
0.384340048 0.938020051 0.332560033
0.538820028 0.938020051 0.330980033
0.667460024 0.938020051 0.330980033
0.803900003 0.940420032 0.334120035
0.985880017 0.934100032 0.329440027
0.130960003 0.080000006 0.265080035
0.227460042 0.076060005 0.265860051
0.325480044 0.076060005 0.272140026
0.489439994 0.092540003 0.312960029
0.698060036 0.117640004 0.359220028
0.925499976 0.159239992 0.410180032
0.134100005 0.163920000 0.265080035
0.254140019 0.193720028 0.307440042
0.365520060 0.195280030 0.309000045
0.545120060 0.234500021 0.356080055
0.753720045 0.273740053 0.407840043
0.988999963 0.331780046 0.475300014
0.134900004 0.256500036 0.266640037
0.260400027 0.308220029 0.310600042
0.419580042 0.363120049 0.356880039
0.610980034 0.428200096 0.407840043
0.800000012 0.499600023 0.469020039
1.000000000 0.563940048 0.532560050
0.163139999 0.435280025 0.310580045
0.292560041 0.506660044 0.355300069
0.485500067 0.577239990 0.412560046
0.609420002 0.573340058 0.405500054
0.802359998 0.635299981 0.474520028
1.000000000 0.697280049 0.531760097
0.181180000 0.664319992 0.352940023
0.339619994 0.728619993 0.405500054
0.538840115 0.778840005 0.472180009
0.669020057 0.776500046 0.470600039
0.804700017 0.781180084 0.472960025
1.000000000 0.833720028 0.528620005
0.224339992 0.884739995 0.406280011
0.389020026 0.940420032 0.469780028
0.607060015 0.976499975 0.527040064
0.722339988 0.974099994 0.524700046
0.856480002 0.972500026 0.525480032
0.998440027 0.972500026 0.527820051
0.162359998 0.094099998 0.417280018
0.257260025 0.094099998 0.421180040
0.367080033 0.094100006 0.416500032
0.489439994 0.090200000 0.422740012
0.697280049 0.120019995 0.481580019
0.924719989 0.159240007 0.532580018
0.160800010 0.195280001 0.418060005
0.292560041 0.232160032 0.481580049
0.420400053 0.233720034 0.485500038
0.548240006 0.234500021 0.482360005
0.752960026 0.275300056 0.538819969
0.985880077 0.331780016 0.596080005
0.161579996 0.309020042 0.413380027
0.295700014 0.364700049 0.481540024
0.482380062 0.422760069 0.536439955
0.612580061 0.423520058 0.537259996
0.807060003 0.494900048 0.596840024
0.998440027 0.567060053 0.643159986
0.158459991 0.440740019 0.414100021
0.294920027 0.506659985 0.480800033
0.483160079 0.572560012 0.538820028
0.672959983 0.640780032 0.600020051
0.860379994 0.696480036 0.637679994
0.998440027 0.751400054 0.690999985
0.183520019 0.667439997 0.476879984
0.337260038 0.727060080 0.534899950
0.538820088 0.778060019 0.595300078
0.721540034 0.835320055 0.640799999
0.865899980 0.831360102 0.640799940
0.997659981 0.877659917 0.688600004
0.221159995 0.881560028 0.526279986
0.385900050 0.938020051 0.588999987
0.603920043 0.973300040 0.642379999
0.776460052 0.972500026 0.691000044
0.909780025 0.972500026 0.687820017
1.000000000 0.972500026 0.691000044
0.189839989 0.123139985 0.624339998
0.297259986 0.120020002 0.625120044
0.419620037 0.121579990 0.622779965
0.548260033 0.118400000 0.620379984
0.699620008 0.116040006 0.621219993
0.924719989 0.160019994 0.669019997
0.184300020 0.231400013 0.617240012
0.335680068 0.276880026 0.666680038
0.481580049 0.276080012 0.672159970
0.610980034 0.276080012 0.669039965
0.753740013 0.278420061 0.670579970
0.986660004 0.332560062 0.716060042
0.185859978 0.363160044 0.624339998
0.339640051 0.423540056 0.667460024
0.537240028 0.498040050 0.716099977
0.667460084 0.498820037 0.718439996
0.802340031 0.497260034 0.711380005
0.999220014 0.566280007 0.756879985
0.186679989 0.503520072 0.621219993
0.336460054 0.578060031 0.671360016
0.538800061 0.639200032 0.720779955
0.723959982 0.694900036 0.756079972
0.861160100 0.695680022 0.757640004
1.000000000 0.747460008 0.813340068
0.183520019 0.664319992 0.621219993
0.339580029 0.730219960 0.669019997
0.538820088 0.776459992 0.715319991
0.726300001 0.832920015 0.758419991
0.917659998 0.876900017 0.811760008
1.000000000 0.923920035 0.861200035
0.220380008 0.886300027 0.658779979
0.385120034 0.940420032 0.712920010
0.607879996 0.974900007 0.760779977
0.774119973 0.972500026 0.806299984
0.969440043 0.972500026 0.856440008
1.000000000 0.973299980 0.852540016
0.223499998 0.156900004 0.811800003
0.342000008 0.160799995 0.826699972
0.480780035 0.163139999 0.825899959
0.615660012 0.160799995 0.823499978
0.759220004 0.160799995 0.825919986
0.921599984 0.160799995 0.815699995
0.220380008 0.276080012 0.815699995
0.384340048 0.329440027 0.861159980
0.539600015 0.333340049 0.861159980
0.663560033 0.332560033 0.858819962
0.793760002 0.331000030 0.862720013
0.990559995 0.332560033 0.859579980
0.223499998 0.418020070 0.814920008
0.392140031 0.494920015 0.864279985
0.606320024 0.561600029 0.915300071
0.725500047 0.563940048 0.919200003
0.861160040 0.567060053 0.919200063
1.000000000 0.567060053 0.917640030
0.225900009 0.575680017 0.821219981
0.392140031 0.633720040 0.862719953
0.611000061 0.696480036 0.920760036
0.772560000 0.753740013 0.951340020
0.907439947 0.752960026 0.949779987
0.997659981 0.752960026 0.945100009
0.225920007 0.727819979 0.822719991
0.386680037 0.776499987 0.858060002
0.610220015 0.834500015 0.919200003
0.772560000 0.873700023 0.949000001
0.970200062 0.923120022 0.952120006
1.000000000 0.923120022 0.949000001
0.227500007 0.878400028 0.823499978
0.384340048 0.940420032 0.858040035
0.606320024 0.974900007 0.914520025
0.774900019 0.974099994 0.947440028
0.971780062 0.971720040 0.952120006
1.000000000 0.976499975 0.952899992
