example_ofxGpuLutCube/bin/data/ofxGpuLutCube/LUT/C1 (warm contrasty).cube
LUT_3D_SIZE 16
0.070977 0.065523 0.070782
0.087603 0.064518 0.073607
0.137302 0.060631 0.069048
0.210198 0.042083 0.054994
0.279701 0.020168 0.047629
0.370173 0.000000 0.035719
0.451728 0.000000 0.056607
0.540625 0.000000 0.062501
0.639347 0.000000 0.054160
0.721555 0.000000 0.050822
0.794343 0.000000 0.052504
0.859821 0.000000 0.056826
0.923778 0.000000 0.060933
0.989763 0.000000 0.065275
1.017120 0.103470 0.061645
1.031645 0.144061 0.060786
0.091383 0.080135 0.056789
0.111390 0.080328 0.059561
0.148456 0.083017 0.055796
0.214115 0.077943 0.047910
0.289734 0.061131 0.034943
0.372529 0.032068 0.032402
0.456316 0.000000 0.044849
0.555118 0.000000 0.045630
0.645021 0.000000 0.042542
0.727516 0.000000 0.047971
0.799049 0.000000 0.052707
0.866273 0.005329 0.056303
0.925653 0.073901 0.056945
0.993300 0.089368 0.060628
1.018841 0.144445 0.059938
1.032767 0.172913 0.059623
0.101021 0.110962 0.049806
0.122210 0.112273 0.051824
0.160280 0.110889 0.006012
0.222102 0.120612 0.009594
0.296346 0.114036 0.014550
0.376733 0.112498 0.027281
0.462848 0.109913 0.032478
0.560443 0.098164 0.032164
0.650001 0.101874 0.037822
0.730487 0.110642 0.042679
0.806487 0.109670 0.047622
0.869221 0.118585 0.051281
0.925912 0.146256 0.053835
0.989311 0.157962 0.057338
1.020931 0.188794 0.058166
1.034481 0.214858 0.057952
0.019546 0.173639 0.045056
0.070623 0.170846 0.048880
0.126985 0.170677 0.048342
0.184536 0.171160 0.044180
0.263326 0.191528 0.026260
0.365492 0.195935 0.015876
0.464644 0.194342 0.022202
0.563070 0.196365 0.028382
0.654172 0.198712 0.034111
0.735808 0.196561 0.039439
0.802194 0.203512 0.043346
0.865746 0.209628 0.047344
0.925686 0.213067 0.050963
0.987794 0.225526 0.054498
1.023954 0.247469 0.055930
1.036586 0.265183 0.056034
0.006215 0.235879 0.021276
0.068206 0.232459 0.029155
0.119160 0.229468 0.035981
0.170847 0.235522 0.032468
0.234522 0.245393 0.023763
0.336370 0.273472 0.010866
0.452504 0.286992 0.017993
0.564449 0.286104 0.025127
0.657087 0.283156 0.031086
0.733378 0.282602 0.035944
0.801315 0.284675 0.040191
0.863583 0.286541 0.044028
0.921467 0.290022 0.047722
0.982022 0.296369 0.051249
1.027205 0.308976 0.053673
1.039105 0.321620 0.053953
0.006155 0.302636 0.055077
0.007587 0.307343 0.035651
0.010717 0.310100 0.000000
0.131371 0.312832 0.002139
0.219229 0.320601 0.000000
0.310766 0.335077 0.005472
0.425787 0.364374 0.012891
0.544086 0.378394 0.020324
0.640775 0.373991 0.026702
0.728684 0.366692 0.032533
0.797610 0.363749 0.036982
0.857630 0.362677 0.040880
0.919208 0.364527 0.044611
0.979314 0.367568 0.048369
1.028778 0.370534 0.051405
1.042014 0.380958 0.051852
0.006523 0.370896 0.082913
0.018132 0.378568 0.073285
0.009183 0.379865 0.047240
0.013313 0.387188 0.000000
0.179351 0.393599 0.000000
0.292960 0.403594 0.000000
0.393822 0.416077 0.007469
0.511624 0.446983 0.015037
0.617133 0.459337 0.021807
0.704449 0.454773 0.027697
0.783341 0.446360 0.033084
0.852648 0.435296 0.037846
0.911811 0.433891 0.041604
0.971145 0.434074 0.045413
1.028920 0.437161 0.048915
1.045726 0.442331 0.049801
0.007396 0.438650 0.102844
0.019790 0.445794 0.093232
0.035958 0.448564 0.074231
0.013555 0.451203 0.014634
0.110875 0.461380 0.000000
0.264608 0.469008 0.000000
0.376616 0.478581 0.002039
0.474898 0.490471 0.009690
0.583885 0.519083 0.016708
0.682149 0.532740 0.023022
0.760751 0.525367 0.028564
0.832901 0.517054 0.033507
0.903875 0.508212 0.038384
0.967417 0.500710 0.042694
1.024900 0.500804 0.046310
1.045565 0.502918 0.047538
0.008732 0.503273 0.114303
0.020858 0.510921 0.109621
0.036892 0.512783 0.093393
0.046349 0.514703 0.050384
0.017924 0.522454 0.000000
0.235163 0.528020 0.000000
0.352558 0.535514 0.000000
0.452649 0.545273 0.004358
0.545734 0.554998 0.011671
0.643918 0.579448 0.018067
0.739120 0.598270 0.024018
0.811886 0.590317 0.029251
0.883208 0.585418 0.034125
0.953749 0.576358 0.038992
1.019448 0.568074 0.043487
1.043954 0.563247 0.045216
0.010304 0.569215 0.122793
0.022568 0.572594 0.114464
0.038662 0.575994 0.096835
0.054479 0.577652 0.060912
0.019918 0.580753 0.000000
0.195504 0.583034 0.000000
0.330875 0.589852 0.000000
0.436490 0.596211 0.000000
0.527251 0.606702 0.006881
0.610470 0.617012 0.013290
0.702532 0.636224 0.019499
0.794220 0.659793 0.025019
0.866140 0.655750 0.030135
0.937883 0.648318 0.035173
1.008634 0.644019 0.039938
1.040751 0.634220 0.042359
0.012287 0.636713 0.125872
0.024473 0.638663 0.118201
0.040580 0.640164 0.101044
0.057059 0.641054 0.067858
0.022184 0.646026 0.000000
0.175033 0.637411 0.000000
0.315643 0.643892 0.000000
0.418986 0.650072 0.000000
0.512141 0.657680 0.002337
0.594868 0.666597 0.008896
0.678202 0.679810 0.015095
0.754479 0.692350 0.020461
0.850147 0.720906 0.026049
0.920890 0.716957 0.031211
0.992199 0.710773 0.036223
1.037520 0.703115 0.039489
0.014725 0.703613 0.121768
0.026427 0.704325 0.121118
0.042520 0.705100 0.103324
0.059318 0.708343 0.065099
0.024505 0.710485 0.000000
0.165188 0.703548 0.000000
0.299605 0.701017 0.000000
0.401934 0.706476 0.000000
0.495337 0.712801 0.000000
0.577164 0.721268 0.003902
0.658085 0.728748 0.010384
0.733546 0.738061 0.016166
0.808087 0.747824 0.021571
0.902386 0.777603 0.027054
0.974705 0.774862 0.032295
1.033942 0.768211 0.036589
0.016171 0.772498 0.133669
0.028660 0.773418 0.121125
0.043250 0.776296 0.103445
0.039337 0.778039 0.078188
0.022908 0.775444 0.030274
0.212816 0.767915 0.029701
0.310792 0.759647 0.000000
0.405277 0.764817 0.029337
0.489172 0.770944 0.044366
0.569357 0.776391 0.065153
0.644701 0.784147 0.085147
0.715998 0.791393 0.100265
0.790155 0.801476 0.122476
0.858404 0.806813 0.139413
0.942732 0.831126 0.167609
1.028377 0.834679 0.098392
0.017856 0.849166 0.145647
0.017975 0.846155 0.142412
0.019121 0.847276 0.125544
0.019157 0.843785 0.123549
0.174145 0.840134 0.126544
0.268600 0.834381 0.122631
0.337678 0.828381 0.113187
0.412317 0.827375 0.114482
0.495333 0.831110 0.131340
0.567254 0.838869 0.146024
0.640086 0.840840 0.160325
0.710028 0.849749 0.177007
0.779781 0.857364 0.194702
0.850345 0.861525 0.209823
0.911898 0.863757 0.221908
0.996500 0.883495 0.246624
0.089426 0.911911 0.218626
0.126014 0.910450 0.219465
0.175039 0.911624 0.221970
0.223791 0.909488 0.222914
0.276331 0.907266 0.220920
0.330771 0.903470 0.218222
0.390302 0.899654 0.216374
0.445922 0.896966 0.213349
0.514274 0.900713 0.223031
0.582861 0.901903 0.234865
0.653600 0.906914 0.247913
0.716752 0.909416 0.260067
0.780431 0.913180 0.273090
0.844089 0.917449 0.286063
0.907204 0.920380 0.298317
0.968390 0.920808 0.300003
0.287616 1.023623 0.353039
0.313814 1.019626 0.354519
0.334203 1.019480 0.354881
0.361142 1.019053 0.352501
0.396050 1.018644 0.356068
0.431397 1.018216 0.359070
0.471920 1.016539 0.359310
0.513474 1.015161 0.361772
0.561528 1.015219 0.366254
0.612531 1.016270 0.375645
0.670050 1.018474 0.386036
0.725863 1.021977 0.396310
0.780714 1.022636 0.405009
0.839807 1.023750 0.417753
0.899145 1.027269 0.428355
0.964791 1.027751 0.445339
0.000000 0.000000 0.000000
0.000000 0.000000 0.000000
0.066016 0.000000 0.004358
0.188599 0.000000 0.012451
0.268882 0.000000 0.017732
0.364508 0.000000 0.024041
0.448930 0.000000 0.029609
0.551329 0.000000 0.036361
0.648904 0.000000 0.042791
0.735803 0.000000 0.048528
0.812889 0.000000 0.053624
0.873391 0.000000 0.057595
0.934226 0.000000 0.061602
1.000347 0.000000 0.065976
1.023810 0.000000 0.067521
1.034149 0.000000 0.068200
0.081846 0.088223 0.085121
0.092329 0.088507 0.094600
0.134652 0.088195 0.096296
0.209576 0.078569 0.086672
0.283061 0.059633 0.084507
0.373982 0.000000 0.074499
0.460506 0.000000 0.080991
0.553625 0.000000 0.090580
0.644432 0.000000 0.089932
0.730831 0.000000 0.078408
0.800555 0.000000 0.069396
0.864990 0.000000 0.065373
0.924692 0.000000 0.072383
0.985848 0.078389 0.073033
1.017975 0.135720 0.072545
1.031719 0.165685 0.072137
0.099812 0.115537 0.074888
0.126106 0.118635 0.080996
0.154725 0.118594 0.076430
0.222924 0.118028 0.036408
0.297794 0.108960 0.054773
0.380449 0.101610 0.066373
0.464255 0.096118 0.074340
0.557872 0.089931 0.072897
0.655981 0.074812 0.062649
0.739209 0.063823 0.045310
0.808835 0.076116 0.059623
0.864431 0.113643 0.063309
0.927233 0.126972 0.067059
0.986521 0.148694 0.070036
1.020129 0.182732 0.070736
1.033352 0.206489 0.070589
0.000920 0.186620 0.080921
0.058597 0.179987 0.077993
0.126806 0.174732 0.080125
0.187368 0.179065 0.080760
0.275880 0.190112 0.040063
0.379891 0.187666 0.017115
0.468948 0.187882 0.048464
0.572077 0.185083 0.029391
0.660546 0.186642 0.042485
0.731575 0.194454 0.050892
0.802252 0.198012 0.055990
0.865185 0.199485 0.060058
0.922862 0.210572 0.063340
0.984890 0.222025 0.066881
1.023039 0.243298 0.068396
1.035570 0.260063 0.068522
0.012819 0.243876 0.063742
0.068606 0.240482 0.064022
0.120894 0.236359 0.070554
0.173714 0.241010 0.070532
0.238674 0.252014 0.068321
0.341351 0.276810 0.044253
0.459895 0.283634 0.018592
0.568462 0.281782 0.036971
0.656697 0.278463 0.043525
0.730997 0.280393 0.048222
0.801684 0.279998 0.052709
0.860919 0.281421 0.056515
0.922838 0.285012 0.060297
0.981470 0.295316 0.063589
1.026408 0.306247 0.066089
1.038155 0.318336 0.066372
0.004528 0.313299 0.085025
0.005566 0.315831 0.070431
0.007563 0.316932 0.040575
0.132450 0.315189 0.050238
0.222424 0.326354 0.046352
0.312543 0.338239 0.031319
0.430906 0.363753 0.021835
0.548385 0.378900 0.032900
0.644142 0.372972 0.039280
0.728471 0.363376 0.044975
0.796339 0.360424 0.049376
0.858002 0.359217 0.053340
0.917052 0.362248 0.057017
0.975976 0.364542 0.060633
1.027803 0.370275 0.063698
1.041207 0.381040 0.064152
0.004968 0.379294 0.110913
0.015006 0.384602 0.100882
0.007514 0.388874 0.077009
0.012607 0.391561 0.000000
0.181502 0.398199 0.010843
0.291296 0.406967 0.000000
0.395141 0.419424 0.018815
0.513970 0.448496 0.027434
0.620291 0.458915 0.034342
0.706261 0.452073 0.040244
0.783468 0.443728 0.045506
0.851135 0.433120 0.050134
0.910902 0.431931 0.053970
0.972664 0.433096 0.057814
1.027852 0.435314 0.061251
1.044869 0.441924 0.062099
0.006106 0.446286 0.126419
0.017102 0.452604 0.120813
0.033948 0.453576 0.100030
0.011371 0.459284 0.052550
0.087702 0.464830 0.000000
0.259523 0.472611 0.004967
0.375181 0.481870 0.014008
0.475529 0.492257 0.021946
0.585915 0.520607 0.029079
0.682739 0.532356 0.035386
0.760979 0.524674 0.040947
0.833812 0.515375 0.045952
0.902285 0.505610 0.050691
0.969286 0.501875 0.055091
1.024104 0.501012 0.058596
1.044814 0.503276 0.059815
0.007383 0.510036 0.138232
0.018454 0.516194 0.130983
0.035377 0.518755 0.114121
0.048123 0.521124 0.078373
0.018016 0.525616 0.000000
0.221932 0.531221 0.000000
0.348967 0.536963 0.008576
0.453309 0.546679 0.016628
0.545786 0.556335 0.023893
0.645237 0.581976 0.030330
0.739371 0.598964 0.036289
0.812790 0.591025 0.041612
0.884000 0.584208 0.046535
0.955073 0.577439 0.051372
1.019009 0.568230 0.055788
1.042885 0.562511 0.057500
0.008891 0.574819 0.147009
0.019932 0.579221 0.139103
0.036920 0.580465 0.121044
0.053400 0.583020 0.089644
0.020279 0.586934 0.000000
0.187610 0.584381 0.000000
0.326095 0.593182 0.004078
0.431753 0.600078 0.011431
0.526144 0.608388 0.018978
0.610868 0.618695 0.025511
0.701735 0.638734 0.031611
0.795509 0.659787 0.037367
0.865484 0.654299 0.042476
0.937673 0.649539 0.047454
1.007140 0.641268 0.052268
1.039281 0.632987 0.054640
0.010999 0.640833 0.147354
0.021856 0.644033 0.141607
0.038800 0.642872 0.123512
0.055189 0.646025 0.094392
0.022279 0.649885 0.000000
0.156445 0.639010 0.000000
0.309518 0.646019 0.000000
0.411945 0.652457 0.001220
0.507725 0.659208 0.001861
0.592431 0.669742 0.008494
0.672640 0.679638 0.014642
0.755410 0.694862 0.020389
0.848725 0.720027 0.026013
0.921403 0.716968 0.031214
0.992161 0.710066 0.036248
1.036562 0.703621 0.051708
0.013037 0.707933 0.149359
0.023997 0.709419 0.141200
0.040889 0.709292 0.125669
0.056466 0.712212 0.095330
0.021718 0.715317 0.018705
0.176255 0.704699 0.000000
0.304074 0.700613 0.000000
0.406269 0.705815 0.000000
0.496062 0.713797 0.000000
0.578231 0.720526 0.022081
0.654990 0.731166 0.049629
0.732091 0.739783 0.074581
0.804187 0.750677 0.094585
0.898285 0.779331 0.092410
0.976893 0.776394 0.032366
1.034660 0.767754 0.036659
0.014847 0.776729 0.155667
0.025660 0.777403 0.149337
0.040083 0.779980 0.132934
0.018126 0.780026 0.106398
0.020162 0.777110 0.076016
0.218054 0.769953 0.078010
0.307566 0.762836 0.065047
0.402628 0.765601 0.076781
0.485404 0.771063 0.091086
0.567033 0.777979 0.108770
0.642009 0.784704 0.125095
0.715844 0.793813 0.144054
0.787943 0.801558 0.161715
0.857399 0.808816 0.179405
0.940234 0.833012 0.204242
1.024684 0.833429 0.153204
0.015832 0.848070 0.175770
0.016977 0.847389 0.158103
0.017151 0.848606 0.155229
0.017429 0.845805 0.152218
0.191296 0.840633 0.157153
0.269016 0.833638 0.152442
0.335629 0.831456 0.143315
0.412725 0.828913 0.145151
0.490736 0.833555 0.159968
0.567180 0.837761 0.172490
0.638416 0.842312 0.187786
0.708750 0.847773 0.202537
0.777889 0.855597 0.219998
0.846930 0.862145 0.236918
0.909647 0.865774 0.249004
0.991162 0.884359 0.271816
0.098178 0.913324 0.243875
0.133435 0.912132 0.243340
0.177082 0.909998 0.244126
0.224441 0.909248 0.244488
0.276456 0.908287 0.243026
0.333482 0.905703 0.242534
0.389765 0.902756 0.239166
0.444034 0.896379 0.233318
0.513295 0.899272 0.242282
0.580643 0.902479 0.254173
0.648090 0.906729 0.266314
0.715313 0.909494 0.280452
0.779745 0.914994 0.292863
0.842075 0.917467 0.304377
0.906121 0.920833 0.317146
0.969873 0.922381 0.323631
0.291521 1.020416 0.372703
0.310323 1.021724 0.372017
0.335627 1.021449 0.375043
0.364637 1.020089 0.373487
0.397858 1.018905 0.375241
0.431618 1.018479 0.376161
0.471543 1.016626 0.376366
0.512199 1.015619 0.379392
0.559786 1.015127 0.383869
0.613467 1.018920 0.392851
0.666330 1.017680 0.401446
0.724680 1.022421 0.412614
0.779244 1.023097 0.422168
0.837188 1.024389 0.435094
0.896553 1.026119 0.448104
0.962802 1.031762 0.460454
0.000000 0.000000 0.059910
0.060577 0.000000 0.020218
0.129989 0.000000 0.008582
0.196111 0.000000 0.012960
0.271981 0.000000 0.017938
0.367683 0.000000 0.024245
0.452359 0.000000 0.029834
0.554778 0.000000 0.036587
0.653623 0.000000 0.043109
0.741006 0.000000 0.048866
0.814973 0.000000 0.053740
0.877862 0.000000 0.057900
0.940397 0.000000 0.062026
1.007862 0.000000 0.066464
1.023295 0.000000 0.067489
1.034175 0.000000 0.068201
0.048318 0.089980 0.168748
0.062866 0.093677 0.182522
0.111775 0.093902 0.172535
0.187245 0.093132 0.134825
0.278708 0.072696 0.135917
0.368188 0.028520 0.138067
0.465566 0.000000 0.139940
0.548578 0.000000 0.152288
0.641338 0.000000 0.154760
0.724991 0.000000 0.152491
0.799183 0.000000 0.147213
0.866408 0.000000 0.137680
0.929153 0.000000 0.123712
0.992531 0.000000 0.107757
1.013417 0.108102 0.115085
1.029087 0.150227 0.104551
0.077812 0.125729 0.120016
0.117833 0.127378 0.122383
0.136178 0.131248 0.132239
0.191311 0.130393 0.136934
0.284822 0.117412 0.130347
0.379182 0.093893 0.124874
0.475143 0.063581 0.123154
0.564205 0.050016 0.131847
0.653789 0.032270 0.135163
0.734773 0.000000 0.132908
0.807178 0.021826 0.120855
0.869498 0.053167 0.109106
0.933590 0.082036 0.095196
0.995870 0.101553 0.080201
1.017093 0.166042 0.093978
1.031985 0.197036 0.086533
0.000000 0.192425 0.126220
0.036720 0.193610 0.123017
0.147281 0.180397 0.119577
0.197490 0.184086 0.124317
0.303952 0.182253 0.049917
0.391818 0.176599 0.088977
0.476877 0.177417 0.109749
0.571419 0.178679 0.116032
0.661147 0.174678 0.108197
0.740358 0.169965 0.097151
0.811360 0.171124 0.083118
0.874635 0.174100 0.070744
0.933851 0.182159 0.075663
0.990140 0.206402 0.079405
1.021201 0.235516 0.082394
1.034553 0.255309 0.081453
0.001145 0.262559 0.116866
0.001290 0.259832 0.112479
0.087533 0.255100 0.116612
0.163822 0.250908 0.118448
0.246567 0.259234 0.118886
0.349466 0.281338 0.109436
0.470399 0.280590 0.086020
0.579511 0.271677 0.058238
0.666814 0.266608 0.045170
0.738155 0.267053 0.053991
0.805670 0.269049 0.062834
0.863746 0.273337 0.068946
0.921954 0.279522 0.073096
0.982259 0.286812 0.076743
1.025003 0.301806 0.079024
1.037143 0.315252 0.079292
0.002302 0.328126 0.129250
0.003127 0.331393 0.116572
0.004633 0.333502 0.093714
0.141779 0.323596 0.103957
0.226773 0.332545 0.105385
0.317724 0.347549 0.102683
0.438644 0.370477 0.079714
0.558119 0.373865 0.021412
0.650416 0.367121 0.051638
0.729938 0.356753 0.057993
0.796317 0.354313 0.062418
0.857445 0.355922 0.066257
0.917461 0.356041 0.070069
0.978312 0.359151 0.073769
1.028216 0.365929 0.076730
1.040107 0.377189 0.077066
0.003098 0.393841 0.149142
0.013285 0.400295 0.141745
0.005127 0.402098 0.119432
0.007906 0.403899 0.078360
0.187023 0.404068 0.085882
0.295074 0.414154 0.084283
0.397429 0.426121 0.078432
0.519994 0.451356 0.034281
0.624103 0.458276 0.046656
0.709159 0.450178 0.053312
0.787613 0.439174 0.058698
0.852155 0.431062 0.063171
0.912252 0.428594 0.067059
0.972641 0.429682 0.070867
1.026626 0.432767 0.074114
1.043818 0.438159 0.075013
0.004313 0.458775 0.161640
0.015498 0.464407 0.156641
0.029929 0.467935 0.141805
0.008788 0.471364 0.097328
0.118028 0.469705 0.066836
0.267305 0.478797 0.068321
0.374266 0.485611 0.059619
0.476961 0.496835 0.045348
0.589438 0.523606 0.040003
0.683636 0.531202 0.048077
0.762978 0.523216 0.053922
0.834820 0.512481 0.058986
0.904327 0.502478 0.063791
0.967570 0.497831 0.067954
1.022527 0.497665 0.071448
1.043702 0.502902 0.072587
0.005579 0.522566 0.173061
0.017024 0.529089 0.164614
0.032245 0.528256 0.150437
0.041844 0.532932 0.118827
0.014380 0.533701 0.042952
0.229663 0.534642 0.059258
0.351079 0.542564 0.055445
0.452599 0.552359 0.049472
0.548309 0.560850 0.037283
0.647895 0.584648 0.040985
0.740239 0.597928 0.047729
0.811592 0.588972 0.054190
0.885277 0.582018 0.059573
0.955937 0.574329 0.064378
1.019964 0.564197 0.068819
1.041819 0.563249 0.070239
0.007229 0.584928 0.177876
0.018513 0.589819 0.171487
0.033686 0.589819 0.157356
0.050563 0.593004 0.128114
0.015391 0.595287 0.059130
0.198478 0.586684 0.053856
0.327633 0.594337 0.056763
0.431088 0.602261 0.057438
0.521951 0.611928 0.052613
0.610624 0.622765 0.052607
0.704374 0.641613 0.019359
0.796339 0.659689 0.025168
0.867762 0.653777 0.030290
0.938196 0.648785 0.056826
1.009074 0.641763 0.065192
1.039176 0.630774 0.067545
0.009080 0.649907 0.181172
0.020365 0.651811 0.173567
0.035531 0.651296 0.160594
0.052487 0.653377 0.132032
0.016874 0.656611 0.066195
0.178099 0.644302 0.057821
0.309402 0.646601 0.062135
0.413285 0.654979 0.071230
0.503581 0.661988 0.077449
0.589678 0.673354 0.091073
0.668751 0.684330 0.100967
0.750676 0.697230 0.115728
0.847034 0.722702 0.084865
0.923833 0.716282 0.031411
0.992254 0.710099 0.036247
1.036174 0.700253 0.058566
0.010886 0.713780 0.184951
0.022169 0.713863 0.176558
0.037358 0.716636 0.163749
0.050727 0.717741 0.136454
0.017452 0.719207 0.087707
0.199850 0.710420 0.089368
0.300148 0.704008 0.083061
0.403022 0.709296 0.094810
0.491633 0.716803 0.108733
0.573066 0.724730 0.121342
0.650109 0.734272 0.136988
0.727095 0.742662 0.154617
0.800884 0.754303 0.172665
0.892730 0.781709 0.184562
0.973595 0.776969 0.082641
1.036087 0.766906 0.036790
0.012596 0.783087 0.192865
0.023802 0.782720 0.185540
0.028047 0.783893 0.164799
0.015910 0.784645 0.142978
0.086168 0.779584 0.135619
0.230054 0.771988 0.131439
0.311548 0.763718 0.121836
0.399070 0.766002 0.129698
0.485473 0.772890 0.144017
0.564797 0.778699 0.158312
0.641074 0.785633 0.175844
0.713022 0.794408 0.191163
0.786048 0.801682 0.208297
0.854029 0.811249 0.226889
0.940175 0.834583 0.250635
1.020865 0.833419 0.211584
0.013965 0.850992 0.205361
0.014335 0.850092 0.199309
0.014695 0.848025 0.193121
0.088837 0.846782 0.195524
0.199154 0.842082 0.195345
0.277512 0.840759 0.193105
0.339336 0.833597 0.183200
0.412061 0.830200 0.182046
0.489447 0.834451 0.194432
0.564386 0.838732 0.207844
0.636733 0.843972 0.224018
0.707530 0.851089 0.239511
0.776706 0.855712 0.255445
0.846948 0.862995 0.272260
0.907156 0.865693 0.282316
0.989517 0.884566 0.305633
0.115140 0.913446 0.276033
0.148790 0.913360 0.278853
0.183605 0.912547 0.274416
0.234533 0.912736 0.276847
0.283941 0.909153 0.275337
0.333131 0.905162 0.271516
0.392005 0.903266 0.268804
0.444249 0.897676 0.264021
0.512417 0.900967 0.271952
0.580585 0.904303 0.282097
0.648057 0.906268 0.294875
0.713140 0.910677 0.306476
0.778427 0.915527 0.321570
0.843550 0.920811 0.335752
0.904744 0.923252 0.346353
0.967840 0.922185 0.350805
0.296455 1.024243 0.399109
0.314084 1.022423 0.398080
0.339042 1.020026 0.395006
0.366304 1.019810 0.396024
0.397250 1.019443 0.396158
0.431659 1.018924 0.397909
0.469486 1.016722 0.397405
0.511430 1.017137 0.400249
0.557954 1.017365 0.403053
0.610209 1.018171 0.412301
0.667818 1.019788 0.420589
0.723751 1.021284 0.431625
0.778914 1.023622 0.442586
0.835066 1.024979 0.453137
0.897309 1.028072 0.466771
0.959076 1.029416 0.479925
0.058538 0.000411 0.127760
0.105511 0.000548 0.133022
0.141872 0.000411 0.132982
0.198601 0.000000 0.140986
0.270109 0.000000 0.151400
0.372932 0.000000 0.170038
0.467180 0.000000 0.181876
0.565008 0.000000 0.184959
0.658182 0.000000 0.180719
0.738229 0.000000 0.176260
0.807094 0.000000 0.175902
0.868421 0.000000 0.165864
0.934089 0.000000 0.151363
1.009503 0.000000 0.066577
1.023221 0.000000 0.067482
1.034224 0.000000 0.068207
0.107661 0.088004 0.186398
0.135007 0.085111 0.186155
0.169673 0.086873 0.187401
0.217518 0.086329 0.190098
0.281346 0.081275 0.197494
0.375173 0.066357 0.213306
0.468726 0.000000 0.219378
0.556303 0.000000 0.223839
0.644441 0.000000 0.223994
0.720707 0.000000 0.229491
0.792880 0.000000 0.230449
0.857995 0.000000 0.226091
0.926191 0.000000 0.218683
0.986994 0.000000 0.216082
1.006220 0.085569 0.213041
1.021874 0.140690 0.211004
0.094668 0.129228 0.187368
0.125150 0.129889 0.191811
0.149160 0.132298 0.206899
0.194978 0.137500 0.215091
0.284693 0.129764 0.196754
0.376227 0.120010 0.207993
0.471928 0.086880 0.209562
0.567565 0.000000 0.211390
0.653773 0.000000 0.219091
0.733392 0.000000 0.218184
0.803087 0.000000 0.215266
0.866001 0.000000 0.213997
0.926708 0.063502 0.205210
0.988679 0.095696 0.201154
1.009400 0.151732 0.203092
1.024079 0.179845 0.198762
0.000000 0.198606 0.203104
0.075331 0.197561 0.205470
0.134390 0.196543 0.194953
0.198387 0.194481 0.194935
0.270326 0.199108 0.200078
0.384744 0.179504 0.189395
0.494688 0.159519 0.181888
0.584956 0.152466 0.187269
0.665101 0.155115 0.195451
0.737530 0.155657 0.195277
0.807079 0.156641 0.192887
0.868321 0.163911 0.189431
0.929371 0.175601 0.185785
0.990785 0.186587 0.180813
1.013311 0.213682 0.181789
1.027398 0.235339 0.179596
0.000000 0.270346 0.190617
0.000000 0.274136 0.190252
0.000000 0.279750 0.196060
0.113480 0.274652 0.188355
0.252304 0.270729 0.186507
0.393412 0.273800 0.132358
0.495540 0.266447 0.153862
0.581253 0.265076 0.174314
0.662121 0.262826 0.175250
0.737843 0.258530 0.171538
0.804715 0.257488 0.167705
0.867624 0.259803 0.165315
0.927269 0.262634 0.159865
0.989246 0.268968 0.151531
1.018491 0.281945 0.151847
1.031932 0.299574 0.148743
0.000000 0.340718 0.195330
0.003666 0.350687 0.189579
0.000832 0.355800 0.174389
0.159669 0.345154 0.175620
0.239980 0.342215 0.176628
0.330225 0.358096 0.183321
0.449799 0.377149 0.175540
0.563456 0.370129 0.152545
0.660749 0.354504 0.127962
0.736181 0.349117 0.121702
0.803588 0.345475 0.116343
0.865756 0.343004 0.107212
0.927131 0.344405 0.097472
0.988537 0.344612 0.090703
1.025570 0.355916 0.104552
1.037326 0.366211 0.110278
0.000975 0.418716 0.205398
0.009460 0.425067 0.202227
0.002211 0.428110 0.183634
0.058573 0.424461 0.159685
0.206325 0.413067 0.163699
0.305218 0.422158 0.166185
0.405485 0.434598 0.171989
0.523799 0.459097 0.163947
0.629518 0.456739 0.131426
0.720042 0.441962 0.070243
0.795858 0.428995 0.063129
0.857934 0.423218 0.070210
0.916450 0.421720 0.076946
0.977443 0.423437 0.081976
1.029481 0.428053 0.084673
1.042433 0.435052 0.088858
0.002084 0.480665 0.214156
0.013114 0.487226 0.210442
0.022720 0.490537 0.195651
0.005517 0.492305 0.158131
0.155222 0.481762 0.150629
0.276135 0.484905 0.154540
0.381536 0.493923 0.160319
0.480966 0.505187 0.165051
