example_ofxGpuLutCube/bin/data/ofxGpuLutCube/LUT/C1 (warm contrasty).cube
LUT_3D_SIZE 6
0.070977 0.065523 0.070782
0.210198 0.042083 0.054994
0.451728 0.000000 0.056607
0.721555 0.000000 0.050822
0.923778 0.000000 0.060933
1.031645 0.144061 0.060786
0.019546 0.173639 0.045056
0.184536 0.171160 0.044180
0.464644 0.194342 0.022202
0.735808 0.196561 0.039439
0.925686 0.213067 0.050963
1.036586 0.265183 0.056034
0.006523 0.370896 0.082913
0.013313 0.387188 0.000000
0.393822 0.416077 0.007469
0.704449 0.454773 0.027697
0.911811 0.433891 0.041604
1.045726 0.442331 0.049801
0.010304 0.569215 0.122793
0.054479 0.577652 0.060912
0.330875 0.589852 0.000000
0.610470 0.617012 0.013290
0.866140 0.655750 0.030135
1.040751 0.634220 0.042359
0.016171 0.772498 0.133669
0.039337 0.778039 0.078188
0.310792 0.759647 0.000000
0.569357 0.776391 0.065153
0.790155 0.801476 0.122476
1.028377 0.834679 0.098392
0.287616 1.023623 0.353039
0.361142 1.019053 0.352501
0.471920 1.016539 0.359310
0.612531 1.016270 0.375645
0.780714 1.022636 0.405009
0.964791 1.027751 0.445339
0.058538 0.000411 0.127760
0.198601 0.000000 0.140986
0.467180 0.000000 0.181876
0.738229 0.000000 0.176260
0.934089 0.000000 0.151363
1.034224 0.000000 0.068207
0.000000 0.198606 0.203104
0.198387 0.194481 0.194935
0.494688 0.159519 0.181888
0.737530 0.155657 0.195277
0.929371 0.175601 0.185785
1.027398 0.235339 0.179596
0.000975 0.418716 0.205398
0.058573 0.424461 0.159685
0.405485 0.434598 0.171989
0.720042 0.441962 0.070243
0.916450 0.421720 0.076946
1.042433 0.435052 0.088858
0.004899 0.602164 0.225217
0.038877 0.609039 0.176966
0.334739 0.598320 0.150090
0.607918 0.627917 0.175663
0.873250 0.652309 0.030747
1.039187 0.625860 0.080619
0.010072 0.790710 0.235731
0.012250 0.789547 0.201607
0.320682 0.769784 0.187498
0.562508 0.780969 0.217854
0.783063 0.804822 0.268423
1.017739 0.834865 0.277947
0.299579 1.024518 0.427181
0.366201 1.020497 0.422577
0.469016 1.019021 0.424337
0.607556 1.019270 0.434389
0.778268 1.023837 0.465679
0.962435 1.030762 0.504616
0.121310 0.001806 0.472922
0.276127 0.001806 0.480946
0.515285 0.001596 0.499298
0.788289 0.000000 0.526901
0.950477 0.000000 0.501765
1.007618 0.000000 0.482628
0.120213 0.222631 0.464544
0.267533 0.224572 0.474698
0.510898 0.240933 0.493999
0.760962 0.260880 0.510400
0.924436 0.247580 0.487777
1.009561 0.288363 0.480698
0.000000 0.479295 0.468002
0.147109 0.488370 0.471341
0.459000 0.478835 0.472358
0.716445 0.446811 0.458058
0.915028 0.427275 0.439406
1.017436 0.450991 0.453059
0.000000 0.672246 0.437317
0.207209 0.669149 0.448951
0.420381 0.636701 0.430187
0.626095 0.650422 0.451049
0.861898 0.654667 0.429210
1.032348 0.625805 0.387149
0.192980 0.816428 0.460650
0.265615 0.811344 0.451192
0.388879 0.794781 0.422950
0.567536 0.785738 0.412560
0.783856 0.812487 0.465256
1.012486 0.836481 0.472210
0.332015 1.026652 0.530743
0.391907 1.027237 0.529518
0.478420 1.023300 0.523628
0.598269 1.020117 0.517304
0.776093 1.025527 0.548799
0.960883 1.029899 0.587923
0.244902 0.002726 0.726366
0.369152 0.002714 0.729836
0.573266 0.002797 0.741702
0.774919 0.002467 0.755497
0.950266 0.000768 0.754859
0.996041 0.098910 0.738236
0.256491 0.277684 0.708781
0.370207 0.280263 0.715043
0.560746 0.306989 0.719522
0.752440 0.345218 0.729407
0.929099 0.390882 0.729486
1.000120 0.445549 0.720642
0.191508 0.477759 0.682718
0.331287 0.484683 0.685998
0.532354 0.505685 0.693998
0.718325 0.534741 0.708257
0.899141 0.564219 0.722226
1.003963 0.544187 0.707937
0.169373 0.703032 0.698738
0.312667 0.701807 0.688805
0.474088 0.696945 0.711428
0.657069 0.690105 0.679673
0.853954 0.664157 0.676116
1.010942 0.654649 0.667046
0.213507 0.863259 0.668353
0.298379 0.859303 0.667993
0.440794 0.849529 0.662511
0.590531 0.815085 0.633816
0.793369 0.827500 0.661731
1.023160 0.827756 0.632610
0.390307 1.037269 0.678756
0.450825 1.033927 0.677931
0.524270 1.031734 0.670634
0.623252 1.026841 0.655007
0.778037 1.026860 0.658109
0.968481 1.031027 0.701141
0.398828 0.003331 0.899905
0.484287 0.003331 0.901151
0.622104 0.003398 0.903429
0.775428 0.003407 0.909054
0.933618 0.181374 0.915883
0.993538 0.302707 0.898042
0.402757 0.366665 0.878815
0.482360 0.371111 0.882921
0.612452 0.394864 0.882201
0.763204 0.440167 0.885840
0.917002 0.481384 0.892585
0.994352 0.517239 0.883994
0.398994 0.538968 0.862323
0.475539 0.542704 0.864314
0.599906 0.554191 0.866245
0.748964 0.584300 0.871501
0.899936 0.611511 0.882700
0.997483 0.633181 0.879380
0.346448 0.695213 0.848629
0.422841 0.691957 0.847487
0.548357 0.685722 0.848487
0.724677 0.712450 0.856636
0.883722 0.740264 0.871495
1.001296 0.758837 0.880307
0.355403 0.876099 0.867960
0.429209 0.874642 0.861916
0.544250 0.872123 0.864796
0.676254 0.868943 0.889263
0.834633 0.861820 0.853009
0.991685 0.840208 0.853953
0.441015 1.042103 0.840819
0.494376 1.041840 0.839832
0.558894 1.041127 0.839336
0.636864 1.039839 0.838851
0.734976 1.039203 0.820200
0.958599 1.036138 0.841623
0.531865 0.275421 1.006652
0.592339 0.285093 1.007720
0.684204 0.320410 1.008878
0.799895 0.371823 1.011383
0.920967 0.427618 1.015346
0.992195 0.464858 1.019370
0.538073 0.516490 0.998133
0.593558 0.516436 0.998986
0.683393 0.531596 1.000343
0.794216 0.553240 1.002856
0.912848 0.587052 1.006832
0.992870 0.607400 1.010796
0.541162 0.628167 0.997620
0.596453 0.630679 0.998067
0.682680 0.639133 0.999151
0.791965 0.652452 1.000893
0.909221 0.677371 1.004306
0.994784 0.693376 1.008449
0.510481 0.733979 0.997394
0.573192 0.736884 0.997855
0.667988 0.745941 0.998390
0.782653 0.759610 0.999175
0.903279 0.779104 1.001661
0.997374 0.793543 1.003976
0.481519 0.873624 0.998612
0.540606 0.869438 0.998615
0.628191 0.868461 0.998798
0.740542 0.861666 0.999049
0.893983 0.882683 0.998765
0.978969 0.910635 1.001668
0.512673 1.003263 0.997690
0.568446 1.003283 0.998926
0.655648 1.003761 0.999789
0.799961 0.995670 1.000017
0.908343 0.996875 1.000009
0.982331 1.002837 1.000081
