example_ofxGpuLutCube/bin/data/ofxGpuLutCube/LUT/C10 (greenish warm).cube
LUT_3D_SIZE 6
0.016392 0.018324 0.014248
0.114515 0.025660 0.016115
0.373308 0.083823 0.016883
0.689480 0.120859 0.039859
0.867493 0.161808 0.084764
0.995615 0.199313 0.118529
0.017864 0.172622 0.067588
0.127963 0.143826 0.050078
0.387751 0.119539 0.026330
0.696036 0.122610 0.044646
0.869591 0.162018 0.083646
0.995457 0.196246 0.121599
0.019876 0.470450 0.173498
0.098230 0.438696 0.148660
0.445960 0.358229 0.107375
0.741805 0.309519 0.099302
0.877560 0.314515 0.075252
0.993277 0.305756 0.082783
0.104755 0.699011 0.273363
0.122674 0.687568 0.257158
0.380040 0.649272 0.206499
0.789154 0.591781 0.169921
0.915397 0.583078 0.079133
0.996348 0.575935 0.012585
0.235297 0.864281 0.386001
0.238599 0.852002 0.365621
0.407813 0.840166 0.336180
0.767727 0.848009 0.321675
0.946616 0.830661 0.242644
0.998734 0.785513 0.140014
0.376952 0.959391 0.481370
0.385569 0.963211 0.473203
0.526496 0.974052 0.472414
0.787614 0.978261 0.485025
0.938157 0.978777 0.451536
0.999146 0.976831 0.404674
0.014426 0.036212 0.113189
0.110454 0.026173 0.119000
0.379299 0.071230 0.095989
0.683526 0.138163 0.091804
0.864102 0.164767 0.118557
0.994366 0.199111 0.135925
0.019780 0.138461 0.123928
0.109259 0.149654 0.129917
0.373525 0.133804 0.096293
0.681683 0.141233 0.088044
0.869181 0.162729 0.120265
0.994559 0.194677 0.140131
0.018085 0.438724 0.214520
0.075690 0.444994 0.218647
0.430777 0.364910 0.152255
0.723829 0.324025 0.143193
0.872676 0.326071 0.113984
0.996936 0.323086 0.114165
0.073462 0.687612 0.303670
0.100052 0.692843 0.310990
0.356562 0.654907 0.261791
0.775017 0.592480 0.174069
0.910734 0.585665 0.090272
0.993648 0.580282 0.026751
0.215863 0.851705 0.396225
0.226026 0.854254 0.403924
0.387554 0.841416 0.378541
0.758618 0.845187 0.318046
0.933812 0.829157 0.245511
0.996329 0.791868 0.145190
0.357718 0.955237 0.487237
0.358256 0.952707 0.488751
0.493292 0.963406 0.486750
0.779349 0.975199 0.480666
0.943318 0.978298 0.455816
0.999571 0.984210 0.413531
0.015892 0.054150 0.267755
0.039702 0.047788 0.285881
0.372456 0.084445 0.372951
0.687743 0.122019 0.379016
0.868307 0.167182 0.395138
0.992522 0.195575 0.416070
0.015404 0.149514 0.290743
0.072667 0.151915 0.294616
0.367292 0.134228 0.368493
0.689749 0.133937 0.374729
0.867521 0.165609 0.394486
0.994797 0.197494 0.416406
0.016226 0.376318 0.356973
0.058981 0.382533 0.362048
0.362628 0.396450 0.377761
0.684180 0.374544 0.350720
0.854922 0.372998 0.340743
0.991782 0.353301 0.379252
0.014397 0.644419 0.414959
0.036312 0.648073 0.418086
0.308644 0.656229 0.442535
0.737103 0.605540 0.396633
0.912697 0.585465 0.410381
0.999205 0.592208 0.393430
0.150611 0.833209 0.478368
0.161815 0.834522 0.482068
0.329635 0.834443 0.500663
0.719801 0.833761 0.456317
0.919604 0.823035 0.394443
1.000000 0.767643 0.426924
0.302982 0.936343 0.534372
0.305285 0.936078 0.537022
0.406205 0.928371 0.553613
0.741235 0.947780 0.556135
0.912733 0.965027 0.530657
0.999264 0.970930 0.496664
0.020487 0.118567 0.594145
0.017893 0.119650 0.604976
0.135830 0.139463 0.654686
0.674313 0.170634 0.698777
0.861381 0.196374 0.714831
0.993652 0.217143 0.734071
0.013702 0.193280 0.612261
0.017140 0.193454 0.613343
0.143209 0.149603 0.649924
0.673796 0.172359 0.697655
0.862745 0.196429 0.714293
0.990790 0.216980 0.735675
0.017330 0.409341 0.657222
0.016431 0.414376 0.655297
0.216053 0.430045 0.665667
0.681482 0.380533 0.706627
0.868831 0.377314 0.716648
0.992723 0.370074 0.730116
0.015289 0.623431 0.685491
0.013965 0.621678 0.683039
0.208340 0.634869 0.696075
0.681097 0.624989 0.706173
0.868663 0.622427 0.712334
0.995448 0.623546 0.714196
0.021208 0.811004 0.676482
0.030203 0.810551 0.677499
0.208303 0.823225 0.693256
0.674250 0.817312 0.725341
0.884544 0.819318 0.720063
0.998180 0.810947 0.728142
0.233710 0.940283 0.683788
0.231217 0.939891 0.689435
0.303735 0.935641 0.707919
0.697155 0.892752 0.744018
0.891337 0.918094 0.740947
0.999971 0.945310 0.744243
0.029402 0.180131 0.853892
0.027418 0.177986 0.854469
0.027591 0.181298 0.863509
0.563831 0.194417 0.861918
0.832713 0.219226 0.874678
0.969187 0.237905 0.888378
0.021794 0.224111 0.859706
0.023292 0.230932 0.858665
0.022291 0.196876 0.864730
0.558924 0.193694 0.861901
0.834445 0.220487 0.876038
0.970770 0.239730 0.889103
0.013783 0.452676 0.880667
0.016633 0.458273 0.882236
0.080241 0.475358 0.887207
0.563297 0.375770 0.877254
0.849151 0.380252 0.887324
0.983910 0.378120 0.897867
0.015865 0.646016 0.896216
0.013051 0.648688 0.896264
0.107951 0.664630 0.900234
0.618020 0.648859 0.888970
0.858630 0.627108 0.900954
0.986706 0.622981 0.901896
0.014298 0.831497 0.891887
0.017136 0.837108 0.895059
0.139295 0.838622 0.900433
0.629279 0.828421 0.898099
0.862452 0.823527 0.902084
0.993958 0.824543 0.909116
0.174623 0.948480 0.843772
0.180317 0.950674 0.849458
0.238965 0.950251 0.857834
0.647419 0.913781 0.880695
0.874325 0.922466 0.903550
0.999925 0.963087 0.914333
0.031372 0.205908 0.952628
0.031372 0.205908 0.952628
0.032001 0.205904 0.952628
0.405770 0.201056 0.930897
0.797457 0.226242 0.928407
0.948052 0.246595 0.938639
0.026649 0.237211 0.960171
0.025472 0.243679 0.961564
0.029465 0.221283 0.956146
0.399161 0.201224 0.937793
0.797537 0.228175 0.928401
0.948335 0.246658 0.935538
0.012714 0.470972 0.973195
0.015923 0.480646 0.979531
0.021566 0.490781 0.976011
0.437778 0.369173 0.952581
0.822052 0.367741 0.947269
0.962842 0.371654 0.951115
0.015668 0.664202 0.991340
0.012915 0.668078 0.991966
0.057957 0.682185 0.991112
0.580981 0.669503 0.975316
0.830452 0.620607 0.968844
0.990963 0.627501 0.971088
0.013850 0.836805 0.989886
0.015692 0.839252 0.991998
0.069165 0.842484 0.993048
0.606970 0.843240 0.985002
0.833788 0.826366 0.979537
0.994047 0.826490 0.989872
0.159450 0.962888 0.952380
0.161010 0.955954 0.952777
0.210557 0.960433 0.960509
0.629849 0.936321 0.979694
0.868293 0.951852 0.983812
0.999748 0.994965 0.992606
