example_ofxGpuLutCube/bin/data/ofxGpuLutCube/LUT/C10 (greenish warm).cube
LUT_3D_SIZE 16
0.016392 0.018324 0.014248
0.050412 0.024897 0.017627
0.074785 0.023447 0.015499
0.114515 0.025660 0.016115
0.174344 0.037560 0.015428
0.252266 0.061648 0.020025
0.373308 0.083823 0.016883
0.492642 0.105991 0.015059
0.597269 0.115506 0.024138
0.689480 0.120859 0.039859
0.761464 0.133843 0.054553
0.812416 0.152421 0.076471
0.867493 0.161808 0.084764
0.908137 0.175279 0.096145
0.950847 0.184943 0.106373
0.995615 0.199313 0.118529
0.023881 0.063707 0.037723
0.046886 0.056132 0.026793
0.078889 0.050433 0.023279
0.119822 0.053205 0.023235
0.174598 0.057499 0.019479
0.252319 0.069319 0.019810
0.380837 0.082197 0.019573
0.495121 0.107581 0.017348
0.601130 0.115150 0.026104
0.690297 0.118957 0.043229
0.761537 0.131219 0.051366
0.816121 0.149555 0.071143
0.866455 0.161437 0.081988
0.912240 0.179795 0.099648
0.951046 0.184912 0.109641
0.995465 0.199471 0.121598
0.014214 0.114474 0.052336
0.049632 0.102987 0.046253
0.085005 0.097742 0.037513
0.124908 0.087744 0.030873
0.180474 0.080493 0.022907
0.261149 0.090746 0.020231
0.380602 0.091164 0.015158
0.497964 0.108867 0.013867
0.600511 0.115712 0.023379
0.693080 0.120338 0.041532
0.761420 0.137130 0.055884
0.816390 0.149845 0.071167
0.870458 0.161322 0.082902
0.911248 0.178410 0.096782
0.950253 0.184875 0.109218
0.995302 0.198312 0.124621
0.017864 0.172622 0.067588
0.043074 0.163323 0.066033
0.073164 0.156101 0.057616
0.127963 0.143826 0.050078
0.197050 0.129025 0.044345
0.280120 0.119563 0.029901
0.387751 0.119539 0.026330
0.501310 0.122055 0.015815
0.607710 0.119229 0.025293
0.696036 0.122610 0.044646
0.765429 0.137275 0.054568
0.821104 0.149963 0.068496
0.869591 0.162018 0.083646
0.912232 0.178925 0.097589
0.954881 0.188286 0.109779
0.995457 0.196246 0.121599
0.018330 0.259367 0.092891
0.038820 0.254324 0.095660
0.068903 0.243016 0.089166
0.110069 0.232233 0.073730
0.190774 0.206706 0.059566
0.301506 0.179583 0.059170
0.415113 0.167020 0.048243
0.518639 0.165586 0.032754
0.619689 0.160562 0.038076
0.699521 0.152235 0.048915
0.768561 0.154140 0.061325
0.822378 0.166062 0.073177
0.871748 0.175362 0.082781
0.915946 0.184663 0.097715
0.954593 0.190876 0.107070
0.992280 0.195295 0.119002
0.019633 0.360922 0.136223
0.033895 0.353307 0.128598
0.064541 0.349215 0.126742
0.098993 0.333728 0.108814
0.168116 0.315638 0.092473
0.291819 0.285662 0.073908
0.447652 0.244395 0.080623
0.554597 0.234746 0.078424
0.637550 0.225918 0.065192
0.710118 0.226945 0.060965
0.773124 0.224777 0.060846
0.826128 0.223775 0.070852
0.875481 0.225874 0.080303
0.914381 0.225218 0.088949
0.957682 0.224307 0.100249
0.995433 0.218372 0.108738
0.019876 0.470450 0.173498
0.034320 0.462532 0.166198
0.053792 0.455713 0.161549
0.098230 0.438696 0.148660
0.150675 0.428861 0.138383
0.255786 0.408787 0.111804
0.445960 0.358229 0.107375
0.585633 0.321731 0.114415
0.676496 0.307098 0.115565
0.741805 0.309519 0.099302
0.791998 0.312729 0.080369
0.835011 0.314018 0.073938
0.877560 0.314515 0.075252
0.918525 0.313851 0.081948
0.958959 0.310701 0.085551
0.993277 0.305756 0.082783
0.034925 0.560480 0.208853
0.043216 0.551120 0.201766
0.057553 0.549763 0.198584
0.092900 0.535071 0.186911
0.140727 0.522636 0.170829
0.239168 0.506515 0.157996
0.414088 0.481688 0.129410
0.596329 0.432877 0.136503
0.705623 0.406806 0.146685
0.779941 0.395549 0.150699
0.821778 0.397934 0.118474
0.846219 0.411260 0.079855
0.894564 0.410017 0.065959
0.935004 0.406727 0.056670
0.967871 0.405907 0.047738
0.999265 0.408578 0.040128
0.061918 0.634372 0.241058
0.069714 0.632443 0.241386
0.083369 0.624427 0.233686
0.102061 0.617974 0.224663
0.140322 0.605473 0.208827
0.225188 0.595475 0.194909
0.384577 0.577652 0.169239
0.569952 0.554320 0.157377
0.706813 0.509179 0.159173
0.802688 0.482302 0.158804
0.861608 0.473522 0.156236
0.876838 0.491393 0.098951
0.905490 0.501841 0.065666
0.949008 0.498135 0.034350
0.980487 0.497293 0.023552
0.997140 0.492915 0.015026
0.104755 0.699011 0.273363
0.108221 0.698241 0.270507
0.114825 0.694362 0.266478
0.122674 0.687568 0.257158
0.154280 0.679088 0.243385
0.222076 0.668491 0.230704
0.380040 0.649272 0.206499
0.544986 0.644623 0.192023
0.682496 0.613943 0.173658
0.789154 0.591781 0.169921
0.879914 0.563641 0.159857
0.903924 0.575510 0.122273
0.915397 0.583078 0.079133
0.954172 0.576922 0.027698
0.987959 0.579787 0.018224
0.996348 0.575935 0.012585
0.152271 0.766440 0.315802
0.147331 0.754985 0.304008
0.154512 0.755350 0.300437
0.161991 0.748081 0.292985
0.177327 0.744620 0.279096
0.237993 0.737182 0.268028
0.378756 0.715519 0.245144
0.534025 0.719253 0.234101
0.666210 0.705063 0.217919
0.766327 0.687516 0.199689
0.854059 0.668103 0.177262
0.892674 0.671717 0.151798
0.929931 0.670137 0.108927
0.965306 0.663913 0.063998
0.995083 0.655800 0.022237
0.995692 0.647644 0.019064
0.189311 0.812524 0.345594
0.192837 0.812469 0.342094
0.191983 0.809060 0.337980
0.201487 0.805917 0.330829
0.207687 0.800163 0.316957
0.259692 0.792920 0.305629
0.386080 0.783814 0.292289
0.532906 0.785443 0.284608
0.665244 0.782284 0.277200
0.765485 0.775328 0.257223
0.839668 0.759700 0.230806
0.892248 0.754978 0.199266
0.935693 0.753678 0.164994
0.967627 0.743706 0.126736
0.999942 0.733986 0.079552
0.999303 0.717409 0.059219
0.235297 0.864281 0.386001
0.236952 0.858921 0.378737
0.238239 0.858885 0.375135
0.238599 0.852002 0.365621
0.253965 0.854806 0.360716
0.295007 0.850136 0.349983
0.407813 0.840166 0.336180
0.538315 0.845956 0.333462
0.661387 0.848248 0.333028
0.767727 0.848009 0.321675
0.840605 0.840843 0.295897
0.900617 0.838670 0.273749
0.946616 0.830661 0.242644
0.978941 0.822031 0.211582
0.997187 0.810685 0.171109
0.998734 0.785513 0.140014
0.284549 0.905398 0.420077
0.289111 0.903218 0.419283
0.288157 0.901707 0.414530
0.290651 0.896356 0.403170
0.302680 0.899490 0.401639
0.333158 0.896721 0.389176
0.436649 0.895129 0.382061
0.562676 0.897989 0.381273
0.672495 0.907225 0.386888
0.777493 0.913358 0.391106
0.852322 0.910882 0.377571
0.909076 0.910074 0.353522
0.956918 0.909855 0.326914
0.987003 0.898574 0.300910
0.999276 0.884183 0.259728
1.000000 0.860056 0.233338
0.333011 0.938730 0.456118
0.333361 0.938713 0.452373
0.338025 0.934918 0.446017
0.342920 0.937204 0.445064
0.345033 0.940200 0.437613
0.387840 0.941169 0.435597
0.480896 0.942284 0.427433
0.593856 0.946405 0.431866
0.695298 0.956129 0.446649
0.785702 0.963852 0.453906
0.862125 0.967212 0.451018
0.918220 0.966025 0.438100
0.967768 0.966108 0.424721
0.995974 0.970323 0.403037
0.999502 0.955661 0.363118
0.996582 0.921945 0.313795
0.376952 0.959391 0.481370
0.372457 0.953501 0.477655
0.378774 0.957407 0.479084
0.385569 0.963211 0.473203
0.389746 0.969584 0.471295
0.432888 0.969183 0.472633
0.526496 0.974052 0.472414
0.625740 0.972703 0.474376
0.709581 0.976878 0.479776
0.787614 0.978261 0.485025
0.849911 0.978955 0.479707
0.903338 0.976440 0.470957
0.938157 0.978777 0.451536
0.972390 0.977758 0.440253
0.993661 0.980074 0.429227
0.999146 0.976831 0.404674
0.015487 0.026771 0.049863
0.043075 0.022677 0.044857
0.073017 0.022262 0.047310
0.113875 0.023139 0.047361
0.170711 0.034198 0.044827
0.255100 0.054840 0.027416
0.372252 0.081839 0.019516
0.490069 0.107872 0.017311
0.599845 0.117061 0.026176
0.687918 0.119748 0.042394
0.757435 0.133616 0.057025
0.810680 0.152068 0.068780
0.863651 0.163318 0.078256
0.917794 0.175176 0.096395
0.950894 0.184434 0.107033
0.995213 0.194496 0.125250
0.022219 0.060805 0.058049
0.043262 0.053822 0.051412
0.073774 0.053845 0.049980
0.115117 0.053107 0.041388
0.174409 0.053894 0.031364
0.255859 0.066688 0.024014
0.369140 0.083633 0.022533
0.491035 0.108041 0.016509
0.599974 0.117061 0.025991
0.687718 0.121164 0.044235
0.757435 0.134275 0.057038
0.815471 0.150023 0.070578
0.860326 0.161930 0.077141
0.914212 0.177121 0.096200
0.950138 0.184794 0.106659
0.994753 0.196340 0.127291
0.015700 0.096925 0.059727
0.042253 0.101366 0.064355
0.081191 0.096102 0.064544
0.118183 0.091631 0.052611
0.176684 0.084305 0.033764
0.255981 0.090729 0.027323
0.379084 0.092638 0.016970
0.492536 0.110328 0.014399
0.600507 0.116312 0.025041
0.689159 0.121811 0.045858
0.761355 0.133821 0.057771
0.816324 0.149555 0.067494
0.869997 0.161276 0.082063
0.907909 0.176894 0.094986
0.951791 0.184512 0.105880
0.997908 0.197622 0.124761
0.019702 0.165929 0.084680
0.036036 0.166693 0.083748
0.071721 0.158466 0.080534
0.121957 0.147960 0.070996
0.189475 0.134065 0.063497
0.276414 0.123599 0.045600
0.385415 0.124987 0.033564
0.496771 0.127126 0.020247
0.604274 0.123209 0.027929
0.692473 0.125098 0.048811
0.765385 0.135907 0.060754
0.816814 0.149624 0.070872
0.869328 0.161994 0.085392
0.911860 0.177799 0.098093
0.954797 0.187956 0.109512
0.995711 0.199399 0.124642
0.024517 0.248754 0.110936
0.036767 0.253639 0.112596
0.062806 0.246526 0.108562
0.110519 0.230803 0.092720
0.183923 0.211679 0.078041
0.295018 0.184247 0.068799
0.415309 0.173742 0.064668
0.519472 0.170124 0.041318
0.614617 0.163606 0.036066
0.697182 0.158036 0.049562
0.768576 0.158825 0.064120
0.822967 0.166767 0.076859
0.872366 0.173358 0.084666
0.913131 0.182721 0.098442
0.957014 0.193360 0.109764
0.994853 0.198148 0.120981
0.019888 0.351012 0.142964
0.033761 0.355257 0.142705
0.057424 0.349316 0.140670
0.098726 0.333723 0.128656
0.164022 0.316811 0.109443
0.288088 0.286424 0.085953
0.447263 0.249057 0.083619
0.550254 0.235059 0.080516
0.635324 0.227543 0.070383
0.706285 0.231310 0.061178
0.769964 0.230673 0.064495
0.826173 0.230135 0.077417
0.874641 0.228127 0.083469
0.916730 0.228392 0.091101
0.958199 0.227448 0.101232
0.997898 0.224447 0.114701
0.016441 0.458359 0.179713
0.026028 0.458938 0.180949
0.047869 0.452719 0.177413
0.090692 0.442875 0.167443
0.148505 0.428303 0.158426
0.260118 0.409332 0.126478
0.452370 0.358467 0.108084
0.583140 0.325943 0.116228
0.674577 0.309702 0.117606
0.736207 0.310824 0.103833
0.789176 0.310675 0.090520
0.834794 0.317527 0.077415
0.879569 0.317393 0.071132
0.919656 0.312557 0.069449
0.958979 0.312792 0.079330
0.996514 0.311683 0.084479
0.028498 0.553644 0.218841
0.033807 0.552463 0.213935
0.051564 0.548138 0.211550
0.084485 0.537449 0.203695
0.136463 0.525402 0.190889
0.234644 0.509668 0.171651
0.404540 0.486114 0.129111
0.593157 0.439193 0.136518
0.701102 0.405768 0.146692
0.776846 0.391217 0.149898
0.825117 0.400992 0.128381
0.846387 0.415189 0.079625
0.889945 0.412947 0.063985
0.932496 0.411146 0.053933
0.965391 0.411756 0.046835
0.997874 0.409285 0.041415
0.053304 0.628392 0.248744
0.062122 0.634742 0.253101
0.073048 0.628253 0.250648
0.095066 0.617930 0.238018
0.136552 0.609711 0.229402
0.220361 0.595811 0.208990
0.387185 0.577961 0.176145
0.568938 0.549374 0.156576
0.705494 0.510593 0.160899
0.797606 0.485903 0.161250
0.862938 0.472570 0.154930
0.879625 0.493068 0.110624
0.902783 0.504423 0.062447
0.947133 0.500047 0.034989
0.978794 0.498015 0.020666
0.995682 0.495364 0.019086
0.094105 0.698566 0.283008
0.098778 0.698552 0.281644
0.107067 0.697676 0.283261
0.116997 0.690557 0.273111
0.145818 0.680033 0.257299
0.227315 0.667875 0.247464
0.373564 0.648319 0.215924
0.541653 0.643487 0.191911
0.680734 0.615345 0.178543
0.783120 0.594211 0.164395
0.873938 0.564445 0.161692
0.894851 0.576842 0.128130
0.915400 0.584491 0.080029
0.951967 0.578293 0.031858
0.983466 0.579475 0.014284
0.996442 0.572595 0.015004
0.137288 0.759133 0.319035
0.143761 0.759133 0.319099
0.144349 0.755725 0.312658
0.156263 0.747958 0.304362
0.169989 0.743751 0.294237
0.230601 0.736848 0.279950
0.374486 0.717851 0.255260
0.530758 0.716071 0.235338
0.665814 0.705933 0.222313
0.765136 0.687181 0.197464
0.853426 0.671227 0.176869
0.891939 0.674913 0.148242
0.921242 0.671116 0.111457
0.963664 0.661635 0.067496
0.991994 0.659357 0.025787
0.995574 0.647696 0.015894
0.184811 0.810702 0.350154
0.187217 0.811525 0.352541
0.190552 0.811520 0.351003
0.195913 0.804831 0.340433
0.205973 0.798421 0.329613
0.259171 0.794298 0.320314
0.383940 0.781721 0.297919
0.526844 0.781492 0.278881
0.659211 0.780053 0.269746
0.760931 0.773666 0.254889
0.838914 0.762590 0.225611
0.891522 0.755198 0.204791
0.930708 0.751855 0.166747
0.973875 0.743266 0.131053
0.995449 0.739441 0.084293
1.000000 0.717307 0.060428
0.232910 0.858680 0.386447
0.233658 0.855836 0.386625
0.236745 0.858698 0.385893
0.237797 0.853496 0.376180
0.245855 0.853763 0.368433
0.286727 0.848331 0.353609
0.406544 0.840011 0.341761
0.539691 0.842107 0.332664
0.660631 0.851128 0.333231
0.764257 0.849745 0.322979
0.838743 0.840560 0.296179
0.896633 0.834659 0.270252
0.941974 0.832943 0.246531
0.979805 0.821332 0.210469
0.999345 0.814092 0.178608
0.999976 0.793247 0.146734
0.283140 0.902743 0.423898
0.285059 0.899660 0.424269
0.283527 0.899545 0.421433
0.285147 0.893640 0.412111
0.293292 0.896428 0.404823
0.332738 0.900292 0.396304
0.434394 0.892649 0.386087
0.560965 0.895327 0.383404
0.673922 0.905788 0.388165
0.771182 0.912395 0.386085
0.850092 0.915065 0.374997
0.908267 0.912099 0.350074
0.950003 0.910320 0.331040
0.987157 0.898259 0.300704
0.999747 0.887318 0.267398
1.000000 0.861593 0.230401
0.324711 0.935774 0.455603
0.324623 0.936270 0.453399
0.328196 0.935705 0.449657
0.337131 0.937172 0.448567
0.345812 0.937415 0.441402
0.378232 0.942499 0.439074
0.476355 0.940109 0.432059
0.591840 0.946339 0.433731
0.693307 0.955934 0.448356
0.783393 0.963074 0.456944
0.859229 0.967519 0.451002
0.917823 0.968315 0.439382
0.962977 0.971928 0.425218
0.994890 0.967947 0.398611
0.999537 0.959262 0.364534
0.996190 0.929754 0.318274
0.364149 0.956531 0.478885
0.364882 0.956503 0.478853
0.372521 0.956858 0.478967
0.380938 0.959333 0.477672
0.391071 0.964293 0.475695
0.424594 0.968263 0.472564
0.516760 0.967808 0.472203
0.621087 0.971820 0.475770
0.706973 0.972873 0.477076
0.785781 0.975650 0.478135
0.846832 0.975944 0.471306
0.900198 0.976711 0.466343
0.939809 0.983441 0.456897
0.979447 0.977497 0.441609
0.993092 0.980102 0.425453
0.999233 0.979880 0.408275
0.017824 0.029747 0.080838
0.035997 0.021926 0.075258
0.069229 0.023496 0.080375
0.114483 0.024727 0.080533
0.174156 0.029870 0.079794
0.255585 0.047690 0.062898
0.369125 0.079860 0.034932
0.489976 0.110522 0.026104
0.596402 0.123404 0.033872
0.686615 0.124713 0.053284
0.761077 0.135038 0.066137
0.813932 0.149740 0.073738
0.862000 0.162884 0.085894
0.912073 0.172748 0.097983
0.951053 0.185817 0.113935
0.992059 0.197377 0.123248
0.021574 0.059916 0.081049
0.045066 0.061050 0.082059
0.071792 0.055221 0.082129
0.116420 0.050311 0.078707
0.169090 0.050148 0.074259
0.255967 0.060266 0.057020
0.371950 0.083265 0.031904
0.486124 0.112115 0.023227
0.593882 0.124513 0.035429
0.685446 0.125273 0.052387
0.761116 0.133133 0.064854
0.815892 0.150074 0.075229
0.863599 0.164676 0.086324
0.914541 0.175204 0.100808
0.952025 0.186219 0.110986
0.992091 0.199319 0.123236
0.016396 0.086824 0.078251
0.038637 0.094176 0.083525
0.072295 0.094689 0.086687
0.107562 0.088742 0.075386
0.176359 0.084821 0.067605
0.253031 0.089782 0.055562
0.369948 0.094130 0.036651
0.488023 0.115454 0.026410
0.594641 0.124018 0.036849
0.689905 0.126620 0.056095
0.760145 0.136948 0.063869
0.818802 0.147687 0.076930
0.864261 0.161104 0.085381
0.913913 0.176118 0.099617
0.952180 0.186456 0.110992
0.992637 0.198056 0.122673
0.019929 0.154413 0.099485
0.037921 0.159183 0.100891
0.066217 0.153093 0.099776
0.111613 0.149477 0.095343
0.179852 0.134191 0.081414
0.264281 0.129365 0.071172
0.378403 0.128250 0.053173
0.495567 0.132720 0.035950
0.600069 0.132410 0.039021
0.691809 0.129661 0.057297
0.760035 0.134475 0.067829
0.820326 0.150591 0.075091
0.864700 0.161885 0.089105
0.911437 0.174145 0.099604
0.954521 0.187807 0.112647
0.993454 0.198128 0.122734
0.019183 0.239529 0.126225
0.033279 0.245371 0.126782
0.063247 0.245813 0.128526
0.104264 0.236903 0.120153
0.180409 0.217303 0.106951
0.287813 0.193776 0.098450
0.403908 0.180927 0.086419
0.512607 0.177648 0.066355
0.609151 0.173811 0.057434
0.693601 0.165103 0.064678
0.765628 0.159458 0.075073
0.822658 0.165288 0.083347
0.869681 0.173459 0.093214
0.913857 0.181741 0.102978
0.954554 0.191480 0.112007
0.992118 0.196751 0.122557
0.015814 0.342999 0.158193
0.028962 0.348104 0.158986
0.054088 0.347863 0.161968
0.092250 0.340293 0.155111
0.162796 0.320069 0.141822
0.283259 0.292877 0.113360
0.436752 0.256801 0.110067
0.540249 0.245656 0.101424
0.629194 0.236071 0.087193
0.704249 0.235810 0.076890
0.766698 0.232549 0.080130
0.821170 0.231842 0.085212
0.870465 0.229940 0.090765
0.915178 0.229214 0.097399
0.958027 0.230673 0.105278
0.995224 0.227535 0.115167
0.015821 0.451352 0.193096
0.027135 0.453225 0.193298
0.041872 0.452440 0.197304
0.085473 0.443031 0.188763
0.146219 0.432997 0.182504
0.249475 0.411454 0.152915
0.441145 0.364662 0.121628
0.576895 0.328806 0.126398
0.666568 0.313026 0.123621
0.734551 0.312973 0.109000
0.787112 0.316076 0.096641
0.832924 0.319618 0.081733
0.876197 0.321264 0.079467
0.919612 0.316803 0.078832
0.959619 0.315865 0.086171
0.995140 0.317576 0.089854
0.019475 0.544732 0.228168
0.031509 0.546925 0.229296
0.043820 0.547346 0.231165
0.077951 0.539711 0.224233
0.131165 0.528616 0.213076
0.228577 0.509505 0.195465
0.402000 0.489736 0.144657
0.586621 0.440344 0.136068
0.698035 0.408135 0.145981
0.772964 0.396999 0.149590
0.825789 0.397672 0.123872
0.842158 0.418595 0.084360
0.885152 0.413271 0.066556
0.931450 0.412373 0.054454
0.964167 0.414254 0.044726
0.991930 0.416444 0.038106
0.048668 0.622827 0.260901
0.056104 0.623960 0.261957
0.067167 0.626660 0.266460
0.092272 0.618263 0.257277
0.130980 0.607036 0.247423
0.217333 0.598155 0.231728
0.381879 0.574956 0.190403
0.561440 0.553181 0.157824
0.699712 0.516508 0.159548
0.795425 0.491745 0.161773
0.863539 0.474149 0.160566
0.877242 0.490785 0.106501
0.901978 0.504290 0.063963
0.941271 0.502386 0.036649
0.974991 0.501504 0.019940
0.995472 0.498089 0.019275
0.087021 0.695309 0.292493
0.093813 0.694950 0.292628
0.098941 0.695494 0.295826
0.113256 0.687166 0.287941
0.143679 0.679973 0.275617
0.217813 0.669508 0.264073
0.370914 0.652238 0.230413
0.536879 0.645628 0.193777
0.677503 0.617380 0.179373
0.782163 0.594449 0.166400
0.876555 0.566100 0.160815
0.895073 0.576601 0.131645
0.911723 0.586564 0.081318
0.952608 0.585852 0.037586
0.982509 0.583364 0.016491
0.996694 0.575992 0.015794
0.133788 0.754694 0.326991
0.137215 0.756034 0.325736
0.141362 0.757795 0.327166
0.152268 0.751036 0.320359
0.168463 0.745518 0.311272
0.226481 0.734261 0.300762
0.371085 0.721301 0.270190
0.527456 0.718395 0.238954
0.658183 0.706228 0.222039
0.762426 0.690715 0.199433
0.845762 0.671875 0.180623
0.886313 0.670820 0.154768
0.920530 0.670888 0.112439
0.961335 0.664196 0.067126
0.989848 0.660129 0.024464
0.993894 0.650263 0.012834
0.178477 0.808093 0.354317
0.182748 0.808842 0.357270
0.183188 0.809383 0.359228
0.191237 0.806603 0.356874
0.199639 0.800115 0.340624
0.251327 0.795986 0.335809
0.378540 0.782873 0.311165
0.527031 0.783310 0.286456
0.659144 0.780618 0.276138
0.757414 0.772669 0.254766
0.838669 0.758685 0.229582
0.887911 0.754948 0.203782
0.928447 0.752296 0.169618
0.968612 0.748023 0.134002
0.997411 0.737058 0.085594
0.998086 0.722414 0.063629
0.228416 0.857716 0.392759
0.228373 0.858593 0.396464
0.229040 0.859305 0.396605
0.231569 0.854071 0.388426
0.239388 0.855544 0.381532
0.283816 0.848546 0.369579
0.397441 0.841103 0.354317
0.532876 0.841675 0.335865
0.658682 0.847878 0.331147
0.761377 0.846070 0.320759
0.839722 0.840097 0.299429
0.898013 0.834512 0.274148
0.937971 0.830480 0.244128
0.979408 0.821949 0.211536
0.996155 0.814685 0.176059
0.999487 0.792736 0.144581
0.280852 0.897836 0.426298
0.281292 0.899695 0.428719
0.280004 0.898373 0.425778
0.278999 0.893092 0.418888
0.284501 0.898218 0.417085
0.323325 0.895691 0.407678
0.429642 0.891562 0.399911
0.557255 0.891989 0.387471
0.667908 0.905121 0.388332
0.769704 0.911905 0.390283
0.847006 0.911161 0.376842
0.904851 0.909856 0.349733
0.949883 0.910101 0.331999
0.987540 0.898782 0.301496
0.999524 0.890544 0.264759
0.999240 0.862602 0.230548
0.323307 0.934380 0.459599
0.323617 0.932733 0.460700
0.321722 0.933278 0.457963
0.325913 0.933383 0.453461
0.335410 0.935133 0.448065
0.371279 0.937277 0.445529
0.464716 0.938599 0.442852
0.582498 0.943424 0.435718
0.690515 0.953333 0.444694
0.783133 0.961307 0.450463
0.860830 0.964608 0.450567
0.916809 0.968116 0.436900
0.961669 0.968764 0.420006
0.993713 0.966450 0.397891
0.999655 0.960034 0.367522
0.996685 0.925772 0.317420
0.362474 0.956919 0.485647
0.364751 0.956912 0.489211
0.362334 0.957002 0.486965
0.369377 0.957578 0.480716
0.381874 0.962449 0.483270
0.415183 0.964917 0.475853
0.504664 0.967486 0.480282
0.615768 0.971628 0.478457
0.703943 0.972363 0.480144
0.784217 0.975858 0.474157
0.847036 0.974878 0.467065
0.898498 0.976296 0.461523
0.940572 0.980712 0.456069
0.975435 0.980237 0.440624
0.995553 0.979606 0.427270
0.997381 0.980629 0.406826
0.014426 0.036212 0.113189
0.031054 0.025545 0.109379
0.060319 0.025933 0.118126
0.110454 0.026173 0.119000
0.173451 0.034182 0.122136
0.265606 0.042818 0.122470
0.379299 0.071230 0.095989
0.485271 0.110436 0.068244
0.586191 0.138266 0.061489
0.683526 0.138163 0.091804
0.757202 0.138192 0.112681
0.814017 0.151047 0.111071
0.864102 0.164767 0.118557
0.909083 0.173361 0.121914
0.952674 0.187944 0.129248
0.994366 0.199111 0.135925
0.017847 0.064005 0.116824
0.043183 0.060416 0.117863
0.063959 0.053755 0.118326
0.110685 0.050587 0.119349
0.174218 0.051140 0.123665
0.260496 0.053398 0.121241
0.376056 0.074257 0.092013
0.485312 0.111092 0.068802
0.586166 0.135788 0.060293
0.682023 0.137759 0.091658
0.757110 0.140172 0.111325
0.814388 0.151486 0.112683
0.862513 0.164777 0.116724
0.909642 0.173814 0.120616
0.952268 0.186422 0.130527
0.994449 0.199022 0.137947
0.017329 0.092097 0.113672
0.039447 0.093438 0.113685
0.070157 0.092356 0.116010
0.105035 0.092681 0.119546
0.170372 0.088276 0.120065
0.252370 0.085110 0.111905
0.374749 0.090469 0.090408
0.485985 0.117094 0.067726
0.587499 0.135202 0.058763
0.680918 0.136729 0.089494
0.760175 0.138014 0.110772
0.816746 0.149920 0.114329
0.867997 0.161956 0.116727
0.907845 0.175401 0.121411
0.954021 0.187469 0.127810
0.997866 0.195983 0.139342
0.019780 0.138461 0.123928
0.038873 0.142181 0.123502
0.068409 0.145289 0.125061
0.109259 0.149654 0.129917
0.170605 0.139500 0.122897
0.260562 0.136126 0.114901
0.373525 0.133804 0.096293
0.489930 0.138994 0.075787
0.588817 0.146209 0.062559
0.681683 0.141233 0.088044
0.762231 0.141253 0.111477
0.816263 0.152529 0.115305
0.869181 0.162729 0.120265
0.909039 0.175898 0.126597
0.953093 0.187480 0.133049
0.994559 0.194677 0.140131
0.019042 0.226810 0.146134
0.035499 0.230204 0.146657
0.060856 0.229265 0.149531
0.097657 0.230763 0.148574
0.168269 0.217414 0.143425
0.278497 0.197767 0.131681
0.387407 0.192287 0.122199
0.498922 0.190456 0.096468
0.595782 0.188997 0.084984
0.687046 0.178334 0.092402
0.762211 0.165876 0.113112
0.821257 0.167039 0.120926
0.869130 0.175697 0.127078
0.914653 0.184490 0.133226
0.955441 0.193915 0.137191
0.994141 0.197946 0.142548
0.015700 0.328837 0.175415
0.031761 0.335748 0.178730
0.054368 0.334043 0.181959
0.089586 0.337744 0.185658
0.154360 0.322765 0.175054
0.277129 0.294933 0.151094
0.423600 0.260434 0.142305
0.527563 0.256233 0.133054
0.621506 0.249856 0.119217
0.692829 0.246010 0.109609
0.765616 0.240312 0.115836
0.819305 0.235413 0.121754
0.868421 0.234313 0.127749
0.914846 0.234434 0.130038
0.954997 0.233558 0.132008
0.994452 0.231270 0.137661
0.018085 0.438724 0.214520
0.023138 0.438993 0.209996
0.044246 0.443785 0.215386
0.075690 0.444994 0.218647
0.136415 0.435034 0.207437
0.244696 0.412694 0.192939
0.430777 0.364910 0.152255
0.567295 0.338261 0.158689
0.658100 0.323934 0.151867
0.723829 0.324025 0.143193
0.784267 0.320581 0.132309
0.825914 0.327116 0.116696
0.872676 0.326071 0.113984
0.915785 0.325305 0.112599
0.955846 0.321672 0.112647
0.996936 0.323086 0.114165
0.015492 0.533716 0.244677
0.023487 0.537094 0.244541
0.041135 0.537560 0.249128
0.068981 0.540511 0.249471
0.121936 0.532049 0.246314
0.221945 0.513924 0.225178
0.391620 0.489150 0.177588
0.578423 0.444180 0.157528
