example_ofxGpuLutCube/bin/data/ofxGpuLutCube/LUT/C11 (greenish fade).cube
LUT_3D_SIZE 16
0.142283 0.122243 0.094152
0.156436 0.128895 0.100974
0.157948 0.128955 0.098954
0.181765 0.131989 0.104512
0.207966 0.135472 0.107850
0.254783 0.144022 0.115745
0.325084 0.155899 0.130785
0.401061 0.163267 0.136519
0.480828 0.177697 0.153318
0.547838 0.185299 0.159746
0.600045 0.194647 0.169436
0.637025 0.200001 0.174504
0.683079 0.208810 0.182768
0.714429 0.213092 0.187699
0.751118 0.222288 0.192312
0.784772 0.230408 0.201010
0.145523 0.133003 0.097619
0.153376 0.132478 0.097584
0.161436 0.134768 0.098946
0.184090 0.136395 0.104371
0.208028 0.143209 0.108053
0.254469 0.151595 0.115745
0.324841 0.163589 0.129477
0.405336 0.174182 0.139797
0.480763 0.185041 0.151111
0.547829 0.192264 0.159736
0.599403 0.198891 0.168708
0.639735 0.208506 0.174499
0.681124 0.214670 0.184469
0.716709 0.222511 0.193255
0.751213 0.227378 0.196010
0.784948 0.234751 0.204382
0.153887 0.143881 0.099630
0.157442 0.143894 0.097584
0.165665 0.148918 0.096351
0.184097 0.147902 0.101372
0.208726 0.154937 0.108848
0.252247 0.162564 0.119181
0.320618 0.174194 0.128131
0.406085 0.183933 0.141596
0.479243 0.194501 0.151289
0.546221 0.206462 0.161914
0.600185 0.213959 0.169417
0.638394 0.222418 0.177559
0.675725 0.229972 0.185122
0.717702 0.232212 0.191062
0.751494 0.241881 0.199898
0.781545 0.247901 0.200693
0.156346 0.164020 0.100545
0.161307 0.163862 0.098955
0.167724 0.163536 0.097919
0.188378 0.167194 0.102589
0.213983 0.175021 0.107297
0.256734 0.182866 0.119202
0.320577 0.193504 0.129359
0.404773 0.202345 0.140760
0.481063 0.214884 0.153413
0.547811 0.226588 0.165339
0.600171 0.232073 0.169507
0.637661 0.239874 0.177126
0.676848 0.247226 0.183221
0.717848 0.250174 0.189986
0.750919 0.260199 0.199841
0.779857 0.267755 0.200772
0.169912 0.193282 0.110345
0.172427 0.191986 0.107045
0.180236 0.196029 0.107067
0.196422 0.196447 0.105790
0.218416 0.203195 0.103856
0.260705 0.209073 0.112226
0.326892 0.219686 0.127322
0.404161 0.227538 0.139956
0.484685 0.242471 0.154927
0.548553 0.251613 0.161816
0.599903 0.260304 0.169088
0.640445 0.270412 0.178075
0.680912 0.272340 0.184042
0.714347 0.279836 0.191362
0.753410 0.289272 0.198904
0.785704 0.293448 0.204425
0.181907 0.240863 0.118549
0.188861 0.238136 0.118107
0.195809 0.241016 0.118289
0.209390 0.239777 0.117057
0.229742 0.247879 0.115100
0.270312 0.252925 0.112249
0.332108 0.260572 0.123668
0.407633 0.272245 0.140291
0.480933 0.281992 0.149834
0.544417 0.293962 0.162017
0.600180 0.298215 0.169547
0.638322 0.304948 0.178575
0.679753 0.316770 0.183397
0.714947 0.321690 0.191778
0.750628 0.330779 0.196160
0.785423 0.336118 0.201078
0.199833 0.303712 0.130437
0.207276 0.304026 0.132110
0.216538 0.303659 0.134028
0.229967 0.303198 0.131521
0.248209 0.307622 0.129416
0.287217 0.315289 0.127258
0.341099 0.320479 0.122114
0.412877 0.328729 0.132909
0.486464 0.340566 0.146655
0.549852 0.353176 0.161176
0.600146 0.361364 0.169174
0.640808 0.365635 0.175860
0.681856 0.373384 0.186639
0.714579 0.380044 0.196713
0.751127 0.384451 0.199433
0.785323 0.392774 0.204757
0.226258 0.381727 0.143874
0.232387 0.382622 0.147669
0.240292 0.385908 0.147879
0.254038 0.381801 0.145213
0.275233 0.385435 0.143625
0.310725 0.386480 0.140754
0.365383 0.397324 0.134306
0.425618 0.405857 0.131351
0.496590 0.415747 0.139144
0.554322 0.423944 0.148834
0.605172 0.432632 0.164384
0.642566 0.435172 0.173280
0.683785 0.440313 0.182130
0.717810 0.449724 0.193932
0.751381 0.455652 0.199372
0.787621 0.467375 0.207003
0.257496 0.469987 0.162837
0.260650 0.468410 0.164551
0.265111 0.466670 0.163003
0.284056 0.465500 0.163825
0.304181 0.468547 0.161804
0.342898 0.471915 0.164062
0.391645 0.471664 0.163798
0.450339 0.485634 0.150259
0.512167 0.490249 0.135519
0.569974 0.500771 0.139564
0.618920 0.510009 0.152736
0.657405 0.514731 0.161426
0.695226 0.519979 0.170380
0.726159 0.524580 0.183724
0.758039 0.529105 0.189208
0.790051 0.535253 0.196608
0.277599 0.538428 0.176626
0.281772 0.537492 0.176786
0.293863 0.541394 0.178429
0.306723 0.538041 0.174884
0.327917 0.543968 0.179588
0.366247 0.544455 0.175653
0.419327 0.543273 0.178684
0.482115 0.553416 0.173894
0.531452 0.562323 0.155166
0.584526 0.573868 0.146463
0.626828 0.582982 0.146853
0.667580 0.590636 0.153805
0.704856 0.593657 0.160766
0.734981 0.597851 0.168477
0.768115 0.603074 0.175482
0.799840 0.604568 0.185107
0.301670 0.608262 0.190291
0.304836 0.608331 0.190274
0.311194 0.608621 0.193608
0.329878 0.606594 0.189618
0.348663 0.607705 0.189750
0.387370 0.612293 0.189863
0.446315 0.610384 0.191444
0.500501 0.611798 0.187805
0.557984 0.622573 0.177562
0.606985 0.635740 0.163071
0.642920 0.640806 0.157919
0.675637 0.644328 0.150575
0.706122 0.654643 0.156415
0.747288 0.663500 0.163268
0.778348 0.664745 0.168060
0.807652 0.666531 0.179925
0.311578 0.664437 0.196417
0.325796 0.664628 0.202071
0.332686 0.663060 0.203858
0.347352 0.663712 0.203280
0.368539 0.665895 0.204296
0.405622 0.666352 0.200222
0.461714 0.660429 0.198609
0.522843 0.667424 0.201798
0.577674 0.670252 0.193504
0.624444 0.685034 0.181714
0.662194 0.692298 0.171483
0.695039 0.698723 0.164039
0.716646 0.701361 0.160448
0.752236 0.705733 0.160285
0.784834 0.718581 0.165613
0.815101 0.725349 0.172594
0.330060 0.716878 0.209354
0.335315 0.715568 0.210005
0.343671 0.717540 0.213243
0.364058 0.716326 0.211147
0.385314 0.716203 0.211760
0.428657 0.716751 0.208923
0.482530 0.714481 0.211538
0.543212 0.715153 0.215091
0.596424 0.716336 0.210441
0.640252 0.726543 0.202217
0.677315 0.734724 0.193484
0.710642 0.745806 0.187234
0.743360 0.751268 0.177947
0.764360 0.755865 0.174539
0.788160 0.753416 0.169945
0.819799 0.766470 0.174732
0.343330 0.766808 0.216816
0.346439 0.762179 0.218121
0.360231 0.762108 0.221891
0.376751 0.758435 0.220001
0.403108 0.760355 0.221306
0.438615 0.760479 0.218602
0.497249 0.760490 0.220608
0.557056 0.758698 0.220760
0.613583 0.760808 0.222135
0.655548 0.765295 0.217059
0.692249 0.773972 0.206925
0.726065 0.781996 0.198254
0.755433 0.790875 0.191297
0.781084 0.801359 0.186445
0.806556 0.800411 0.180344
0.824592 0.794814 0.169170
0.356365 0.804344 0.222710
0.361609 0.805037 0.227226
0.371132 0.805298 0.229233
0.393762 0.800069 0.225903
0.417497 0.803294 0.231640
0.457138 0.803959 0.229854
0.511807 0.802100 0.231969
0.571356 0.801634 0.231793
0.626217 0.801368 0.228123
0.672658 0.803951 0.226075
0.707932 0.812002 0.219064
0.738686 0.817507 0.209806
0.766545 0.828479 0.204356
0.791189 0.837916 0.193745
0.819970 0.843620 0.188992
0.848758 0.847003 0.181722
0.370922 0.843496 0.235377
0.374456 0.846641 0.235686
0.382372 0.845496 0.233564
0.404938 0.843228 0.234349
0.428419 0.843121 0.238852
0.466288 0.847468 0.238345
0.523145 0.843136 0.241225
0.585292 0.841187 0.237957
0.640015 0.840165 0.235679
0.684789 0.843171 0.238853
0.721659 0.843407 0.231541
0.754053 0.851755 0.224167
0.780510 0.860338 0.214734
0.806073 0.872716 0.209589
0.831376 0.878673 0.201486
0.861658 0.889456 0.198456
0.149158 0.125555 0.107758
0.152717 0.128184 0.104991
0.164224 0.131859 0.109091
0.183399 0.129960 0.110193
0.211157 0.135219 0.117320
0.256260 0.144285 0.123698
0.325688 0.155955 0.134824
0.407416 0.167235 0.148603
0.485323 0.175882 0.160714
0.548707 0.187982 0.170399
0.603303 0.194808 0.177032
0.647602 0.203480 0.185064
0.683264 0.209114 0.193807
0.716464 0.214653 0.199210
0.754036 0.222803 0.207041
0.786170 0.227629 0.215024
0.149173 0.132433 0.105036
0.154058 0.136296 0.106002
0.162086 0.137562 0.110528
0.182994 0.138051 0.112902
0.211890 0.146243 0.118596
0.258046 0.154688 0.125927
0.325843 0.163247 0.137978
0.407974 0.175107 0.150405
0.482117 0.184291 0.158509
0.548049 0.196789 0.169846
0.602609 0.202731 0.176993
0.644946 0.210391 0.184121
0.680450 0.216515 0.191472
0.716448 0.222495 0.197188
0.751368 0.228114 0.206254
0.785366 0.234921 0.212099
0.152635 0.145278 0.102943
0.158594 0.145272 0.105823
0.167388 0.148634 0.106862
0.185776 0.149716 0.111009
0.213652 0.157254 0.117756
0.260029 0.163320 0.126456
0.327444 0.174727 0.135433
0.406425 0.186142 0.149425
0.483758 0.199328 0.162416
0.548246 0.208250 0.168195
0.600300 0.214084 0.176875
0.641447 0.222869 0.185959
0.683085 0.229358 0.191598
0.718554 0.237118 0.200239
0.751986 0.242923 0.205612
0.785818 0.246551 0.213948
0.158777 0.164190 0.109791
0.165524 0.165670 0.110997
0.170795 0.166860 0.107296
0.189939 0.167785 0.107550
0.213158 0.175156 0.115122
0.261577 0.183305 0.124703
0.330215 0.193016 0.135949
0.407575 0.202731 0.149640
0.485306 0.215735 0.160782
0.547776 0.224107 0.168556
0.604690 0.232710 0.177210
0.646834 0.241224 0.185560
0.683274 0.248505 0.193234
0.718660 0.256825 0.201978
0.751729 0.262416 0.205685
0.785773 0.266392 0.213687
0.170169 0.196149 0.118495
0.174083 0.193741 0.117150
0.180574 0.195947 0.115755
0.196582 0.197807 0.112949
0.216258 0.204538 0.115105
0.261072 0.211933 0.122805
0.327810 0.222142 0.138178
0.408514 0.230692 0.149587
0.482623 0.242793 0.160107
0.547893 0.252605 0.169819
0.600323 0.261033 0.176796
0.641977 0.270590 0.186089
0.682554 0.276545 0.194809
0.718704 0.282191 0.198880
0.753949 0.287325 0.208667
0.786598 0.294866 0.212787
0.180813 0.240129 0.124994
0.189185 0.240834 0.128045
0.193803 0.238875 0.125614
0.209752 0.241177 0.124614
0.227624 0.248139 0.122295
0.269999 0.256668 0.122646
0.329914 0.264589 0.131611
0.404502 0.271099 0.145319
0.482558 0.283642 0.160218
0.548194 0.293592 0.170199
0.602827 0.302212 0.176428
0.644840 0.311656 0.186075
0.682654 0.316920 0.193546
0.718959 0.325340 0.205031
0.753948 0.332303 0.209811
0.785734 0.336864 0.209326
0.203800 0.304369 0.136853
0.209460 0.303773 0.139514
0.213794 0.303671 0.138461
0.232284 0.305286 0.138997
0.248326 0.310902 0.137827
0.285290 0.315843 0.135575
0.343267 0.320580 0.132772
0.415911 0.333215 0.145399
0.488595 0.342434 0.160028
0.548715 0.351348 0.167543
0.599780 0.358056 0.176958
0.643439 0.367362 0.185542
0.683926 0.376376 0.193990
0.719033 0.381092 0.200252
0.751749 0.388543 0.204124
0.788618 0.397618 0.215454
0.230925 0.384086 0.156897
0.232326 0.382141 0.155166
0.237221 0.383469 0.153507
0.255844 0.383026 0.154228
0.277324 0.386196 0.154884
0.311935 0.387211 0.155073
0.363682 0.396193 0.147531
0.428105 0.407504 0.138510
0.496925 0.412100 0.146869
0.558270 0.423884 0.159606
0.608731 0.429773 0.174075
0.648206 0.438631 0.183113
0.687366 0.446903 0.192506
0.715949 0.450502 0.196293
0.751514 0.458188 0.202461
0.785878 0.465322 0.212121
0.252323 0.466636 0.169533
0.260783 0.467601 0.170159
0.266311 0.467244 0.169539
0.287523 0.466314 0.172346
0.307616 0.471499 0.174000
0.338198 0.467878 0.166530
0.393503 0.474927 0.168964
0.452608 0.483548 0.157010
0.512694 0.495085 0.148187
0.569045 0.503096 0.148238
0.619832 0.510710 0.159913
0.662449 0.518592 0.170923
0.694553 0.519112 0.181014
0.725641 0.528082 0.193210
0.758539 0.532481 0.197864
0.787364 0.536324 0.203596
0.276708 0.548017 0.184860
0.282743 0.544552 0.184749
0.293752 0.547695 0.187241
0.306510 0.543719 0.184893
0.329105 0.545496 0.184136
0.366546 0.548417 0.183442
0.420785 0.546458 0.184990
0.483372 0.552754 0.181107
0.537069 0.563749 0.166035
0.583237 0.575695 0.155590
0.627146 0.582796 0.154922
0.670782 0.591525 0.164000
0.703692 0.594170 0.170466
0.735515 0.600311 0.178514
0.770904 0.603672 0.186927
0.798642 0.604944 0.195886
0.295730 0.612502 0.194919
0.307328 0.610099 0.198714
0.310703 0.611379 0.199869
0.330308 0.608586 0.199738
0.347944 0.610358 0.198349
0.390300 0.611744 0.200199
0.442787 0.611258 0.199875
0.502512 0.612589 0.195916
0.559415 0.622867 0.187069
0.606821 0.635833 0.174496
0.646648 0.644558 0.164959
0.676373 0.645069 0.162259
0.714637 0.654403 0.166811
0.746840 0.664927 0.170454
0.782539 0.664575 0.179410
0.810858 0.669740 0.187747
0.311920 0.668975 0.210141
0.321750 0.666198 0.209943
0.331024 0.667153 0.209629
0.350793 0.665008 0.211095
0.370452 0.668679 0.209852
0.405600 0.668829 0.209092
0.460992 0.668612 0.209799
0.519996 0.667183 0.207400
0.580412 0.673421 0.201748
0.624711 0.684576 0.191912
0.669070 0.694755 0.183036
0.693550 0.700408 0.177033
0.723609 0.699817 0.170256
0.749365 0.709454 0.169263
0.788292 0.719945 0.176121
0.815086 0.724579 0.173946
0.326549 0.720944 0.216089
0.333180 0.718489 0.216726
0.343282 0.718116 0.219115
0.364202 0.716183 0.219610
0.387111 0.718254 0.221052
0.429034 0.717006 0.221326
0.481696 0.717125 0.222570
0.543099 0.716495 0.221899
0.594304 0.719205 0.218007
0.644601 0.728270 0.210229
0.676303 0.736353 0.199174
0.707003 0.747576 0.190696
0.741881 0.753538 0.186538
0.765309 0.757555 0.181058
0.788324 0.756712 0.176039
0.823032 0.768885 0.184242
0.340146 0.768591 0.227038
0.344418 0.766594 0.225435
0.354832 0.763873 0.225532
0.378210 0.761224 0.231685
0.403493 0.761139 0.231384
0.444100 0.760959 0.233278
0.495715 0.759721 0.228944
0.561567 0.761110 0.229152
0.611437 0.760556 0.226068
0.660661 0.764937 0.224313
0.693741 0.776561 0.214944
0.727045 0.786830 0.207806
0.754270 0.789919 0.196909
0.781081 0.800267 0.193817
0.811142 0.806261 0.192237
0.824520 0.798573 0.178909
0.353417 0.809046 0.230286
0.357494 0.805778 0.231552
0.369795 0.806624 0.235111
0.394420 0.803691 0.236636
0.414165 0.804023 0.237808
0.458350 0.804685 0.237366
0.512442 0.803003 0.240091
0.571296 0.803753 0.238187
0.626394 0.801819 0.236131
0.672553 0.806824 0.234689
0.708610 0.813095 0.227854
0.740087 0.818460 0.218555
0.764561 0.829524 0.214766
0.797365 0.835607 0.207589
0.822551 0.846664 0.201476
0.848463 0.852684 0.195070
0.364518 0.847144 0.236631
0.370872 0.847118 0.239612
0.383745 0.849860 0.243758
0.406564 0.843786 0.245337
0.429564 0.846232 0.248392
0.470463 0.847882 0.249163
0.524413 0.846349 0.249048
0.581956 0.845860 0.245439
0.639950 0.842856 0.243338
0.689008 0.846335 0.248544
0.722636 0.847147 0.240361
0.752537 0.853087 0.233626
0.776521 0.863864 0.226044
0.806956 0.872444 0.223209
0.831274 0.880409 0.216485
0.861075 0.886020 0.209663
0.151252 0.125617 0.117662
0.158741 0.125716 0.117214
0.168663 0.130150 0.122362
0.188675 0.130793 0.121690
0.214203 0.139535 0.130386
0.257798 0.146897 0.134475
0.327005 0.159049 0.149632
0.409669 0.169416 0.162030
0.484461 0.179996 0.175855
0.547911 0.188393 0.183705
0.601787 0.194967 0.191757
0.645617 0.203817 0.199052
0.685857 0.211928 0.203951
0.718640 0.217096 0.207958
0.754300 0.222801 0.217207
0.788606 0.228462 0.223272
0.151431 0.134063 0.117480
0.158826 0.133357 0.116952
0.167921 0.137853 0.120957
0.188675 0.139832 0.123687
0.214849 0.146810 0.131872
0.258214 0.155900 0.136212
0.325490 0.165423 0.150294
0.409298 0.175536 0.161268
0.484354 0.185442 0.173256
0.549549 0.197841 0.184069
0.603539 0.202829 0.192364
0.647323 0.211504 0.199214
0.684538 0.218717 0.204683
0.719365 0.225712 0.210663
0.755462 0.231020 0.218610
0.790248 0.238240 0.224209
0.153071 0.145509 0.119530
0.159613 0.147388 0.119917
0.168039 0.149038 0.118875
0.189861 0.150705 0.124415
0.215053 0.159442 0.131350
0.258472 0.167537 0.137090
0.325474 0.178618 0.147413
0.410642 0.189648 0.161077
0.484018 0.200401 0.173848
0.549826 0.208380 0.181808
0.602345 0.216737 0.189332
0.644173 0.225714 0.196940
0.685827 0.230199 0.205463
0.718761 0.239886 0.211399
0.755312 0.244624 0.219132
0.789208 0.247148 0.223404
0.159243 0.165813 0.120237
0.165674 0.166819 0.120579
0.171060 0.167535 0.118858
0.190075 0.169898 0.123313
0.215173 0.178359 0.126373
0.256597 0.185572 0.133955
0.323752 0.196893 0.146478
0.408470 0.206959 0.160320
0.483191 0.218587 0.172557
0.548065 0.226727 0.182442
0.602026 0.234740 0.190419
0.644561 0.242574 0.198771
0.685832 0.249427 0.204879
0.718830 0.258370 0.212822
0.754446 0.262295 0.218914
0.790514 0.268462 0.225370
0.169990 0.198184 0.127105
0.175426 0.197297 0.129766
0.182141 0.197534 0.129340
0.197360 0.200308 0.126660
0.220683 0.206640 0.127816
0.264698 0.214011 0.133327
0.330489 0.223126 0.146912
0.409102 0.234244 0.159056
0.481945 0.243374 0.173222
0.549092 0.254544 0.183903
0.601809 0.263830 0.194706
0.644572 0.272523 0.199854
0.682386 0.279733 0.204442
0.719553 0.285216 0.210875
0.753853 0.292255 0.217940
0.786723 0.300624 0.225161
0.183125 0.244434 0.138040
0.190227 0.244122 0.138083
0.195779 0.243360 0.138452
0.212139 0.243666 0.137597
0.230423 0.248522 0.136263
0.272620 0.256702 0.134388
0.333640 0.266559 0.142306
0.412087 0.275837 0.160862
0.484503 0.287630 0.175849
0.550841 0.296186 0.183837
0.602217 0.303543 0.194780
0.645843 0.312494 0.200130
0.686505 0.318573 0.204723
0.721518 0.327704 0.213318
0.754603 0.333580 0.218625
0.787938 0.341736 0.224092
0.201543 0.306744 0.149605
0.207383 0.308356 0.153302
0.213400 0.307609 0.151038
0.232696 0.307659 0.153221
0.251469 0.311717 0.151943
0.288701 0.316170 0.147986
0.345973 0.327266 0.145792
0.416089 0.335017 0.155765
0.488162 0.344984 0.169500
0.550768 0.355169 0.183191
0.602252 0.359261 0.191431
0.646525 0.371110 0.198894
0.686302 0.377688 0.206122
0.718857 0.383604 0.211155
0.755603 0.392162 0.218944
0.788376 0.399683 0.224685
0.230431 0.387234 0.166142
0.235510 0.386295 0.167701
0.242728 0.387425 0.167404
0.258567 0.385823 0.165633
0.276632 0.391702 0.163584
0.313575 0.390515 0.163991
0.365404 0.399255 0.157845
0.426311 0.409281 0.151478
0.496119 0.417271 0.157978
0.557828 0.428377 0.174361
0.607839 0.433393 0.186501
0.647968 0.440859 0.197502
0.687855 0.446654 0.203718
0.720905 0.454297 0.210324
0.755230 0.463472 0.217807
0.789545 0.469213 0.223765
0.253138 0.470696 0.180713
0.260866 0.470148 0.182178
0.267921 0.470841 0.182432
0.287749 0.469658 0.184840
0.307013 0.470262 0.184776
0.344115 0.471567 0.185936
0.395371 0.475049 0.182424
0.453234 0.486703 0.170657
0.514138 0.496055 0.160841
0.572025 0.507927 0.166349
0.626191 0.512870 0.177594
0.661563 0.517307 0.186915
0.694650 0.521870 0.194336
0.725473 0.527575 0.203422
0.760477 0.535843 0.212207
0.794240 0.541858 0.222728
0.274676 0.550623 0.193409
0.281150 0.549082 0.197735
0.290020 0.546090 0.197940
0.309332 0.545635 0.197981
0.330014 0.547909 0.197863
0.366063 0.550734 0.199737
0.421311 0.548489 0.199631
0.482723 0.556176 0.194371
0.537780 0.566133 0.177422
0.588618 0.581747 0.169362
0.631719 0.582856 0.166353
0.668153 0.593182 0.174555
0.706695 0.599255 0.183408
0.737411 0.601755 0.191293
0.771221 0.603145 0.198739
0.800437 0.608911 0.206815
0.295471 0.617636 0.207643
0.300670 0.615911 0.209678
0.311917 0.617261 0.213461
0.329633 0.612134 0.210994
0.352367 0.615617 0.211717
0.392801 0.613843 0.212154
0.447334 0.611589 0.211066
0.506693 0.617905 0.208609
0.559724 0.627073 0.203027
0.611718 0.637861 0.190769
0.643384 0.644819 0.181563
0.675403 0.646494 0.175841
0.714679 0.654108 0.179598
0.747571 0.664436 0.182892
0.783438 0.668590 0.191586
0.814549 0.670669 0.203245
0.309216 0.672210 0.216709
0.315167 0.672652 0.219094
0.326780 0.671578 0.220712
0.349461 0.670507 0.222762
0.371048 0.671718 0.223300
0.411480 0.672440 0.220986
0.461204 0.666227 0.218947
0.526101 0.672437 0.223373
0.580382 0.675088 0.217731
0.627497 0.682092 0.203995
0.665876 0.695780 0.199081
0.692969 0.702507 0.188207
0.723788 0.701299 0.181709
0.752402 0.712219 0.182375
0.790650 0.721325 0.187810
0.821891 0.728331 0.195903
0.325264 0.725368 0.226089
0.331785 0.724883 0.227439
0.341666 0.723769 0.229897
0.364922 0.720067 0.231137
0.385259 0.722403 0.235463
0.429258 0.722125 0.233035
0.482938 0.719340 0.232671
0.542196 0.721438 0.232799
0.596050 0.722492 0.230782
0.642491 0.726701 0.220864
0.680837 0.739163 0.214270
0.714401 0.749259 0.205240
0.741601 0.753723 0.198055
0.765593 0.758701 0.191491
0.789074 0.758260 0.187276
0.823224 0.770148 0.194175
0.338900 0.768723 0.234214
0.344576 0.771093 0.238053
0.354282 0.768285 0.239118
0.375624 0.762279 0.239347
0.403005 0.765717 0.243488
0.444887 0.764921 0.242682
0.499612 0.764229 0.242171
0.558740 0.765228 0.242775
0.615936 0.764197 0.243262
0.657204 0.767481 0.236039
0.695367 0.777099 0.228874
0.729491 0.784210 0.219167
0.756413 0.795355 0.210905
0.784998 0.802902 0.201593
0.810279 0.807456 0.201339
0.823784 0.801165 0.191768
0.348508 0.814817 0.241015
0.357498 0.815702 0.245545
0.366674 0.810602 0.245306
0.391538 0.807872 0.249583
0.417810 0.806352 0.252551
0.457939 0.808549 0.252280
0.510789 0.807246 0.252754
0.571430 0.805935 0.250582
0.628184 0.806197 0.252907
0.672687 0.806863 0.249099
0.709418 0.813240 0.243748
0.740778 0.821388 0.234613
0.767366 0.830986 0.228174
0.797936 0.839918 0.226020
0.821312 0.845521 0.214693
0.851943 0.852350 0.206196
0.360764 0.857027 0.249099
0.366504 0.851657 0.250547
0.379935 0.854676 0.254733
0.405078 0.847396 0.255547
0.428910 0.846405 0.258088
0.469931 0.847621 0.261085
0.528455 0.844734 0.260269
0.589144 0.845995 0.261124
0.643062 0.846112 0.258606
0.687287 0.844349 0.258467
0.730103 0.850506 0.258138
0.757779 0.856117 0.248887
0.780822 0.864353 0.244000
0.806168 0.871863 0.233697
0.832758 0.881353 0.229530
0.861687 0.890076 0.226932
0.154063 0.125917 0.134536
0.158933 0.126249 0.135104
0.168468 0.130619 0.136868
0.192156 0.131808 0.141104
0.218186 0.137546 0.144620
0.261559 0.146675 0.153905
0.327566 0.155611 0.163094
0.412435 0.166356 0.175648
0.491954 0.179204 0.188128
0.556417 0.188196 0.195472
0.609503 0.192384 0.203046
0.649827 0.200444 0.209508
0.686471 0.207242 0.217871
0.725916 0.217069 0.227484
0.755421 0.221009 0.232184
0.790818 0.231299 0.240633
0.152676 0.134988 0.134367
0.158968 0.137395 0.136935
0.168692 0.139654 0.138682
0.190139 0.140974 0.142274
0.217416 0.147246 0.147206
0.263401 0.158826 0.158586
0.329639 0.168735 0.165708
0.411840 0.178200 0.180559
0.487839 0.188192 0.187728
0.553435 0.197223 0.195894
0.608351 0.206561 0.208489
0.650967 0.213207 0.214225
0.686149 0.219856 0.220920
0.723898 0.225329 0.228719
0.758942 0.232507 0.235449
0.790832 0.240212 0.240983
0.156865 0.149881 0.135280
0.162664 0.149255 0.137310
0.171198 0.152175 0.140444
0.191545 0.153595 0.143004
0.218760 0.159937 0.150031
0.262645 0.169097 0.158690
0.330757 0.180328 0.169574
0.412090 0.188539 0.181547
0.490690 0.200809 0.192353
0.554389 0.211608 0.199219
0.608918 0.218391 0.210608
0.650212 0.225581 0.218959
0.688649 0.233456 0.224512
0.724824 0.239773 0.231380
0.758250 0.245829 0.236815
0.790199 0.251630 0.244429
0.160416 0.168854 0.140919
0.167321 0.169703 0.142084
0.173834 0.172280 0.140769
0.192367 0.173314 0.142034
0.218636 0.178623 0.149897
0.264417 0.189175 0.158021
0.331151 0.199360 0.169151
0.412859 0.209981 0.182857
0.488696 0.221811 0.192101
0.553790 0.231661 0.202314
0.607900 0.237683 0.210660
0.650104 0.245910 0.218266
0.687938 0.254785 0.225249
0.724913 0.260470 0.232694
0.758784 0.266743 0.238887
0.789614 0.270934 0.245528
0.170372 0.202429 0.147633
0.176733 0.203146 0.150204
0.181869 0.202690 0.148444
0.198322 0.202963 0.146001
0.221900 0.209742 0.149016
0.263740 0.216432 0.156496
0.332716 0.227562 0.170301
0.411200 0.238863 0.181634
0.490219 0.248163 0.194509
0.555567 0.258682 0.204243
0.607267 0.267193 0.213913
0.650799 0.275250 0.219161
0.687354 0.282050 0.225007
0.722171 0.289883 0.230581
0.758722 0.295163 0.239139
0.793532 0.303379 0.243473
0.183092 0.248355 0.152556
0.188508 0.246863 0.155689
0.195346 0.248880 0.157857
0.212667 0.248550 0.157653
0.231998 0.252253 0.156232
0.275854 0.260366 0.157428
0.334057 0.268285 0.165143
0.412826 0.279566 0.180642
0.484680 0.290045 0.194352
0.552168 0.299466 0.206734
0.607740 0.306733 0.216545
0.650618 0.317460 0.220961
0.689407 0.325162 0.224986
0.722258 0.329237 0.231030
0.758765 0.339313 0.239779
0.790355 0.344505 0.242223
0.203103 0.313212 0.167368
0.209999 0.312057 0.168929
0.219171 0.313240 0.172236
0.236743 0.311610 0.171740
0.254517 0.315696 0.169902
0.292593 0.320646 0.171669
0.346568 0.328808 0.167556
0.416671 0.337311 0.176778
0.492809 0.346788 0.191257
0.553707 0.356528 0.202058
0.606623 0.363144 0.211264
0.650112 0.371082 0.218122
0.687951 0.382056 0.225999
0.724275 0.387535 0.231817
0.758597 0.396293 0.237723
0.790962 0.404061 0.247643
0.220534 0.393476 0.177979
0.230144 0.391221 0.181078
0.240711 0.393500 0.185038
0.258587 0.391777 0.184793
0.282474 0.395837 0.184898
0.317855 0.395191 0.187426
0.368113 0.399757 0.179045
0.433373 0.411528 0.174102
