example_ofxGpuLutCube/bin/data/ofxGpuLutCube/LUT/C11 (greenish fade).cube
LUT_3D_SIZE 6
0.142283 0.122243 0.094152
0.181765 0.131989 0.104512
0.325084 0.155899 0.130785
0.547838 0.185299 0.159746
0.683079 0.208810 0.182768
0.784772 0.230408 0.201010
0.156346 0.164020 0.100545
0.188378 0.167194 0.102589
0.320577 0.193504 0.129359
0.547811 0.226588 0.165339
0.676848 0.247226 0.183221
0.779857 0.267755 0.200772
0.199833 0.303712 0.130437
0.229967 0.303198 0.131521
0.341099 0.320479 0.122114
0.549852 0.353176 0.161176
0.681856 0.373384 0.186639
0.785323 0.392774 0.204757
0.277599 0.538428 0.176626
0.306723 0.538041 0.174884
0.419327 0.543273 0.178684
0.584526 0.573868 0.146463
0.704856 0.593657 0.160766
0.799840 0.604568 0.185107
0.330060 0.716878 0.209354
0.364058 0.716326 0.211147
0.482530 0.714481 0.211538
0.640252 0.726543 0.202217
0.743360 0.751268 0.177947
0.819799 0.766470 0.174732
0.370922 0.843496 0.235377
0.404938 0.843228 0.234349
0.523145 0.843136 0.241225
0.684789 0.843171 0.238853
0.780510 0.860338 0.214734
0.861658 0.889456 0.198456
0.154063 0.125917 0.134536
0.192156 0.131808 0.141104
0.327566 0.155611 0.163094
0.556417 0.188196 0.195472
0.686471 0.207242 0.217871
0.790818 0.231299 0.240633
0.160416 0.168854 0.140919
0.192367 0.173314 0.142034
0.331151 0.199360 0.169151
0.553790 0.231661 0.202314
0.687938 0.254785 0.225249
0.789614 0.270934 0.245528
0.203103 0.313212 0.167368
0.236743 0.311610 0.171740
0.346568 0.328808 0.167556
0.553707 0.356528 0.202058
0.687951 0.382056 0.225999
0.790962 0.404061 0.247643
0.265733 0.557579 0.207713
0.307432 0.552209 0.215631
0.424159 0.553779 0.218915
0.586991 0.579687 0.190655
0.704971 0.600540 0.203420
0.804173 0.613421 0.232498
0.314715 0.733213 0.239718
0.360285 0.729396 0.250380
0.485238 0.725153 0.252198
0.646172 0.729800 0.244204
0.742010 0.758538 0.216975
0.822958 0.771676 0.214556
0.349178 0.866333 0.263552
0.396980 0.854650 0.270127
0.527787 0.847885 0.279357
0.691755 0.848407 0.277439
0.784701 0.868610 0.260260
0.860330 0.890132 0.241231
0.172614 0.155533 0.250059
0.203019 0.148121 0.260440
0.351668 0.145787 0.279189
0.571143 0.168027 0.298736
0.710290 0.190603 0.324307
0.812784 0.206345 0.340527
0.183152 0.194354 0.262130
0.214585 0.194754 0.264907
0.352807 0.193528 0.289270
0.575214 0.219142 0.312247
0.712793 0.241659 0.333188
0.813239 0.258515 0.350509
0.175425 0.334065 0.277902
0.212780 0.332890 0.281449
0.362084 0.346402 0.302601
0.575207 0.377820 0.331687
0.713959 0.403482 0.360383
0.814191 0.425708 0.381812
0.209047 0.595576 0.305992
0.253319 0.587702 0.302823
0.432575 0.582084 0.345790
0.604496 0.598080 0.327755
0.724901 0.618596 0.348513
0.818434 0.633239 0.372976
0.243046 0.765520 0.314859
0.287334 0.765298 0.320115
0.491729 0.756186 0.384018
0.662789 0.750412 0.384820
0.756200 0.775442 0.357992
0.842280 0.792770 0.356556
0.263711 0.893732 0.325535
0.313230 0.893861 0.332383
0.530303 0.883905 0.410523
0.702474 0.879326 0.415203
0.796877 0.882804 0.408897
0.874053 0.907371 0.384050
0.235655 0.218907 0.505478
0.262673 0.216070 0.505643
0.366770 0.190085 0.536623
0.586215 0.161707 0.569991
0.730449 0.174016 0.584583
0.837049 0.183190 0.599822
0.242514 0.253226 0.515797
0.271046 0.259424 0.516997
0.379006 0.239950 0.538000
0.590110 0.209885 0.580201
0.735208 0.220348 0.596562
0.844758 0.230753 0.611414
0.243293 0.364306 0.517314
0.280420 0.371003 0.523517
0.412903 0.400480 0.559368
0.608889 0.373332 0.600527
0.748710 0.387313 0.607800
0.856482 0.402442 0.621336
0.198546 0.600415 0.571215
0.237735 0.607148 0.579415
0.395039 0.623665 0.594906
0.630218 0.641853 0.620901
0.759865 0.657029 0.639036
0.860543 0.677345 0.660336
0.212924 0.789459 0.592207
0.252887 0.794531 0.598923
0.413923 0.810046 0.613705
0.670335 0.807932 0.646371
0.788895 0.810719 0.655640
0.872960 0.828021 0.655162
0.224598 0.930022 0.611039
0.264079 0.934432 0.612472
0.428625 0.946993 0.628068
0.707149 0.939441 0.670638
0.828404 0.935212 0.691111
0.908836 0.944034 0.687369
0.284047 0.263763 0.705145
0.309797 0.264043 0.705908
0.413801 0.251386 0.720033
0.602767 0.191471 0.781083
0.735358 0.179141 0.795144
0.836614 0.183839 0.799262
0.291806 0.303783 0.712806
0.324303 0.307262 0.716047
0.427716 0.302490 0.725794
0.605873 0.242410 0.784868
0.737917 0.225149 0.800658
0.844042 0.234146 0.808359
0.293783 0.414634 0.714077
0.331334 0.424471 0.723235
0.464790 0.458338 0.752704
0.621628 0.425189 0.792655
0.753599 0.393751 0.816091
0.859010 0.402315 0.825331
0.262397 0.600752 0.741586
0.305278 0.606262 0.745950
0.465374 0.640955 0.767767
0.672293 0.681524 0.805754
0.776148 0.670108 0.829942
0.882428 0.668263 0.847358
0.220269 0.785916 0.789890
0.258387 0.788148 0.793636
0.418134 0.808819 0.813873
0.650331 0.827502 0.829436
0.789741 0.842101 0.847410
0.889278 0.854026 0.860706
0.224454 0.929833 0.812655
0.263450 0.934244 0.815832
0.430420 0.950680 0.831261
0.656066 0.967425 0.850327
0.803526 0.975901 0.860115
0.921917 0.973321 0.882543
0.315458 0.294714 0.829635
0.342771 0.295462 0.824963
0.450159 0.288253 0.834935
0.611969 0.226519 0.887528
0.746947 0.194141 0.927001
0.846116 0.191667 0.926601
0.323814 0.334157 0.833596
0.354492 0.338884 0.838554
0.460491 0.338006 0.840915
0.618778 0.278905 0.891807
0.748679 0.247540 0.927110
0.853075 0.242721 0.938033
0.324078 0.445026 0.830251
0.359830 0.453978 0.841732
0.494541 0.491723 0.876023
0.647937 0.464797 0.896831
0.760612 0.428705 0.935193
0.865752 0.409434 0.950843
0.308692 0.619932 0.842965
0.350020 0.627110 0.844411
0.503440 0.667674 0.879641
0.705402 0.713449 0.924256
0.801413 0.705913 0.940393
0.886497 0.678441 0.965094
0.263312 0.775202 0.887003
0.304118 0.780071 0.895094
0.464559 0.804223 0.911724
0.696014 0.834369 0.928994
0.822761 0.865167 0.956285
0.909841 0.874513 0.975687
0.229699 0.925617 0.926413
0.267413 0.928674 0.929801
0.427262 0.945151 0.945235
0.663485 0.963441 0.962900
0.802965 0.980264 0.981659
0.905976 0.990316 0.993876
