example_ofxGpuLutCube/bin/data/ofxGpuLutCube/LUT/C12 (greenish clear warm).cube
LUT_3D_SIZE 6
0.012848 0.012593 0.011588
0.320918 0.001807 0.000000
0.448702 0.000000 0.000000
0.517315 0.000000 0.000000
0.570380 0.000000 0.000000
0.649622 0.168830 0.000000
0.076012 0.147046 0.031719
0.204171 0.176224 0.000000
0.428174 0.163370 0.000000
0.567957 0.161298 0.000000
0.655472 0.175318 0.000000
0.717134 0.226668 0.000000
0.171670 0.273598 0.119137
0.198600 0.304417 0.121068
0.432711 0.334082 0.000000
0.604479 0.332304 0.000000
0.712083 0.331946 0.000000
0.768333 0.347914 0.000000
0.287752 0.399825 0.265723
0.299110 0.428701 0.254185
0.482126 0.525829 0.128043
0.649117 0.513535 0.000000
0.777998 0.510312 0.000000
0.819024 0.487264 0.000000
0.373633 0.507138 0.381964
0.388745 0.550008 0.369446
0.507219 0.652383 0.370536
0.713560 0.670872 0.000000
0.824429 0.651047 0.000000
0.875041 0.638217 0.000000
0.468207 0.627152 0.517276
0.466758 0.655092 0.487691
0.506236 0.694881 0.483178
0.600091 0.755490 0.424073
0.792730 0.743696 0.000000
0.914672 0.717819 0.000000
0.047527 0.064106 0.168163
0.359680 0.093588 0.236329
0.493399 0.075171 0.214416
0.555520 0.006289 0.183684
0.591963 0.000000 0.170240
0.650350 0.202125 0.205345
0.134180 0.207872 0.155372
0.216332 0.234894 0.171082
0.437099 0.248154 0.151382
0.581260 0.249506 0.118950
0.656690 0.236343 0.081561
0.702860 0.271722 0.087363
0.258605 0.336391 0.270596
0.230663 0.318754 0.211045
0.438961 0.360295 0.114610
0.615695 0.335929 0.102069
0.726932 0.307193 0.000000
0.755058 0.314257 0.000000
0.358299 0.456726 0.388940
0.335190 0.452943 0.334275
0.413467 0.521343 0.307975
0.642148 0.503776 0.000000
0.791090 0.467854 0.000000
0.819228 0.431356 0.000000
0.425373 0.552355 0.470606
0.413553 0.569876 0.428055
0.468986 0.640857 0.431823
0.727253 0.724680 0.030090
0.854334 0.667851 0.000000
0.902692 0.643940 0.000000
0.496993 0.648407 0.569110
0.482271 0.658781 0.527109
0.496106 0.690960 0.493338
0.572071 0.745494 0.472405
0.809399 0.805113 0.189167
0.924383 0.732814 0.000000
0.076700 0.127303 0.298883
0.354681 0.119672 0.381716
0.502973 0.137716 0.393069
0.580779 0.143132 0.382712
0.624420 0.135873 0.376192
0.668961 0.222626 0.374980
0.177323 0.265397 0.295262
0.157047 0.227138 0.331985
0.452721 0.269172 0.399036
0.588338 0.264908 0.359835
0.659662 0.249891 0.313408
0.689940 0.304056 0.262847
0.270426 0.348681 0.340710
0.260810 0.339303 0.331871
0.405736 0.415755 0.407286
0.579439 0.416163 0.377635
0.717601 0.415193 0.352298
0.746143 0.379030 0.266701
0.385413 0.479128 0.454297
0.394486 0.493946 0.451785
0.414804 0.517696 0.443341
0.629976 0.566128 0.375758
0.802809 0.520470 0.351592
0.819907 0.447588 0.253022
0.458475 0.582178 0.531207
0.458474 0.597458 0.515835
0.470981 0.640389 0.507303
0.627049 0.745152 0.479422
0.858701 0.702105 0.274400
0.915048 0.652444 0.267454
0.521312 0.669736 0.609923
0.504043 0.667890 0.570273
0.508530 0.695047 0.554138
0.565696 0.741835 0.535244
0.780034 0.819174 0.375146
0.937930 0.756722 0.212967
0.095933 0.157377 0.371607
0.361005 0.134092 0.460839
0.504051 0.156456 0.496378
0.585271 0.165917 0.496709
0.636407 0.176314 0.499862
0.686343 0.250063 0.509955
0.210723 0.304151 0.391077
0.149992 0.236869 0.439488
0.404023 0.262092 0.518531
0.594503 0.277136 0.536365
0.683014 0.281567 0.507216
0.708240 0.321971 0.439388
0.286296 0.375253 0.425104
0.270606 0.365338 0.452535
0.344050 0.396953 0.536392
0.603310 0.437767 0.592111
0.722891 0.423233 0.530399
0.732167 0.401055 0.411326
0.372515 0.463746 0.481776
0.402451 0.500350 0.518749
0.407489 0.504877 0.517433
0.598028 0.622076 0.610594
0.775878 0.609645 0.575847
0.804343 0.523101 0.462748
0.486971 0.611423 0.592663
0.506564 0.641341 0.607357
0.514107 0.660019 0.602230
0.610400 0.743234 0.642349
0.849347 0.771407 0.552373
0.926244 0.697906 0.506913
0.542430 0.690270 0.648993
0.534129 0.689872 0.623734
0.525243 0.695869 0.598180
0.575687 0.750848 0.596507
0.741327 0.836034 0.521815
0.946221 0.786787 0.373231
0.099010 0.146528 0.425072
0.402957 0.151187 0.525094
0.514276 0.172646 0.563324
0.593962 0.183121 0.583639
0.641905 0.189435 0.590672
0.695653 0.256844 0.628632
0.243214 0.341928 0.475508
0.164469 0.241682 0.524468
0.379680 0.257572 0.594866
0.562346 0.272612 0.633902
0.684029 0.279143 0.637638
0.736727 0.362482 0.641461
0.302562 0.402410 0.508393
0.277854 0.381471 0.536390
0.299961 0.369596 0.613897
0.536065 0.404827 0.676977
0.725526 0.414833 0.687383
0.771005 0.448800 0.646415
0.374929 0.478303 0.552356
0.389064 0.497887 0.583134
0.377400 0.491596 0.606532
0.532656 0.581868 0.713841
0.780409 0.603827 0.742041
0.812558 0.563281 0.661258
0.470897 0.588996 0.618548
0.499898 0.626316 0.649354
0.519283 0.651641 0.666869
0.597118 0.721199 0.708764
0.823105 0.852911 0.786280
0.917974 0.786164 0.721120
0.544107 0.685899 0.676855
0.574689 0.728460 0.700892
0.577080 0.734905 0.691605
0.581441 0.749880 0.679840
0.700199 0.837919 0.684838
0.960176 0.840604 0.559503
0.168748 0.263159 0.462518
0.432873 0.162751 0.564318
0.544262 0.183369 0.599612
0.613689 0.194453 0.624548
0.663692 0.203402 0.647186
0.719788 0.314849 0.700682
0.275703 0.377486 0.516069
0.176481 0.253817 0.564310
0.411382 0.268372 0.633491
0.562566 0.275092 0.664853
0.690870 0.310746 0.698249
0.753910 0.401992 0.733070
0.330880 0.436208 0.553981
0.281681 0.387229 0.556766
0.289347 0.341193 0.636281
0.504735 0.362280 0.688853
0.704582 0.404669 0.731886
0.784925 0.475292 0.758775
0.392305 0.503812 0.596447
0.368133 0.479854 0.597047
0.320780 0.433025 0.609899
0.443815 0.473502 0.711798
0.716306 0.523026 0.768160
0.831075 0.582242 0.794645
0.466488 0.589335 0.647631
0.464025 0.587359 0.651897
0.466136 0.592397 0.663957
0.480087 0.616790 0.701110
0.739811 0.767571 0.829904
0.913911 0.795733 0.856730
0.530961 0.669176 0.700208
0.543646 0.685123 0.711055
0.552358 0.696364 0.719572
0.567187 0.715572 0.732856
0.613476 0.773334 0.770455
0.985079 0.982004 0.898958
