example_ofxGpuLutCube/bin/data/ofxGpuLutCube/LUT/C12 (greenish clear warm).cube
LUT_3D_SIZE 16
0.012848 0.012593 0.011588
0.126014 0.016349 0.004825
0.240213 0.009510 0.000000
0.320918 0.001807 0.000000
0.377216 0.000000 0.000000
0.418636 0.000000 0.000000
0.448702 0.000000 0.000000
0.472439 0.000000 0.000000
0.496574 0.000000 0.000000
0.517315 0.000000 0.000000
0.535534 0.000000 0.000000
0.552948 0.000000 0.000000
0.570380 0.000000 0.000000
0.595690 0.008184 0.000000
0.620208 0.089690 0.000000
0.649622 0.168830 0.000000
0.034170 0.057713 0.007483
0.069887 0.067666 0.003838
0.165983 0.060940 0.000000
0.260825 0.051444 0.000000
0.333639 0.042865 0.000000
0.391055 0.038149 0.000000
0.435481 0.034567 0.000000
0.471583 0.034329 0.000000
0.507372 0.034076 0.000000
0.538786 0.034808 0.000000
0.564784 0.041299 0.000000
0.587976 0.052327 0.000000
0.610111 0.072334 0.000000
0.635228 0.098440 0.000000
0.655278 0.124805 0.000000
0.676069 0.169859 0.000000
0.053817 0.102602 0.019863
0.058675 0.112816 0.021148
0.126910 0.116772 0.000000
0.228093 0.111377 0.000000
0.311246 0.105084 0.000000
0.377977 0.101143 0.000000
0.430755 0.099960 0.000000
0.472855 0.100285 0.000000
0.516654 0.102188 0.000000
0.554225 0.106581 0.000000
0.585222 0.111487 0.000000
0.611269 0.118328 0.000000
0.633527 0.129004 0.000000
0.657082 0.146521 0.000000
0.678700 0.165339 0.000000
0.696659 0.187882 0.000000
0.076012 0.147046 0.031719
0.077850 0.151231 0.031450
0.103374 0.176532 0.022590
0.204171 0.176224 0.000000
0.297274 0.172685 0.000000
0.370225 0.166493 0.000000
0.428174 0.163370 0.000000
0.475300 0.161001 0.000000
0.524455 0.159643 0.000000
0.567957 0.161298 0.000000
0.603973 0.164737 0.000000
0.632074 0.167635 0.000000
0.655472 0.175318 0.000000
0.677390 0.190388 0.000000
0.699530 0.207424 0.000000
0.717134 0.226668 0.000000
0.105468 0.193325 0.053591
0.102822 0.192208 0.047622
0.116117 0.210322 0.053856
0.203451 0.244858 0.004583
0.287101 0.230899 0.000000
0.366660 0.229238 0.000000
0.428051 0.223330 0.000000
0.479379 0.220785 0.000000
0.532896 0.219863 0.000000
0.581655 0.221163 0.000000
0.620548 0.220802 0.000000
0.651838 0.224400 0.000000
0.675684 0.227770 0.000000
0.697292 0.236356 0.000000
0.717543 0.250572 0.000000
0.735990 0.265174 0.000000
0.138537 0.235926 0.084161
0.132248 0.232593 0.072048
0.142830 0.246725 0.077419
0.181137 0.274947 0.073080
0.300969 0.293882 0.000000
0.364825 0.282556 0.000000
0.429532 0.282541 0.000000
0.483891 0.279251 0.000000
0.540852 0.276146 0.000000
0.593089 0.278476 0.000000
0.635607 0.277892 0.000000
0.669774 0.277904 0.000000
0.694857 0.279976 0.000000
0.714524 0.285095 0.000000
0.734060 0.296935 0.000000
0.753805 0.308611 0.000000
0.171670 0.273598 0.119137
0.163181 0.269353 0.101710
0.172694 0.281631 0.106642
0.198600 0.304417 0.121068
0.291718 0.340142 0.045075
0.367680 0.328705 0.000000
0.432711 0.334082 0.000000
0.489076 0.335352 0.000000
0.549422 0.332433 0.000000
0.604479 0.332304 0.000000
0.649965 0.330881 0.000000
0.686914 0.329555 0.000000
0.712083 0.331946 0.000000
0.731735 0.333832 0.000000
0.749020 0.341257 0.000000
0.768333 0.347914 0.000000
0.205813 0.309667 0.158949
0.197258 0.306689 0.139054
0.204408 0.316719 0.141295
0.223563 0.337686 0.153655
0.277760 0.373343 0.148010
0.394961 0.404112 0.001807
0.436095 0.378610 0.000000
0.496921 0.385589 0.000000
0.558519 0.387513 0.000000
0.615377 0.387377 0.000000
0.664069 0.384451 0.000000
0.704564 0.382292 0.000000
0.730829 0.382553 0.000000
0.750306 0.382340 0.000000
0.764822 0.384338 0.000000
0.783478 0.386473 0.000000
0.246431 0.353008 0.210243
0.238437 0.351013 0.189524
0.243575 0.360885 0.186793
0.260955 0.381972 0.204118
0.297250 0.413246 0.222218
0.383377 0.453397 0.145497
0.480914 0.471615 0.000000
0.506639 0.441185 0.000000
0.571444 0.448564 0.000000
0.630784 0.451278 0.000000
0.682817 0.452363 0.000000
0.726160 0.448946 0.000000
0.754757 0.446450 0.000000
0.774001 0.442889 0.000000
0.786254 0.440115 0.000000
0.800349 0.433933 0.000000
0.287752 0.399825 0.265723
0.278504 0.397269 0.242701
0.284654 0.410241 0.238582
0.299110 0.428701 0.254185
0.326877 0.458186 0.272659
0.384911 0.497408 0.255685
0.482126 0.525829 0.128043
0.553786 0.532097 0.000000
0.586340 0.505934 0.000000
0.649117 0.513535 0.000000
0.703240 0.515641 0.000000
0.748595 0.514845 0.000000
0.777998 0.510312 0.000000
0.797581 0.505759 0.000000
0.808424 0.499886 0.000000
0.819024 0.487264 0.000000
0.320010 0.439077 0.309182
0.316738 0.442914 0.295777
0.319668 0.454334 0.285026
0.335329 0.475863 0.299973
0.358852 0.504504 0.315896
0.408526 0.543444 0.319959
0.488789 0.583289 0.255971
0.578089 0.599801 0.097879
0.620463 0.576444 0.000000
0.668405 0.571364 0.000000
0.723548 0.575181 0.000000
0.767795 0.572841 0.000000
0.799186 0.569236 0.000000
0.820594 0.562550 0.000000
0.832127 0.559275 0.000000
0.839690 0.542445 0.000000
0.350512 0.477066 0.350603
0.350430 0.484869 0.342236
0.351390 0.495820 0.328416
0.365205 0.517055 0.339151
0.389058 0.548106 0.354869
0.434504 0.585437 0.366779
0.498569 0.623881 0.325844
0.585176 0.647859 0.203232
0.670576 0.661490 0.002448
0.684628 0.617000 0.000000
0.738118 0.621397 0.000000
0.783316 0.620488 0.000000
0.814650 0.615882 0.000000
0.838026 0.609021 0.000000
0.851818 0.605354 0.000000
0.859248 0.597859 0.000000
0.373633 0.507138 0.381964
0.374840 0.517338 0.375540
0.376536 0.530113 0.362327
0.388745 0.550008 0.369446
0.410426 0.579827 0.382729
0.453496 0.615839 0.399822
0.507219 0.652383 0.370536
0.589649 0.685598 0.292250
0.680881 0.701552 0.123446
0.713560 0.670872 0.000000
0.746137 0.655124 0.000000
0.791143 0.655150 0.000000
0.824429 0.651047 0.000000
0.850216 0.645340 0.000000
0.865308 0.642189 0.000000
0.875041 0.638217 0.000000
0.393731 0.533545 0.409382
0.395740 0.544876 0.404153
0.395631 0.556926 0.388015
0.406603 0.576103 0.392585
0.424989 0.602534 0.402309
0.462484 0.633966 0.423931
0.504185 0.667576 0.406000
0.568323 0.700909 0.361309
0.659246 0.721020 0.227300
0.739345 0.728336 0.006005
0.745206 0.682145 0.000000
0.791127 0.681456 0.000000
0.828092 0.679500 0.000000
0.857474 0.675050 0.000000
0.875058 0.671911 0.000000
0.888798 0.669382 0.000000
0.411881 0.556744 0.435403
0.410931 0.566343 0.424803
0.410033 0.577357 0.407284
0.419508 0.594591 0.409637
0.434137 0.617210 0.416417
0.463148 0.642427 0.436156
0.494527 0.670084 0.434363
0.536852 0.698668 0.410737
0.617820 0.732429 0.341698
0.707625 0.745960 0.189600
0.759619 0.732537 0.000000
0.776315 0.697457 0.000000
0.822753 0.699793 0.000000
0.858510 0.697020 0.000000
0.880985 0.693359 0.000000
0.897854 0.689964 0.000000
0.468207 0.627152 0.517276
0.462786 0.632661 0.500094
0.462485 0.642289 0.490773
0.466758 0.655092 0.487691
0.476853 0.669861 0.480754
0.485946 0.681434 0.473149
0.506236 0.694881 0.483178
0.523170 0.709488 0.479809
0.550068 0.729768 0.462534
0.600091 0.755490 0.424073
0.679577 0.775990 0.337597
0.771015 0.785566 0.153478
0.792730 0.743696 0.000000
0.831609 0.724854 0.000000
0.878689 0.725103 0.000000
0.914672 0.717819 0.000000
0.029325 0.036428 0.055195
0.136827 0.048828 0.063051
0.253385 0.034247 0.046678
0.336220 0.001834 0.027459
0.392030 0.000000 0.008647
0.432980 0.000000 0.002199
0.461890 0.000000 0.000000
0.484506 0.000000 0.000000
0.506914 0.000000 0.000000
0.526943 0.000000 0.000000
0.543246 0.000000 0.000000
0.557819 0.000000 0.000000
0.571599 0.000000 0.000000
0.591957 0.011529 0.000000
0.615700 0.113174 0.001279
0.648922 0.202583 0.064003
0.042258 0.069050 0.034502
0.069271 0.088976 0.038847
0.179195 0.102522 0.030316
0.270508 0.103369 0.015689
0.345814 0.098577 0.001317
0.402898 0.089421 0.000000
0.445127 0.077843 0.000000
0.477519 0.061723 0.000000
0.509317 0.033164 0.000000
0.535874 0.015314 0.000000
0.558720 0.014983 0.000000
0.581473 0.032842 0.000000
0.604683 0.079764 0.000000
0.631016 0.131708 0.000000
0.650746 0.169058 0.000000
0.670696 0.208312 0.000000
0.071840 0.121219 0.044811
0.071343 0.123414 0.040138
0.142276 0.140202 0.021830
0.250215 0.137381 0.012888
0.331135 0.134485 0.001331
0.394354 0.126332 0.000000
0.443407 0.119027 0.000000
0.484201 0.114184 0.000000
0.526547 0.110284 0.000000
0.561784 0.106564 0.000000
0.589352 0.100403 0.000000
0.612522 0.096177 0.000000
0.633480 0.116458 0.000000
0.656692 0.146417 0.000000
0.676214 0.177477 0.000000
0.690702 0.213428 0.000000
0.101090 0.169856 0.065869
0.092047 0.163069 0.052395
0.111329 0.185428 0.048299
0.225795 0.191616 0.001603
0.319506 0.180927 0.000000
0.387379 0.174952 0.000000
0.442863 0.165418 0.000000
0.488533 0.158414 0.000000
0.535625 0.153303 0.000000
0.577627 0.146935 0.000000
0.611941 0.144284 0.000000
0.638577 0.142506 0.000000
0.660069 0.148661 0.000000
0.680705 0.173410 0.000000
0.699462 0.195176 0.000000
0.709024 0.221057 0.000000
0.134744 0.216869 0.096351
0.119422 0.205229 0.073342
0.125987 0.219041 0.070807
0.206473 0.251964 0.016793
0.303603 0.239017 0.000000
0.382245 0.229564 0.000000
0.440808 0.222203 0.000000
0.490677 0.215733 0.000000
0.543814 0.207277 0.000000
0.591689 0.200342 0.000000
0.630356 0.195366 0.000000
0.660541 0.192079 0.000000
0.682298 0.197344 0.000000
0.703287 0.210587 0.000000
0.720954 0.233570 0.000000
0.727269 0.243924 0.000000
0.169985 0.258558 0.132552
0.151714 0.246519 0.103374
0.153002 0.254104 0.097704
0.184106 0.278862 0.092496
0.306809 0.300889 0.000000
0.375494 0.285319 0.000000
0.439612 0.276934 0.000000
0.492162 0.267224 0.000000
0.549045 0.260975 0.000000
0.601102 0.255442 0.000000
0.644662 0.250038 0.000000
0.678880 0.245124 0.000000
0.702716 0.244678 0.000000
0.723303 0.256136 0.000000
0.741658 0.270213 0.000000
0.745722 0.274196 0.000000
0.205372 0.296936 0.172562
0.186928 0.285900 0.141348
0.184518 0.290235 0.129752
0.202701 0.310007 0.129737
0.288307 0.345560 0.065189
0.370683 0.331493 0.000000
0.440061 0.331844 0.000000
0.495609 0.325557 0.000000
0.555095 0.314633 0.000000
0.610370 0.307534 0.000000
0.658186 0.304406 0.000000
0.696155 0.299933 0.000000
0.721909 0.297016 0.000000
0.742875 0.303897 0.000000
0.760682 0.317704 0.000000
0.762958 0.313666 0.000000
0.241989 0.336042 0.218241
0.222696 0.324442 0.183075
0.217343 0.326673 0.165553
0.228698 0.343465 0.162666
0.272934 0.374741 0.164414
0.389984 0.404566 0.010373
0.437254 0.376393 0.000000
0.500166 0.379134 0.000000
0.562746 0.372602 0.000000
0.620470 0.364644 0.000000
0.671001 0.356880 0.000000
0.713070 0.352430 0.000000
0.740756 0.350358 0.000000
0.761395 0.353607 0.000000
0.778448 0.363796 0.000000
0.781178 0.350646 0.000000
0.280405 0.379989 0.267666
0.264215 0.370740 0.236682
0.256405 0.371346 0.213527
0.265167 0.386527 0.211713
0.295204 0.413459 0.227352
0.371590 0.452485 0.169363
0.475370 0.470551 0.000000
0.505320 0.436466 0.000000
0.574108 0.439558 0.000000
0.634558 0.433863 0.000000
0.688137 0.427000 0.000000
0.734233 0.421273 0.000000
0.764414 0.417209 0.000000
0.785446 0.417186 0.000000
0.801501 0.421190 0.000000
0.802930 0.404554 0.000000
0.320107 0.427620 0.320399
0.304364 0.418730 0.289397
0.297064 0.421027 0.265480
0.303300 0.434207 0.260797
0.323062 0.457937 0.272372
0.371304 0.492332 0.270676
0.467030 0.523818 0.149670
0.550545 0.532492 0.000000
0.585460 0.500589 0.000000
0.652773 0.504327 0.000000
0.709174 0.501570 0.000000
0.756490 0.495997 0.000000
0.788908 0.490834 0.000000
0.811294 0.487700 0.000000
0.826301 0.487379 0.000000
0.828133 0.464628 0.000000
0.349578 0.465376 0.358804
0.339033 0.461527 0.335535
0.332416 0.465770 0.312116
0.337322 0.478318 0.304428
0.354664 0.502866 0.315101
0.397522 0.537175 0.331834
0.464872 0.576106 0.284439
0.561316 0.597995 0.138341
0.618281 0.577759 0.000000
0.669808 0.566827 0.000000
0.730430 0.571093 0.000000
0.778641 0.566473 0.000000
0.812853 0.561895 0.000000
0.836622 0.556459 0.000000
0.850589 0.553547 0.000000
0.853435 0.530906 0.000000
0.375159 0.499817 0.391661
0.368373 0.500573 0.374566
0.364284 0.507535 0.355534
0.367423 0.519687 0.343958
0.384795 0.544882 0.354939
0.423418 0.578346 0.377697
0.474968 0.615892 0.352832
0.565620 0.651871 0.261963
0.667676 0.669619 0.031388
0.683789 0.618074 0.000000
0.743527 0.622427 0.000000
0.795823 0.623364 0.000000
0.829842 0.617959 0.000000
0.855313 0.611688 0.000000
0.870342 0.609355 0.000000
0.876882 0.596679 0.000000
0.394031 0.526189 0.416171
0.390834 0.530789 0.404424
0.387954 0.539527 0.387762
0.391247 0.552939 0.376381
0.407323 0.577341 0.384474
0.442205 0.609420 0.407870
0.484078 0.644556 0.395244
0.558214 0.682712 0.342123
0.661946 0.704096 0.180947
0.718548 0.683716 0.000000
0.750393 0.659281 0.000000
0.802797 0.660518 0.000000
0.840921 0.657994 0.000000
0.867509 0.652667 0.000000
0.883324 0.649252 0.000000
0.891253 0.644454 0.000000
0.410530 0.548751 0.437817
0.407818 0.554798 0.426732
0.404092 0.563462 0.407894
0.408838 0.577942 0.399591
0.423020 0.600650 0.405437
0.452610 0.629554 0.425645
0.488251 0.661036 0.427350
0.539319 0.694255 0.397529
0.637280 0.727575 0.296894
0.738726 0.742398 0.059286
0.750792 0.692344 0.000000
0.799923 0.686695 0.000000
0.842545 0.686503 0.000000
0.874421 0.682292 0.000000
0.890351 0.678923 0.000000
0.901218 0.677126 0.000000
0.425891 0.568860 0.459796
0.421741 0.574492 0.445616
0.416226 0.581397 0.422685
0.420713 0.595937 0.413599
0.434038 0.616894 0.419450
0.457557 0.641120 0.434668
0.488110 0.667624 0.444968
0.522048 0.694872 0.429119
0.592050 0.730322 0.380154
0.687552 0.750163 0.244768
0.767604 0.753679 0.000000
0.779473 0.703484 0.000000
0.833561 0.706042 0.000000
0.873412 0.703204 0.000000
0.894432 0.699654 0.000000
0.908159 0.696521 0.000000
0.477939 0.633922 0.534722
0.470758 0.637680 0.515568
0.468077 0.644602 0.503383
0.468830 0.654710 0.495966
0.477114 0.667505 0.491441
0.480615 0.677127 0.472990
0.500461 0.690290 0.479406
0.518121 0.704671 0.480799
0.543597 0.725534 0.466843
0.587216 0.751366 0.443661
0.661795 0.780371 0.385200
0.750167 0.790031 0.232206
0.799950 0.767531 0.000000
0.827177 0.731967 0.000000
0.879702 0.731862 0.000000
0.918595 0.722736 0.000000
0.039729 0.051925 0.113504
0.133842 0.061141 0.139365
0.266727 0.071788 0.148659
0.355266 0.070774 0.144143
0.411129 0.045064 0.130147
0.451229 0.015378 0.116669
0.477495 0.000000 0.099125
0.498520 0.000000 0.082274
0.520467 0.000000 0.070012
0.539211 0.000000 0.058342
0.554859 0.000000 0.049085
0.568810 0.000000 0.048993
0.582617 0.000000 0.056511
0.598823 0.000123 0.079787
0.621884 0.116594 0.104931
0.645784 0.194508 0.116444
0.053296 0.093783 0.088952
0.062856 0.092204 0.095255
0.189606 0.117708 0.113668
0.287148 0.118919 0.097254
0.357138 0.106227 0.073439
0.410480 0.088352 0.055447
0.450406 0.067479 0.037714
0.480917 0.041234 0.022223
0.509511 0.011083 0.006633
0.533924 0.006213 0.000166
0.554551 0.006083 0.000000
0.575557 0.010027 0.000000
0.598527 0.068461 0.000000
0.625886 0.145646 0.008269
0.648303 0.199168 0.062030
0.668638 0.237243 0.089229
0.081206 0.137595 0.084895
0.074978 0.127492 0.073923
0.137161 0.162921 0.094743
0.254724 0.175915 0.089387
0.328615 0.176229 0.069976
0.394814 0.180170 0.062901
0.445248 0.177311 0.050469
0.486979 0.174454 0.036030
0.528541 0.171435 0.017145
0.563505 0.166952 0.006582
0.591031 0.162616 0.000573
0.611761 0.160065 0.000000
0.630071 0.168931 0.000000
0.652574 0.197433 0.001387
0.671525 0.221762 0.008025
0.686775 0.241326 0.014200
0.115168 0.181697 0.099890
0.109479 0.175031 0.087171
0.129476 0.194911 0.093942
0.231826 0.216803 0.074314
0.325028 0.217596 0.077555
0.393542 0.217015 0.065653
0.448054 0.214083 0.048026
0.493908 0.210939 0.027039
0.539932 0.208260 0.008976
0.582118 0.203841 0.000005
0.615423 0.198553 0.000000
0.640461 0.193653 0.000000
0.658696 0.194151 0.000000
0.679055 0.213333 0.000000
0.696598 0.236158 0.000000
0.705736 0.248733 0.000000
0.163678 0.240143 0.145598
0.146068 0.223512 0.117330
0.144589 0.226819 0.109574
0.192885 0.256330 0.106161
0.310899 0.258333 0.048401
0.390257 0.249325 0.037628
0.447910 0.248552 0.041386
0.497485 0.244268 0.017801
0.548764 0.239124 0.002587
0.596163 0.232358 0.000000
0.633651 0.225564 0.000000
0.663028 0.217321 0.000000
0.682637 0.208383 0.000000
0.702310 0.227648 0.000000
0.719462 0.249415 0.000000
0.723385 0.258353 0.000000
0.200781 0.280487 0.184548
0.181441 0.265221 0.152932
0.173288 0.262809 0.135990
0.195308 0.284065 0.135337
0.296327 0.315448 0.064753
0.379678 0.300230 0.013077
0.444804 0.288544 0.001521
0.496737 0.285084 0.005858
0.552544 0.278099 0.000000
0.605325 0.267869 0.000000
0.648059 0.256877 0.000000
0.682479 0.245742 0.000000
0.704235 0.244011 0.000000
0.723928 0.252710 0.000000
0.741155 0.276765 0.000000
0.740539 0.278337 0.000000
0.235648 0.318097 0.225105
0.218162 0.305141 0.194475
0.206302 0.300253 0.170957
0.215576 0.315575 0.169420
0.268195 0.346098 0.153869
0.378500 0.354157 0.004003
0.441018 0.341935 0.000000
0.497201 0.330558 0.000000
0.555905 0.321814 0.000000
0.611210 0.313849 0.000000
0.658868 0.301719 0.000000
0.698394 0.291135 0.000000
0.723445 0.284227 0.000000
0.743782 0.290222 0.000000
0.761402 0.311420 0.000000
0.756997 0.299784 0.000000
0.269824 0.356569 0.267571
0.253666 0.344613 0.237988
0.240056 0.338762 0.210445
0.240773 0.348383 0.202153
0.272114 0.374262 0.201002
0.367711 0.407387 0.104863
0.435692 0.387455 0.000000
0.497860 0.383080 0.000000
0.560749 0.369402 0.000000
0.618998 0.358081 0.000000
0.670961 0.349297 0.000000
0.714591 0.338446 0.000000
0.742569 0.332712 0.000000
0.763427 0.337265 0.000000
0.781556 0.354731 0.000000
0.774324 0.334047 0.000000
0.306330 0.399663 0.312861
0.293864 0.392016 0.289420
0.280333 0.386435 0.261184
0.277624 0.393624 0.246015
0.295892 0.416555 0.241420
0.349085 0.449333 0.225100
0.458982 0.472061 0.052596
0.498462 0.439410 0.000000
0.568825 0.436559 0.000000
0.630720 0.424660 0.000000
0.686404 0.413650 0.000000
0.734433 0.405460 0.000000
0.765705 0.398604 0.000000
0.788669 0.399227 0.000000
0.806033 0.411990 0.000000
0.797040 0.383016 0.000000
0.340292 0.442281 0.356410
0.332732 0.440098 0.339656
0.320308 0.437007 0.311849
0.315579 0.442912 0.291853
0.327304 0.462014 0.285909
0.364284 0.490634 0.293400
0.443986 0.527045 0.217279
0.542554 0.541040 0.008838
0.576235 0.498169 0.000000
0.648171 0.499012 0.000000
0.706846 0.490957 0.000000
0.756292 0.480187 0.000000
0.791241 0.474389 0.000000
0.815649 0.471677 0.000000
0.833103 0.478374 0.000000
0.824858 0.440914 0.000000
0.368830 0.480290 0.392502
0.363454 0.481131 0.378589
0.353835 0.481204 0.355003
0.348111 0.487620 0.330802
0.359000 0.506692 0.327690
0.392241 0.535486 0.343386
0.442894 0.570983 0.315282
0.538568 0.597727 0.181151
0.619282 0.591462 0.000000
0.662513 0.564118 0.000000
0.727885 0.566392 0.000000
0.780013 0.559046 0.000000
0.817351 0.551437 0.000000
0.843027 0.546489 0.000000
0.859439 0.547341 0.000000
0.853908 0.512924 0.000000
0.393563 0.515330 0.423522
0.388776 0.517430 0.410606
0.382346 0.521345 0.391262
0.377320 0.529292 0.366870
0.388713 0.549277 0.366097
0.417258 0.577925 0.381889
0.459450 0.612684 0.374135
0.538935 0.650810 0.310975
0.651558 0.671360 0.101099
0.680911 0.624910 0.000000
0.741440 0.623687 0.000000
0.799603 0.624690 0.000000
0.837395 0.618295 0.000000
0.866397 0.611862 0.000000
0.882016 0.611457 0.000000
0.882477 0.588915 0.000000
0.410816 0.540252 0.445270
0.407289 0.544011 0.433741
0.403528 0.551388 0.418622
0.400059 0.561532 0.396704
0.411669 0.581823 0.397150
0.435402 0.608828 0.407917
0.474381 0.641984 0.414573
0.534407 0.679205 0.375817
0.641173 0.706904 0.232578
0.723350 0.701195 0.000000
0.747388 0.663379 0.000000
0.806608 0.665412 0.000000
0.849895 0.662962 0.000000
0.880299 0.658445 0.000000
0.896589 0.655004 0.000000
0.899927 0.645062 0.000000
0.425381 0.561497 0.463825
0.420407 0.564544 0.449985
0.417950 0.574192 0.435948
0.414702 0.583934 0.413735
0.426766 0.604568 0.416117
0.446973 0.629577 0.424907
0.481713 0.658922 0.439400
0.525071 0.691615 0.417719
0.618579 0.731115 0.337597
0.725540 0.746151 0.142316
0.756618 0.707034 0.000000
0.801830 0.692406 0.000000
0.850841 0.692488 0.000000
0.886553 0.689595 0.000000
0.902941 0.685644 0.000000
0.909946 0.683336 0.000000
0.439397 0.579721 0.483689
0.433289 0.582678 0.467140
0.427962 0.590643 0.447253
0.425526 0.600621 0.426070
0.436277 0.619793 0.425282
0.454821 0.641888 0.434841
0.484804 0.666719 0.450271
0.515694 0.694044 0.439223
0.578114 0.729347 0.400746
0.672590 0.753879 0.291741
0.770875 0.766792 0.022273
0.781546 0.710640 0.000000
0.838465 0.711228 0.000000
0.883323 0.709473 0.000000
0.904430 0.706232 0.000000
0.915090 0.704088 0.000000
0.487345 0.641249 0.552144
0.479669 0.642907 0.532423
0.475687 0.648063 0.519484
0.474752 0.656347 0.510759
0.478147 0.667581 0.504593
0.486781 0.679596 0.492817
0.495366 0.689434 0.481111
0.515793 0.702764 0.487633
0.539239 0.722988 0.475819
0.579661 0.748161 0.454097
0.649124 0.777077 0.401214
0.733380 0.792165 0.303400
0.810863 0.793168 0.092077
0.821961 0.737815 0.000000
0.883187 0.735890 0.000000
0.921390 0.728422 0.000000
0.047527 0.064106 0.168163
0.130436 0.070680 0.202171
0.268157 0.086316 0.231419
0.359680 0.093588 0.236329
0.421293 0.098129 0.234656
0.463281 0.090096 0.226279
0.493399 0.075171 0.214416
0.516066 0.053751 0.204782
0.537881 0.027703 0.195313
0.555520 0.006289 0.183684
0.567469 0.000000 0.170846
0.578721 0.000000 0.164930
0.591963 0.000000 0.170240
0.611842 0.009414 0.195169
0.630249 0.116242 0.210888
0.650350 0.202125 0.205345
0.068310 0.124456 0.150168
0.059655 0.094094 0.153656
0.175600 0.116319 0.187199
0.298827 0.130102 0.198959
0.371901 0.127805 0.186525
0.424287 0.110836 0.167759
0.463773 0.090218 0.151741
0.494838 0.060359 0.138013
0.524725 0.017954 0.125522
0.546251 0.004603 0.105658
0.565728 0.004330 0.090555
0.584098 0.007633 0.081715
0.600890 0.047926 0.082159
0.627039 0.143161 0.104355
0.645391 0.193393 0.127908
0.662960 0.236588 0.134205
0.096983 0.166228 0.144166
0.079034 0.140780 0.130336
0.121823 0.163121 0.160511
0.260072 0.188373 0.188272
0.341522 0.192347 0.174530
0.401103 0.189763 0.157223
0.448541 0.184975 0.139367
0.488452 0.180013 0.122515
0.529230 0.172340 0.104358
0.563836 0.163433 0.090757
0.590246 0.155572 0.077570
0.609808 0.152408 0.064105
0.625539 0.162856 0.058824
0.646558 0.202880 0.084095
0.667497 0.247168 0.122567
0.683335 0.268461 0.125744
0.134180 0.207872 0.155372
0.115949 0.186000 0.132360
0.125502 0.195024 0.135216
0.216332 0.234894 0.171082
0.319161 0.245839 0.176611
0.378986 0.243508 0.156924
0.437099 0.248154 0.151382
0.487050 0.253121 0.148055
0.537174 0.252455 0.133744
0.581260 0.249506 0.118950
0.615507 0.245554 0.108303
0.640261 0.239550 0.095540
0.656690 0.236343 0.081561
0.675182 0.247852 0.086392
0.691913 0.265692 0.099115
0.702860 0.271722 0.087363
0.169905 0.244606 0.176262
0.153890 0.227746 0.150726
0.155029 0.229363 0.145013
0.204008 0.261555 0.168740
0.305020 0.282455 0.159198
0.382998 0.285690 0.179581
0.441487 0.286187 0.170254
0.493010 0.286445 0.158498
0.548042 0.284989 0.139481
0.596045 0.279441 0.117617
0.635261 0.272370 0.100253
0.665519 0.265587 0.080546
0.683939 0.259812 0.055805
0.701439 0.267056 0.057809
0.717279 0.281900 0.072390
0.721307 0.281263 0.049482
0.218904 0.294534 0.226335
0.209861 0.286561 0.208204
0.199509 0.278018 0.186501
0.207897 0.286995 0.184070
0.271507 0.320787 0.192777
0.377043 0.320974 0.134547
0.444523 0.312984 0.140903
0.496038 0.315252 0.157831
0.555223 0.311119 0.134958
0.608115 0.303480 0.110622
0.652467 0.294472 0.084087
0.687192 0.287936 0.045920
0.706999 0.282874 0.018188
0.724230 0.287086 0.012848
0.741517 0.302971 0.034136
0.738194 0.296844 0.011122
0.258605 0.336391 0.270596
0.246213 0.325380 0.247371
0.233343 0.315637 0.222390
0.230663 0.318754 0.211045
0.272932 0.348067 0.220326
0.367577 0.378606 0.152659
0.438961 0.360295 0.114610
0.498129 0.347449 0.101486
0.558046 0.347224 0.121499
0.615695 0.335929 0.102069
0.664973 0.323914 0.060146
0.703838 0.315969 0.016834
0.726932 0.307193 0.000000
0.744987 0.311006 0.000000
0.762197 0.329356 0.002357
0.755058 0.314257 0.000000
0.291092 0.373088 0.308150
0.281456 0.365438 0.289161
0.267315 0.355267 0.261934
0.258910 0.353181 0.242003
0.281917 0.377703 0.250711
0.337865 0.409109 0.237598
0.441540 0.417731 0.108044
0.496774 0.399047 0.092574
