example_ofxGpuLutCube/bin/data/ofxGpuLutCube/LUT/C13 (bright cold).cube
LUT_3D_SIZE 16
0.044546 0.031517 0.030934
0.077332 0.038490 0.033409
0.121765 0.043803 0.034341
0.179387 0.048520 0.037252
0.231972 0.051388 0.041503
0.302011 0.044837 0.045637
0.391295 0.056322 0.052829
0.468612 0.073413 0.058098
0.549642 0.092512 0.056526
0.609550 0.113577 0.048156
0.665890 0.144482 0.043745
0.711080 0.168400 0.044356
0.747535 0.183001 0.044837
0.787688 0.187484 0.043614
0.845615 0.199290 0.045099
0.885698 0.231527 0.069546
0.044633 0.071655 0.041023
0.073326 0.076395 0.042746
0.120242 0.077888 0.036466
0.176001 0.083840 0.039378
0.223284 0.092836 0.043981
0.273478 0.100959 0.049160
0.355935 0.099355 0.052800
0.450850 0.108147 0.059112
0.545226 0.129390 0.060078
0.613655 0.155267 0.054651
0.670709 0.186789 0.048462
0.717782 0.210940 0.048814
0.758133 0.229026 0.049210
0.797191 0.234220 0.048068
0.846891 0.242588 0.049906
0.889353 0.263193 0.072545
0.043759 0.118082 0.051533
0.065590 0.122068 0.050401
0.119724 0.121486 0.040563
0.178534 0.125399 0.043055
0.227919 0.133225 0.047661
0.276142 0.145115 0.053091
0.335156 0.162339 0.058151
0.409122 0.173266 0.062375
0.521724 0.184563 0.068524
0.607360 0.205365 0.063616
0.671946 0.224948 0.053717
0.721194 0.247037 0.052867
0.765246 0.266011 0.052779
0.819863 0.270495 0.049495
0.868567 0.282330 0.056797
0.894643 0.301224 0.084428
0.036306 0.174772 0.067896
0.053816 0.178735 0.062582
0.093311 0.185862 0.045221
0.172944 0.180225 0.047247
0.230516 0.196332 0.053635
0.295300 0.197846 0.058972
0.352892 0.210784 0.063089
0.416017 0.227394 0.067709
0.490047 0.239622 0.074138
0.580808 0.255056 0.073363
0.649761 0.269526 0.066877
0.709851 0.284686 0.058608
0.770545 0.299910 0.055598
0.839929 0.306909 0.051894
0.881226 0.329610 0.069398
0.903578 0.354543 0.127948
0.034006 0.230589 0.087825
0.053365 0.238482 0.073873
0.079776 0.255255 0.054363
0.165301 0.244436 0.053757
0.241192 0.246951 0.059426
0.309260 0.263401 0.066280
0.380010 0.268540 0.069832
0.439972 0.277527 0.074382
0.505245 0.289290 0.079763
0.571823 0.302298 0.078764
0.633194 0.317642 0.077271
0.705903 0.330802 0.065037
0.779879 0.338194 0.058148
0.846817 0.351214 0.057577
0.886306 0.379350 0.077600
0.903703 0.403409 0.137734
0.043308 0.297061 0.109544
0.068467 0.310847 0.080066
0.097760 0.328898 0.060762
0.155498 0.328840 0.062451
0.238406 0.313365 0.065930
0.332508 0.319407 0.073078
0.411093 0.329743 0.078304
0.472077 0.335740 0.082162
0.533367 0.344940 0.085539
0.595575 0.357008 0.081507
0.650896 0.372468 0.079265
0.723032 0.381945 0.067080
0.790669 0.386880 0.062175
0.854812 0.403417 0.061359
0.887657 0.429985 0.085102
0.900620 0.446381 0.145929
0.056963 0.362180 0.142342
0.082669 0.378350 0.112901
0.112492 0.396658 0.069765
0.192101 0.391499 0.070207
0.258143 0.387772 0.075061
0.347066 0.386564 0.080764
0.427051 0.392226 0.085233
0.504697 0.398358 0.090628
0.567734 0.406941 0.086599
0.621341 0.418954 0.083370
0.681132 0.432026 0.072103
0.744379 0.438740 0.065467
0.805715 0.441247 0.061863
0.858108 0.456317 0.067348
0.885939 0.473588 0.095837
0.899887 0.484692 0.159713
0.064882 0.427226 0.175373
0.087639 0.433762 0.161692
0.122802 0.456629 0.102589
0.186153 0.464606 0.070597
0.269230 0.451944 0.076193
0.357489 0.454798 0.082162
0.441253 0.460225 0.085705
0.515487 0.472345 0.088759
0.596843 0.474861 0.083192
0.649644 0.482512 0.077576
0.707262 0.486183 0.069366
0.764913 0.489403 0.065721
0.816613 0.488763 0.063991
0.858210 0.502540 0.072213
0.885456 0.519814 0.108811
0.901293 0.523246 0.180764
0.086311 0.489506 0.205710
0.107123 0.489870 0.197328
0.135833 0.495873 0.175504
0.182042 0.518804 0.095345
0.267238 0.528630 0.074563
0.371464 0.509158 0.081288
0.463590 0.518300 0.085367
0.537824 0.537967 0.086034
0.599103 0.549846 0.080933
0.668021 0.537804 0.073302
0.723450 0.534838 0.068027
0.775662 0.530348 0.065569
0.820712 0.535449 0.067602
0.863334 0.550763 0.080342
0.882894 0.567082 0.138799
0.904991 0.566427 0.198615
0.126678 0.541625 0.228973
0.146477 0.542362 0.222006
0.170352 0.552447 0.197270
0.203203 0.581236 0.104499
0.266414 0.590255 0.081023
0.385585 0.581032 0.082337
0.492375 0.581349 0.085635
0.566357 0.589164 0.083836
0.612414 0.596535 0.085035
0.666481 0.593222 0.081495
0.733160 0.576737 0.072219
0.781622 0.575855 0.072024
0.825245 0.586237 0.079734
0.861078 0.608900 0.112331
0.882507 0.609838 0.170962
0.911519 0.613320 0.214823
0.148049 0.594923 0.250824
0.165856 0.601081 0.238304
0.183969 0.617574 0.215362
0.219521 0.655249 0.137742
0.274290 0.637329 0.090896
0.349177 0.642526 0.092803
0.483632 0.639847 0.095700
0.579452 0.632365 0.091770
0.628048 0.633529 0.091653
0.675320 0.635713 0.086908
0.728269 0.631753 0.082031
0.786458 0.626178 0.087140
0.825228 0.650197 0.110971
0.853793 0.664114 0.155575
0.882591 0.663037 0.200979
0.915835 0.666232 0.233155
0.154599 0.654903 0.265032
0.171530 0.660886 0.255299
0.191035 0.671985 0.239798
0.224526 0.674046 0.250279
0.286576 0.693527 0.205934
0.357998 0.702739 0.140056
0.442976 0.693876 0.119100
0.554530 0.685671 0.113449
0.638507 0.673502 0.101395
0.686302 0.670302 0.097709
0.728938 0.677525 0.105352
0.770052 0.697801 0.134507
0.805404 0.706852 0.172155
0.847525 0.706503 0.199535
0.884195 0.705557 0.231194
0.918295 0.706419 0.261659
0.163887 0.704576 0.281438
0.183590 0.706297 0.280334
0.211005 0.708041 0.291223
0.248223 0.709811 0.303952
0.303670 0.722031 0.292784
0.389006 0.751160 0.252629
0.476566 0.766550 0.213737
0.559002 0.751134 0.169605
0.639799 0.729962 0.139256
0.697127 0.719786 0.129788
0.730598 0.732527 0.149388
0.753186 0.749017 0.192047
0.789658 0.749524 0.222530
0.845545 0.745948 0.233663
0.884824 0.745555 0.261835
0.919359 0.750034 0.290875
0.188285 0.744380 0.325168
0.215418 0.745274 0.329992
0.246094 0.747973 0.339332
0.278467 0.753796 0.350245
0.332377 0.767180 0.331052
0.418877 0.793060 0.291235
0.501279 0.810313 0.276346
0.576052 0.806193 0.259733
0.629877 0.794291 0.240610
0.678587 0.786666 0.225517
0.718835 0.783219 0.219671
0.750833 0.787318 0.232726
0.792186 0.790457 0.244482
0.839081 0.792751 0.260880
0.883240 0.791531 0.289226
0.917857 0.796943 0.327948
0.226120 0.788827 0.374649
0.252944 0.792178 0.377761
0.280408 0.795753 0.383680
0.310499 0.800004 0.391296
0.353989 0.808608 0.392869
0.440582 0.833649 0.355098
0.525656 0.847883 0.323593
0.594225 0.848274 0.301326
0.637779 0.841589 0.291881
0.680866 0.832208 0.278189
0.721019 0.828409 0.266982
0.759131 0.827992 0.260201
0.797193 0.832453 0.264388
0.838231 0.837274 0.280110
0.875496 0.842689 0.320210
0.919452 0.844233 0.357145
0.262750 0.838581 0.421077
0.286205 0.839472 0.421373
0.313148 0.842422 0.424238
0.350315 0.846446 0.429381
0.400071 0.854958 0.429569
0.453407 0.870551 0.425155
0.539226 0.880625 0.393942
0.609222 0.880980 0.351924
0.654697 0.878355 0.318788
0.694731 0.872993 0.306621
0.739267 0.866771 0.289198
0.776833 0.866639 0.283026
0.812051 0.869342 0.289893
0.843522 0.876078 0.317466
0.877821 0.884074 0.349599
0.921937 0.890964 0.381060
0.045404 0.036976 0.069020
0.077341 0.040700 0.071568
0.128607 0.044942 0.066705
0.188372 0.044918 0.064469
0.239017 0.046252 0.064845
0.311677 0.046831 0.074581
0.405642 0.063505 0.086972
0.482267 0.075364 0.084687
0.553783 0.082339 0.072726
0.615984 0.103436 0.061110
0.675425 0.138062 0.059252
0.720344 0.155778 0.059220
0.758051 0.156297 0.057587
0.794303 0.156308 0.055980
0.843650 0.201256 0.070525
0.879506 0.233254 0.106660
0.045984 0.081767 0.074916
0.067970 0.083439 0.085061
0.120812 0.085667 0.073669
0.184538 0.084682 0.067056
0.235614 0.088875 0.067459
0.290516 0.088544 0.067998
0.380005 0.085460 0.072956
0.471265 0.092906 0.078315
0.549497 0.109562 0.074395
0.611794 0.136981 0.067261
0.667200 0.169216 0.063130
0.719400 0.198595 0.063936
0.765606 0.210287 0.063027
0.803763 0.216426 0.062978
0.845171 0.241728 0.075605
0.882301 0.262328 0.110840
0.045029 0.126750 0.091613
0.062570 0.134053 0.094980
0.095695 0.143464 0.097739
0.179592 0.130255 0.074307
0.240779 0.130799 0.070972
0.297443 0.138989 0.073443
0.364306 0.147332 0.076385
0.441118 0.149393 0.081086
0.538706 0.155922 0.080522
0.610681 0.179730 0.075505
0.673702 0.214105 0.068455
0.723034 0.238080 0.068245
0.770145 0.254609 0.067673
0.824997 0.264575 0.068965
0.865489 0.280178 0.084670
0.887436 0.299153 0.126201
0.037389 0.180598 0.106473
0.054287 0.185150 0.102291
0.077325 0.192391 0.094322
0.168247 0.187744 0.085928
0.246558 0.188279 0.075036
0.317543 0.186118 0.077309
0.380377 0.199832 0.081237
0.447542 0.214002 0.086566
0.516630 0.226345 0.091360
0.594624 0.242283 0.087167
0.666761 0.260966 0.077749
0.725617 0.278189 0.072973
0.784853 0.290874 0.070426
0.847848 0.305946 0.077374
0.877871 0.326955 0.108945
0.897373 0.351638 0.169265
0.034355 0.235270 0.123738
0.052272 0.238724 0.116935
0.074186 0.252082 0.108415
0.137558 0.255227 0.089179
0.236722 0.250206 0.078538
0.317369 0.264100 0.085083
0.398940 0.263228 0.088747
0.464860 0.270545 0.093319
0.530750 0.288943 0.097399
0.594218 0.303288 0.094318
0.653415 0.317313 0.089412
0.730173 0.324603 0.077780
0.801251 0.331507 0.074503
0.858465 0.352656 0.088688
0.884025 0.378803 0.140904
0.900738 0.398092 0.198345
0.039727 0.294223 0.147077
0.063378 0.303897 0.139332
0.090193 0.323742 0.125404
0.132955 0.346603 0.104849
0.233751 0.331716 0.086445
0.331577 0.326977 0.092225
0.408644 0.341263 0.097928
0.491500 0.348396 0.103914
0.556866 0.352903 0.101457
0.615370 0.366811 0.099369
0.676575 0.376151 0.089735
0.750571 0.376847 0.081079
0.820060 0.384129 0.080506
0.866059 0.406873 0.099174
0.882847 0.426025 0.154239
0.897242 0.439105 0.212286
0.053376 0.361341 0.177053
0.077537 0.372988 0.165793
0.106287 0.398344 0.133491
0.156572 0.419579 0.103933
0.231947 0.420025 0.095607
0.327116 0.402297 0.097736
0.428906 0.404247 0.103946
0.514370 0.414978 0.108815
0.586887 0.425783 0.103190
0.641639 0.434198 0.097307
0.708765 0.439596 0.085816
0.775345 0.439193 0.081339
0.831563 0.447936 0.084695
0.866130 0.461802 0.108897
0.879261 0.470145 0.167806
0.894139 0.477558 0.224983
0.063820 0.430548 0.206672
0.085175 0.437634 0.199421
0.118140 0.457800 0.168253
0.170281 0.484853 0.103381
0.248774 0.492561 0.091833
0.328499 0.488090 0.097189
0.434438 0.483648 0.102050
0.523087 0.493557 0.105416
0.605354 0.496949 0.100317
0.672262 0.496927 0.091038
0.737283 0.494970 0.084527
0.791253 0.492713 0.083180
0.834599 0.500180 0.089920
0.862638 0.512126 0.120583
0.875535 0.515443 0.181460
0.892741 0.515129 0.238211
0.088649 0.492199 0.231047
0.109296 0.493353 0.226516
0.137477 0.499292 0.216435
0.185211 0.529010 0.139469
0.241770 0.547374 0.091808
0.324586 0.546679 0.095779
0.436212 0.553437 0.100317
0.533289 0.562499 0.103599
0.610692 0.566058 0.100709
0.691184 0.546970 0.089247
0.751654 0.538256 0.085190
0.796657 0.540222 0.086954
0.834303 0.550029 0.097492
0.858010 0.561687 0.138395
0.873905 0.555878 0.199712
0.895167 0.557009 0.250605
0.127066 0.542693 0.253366
0.145730 0.542819 0.249849
0.166669 0.545033 0.243195
0.191144 0.554781 0.224310
0.237173 0.594194 0.159831
0.321640 0.606277 0.107402
0.439643 0.598789 0.104859
0.553965 0.607060 0.108493
0.625093 0.610920 0.107678
0.689932 0.602208 0.100078
0.757276 0.584284 0.093159
0.796370 0.589923 0.098837
0.827366 0.605001 0.121008
0.851881 0.608679 0.166262
0.872646 0.599603 0.224132
0.902310 0.606031 0.263353
0.148558 0.595520 0.276070
0.166456 0.596163 0.271190
0.184551 0.604726 0.261230
0.204778 0.622987 0.236145
0.246616 0.635305 0.214859
0.319334 0.667885 0.157966
0.453478 0.656521 0.124699
0.577898 0.647353 0.116355
0.647317 0.645000 0.111685
0.691487 0.645527 0.109804
0.737600 0.646631 0.112095
0.789314 0.649263 0.124193
0.812679 0.660356 0.163192
0.842281 0.656361 0.204651
0.872931 0.653051 0.248507
0.907605 0.659914 0.278769
0.156672 0.653456 0.291725
0.173651 0.657353 0.285762
0.191469 0.663882 0.277707
0.221637 0.666651 0.288773
0.270552 0.679459 0.272484
0.340640 0.711601 0.203583
0.429964 0.713304 0.166543
0.557190 0.700114 0.144396
0.652649 0.683250 0.124786
0.698595 0.681424 0.125778
0.733955 0.693055 0.141152
0.760162 0.709686 0.180724
0.794193 0.701916 0.219482
0.837314 0.699331 0.243915
0.875249 0.699448 0.273400
0.913636 0.705243 0.298257
0.165625 0.704524 0.307123
0.185639 0.705944 0.306928
0.212981 0.707385 0.317938
0.248983 0.708573 0.332733
0.292787 0.715001 0.345815
0.358517 0.737066 0.311066
0.447304 0.765741 0.262274
0.534450 0.766122 0.225702
0.626462 0.749384 0.191500
0.696898 0.733106 0.169626
0.721115 0.744694 0.194842
0.745108 0.749177 0.231984
0.782170 0.746117 0.261494
0.835391 0.742435 0.274906
0.878195 0.743589 0.298030
0.917997 0.747812 0.327870
0.189511 0.745224 0.350295
0.217041 0.746099 0.355179
0.248147 0.749411 0.363846
0.281075 0.756412 0.377504
0.320940 0.764223 0.387432
0.386269 0.780561 0.375235
0.476503 0.807883 0.344350
0.565104 0.809020 0.315620
0.619411 0.800351 0.287707
0.670851 0.788716 0.266438
0.715362 0.784544 0.252233
0.746635 0.788104 0.264921
0.785801 0.790202 0.278919
0.831616 0.792650 0.295899
0.879304 0.791395 0.324271
0.917251 0.795671 0.361516
0.226798 0.789712 0.398419
0.254175 0.793324 0.401686
0.282883 0.798340 0.409423
0.313610 0.804496 0.420154
0.353316 0.812881 0.429230
0.431306 0.832895 0.405170
0.511343 0.849972 0.380023
0.584912 0.852322 0.357799
0.636958 0.845551 0.334233
0.678454 0.835603 0.314709
0.717878 0.829209 0.300969
0.756228 0.828536 0.291362
0.792559 0.833433 0.295862
0.833329 0.838231 0.314281
0.872712 0.843184 0.354643
0.921475 0.844297 0.387869
0.262984 0.839266 0.444053
0.288334 0.842054 0.446850
0.316548 0.846621 0.453963
0.352554 0.850937 0.461821
0.397429 0.858169 0.467900
0.450004 0.873281 0.464200
0.534198 0.885089 0.430938
0.603064 0.887532 0.400039
0.652665 0.885511 0.364095
0.693509 0.878983 0.346737
0.733707 0.871291 0.331385
0.770372 0.870761 0.327168
0.808788 0.871313 0.324653
0.840022 0.877239 0.349975
0.877550 0.884709 0.379667
0.922598 0.890844 0.410863
0.045681 0.051257 0.129888
0.070980 0.045926 0.136823
0.119142 0.048406 0.131361
0.184042 0.055860 0.120717
0.241562 0.055513 0.112981
0.310600 0.049015 0.107324
0.409960 0.066891 0.119643
0.494321 0.081894 0.117147
0.565755 0.083420 0.093448
0.625598 0.089368 0.074404
0.685310 0.110709 0.071848
0.732686 0.122396 0.070887
0.768195 0.127718 0.070244
0.799567 0.150718 0.075508
0.838037 0.208794 0.102753
0.872218 0.240939 0.159020
0.046720 0.104942 0.128892
0.063492 0.092010 0.146799
0.111539 0.093353 0.147924
0.186465 0.100753 0.126840
0.246604 0.105698 0.119879
0.305475 0.103271 0.112041
0.398194 0.088622 0.105761
0.492431 0.097995 0.111286
0.561875 0.100100 0.090987
0.618062 0.117463 0.077737
0.674205 0.146413 0.076064
0.731686 0.172351 0.076524
0.782345 0.191034 0.077997
0.810919 0.221916 0.089362
0.842023 0.244165 0.109493
0.872419 0.267664 0.164176
0.044586 0.147954 0.141225
0.061934 0.152061 0.156841
0.084474 0.157582 0.170125
0.173829 0.148817 0.136208
0.250426 0.150364 0.123574
0.316029 0.155032 0.118691
0.385326 0.154363 0.113675
0.472867 0.141611 0.109660
0.557973 0.141303 0.101440
0.614514 0.165651 0.094855
0.669853 0.198593 0.087549
0.722117 0.226147 0.087120
0.778270 0.251029 0.089866
0.829825 0.266593 0.098524
0.858616 0.281847 0.127830
0.876348 0.302476 0.179365
0.035922 0.195478 0.157460
0.052983 0.198018 0.166556
0.069579 0.209940 0.177860
0.127685 0.212625 0.171055
0.248083 0.203365 0.135506
0.330040 0.205246 0.121986
0.402399 0.212310 0.120076
0.471975 0.216280 0.120139
0.544280 0.217640 0.123295
0.609168 0.224931 0.113512
0.673533 0.244348 0.097577
0.732377 0.271890 0.095353
0.790701 0.290754 0.097879
0.844827 0.306466 0.113654
0.869894 0.328738 0.162770
0.887738 0.352365 0.220021
0.031528 0.242927 0.179307
0.050323 0.247397 0.173080
0.070691 0.256912 0.169561
0.105494 0.264573 0.173018
0.229228 0.256434 0.147826
0.341921 0.262877 0.120979
0.424706 0.266910 0.120535
0.494604 0.275036 0.123255
0.562724 0.286834 0.118620
0.620900 0.293628 0.114141
0.682902 0.302525 0.101600
0.751391 0.317890 0.098748
0.814341 0.335734 0.107609
0.853825 0.357025 0.146595
0.875699 0.381145 0.205486
0.893839 0.398363 0.252841
0.035273 0.297673 0.198744
0.059374 0.307572 0.190916
0.084111 0.320897 0.185081
0.113212 0.338529 0.186933
0.206359 0.336558 0.148245
0.324560 0.329874 0.118999
0.419795 0.351343 0.120041
0.514748 0.349832 0.126482
0.581511 0.354758 0.120915
0.637500 0.372818 0.116906
0.707786 0.375132 0.103903
0.774908 0.376617 0.102299
0.830661 0.392531 0.118612
0.856641 0.410489 0.174431
0.875155 0.424549 0.228564
0.894611 0.442662 0.276207
0.050549 0.364864 0.221626
0.072529 0.374936 0.213848
0.096325 0.391680 0.209334
0.128889 0.415738 0.199055
0.203685 0.428387 0.176284
0.317744 0.425018 0.121436
0.430723 0.419993 0.122535
0.514053 0.436285 0.126306
0.599869 0.442502 0.120782
0.668211 0.445580 0.110695
0.736607 0.444828 0.103202
0.790637 0.449327 0.107717
0.836282 0.456850 0.128985
0.856036 0.461222 0.188391
0.872758 0.466605 0.245700
0.892916 0.484790 0.287598
0.065849 0.437303 0.244292
0.086136 0.446163 0.237274
0.113524 0.457937 0.230020
0.158205 0.486430 0.192981
0.222344 0.512261 0.163711
0.299245 0.518207 0.133778
0.417322 0.505657 0.120367
0.529783 0.511494 0.122528
0.613715 0.520823 0.117087
0.689863 0.509048 0.106336
0.752020 0.502621 0.104101
0.798888 0.507157 0.113679
0.835759 0.511876 0.143840
0.853330 0.510106 0.204499
0.870136 0.509962 0.259651
0.892335 0.525440 0.296807
0.095546 0.498663 0.264963
0.118668 0.501458 0.257939
0.144735 0.506805 0.253821
0.182959 0.524435 0.225121
0.237507 0.569979 0.164142
0.305697 0.580708 0.126534
0.408217 0.581745 0.124622
0.528504 0.582877 0.125862
0.620514 0.581221 0.122396
0.702827 0.559757 0.110282
0.760277 0.556749 0.110588
0.804669 0.560751 0.124128
0.834077 0.567168 0.163666
0.851425 0.555504 0.222704
0.868734 0.551345 0.273925
0.894302 0.564609 0.304289
0.130865 0.547704 0.282068
0.150662 0.548560 0.277768
0.172258 0.552173 0.275184
0.195222 0.561173 0.264435
0.233510 0.589919 0.233116
0.301271 0.630786 0.149922
0.385097 0.624333 0.133265
0.519220 0.630394 0.137382
0.624918 0.627117 0.133385
0.697668 0.617946 0.126002
0.767309 0.605660 0.124700
0.799605 0.616726 0.153309
0.823793 0.615049 0.197737
0.845487 0.602029 0.246620
0.867489 0.599947 0.287897
0.898516 0.607789 0.311279
0.151193 0.600222 0.300515
0.168724 0.600100 0.298055
0.186333 0.603922 0.295464
0.203974 0.613239 0.285262
0.232551 0.614520 0.298329
0.278981 0.630196 0.301025
0.394311 0.678742 0.182664
0.513178 0.666804 0.150763
0.635167 0.661203 0.143741
0.698912 0.662775 0.144681
0.744922 0.672223 0.158974
0.783619 0.673309 0.193300
0.808079 0.660728 0.236995
0.835806 0.651342 0.273342
0.866729 0.651414 0.298818
0.904462 0.660202 0.318864
0.159071 0.657081 0.317693
0.176663 0.659243 0.314755
0.194470 0.663418 0.310326
0.221502 0.665568 0.320973
0.259712 0.665779 0.338838
0.308235 0.679301 0.331205
0.406192 0.713828 0.283527
0.539247 0.727611 0.225540
0.649716 0.703653 0.168925
0.707086 0.702822 0.168553
0.732051 0.719471 0.200686
0.754478 0.719084 0.244514
0.792826 0.697946 0.277935
0.831362 0.695127 0.294176
0.870041 0.698632 0.313312
0.910948 0.705336 0.336293
0.168420 0.706536 0.335520
0.188707 0.707798 0.336163
0.215942 0.708964 0.347162
0.251809 0.710368 0.363953
0.292155 0.716225 0.381366
0.341706 0.728509 0.372699
0.427571 0.759316 0.320586
0.524543 0.774009 0.293742
0.622077 0.764187 0.259165
0.692474 0.753602 0.228677
0.717406 0.757935 0.250607
0.746219 0.754070 0.277744
0.781519 0.748035 0.299954
0.831058 0.741923 0.313468
0.875151 0.744253 0.333092
0.915437 0.749556 0.366679
0.193482 0.747970 0.380240
0.221558 0.748847 0.385262
0.252685 0.752960 0.392986
0.285850 0.759731 0.405901
0.323471 0.766754 0.419597
0.375584 0.778863 0.426946
0.454597 0.805443 0.398530
0.542475 0.815482 0.359872
0.611817 0.809303 0.330065
0.665665 0.795530 0.312665
0.717487 0.789365 0.290692
0.745960 0.789737 0.301104
0.783412 0.791302 0.313174
0.828927 0.794861 0.328533
0.875449 0.792631 0.363322
0.919294 0.797506 0.395792
0.230385 0.792938 0.425543
0.258071 0.796553 0.429163
0.287346 0.801494 0.436308
0.318075 0.808025 0.447714
0.357097 0.816447 0.461209
0.417585 0.830610 0.464012
0.494377 0.851908 0.444407
0.570302 0.856614 0.425044
0.628808 0.852943 0.390484
0.675488 0.842045 0.356387
0.715327 0.831958 0.336329
0.754890 0.830628 0.323343
0.790051 0.835752 0.328740
0.829515 0.840785 0.352258
0.871181 0.845417 0.390067
0.923253 0.845541 0.420911
0.265831 0.841820 0.469978
0.291954 0.845068 0.473003
0.321566 0.849847 0.480895
0.358098 0.854343 0.490509
0.400764 0.863455 0.502382
0.450818 0.877785 0.504488
0.532786 0.889364 0.474254
0.596898 0.892310 0.455838
0.645144 0.891385 0.434641
0.690711 0.884754 0.403234
0.732898 0.876482 0.377980
0.767899 0.873588 0.369485
0.805410 0.873563 0.363275
0.838715 0.879103 0.385193
0.878672 0.886173 0.412137
0.923279 0.891825 0.443029
0.040382 0.077169 0.190945
0.068744 0.069963 0.197054
0.105143 0.070231 0.194759
0.148150 0.072373 0.195016
0.214206 0.070036 0.181934
0.284513 0.053557 0.153649
0.365531 0.060020 0.154858
0.468420 0.079204 0.154319
0.572742 0.092189 0.133275
0.636242 0.091394 0.101514
0.696141 0.091377 0.087952
0.745159 0.096448 0.085733
0.775357 0.122395 0.092916
0.795269 0.167570 0.109733
0.827742 0.218168 0.152758
0.861732 0.247243 0.214736
0.040851 0.140380 0.187865
0.059502 0.122899 0.201232
0.087451 0.099355 0.217142
0.145923 0.109392 0.211450
0.236237 0.120444 0.187819
0.299361 0.126970 0.177873
0.388267 0.102075 0.158941
0.495892 0.104593 0.155739
0.573442 0.107220 0.123104
0.629410 0.115385 0.099969
0.684361 0.131308 0.094474
0.743004 0.167525 0.100053
0.785179 0.205989 0.112155
0.809841 0.231701 0.129407
0.834575 0.251078 0.163420
0.861918 0.274785 0.220308
0.035596 0.174180 0.192325
0.054802 0.180310 0.204604
0.080524 0.173625 0.221638
0.146214 0.172491 0.221735
0.247144 0.174012 0.195021
0.319838 0.179034 0.194829
0.398500 0.176527 0.187198
0.490613 0.155493 0.167458
0.572915 0.139738 0.137149
0.624520 0.161989 0.123344
0.672578 0.202296 0.127178
0.725136 0.238743 0.131905
0.784657 0.263202 0.139620
0.829913 0.277209 0.159327
0.848109 0.291727 0.196203
0.865941 0.308466 0.240524
0.031077 0.214438 0.204973
0.048627 0.215888 0.215921
0.069020 0.225014 0.228795
0.101934 0.231566 0.242104
0.234664 0.214938 0.210168
0.326953 0.224124 0.204181
0.417958 0.233608 0.196543
0.490485 0.232910 0.189518
0.556781 0.221581 0.182547
0.616016 0.225769 0.177022
0.664007 0.252942 0.176149
0.716595 0.280610 0.189965
0.771299 0.299805 0.189027
0.829002 0.317502 0.195131
0.859229 0.337314 0.232476
0.876131 0.355895 0.278098
0.029304 0.255587 0.226611
0.047593 0.258603 0.228384
0.066915 0.263492 0.238714
0.089643 0.275522 0.250686
0.171802 0.275604 0.247851
0.324953 0.271716 0.216485
0.431221 0.290344 0.200728
0.502724 0.301640 0.201744
0.560837 0.308323 0.205634
0.611737 0.308733 0.213751
0.664618 0.313997 0.218453
0.725239 0.328061 0.214652
0.788734 0.347680 0.210620
0.834842 0.366539 0.232612
0.863340 0.385072 0.269343
0.884929 0.400806 0.305626
0.035913 0.303612 0.250427
0.058187 0.312940 0.246138
0.080629 0.324566 0.245148
0.101624 0.334279 0.248537
0.154861 0.328033 0.252404
0.310876 0.330106 0.237354
0.446511 0.352787 0.200233
0.520862 0.364214 0.204728
0.580778 0.378457 0.207779
0.631001 0.390997 0.213134
0.693520 0.387419 0.204498
0.749823 0.388787 0.212467
0.808009 0.402593 0.223621
0.841629 0.415381 0.258151
0.864569 0.430046 0.298286
0.892796 0.453143 0.326860
0.052308 0.365901 0.273343
0.074066 0.382110 0.261971
0.096474 0.400486 0.258754
0.120932 0.418777 0.257904
0.164951 0.420021 0.273544
0.276518 0.412918 0.239500
0.426593 0.430357 0.178638
0.522124 0.455375 0.162651
0.600571 0.458284 0.179114
0.668232 0.454817 0.183687
0.724938 0.460643 0.185908
0.774200 0.456573 0.201436
0.819577 0.456503 0.224007
0.841846 0.462142 0.270891
0.865470 0.474529 0.312922
0.896593 0.499540 0.337847
0.069203 0.442636 0.288905
0.091030 0.454996 0.279249
0.118976 0.467107 0.274290
0.150539 0.480898 0.272488
0.186812 0.493204 0.285255
0.257296 0.502089 0.280071
0.413038 0.524945 0.174984
0.533821 0.533333 0.140165
