example_ofxGpuLutCube/bin/data/ofxGpuLutCube/LUT/C13 (bright cold).cube
LUT_3D_SIZE 6
0.044546 0.031517 0.030934
0.179387 0.048520 0.037252
0.391295 0.056322 0.052829
0.609550 0.113577 0.048156
0.747535 0.183001 0.044837
0.885698 0.231527 0.069546
0.036306 0.174772 0.067896
0.172944 0.180225 0.047247
0.352892 0.210784 0.063089
0.580808 0.255056 0.073363
0.770545 0.299910 0.055598
0.903578 0.354543 0.127948
0.056963 0.362180 0.142342
0.192101 0.391499 0.070207
0.427051 0.392226 0.085233
0.621341 0.418954 0.083370
0.805715 0.441247 0.061863
0.899887 0.484692 0.159713
0.126678 0.541625 0.228973
0.203203 0.581236 0.104499
0.492375 0.581349 0.085635
0.666481 0.593222 0.081495
0.825245 0.586237 0.079734
0.911519 0.613320 0.214823
0.163887 0.704576 0.281438
0.248223 0.709811 0.303952
0.476566 0.766550 0.213737
0.697127 0.719786 0.129788
0.789658 0.749524 0.222530
0.919359 0.750034 0.290875
0.262750 0.838581 0.421077
0.350315 0.846446 0.429381
0.539226 0.880625 0.393942
0.694731 0.872993 0.306621
0.812051 0.869342 0.289893
0.921937 0.890964 0.381060
0.040382 0.077169 0.190945
0.148150 0.072373 0.195016
0.365531 0.060020 0.154858
0.636242 0.091394 0.101514
0.775357 0.122395 0.092916
0.861732 0.247243 0.214736
0.031077 0.214438 0.204973
0.101934 0.231566 0.242104
0.417958 0.233608 0.196543
0.616016 0.225769 0.177022
0.771299 0.299805 0.189027
0.876131 0.355895 0.278098
0.052308 0.365901 0.273343
0.120932 0.418777 0.257904
0.426593 0.430357 0.178638
0.668232 0.454817 0.183687
0.819577 0.456503 0.224007
0.896593 0.499540 0.337847
0.137165 0.556194 0.317365
0.199633 0.572192 0.304592
0.388118 0.659294 0.223514
0.694018 0.651831 0.175721
0.811630 0.610219 0.288347
0.906626 0.623068 0.360017
0.171110 0.710484 0.365319
0.255403 0.715872 0.394165
0.395205 0.742264 0.418780
0.675634 0.765600 0.306577
0.790379 0.762585 0.338837
0.916244 0.754082 0.406204
0.270737 0.846192 0.499834
0.367302 0.858370 0.520074
0.523764 0.892565 0.527828
0.683068 0.892245 0.470981
0.804770 0.876368 0.403032
0.923568 0.894222 0.477252
0.061636 0.079614 0.411675
0.164981 0.085478 0.380554
0.343381 0.095610 0.365770
0.574027 0.160006 0.324491
0.700745 0.218535 0.358404
0.847794 0.281913 0.409735
0.052471 0.293715 0.358220
0.126507 0.215719 0.449556
0.360853 0.220241 0.440718
0.590082 0.274931 0.356077
0.766016 0.327585 0.395862
0.879590 0.381767 0.436050
0.088777 0.441815 0.419699
0.152732 0.465663 0.430456
0.337017 0.463883 0.486330
0.645694 0.478516 0.452794
0.781597 0.460083 0.466838
0.906103 0.536313 0.513492
0.152966 0.585833 0.472391
0.216844 0.605952 0.453780
0.351416 0.645721 0.506308
0.655715 0.640892 0.465776
0.795986 0.649649 0.503551
0.922149 0.678725 0.565606
0.194457 0.729079 0.517079
0.288746 0.746761 0.513958
0.430746 0.785622 0.570685
0.656448 0.803890 0.530401
0.796064 0.811684 0.514279
0.929911 0.802493 0.591257
0.309256 0.866497 0.608428
0.397858 0.878416 0.627035
0.522093 0.904331 0.642721
0.670824 0.910862 0.626684
0.825162 0.901464 0.555805
0.934430 0.912339 0.603029
0.073558 0.103139 0.654561
0.211585 0.097759 0.588112
0.401639 0.114249 0.583242
0.616013 0.187205 0.546403
0.743025 0.270622 0.563802
0.865806 0.326043 0.607030
0.091068 0.379353 0.571843
0.168095 0.265964 0.658862
0.425365 0.245934 0.665187
0.637541 0.311199 0.592167
0.744168 0.363961 0.580423
0.870377 0.420641 0.604089
0.130556 0.518797 0.586054
0.189174 0.524786 0.611490
0.390477 0.469613 0.687281
0.663759 0.466376 0.638221
0.770745 0.489652 0.602702
0.916581 0.593318 0.667478
0.171369 0.631767 0.631159
0.247721 0.648694 0.642009
0.395460 0.685744 0.669814
0.641883 0.692604 0.689516
0.798893 0.697759 0.671292
0.928835 0.710990 0.721803
0.252262 0.766221 0.695843
0.335447 0.781970 0.688902
0.450300 0.818204 0.720684
0.633322 0.842848 0.731651
0.788664 0.826374 0.692479
0.935629 0.832092 0.735510
0.344339 0.891492 0.767063
0.425153 0.903780 0.768650
0.533661 0.922089 0.784784
0.670268 0.932483 0.773236
0.813345 0.930643 0.741738
0.942838 0.943173 0.746389
0.154512 0.201561 0.834283
0.371157 0.170065 0.816831
0.550401 0.210538 0.829249
0.682377 0.272077 0.764931
0.799942 0.303652 0.764329
0.904478 0.356455 0.796968
0.142767 0.416579 0.846811
0.305328 0.347641 0.842706
0.545913 0.306690 0.863004
0.681978 0.344922 0.785231
0.800156 0.381914 0.784133
0.909378 0.449935 0.803062
0.180966 0.586518 0.774682
0.289344 0.592870 0.787556
0.501594 0.524882 0.877432
0.691427 0.461608 0.875789
0.814550 0.510649 0.802568
0.914492 0.570526 0.804095
0.246934 0.703692 0.799217
0.334722 0.716853 0.800603
0.451392 0.747275 0.834022
0.643589 0.730272 0.850183
0.818143 0.706867 0.823216
0.930791 0.727095 0.820138
0.328382 0.823778 0.842534
0.401458 0.835191 0.849464
0.505540 0.857849 0.868270
0.637566 0.872563 0.883663
0.781906 0.866098 0.884604
0.942553 0.863103 0.866603
0.425593 0.931258 0.888898
0.505772 0.935228 0.890278
0.594630 0.942508 0.896780
0.692624 0.949656 0.902703
0.814455 0.951527 0.897300
0.942272 0.956749 0.888386
0.309914 0.314970 0.952376
0.526715 0.247750 0.955917
0.621051 0.278279 0.949726
0.732181 0.320692 0.923865
0.845340 0.342680 0.931791
0.922585 0.507274 0.900169
0.282141 0.536769 0.916666
0.460935 0.445268 0.964950
0.620231 0.379490 0.958227
0.745417 0.395959 0.941599
0.858066 0.438029 0.948531
0.929981 0.604322 0.914972
0.289307 0.665292 0.897256
0.401847 0.671948 0.912968
0.592562 0.617742 0.943315
0.737853 0.539105 0.961151
0.864286 0.561870 0.935504
0.934126 0.680703 0.925708
0.337126 0.774727 0.925550
0.415792 0.786291 0.933362
0.545764 0.801552 0.947204
0.694325 0.770569 0.951305
0.862672 0.727822 0.937330
0.941046 0.771604 0.947363
0.415259 0.870084 0.953028
0.498735 0.875313 0.953523
0.593272 0.883988 0.959356
0.693618 0.890035 0.963247
0.819247 0.880382 0.963176
0.946281 0.872747 0.969886
0.508219 0.950377 0.970105
0.574424 0.951828 0.969683
0.650758 0.954926 0.970491
0.736220 0.958320 0.973660
0.844620 0.958553 0.974056
0.942609 0.965306 0.984001
