example_ofxGpuLutCube/bin/data/ofxGpuLutCube/LUT/C14 (smooth cold).cube
LUT_3D_SIZE 6
0.049058 0.049058 0.054663
0.226349 0.073660 0.073835
0.381337 0.097083 0.095598
0.561030 0.123272 0.120841
0.698128 0.148092 0.142648
0.803007 0.182730 0.163605
0.052072 0.147259 0.061752
0.182001 0.179087 0.072178
0.361566 0.186663 0.095843
0.581169 0.205555 0.128085
0.749107 0.225860 0.156439
0.848503 0.263297 0.177280
0.067779 0.276379 0.089659
0.188430 0.312170 0.089944
0.366736 0.333548 0.110610
0.584354 0.341418 0.144264
0.767304 0.352118 0.179327
0.886334 0.379203 0.202520
0.104143 0.428601 0.133651
0.198926 0.467682 0.119353
0.410560 0.519169 0.142421
0.616595 0.525524 0.171227
0.798137 0.545579 0.212622
0.910835 0.570954 0.232588
0.141338 0.607915 0.170933
0.234123 0.639866 0.154448
0.469800 0.690266 0.180922
0.691455 0.726750 0.210092
0.825554 0.713538 0.238246
0.918543 0.730365 0.254898
0.167430 0.740259 0.209975
0.252771 0.753781 0.193911
0.426495 0.778660 0.193255
0.648976 0.808461 0.213996
0.839136 0.833330 0.247220
0.927932 0.827549 0.259779
0.057167 0.057167 0.210743
0.250334 0.084104 0.232938
0.453941 0.100367 0.235188
0.598757 0.118302 0.208455
0.700582 0.139419 0.207087
0.784864 0.173145 0.218895
0.055097 0.163857 0.184659
0.188965 0.184071 0.204730
0.364006 0.186699 0.184482
0.568507 0.211129 0.199751
0.711726 0.234764 0.216703
0.803512 0.292459 0.252244
0.075285 0.302303 0.209847
0.142151 0.302946 0.177776
0.369287 0.347131 0.178961
0.589998 0.349984 0.210567
0.767698 0.355237 0.238564
0.862266 0.379368 0.256932
0.108316 0.454653 0.242007
0.175213 0.463950 0.192888
0.374885 0.516711 0.201006
0.626315 0.542841 0.229872
0.807572 0.558158 0.272268
0.910690 0.561278 0.286022
0.141579 0.615526 0.254692
0.222068 0.646985 0.220096
0.480427 0.703482 0.241077
0.673374 0.729934 0.263631
0.843055 0.731177 0.300755
0.920361 0.736632 0.309894
0.162145 0.725154 0.254555
0.271170 0.745385 0.241963
0.519162 0.791130 0.258438
0.658420 0.814573 0.274424
0.834926 0.837602 0.300729
0.928888 0.834214 0.315292
0.062597 0.080080 0.333240
0.223691 0.093610 0.341698
0.427449 0.119138 0.370489
0.607911 0.135107 0.383582
0.730579 0.146261 0.357172
0.808259 0.163577 0.324995
0.065962 0.205436 0.332989
0.156642 0.186334 0.349999
0.376603 0.209622 0.361267
0.599178 0.214095 0.353543
0.733937 0.213676 0.323588
0.809763 0.258923 0.330023
0.085411 0.328113 0.347119
0.139037 0.325768 0.346372
0.335413 0.355577 0.370309
0.555243 0.357076 0.345824
0.731551 0.393032 0.358596
0.841880 0.418820 0.365251
0.119691 0.497778 0.375931
0.173019 0.493686 0.358751
0.275092 0.513083 0.340523
0.587836 0.573456 0.325414
0.794699 0.576571 0.354617
0.912062 0.556675 0.358475
0.148214 0.646580 0.368582
0.202559 0.641255 0.343721
0.377526 0.685600 0.353190
0.605640 0.720827 0.344131
0.835152 0.744358 0.357196
0.922282 0.746065 0.370872
0.167242 0.749268 0.363459
0.220703 0.734500 0.332442
0.485574 0.804516 0.349795
0.674840 0.837835 0.357805
0.832488 0.861100 0.369439
0.931993 0.849592 0.373140
0.067939 0.104842 0.454222
0.235759 0.103989 0.483920
0.363435 0.123755 0.484481
0.580810 0.151665 0.515299
0.720706 0.175940 0.538993
0.824160 0.200348 0.519274
0.080220 0.244019 0.467234
0.149515 0.205755 0.501232
0.343474 0.225640 0.517737
0.581455 0.245298 0.526592
0.741844 0.254212 0.530280
0.838050 0.279301 0.495554
0.100350 0.360072 0.493964
0.154158 0.355007 0.511809
0.295024 0.358008 0.541253
0.575080 0.380635 0.552367
0.757633 0.383850 0.511390
0.852156 0.386451 0.464000
0.125319 0.518284 0.522031
0.181634 0.525378 0.527516
0.256296 0.536989 0.534867
0.569584 0.597079 0.571374
0.766423 0.611779 0.565459
0.890604 0.626004 0.556814
0.158946 0.681212 0.532241
0.213898 0.682723 0.520528
0.276817 0.683989 0.505470
0.557027 0.755708 0.541242
0.806203 0.787694 0.518364
0.925665 0.770857 0.535250
0.171246 0.768744 0.488006
0.221908 0.756637 0.463207
0.315963 0.783634 0.450102
0.687823 0.878587 0.532778
0.829156 0.899561 0.534691
0.936222 0.875335 0.451767
0.075000 0.128250 0.596197
0.229840 0.109635 0.626284
0.369543 0.138461 0.633662
0.544501 0.152576 0.630805
0.709296 0.182782 0.654086
0.813561 0.240985 0.684148
0.092774 0.270667 0.611616
0.147936 0.223154 0.646487
0.346494 0.229751 0.667354
0.519225 0.261008 0.651429
0.725328 0.273926 0.666275
0.827057 0.314901 0.669290
0.113230 0.389402 0.638005
0.167493 0.383387 0.660706
0.313030 0.394387 0.677156
0.536377 0.400917 0.682803
0.739348 0.412599 0.686715
0.860748 0.428661 0.689222
0.136053 0.543113 0.663824
0.194404 0.555910 0.679916
0.271208 0.559387 0.683211
0.550798 0.609443 0.730402
0.776468 0.609875 0.741970
0.908379 0.609585 0.706890
0.166196 0.702661 0.686703
0.222822 0.709217 0.689638
0.283240 0.704096 0.682217
0.506952 0.769713 0.733440
0.804489 0.832383 0.784084
0.942946 0.849806 0.799421
0.181409 0.800945 0.672483
0.232472 0.790395 0.652203
0.299372 0.813433 0.662023
0.513191 0.872073 0.697409
0.836017 0.947378 0.755317
0.947145 0.930902 0.651998
0.079844 0.141091 0.711428
0.248139 0.130035 0.729611
0.401293 0.161815 0.729514
0.552568 0.194354 0.727777
0.712351 0.214878 0.746523
0.819061 0.259003 0.771025
0.097805 0.279366 0.711228
0.184612 0.265889 0.742018
0.349131 0.265680 0.757259
0.510585 0.294728 0.750508
0.684521 0.301680 0.745353
0.816424 0.317833 0.758482
0.116277 0.393207 0.727402
0.174797 0.404524 0.752306
0.357871 0.455821 0.778942
0.535218 0.410908 0.779846
0.702139 0.425113 0.772635
0.840228 0.428416 0.782246
0.137582 0.540680 0.752577
0.195849 0.554871 0.762090
0.320813 0.602975 0.785861
0.588539 0.659988 0.828733
0.766051 0.650855 0.830456
0.894713 0.610909 0.829710
0.167164 0.703316 0.780451
0.220077 0.698666 0.774574
0.298987 0.726501 0.792408
0.546502 0.792602 0.835733
0.827181 0.863632 0.882420
0.946418 0.841826 0.892761
0.184877 0.816717 0.795902
0.238455 0.812892 0.784251
0.300054 0.836386 0.797569
0.455996 0.888075 0.830028
0.776360 0.960348 0.881068
0.960766 0.992136 0.902209
