example_ofxGpuLutCube/bin/data/ofxGpuLutCube/LUT/C14 (smooth cold).cube
LUT_3D_SIZE 16
0.049058 0.049058 0.054663
0.098382 0.056017 0.060340
0.161317 0.064766 0.066061
0.226349 0.073660 0.073835
0.282835 0.081812 0.081347
0.331417 0.088800 0.088218
0.381337 0.097083 0.095598
0.438406 0.106065 0.103649
0.501472 0.114916 0.112165
0.561030 0.123272 0.120841
0.612392 0.132399 0.128978
0.657480 0.139940 0.136053
0.698128 0.148092 0.142648
0.737451 0.158442 0.150319
0.773440 0.169448 0.157394
0.803007 0.182730 0.163605
0.049408 0.077711 0.056293
0.082250 0.085423 0.057880
0.138355 0.093229 0.063735
0.196876 0.099101 0.069241
0.259456 0.106802 0.077134
0.316437 0.114497 0.084942
0.370996 0.122789 0.093592
0.435465 0.131704 0.102988
0.502375 0.140954 0.112729
0.567732 0.149945 0.122675
0.622378 0.157645 0.131249
0.670619 0.164942 0.139206
0.711861 0.171763 0.145882
0.750392 0.180597 0.152826
0.785365 0.192979 0.160178
0.811196 0.204777 0.165442
0.050703 0.112070 0.058069
0.073722 0.118533 0.058823
0.128100 0.128502 0.063409
0.186555 0.138553 0.070100
0.249577 0.140268 0.076898
0.309348 0.144780 0.085466
0.366075 0.151110 0.094303
0.435148 0.159087 0.103937
0.507091 0.167999 0.114468
0.577142 0.177074 0.125473
0.637329 0.185599 0.135631
0.691090 0.192741 0.144680
0.735642 0.199729 0.152340
0.774761 0.207231 0.158999
0.807510 0.223428 0.166822
0.829427 0.232355 0.170808
0.052072 0.147259 0.061752
0.071504 0.153646 0.061793
0.121229 0.164244 0.065741
0.182001 0.179087 0.072178
0.244028 0.186866 0.081550
0.305344 0.184875 0.087519
0.361566 0.186663 0.095843
0.429907 0.191892 0.106085
0.506771 0.198410 0.116733
0.581169 0.205555 0.128085
0.643399 0.212476 0.138528
0.699821 0.219481 0.148261
0.749107 0.225860 0.156439
0.790701 0.235849 0.164277
0.825206 0.253790 0.173151
0.848503 0.263297 0.177280
0.053790 0.186771 0.068798
0.073303 0.192964 0.066731
0.121768 0.205451 0.070135
0.179585 0.218133 0.076179
0.245449 0.232676 0.083187
0.302913 0.235975 0.094026
0.358922 0.233154 0.099977
0.427552 0.233264 0.108618
0.503277 0.237151 0.119816
0.580589 0.242939 0.132580
0.646573 0.248072 0.143201
0.705755 0.255001 0.153516
0.758640 0.259532 0.162105
0.799602 0.269131 0.169692
0.837705 0.284722 0.178246
0.865437 0.300292 0.185558
0.058666 0.229661 0.078028
0.080142 0.235280 0.074956
0.124720 0.251278 0.076674
0.184715 0.264569 0.082744
0.249266 0.278530 0.089673
0.306087 0.284032 0.096370
0.359589 0.287381 0.107492
0.426265 0.286362 0.115120
0.503597 0.287846 0.124655
0.581352 0.291937 0.137640
0.645364 0.296333 0.149795
0.705912 0.301137 0.161077
0.761787 0.305359 0.170307
0.806336 0.309959 0.177280
0.844902 0.323075 0.185534
0.877175 0.338737 0.194254
0.067779 0.276379 0.089659
0.088777 0.280309 0.085012
0.126423 0.295705 0.084290
0.188430 0.312170 0.089944
0.250963 0.321606 0.096195
0.319421 0.335467 0.104551
0.366736 0.333548 0.110610
0.431325 0.338041 0.123231
0.506256 0.339098 0.133142
0.584354 0.341418 0.144264
0.649863 0.344755 0.156084
0.711881 0.348936 0.168473
0.767304 0.352118 0.179327
0.812479 0.356255 0.187703
0.851925 0.365854 0.195415
0.886334 0.379203 0.202520
0.078115 0.323315 0.102135
0.098391 0.325770 0.095735
0.130945 0.338167 0.092847
0.191181 0.355979 0.097695
0.256932 0.365910 0.103768
0.319057 0.376202 0.110636
0.391167 0.388448 0.119207
0.443932 0.384285 0.127307
0.513852 0.388564 0.141661
0.589941 0.390128 0.153545
0.656501 0.392870 0.164557
0.718257 0.397605 0.176363
0.776050 0.402653 0.187910
0.822969 0.409050 0.196935
0.864397 0.415143 0.204476
0.898148 0.428944 0.211267
0.090358 0.372508 0.116503
0.110436 0.374491 0.109469
0.135635 0.384454 0.101966
0.192753 0.406907 0.107358
0.267652 0.427334 0.116139
0.325404 0.435090 0.121583
0.401785 0.454199 0.130647
0.485118 0.467783 0.140179
0.533245 0.452102 0.148264
0.599933 0.456688 0.164976
0.665352 0.460158 0.177163
0.729163 0.464426 0.188617
0.786785 0.470351 0.199459
0.835733 0.477508 0.208828
0.877001 0.488315 0.216989
0.909370 0.497696 0.222515
0.104143 0.428601 0.133651
0.124228 0.430474 0.123624
0.148950 0.441156 0.114310
0.198926 0.467682 0.119353
0.280745 0.495982 0.129226
0.339132 0.506090 0.135223
0.410560 0.519169 0.142421
0.504907 0.540784 0.153065
0.582367 0.547873 0.165392
0.616595 0.525524 0.171227
0.677405 0.533735 0.188634
0.740078 0.539232 0.201713
0.798137 0.545579 0.212622
0.844776 0.551742 0.221121
0.887369 0.559234 0.229049
0.910835 0.570954 0.232588
0.118060 0.492657 0.148776
0.137716 0.494070 0.138921
0.162002 0.505046 0.127217
0.212068 0.533680 0.132137
0.297058 0.564411 0.143332
0.360895 0.580657 0.151688
0.431473 0.585403 0.156594
0.513784 0.599829 0.165110
0.603840 0.617138 0.177585
0.669657 0.621665 0.193293
0.691220 0.595578 0.194487
0.752481 0.607355 0.212756
0.807308 0.614255 0.226032
0.853822 0.620573 0.234476
0.893131 0.625799 0.240895
0.912145 0.636586 0.243462
0.131133 0.556350 0.161834
0.150990 0.558807 0.152646
0.174809 0.568001 0.140141
0.224069 0.592833 0.144514
0.310282 0.620329 0.155601
0.384915 0.639312 0.165809
0.454005 0.643691 0.170397
0.530639 0.654321 0.177833
0.615168 0.671746 0.189642
0.682878 0.677397 0.200112
0.743729 0.681135 0.218230
0.765682 0.661017 0.219383
0.816965 0.668654 0.234237
0.859928 0.673854 0.244715
0.894717 0.677723 0.249793
0.913251 0.687092 0.251808
0.141338 0.607915 0.170933
0.161209 0.610224 0.161808
0.185090 0.619011 0.151912
0.234123 0.639866 0.154448
0.315266 0.663597 0.164242
0.396896 0.682143 0.174892
0.469800 0.690266 0.180922
0.541758 0.699048 0.187589
0.618837 0.713092 0.198041
0.691455 0.726750 0.210092
0.750614 0.726893 0.222539
0.803854 0.727472 0.237111
0.825554 0.713538 0.238246
0.867707 0.717666 0.248605
0.898773 0.721379 0.253971
0.918543 0.730365 0.254898
0.149533 0.649568 0.173218
0.169111 0.651169 0.165124
0.193408 0.659505 0.159319
0.242190 0.677981 0.161677
0.315126 0.697846 0.169893
0.396051 0.715076 0.179987
0.468533 0.725045 0.186518
0.541164 0.733418 0.193112
0.616283 0.747128 0.203369
0.683562 0.761485 0.214148
0.746393 0.765284 0.222713
0.805400 0.767022 0.239143
0.850319 0.766303 0.250049
0.873361 0.755216 0.251616
0.902989 0.758576 0.256140
0.922729 0.767187 0.256977
0.155662 0.683970 0.173437
0.175612 0.686241 0.168359
0.202136 0.694420 0.164466
0.251714 0.708901 0.166056
0.317199 0.725418 0.173346
0.388875 0.740191 0.182025
0.460186 0.751121 0.188882
0.529861 0.759907 0.195226
0.602879 0.773405 0.204793
0.670609 0.787732 0.215440
0.739012 0.802351 0.227153
0.798581 0.801079 0.236552
0.849981 0.801448 0.250401
0.889572 0.799978 0.259156
0.905976 0.792525 0.258361
0.925867 0.798616 0.258335
0.167430 0.740259 0.209975
0.187249 0.742026 0.206462
0.212552 0.746166 0.199731
0.252771 0.753781 0.193911
0.308954 0.762160 0.188940
0.365079 0.770790 0.190195
0.426495 0.778660 0.193255
0.514547 0.781590 0.195331
0.583354 0.794270 0.203849
0.648976 0.808461 0.213996
0.715874 0.823409 0.224986
0.783406 0.834803 0.235976
0.839136 0.833330 0.247220
0.890287 0.833425 0.260357
0.909799 0.829515 0.260510
0.927932 0.827549 0.259779
0.051257 0.051257 0.100799
0.102557 0.057953 0.102150
0.178099 0.063578 0.112381
0.245850 0.067503 0.111420
0.299055 0.075267 0.112698
0.346847 0.083239 0.115531
0.395016 0.091141 0.119444
0.448282 0.099246 0.124848
0.505510 0.107666 0.131433
0.562328 0.115833 0.138540
0.609510 0.124757 0.145679
0.653008 0.133235 0.152483
0.692610 0.144834 0.160670
0.730626 0.158044 0.169236
0.767140 0.171119 0.176352
0.797702 0.184536 0.182100
0.050651 0.080844 0.093089
0.090911 0.091061 0.101395
0.152694 0.098152 0.103549
0.209325 0.102348 0.103752
0.270803 0.109479 0.108020
0.324278 0.116247 0.113391
0.377406 0.123678 0.119859
0.437391 0.131821 0.127346
0.502138 0.139704 0.135219
0.563436 0.148714 0.143957
0.615635 0.156757 0.151601
0.661431 0.163224 0.157868
0.700059 0.170421 0.163831
0.739620 0.179914 0.170729
0.775369 0.194810 0.178697
0.798257 0.204888 0.182983
0.050992 0.115139 0.094041
0.071686 0.121877 0.093920
0.136262 0.133852 0.097638
0.198691 0.138191 0.102274
0.260013 0.142320 0.107183
0.317212 0.148292 0.113056
0.373224 0.154317 0.119370
0.438188 0.161915 0.127554
0.508257 0.170451 0.136813
0.574526 0.178958 0.146364
0.630641 0.186345 0.155031
0.680463 0.192862 0.162643
0.722962 0.198952 0.169325
0.761639 0.206475 0.175595
0.795537 0.223462 0.183803
0.820460 0.236922 0.189695
0.052372 0.151102 0.097270
0.070932 0.156323 0.092938
0.124040 0.170444 0.095709
0.192211 0.185467 0.099115
0.255569 0.186636 0.105285
0.315010 0.185137 0.111833
0.372198 0.187730 0.120005
0.440493 0.193599 0.129459
0.516682 0.200507 0.139476
0.586820 0.207510 0.149618
0.644963 0.214290 0.158921
0.698511 0.220600 0.167488
0.745145 0.227499 0.175143
0.784761 0.236929 0.182151
0.818140 0.254432 0.190545
0.842618 0.269556 0.196837
0.054049 0.189924 0.102074
0.072630 0.194566 0.095676
0.119629 0.209094 0.096437
0.184178 0.224153 0.101070
0.254531 0.239360 0.106341
0.312058 0.238971 0.116026
0.370675 0.234075 0.121459
0.438863 0.235627 0.131109
0.516555 0.238868 0.142735
0.590558 0.244828 0.154097
0.652803 0.251374 0.164447
0.709445 0.257322 0.173827
0.758923 0.262691 0.181572
0.799003 0.271270 0.188656
0.834594 0.287333 0.197333
0.858051 0.302089 0.203626
0.059452 0.232485 0.108631
0.079580 0.239216 0.102694
0.118510 0.252792 0.101125
0.187114 0.269222 0.105259
0.254020 0.283811 0.111842
0.314879 0.290729 0.118108
0.370076 0.291553 0.128906
0.438988 0.289529 0.136130
0.517951 0.290735 0.146425
0.591254 0.295108 0.159253
0.653225 0.297702 0.170558
0.713004 0.301836 0.181263
0.766445 0.305071 0.189322
0.809743 0.309033 0.196019
0.846317 0.324097 0.204593
0.869524 0.335919 0.210523
0.067392 0.277628 0.116969
0.089870 0.287314 0.112066
0.122259 0.299409 0.107424
0.188771 0.314976 0.111153
0.254285 0.326154 0.117737
0.324359 0.340035 0.125459
0.378305 0.339376 0.132280
0.442965 0.342201 0.144599
0.520313 0.342497 0.154428
0.594677 0.343941 0.165193
0.658885 0.347154 0.176972
0.719611 0.350783 0.189052
0.772363 0.352139 0.198886
0.815698 0.356766 0.206843
0.853840 0.366007 0.214266
0.878102 0.373139 0.217748
0.077116 0.323490 0.126793
0.101634 0.336197 0.123098
0.131342 0.347648 0.116982
0.192539 0.361544 0.118749
0.259175 0.370444 0.124151
0.322132 0.381236 0.131052
0.397813 0.394608 0.139715
0.456416 0.391853 0.148979
0.526858 0.394475 0.163642
0.600044 0.394840 0.174854
0.664892 0.397610 0.185744
0.726910 0.401175 0.197465
0.782370 0.404897 0.208173
0.827533 0.408538 0.216238
0.866219 0.413515 0.222847
0.895084 0.423443 0.227772
0.088902 0.370820 0.139396
0.115658 0.389538 0.137740
0.141988 0.402086 0.127300
0.199053 0.423965 0.130888
0.269445 0.434094 0.136530
0.328095 0.442471 0.142127
0.405462 0.460849 0.150756
0.491785 0.474382 0.160369
0.546244 0.461221 0.170315
0.609345 0.464958 0.186704
0.673250 0.466846 0.198424
0.736651 0.470204 0.209570
0.794213 0.474695 0.220293
0.841811 0.479307 0.228940
0.881237 0.486930 0.236074
0.909287 0.493183 0.239888
0.102630 0.425606 0.155753
0.130294 0.451675 0.152891
0.155506 0.463977 0.140253
0.212352 0.494058 0.144751
0.289419 0.512033 0.152079
0.342891 0.514720 0.155878
0.414333 0.526206 0.162689
0.509622 0.546516 0.173080
0.588206 0.552940 0.185882
0.626911 0.535010 0.193515
0.685493 0.541867 0.210302
0.747365 0.545915 0.222914
0.804494 0.550973 0.233382
0.851461 0.555326 0.241672
0.892042 0.563802 0.249235
0.910705 0.568168 0.250156
0.116561 0.488902 0.170398
0.144095 0.517635 0.166755
0.169292 0.530230 0.153497
0.225100 0.560105 0.158365
0.312815 0.587400 0.169428
0.368538 0.589610 0.173033
0.436475 0.592943 0.177295
0.518675 0.605224 0.185255
0.608178 0.621744 0.197544
0.674522 0.626076 0.213502
0.700784 0.604589 0.216821
0.760348 0.614316 0.234374
0.813961 0.620401 0.247319
0.860475 0.624850 0.255285
0.893894 0.632044 0.260642
0.912117 0.634743 0.261118
0.129488 0.551793 0.182186
0.156074 0.576653 0.178561
0.180876 0.587273 0.165427
0.235652 0.612210 0.169467
0.325833 0.639242 0.181058
0.402442 0.651712 0.189188
0.464095 0.651989 0.191893
0.536637 0.659830 0.198237
0.618418 0.675611 0.209473
0.686420 0.680528 0.219779
0.748250 0.684629 0.238488
0.773765 0.667504 0.241240
0.824056 0.674529 0.255144
0.867662 0.678859 0.266078
0.895155 0.685817 0.269731
0.913311 0.687481 0.269992
0.139882 0.603868 0.190385
0.165508 0.623760 0.185588
0.190014 0.632655 0.175060
0.243871 0.653928 0.177983
0.327138 0.677501 0.188045
0.419745 0.695682 0.199032
0.483408 0.698056 0.202554
0.549603 0.704475 0.208240
0.621291 0.716690 0.217727
0.693872 0.730464 0.229851
0.753051 0.729414 0.241761
0.808980 0.730985 0.257900
0.832972 0.718663 0.259842
0.875464 0.722678 0.270487
0.900436 0.729510 0.272931
0.918977 0.731982 0.273101
0.148401 0.647273 0.194700
0.172198 0.660227 0.186783
0.198145 0.668907 0.180686
0.251786 0.686822 0.182932
0.325567 0.706597 0.191920
0.415584 0.724029 0.202374
0.484570 0.732059 0.208099
0.549915 0.739360 0.214056
0.618566 0.750622 0.223005
0.684696 0.764332 0.233462
0.748533 0.768231 0.242110
0.809800 0.770097 0.258999
0.857321 0.770586 0.271077
0.881649 0.760428 0.273359
0.904681 0.767372 0.275275
0.923293 0.769754 0.275409
0.154366 0.681216 0.193288
0.179235 0.696481 0.192336
0.208366 0.704383 0.187046
0.261107 0.717612 0.188017
0.328457 0.733023 0.195014
0.403979 0.747245 0.203466
0.477900 0.758002 0.210437
0.539838 0.765512 0.216168
0.605042 0.776190 0.224191
0.671163 0.789302 0.234250
0.739635 0.804217 0.245977
0.801083 0.803532 0.255886
0.854240 0.804334 0.270480
0.890077 0.802536 0.277638
0.907697 0.799365 0.276829
0.926025 0.800703 0.276869
0.162634 0.724265 0.208579
0.183318 0.721049 0.193941
0.218494 0.730073 0.188889
0.274539 0.742469 0.191250
0.337770 0.755915 0.197424
0.407328 0.767947 0.204676
0.481112 0.778791 0.211547
0.537972 0.786391 0.217030
0.595461 0.795331 0.223646
0.656504 0.806820 0.232316
0.718629 0.819922 0.242327
0.778518 0.827035 0.251078
0.833991 0.826806 0.262565
0.882676 0.828104 0.275061
0.909828 0.829349 0.278529
0.927941 0.829111 0.278293
0.054328 0.054328 0.157140
0.112002 0.062777 0.156860
0.180993 0.069436 0.169720
0.261054 0.078578 0.182595
0.321497 0.081929 0.176026
0.380533 0.085306 0.167228
0.433773 0.092795 0.163944
0.482751 0.101351 0.163813
0.532543 0.109865 0.165894
0.580857 0.118226 0.169569
0.622568 0.125645 0.172891
0.659806 0.132024 0.176285
0.692115 0.137564 0.178888
0.725266 0.146645 0.184263
0.759517 0.163584 0.194156
0.789376 0.188238 0.203028
0.052916 0.088029 0.139478
0.090914 0.093007 0.151679
0.159016 0.101625 0.157231
0.233316 0.105685 0.160172
0.291910 0.105474 0.150457
0.343089 0.110616 0.147765
0.397044 0.117066 0.149545
0.455088 0.124434 0.153564
0.516102 0.132313 0.159221
0.571814 0.139879 0.164908
0.619318 0.146954 0.170518
0.660281 0.153273 0.175582
0.694830 0.159676 0.179795
0.730906 0.173243 0.188352
0.765382 0.196403 0.199514
0.788112 0.207414 0.204723
0.052552 0.119113 0.134974
0.072567 0.124756 0.140253
0.140868 0.135258 0.148911
0.208247 0.140385 0.147890
0.262374 0.140463 0.141834
0.317756 0.146099 0.143805
0.372318 0.152293 0.147932
0.434736 0.159881 0.154128
0.503596 0.168092 0.161554
0.567191 0.176299 0.169337
0.620637 0.183057 0.176207
0.665455 0.189307 0.182398
0.703944 0.195540 0.187433
0.740142 0.206799 0.193850
0.769373 0.224168 0.202036
0.796849 0.241814 0.210331
0.053024 0.157417 0.139601
0.071248 0.159755 0.137128
0.117077 0.170251 0.138423
0.194483 0.185626 0.138399
0.257510 0.184923 0.144171
0.313724 0.187719 0.147415
0.368490 0.192151 0.151305
0.433474 0.197593 0.156889
0.506123 0.204316 0.164202
0.575019 0.211702 0.172438
0.632286 0.219420 0.180577
0.681990 0.226490 0.187822
0.724182 0.233092 0.194033
0.760696 0.240529 0.199382
0.788989 0.258005 0.207572
0.815643 0.276332 0.216393
0.055516 0.200301 0.145552
0.073264 0.198603 0.137354
0.103372 0.205682 0.132257
0.179189 0.224798 0.133342
0.254396 0.240556 0.134551
0.313642 0.235422 0.141703
0.370713 0.233270 0.149019
0.437397 0.236034 0.157215
0.513514 0.242423 0.166875
0.585750 0.249484 0.176840
0.647190 0.256984 0.186100
0.700793 0.263549 0.194391
0.747415 0.269297 0.201470
0.785642 0.275326 0.207188
0.810915 0.291543 0.214447
0.833852 0.308700 0.222993
0.062917 0.244771 0.151870
0.080253 0.241822 0.142180
0.103941 0.247030 0.133565
0.174790 0.266662 0.133880
0.244532 0.282280 0.138017
0.314588 0.293451 0.141607
0.370399 0.292281 0.151349
0.439789 0.289101 0.157815
0.516230 0.292184 0.169010
0.590203 0.294420 0.180324
0.653007 0.298604 0.191233
0.711383 0.302873 0.200937
0.763010 0.306838 0.208673
0.802679 0.310719 0.214338
0.826935 0.325623 0.221681
0.849395 0.341467 0.229935
0.071104 0.289498 0.159047
0.088079 0.285803 0.148596
0.109537 0.291600 0.137558
0.173418 0.310753 0.137432
0.244930 0.324118 0.141515
0.315436 0.337712 0.146836
0.378253 0.342606 0.152752
0.443182 0.344032 0.164272
0.520076 0.343171 0.173602
0.594018 0.345487 0.184967
0.657855 0.348228 0.196488
0.718924 0.349580 0.207773
0.771229 0.351193 0.217271
0.812765 0.354623 0.224409
0.839900 0.362009 0.229715
0.871055 0.373104 0.236115
0.080054 0.333814 0.168226
0.097181 0.330762 0.157506
0.121349 0.338683 0.145556
0.173315 0.354266 0.142342
0.249514 0.367416 0.146449
0.313575 0.378753 0.152266
0.390403 0.395155 0.159564
0.456927 0.394622 0.167771
0.527041 0.396624 0.182197
0.598908 0.396786 0.193414
0.663678 0.398586 0.203982
0.726461 0.401809 0.215769
0.781782 0.402864 0.225962
0.825443 0.402901 0.233071
0.859560 0.406585 0.238599
0.891847 0.419384 0.245505
0.091091 0.381080 0.179794
0.108867 0.377441 0.168002
0.134518 0.390599 0.154894
0.183235 0.411641 0.151492
0.258439 0.428424 0.155409
0.318123 0.438051 0.160703
0.389749 0.454651 0.168235
0.482715 0.471940 0.177239
0.545732 0.462848 0.188491
0.606965 0.464428 0.203926
0.669955 0.465911 0.215611
0.733754 0.470539 0.227080
0.793001 0.473485 0.237935
0.843254 0.477372 0.247262
0.880125 0.478367 0.252783
0.908708 0.485474 0.257229
0.104720 0.436419 0.192919
0.122476 0.432170 0.180865
0.150277 0.454621 0.166480
0.196809 0.481281 0.162415
0.277778 0.504426 0.168629
0.333731 0.510970 0.173348
0.399318 0.521412 0.179621
0.492266 0.539698 0.188380
0.578882 0.548345 0.200707
0.625617 0.535110 0.211087
0.681525 0.540064 0.226738
0.742278 0.542712 0.239192
0.801389 0.548319 0.250242
0.857656 0.558453 0.262057
0.892383 0.559679 0.266736
0.910612 0.562344 0.267241
0.118206 0.498553 0.203796
0.136176 0.494917 0.192968
0.165458 0.524372 0.178673
0.214662 0.554314 0.176344
0.302572 0.580797 0.185072
0.361405 0.587542 0.190301
0.422194 0.589857 0.194130
0.500470 0.599567 0.200675
0.599245 0.620125 0.214036
0.665564 0.621118 0.227880
0.698746 0.603730 0.233507
0.754659 0.611632 0.250365
0.809812 0.616651 0.263542
0.869116 0.630932 0.277002
0.893800 0.629526 0.278097
0.912000 0.630245 0.278123
0.130405 0.558120 0.213014
0.148811 0.555916 0.201771
0.179045 0.586259 0.188919
0.229413 0.611647 0.188654
0.321110 0.638677 0.198717
0.400634 0.651997 0.207368
0.458086 0.652520 0.209994
0.522269 0.656868 0.214424
0.604606 0.671731 0.224866
0.678921 0.679410 0.235334
0.740450 0.681473 0.253195
0.771535 0.667708 0.258075
0.822219 0.674376 0.272492
0.875116 0.686779 0.287814
0.895154 0.685946 0.287854
0.913243 0.686142 0.287764
0.140161 0.606940 0.217052
0.159189 0.607408 0.208473
0.189408 0.633913 0.197414
0.240814 0.655612 0.197686
0.326568 0.679980 0.207182
0.423038 0.697484 0.218030
0.489834 0.702573 0.222652
0.546685 0.706533 0.226867
0.613235 0.716025 0.234846
0.687600 0.730734 0.247062
0.747575 0.729071 0.257195
0.804759 0.730836 0.273936
0.832853 0.719753 0.277860
0.881891 0.730740 0.291451
0.900856 0.731989 0.291385
0.918985 0.732504 0.291401
0.148610 0.649498 0.219529
0.167774 0.650382 0.211490
0.197444 0.670457 0.201857
0.251460 0.689228 0.202730
0.327374 0.709218 0.211254
0.422991 0.727298 0.222112
0.500855 0.738569 0.229650
0.558066 0.744786 0.234910
0.615177 0.751868 0.241281
0.679706 0.763750 0.250902
0.743976 0.768827 0.259757
0.805279 0.769699 0.275366
0.855665 0.771147 0.288745
0.886645 0.768257 0.293850
0.905233 0.770123 0.293684
0.923731 0.772112 0.293838
0.154457 0.682902 0.217128
0.173685 0.683807 0.210189
0.207641 0.700665 0.205897
0.266432 0.716991 0.206846
0.336728 0.734217 0.214567
0.422569 0.749484 0.223725
0.504363 0.762784 0.232266
0.559721 0.769914 0.237801
0.608286 0.775935 0.242935
0.662915 0.784284 0.250098
0.723989 0.795803 0.259487
0.783322 0.797410 0.267321
0.839252 0.798546 0.282508
0.890475 0.803825 0.295737
0.907947 0.801950 0.295456
0.926833 0.803746 0.295203
0.162187 0.723656 0.228894
0.177454 0.710431 0.211831
0.222048 0.730328 0.210103
0.281924 0.744379 0.211621
0.347777 0.759272 0.218591
0.428293 0.772455 0.226221
0.508245 0.785846 0.234606
0.561299 0.793563 0.240359
0.605035 0.799263 0.244997
0.656003 0.809049 0.251838
0.716339 0.821554 0.261395
0.777857 0.831769 0.270930
0.834093 0.830641 0.281119
0.885680 0.831865 0.294491
0.910769 0.833613 0.297015
0.928036 0.830768 0.296838
0.057167 0.057167 0.210743
0.117959 0.065368 0.212956
0.178929 0.073250 0.216936
0.250334 0.084104 0.232938
0.327616 0.096224 0.249038
0.393635 0.098539 0.244298
0.453941 0.100367 0.235188
0.507137 0.103159 0.224145
0.556199 0.109966 0.213664
0.598757 0.118302 0.208455
0.636397 0.127086 0.206711
0.671062 0.133651 0.206498
0.700582 0.139419 0.207087
0.729488 0.145775 0.208161
0.758545 0.153318 0.211329
0.784864 0.173145 0.218895
0.055464 0.093640 0.189423
0.090431 0.093901 0.207852
0.156671 0.104015 0.210158
0.229748 0.110884 0.221355
0.300537 0.118593 0.227718
0.362901 0.118536 0.216182
0.426454 0.120229 0.206299
0.484496 0.126168 0.200788
0.540469 0.134213 0.198605
0.589947 0.142160 0.199422
0.632962 0.149319 0.201974
0.670527 0.155233 0.204155
0.701712 0.160113 0.205573
0.731594 0.166458 0.207953
0.762502 0.175902 0.212847
0.785020 0.182719 0.217063
0.055129 0.129393 0.185271
0.073952 0.129191 0.189548
0.134114 0.134272 0.204437
0.208903 0.145296 0.210585
0.283274 0.149040 0.209233
0.336715 0.145505 0.192375
0.390465 0.148559 0.186552
0.449751 0.153879 0.186361
0.514677 0.160185 0.188473
0.574215 0.166479 0.192109
0.624320 0.172451 0.196273
0.666724 0.178032 0.200603
0.701929 0.182938 0.203825
0.735102 0.192272 0.209337
0.763328 0.210110 0.218469
0.790459 0.234080 0.229863
0.055097 0.163857 0.184659
0.073434 0.165865 0.187374
0.115741 0.173137 0.194959
0.188965 0.184071 0.204730
0.264544 0.190348 0.201657
0.312268 0.185099 0.187347
0.364006 0.186699 0.184482
0.425938 0.192777 0.187219
0.499440 0.201199 0.192859
0.568507 0.211129 0.199751
0.625499 0.219329 0.205870
0.673404 0.226593 0.211564
0.711726 0.234764 0.216703
0.741974 0.253088 0.225992
0.772848 0.273736 0.238323
0.803512 0.292459 0.252244
0.057851 0.208447 0.192576
0.075845 0.208194 0.190054
0.095615 0.210908 0.187903
0.157541 0.225259 0.189949
0.248912 0.242435 0.183242
0.310332 0.239681 0.192471
0.362006 0.241152 0.192906
0.423954 0.246206 0.195139
0.498154 0.254008 0.200442
0.570391 0.261847 0.206805
0.631972 0.268033 0.212659
0.684540 0.273897 0.218886
0.728339 0.279321 0.224176
0.757887 0.294741 0.233021
0.786761 0.310226 0.243454
0.817179 0.323935 0.254571
0.066309 0.256446 0.201645
0.083944 0.254772 0.195179
0.101551 0.252926 0.185218
0.142164 0.262054 0.179561
0.228356 0.282172 0.176665
0.307834 0.295649 0.174233
0.365968 0.292138 0.182214
0.432161 0.291165 0.190526
0.509764 0.295585 0.199566
0.583972 0.301134 0.207756
0.646267 0.306553 0.216159
0.702482 0.312349 0.224937
0.751297 0.317319 0.231820
0.778773 0.330104 0.239826
0.807056 0.341758 0.247131
0.838982 0.350590 0.253103
0.075285 0.302303 0.209847
0.092719 0.300118 0.201565
0.108812 0.293933 0.185652
0.142151 0.302946 0.177776
0.222535 0.321668 0.176057
0.299070 0.336099 0.177905
0.369287 0.347131 0.178961
0.440391 0.349158 0.189844
0.516406 0.346318 0.198940
0.589998 0.349984 0.210567
0.655802 0.350013 0.219722
0.717062 0.352444 0.229789
0.767698 0.355237 0.238564
0.800073 0.362674 0.245124
0.831965 0.369238 0.250796
0.862266 0.379368 0.256932
0.084549 0.346243 0.219146
0.101806 0.343796 0.210023
0.117515 0.337075 0.190672
0.144067 0.344279 0.177627
0.222345 0.363008 0.178134
0.297413 0.376491 0.180691
0.368050 0.391909 0.185094
0.450211 0.401496 0.189651
