example_ofxGpuLutCube/bin/data/ofxGpuLutCube/LUT/C15 (teal orange).cube
LUT_3D_SIZE 6
0.043208 0.061378 0.070115
0.125396 0.091051 0.078518
0.287989 0.124431 0.074597
0.477410 0.160452 0.105927
0.671827 0.194169 0.152987
0.848310 0.244827 0.174387
0.043200 0.149117 0.066814
0.138362 0.152689 0.076374
0.338531 0.167973 0.054612
0.531831 0.209754 0.088710
0.724687 0.261617 0.116435
0.887814 0.313062 0.134324
0.043200 0.252910 0.062146
0.155590 0.286900 0.050969
0.402602 0.264182 0.049596
0.647972 0.280173 0.076379
0.824085 0.350060 0.085583
0.946819 0.428367 0.066432
0.043200 0.351196 0.061624
0.212843 0.396409 0.046530
0.480644 0.442060 0.043932
0.706173 0.458562 0.050559
0.874797 0.450455 0.045914
0.952900 0.504619 0.043200
0.075218 0.446183 0.084958
0.257628 0.484929 0.086996
0.505730 0.560884 0.052274
0.719074 0.665740 0.045271
0.883840 0.696808 0.044557
0.946268 0.628371 0.049866
0.048331 0.719340 0.047636
0.225753 0.760829 0.050855
0.516521 0.808782 0.043370
0.712267 0.839179 0.044685
0.860537 0.862346 0.044722
0.951200 0.857487 0.044900
0.043215 0.105240 0.126061
0.171894 0.116417 0.143164
0.344294 0.133843 0.123853
0.518026 0.159769 0.124071
0.688620 0.196023 0.159566
0.848234 0.239179 0.181390
0.043372 0.151116 0.154641
0.121151 0.169033 0.176177
0.339227 0.186079 0.139861
0.542653 0.182582 0.111952
0.707487 0.222917 0.138891
0.877336 0.283275 0.152292
0.043200 0.282015 0.155416
0.065749 0.312239 0.104621
0.403769 0.296140 0.119749
0.642952 0.302951 0.053801
0.800796 0.365997 0.062558
0.930970 0.449026 0.044615
0.043200 0.336022 0.141354
0.133729 0.414758 0.075752
0.459885 0.459929 0.110342
0.706158 0.486155 0.047398
0.875675 0.467099 0.044949
0.952900 0.529897 0.043200
0.043200 0.383045 0.183321
0.196865 0.492486 0.110680
0.482261 0.554757 0.129316
0.715911 0.680405 0.044697
0.883103 0.695547 0.044519
0.944788 0.632722 0.051363
0.049399 0.735226 0.048578
0.155420 0.766721 0.049647
0.480770 0.817763 0.043369
0.700917 0.855050 0.044685
0.860138 0.876080 0.044714
0.951200 0.868162 0.044900
0.043485 0.170497 0.206739
0.117137 0.173663 0.218747
0.411980 0.194994 0.205685
0.615362 0.203488 0.185135
0.767359 0.238600 0.197347
0.898655 0.276464 0.199135
0.043485 0.185104 0.215912
0.073667 0.219099 0.259088
0.405681 0.229619 0.245720
0.618772 0.227305 0.214067
0.770208 0.255252 0.215690
0.898214 0.295675 0.214846
0.043599 0.285401 0.287137
0.043677 0.328786 0.324066
0.307557 0.364791 0.368419
0.600042 0.374827 0.338736
0.776457 0.377090 0.299548
0.923565 0.422003 0.273065
0.044037 0.492595 0.402058
0.043289 0.462437 0.342687
0.317662 0.497938 0.261030
0.674038 0.533820 0.247578
0.845134 0.527225 0.233501
0.952873 0.585527 0.236052
0.043303 0.515068 0.374052
0.043245 0.474485 0.329626
0.392585 0.581123 0.240734
0.677143 0.688243 0.255592
0.874681 0.706239 0.122230
0.950973 0.654159 0.191358
0.043200 0.756016 0.320390
0.043200 0.759464 0.208219
0.346284 0.923332 0.082461
0.664567 0.900408 0.182821
0.848970 0.895195 0.236512
0.951538 0.883292 0.241948
0.043585 0.241048 0.291658
0.096277 0.236087 0.285899
0.360950 0.268620 0.296088
0.673882 0.263874 0.217761
0.799078 0.285850 0.218830
0.893185 0.348328 0.297850
0.043653 0.250331 0.300206
0.047848 0.274297 0.334572
0.332798 0.275429 0.353845
0.666206 0.286479 0.258448
0.795713 0.310410 0.266627
0.886599 0.376132 0.351869
0.043684 0.305054 0.348668
0.043856 0.349139 0.399316
0.219525 0.388131 0.466853
0.638112 0.396854 0.414029
0.786266 0.420057 0.427648
0.889218 0.455355 0.445349
0.043939 0.437662 0.455336
0.044011 0.480529 0.488697
0.135710 0.541262 0.557957
0.603701 0.585902 0.580750
0.798658 0.610399 0.577227
0.924202 0.618450 0.551806
0.044305 0.643716 0.592729
0.044369 0.679867 0.620060
0.046808 0.646421 0.552037
0.606655 0.701228 0.490995
0.848129 0.744335 0.446314
0.952900 0.731282 0.487588
0.043401 0.851456 0.661513
0.043377 0.846225 0.543289
0.043200 0.845652 0.449854
0.567647 0.938949 0.365432
0.821027 0.910596 0.468841
0.951553 0.899860 0.453156
0.043764 0.306662 0.374124
0.070522 0.303353 0.360773
0.275422 0.317665 0.378710
0.617481 0.340998 0.325915
0.818647 0.364955 0.362240
0.879105 0.415521 0.437824
0.043804 0.316779 0.388838
0.043856 0.332638 0.415718
0.210734 0.330691 0.410159
0.595330 0.370038 0.398831
0.810871 0.391226 0.431005
0.881615 0.443404 0.494816
0.043871 0.361775 0.434841
0.043963 0.394392 0.478486
0.152169 0.420612 0.543915
0.587484 0.419399 0.564296
0.817694 0.460548 0.563920
0.894948 0.519283 0.603054
0.044131 0.447964 0.529396
0.044212 0.494473 0.581185
0.096428 0.528875 0.630274
0.494274 0.579317 0.706115
0.823241 0.599014 0.693059
0.906077 0.645913 0.704267
0.044356 0.593659 0.655261
0.044366 0.624078 0.676798
0.044456 0.664408 0.717508
0.393364 0.723113 0.766164
0.807522 0.780892 0.763872
0.933037 0.791261 0.763186
0.044570 0.773930 0.791456
0.044665 0.823788 0.807147
0.044821 0.877639 0.823515
0.247910 0.923393 0.741287
0.777040 0.942711 0.658466
0.952045 0.922086 0.679489
0.044040 0.391656 0.483204
0.043956 0.387152 0.460719
0.208261 0.387833 0.438287
0.590268 0.429700 0.508117
0.793360 0.458205 0.570565
0.919188 0.510005 0.687903
0.044041 0.402540 0.511873
0.043630 0.413543 0.533928
0.170407 0.411123 0.511438
0.542765 0.413178 0.583802
0.805849 0.453603 0.629375
0.928925 0.517752 0.728154
0.044141 0.432263 0.545500
0.044234 0.454899 0.581222
0.059834 0.475098 0.636155
0.378523 0.448135 0.675131
0.794708 0.486431 0.745649
0.939989 0.553692 0.790724
0.044330 0.511086 0.638179
0.044341 0.549406 0.683478
0.044441 0.561719 0.706727
0.352546 0.595684 0.787549
0.753374 0.592160 0.810571
0.944768 0.636967 0.841292
0.044455 0.599565 0.728931
0.044541 0.632506 0.761808
0.044556 0.650183 0.781416
0.323416 0.680341 0.815284
0.762546 0.761207 0.849958
0.943596 0.766450 0.874994
0.044656 0.718975 0.826285
0.044656 0.750285 0.845436
0.044669 0.779411 0.861921
0.229353 0.817189 0.884205
0.693716 0.878052 0.898467
0.945218 0.941400 0.896101
