example_ofxGpuLutCube/bin/data/ofxGpuLutCube/LUT/C15 (teal orange).cube
LUT_3D_SIZE 16
0.043208 0.061378 0.070115
0.050304 0.068193 0.073182
0.083501 0.077406 0.076263
0.125396 0.091051 0.078518
0.174059 0.103683 0.078240
0.228710 0.113953 0.075920
0.287989 0.124431 0.074597
0.343439 0.140540 0.078741
0.409354 0.150554 0.091036
0.477410 0.160452 0.105927
0.546032 0.170293 0.123805
0.610042 0.180977 0.139827
0.671827 0.194169 0.152987
0.733148 0.209787 0.162573
0.792105 0.226547 0.169829
0.848310 0.244827 0.174387
0.043202 0.082710 0.070947
0.049742 0.083216 0.075083
0.087216 0.086376 0.073365
0.127632 0.099259 0.076630
0.177910 0.108678 0.077411
0.234942 0.115425 0.075537
0.293121 0.125146 0.075510
0.350273 0.138657 0.081952
0.415622 0.150515 0.093001
0.482837 0.162375 0.106311
0.550644 0.173170 0.122717
0.614892 0.186093 0.136151
0.677445 0.200659 0.147306
0.738656 0.216200 0.157127
0.797633 0.233798 0.164015
0.853453 0.252948 0.168416
0.043203 0.114189 0.070221
0.047016 0.122680 0.069418
0.080790 0.118394 0.074691
0.141418 0.110538 0.068286
0.194646 0.123604 0.066059
0.250430 0.137876 0.063416
0.311583 0.150312 0.063355
0.370042 0.163318 0.069862
0.436871 0.172989 0.083484
0.503766 0.182752 0.098294
0.570152 0.193064 0.113406
0.633330 0.205538 0.126036
0.694575 0.219925 0.136490
0.754270 0.235929 0.145307
0.811141 0.253336 0.151923
0.865468 0.272912 0.156094
0.043200 0.149117 0.066814
0.044516 0.163625 0.058839
0.083244 0.162038 0.067254
0.138362 0.152689 0.076374
0.208599 0.140016 0.061507
0.278512 0.151889 0.048491
0.338531 0.167973 0.054612
0.402481 0.183050 0.064490
0.466118 0.196870 0.075603
0.531831 0.209754 0.088710
0.597904 0.226462 0.098956
0.662313 0.244369 0.107800
0.724687 0.261617 0.116435
0.783223 0.277870 0.124459
0.837361 0.294692 0.130526
0.887814 0.313062 0.134324
0.043200 0.185944 0.064805
0.043214 0.200111 0.055004
0.079226 0.206793 0.056220
0.144410 0.193893 0.083581
0.215726 0.185804 0.066984
0.290318 0.172694 0.049260
0.365647 0.183707 0.049760
0.443371 0.199135 0.065868
0.512385 0.214498 0.078622
0.578574 0.231865 0.088659
0.640517 0.250643 0.096157
0.700587 0.270955 0.101720
0.760214 0.294678 0.104872
0.816527 0.321553 0.104557
0.868314 0.348824 0.102202
0.906853 0.367504 0.101573
0.043200 0.218647 0.064257
0.043200 0.231968 0.053616
0.075986 0.247306 0.046085
0.149129 0.237957 0.070261
0.232850 0.232297 0.069906
0.298659 0.214616 0.069091
0.380597 0.207393 0.044217
0.466432 0.217774 0.059217
0.551063 0.235399 0.076482
0.623697 0.256290 0.086254
0.682540 0.275816 0.092294
0.738047 0.296816 0.095798
0.792996 0.321321 0.096708
0.848083 0.349626 0.094543
0.899173 0.381944 0.087617
0.925350 0.399370 0.083294
0.043200 0.252910 0.062146
0.043200 0.261727 0.053263
0.078109 0.277290 0.045353
0.155590 0.286900 0.050969
0.236451 0.275531 0.077959
0.324943 0.283661 0.046062
0.402602 0.264182 0.049596
0.492729 0.257094 0.047252
0.576008 0.263689 0.062483
0.647972 0.280173 0.076379
0.712850 0.301201 0.083491
0.772687 0.324509 0.086983
0.824085 0.350060 0.085583
0.875027 0.380076 0.080019
0.925019 0.412931 0.071525
0.946819 0.428367 0.066432
0.043200 0.284668 0.063517
0.043200 0.291295 0.055267
0.087825 0.309943 0.044066
0.170811 0.326756 0.045853
0.254704 0.318771 0.073254
0.352341 0.334581 0.047121
0.439005 0.348966 0.043797
0.522369 0.320520 0.048751
0.602220 0.314259 0.049343
0.670763 0.316024 0.054158
0.733803 0.332195 0.065390
0.791952 0.351788 0.071653
0.847764 0.379582 0.069837
0.899933 0.410693 0.063163
0.946450 0.444394 0.050685
0.952870 0.457362 0.043343
0.043200 0.312500 0.070699
0.044595 0.328249 0.050414
0.105391 0.345124 0.043200
0.190902 0.363498 0.045151
0.277188 0.361256 0.066865
0.363346 0.377365 0.054486
0.465717 0.393964 0.043807
0.549953 0.417446 0.044426
0.626219 0.384666 0.049961
0.692613 0.377796 0.049195
0.751909 0.375996 0.049570
0.808436 0.388685 0.049142
0.862921 0.410171 0.049269
0.914717 0.439696 0.045539
0.952873 0.474827 0.043200
0.952900 0.482704 0.043200
0.043200 0.351196 0.061624
0.060713 0.364926 0.045439
0.126046 0.379595 0.043200
0.212843 0.396409 0.046530
0.297344 0.398808 0.063621
0.377053 0.414068 0.063531
0.480644 0.442060 0.043932
0.559031 0.461547 0.044001
0.635799 0.492853 0.044138
0.706173 0.458562 0.050559
0.769680 0.447965 0.046935
0.823042 0.443199 0.046893
0.874797 0.450455 0.045914
0.925745 0.473714 0.043467
0.952900 0.501316 0.043200
0.952900 0.504619 0.043200
0.043200 0.393632 0.057055
0.067308 0.405569 0.044989
0.135966 0.422078 0.043200
0.227006 0.430526 0.056148
0.312344 0.436268 0.069847
0.390782 0.451279 0.065717
0.479989 0.481257 0.044391
0.575886 0.512949 0.044106
0.635717 0.536183 0.044138
0.706325 0.574082 0.044223
0.775012 0.541062 0.046780
0.832212 0.520997 0.046780
0.885387 0.511964 0.043200
0.933229 0.514084 0.043200
0.952900 0.533777 0.043200
0.952900 0.532935 0.043200
0.052151 0.426764 0.065787
0.078911 0.433670 0.058746
0.149507 0.451911 0.055837
0.241318 0.459640 0.069911
0.326982 0.470763 0.078802
0.404716 0.485424 0.075236
0.489053 0.519439 0.047273
0.577454 0.554826 0.044812
0.653860 0.586845 0.044545
0.702682 0.612529 0.044661
0.766746 0.655494 0.044871
0.830879 0.621624 0.044612
0.887744 0.591945 0.049709
0.936246 0.577901 0.045536
0.952610 0.573906 0.043507
0.952610 0.571520 0.043507
0.075218 0.446183 0.084958
0.100104 0.455270 0.077905
0.169696 0.475197 0.074472
0.257628 0.484929 0.086996
0.343781 0.501056 0.092635
0.424317 0.522218 0.086299
0.505730 0.560884 0.052274
0.579362 0.595632 0.044346
0.653187 0.632031 0.044745
0.719074 0.665740 0.045271
0.759597 0.688098 0.045365
0.819935 0.732474 0.045529
0.883840 0.696808 0.044557
0.938023 0.658760 0.049208
0.945398 0.637240 0.050787
0.946268 0.628371 0.049866
0.076619 0.503990 0.076944
0.104448 0.518500 0.069094
0.167157 0.550516 0.053951
0.254967 0.569908 0.052009
0.341454 0.581919 0.047860
0.424549 0.608633 0.043318
0.510493 0.648265 0.043423
0.583857 0.678474 0.044385
0.649482 0.706198 0.044445
0.706952 0.727039 0.044514
0.766873 0.749965 0.044575
0.811149 0.765061 0.044690
0.871467 0.800787 0.044916
0.930635 0.762008 0.045707
0.951331 0.715624 0.044776
0.950837 0.703523 0.045263
0.048749 0.585965 0.043200
0.097631 0.594586 0.043200
0.171151 0.617046 0.043603
0.250107 0.642116 0.047279
0.331678 0.672274 0.049315
0.422758 0.708943 0.044346
0.512503 0.742885 0.043355
0.589895 0.769083 0.043377
0.653395 0.786488 0.044585
0.708946 0.801851 0.044600
0.762271 0.817550 0.044600
0.811710 0.824565 0.044683
0.856848 0.832806 0.044727
0.915554 0.859964 0.044866
0.950324 0.808145 0.045775
0.950267 0.777775 0.045839
0.048331 0.719340 0.047636
0.048794 0.726358 0.048046
0.099623 0.741418 0.048594
0.225753 0.760829 0.050855
0.326132 0.777184 0.050826
0.424031 0.793571 0.043372
0.516521 0.808782 0.043370
0.593441 0.821000 0.043377
0.657816 0.830922 0.044159
0.712267 0.839179 0.044685
0.762942 0.848164 0.044685
0.813291 0.857646 0.044700
0.860537 0.862346 0.044722
0.910652 0.888004 0.044866
0.951047 0.888991 0.044900
0.951200 0.857487 0.044900
0.043202 0.071609 0.083345
0.056388 0.075294 0.089536
0.096836 0.079043 0.090701
0.137118 0.084592 0.090705
0.180787 0.086790 0.085015
0.231307 0.104472 0.081232
0.287887 0.116664 0.080143
0.343976 0.129662 0.086758
0.409519 0.141308 0.098646
0.477655 0.153322 0.113094
0.543284 0.163979 0.131482
0.606612 0.176150 0.146820
0.669524 0.190699 0.157794
0.730734 0.206148 0.167104
0.789612 0.222395 0.174172
0.845763 0.240054 0.178808
0.043210 0.083179 0.090843
0.049541 0.084691 0.092348
0.083384 0.093272 0.095558
0.127323 0.104968 0.096627
0.179653 0.117197 0.093800
0.237459 0.126863 0.084762
0.299313 0.136892 0.076171
0.356471 0.148954 0.076530
0.420448 0.157383 0.089583
0.487311 0.165833 0.105229
0.554247 0.174271 0.123041
0.616721 0.184442 0.138688
0.678565 0.198733 0.150115
0.739093 0.214273 0.159575
0.797974 0.231661 0.166389
0.853633 0.250420 0.170796
0.043222 0.117991 0.090155
0.048837 0.120150 0.091561
0.079654 0.119675 0.095677
0.136853 0.118807 0.091919
0.189270 0.132064 0.090980
0.249620 0.139721 0.081439
0.314785 0.148076 0.072951
0.373555 0.159808 0.073713
0.438758 0.169717 0.086429
0.504752 0.179171 0.101237
0.570466 0.189806 0.115956
0.632766 0.202218 0.128418
0.693133 0.216184 0.139055
0.752559 0.232140 0.147704
0.809583 0.249618 0.154461
0.864566 0.269487 0.158403
0.043200 0.150179 0.078203
0.043600 0.162827 0.082020
0.074010 0.164525 0.086208
0.137806 0.156946 0.094538
0.212823 0.145721 0.075286
0.275382 0.157193 0.063018
0.340125 0.171886 0.056771
0.400217 0.187021 0.060201
0.464112 0.199627 0.072864
0.531359 0.210674 0.087856
0.597052 0.225695 0.099130
0.659476 0.241165 0.109108
0.719543 0.255387 0.119107
0.777342 0.270692 0.127598
0.832070 0.287824 0.133654
0.883898 0.306800 0.137426
0.043200 0.183950 0.069504
0.043200 0.197349 0.074574
0.067585 0.208790 0.069395
0.140211 0.201157 0.092484
0.219134 0.190783 0.079937
0.299036 0.176548 0.054910
0.369964 0.188145 0.046844
0.439537 0.202584 0.061603
0.509371 0.218257 0.074759
0.574834 0.235016 0.085084
0.634453 0.253459 0.092080
0.693776 0.273022 0.098014
0.752076 0.295330 0.101637
0.808543 0.318937 0.103714
0.862241 0.343272 0.104237
0.905756 0.364413 0.103553
0.043200 0.218929 0.068108
0.043200 0.228825 0.069116
0.062742 0.250713 0.052012
0.142795 0.244451 0.074882
0.233547 0.237242 0.081270
0.307432 0.221464 0.077193
0.393366 0.212206 0.044406
0.483900 0.223489 0.061165
0.557694 0.240234 0.075077
0.621588 0.259276 0.083270
0.679284 0.278807 0.088770
0.733478 0.299854 0.091976
0.789783 0.324064 0.093456
0.842901 0.351995 0.090848
0.893497 0.383262 0.084451
0.922039 0.402802 0.078921
0.043200 0.252982 0.067578
0.043200 0.259132 0.066670
0.064008 0.283557 0.045999
0.147611 0.292657 0.054270
0.234268 0.278958 0.087780
0.325009 0.286736 0.051657
0.413488 0.271869 0.053388
0.506871 0.263046 0.047636
0.592973 0.270364 0.063294
0.664233 0.287083 0.076800
0.718178 0.306798 0.081044
0.769759 0.328026 0.083084
0.821344 0.353277 0.081868
0.872544 0.383674 0.076204
0.922072 0.417634 0.065986
0.943627 0.433132 0.060711
0.043200 0.284696 0.070646
0.043200 0.289369 0.067722
0.074890 0.315299 0.045035
0.161284 0.333586 0.047182
0.252443 0.324127 0.079868
0.351015 0.338511 0.051821
0.439528 0.352091 0.044451
0.533344 0.328896 0.049197
0.614985 0.321840 0.049438
0.682831 0.323346 0.053154
0.746015 0.339509 0.063764
0.801824 0.359886 0.068500
0.849343 0.384948 0.065564
0.897340 0.414773 0.058196
0.944672 0.448974 0.045926
0.952900 0.461802 0.043200
0.043200 0.312674 0.080132
0.043200 0.326733 0.063250
0.092977 0.350414 0.043454
0.180307 0.369548 0.046751
0.272886 0.365881 0.074272
0.362081 0.380714 0.067946
0.468609 0.398742 0.043814
0.550703 0.421211 0.044190
0.633562 0.393333 0.050307
0.702162 0.386071 0.049036
0.759448 0.383284 0.049402
0.817009 0.396420 0.048861
0.872297 0.418590 0.047386
0.918389 0.447281 0.045077
0.952772 0.479303 0.043200
0.952900 0.487727 0.043200
0.043200 0.348645 0.075827
0.047736 0.369474 0.047590
0.113467 0.384812 0.043200
0.201515 0.400581 0.049589
0.292080 0.402670 0.072224
0.375899 0.417298 0.074904
0.481494 0.446610 0.043983
0.562315 0.466615 0.044001
0.637022 0.497520 0.044138
0.709259 0.465440 0.050147
0.776190 0.456871 0.046484
0.828235 0.450379 0.046480
0.880917 0.457990 0.045384
0.934209 0.481896 0.043239
0.952900 0.507729 0.043200
0.952900 0.510692 0.043200
0.043200 0.392872 0.072642
0.053992 0.410032 0.046488
0.122474 0.425375 0.043940
0.214718 0.432201 0.059278
0.305131 0.438647 0.077975
0.387996 0.453243 0.078845
0.479783 0.484878 0.046846
0.578202 0.518282 0.044119
0.636618 0.539697 0.044138
0.706930 0.577766 0.044223
0.774351 0.545248 0.046780
0.836966 0.529423 0.046852
0.890092 0.518446 0.043200
0.938298 0.521300 0.043200
0.952900 0.537427 0.043200
0.952900 0.536013 0.043200
0.052355 0.428539 0.078467
0.072488 0.433049 0.064813
0.140362 0.450843 0.060178
0.230191 0.460184 0.072480
0.318861 0.470757 0.086420
0.402577 0.487354 0.086465
0.489345 0.522798 0.062416
0.578355 0.559018 0.044763
0.655670 0.591662 0.044639
0.702570 0.614700 0.044715
0.765852 0.657254 0.044932
0.830341 0.624621 0.044612
0.891306 0.598728 0.050705
0.941015 0.583437 0.045536
0.952610 0.577434 0.043507
0.952610 0.574103 0.043507
0.076783 0.448047 0.097322
0.095919 0.454977 0.084042
0.162160 0.474105 0.078969
0.248251 0.485151 0.089377
0.335556 0.499659 0.098754
0.420548 0.522030 0.095442
0.503772 0.562170 0.068762
0.579706 0.601723 0.044304
0.652471 0.636880 0.044611
0.719396 0.669623 0.045165
0.760355 0.690548 0.045334
0.818259 0.731407 0.045516
0.882967 0.696838 0.044560
0.943376 0.666171 0.048885
0.945251 0.639563 0.050919
0.945660 0.628988 0.050440
0.070816 0.514892 0.082650
0.095663 0.524441 0.070435
0.160668 0.550521 0.058867
0.246254 0.571583 0.055766
0.334586 0.586331 0.054291
0.419839 0.604258 0.043352
0.506318 0.645222 0.043423
0.582196 0.681007 0.044385
0.649902 0.710888 0.044466
0.707412 0.731175 0.044515
0.767188 0.751613 0.044574
0.810896 0.765085 0.044686
0.869098 0.797939 0.044919
0.931120 0.761719 0.045694
0.951267 0.719475 0.044844
0.950837 0.704089 0.045263
0.045012 0.596390 0.043658
0.082922 0.600805 0.043200
0.165122 0.618955 0.043412
0.245402 0.639251 0.047052
0.326171 0.663579 0.049276
0.414392 0.696889 0.044805
0.505309 0.734999 0.043348
0.586430 0.767854 0.043376
0.652850 0.789396 0.044585
0.708461 0.803957 0.044599
0.761862 0.817652 0.044600
0.811210 0.823501 0.044683
0.855899 0.831361 0.044728
0.914357 0.858165 0.044866
0.950312 0.807757 0.045787
0.950254 0.778510 0.045852
0.048944 0.728624 0.048179
0.049085 0.730761 0.048304
0.087592 0.743212 0.048785
0.219709 0.759101 0.050641
0.318378 0.777237 0.050989
0.412932 0.795607 0.043352
0.505837 0.811500 0.043373
0.586562 0.824189 0.043377
0.654449 0.835032 0.044006
0.711666 0.843396 0.044685
0.761828 0.851405 0.044685
0.812407 0.861264 0.044700
0.860087 0.864961 0.044720
0.908195 0.887094 0.044866
0.950961 0.891166 0.044900
0.951200 0.859912 0.044900
0.043215 0.087258 0.103014
0.051706 0.087872 0.104268
0.107426 0.093196 0.116601
0.152153 0.099289 0.113330
0.203297 0.106485 0.113241
0.259900 0.108796 0.104600
0.320080 0.114905 0.099788
0.367014 0.125980 0.099452
0.426510 0.138648 0.109332
0.489581 0.151472 0.122379
0.552885 0.164420 0.137003
0.613512 0.177052 0.149963
0.672517 0.190270 0.161408
0.731089 0.204530 0.171146
0.787319 0.219232 0.178985
0.841671 0.234788 0.184682
0.043300 0.091296 0.105123
0.050428 0.097950 0.111817
0.093241 0.102409 0.121805
0.145362 0.109233 0.120000
0.198247 0.111883 0.114589
0.254814 0.109332 0.100126
0.315185 0.115265 0.095464
0.366567 0.127190 0.097423
0.428093 0.139949 0.107923
0.491885 0.152764 0.121174
0.554221 0.165245 0.135719
0.614659 0.177860 0.148524
0.674693 0.191617 0.159450
0.734071 0.206744 0.168329
0.792072 0.222900 0.175106
0.847928 0.240455 0.179541
0.043300 0.113246 0.119895
0.046824 0.117695 0.123335
0.079698 0.120846 0.127735
0.130144 0.131214 0.129497
0.188060 0.143159 0.124106
0.253887 0.150424 0.108420
0.321287 0.156213 0.092675
0.390544 0.160616 0.083378
0.446312 0.166789 0.090786
0.508978 0.172050 0.108245
0.571143 0.180340 0.124218
0.632161 0.193718 0.135645
0.691735 0.208549 0.145345
0.750657 0.224630 0.153646
0.808037 0.242470 0.159919
0.863030 0.262334 0.163689
0.043310 0.161331 0.134674
0.043335 0.161597 0.121993
0.070615 0.164820 0.123364
0.130615 0.163610 0.125590
0.203214 0.160167 0.118116
0.267189 0.170253 0.104406
0.334724 0.178786 0.090371
0.405399 0.185811 0.078595
0.466492 0.192422 0.079002
0.528173 0.199079 0.094960
0.591282 0.210625 0.107899
0.652305 0.225798 0.117565
0.711795 0.241978 0.125988
0.769772 0.258526 0.133728
0.826071 0.276660 0.139639
0.879773 0.296837 0.143163
0.043200 0.197498 0.116857
0.043200 0.192986 0.103690
0.053901 0.213635 0.103606
0.121515 0.214385 0.108925
0.216240 0.199023 0.106074
0.296128 0.184234 0.081780
0.367070 0.195903 0.066738
0.436369 0.209204 0.061375
0.499453 0.224331 0.066710
0.560423 0.238680 0.077261
0.621475 0.254370 0.086871
0.680542 0.271298 0.094758
0.739605 0.290202 0.101160
0.797043 0.311511 0.105244
0.851618 0.332011 0.108776
0.903172 0.352260 0.111481
0.043200 0.227825 0.102188
0.043200 0.223642 0.084511
0.045253 0.251965 0.084888
0.116715 0.259402 0.083432
0.224292 0.246442 0.108709
0.304745 0.230806 0.100115
0.394309 0.219253 0.058723
0.474321 0.230140 0.050879
0.547284 0.246206 0.066363
0.611417 0.264393 0.075606
0.668823 0.283092 0.081774
0.723237 0.304117 0.085001
0.777782 0.327133 0.086705
0.829371 0.353437 0.084779
0.880232 0.383289 0.079377
0.919385 0.405440 0.075838
0.043200 0.254864 0.085524
0.043200 0.255426 0.080132
0.043200 0.285098 0.075023
0.119636 0.305649 0.061534
0.227181 0.290305 0.101396
0.328023 0.295910 0.073847
0.410206 0.280289 0.075688
0.503148 0.269629 0.047493
0.588850 0.275184 0.057196
0.655941 0.292920 0.068736
0.711474 0.312293 0.073943
0.762797 0.334057 0.075509
0.814592 0.358786 0.074638
0.864548 0.388529 0.068619
0.912992 0.421680 0.058406
0.938069 0.440121 0.051049
0.043200 0.281223 0.082114
0.043200 0.286898 0.085942
0.044207 0.322079 0.065185
0.134708 0.345657 0.054354
0.242899 0.335607 0.092589
0.343766 0.346301 0.084798
0.435588 0.356697 0.052461
0.529366 0.337017 0.050079
0.611755 0.329340 0.049295
0.680530 0.329936 0.050142
0.744336 0.344389 0.058328
0.795575 0.365545 0.060636
0.843634 0.391248 0.056980
0.891596 0.421282 0.049153
0.939327 0.455666 0.043974
0.952900 0.469129 0.043200
0.043200 0.308175 0.093376
0.043200 0.315251 0.095105
0.054560 0.363749 0.049971
0.155179 0.379189 0.054398
0.260719 0.375179 0.088508
0.353576 0.384958 0.099898
0.468811 0.406950 0.043814
0.550111 0.427931 0.043988
0.630819 0.402226 0.050679
0.700443 0.394384 0.048778
0.757854 0.390397 0.049190
0.814969 0.400920 0.048729
0.867516 0.423513 0.047215
0.913671 0.453311 0.044900
0.952103 0.486464 0.043200
0.952900 0.495400 0.043200
0.043200 0.332158 0.104139
0.043200 0.350367 0.092820
0.079288 0.396155 0.047767
0.178697 0.407659 0.057744
0.277889 0.409476 0.087675
0.368157 0.421633 0.097852
0.476503 0.453051 0.049011
0.567078 0.475741 0.044042
0.637425 0.505352 0.044138
0.708436 0.474693 0.049805
0.773573 0.463538 0.047120
0.825628 0.455440 0.046256
0.878857 0.461777 0.045197
0.931338 0.485266 0.043220
0.952900 0.514772 0.043200
0.952900 0.519405 0.043200
0.043200 0.357969 0.116075
0.043599 0.397472 0.089317
0.097010 0.423437 0.058811
0.193631 0.437171 0.066204
0.290052 0.442381 0.091486
0.380193 0.456320 0.100393
0.473822 0.489686 0.084422
0.577232 0.525279 0.044221
0.641709 0.548870 0.044138
0.706812 0.583768 0.044225
0.774578 0.551197 0.045502
0.832244 0.532561 0.048144
0.886616 0.520753 0.043200
0.936382 0.523969 0.043200
0.952900 0.540967 0.043200
0.952900 0.542493 0.043200
0.043200 0.402904 0.121065
0.056103 0.432060 0.096009
0.117304 0.448865 0.073806
0.211210 0.463971 0.078574
0.304166 0.471750 0.097977
0.394416 0.490451 0.102205
0.484348 0.525491 0.093881
0.575238 0.563021 0.046497
0.656544 0.598460 0.044792
0.706503 0.621917 0.044796
0.764787 0.659848 0.045018
0.829564 0.626027 0.044612
0.888183 0.599784 0.050427
0.938057 0.583866 0.045710
0.951426 0.579850 0.044758
0.952146 0.578249 0.043998
0.055510 0.442166 0.127137
0.081930 0.451656 0.113781
0.142569 0.471999 0.092241
0.231453 0.488032 0.095535
0.321493 0.499048 0.109036
0.410171 0.520297 0.108926
0.496088 0.559901 0.098438
0.577128 0.607367 0.059296
0.649566 0.642722 0.044490
0.719038 0.675289 0.044953
0.762546 0.694714 0.045304
0.816305 0.730097 0.045505
0.882430 0.695810 0.044545
0.941254 0.665669 0.048860
0.945398 0.640695 0.050780
0.945654 0.630155 0.050446
0.047039 0.510634 0.119123
0.067155 0.532515 0.090631
0.137626 0.554863 0.069297
0.227501 0.575218 0.064949
0.320777 0.586427 0.070553
0.412973 0.610939 0.055627
0.497025 0.636907 0.044737
0.576638 0.680372 0.044385
0.647351 0.715362 0.044465
0.706557 0.736050 0.044515
0.765311 0.753351 0.044572
0.811030 0.765834 0.044686
0.867129 0.795666 0.044925
0.931349 0.760271 0.045657
0.951242 0.720975 0.044870
0.950837 0.705497 0.045263
0.043209 0.599174 0.061301
0.044455 0.611700 0.046360
0.141773 0.626564 0.043200
0.232539 0.640138 0.046667
0.315763 0.657990 0.049084
0.402991 0.685246 0.045540
0.494407 0.723246 0.043348
0.578771 0.762688 0.043373
0.648289 0.790356 0.044585
0.705843 0.805728 0.044597
0.760100 0.817935 0.044600
0.810139 0.822871 0.044683
0.854631 0.829650 0.044729
0.912878 0.856108 0.044866
0.950304 0.807492 0.045796
0.950249 0.778839 0.045858
0.049429 0.735635 0.048603
0.049840 0.741345 0.048960
0.057071 0.748314 0.049306
0.202350 0.760790 0.050354
0.305898 0.772991 0.051667
0.401250 0.793100 0.043952
0.494649 0.815668 0.043377
0.576514 0.829058 0.043377
0.647436 0.840949 0.043392
0.707106 0.848925 0.044685
0.758253 0.856166 0.044685
0.810268 0.866028 0.044700
0.860420 0.870151 0.044718
0.905755 0.887140 0.044845
0.950781 0.894061 0.044900
0.951200 0.863842 0.044900
0.043215 0.105240 0.126061
0.052537 0.104743 0.125682
0.087920 0.110460 0.138308
0.171894 0.116417 0.143164
0.219628 0.120693 0.134774
0.279930 0.126966 0.129328
0.344294 0.133843 0.123853
0.409530 0.140074 0.118477
0.468419 0.148094 0.115862
0.518026 0.159769 0.124071
0.578076 0.171362 0.137944
0.634039 0.183335 0.149393
0.688620 0.196023 0.159566
0.742507 0.209331 0.168510
0.796084 0.223794 0.175938
0.848234 0.239179 0.181390
0.043300 0.108179 0.127722
0.050349 0.114922 0.134916
0.081644 0.118210 0.141174
0.165696 0.124599 0.151090
0.215721 0.128761 0.141010
0.280979 0.133150 0.133685
0.345976 0.136361 0.123845
0.413727 0.143090 0.119281
0.476102 0.150525 0.116366
0.522878 0.161975 0.123301
0.581640 0.173146 0.136782
0.636382 0.184773 0.148153
0.689566 0.196915 0.158568
0.743500 0.210196 0.167707
0.797155 0.224582 0.175203
0.849603 0.240173 0.180756
0.043300 0.118474 0.135034
0.045870 0.126351 0.142242
0.075000 0.135366 0.151821
0.146936 0.141200 0.164456
0.209414 0.147135 0.154943
0.277971 0.143015 0.137948
0.347928 0.144310 0.125640
0.419290 0.150136 0.120463
0.487151 0.156201 0.117594
0.530696 0.166914 0.120893
0.585539 0.176867 0.133591
0.638400 0.187589 0.145067
0.691265 0.199179 0.155787
0.745357 0.212383 0.165225
0.800486 0.227598 0.172489
0.854638 0.245158 0.177079
0.043372 0.151116 0.154641
0.043511 0.158220 0.159648
0.064685 0.164609 0.167773
0.121151 0.169033 0.176177
0.192090 0.180214 0.174383
0.264389 0.185037 0.158034
0.339227 0.186079 0.139861
0.413669 0.184076 0.125848
0.486601 0.180781 0.116120
0.542653 0.182582 0.111952
0.593570 0.193010 0.121778
0.649787 0.205973 0.131720
0.707487 0.222917 0.138891
0.765994 0.242320 0.144534
0.823014 0.262378 0.149240
0.877336 0.283275 0.152292
0.043475 0.201289 0.174262
0.043399 0.212993 0.174528
0.044501 0.216796 0.164158
0.097468 0.221347 0.161969
0.202615 0.215603 0.158673
0.283158 0.207957 0.150650
0.353805 0.218078 0.141169
0.427121 0.227463 0.130756
0.500362 0.232508 0.118867
0.567784 0.237222 0.110038
0.630029 0.242652 0.103438
0.672957 0.255127 0.103795
0.728644 0.270132 0.111783
0.787825 0.290702 0.116925
0.845033 0.313275 0.120049
0.898860 0.335947 0.121845
0.043204 0.258544 0.177018
0.043200 0.249139 0.152600
0.043200 0.243763 0.138482
0.072115 0.269627 0.129282
0.192123 0.267674 0.137207
0.298833 0.247876 0.137301
0.388210 0.232937 0.112071
0.467204 0.244967 0.096846
0.541865 0.259292 0.086388
0.607491 0.274830 0.080676
0.659193 0.292430 0.078572
0.711986 0.308500 0.077351
0.759499 0.326621 0.080501
0.815802 0.349819 0.082699
0.871155 0.377197 0.080968
0.918420 0.403990 0.076656
0.043200 0.282015 0.155416
0.043200 0.274926 0.139429
0.043200 0.269721 0.120111
0.065749 0.312239 0.104621
0.196237 0.315323 0.113615
0.322012 0.312190 0.120868
0.403769 0.296140 0.119749
0.499301 0.281139 0.085197
0.582983 0.284896 0.051198
0.642952 0.302951 0.053801
0.699086 0.322200 0.059966
0.750591 0.342680 0.062874
0.800796 0.365997 0.062558
0.850090 0.394107 0.057124
0.898673 0.426049 0.047695
0.930970 0.449026 0.044615
0.043200 0.305607 0.149845
0.043200 0.297131 0.128302
0.043200 0.295620 0.114749
0.080064 0.349825 0.086746
0.213812 0.356016 0.105678
0.324587 0.354433 0.131972
0.432214 0.367343 0.090934
0.521644 0.351005 0.090752
