example_ofxGpuLutCube/bin/data/ofxGpuLutCube/LUT/C16 (yellow faded).cube
LUT_3D_SIZE 6
0.036360 0.044904 0.058746
0.286456 0.088363 0.052652
0.457832 0.124233 0.052652
0.582250 0.149692 0.052652
0.694536 0.173018 0.052652
0.810154 0.207264 0.052652
0.040797 0.172250 0.116882
0.201680 0.199290 0.094539
0.443317 0.211821 0.054520
0.619358 0.250083 0.052652
0.749030 0.280654 0.052652
0.857605 0.308521 0.052652
0.061064 0.328141 0.179932
0.165635 0.352699 0.184611
0.432360 0.387440 0.139294
0.633547 0.395896 0.085576
0.778862 0.409903 0.063660
0.885802 0.426998 0.060895
0.102338 0.487383 0.246678
0.183779 0.506200 0.259776
0.448414 0.563190 0.245470
0.648589 0.579660 0.199793
0.804697 0.579535 0.148410
0.905718 0.572190 0.121420
0.146977 0.626730 0.301490
0.235462 0.652208 0.320350
0.469711 0.706198 0.317647
0.677131 0.743072 0.295156
0.819525 0.732740 0.244228
0.925927 0.724127 0.214246
0.196512 0.768409 0.360801
0.280806 0.782638 0.370146
0.430570 0.805444 0.366453
0.598881 0.827957 0.351210
0.789421 0.856815 0.324587
0.944686 0.841858 0.266679
0.036360 0.044904 0.126287
0.304047 0.091185 0.120193
0.478442 0.129004 0.120193
0.598339 0.153425 0.120193
0.698425 0.169704 0.120193
0.800384 0.198779 0.120193
0.049892 0.219768 0.218891
0.202070 0.218622 0.177580
0.435914 0.233955 0.135051
0.617782 0.264225 0.120381
0.741125 0.284554 0.120193
0.839008 0.307173 0.120193
0.076787 0.373892 0.281330
0.144755 0.362164 0.270167
0.431154 0.395810 0.215856
0.636995 0.390251 0.147090
0.789819 0.395591 0.120569
0.876687 0.403841 0.120194
0.121775 0.526782 0.345366
0.191188 0.523957 0.341972
0.400433 0.562152 0.331142
0.643856 0.571566 0.260666
0.819544 0.558089 0.182977
0.913124 0.540667 0.152969
0.164355 0.655956 0.392784
0.241529 0.665298 0.399163
0.412487 0.706865 0.407571
0.660973 0.747277 0.375628
0.838598 0.742883 0.314524
0.946653 0.727408 0.275937
0.203636 0.781426 0.439483
0.277285 0.786362 0.442651
0.402393 0.802941 0.441170
0.578026 0.826658 0.426022
0.770615 0.860502 0.405258
0.950067 0.851035 0.342504
0.036386 0.071607 0.223763
0.288337 0.086684 0.187734
0.481566 0.130287 0.187734
0.608427 0.156561 0.187734
0.707975 0.172062 0.187734
0.812349 0.204525 0.187734
0.059469 0.258030 0.313740
0.149721 0.209502 0.257765
0.450308 0.227609 0.195189
0.621083 0.255314 0.187734
0.738052 0.274138 0.187734
0.824051 0.295206 0.187734
0.088549 0.399626 0.367873
0.152322 0.391738 0.362025
0.403253 0.414092 0.314389
0.602662 0.409507 0.247603
0.766893 0.424796 0.214132
0.858753 0.415839 0.198137
0.130798 0.541183 0.423996
0.204792 0.551189 0.431770
0.333962 0.563494 0.424012
0.628394 0.592853 0.360652
0.814398 0.570875 0.267754
0.904811 0.537262 0.221007
0.174435 0.673851 0.475197
0.250920 0.683712 0.482415
0.354196 0.706270 0.494284
0.619863 0.750914 0.466655
0.831898 0.755210 0.400137
0.946431 0.723707 0.338915
0.210127 0.793164 0.517158
0.279505 0.792515 0.515836
0.376470 0.804762 0.519229
0.554691 0.828406 0.504768
0.759890 0.863218 0.480835
0.951417 0.859851 0.419521
0.037645 0.082840 0.301596
0.289632 0.087023 0.255275
0.473011 0.126750 0.255275
0.608914 0.156821 0.255275
0.713531 0.174727 0.255275
0.823573 0.209133 0.255275
0.068288 0.284882 0.400707
0.127460 0.208362 0.336146
0.406896 0.216225 0.268110
0.625514 0.253261 0.255275
0.754155 0.280900 0.255275
0.835834 0.300568 0.255275
0.096639 0.415437 0.447243
0.157965 0.403391 0.438219
0.342787 0.399567 0.391597
0.619054 0.408368 0.305947
0.770926 0.407833 0.267870
0.845549 0.400837 0.261347
0.138253 0.552770 0.500526
0.222569 0.578012 0.520302
0.298856 0.578449 0.518016
0.603191 0.608097 0.457831
0.785521 0.595408 0.381135
0.881936 0.557880 0.320589
0.185856 0.690978 0.556612
0.265270 0.708522 0.570895
0.341640 0.720050 0.580011
0.558040 0.754506 0.564201
0.817523 0.777923 0.500947
0.947239 0.733408 0.418248
0.216151 0.803761 0.593704
0.285541 0.804609 0.594044
0.358889 0.808271 0.595984
0.523517 0.830963 0.586774
0.746316 0.867960 0.559812
0.952475 0.871375 0.499444
0.036360 0.066481 0.353772
0.320721 0.096247 0.322816
0.477369 0.128541 0.322816
0.605608 0.155284 0.322816
0.714935 0.175437 0.322816
0.827049 0.209546 0.322816
0.078546 0.310495 0.486981
0.130265 0.201336 0.395849
0.388028 0.202959 0.333268
0.595089 0.237771 0.322816
0.752804 0.277063 0.322816
0.855642 0.310441 0.322816
0.104529 0.429978 0.525693
0.159997 0.407392 0.508728
0.296075 0.375867 0.453247
0.570854 0.382787 0.372757
0.776134 0.394342 0.326096
0.872799 0.418363 0.330125
0.142319 0.558977 0.572920
0.218503 0.571945 0.583101
0.281628 0.562717 0.575289
0.553071 0.579458 0.517024
0.792415 0.574352 0.419485
0.885328 0.557077 0.385436
0.194720 0.704055 0.634779
0.278042 0.727634 0.654155
0.355869 0.743274 0.667091
0.503887 0.767201 0.665196
0.795455 0.801221 0.604578
0.927503 0.761157 0.528992
0.226539 0.819732 0.674443
0.298035 0.825916 0.679522
0.367354 0.828682 0.681773
0.449723 0.838795 0.687322
0.711855 0.877052 0.652435
0.954973 0.892660 0.588452
0.052860 0.165478 0.498405
0.344239 0.103947 0.390357
0.499292 0.137827 0.390357
0.618218 0.161224 0.390357
0.726642 0.182095 0.390357
0.842861 0.224739 0.390357
0.091772 0.338547 0.575342
0.131850 0.207233 0.467762
0.412133 0.209021 0.398067
0.594706 0.237271 0.390357
0.750836 0.280760 0.390357
0.861712 0.323900 0.390357
0.119083 0.454842 0.612111
0.161188 0.409749 0.578057
0.294661 0.349878 0.496149
0.549504 0.349836 0.421857
0.757546 0.383816 0.393853
0.876259 0.430274 0.403912
0.152821 0.574745 0.652776
0.206892 0.554405 0.636918
0.247935 0.512013 0.604227
0.493234 0.510376 0.537191
0.754458 0.526205 0.454820
0.894335 0.561848 0.453411
0.193830 0.702745 0.701218
0.260041 0.700791 0.699678
0.329299 0.703351 0.701757
0.412494 0.711791 0.705538
0.748122 0.742908 0.630847
0.926915 0.749076 0.582258
0.227317 0.820907 0.742902
0.301311 0.831054 0.751286
0.373126 0.837904 0.756829
0.447867 0.849727 0.766302
0.542781 0.883149 0.789392
0.956960 0.957772 0.715503
