example_ofxGpuLutCube/bin/data/ofxGpuLutCube/LUT/C16 (yellow faded).cube
LUT_3D_SIZE 16
0.036360 0.044904 0.058746
0.104466 0.058030 0.053540
0.203157 0.073117 0.052652
0.286456 0.088363 0.052652
0.354085 0.102404 0.052652
0.410469 0.114511 0.052652
0.457832 0.124233 0.052652
0.500201 0.132711 0.052652
0.542769 0.141771 0.052652
0.582250 0.149692 0.052652
0.619732 0.157096 0.052652
0.657425 0.165137 0.052652
0.694536 0.173018 0.052652
0.734164 0.183654 0.052652
0.770440 0.193019 0.052652
0.810154 0.207264 0.052652
0.036360 0.082451 0.076588
0.077553 0.088277 0.069096
0.156086 0.091644 0.055633
0.245677 0.103772 0.052652
0.323538 0.118899 0.052652
0.391712 0.134349 0.052652
0.450181 0.148207 0.052652
0.501711 0.160480 0.052652
0.552658 0.173255 0.052652
0.599592 0.184869 0.052652
0.641495 0.194565 0.052652
0.681321 0.203445 0.052652
0.719287 0.211954 0.052652
0.759000 0.221952 0.052652
0.794897 0.230477 0.052652
0.830416 0.240869 0.052652
0.037287 0.125112 0.096496
0.066524 0.130816 0.095919
0.130622 0.138247 0.080244
0.221093 0.138331 0.062232
0.307327 0.146981 0.054128
0.382083 0.160055 0.052652
0.446384 0.174318 0.052652
0.502564 0.187741 0.052652
0.558913 0.202627 0.052652
0.609903 0.216135 0.052652
0.655297 0.227357 0.052652
0.696461 0.237082 0.052652
0.734769 0.245785 0.052652
0.773297 0.255378 0.052652
0.810305 0.264544 0.052652
0.844818 0.273199 0.052652
0.040797 0.172250 0.116882
0.064350 0.174838 0.118294
0.114738 0.189777 0.111435
0.201680 0.199290 0.094539
0.292322 0.198991 0.074074
0.373619 0.202742 0.061024
0.443317 0.211821 0.054520
0.503775 0.223000 0.052652
0.564140 0.236432 0.052652
0.619358 0.250083 0.052652
0.668040 0.262322 0.052652
0.710420 0.271912 0.052652
0.749030 0.280654 0.052652
0.786419 0.289956 0.052652
0.823603 0.299652 0.052652
0.857605 0.308521 0.052652
0.046215 0.224593 0.138791
0.068580 0.223743 0.138234
0.105275 0.237595 0.139262
0.189899 0.256908 0.127902
0.281394 0.262220 0.107853
0.365313 0.261933 0.086231
0.438124 0.264596 0.071557
0.503075 0.269749 0.062025
0.567865 0.279174 0.055413
0.627122 0.291225 0.052652
0.678199 0.301896 0.052652
0.722447 0.311908 0.052652
0.761386 0.319585 0.052652
0.798483 0.327771 0.052652
0.834542 0.337035 0.052652
0.869266 0.345647 0.052652
0.052719 0.277414 0.160342
0.075259 0.274857 0.157944
0.104674 0.286010 0.162991
0.174422 0.305998 0.158262
0.280080 0.324781 0.144420
0.359869 0.325496 0.122525
0.433751 0.325231 0.101503
0.500784 0.328079 0.086191
0.568678 0.333033 0.072601
0.630863 0.341325 0.063991
0.684902 0.348345 0.057818
0.731642 0.355445 0.054308
0.771852 0.362108 0.052652
0.807745 0.368585 0.052652
0.843001 0.377089 0.052652
0.879102 0.385754 0.052986
0.061064 0.328141 0.179932
0.083318 0.324840 0.177082
0.111241 0.334372 0.182539
0.165635 0.352699 0.184611
0.269139 0.373198 0.173842
0.361220 0.386145 0.159097
0.432360 0.387440 0.139294
0.499777 0.387194 0.118628
0.569253 0.389989 0.099495
0.633547 0.395896 0.085576
0.689591 0.400940 0.074853
0.738732 0.405288 0.067162
0.778862 0.409903 0.063660
0.815409 0.414287 0.061567
0.849661 0.420433 0.061397
0.885802 0.426998 0.060895
0.070919 0.377531 0.199046
0.093395 0.375226 0.196980
0.119594 0.382538 0.201881
0.163489 0.399023 0.207921
0.256892 0.420908 0.202983
0.361207 0.439707 0.190595
0.434559 0.446645 0.176110
0.501891 0.447593 0.156251
0.571081 0.447702 0.132933
0.635934 0.451268 0.114400
0.693803 0.454926 0.099384
0.745076 0.458561 0.088189
0.786290 0.462108 0.082445
0.822951 0.464498 0.078077
0.855958 0.467160 0.075806
0.892274 0.470676 0.073042
0.084972 0.431808 0.222174
0.107555 0.429784 0.220261
0.134315 0.436746 0.225003
0.167529 0.451862 0.235112
0.251535 0.474248 0.235075
0.355737 0.493706 0.224876
0.444970 0.509315 0.213768
0.507984 0.513713 0.200124
0.575817 0.514579 0.178700
0.641163 0.514627 0.155488
0.700161 0.517482 0.137559
0.752926 0.519766 0.122485
0.796053 0.521268 0.112603
0.832975 0.521626 0.105331
0.864682 0.521570 0.100611
0.898912 0.520096 0.093576
0.102338 0.487383 0.246678
0.124542 0.484954 0.244453
0.152894 0.493556 0.250517
0.183779 0.506200 0.259776
0.252754 0.527492 0.265000
0.357617 0.547586 0.256282
0.448414 0.563190 0.245470
0.522465 0.576663 0.237306
0.584157 0.578841 0.220897
0.648589 0.579660 0.199793
0.707049 0.578913 0.178515
0.760749 0.579879 0.161248
0.804697 0.579535 0.148410
0.842165 0.579238 0.139559
0.873490 0.577516 0.132682
0.905718 0.572190 0.121420
0.118087 0.536746 0.266905
0.142720 0.538747 0.268097
0.170837 0.545939 0.273183
0.203921 0.560139 0.283621
0.267921 0.580047 0.289953
0.368479 0.601055 0.284257
0.455699 0.617202 0.276098
0.530256 0.629587 0.267090
0.602269 0.643138 0.258785
0.657805 0.642038 0.240572
0.715036 0.641257 0.220743
0.767102 0.637972 0.200225
0.811961 0.636144 0.185549
0.850833 0.633097 0.172833
0.882447 0.632064 0.166647
0.913490 0.624209 0.152383
0.134221 0.584851 0.286496
0.160509 0.589400 0.289709
0.188470 0.595798 0.294271
0.221334 0.609126 0.304219
0.284581 0.629832 0.311925
0.381023 0.649875 0.307014
0.464648 0.665341 0.299940
0.538879 0.678298 0.292112
0.610408 0.692011 0.284623
0.666558 0.694533 0.270587
0.720917 0.695190 0.254520
0.772522 0.691401 0.234341
0.816846 0.687247 0.217699
0.857215 0.683462 0.203714
0.890498 0.681451 0.195727
0.920055 0.677579 0.187275
0.146977 0.626730 0.301490
0.174346 0.632686 0.305858
0.203067 0.640005 0.311181
0.235462 0.652208 0.320350
0.296601 0.671814 0.327884
0.388838 0.691211 0.323982
0.469711 0.706198 0.317647
0.541978 0.718514 0.310325
0.612267 0.731450 0.302934
0.677131 0.743072 0.295156
0.724414 0.739771 0.278588
0.774758 0.737225 0.261037
0.819525 0.732740 0.244228
0.861080 0.728226 0.229093
0.895367 0.726355 0.220995
0.925927 0.724127 0.214246
0.158183 0.665894 0.314524
0.185955 0.672491 0.319496
0.214397 0.679111 0.324270
0.246324 0.690685 0.333007
0.302593 0.708056 0.339951
0.385725 0.725567 0.337532
0.463848 0.739621 0.331802
0.532955 0.751502 0.325741
0.604487 0.763779 0.317610
0.670651 0.775944 0.310198
0.723262 0.779478 0.299066
0.773197 0.777737 0.283057
0.819275 0.774399 0.267300
0.862633 0.770081 0.251929
0.898604 0.767522 0.242331
0.931709 0.765817 0.235223
0.167958 0.702965 0.326074
0.194946 0.708104 0.329876
0.222954 0.714142 0.334229
0.253906 0.724455 0.342113
0.301743 0.738930 0.348847
0.373725 0.753829 0.347824
0.445807 0.766331 0.343196
0.511561 0.777222 0.338131
0.582668 0.789085 0.330573
0.650883 0.800969 0.322728
0.713434 0.812270 0.315623
0.763697 0.811828 0.301172
0.814724 0.811497 0.286639
0.860998 0.807483 0.270473
0.900027 0.804021 0.258579
0.935990 0.801138 0.248908
0.196512 0.768409 0.360801
0.222065 0.771198 0.362687
0.248922 0.776108 0.366417
0.280806 0.782638 0.370146
0.325323 0.790645 0.371450
0.379602 0.798473 0.369080
0.430570 0.805444 0.366453
0.481429 0.811640 0.362659
0.538196 0.819530 0.357840
0.598881 0.827957 0.351210
0.662516 0.837373 0.343103
0.727054 0.847214 0.333691
0.789421 0.856815 0.324587
0.841490 0.851351 0.304285
0.894867 0.848814 0.287035
0.944686 0.841858 0.266679
0.036360 0.044904 0.081259
0.107831 0.058308 0.075654
0.206781 0.072519 0.075166
0.292626 0.087871 0.075166
0.360809 0.102523 0.075166
0.417383 0.115226 0.075166
0.464500 0.125174 0.075166
0.505656 0.133190 0.075166
0.546610 0.141411 0.075166
0.585297 0.148897 0.075166
0.620845 0.155096 0.075166
0.654882 0.160699 0.075166
0.688361 0.166173 0.075166
0.725056 0.175895 0.075166
0.761629 0.187573 0.075166
0.804532 0.207863 0.075166
0.036360 0.087244 0.104246
0.076413 0.093183 0.096993
0.160294 0.100183 0.082955
0.249474 0.111839 0.076972
0.331059 0.125835 0.075170
0.399043 0.139766 0.075166
0.455544 0.152001 0.075166
0.504600 0.162325 0.075166
0.553305 0.173185 0.075166
0.597661 0.182983 0.075166
0.638096 0.191820 0.075166
0.676678 0.200332 0.075166
0.714149 0.209252 0.075166
0.753636 0.220690 0.075166
0.788471 0.230162 0.075166
0.822769 0.240950 0.075166
0.038644 0.135068 0.127596
0.063747 0.135944 0.125953
0.137910 0.145098 0.105772
0.233649 0.147520 0.087515
0.319886 0.155794 0.078366
0.393397 0.167711 0.075177
0.455649 0.179849 0.075166
0.510631 0.192188 0.075166
0.565667 0.205986 0.075166
0.614992 0.218128 0.075166
0.658127 0.227654 0.075166
0.697611 0.235942 0.075166
0.734603 0.244457 0.075166
0.772444 0.254485 0.075166
0.807436 0.263865 0.075166
0.837890 0.272341 0.075166
0.043304 0.186757 0.150297
0.065021 0.182470 0.147168
0.113304 0.196281 0.140435
0.214680 0.205354 0.117668
0.308242 0.203000 0.094714
0.386594 0.207468 0.082796
0.454687 0.214819 0.076085
0.514001 0.225379 0.075166
0.572651 0.238020 0.075166
0.626678 0.250814 0.075166
0.674083 0.262118 0.075166
0.715451 0.271145 0.075166
0.752630 0.278941 0.075166
0.788877 0.288410 0.075166
0.823743 0.297254 0.075166
0.851737 0.303660 0.075166
0.049643 0.241259 0.173162
0.070391 0.232898 0.167190
0.103760 0.242643 0.167253
0.192342 0.261856 0.153911
0.292798 0.267036 0.130327
0.377783 0.263247 0.105478
0.448783 0.264854 0.090998
0.512668 0.268635 0.081351
0.576977 0.276955 0.075408
0.635547 0.288396 0.075166
0.685869 0.298532 0.075166
0.729490 0.307277 0.075166
0.766984 0.315033 0.075166
0.803615 0.323859 0.075166
0.837538 0.333401 0.075166
0.863889 0.337387 0.075166
0.057037 0.294607 0.195121
0.077211 0.285491 0.188543
0.103985 0.290954 0.190480
0.171143 0.309887 0.185777
0.283694 0.328866 0.169448
0.367910 0.327112 0.143263
0.442535 0.322150 0.117956
0.508586 0.321655 0.100961
0.576559 0.324993 0.087384
0.639298 0.331327 0.078629
0.693671 0.339510 0.075166
0.740226 0.347225 0.075166
0.779350 0.353914 0.075166
0.815756 0.362373 0.075166
0.850450 0.370956 0.075166
0.875494 0.372759 0.075166
0.066023 0.346039 0.215949
0.086237 0.337514 0.209386
0.111508 0.340534 0.210593
0.161858 0.356709 0.212472
0.266451 0.376384 0.200444
0.363263 0.387967 0.182569
0.438289 0.385249 0.156980
0.505798 0.380888 0.132391
0.575582 0.380028 0.110701
0.640558 0.382593 0.095046
0.698241 0.387488 0.085185
0.748408 0.392476 0.079015
0.789474 0.396947 0.076062
0.826265 0.404052 0.075692
0.860793 0.412974 0.076619
0.885206 0.411676 0.075639
0.077618 0.397381 0.236814
0.097576 0.388487 0.229683
0.121901 0.389762 0.230063
0.160776 0.402730 0.235032
0.250022 0.423301 0.230272
0.358306 0.440088 0.214683
0.435270 0.444705 0.196319
0.504813 0.442474 0.171922
0.575802 0.438232 0.143326
0.642019 0.438627 0.121643
0.701695 0.440451 0.105242
0.754693 0.443544 0.094344
0.797361 0.446360 0.088531
0.834788 0.451014 0.086318
0.868894 0.458433 0.087184
0.895227 0.452962 0.082567
0.093445 0.451513 0.259838
0.113626 0.444591 0.254219
0.137346 0.444395 0.253534
0.168224 0.454884 0.260251
0.242930 0.474685 0.260971
0.346849 0.493049 0.250102
0.440241 0.507383 0.236254
0.506991 0.510116 0.219250
0.578482 0.507389 0.191862
0.645657 0.503222 0.162715
0.706395 0.503707 0.141449
0.761690 0.505688 0.125412
0.806547 0.506951 0.115337
0.844712 0.509522 0.110367
0.878896 0.513603 0.108884
0.904617 0.505208 0.100226
0.112172 0.506950 0.284406
0.132181 0.500496 0.279039
0.156529 0.501195 0.279087
0.185735 0.509806 0.285071
0.241576 0.527152 0.290845
0.343442 0.546412 0.282880
0.438575 0.561135 0.269899
0.517694 0.574093 0.259224
0.583739 0.575062 0.239419
0.651801 0.573233 0.213142
0.712557 0.570345 0.187677
0.768789 0.570331 0.167740
0.815271 0.570936 0.154742
0.854788 0.571587 0.146280
0.888817 0.573155 0.142102
0.916042 0.561783 0.127390
0.128313 0.555039 0.303764
0.149987 0.552024 0.301067
0.175152 0.553905 0.302079
0.204215 0.561768 0.307640
0.254277 0.578709 0.315545
0.350187 0.598896 0.311195
0.440146 0.614852 0.302352
0.521802 0.628387 0.292102
0.599027 0.641847 0.281450
0.658939 0.638822 0.258762
0.719633 0.638025 0.236859
0.775301 0.634101 0.213475
0.822852 0.632512 0.197625
0.863825 0.631078 0.185870
0.897664 0.631063 0.179830
0.926037 0.620571 0.163900
0.143305 0.600097 0.321084
0.166704 0.599953 0.320689
0.192881 0.603567 0.323081
0.221831 0.610796 0.328248
0.268846 0.627444 0.337186
0.357594 0.647592 0.335604
0.446110 0.663979 0.328380
0.526638 0.677839 0.319488
0.604592 0.692065 0.310024
0.666093 0.695275 0.294167
0.724481 0.695298 0.275230
0.780366 0.692804 0.254355
0.827404 0.688511 0.236254
0.869810 0.685236 0.221971
0.904256 0.684677 0.215292
0.934175 0.678042 0.203266
0.154627 0.639168 0.334010
0.179566 0.641563 0.335586
0.206542 0.646287 0.338940
0.235781 0.653982 0.344534
0.280827 0.669766 0.353363
0.363467 0.689317 0.353497
0.448111 0.705093 0.347485
0.526114 0.718681 0.339836
0.604114 0.732568 0.330561
0.674809 0.744930 0.320984
0.726650 0.742375 0.302964
0.781735 0.740201 0.283501
0.830134 0.736607 0.266088
0.872937 0.732800 0.251392
0.908178 0.730733 0.242664
0.937650 0.727842 0.235735
0.164278 0.675829 0.345094
0.189789 0.678964 0.347338
0.216701 0.683459 0.350459
0.246490 0.691858 0.356663
0.288712 0.706155 0.364997
0.363515 0.724030 0.366197
0.441612 0.738740 0.361857
0.514059 0.751318 0.355916
0.592607 0.764751 0.346642
0.664911 0.777708 0.337563
0.726298 0.785672 0.327018
0.778445 0.781114 0.306861
0.828334 0.778475 0.290213
0.874115 0.774345 0.274054
0.909151 0.771671 0.264899
0.940398 0.770513 0.259444
0.172644 0.710695 0.354925
0.198068 0.713554 0.356915
0.224350 0.716988 0.359261
0.254077 0.725193 0.365273
0.295418 0.738398 0.372844
0.362166 0.753313 0.373726
0.431834 0.766381 0.370938
0.497647 0.777572 0.366565
0.570202 0.790016 0.359566
0.642467 0.802579 0.350995
0.709356 0.814617 0.342805
0.765539 0.815528 0.327011
0.821431 0.815246 0.310189
0.870834 0.811251 0.292778
0.909303 0.807768 0.281307
0.942892 0.805519 0.273493
0.199015 0.772866 0.387144
0.223714 0.774447 0.388080
0.249479 0.777834 0.390521
0.278634 0.782780 0.393522
0.318262 0.788817 0.394324
0.367658 0.795884 0.392899
0.423583 0.803000 0.388902
0.473825 0.809628 0.385866
0.531506 0.817876 0.381218
0.590388 0.827324 0.376601
0.654019 0.838054 0.370231
0.718587 0.848410 0.361620
0.782426 0.858589 0.352435
0.838368 0.856212 0.333664
0.895317 0.853561 0.314747
0.947065 0.845139 0.291931
0.036360 0.044904 0.103773
0.099600 0.056237 0.098263
0.213314 0.073660 0.097680
0.303395 0.091013 0.097680
0.370592 0.105278 0.097680
0.425900 0.117385 0.097680
0.472622 0.127587 0.097680
0.513521 0.135710 0.097680
0.553964 0.143938 0.097680
0.591830 0.151221 0.097680
0.626885 0.157322 0.097680
0.660469 0.162792 0.097680
0.693476 0.168061 0.097680
0.728364 0.176978 0.097680
0.761393 0.185535 0.097680
0.797898 0.197437 0.097680
0.036479 0.094574 0.134072
0.071258 0.091594 0.121078
0.167022 0.098652 0.103092
0.258852 0.110003 0.097937
0.333356 0.122920 0.097680
0.397877 0.136140 0.097680
0.452784 0.147747 0.097680
0.501229 0.157687 0.097680
0.548666 0.167633 0.097680
0.592032 0.176648 0.097680
0.631195 0.184834 0.097680
0.667458 0.192234 0.097680
0.704371 0.201501 0.097680
0.745894 0.216464 0.097680
0.781764 0.229831 0.097680
0.816624 0.242692 0.097680
0.040450 0.147405 0.160087
0.062519 0.141018 0.154488
0.132752 0.150918 0.134874
0.229869 0.155808 0.116262
0.309567 0.163941 0.107285
0.386003 0.176821 0.101593
0.450059 0.188239 0.098160
0.506318 0.199102 0.097680
0.561917 0.210768 0.097680
0.611387 0.221402 0.097680
0.654548 0.230258 0.097680
0.692424 0.237265 0.097680
0.727998 0.244662 0.097680
0.764829 0.255255 0.097680
0.799445 0.265097 0.097680
0.831483 0.273885 0.097680
0.046204 0.202050 0.183818
0.066921 0.192634 0.177068
0.107249 0.201362 0.170922
0.213749 0.212725 0.146338
0.304324 0.214433 0.125906
0.382403 0.221355 0.113906
0.450687 0.227753 0.105073
0.511193 0.235886 0.099585
0.570328 0.246963 0.097680
0.625104 0.258251 0.097680
0.672435 0.267443 0.097680
0.713005 0.274943 0.097680
0.748275 0.281103 0.097680
0.783950 0.290256 0.097680
0.817515 0.299571 0.097680
0.845647 0.305136 0.097680
0.053249 0.257112 0.206895
0.073141 0.245617 0.198739
0.100309 0.248555 0.197608
0.181858 0.266018 0.184226
0.293315 0.273539 0.158191
0.378790 0.269290 0.132016
0.447949 0.273842 0.119395
0.512220 0.277222 0.108452
0.576112 0.283835 0.100443
0.634917 0.293551 0.097680
0.685326 0.303155 0.097680
0.729266 0.310500 0.097680
0.766115 0.315597 0.097680
0.801120 0.324527 0.097680
0.834168 0.333992 0.097680
0.858557 0.336526 0.097680
0.061766 0.310621 0.229092
0.080952 0.299553 0.221179
0.103185 0.297836 0.219754
0.160419 0.312261 0.215004
0.274501 0.331361 0.197946
0.368069 0.332344 0.170585
0.444029 0.325025 0.142223
0.508424 0.327480 0.127772
0.575820 0.329534 0.112889
0.639989 0.333417 0.101982
0.694651 0.340159 0.097680
0.742316 0.347206 0.097680
0.779914 0.352934 0.097680
0.815822 0.360468 0.097680
0.848908 0.370259 0.097680
0.870163 0.369503 0.097680
0.071687 0.361494 0.249724
0.090661 0.352050 0.242836
0.112047 0.348476 0.240148
0.152850 0.358657 0.240701
0.250761 0.378187 0.230485
0.361573 0.394275 0.212199
0.437064 0.389158 0.183964
0.505663 0.381333 0.155400
0.574677 0.381293 0.134607
0.640164 0.383328 0.118217
0.699078 0.384820 0.105855
0.750663 0.388583 0.099008
0.791425 0.392309 0.097680
0.828001 0.399065 0.097680
0.861645 0.409410 0.097856
0.881507 0.403935 0.097680
0.083794 0.412222 0.270473
0.102576 0.403824 0.264235
0.124280 0.399207 0.260279
0.153910 0.405670 0.263187
0.232922 0.424476 0.259947
0.346735 0.441479 0.243234
0.433011 0.449989 0.225349
0.502314 0.443739 0.196985
0.574394 0.435682 0.163991
0.641520 0.434528 0.140669
0.702506 0.435844 0.123681
0.757344 0.436107 0.110711
0.800785 0.437814 0.104654
0.838319 0.443485 0.103275
0.872326 0.453971 0.105811
0.891700 0.443112 0.100721
0.099281 0.465249 0.293203
0.120017 0.460075 0.288914
0.141678 0.455807 0.285185
0.168729 0.460120 0.287576
0.229182 0.476244 0.289690
0.330927 0.493976 0.279525
0.429597 0.507350 0.263247
0.502251 0.511939 0.245936
0.574790 0.505324 0.214021
0.643844 0.497318 0.179793
0.706450 0.496212 0.156089
0.763734 0.497078 0.138587
0.809811 0.497268 0.127601
0.849567 0.500344 0.122840
0.883577 0.508957 0.125302
0.903152 0.492374 0.113470
0.116937 0.517073 0.315032
0.139643 0.515664 0.313611
0.162071 0.512997 0.311086
0.188230 0.516152 0.312874
0.233543 0.528983 0.317813
0.326879 0.547308 0.312213
0.422830 0.561242 0.298960
0.507314 0.573020 0.285264
0.577582 0.573822 0.263620
0.649039 0.569618 0.233078
0.712475 0.564345 0.203242
0.770590 0.562288 0.179837
0.819182 0.562830 0.165912
0.860433 0.563974 0.157421
0.895391 0.569313 0.157110
0.916753 0.549144 0.136817
0.133664 0.565119 0.334424
0.157503 0.565556 0.334437
0.180991 0.564997 0.333571
0.207285 0.568192 0.335476
0.247752 0.580431 0.341889
0.332795 0.599068 0.339947
0.423013 0.614640 0.331383
0.509407 0.627462 0.318998
0.591262 0.640782 0.306525
0.654390 0.637505 0.282195
0.718467 0.634899 0.256313
0.777182 0.629526 0.229389
0.827676 0.626959 0.210657
0.870761 0.626980 0.199594
0.906004 0.629121 0.195662
0.929192 0.611409 0.173832
0.149067 0.610143 0.351720
0.173255 0.611226 0.352286
0.198190 0.613060 0.353347
0.225122 0.617102 0.356020
0.263609 0.629431 0.363321
0.340456 0.648018 0.364431
0.428851 0.664749 0.358303
0.512823 0.678290 0.348384
0.595858 0.692162 0.336800
0.663629 0.698508 0.321671
0.723018 0.696284 0.299712
0.782981 0.693517 0.276321
0.832855 0.688939 0.256431
0.878334 0.685844 0.240955
0.913253 0.686599 0.235755
0.939871 0.674535 0.218546
0.159958 0.648284 0.363936
0.184770 0.650351 0.365267
0.211045 0.654254 0.368020
0.238781 0.659547 0.371715
0.276534 0.671841 0.379339
0.347447 0.689315 0.381481
0.430587 0.705751 0.377285
0.511246 0.719547 0.369491
0.594686 0.733513 0.358473
0.669502 0.746025 0.347439
0.724809 0.745302 0.329790
0.784027 0.743303 0.308568
0.836002 0.739607 0.289311
0.881863 0.736296 0.273917
0.917811 0.734378 0.265170
0.944725 0.728561 0.255793
0.169095 0.683885 0.374217
0.193457 0.685333 0.375119
0.220672 0.690536 0.378873
0.248271 0.695630 0.382449
0.285638 0.707961 0.390362
0.350324 0.724123 0.393289
0.426292 0.739163 0.390465
0.501838 0.752264 0.384373
0.582747 0.765771 0.374685
0.658638 0.778998 0.364593
0.726330 0.790980 0.355540
0.779375 0.784867 0.333234
0.833448 0.782170 0.314611
0.882241 0.778833 0.298187
0.917938 0.775877 0.288509
0.946280 0.774264 0.283843
0.176663 0.717708 0.383269
0.201112 0.719007 0.384029
0.227676 0.722975 0.386751
0.255519 0.728173 0.390377
0.293327 0.739810 0.397436
0.354669 0.753737 0.399225
0.422554 0.766808 0.397258
0.489629 0.778418 0.393108
0.562091 0.791025 0.386615
0.635841 0.804061 0.378249
0.705849 0.816408 0.369027
0.766587 0.820016 0.354030
0.824209 0.818742 0.335409
0.877320 0.814915 0.316627
0.916169 0.811951 0.305637
0.947046 0.809919 0.299429
0.201365 0.777206 0.413308
0.225401 0.777868 0.413546
0.250438 0.780291 0.415228
0.277187 0.784384 0.418133
0.312339 0.789555 0.419502
0.357349 0.795784 0.418705
0.413465 0.802678 0.414565
0.465613 0.809241 0.410984
0.524901 0.817447 0.405882
0.584680 0.826651 0.400815
0.648204 0.836910 0.394128
0.712300 0.848594 0.387342
0.775409 0.859667 0.379487
0.835002 0.859895 0.361801
0.897262 0.856485 0.339644
0.948325 0.848284 0.317552
0.036360 0.044904 0.126287
0.096987 0.055688 0.120882
0.205507 0.072031 0.120193
0.304047 0.091185 0.120193
0.375716 0.106992 0.120193
0.431887 0.119359 0.120193
0.478442 0.129004 0.120193
0.519688 0.137318 0.120193
0.560489 0.145922 0.120193
0.598339 0.153425 0.120193
0.632581 0.159255 0.120193
0.665789 0.164641 0.120193
0.698425 0.169704 0.120193
0.733239 0.178552 0.120193
0.765994 0.187430 0.120193
0.800384 0.198779 0.120193
0.037912 0.107219 0.168069
0.066183 0.089010 0.144524
0.153012 0.095031 0.126097
0.266852 0.111050 0.120292
0.345374 0.126330 0.120193
0.407711 0.139377 0.120193
0.461370 0.150775 0.120193
0.508882 0.160540 0.120193
0.555401 0.170115 0.120193
0.597973 0.178816 0.120193
0.636387 0.186824 0.120193
0.671394 0.193718 0.120193
0.705092 0.200632 0.120193
0.741544 0.210666 0.120193
0.774992 0.219510 0.120193
0.810682 0.235013 0.120193
0.042919 0.162145 0.193796
0.062394 0.143667 0.179652
0.120609 0.148496 0.160321
0.235462 0.155537 0.137194
0.321298 0.161780 0.126026
0.388928 0.170198 0.120930
0.448605 0.179840 0.120193
0.502466 0.189865 0.120193
0.556271 0.201659 0.120193
0.605090 0.212751 0.120193
0.647548 0.221653 0.120193
0.685029 0.229227 0.120193
0.719705 0.237075 0.120193
0.757056 0.250599 0.120193
0.792204 0.265096 0.120193
0.824715 0.275410 0.120193
0.049892 0.219768 0.218891
0.068973 0.203180 0.207145
0.102976 0.206241 0.200498
0.202070 0.218622 0.177580
0.296878 0.220585 0.155158
0.366272 0.223554 0.142637
0.435914 0.233955 0.135051
0.499132 0.244600 0.129371
0.561442 0.254207 0.123484
0.617782 0.264225 0.120381
0.665984 0.273136 0.120193
0.706618 0.279744 0.120193
0.741125 0.284554 0.120193
0.775782 0.292930 0.120193
0.808854 0.301718 0.120193
0.839008 0.307173 0.120193
0.057318 0.272999 0.240752
0.076368 0.259499 0.231115
0.098607 0.256574 0.228642
0.164293 0.270088 0.217652
0.285769 0.281334 0.190407
0.367464 0.280764 0.167643
0.436735 0.285728 0.154222
0.501093 0.291442 0.143310
0.567116 0.298115 0.132930
0.627026 0.304335 0.124981
0.679079 0.311518 0.120575
0.723614 0.318238 0.120193
0.759563 0.322346 0.120193
0.793774 0.329115 0.120193
0.826373 0.337322 0.120193
0.852230 0.338728 0.120193
0.066349 0.324437 0.261633
0.085371 0.314091 0.254123
0.106075 0.308393 0.250017
0.146140 0.315649 0.247185
0.255313 0.333913 0.230169
0.361618 0.339298 0.202358
0.438090 0.331796 0.172997
0.501528 0.336180 0.159857
0.570479 0.340295 0.144547
0.634071 0.344260 0.132239
0.690055 0.349392 0.124366
0.738279 0.355172 0.120384
0.776096 0.358492 0.120193
0.810725 0.364333 0.120193
0.843221 0.373319 0.120193
0.864894 0.370667 0.120193
0.076787 0.373892 0.281330
0.096148 0.366349 0.275797
0.116019 0.359646 0.270888
0.144755 0.362164 0.270167
0.231427 0.379137 0.260928
0.347861 0.395989 0.242082
0.431154 0.395810 0.215856
0.501834 0.386023 0.184111
0.569924 0.389479 0.166285
0.636995 0.390251 0.147090
0.696770 0.390969 0.132793
0.749241 0.393392 0.124268
0.789819 0.395591 0.120569
0.824830 0.400784 0.120235
0.858062 0.410655 0.121268
0.876687 0.403841 0.120194
0.089169 0.423409 0.301283
0.109159 0.418220 0.297427
0.128391 0.411311 0.292323
0.151115 0.409968 0.290970
0.213916 0.424520 0.289247
0.324911 0.442536 0.275218
0.425832 0.455538 0.256797
0.497597 0.450278 0.228730
