example_ofxGpuLutCube/bin/data/ofxGpuLutCube/LUT/C17 (clear blue cold).cube
LUT_3D_SIZE 16
0.000000 0.000000 0.020131
0.022514 0.000000 0.020131
0.045471 0.000000 0.020131
0.078076 0.002512 0.020946
0.131405 0.005076 0.022604
0.196552 0.008664 0.022543
0.279966 0.011495 0.022639
0.371900 0.016828 0.025280
0.480223 0.022041 0.025163
0.595406 0.028663 0.027626
0.705664 0.035298 0.027491
0.797618 0.043641 0.029958
0.879475 0.051413 0.030160
0.939563 0.060130 0.032750
0.977095 0.070403 0.035269
0.999842 0.083575 0.037767
0.000000 0.028174 0.023528
0.022514 0.028545 0.023754
0.045027 0.032799 0.026340
0.076133 0.032642 0.026243
0.134188 0.031557 0.020465
0.202185 0.034380 0.020774
0.287920 0.039446 0.022682
0.379890 0.044540 0.022758
0.489561 0.051126 0.023855
0.603397 0.057579 0.025017
0.713626 0.067301 0.026443
0.805289 0.075724 0.027493
0.882879 0.084415 0.029311
0.942005 0.095224 0.030285
0.977090 0.105938 0.032814
0.999839 0.121615 0.037525
0.000000 0.072282 0.031320
0.022514 0.075212 0.031782
0.045027 0.071503 0.031025
0.076462 0.082467 0.030946
0.133840 0.093095 0.038922
0.212876 0.089334 0.020562
0.296645 0.084188 0.021036
0.388660 0.081547 0.022737
0.498313 0.082138 0.022625
0.610150 0.084271 0.022525
0.717260 0.090782 0.024893
0.808404 0.098800 0.024988
0.886315 0.109339 0.027192
0.942890 0.120177 0.027832
0.977088 0.133117 0.030333
0.999843 0.149171 0.034780
0.000000 0.126035 0.033122
0.022514 0.128977 0.036792
0.045027 0.133946 0.038952
0.077866 0.125834 0.028057
0.142218 0.131997 0.023468
0.218039 0.156366 0.023401
0.310524 0.163385 0.022764
0.405830 0.158228 0.022664
0.515934 0.151673 0.022575
0.624046 0.145648 0.022497
0.727223 0.143646 0.022368
0.814929 0.143380 0.024948
0.889078 0.145242 0.025048
0.945031 0.151264 0.027291
0.977086 0.159032 0.027864
0.999845 0.173629 0.032122
0.000044 0.185846 0.032105
0.022576 0.191110 0.031553
0.046668 0.194398 0.033624
0.087495 0.200280 0.031133
0.138502 0.185330 0.031180
0.215463 0.186725 0.027642
0.311018 0.213191 0.025969
0.415144 0.238379 0.025160
0.530698 0.244762 0.024234
0.637787 0.239341 0.023134
0.738287 0.231990 0.022407
0.822383 0.225214 0.022536
0.894329 0.221159 0.025110
0.947607 0.218268 0.025245
0.977357 0.219239 0.027767
0.999880 0.227228 0.030262
0.000022 0.249367 0.035367
0.022532 0.254705 0.036214
0.048776 0.258078 0.038159
0.087449 0.263479 0.036293
0.152468 0.273185 0.036108
0.213016 0.244137 0.031168
0.305699 0.246789 0.030053
0.411081 0.271451 0.028516
0.533924 0.307461 0.027596
0.644934 0.326898 0.026573
0.746340 0.329810 0.025784
0.828615 0.326120 0.024192
0.898984 0.319656 0.024667
0.948209 0.313669 0.025329
0.977457 0.309958 0.026877
0.999977 0.313425 0.030393
0.000000 0.318414 0.038859
0.022514 0.323820 0.041360
0.051154 0.329160 0.041783
0.092619 0.334561 0.043852
0.148800 0.342050 0.041390
0.235840 0.350947 0.040459
0.305717 0.315506 0.035436
0.404543 0.310750 0.033692
0.525982 0.334445 0.031014
0.642041 0.369385 0.030793
0.748809 0.406675 0.030112
0.832831 0.422647 0.028819
0.902087 0.428930 0.029050
0.950781 0.426157 0.028222
0.977466 0.422974 0.026654
0.999979 0.430518 0.028213
0.000000 0.389251 0.043959
0.022695 0.394835 0.046392
0.053682 0.399995 0.046442
0.097772 0.405396 0.048873
0.156376 0.411370 0.048199
0.224861 0.419577 0.046371
0.346667 0.428826 0.043581
0.406600 0.384871 0.039129
0.520675 0.379886 0.036200
0.635607 0.398338 0.034450
0.744195 0.433900 0.033699
0.830891 0.475978 0.034054
0.902008 0.507244 0.034318
0.950675 0.523734 0.032142
0.977452 0.529060 0.032195
0.999949 0.540709 0.033567
0.000000 0.464085 0.049041
0.022813 0.472038 0.051496
0.056160 0.477441 0.051542
0.103389 0.482781 0.053943
0.163146 0.488155 0.054016
0.232949 0.495485 0.053882
0.325737 0.505295 0.051199
0.462736 0.514457 0.048451
0.523155 0.459649 0.042714
0.630051 0.451892 0.039658
0.737080 0.467701 0.038913
0.825525 0.501413 0.038044
0.900091 0.544072 0.037661
0.949440 0.582325 0.037497
0.977370 0.609943 0.037475
0.999862 0.628887 0.039987
0.000000 0.541837 0.054079
0.022841 0.548180 0.056514
0.059157 0.553609 0.056942
0.108717 0.558962 0.058957
0.171085 0.564355 0.059020
0.240960 0.569694 0.058982
0.327334 0.577156 0.057910
0.437632 0.587878 0.056311
0.592593 0.596509 0.053851
0.629268 0.532092 0.046678
0.733142 0.525207 0.044142
0.821953 0.539480 0.042691
0.896230 0.570826 0.042358
0.948131 0.607650 0.042705
0.977347 0.650340 0.042678
0.999959 0.686683 0.045199
0.000036 0.621645 0.059060
0.025662 0.629526 0.061562
0.064431 0.633265 0.063317
0.117838 0.637844 0.064197
0.181119 0.641366 0.065892
0.252638 0.645897 0.066761
0.337800 0.652131 0.065986
0.430143 0.660105 0.064334
0.565365 0.670286 0.062072
0.701249 0.676986 0.059809
0.728206 0.606863 0.052143
0.817300 0.601265 0.049721
0.893514 0.612933 0.047583
0.948020 0.637028 0.047860
0.977346 0.673098 0.047828
0.999974 0.714180 0.050345
0.000928 0.697751 0.064595
0.028583 0.703093 0.067295
0.070541 0.706680 0.069512
0.124321 0.710711 0.071408
0.191283 0.714007 0.072235
0.265343 0.717501 0.073989
0.351240 0.722885 0.073177
0.443137 0.728365 0.072340
0.553770 0.735745 0.069984
0.678922 0.744615 0.068291
0.789264 0.740939 0.065644
0.816288 0.679697 0.057768
0.890793 0.671364 0.055040
0.945301 0.681844 0.053013
0.977272 0.705006 0.052992
0.999977 0.737817 0.055470
0.002067 0.771285 0.072537
0.030797 0.776607 0.074489
0.077191 0.779502 0.076960
0.132834 0.782795 0.078191
0.202991 0.785522 0.079620
0.279154 0.788261 0.082071
0.367557 0.791083 0.082124
0.458463 0.796448 0.081239
0.560151 0.801827 0.079975
0.663470 0.809224 0.077715
0.782309 0.817870 0.075521
0.861606 0.809564 0.070985
0.890903 0.751443 0.063489
0.943208 0.741394 0.060322
0.977194 0.750262 0.060008
0.999979 0.772469 0.060597
0.001961 0.842532 0.080069
0.035228 0.845593 0.082559
0.082731 0.848094 0.085076
0.142781 0.850747 0.086178
0.215281 0.853302 0.087756
0.294023 0.854235 0.088978
0.383890 0.856122 0.090353
0.477131 0.860248 0.090436
0.574755 0.865454 0.089326
0.664515 0.870885 0.088045
0.766180 0.876346 0.085509
0.862690 0.883863 0.083633
0.919302 0.868218 0.078616
0.944104 0.816951 0.068915
0.977239 0.809663 0.067816
0.999979 0.816084 0.067824
0.001459 0.908204 0.088298
0.037731 0.911022 0.091020
0.089972 0.913289 0.093306
0.153728 0.914245 0.095708
0.227816 0.916184 0.096577
0.309897 0.916488 0.098410
0.402553 0.918806 0.100950
0.497020 0.921438 0.100942
0.593101 0.924302 0.100831
0.677130 0.928354 0.098364
0.763333 0.932085 0.096523
0.849964 0.936845 0.095648
0.921132 0.944558 0.093721
0.954702 0.927905 0.088388
0.977362 0.881546 0.076319
0.999940 0.874761 0.075710
0.003438 0.966112 0.098811
0.042741 0.968630 0.101300
0.097900 0.968694 0.103698
0.164831 0.971240 0.106187
0.243449 0.971337 0.107025
0.328414 0.971342 0.108830
0.424067 0.973913 0.111304
0.518671 0.973957 0.111263
0.611996 0.976567 0.111208
0.692260 0.979149 0.111175
0.772185 0.981717 0.109475
0.845799 0.984414 0.108606
0.914997 0.988988 0.106621
0.954552 0.992090 0.105999
0.977466 0.977383 0.096730
0.999934 0.937671 0.086026
0.000000 0.000000 0.053261
0.022514 0.000000 0.055806
0.045027 0.000000 0.058223
0.075067 0.000000 0.055951
0.123571 0.000000 0.053347
0.185261 0.000050 0.049002
0.264240 0.000183 0.047123
0.353241 0.002572 0.048559
0.460716 0.006000 0.049359
0.574871 0.009449 0.050167
0.689393 0.016114 0.051712
0.786759 0.021982 0.052517
0.871409 0.029672 0.055010
0.936094 0.038024 0.057183
0.976864 0.046288 0.059983
0.999850 0.058984 0.062757
0.000000 0.028507 0.056222
0.022514 0.031440 0.061176
0.045546 0.036296 0.063556
0.081368 0.040863 0.065540
0.137150 0.045930 0.067636
0.206672 0.051481 0.069960
0.292782 0.059390 0.071263
0.387174 0.065912 0.073954
0.496708 0.073866 0.075295
0.609107 0.080593 0.077717
0.716647 0.090249 0.080092
0.806305 0.098583 0.082526
0.884836 0.109470 0.085235
0.942259 0.120320 0.088000
0.977100 0.133165 0.092560
0.999866 0.147029 0.097825
0.000000 0.073101 0.062978
0.022514 0.078739 0.067488
0.045159 0.079560 0.068292
0.078714 0.088314 0.073575
0.139372 0.085821 0.075936
0.213011 0.085442 0.069759
0.299800 0.090252 0.071653
0.394565 0.096117 0.074221
0.505732 0.104741 0.076581
0.617760 0.113917 0.077882
0.724610 0.124679 0.080330
0.811925 0.133738 0.082817
0.888811 0.145939 0.085711
0.944901 0.157879 0.088951
0.977117 0.171030 0.093741
0.999889 0.187620 0.099286
0.000000 0.125946 0.067957
0.022514 0.134337 0.076004
0.045049 0.137461 0.078655
0.080301 0.133558 0.073936
0.143014 0.146509 0.074172
0.219401 0.157995 0.080447
0.310604 0.154181 0.074595
0.405250 0.148907 0.074688
0.516023 0.146674 0.076456
0.625183 0.146938 0.077140
0.729373 0.151609 0.079041
0.816949 0.159033 0.081465
0.891113 0.169990 0.084194
0.945100 0.182368 0.086927
0.977338 0.196180 0.091137
0.999895 0.214841 0.097129
0.000000 0.186672 0.077435
0.022514 0.196368 0.079151
0.046532 0.199949 0.080869
0.085115 0.205124 0.080776
0.138821 0.194188 0.080888
0.219494 0.200683 0.077330
0.318382 0.230712 0.079592
0.418688 0.239468 0.079611
0.532253 0.234226 0.079765
0.637917 0.227676 0.079732
0.739175 0.221753 0.081927
0.822376 0.218804 0.082225
0.894328 0.219547 0.084778
0.947614 0.223328 0.086872
0.977372 0.230757 0.090161
0.999906 0.245565 0.096886
0.000029 0.249366 0.077272
0.022565 0.259921 0.083022
0.049775 0.265369 0.085302
0.091747 0.268379 0.087500
0.150060 0.276184 0.085882
0.216711 0.254878 0.082428
0.312724 0.260486 0.082344
0.419290 0.290699 0.082891
0.541183 0.318763 0.084767
0.647778 0.324495 0.084754
0.747219 0.320538 0.084713
0.829434 0.312599 0.086718
0.898961 0.306044 0.087531
0.948191 0.302663 0.089997
0.977442 0.300495 0.092487
0.999972 0.310074 0.097829
0.000000 0.319936 0.083258
0.022730 0.331579 0.089887
0.052473 0.336765 0.091237
0.095931 0.340020 0.093126
0.153926 0.345402 0.093131
0.233471 0.355579 0.092703
0.311128 0.326514 0.088128
0.412630 0.326803 0.087531
0.534680 0.353633 0.087577
0.649297 0.390214 0.088990
0.751673 0.415203 0.089945
0.833938 0.420144 0.090461
0.902164 0.418942 0.092769
0.950804 0.412555 0.093151
0.977466 0.409253 0.095636
0.999979 0.415096 0.103006
0.000000 0.389251 0.090021
0.022722 0.402364 0.095064
0.055333 0.408091 0.097686
0.101191 0.412077 0.099120
0.161685 0.416781 0.100357
0.230046 0.424210 0.100309
0.340765 0.434800 0.098210
0.414648 0.398250 0.093431
0.528917 0.393896 0.092742
0.642246 0.417544 0.092532
0.749548 0.458026 0.093475
0.835179 0.495341 0.095536
0.904523 0.513915 0.096696
0.951129 0.519491 0.098469
0.977460 0.520736 0.100911
0.999968 0.529637 0.107536
0.000000 0.465513 0.095139
0.022886 0.479764 0.100609
0.058862 0.485409 0.103340
0.108554 0.490286 0.105358
0.169676 0.493814 0.106876
0.238551 0.500885 0.107943
0.326334 0.509609 0.105972
0.456698 0.519169 0.105087
0.530774 0.473052 0.098497
0.636678 0.466621 0.097751
0.743762 0.486971 0.097866
0.830795 0.523652 0.098331
0.901906 0.566262 0.100998
0.950922 0.596672 0.103632
0.977363 0.614237 0.106297
0.999860 0.626334 0.111765
0.000000 0.541864 0.100433
0.024767 0.555958 0.107770
0.062919 0.561800 0.109597
0.114592 0.566894 0.111109
0.178209 0.569992 0.113117
0.249163 0.575110 0.114615
0.334264 0.583177 0.113165
0.436632 0.590698 0.112068
0.587120 0.601114 0.110646
0.636815 0.545669 0.103631
0.738583 0.539750 0.103087
0.825482 0.557280 0.103313
0.899338 0.590382 0.103862
0.949394 0.629476 0.106549
0.977381 0.668887 0.110138
0.999975 0.695392 0.116669
0.000000 0.624183 0.107813
0.025973 0.635804 0.113268
0.067282 0.640541 0.116086
0.122382 0.645218 0.118170
0.188245 0.648557 0.119936
0.260851 0.652185 0.121608
0.346814 0.657514 0.122482
0.438124 0.664830 0.120885
0.561794 0.673054 0.120204
0.699108 0.683026 0.118746
0.733537 0.620133 0.110187
0.821803 0.613279 0.108781
0.896184 0.627599 0.108958
0.948097 0.655960 0.111201
0.977387 0.693471 0.114237
0.999979 0.734489 0.120371
0.000963 0.698519 0.114820
0.029707 0.709098 0.121024
0.073895 0.714543 0.123553
0.129894 0.717389 0.125383
0.198316 0.720305 0.127870
0.274279 0.722946 0.129485
0.360337 0.727490 0.130483
0.452072 0.731870 0.130497
0.556376 0.739712 0.128981
0.675782 0.747728 0.127131
0.792132 0.751048 0.126162
0.821286 0.691407 0.116918
0.893379 0.684215 0.116000
0.946178 0.696222 0.116519
0.977403 0.721170 0.119105
0.999979 0.756380 0.124469
0.002140 0.773730 0.121306
0.033561 0.781818 0.128993
0.080558 0.786825 0.131897
0.140117 0.789438 0.133594
0.210986 0.792103 0.135958
0.287312 0.793713 0.138409
0.375984 0.796423 0.138793
0.469126 0.800689 0.138879
0.568360 0.805234 0.138920
0.663082 0.812543 0.137562
0.779069 0.820633 0.136709
0.863919 0.817607 0.134279
0.893455 0.762156 0.124634
0.945348 0.754423 0.123982
0.977339 0.763687 0.124679
0.999979 0.786477 0.127487
0.002141 0.842631 0.131189
0.037961 0.850769 0.138676
0.087943 0.853485 0.141346
0.149261 0.856029 0.142605
0.222157 0.857407 0.144831
0.303026 0.858823 0.146738
0.393458 0.861381 0.149257
0.487513 0.864072 0.149375
0.583964 0.868135 0.149467
0.670915 0.873454 0.149410
0.764984 0.878912 0.147083
0.859949 0.886415 0.146983
0.919328 0.876996 0.142687
0.944717 0.827564 0.132739
0.977235 0.820379 0.132123
0.999979 0.828882 0.134488
0.001662 0.908433 0.141502
0.040689 0.915880 0.147318
0.095282 0.916844 0.150224
0.159872 0.918980 0.152901
0.238111 0.919985 0.155366
0.320388 0.921526 0.157397
0.414269 0.922690 0.159677
0.508142 0.924447 0.160144
0.601415 0.927056 0.162191
0.684419 0.930979 0.160240
0.766805 0.934844 0.159934
0.847994 0.939515 0.159840
0.920381 0.945143 0.159839
0.954707 0.935257 0.155311
0.977344 0.889952 0.142829
0.999919 0.883224 0.142450
0.003631 0.966111 0.152263
0.045973 0.971310 0.160141
0.105417 0.973801 0.162689
0.172952 0.974096 0.165132
0.254170 0.974155 0.167714
0.339309 0.976428 0.170249
0.435842 0.976687 0.171423
0.531954 0.976784 0.173037
0.620039 0.979096 0.174206
0.701178 0.980730 0.175238
0.777636 0.983485 0.173019
0.846418 0.986250 0.172922
0.914160 0.989569 0.173205
0.954551 0.992418 0.175654
0.977466 0.982518 0.168749
0.999949 0.945829 0.153047
0.000000 0.000000 0.093826
0.022514 0.000000 0.096444
0.045027 0.000000 0.097344
0.074748 0.000000 0.102433
0.122443 0.000000 0.106623
0.182496 0.000000 0.106464
0.260286 0.000051 0.102045
0.344839 0.000023 0.099098
0.444778 0.000412 0.093969
0.555113 0.001261 0.088767
0.670898 0.002255 0.085317
0.768817 0.002934 0.081005
0.858183 0.005254 0.079679
0.928561 0.010258 0.080964
0.975991 0.015259 0.082944
0.999858 0.022456 0.084838
0.000000 0.030899 0.099485
0.022514 0.033864 0.104682
0.045510 0.034616 0.107510
0.080180 0.036695 0.111826
0.131943 0.037472 0.109826
0.198877 0.039844 0.105839
0.280632 0.041257 0.102595
0.370463 0.044328 0.099320
0.478377 0.049121 0.100741
0.592495 0.055690 0.102033
0.702499 0.063521 0.103995
0.796272 0.073298 0.106416
0.876634 0.082003 0.109270
0.939232 0.092826 0.113302
0.976869 0.103771 0.116640
0.999845 0.117141 0.121987
0.000000 0.073098 0.102778
0.022514 0.079006 0.109928
0.045874 0.085921 0.115089
0.085771 0.091264 0.117726
0.142595 0.097814 0.121055
0.215347 0.105558 0.123160
0.303755 0.115468 0.125921
0.398761 0.123585 0.128546
0.510203 0.132874 0.131887
0.620828 0.141402 0.134677
0.725947 0.152109 0.137653
0.813659 0.162833 0.140834
0.888580 0.173951 0.144969
0.944681 0.187061 0.148011
0.977158 0.200628 0.153461
0.999937 0.218823 0.161059
0.000000 0.126096 0.109826
0.022520 0.134513 0.115720
0.047576 0.142061 0.122512
0.086702 0.141619 0.123085
0.146606 0.152261 0.124709
0.217361 0.151271 0.133402
0.310793 0.150657 0.128052
0.407236 0.156642 0.129238
0.519414 0.166437 0.132068
0.629451 0.174850 0.135432
0.732684 0.187667 0.138113
0.819561 0.198585 0.141786
0.891916 0.211422 0.145091
0.945559 0.224718 0.149712
0.977402 0.241139 0.155489
0.999967 0.260152 0.163342
0.000000 0.186388 0.123227
0.022514 0.196577 0.129945
0.045027 0.205507 0.134138
0.071108 0.209684 0.135389
0.136301 0.204499 0.132949
0.223792 0.217931 0.131590
0.320643 0.233578 0.133518
0.419001 0.229125 0.133408
0.531246 0.222213 0.133979
0.637786 0.220088 0.135921
0.737699 0.222784 0.138305
0.822448 0.227752 0.140405
0.895089 0.237074 0.144777
0.947652 0.249557 0.147758
0.977425 0.266076 0.153274
0.999972 0.287710 0.161137
0.000118 0.249805 0.122785
0.022788 0.261070 0.130433
0.052300 0.270728 0.135942
0.095371 0.274252 0.138344
0.151724 0.279752 0.138801
0.219035 0.265976 0.137508
0.318911 0.277836 0.136339
0.426572 0.309201 0.138562
0.543948 0.317788 0.140987
0.649434 0.312565 0.140925
0.747141 0.304583 0.142548
0.828604 0.298762 0.143446
0.897856 0.297632 0.145991
0.948188 0.299112 0.148895
0.977453 0.305652 0.153663
0.999979 0.322379 0.161458
0.000000 0.321062 0.130469
0.022726 0.331803 0.136357
0.055049 0.342189 0.143464
0.100641 0.347515 0.144850
0.159248 0.350637 0.146729
0.230868 0.358659 0.146547
0.317763 0.339521 0.143793
0.419695 0.341176 0.142684
0.543760 0.375103 0.144509
0.654593 0.405714 0.146447
0.753513 0.412885 0.148410
0.835343 0.408366 0.149077
0.902194 0.402075 0.151585
0.950699 0.396267 0.153796
0.977466 0.394153 0.156707
0.999979 0.402059 0.166511
0.000000 0.390556 0.136075
0.022861 0.403064 0.143679
0.057912 0.414329 0.149118
0.106425 0.419627 0.151843
0.167159 0.423917 0.153917
0.235650 0.429454 0.155168
0.335863 0.438517 0.153965
0.421174 0.410514 0.149519
0.536644 0.409760 0.148768
0.649944 0.438900 0.149584
0.753937 0.479880 0.152256
0.837733 0.503933 0.154999
0.904602 0.509580 0.156958
0.951154 0.507797 0.159502
0.977466 0.505655 0.162347
0.999979 0.512241 0.172261
0.000000 0.466698 0.143644
0.023039 0.480267 0.150076
0.061682 0.493044 0.156563
0.112013 0.498291 0.159391
0.175727 0.501668 0.161549
0.246300 0.506840 0.162980
0.330615 0.514420 0.162422
0.451299 0.524677 0.161700
0.537560 0.486420 0.156532
0.643074 0.482809 0.154372
0.748151 0.508370 0.156780
0.835199 0.547326 0.159370
0.904526 0.583494 0.162115
0.951046 0.601996 0.165215
0.977378 0.609320 0.169544
0.999880 0.618186 0.177701
0.000000 0.542873 0.148835
0.024791 0.556716 0.156775
0.065881 0.569218 0.163858
0.119886 0.574822 0.165893
0.184685 0.577871 0.168342
0.257161 0.582454 0.170060
0.342132 0.588326 0.170766
0.436961 0.595684 0.170043
0.581539 0.605397 0.169264
0.642621 0.559534 0.162285
0.743533 0.555593 0.161950
0.830715 0.576043 0.162216
0.901840 0.612291 0.165766
0.950866 0.650165 0.170389
0.977410 0.679533 0.175361
0.999974 0.698466 0.184590
0.000000 0.624253 0.156471
0.026018 0.637533 0.164322
0.072114 0.648006 0.171498
0.127662 0.651873 0.173567
0.195187 0.655718 0.176064
0.269772 0.658385 0.178589
0.355942 0.662869 0.179629
0.447679 0.668323 0.178980
0.560489 0.676271 0.178725
0.693119 0.686076 0.178634
0.739797 0.632705 0.169830
0.825472 0.628795 0.169149
0.898758 0.644564 0.170123
0.948884 0.674894 0.173630
0.977443 0.713020 0.178857
0.999979 0.751653 0.188958
0.000982 0.698989 0.164123
0.029794 0.711053 0.172008
0.078942 0.719949 0.178990
0.136526 0.724637 0.181628
0.205538 0.727331 0.184195
0.282480 0.730057 0.186440
0.370116 0.732732 0.188155
0.462041 0.737139 0.188977
0.563094 0.743501 0.188178
0.670904 0.750530 0.187159
0.794308 0.760105 0.187107
0.824990 0.703556 0.178032
0.896174 0.697286 0.177069
0.948111 0.710238 0.178379
0.977454 0.739501 0.183179
0.999979 0.773287 0.191594
0.002167 0.773810 0.173845
0.033829 0.782990 0.181643
0.085520 0.792016 0.189124
0.146071 0.794870 0.192005
0.218307 0.797473 0.194317
0.296871 0.800104 0.195430
0.386621 0.801792 0.197455
0.479836 0.804668 0.199806
0.577489 0.809564 0.199868
0.667050 0.815825 0.198542
0.774141 0.823282 0.197764
0.865890 0.827166 0.197801
0.896262 0.772859 0.187869
0.946405 0.765489 0.185958
0.977466 0.777115 0.188579
0.999979 0.802087 0.196121
0.002402 0.842630 0.182411
0.038433 0.851209 0.190649
0.093077 0.858626 0.197781
0.156680 0.861426 0.200937
0.230802 0.862730 0.203372
0.312551 0.864559 0.205884
0.405317 0.866770 0.207896
0.498729 0.868428 0.210431
0.593242 0.871235 0.210500
0.678048 0.876036 0.210623
0.765216 0.881456 0.210536
0.855920 0.887811 0.210688
0.920791 0.884502 0.208494
0.946681 0.837642 0.196684
0.977311 0.831079 0.196424
0.999969 0.840075 0.201395
0.001940 0.908445 0.192996
0.041210 0.916293 0.202518
0.100774 0.921419 0.210263
0.168016 0.924106 0.213113
0.246541 0.924561 0.215650
0.329715 0.926791 0.218207
0.426135 0.927178 0.220709
0.520163 0.928131 0.222098
0.611643 0.930866 0.223342
0.692222 0.933604 0.223816
0.772179 0.936995 0.223903
0.846230 0.941870 0.223825
0.918074 0.947296 0.225725
0.954709 0.941969 0.223462
0.977324 0.899743 0.209217
0.999893 0.893411 0.211256
0.003953 0.966109 0.205848
0.048589 0.971511 0.215650
0.111000 0.976546 0.223519
0.181598 0.976919 0.226430
0.263276 0.978938 0.229040
0.350809 0.979331 0.231669
0.448353 0.979545 0.234188
0.542309 0.979579 0.236297
0.629570 0.981645 0.237883
0.707997 0.983371 0.239338
0.783789 0.986087 0.239388
0.849661 0.988746 0.239372
0.912500 0.991434 0.241269
0.954545 0.994328 0.244071
0.977466 0.987511 0.240105
0.999957 0.953566 0.222196
0.000000 0.000000 0.135704
0.022514 0.000000 0.140089
0.045273 0.000000 0.141135
0.074380 0.000000 0.143909
0.120285 0.000000 0.149017
0.179766 0.000578 0.154127
0.257501 0.002536 0.158629
0.341767 0.002502 0.159041
0.441921 0.002500 0.156376
0.550717 0.002259 0.151832
0.666225 0.002863 0.146713
0.765203 0.003344 0.143187
0.854508 0.005783 0.137874
0.923809 0.006279 0.132911
0.973893 0.006870 0.130189
0.999862 0.008857 0.127552
0.000000 0.033479 0.143433
0.022514 0.036384 0.150765
0.045549 0.037129 0.153439
0.078719 0.039064 0.154766
0.129367 0.040139 0.161587
0.195585 0.042283 0.164323
0.276462 0.043116 0.164725
0.365901 0.045014 0.161409
0.469778 0.045948 0.156411
0.580194 0.047135 0.151684
0.690991 0.048730 0.146643
0.784778 0.051087 0.141859
0.869037 0.054720 0.138992
0.933549 0.058687 0.137363
0.976630 0.067777 0.139332
0.999855 0.077715 0.143005
0.000000 0.076043 0.148608
0.022514 0.083859 0.156302
0.047956 0.088911 0.161957
0.083608 0.090168 0.164738
0.139386 0.094236 0.168833
0.207929 0.095452 0.167576
0.293643 0.098623 0.163548
0.386168 0.101476 0.160535
0.495519 0.106194 0.157609
0.607053 0.115001 0.159991
0.714077 0.124060 0.162360
0.804913 0.133675 0.164428
0.882562 0.145083 0.168197
0.940383 0.156997 0.172545
0.977110 0.171911 0.178024
0.999893 0.188057 0.185221
0.000000 0.126758 0.153743
0.022534 0.134882 0.159946
0.048566 0.142574 0.167508
0.087334 0.148347 0.172402
0.148309 0.157187 0.177100
0.219662 0.165954 0.181422
0.312161 0.174377 0.182472
0.409615 0.184675 0.185197
0.523168 0.195633 0.189149
0.631596 0.205506 0.192681
0.733901 0.217495 0.196639
0.819068 0.228684 0.199481
0.891533 0.241454 0.204660
0.945550 0.255221 0.209690
0.977443 0.271237 0.215426
0.999979 0.289993 0.225481
0.000010 0.188342 0.162627
0.022528 0.197296 0.169583
0.045500 0.205897 0.176966
0.079803 0.214214 0.182247
0.145774 0.213973 0.183547
0.227481 0.227960 0.184759
0.320618 0.223790 0.186692
0.418763 0.223808 0.187809
0.531742 0.229480 0.190442
0.639560 0.239774 0.194072
0.740720 0.252208 0.196901
0.824755 0.265178 0.201486
0.896249 0.279948 0.206579
0.948154 0.294005 0.210261
0.977466 0.311046 0.217858
0.999979 0.333968 0.227782
0.000000 0.251948 0.171439
0.022514 0.262869 0.178001
0.045383 0.272090 0.184559
0.086458 0.280213 0.190116
0.147750 0.285225 0.193254
0.218904 0.278076 0.192717
0.324761 0.295569 0.191121
0.429339 0.311215 0.193253
0.544059 0.305575 0.194447
0.646928 0.299075 0.195456
0.746385 0.297599 0.197830
0.828600 0.300342 0.200920
0.897936 0.308759 0.204431
0.948226 0.318980 0.209610
0.977466 0.336065 0.215412
0.999979 0.359240 0.225618
0.000010 0.321059 0.175477
0.022738 0.332112 0.183337
0.055358 0.344216 0.190487
0.103885 0.352926 0.196303
0.164712 0.356897 0.199186
0.233131 0.362330 0.200572
0.323072 0.349874 0.198078
0.427053 0.359070 0.198181
0.549482 0.394438 0.201054
0.656904 0.404691 0.202898
0.754394 0.400275 0.204058
0.834069 0.393627 0.206431
0.902218 0.388575 0.208586
0.949646 0.387188 0.212634
0.977466 0.391211 0.217153
0.999979 0.405929 0.227966
0.000000 0.391867 0.182608
0.022857 0.403969 0.190450
0.058150 0.415913 0.198230
0.111447 0.426545 0.204127
0.173329 0.430456 0.206985
0.243212 0.434831 0.208679
0.334123 0.443723 0.209091
0.426877 0.423017 0.205055
