example_ofxGpuLutCube/bin/data/ofxGpuLutCube/LUT/C17 (clear blue cold).cube
LUT_3D_SIZE 6
0.000000 0.000000 0.020131
0.078076 0.002512 0.020946
0.279966 0.011495 0.022639
0.595406 0.028663 0.027626
0.879475 0.051413 0.030160
0.999842 0.083575 0.037767
0.000000 0.126035 0.033122
0.077866 0.125834 0.028057
0.310524 0.163385 0.022764
0.624046 0.145648 0.022497
0.889078 0.145242 0.025048
0.999845 0.173629 0.032122
0.000000 0.318414 0.038859
0.092619 0.334561 0.043852
0.305717 0.315506 0.035436
0.642041 0.369385 0.030793
0.902087 0.428930 0.029050
0.999979 0.430518 0.028213
0.000000 0.541837 0.054079
0.108717 0.558962 0.058957
0.327334 0.577156 0.057910
0.629268 0.532092 0.046678
0.896230 0.570826 0.042358
0.999959 0.686683 0.045199
0.002067 0.771285 0.072537
0.132834 0.782795 0.078191
0.367557 0.791083 0.082124
0.663470 0.809224 0.077715
0.890903 0.751443 0.063489
0.999979 0.772469 0.060597
0.003438 0.966112 0.098811
0.164831 0.971240 0.106187
0.424067 0.973913 0.111304
0.692260 0.979149 0.111175
0.914997 0.988988 0.106621
0.999934 0.937671 0.086026
0.000000 0.000000 0.135704
0.074380 0.000000 0.143909
0.257501 0.002536 0.158629
0.550717 0.002259 0.151832
0.854508 0.005783 0.137874
0.999862 0.008857 0.127552
0.000000 0.126758 0.153743
0.087334 0.148347 0.172402
0.312161 0.174377 0.182472
0.631596 0.205506 0.192681
0.891533 0.241454 0.204660
0.999979 0.289993 0.225481
0.000010 0.321059 0.175477
0.103885 0.352926 0.196303
0.323072 0.349874 0.198078
0.656904 0.404691 0.202898
0.902218 0.388575 0.208586
0.999979 0.405929 0.227966
0.000000 0.544424 0.197974
0.124032 0.580585 0.219940
0.351003 0.593198 0.226535
0.647981 0.571166 0.219387
0.904382 0.631733 0.226258
0.999972 0.697027 0.247488
0.002208 0.773871 0.223005
0.151495 0.800825 0.246772
0.397254 0.807114 0.254976
0.672744 0.818618 0.258884
0.898579 0.783642 0.247918
0.999979 0.816611 0.260670
0.004380 0.966107 0.259410
0.189481 0.979709 0.285986
0.460370 0.982324 0.295642
0.715255 0.984989 0.301426
0.912389 0.992135 0.306032
0.999958 0.959594 0.289019
0.000160 0.002566 0.278518
0.081452 0.003584 0.289207
0.249572 0.005224 0.297153
0.534622 0.008376 0.317758
0.841129 0.012172 0.334575
0.999865 0.017631 0.343048
0.000132 0.141828 0.302147
0.098683 0.164117 0.327694
0.296507 0.169707 0.336678
0.604278 0.181372 0.355004
0.877580 0.192360 0.351637
0.999867 0.208592 0.343910
0.000250 0.322838 0.318634
0.103101 0.356141 0.345077
0.337105 0.383312 0.367712
0.656864 0.418856 0.379870
0.901868 0.464316 0.397782
0.999979 0.521270 0.427058
0.000000 0.545452 0.346571
0.125046 0.582864 0.373386
0.378360 0.613160 0.396917
0.663470 0.607406 0.397373
0.908553 0.661380 0.411434
0.999899 0.660921 0.438103
0.001051 0.773885 0.377728
0.153361 0.801510 0.406587
0.428468 0.823546 0.432450
0.694676 0.829456 0.440905
0.905873 0.813395 0.436921
0.999972 0.861718 0.465299
0.006043 0.968667 0.420404
0.192406 0.981557 0.454180
0.495542 0.990379 0.482682
0.739727 0.992111 0.493415
0.915276 0.994835 0.502374
0.999979 0.977629 0.492953
0.000138 0.007745 0.430784
0.090170 0.010239 0.443990
0.273212 0.012027 0.454274
0.524237 0.013098 0.462412
0.829187 0.020423 0.490146
0.999869 0.026861 0.521333
0.000159 0.155935 0.459543
0.112147 0.179980 0.490302
0.320966 0.185999 0.501052
0.590444 0.191532 0.509672
0.865554 0.206547 0.538615
0.999840 0.223310 0.569733
0.000470 0.342314 0.480399
0.119594 0.374528 0.512268
0.363705 0.403748 0.538991
0.639147 0.412094 0.549215
0.889824 0.431546 0.574515
0.999979 0.457668 0.579864
0.000000 0.547437 0.497063
0.126587 0.585662 0.530615
0.372436 0.615418 0.559919
0.672990 0.641036 0.592448
0.907599 0.673965 0.601016
0.999905 0.718136 0.630985
0.000000 0.776394 0.536417
0.152282 0.802884 0.568868
0.431005 0.824739 0.596593
0.716884 0.843324 0.619792
0.911234 0.839648 0.622863
0.999939 0.881636 0.652852
0.006009 0.968672 0.584311
0.191955 0.981579 0.615610
0.498311 0.990604 0.642648
0.761852 0.997341 0.666454
0.921814 0.997461 0.676361
0.999941 0.991139 0.674039
0.000000 0.015051 0.620362
0.100878 0.018279 0.635973
0.297372 0.020484 0.647951
0.560888 0.022944 0.656776
0.822825 0.024823 0.666256
0.999891 0.036199 0.701662
0.000039 0.172010 0.653337
0.126716 0.196403 0.686553
0.346971 0.202798 0.695756
0.619828 0.209512 0.703673
0.858403 0.215510 0.712999
0.999979 0.236469 0.745248
0.000000 0.363022 0.673924
0.135641 0.394394 0.705706
0.393397 0.424606 0.730691
0.665714 0.433747 0.737689
0.882281 0.445440 0.746337
0.999979 0.474684 0.777157
0.000000 0.571326 0.690047
0.143701 0.605301 0.720675
0.410952 0.633369 0.744680
0.703152 0.658865 0.766849
0.901540 0.667991 0.775161
0.999914 0.689960 0.801721
0.000000 0.777069 0.708707
0.153118 0.804370 0.737783
0.433453 0.825185 0.761568
0.712030 0.845972 0.787668
0.908652 0.864208 0.816667
0.992356 0.889136 0.838230
0.002716 0.968704 0.750065
0.191855 0.982239 0.776778
0.499407 0.990589 0.799462
0.761543 0.997435 0.820395
0.927707 0.999962 0.842862
0.999859 0.999954 0.845801
0.000137 0.026326 0.843553
0.115560 0.028944 0.853466
0.324510 0.031644 0.861229
0.595743 0.033694 0.866595
0.844055 0.035569 0.873399
0.999955 0.040946 0.881509
0.001062 0.188638 0.864263
0.143947 0.215014 0.890298
0.375526 0.220998 0.896356
0.651304 0.227730 0.901833
0.874797 0.235731 0.907197
0.999979 0.246482 0.915270
0.000000 0.383362 0.877665
0.153308 0.417617 0.902765
0.424013 0.447299 0.923958
0.691757 0.456293 0.928753
0.895880 0.468624 0.932900
0.999965 0.485696 0.940366
0.000079 0.593207 0.888073
0.163370 0.626471 0.911260
0.443231 0.653446 0.931944
0.727686 0.678467 0.950701
0.910921 0.687287 0.955524
0.999846 0.700784 0.961127
0.000000 0.795847 0.898560
0.174044 0.820201 0.921756
0.466461 0.841443 0.942369
0.742238 0.859488 0.958803
0.922755 0.876410 0.976221
0.999979 0.884381 0.981790
0.002117 0.968723 0.914338
0.193738 0.982251 0.935581
0.501159 0.992123 0.953104
0.764551 0.997376 0.971211
0.918654 0.999979 0.994938
0.999927 0.999979 0.999956
