example_ofxGpuLutCube/bin/data/ofxGpuLutCube/LUT/C18 (clear contrasty sharpen).cube
LUT_3D_SIZE 6
0.000908 0.000022 0.000000
0.191335 0.000001 0.000000
0.375937 0.000012 0.000000
0.586901 0.000000 0.000000
0.823208 0.000267 0.000000
0.999896 0.001043 0.000000
0.050676 0.161720 0.000000
0.193536 0.152434 0.000000
0.383967 0.125893 0.000000
0.594002 0.079148 0.000000
0.830653 0.068626 0.000000
0.999896 0.068584 0.000000
0.114908 0.349374 0.000000
0.243367 0.346445 0.000000
0.420665 0.343361 0.000000
0.647043 0.345669 0.000000
0.878005 0.346785 0.000000
1.000003 0.340512 0.000000
0.214797 0.611372 0.000000
0.338506 0.612854 0.000000
0.520370 0.616401 0.000000
0.717850 0.619765 0.000000
0.930173 0.602122 0.000000
0.999987 0.576382 0.000000
0.279412 0.851028 0.070655
0.408472 0.856367 0.038633
0.585000 0.863142 0.000000
0.761247 0.854736 0.000000
0.935482 0.836447 0.000000
1.000004 0.804484 0.000000
0.385668 0.963585 0.199481
0.476936 0.967397 0.190226
0.610263 0.977250 0.166802
0.760229 0.987325 0.148342
0.929281 0.998041 0.078511
1.000004 0.999864 0.000000
0.000000 0.007629 0.064631
0.074666 0.000000 0.081113
0.334455 0.000027 0.068182
0.568781 0.000000 0.068076
0.819716 0.000253 0.070311
0.999907 0.001001 0.123624
0.000000 0.152083 0.099978
0.077126 0.120407 0.078307
0.354319 0.101697 0.064631
0.584546 0.064707 0.064631
0.826865 0.064942 0.064703
0.999907 0.065632 0.117223
0.000000 0.302484 0.081928
0.164810 0.309580 0.069801
0.391067 0.333587 0.064919
0.649214 0.340498 0.064631
0.879048 0.337723 0.064631
0.999973 0.316334 0.064631
0.131294 0.571953 0.104155
0.281338 0.583973 0.084736
0.495473 0.603682 0.075902
0.708542 0.617526 0.065518
0.928750 0.598630 0.064631
0.999993 0.571599 0.064631
0.252771 0.838223 0.191982
0.376747 0.842271 0.165438
0.563669 0.849181 0.143790
0.744711 0.845652 0.129730
0.933417 0.835913 0.064636
1.000004 0.802753 0.064631
0.375647 0.960535 0.289581
0.463325 0.964723 0.277486
0.602233 0.975071 0.257902
0.753774 0.985730 0.244292
0.924533 0.996865 0.192341
1.000004 0.999912 0.064631
0.000000 0.024498 0.214272
0.066857 0.024436 0.217592
0.208332 0.000000 0.243041
0.522387 0.000000 0.254946
0.811140 0.000384 0.297046
0.999893 0.000997 0.343445
0.000000 0.145466 0.233675
0.064464 0.137221 0.232837
0.205280 0.105444 0.256243
0.535819 0.064631 0.255360
0.814726 0.065052 0.296583
0.999894 0.065627 0.342518
0.000000 0.345833 0.304950
0.064464 0.345037 0.304984
0.276140 0.312527 0.285517
0.612293 0.323413 0.274173
0.863053 0.310664 0.292574
0.999909 0.293695 0.324398
0.000000 0.572986 0.348539
0.096305 0.572476 0.330712
0.429985 0.574958 0.311833
0.671346 0.608745 0.319400
0.911753 0.583890 0.298644
1.000004 0.560935 0.295748
0.163074 0.816553 0.373953
0.306027 0.812415 0.356388
0.519085 0.826132 0.346174
0.715862 0.830979 0.344835
0.905949 0.828707 0.325631
1.000004 0.797306 0.271998
0.341473 0.948959 0.422006
0.429438 0.953457 0.415263
0.578268 0.968543 0.404535
0.733845 0.980672 0.400511
0.904829 0.993649 0.373288
1.000004 0.999948 0.290824
0.000000 0.061112 0.390191
0.068076 0.061230 0.390357
0.136164 0.061544 0.392218
0.442649 0.000270 0.459001
0.754548 0.000000 0.515872
0.999908 0.000854 0.554077
0.000000 0.152593 0.402671
0.064464 0.139654 0.397439
0.135315 0.134895 0.398250
0.449666 0.064899 0.462177
0.761683 0.064631 0.517146
0.999912 0.065441 0.554863
0.000000 0.363524 0.479125
0.064464 0.358726 0.477363
0.133719 0.347755 0.477254
0.456683 0.334362 0.519368
0.818889 0.309908 0.540373
0.999942 0.254924 0.561552
0.000000 0.622256 0.601567
0.064464 0.621513 0.601285
0.133719 0.614794 0.595688
0.577479 0.585469 0.550435
0.867351 0.573592 0.547513
1.000004 0.544519 0.544500
0.000000 0.823428 0.615225
0.064464 0.819663 0.603292
0.399332 0.790526 0.546881
0.659275 0.808255 0.554853
0.860052 0.820191 0.553456
0.999993 0.785192 0.524922
0.274605 0.938273 0.588580
0.364015 0.938945 0.582073
0.519263 0.954334 0.575461
0.698030 0.972475 0.581510
0.869308 0.987795 0.571189
1.000004 0.999887 0.505436
0.000000 0.115363 0.621606
0.068333 0.115477 0.621768
0.136662 0.115764 0.623747
0.205000 0.096397 0.678049
0.712300 0.000000 0.717023
0.914331 0.046529 0.761717
0.000000 0.184284 0.624021
0.064464 0.180329 0.623890
0.135516 0.180856 0.624411
0.204608 0.154301 0.690790
0.717079 0.064631 0.719950
0.917899 0.111208 0.762376
0.000000 0.393591 0.711800
0.064464 0.388320 0.707964
0.133719 0.377649 0.701966
0.211186 0.365319 0.755126
0.722663 0.313885 0.746352
0.942470 0.230015 0.774109
0.000000 0.620850 0.770627
0.064464 0.618990 0.770490
0.133719 0.614191 0.770650
0.349050 0.605928 0.794823
0.711490 0.577250 0.788669
0.987473 0.535374 0.772684
0.000000 0.832733 0.820763
0.064464 0.832291 0.820670
0.133719 0.830413 0.819923
0.204416 0.834255 0.831577
0.762880 0.804920 0.786562
0.999941 0.773364 0.771199
0.153524 0.984712 0.837075
0.218331 0.984673 0.836529
0.393631 0.980219 0.819376
0.609408 0.972216 0.777138
0.809305 0.980433 0.768694
0.999996 0.997428 0.715598
0.000000 0.160596 0.821986
0.067541 0.160671 0.822091
0.135082 0.160935 0.822464
0.202628 0.161284 0.824630
0.474158 0.000648 0.974998
0.898333 0.000000 0.927325
0.000000 0.228480 0.822469
0.064464 0.225446 0.822529
0.134096 0.225768 0.824409
0.202184 0.226225 0.825067
0.493231 0.065275 0.974564
0.900981 0.064631 0.928802
0.000000 0.398413 0.878586
0.064464 0.393904 0.875713
0.133719 0.388227 0.874203
0.202019 0.379705 0.871635
0.544931 0.306909 0.976052
0.914610 0.133719 0.943927
0.000000 0.609742 0.938946
0.064464 0.607478 0.938761
0.133719 0.604124 0.938022
0.204253 0.605716 0.938742
0.606695 0.592598 0.964485
0.909279 0.517109 0.970600
0.000000 0.818930 0.966566
0.064464 0.818040 0.966555
0.133719 0.816689 0.967287
0.204253 0.817626 0.973729
0.651411 0.810954 0.984587
0.900374 0.767317 0.988819
0.284391 0.999896 0.999902
0.349238 0.999896 0.999902
0.419659 0.999897 0.999902
0.544418 0.999901 0.999922
0.707672 0.999894 1.000003
0.826096 0.988764 0.992295
