example_ofxGpuLutCube/bin/data/ofxGpuLutCube/LUT/C18 (clear contrasty sharpen).cube
LUT_3D_SIZE 16
0.000908 0.000022 0.000000
0.064448 0.000000 0.000000
0.127292 0.000000 0.000000
0.191335 0.000001 0.000000
0.255580 0.000049 0.000000
0.315404 0.000040 0.000000
0.375937 0.000012 0.000000
0.443136 0.000000 0.000000
0.515416 0.000000 0.000000
0.586901 0.000000 0.000000
0.660396 0.000000 0.000000
0.739846 0.000000 0.000000
0.823208 0.000267 0.000000
0.908904 0.000979 0.000000
0.979651 0.001043 0.000000
0.999896 0.001043 0.000000
0.008372 0.046827 0.000000
0.056154 0.044169 0.000000
0.124878 0.033976 0.000000
0.192220 0.025670 0.000000
0.255489 0.022392 0.000000
0.316915 0.022160 0.000000
0.376440 0.022300 0.000000
0.443635 0.022455 0.000000
0.515862 0.022597 0.000000
0.587261 0.022693 0.000000
0.660823 0.022769 0.000000
0.740265 0.022764 0.000000
0.823624 0.023034 0.000000
0.909275 0.023748 0.000000
0.979651 0.023723 0.000000
0.999896 0.023557 0.000000
0.031482 0.102907 0.000000
0.070693 0.102045 0.000000
0.127542 0.098737 0.000000
0.197948 0.087137 0.000000
0.254298 0.075568 0.000000
0.316021 0.062504 0.000000
0.379481 0.050118 0.000000
0.447616 0.047095 0.000000
0.518366 0.045192 0.000000
0.588960 0.045386 0.000000
0.662571 0.045537 0.000000
0.741501 0.045523 0.000000
0.824849 0.045806 0.000000
0.910316 0.046520 0.000000
0.979651 0.046402 0.000000
0.999896 0.046069 0.000000
0.050676 0.161720 0.000000
0.085086 0.160555 0.000000
0.136755 0.157337 0.000000
0.193536 0.152434 0.000000
0.259568 0.143088 0.000000
0.322420 0.134298 0.000000
0.383967 0.125893 0.000000
0.452457 0.116928 0.000000
0.523018 0.103093 0.000000
0.594002 0.079148 0.000000
0.669821 0.068301 0.000000
0.748252 0.068288 0.000000
0.830653 0.068626 0.000000
0.913426 0.069311 0.000000
0.979651 0.069078 0.000000
0.999896 0.068584 0.000000
0.067990 0.219181 0.000000
0.100651 0.218382 0.000000
0.149173 0.216059 0.000000
0.204802 0.212964 0.000000
0.263237 0.208795 0.000000
0.331575 0.202714 0.000000
0.395672 0.196180 0.000000
0.459425 0.189398 0.000000
0.527884 0.184041 0.000000
0.602644 0.178882 0.000000
0.681428 0.169238 0.000000
0.761467 0.153248 0.000000
0.843676 0.134189 0.000000
0.925008 0.128827 0.000000
0.979646 0.124849 0.000000
0.999891 0.118988 0.000000
0.089209 0.281385 0.000000
0.120536 0.280899 0.000000
0.166852 0.279334 0.000000
0.222017 0.277043 0.000000
0.279010 0.275045 0.000000
0.339299 0.272311 0.000000
0.408031 0.267212 0.000000
0.475431 0.262872 0.000000
0.545915 0.259599 0.000000
0.619530 0.259753 0.000000
0.699128 0.261215 0.000000
0.779639 0.259600 0.000000
0.859664 0.257351 0.000000
0.937641 0.254425 0.000000
0.979670 0.251517 0.000000
0.999910 0.246358 0.000000
0.114908 0.349374 0.000000
0.145098 0.349068 0.000000
0.189436 0.348041 0.000000
0.243367 0.346445 0.000000
0.300830 0.344793 0.000000
0.357960 0.344239 0.000000
0.420665 0.343361 0.000000
0.495128 0.342202 0.000000
0.571010 0.343971 0.000000
0.647043 0.345669 0.000000
0.724424 0.346407 0.000000
0.801297 0.347034 0.000000
0.878005 0.346785 0.000000
0.952768 0.346071 0.000000
0.979759 0.344667 0.000000
1.000003 0.340512 0.000000
0.144533 0.423593 0.000000
0.174119 0.423457 0.000000
0.216552 0.422979 0.000000
0.268941 0.422212 0.000000
0.326589 0.422384 0.000000
0.387190 0.424403 0.000000
0.448971 0.428775 0.000000
0.516909 0.430580 0.000000
0.595595 0.433174 0.000000
0.674549 0.435375 0.000000
0.752242 0.437049 0.000000
0.826401 0.433464 0.000000
0.898700 0.430685 0.000000
0.958230 0.431347 0.000000
0.979759 0.430481 0.000000
1.000004 0.425964 0.000000
0.179474 0.512280 0.000000
0.209452 0.512425 0.000000
0.251058 0.512879 0.000000
0.302586 0.513613 0.000000
0.360409 0.514873 0.000000
0.421787 0.516790 0.000000
0.485596 0.519979 0.000000
0.548927 0.525522 0.000000
0.619492 0.526902 0.000000
0.698748 0.527381 0.000000
0.776407 0.526108 0.000000
0.848186 0.522408 0.000000
0.919154 0.517688 0.000000
0.958230 0.511977 0.000000
0.979759 0.510754 0.000000
1.000004 0.505165 0.000000
0.214797 0.611372 0.000000
0.245504 0.611599 0.000000
0.288139 0.612187 0.000000
0.338506 0.612854 0.000000
0.395962 0.613644 0.000000
0.457230 0.615002 0.000000
0.520370 0.616401 0.000000
0.584378 0.618268 0.000000
0.647276 0.622543 0.000000
0.717850 0.619765 0.000000
0.793845 0.616812 0.000000
0.864705 0.609748 0.000000
0.930173 0.602122 0.000000
0.958196 0.593081 0.000000
0.979736 0.582717 0.000000
0.999987 0.576382 0.000000
0.250290 0.709119 0.000000
0.281143 0.709811 0.000000
0.326228 0.711156 0.000000
0.376747 0.711145 0.000000
0.431767 0.710702 0.000000
0.490352 0.710118 0.000000
0.551544 0.709419 0.000000
0.614286 0.708893 0.000000
0.677095 0.708987 0.000000
0.736701 0.710937 0.000000
0.804524 0.703857 0.000000
0.870791 0.692807 0.000000
0.934925 0.682524 0.000000
0.958127 0.673131 0.000000
0.979668 0.660202 0.000000
0.999923 0.649815 0.000000
0.262815 0.780963 0.011454
0.295247 0.782925 0.007972
0.345394 0.788615 0.000000
0.409687 0.799482 0.000000
0.463643 0.799820 0.000000
0.519478 0.798239 0.000000
0.578059 0.795942 0.000000
0.636915 0.792545 0.000000
0.695580 0.788660 0.000000
0.753200 0.784690 0.000000
0.809166 0.782267 0.000000
0.873418 0.772066 0.000000
0.935097 0.760791 0.000000
0.958230 0.750312 0.000000
0.979747 0.737205 0.000000
0.999973 0.726920 0.000000
0.279412 0.851028 0.070655
0.309032 0.851419 0.067973
0.352487 0.853044 0.058637
0.408472 0.856367 0.038633
0.473786 0.864843 0.005241
0.528274 0.864664 0.001228
0.585000 0.863142 0.000000
0.642548 0.860509 0.000000
0.701922 0.857947 0.000000
0.761247 0.854736 0.000000
0.818557 0.850604 0.000000
0.874554 0.846765 0.000000
0.935482 0.836447 0.000000
0.958210 0.825805 0.000000
0.979755 0.814542 0.000000
1.000004 0.804484 0.000000
0.289884 0.913017 0.115651
0.317941 0.913201 0.114343
0.357787 0.913888 0.109142
0.409354 0.915699 0.097171
0.468633 0.918611 0.076804
0.532035 0.923596 0.047703
0.588146 0.923738 0.038366
0.644743 0.922644 0.032813
0.702812 0.921215 0.023902
0.761913 0.919114 0.005501
0.821377 0.916443 0.000000
0.879007 0.912836 0.000000
0.934685 0.909443 0.000000
0.958211 0.901862 0.000000
0.979716 0.891803 0.000000
0.999941 0.882363 0.000000
0.345706 0.940146 0.172843
0.371362 0.940606 0.171654
0.403867 0.942076 0.167705
0.444382 0.944904 0.161251
0.490737 0.948999 0.151911
0.544723 0.954627 0.134512
0.597959 0.959633 0.116301
0.650209 0.963461 0.105789
0.704030 0.965896 0.095808
0.759885 0.968092 0.078792
0.817688 0.968893 0.057782
0.877116 0.970371 0.025713
0.933534 0.970921 0.000396
0.957134 0.968860 0.000000
0.979759 0.965782 0.000000
1.000004 0.956633 0.000000
0.385668 0.963585 0.199481
0.410704 0.963997 0.198541
0.440935 0.965218 0.195548
0.476936 0.967397 0.190226
0.518675 0.970400 0.182967
0.565061 0.974272 0.172444
0.610263 0.977250 0.166802
0.657708 0.980632 0.163072
0.707851 0.983966 0.157249
0.760229 0.987325 0.148342
0.814161 0.990600 0.136445
0.871515 0.994709 0.116626
0.929281 0.998041 0.078511
0.954984 0.999749 0.000000
0.977436 0.999870 0.000000
1.000004 0.999864 0.000000
0.000000 0.001282 0.020419
0.022500 0.000373 0.020419
0.098431 0.000000 0.021040
0.180907 0.000034 0.021491
0.250094 0.000049 0.021808
0.313235 0.000041 0.022120
0.375436 0.000012 0.022289
0.443043 0.000000 0.022455
0.515499 0.000000 0.022597
0.586620 0.000000 0.022693
0.660462 0.000000 0.022769
0.740034 0.000000 0.022764
0.823517 0.000270 0.022763
0.909085 0.000981 0.022765
0.979651 0.001043 0.022680
0.999896 0.001042 0.022514
0.000000 0.042098 0.020419
0.024945 0.036382 0.020419
0.121375 0.025812 0.020419
0.187915 0.020719 0.020419
0.254849 0.020468 0.020419
0.314844 0.020459 0.020419
0.375986 0.020430 0.020419
0.443504 0.020419 0.020419
0.515852 0.020419 0.020419
0.586990 0.020419 0.020419
0.660800 0.020419 0.020419
0.740343 0.020419 0.020419
0.823825 0.020692 0.020419
0.909359 0.021402 0.020419
0.979651 0.021462 0.020419
0.999895 0.021461 0.020419
0.006130 0.096462 0.021122
0.043417 0.093449 0.020419
0.114668 0.094634 0.020419
0.196919 0.082254 0.020419
0.254432 0.069136 0.020419
0.317147 0.054647 0.020419
0.380750 0.046879 0.020419
0.448498 0.044908 0.020419
0.518248 0.044436 0.020419
0.588786 0.044593 0.020419
0.662435 0.044714 0.020419
0.741538 0.044700 0.020419
0.825062 0.044980 0.020419
0.910408 0.045691 0.020419
0.979651 0.045601 0.020419
0.999895 0.045323 0.020419
0.029969 0.152591 0.021546
0.068123 0.153476 0.020419
0.127523 0.153519 0.020419
0.189755 0.151640 0.020419
0.259349 0.141380 0.020419
0.322615 0.131784 0.020419
0.383771 0.122598 0.020419
0.452374 0.112337 0.020419
0.523189 0.097870 0.020419
0.594683 0.074201 0.020419
0.670629 0.067856 0.020419
0.749205 0.067835 0.020419
0.830941 0.068172 0.020419
0.913430 0.068857 0.020419
0.979651 0.068636 0.020419
0.999895 0.068162 0.020419
0.055342 0.213624 0.021849
0.089111 0.214465 0.020419
0.141884 0.213445 0.020419
0.202499 0.212494 0.020419
0.262135 0.208734 0.020419
0.331444 0.201996 0.020419
0.395748 0.195084 0.020419
0.459471 0.188047 0.020419
0.527708 0.182386 0.020419
0.602714 0.176913 0.020419
0.681984 0.166152 0.020419
0.762467 0.146691 0.020419
0.844763 0.125463 0.020419
0.925990 0.121654 0.020419
0.979647 0.116967 0.020419
0.999892 0.111444 0.020419
0.081130 0.278144 0.022088
0.112067 0.278736 0.020419
0.161971 0.278162 0.020419
0.220198 0.276935 0.020419
0.277942 0.274995 0.020419
0.338595 0.272417 0.020419
0.408090 0.266782 0.020419
0.475591 0.262134 0.020419
0.546153 0.258892 0.020419
0.619670 0.258802 0.020419
0.699256 0.260082 0.020419
0.780365 0.258028 0.020419
0.860678 0.253741 0.020419
0.938599 0.250212 0.020419
0.979665 0.246927 0.020419
0.999904 0.241400 0.020419
0.112223 0.349000 0.022289
0.140221 0.349019 0.020419
0.186574 0.348040 0.020419
0.241534 0.346470 0.020419
0.299693 0.344832 0.020419
0.357305 0.344265 0.020419
0.420390 0.343686 0.020419
0.495242 0.342237 0.020419
0.571291 0.343637 0.020419
0.647337 0.345060 0.020419
0.724571 0.345740 0.020419
0.801437 0.346163 0.020419
0.878875 0.345124 0.020419
0.953406 0.343935 0.020419
0.979757 0.342319 0.020419
1.000001 0.338151 0.020419
0.142705 0.423672 0.022455
0.169452 0.423562 0.020419
0.213788 0.423091 0.020419
0.267173 0.422323 0.020419
0.325542 0.422617 0.020419
0.386516 0.424680 0.020419
0.448689 0.429018 0.020419
0.516769 0.430894 0.020419
0.595675 0.433201 0.020419
0.674748 0.435172 0.020419
0.752475 0.436601 0.020419
0.826534 0.432869 0.020419
0.899095 0.429841 0.020419
0.958230 0.430057 0.020419
0.979759 0.429009 0.020419
1.000003 0.424547 0.020419
0.178080 0.512596 0.022597
0.204905 0.512655 0.020419
0.248383 0.513083 0.020419
0.300877 0.513868 0.020419
0.359211 0.515140 0.020419
0.420942 0.517054 0.020419
0.485091 0.520245 0.020419
0.548663 0.525703 0.020419
0.619288 0.527174 0.020419
0.698750 0.527380 0.020419
0.776469 0.525843 0.020419
0.848264 0.522042 0.020419
0.919519 0.517095 0.020419
0.958230 0.511313 0.020419
0.979759 0.509901 0.020419
1.000003 0.504360 0.020419
0.213178 0.611546 0.022693
0.240702 0.611839 0.020419
0.285547 0.612402 0.020419
0.336785 0.613060 0.020419
0.394676 0.613861 0.020419
0.456254 0.615191 0.020419
0.519700 0.616548 0.020419
0.583895 0.618387 0.020419
0.646984 0.622602 0.020419
0.717525 0.619892 0.020419
0.793630 0.616779 0.020419
0.864556 0.609475 0.020419
0.930068 0.601700 0.020419
0.958197 0.592500 0.020419
0.979737 0.582232 0.020419
0.999988 0.575908 0.020419
0.241445 0.703397 0.022752
0.272750 0.706938 0.020419
0.322147 0.710031 0.020419
0.375037 0.711230 0.020419
0.430473 0.710814 0.020419
0.489377 0.710229 0.020419
0.550797 0.709486 0.020419
0.613684 0.708980 0.020419
0.676580 0.709041 0.020419
0.736282 0.710973 0.020419
0.804079 0.703876 0.020419
0.870461 0.692749 0.020419
0.934880 0.682297 0.020419
0.958127 0.672731 0.020419
0.979669 0.659811 0.020419
0.999923 0.649247 0.020419
0.255915 0.776700 0.045305
0.284914 0.778582 0.037544
0.337768 0.784549 0.024735
0.402436 0.794265 0.020419
0.458004 0.795948 0.020419
0.514628 0.795042 0.020419
0.574229 0.793609 0.020419
0.634091 0.791052 0.020419
0.694060 0.788074 0.020419
0.752698 0.784614 0.020419
0.808612 0.782272 0.020419
0.872971 0.772023 0.020419
0.935080 0.760616 0.020419
0.958230 0.750148 0.020419
0.979747 0.736995 0.020419
0.999972 0.726652 0.020419
0.276448 0.849446 0.100049
0.303006 0.850057 0.094409
0.348238 0.851510 0.085446
0.404721 0.854630 0.066859
0.469452 0.861858 0.036435
0.524657 0.862203 0.032540
0.581801 0.861006 0.028904
0.639920 0.858832 0.022986
0.699408 0.856426 0.020419
0.759326 0.853791 0.020419
0.817658 0.850235 0.020419
0.874174 0.846683 0.020419
0.935478 0.836417 0.020419
0.958210 0.825717 0.020419
0.979756 0.814341 0.020419
1.000003 0.804329 0.020419
0.286699 0.911768 0.143904
0.312161 0.912126 0.139455
0.354079 0.912885 0.134081
0.406408 0.914594 0.122490
0.466217 0.917562 0.103157
0.530093 0.922416 0.075438
0.586535 0.922818 0.066583
0.642837 0.921433 0.061328
0.700799 0.920016 0.053159
0.760111 0.918160 0.037175
0.819780 0.915662 0.020426
0.878505 0.912732 0.020419
0.934624 0.909395 0.020419
0.958211 0.901799 0.020419
0.979715 0.891667 0.020419
0.999941 0.882168 0.020419
0.344171 0.939766 0.198590
0.367279 0.940198 0.194788
0.401453 0.941668 0.190893
0.442306 0.944425 0.184520
0.488973 0.948500 0.175314
0.543256 0.954186 0.158200
0.596806 0.959250 0.140337
0.649211 0.963134 0.130145
0.703056 0.965492 0.120445
0.758908 0.967677 0.104067
0.816813 0.968546 0.084049
0.876301 0.970113 0.054702
0.933303 0.970809 0.021807
0.957121 0.968856 0.020419
0.979759 0.965695 0.020419
1.000003 0.956500 0.020419
0.384641 0.963293 0.224560
0.407303 0.963645 0.221299
0.438958 0.964939 0.218325
0.475410 0.967135 0.213067
0.517248 0.970052 0.205958
0.563852 0.974022 0.195684
0.609334 0.977042 0.190007
0.656895 0.980379 0.186409
0.707114 0.983766 0.180752
0.759528 0.987110 0.172045
0.813422 0.990407 0.160418
0.870814 0.994491 0.141272
0.928888 0.998001 0.104980
0.954963 0.999783 0.020419
0.977426 0.999870 0.020419
1.000003 0.999864 0.020419
0.000000 0.003493 0.042244
0.021122 0.003509 0.042244
0.047823 0.000079 0.042244
0.125771 0.000000 0.042979
0.216125 0.000055 0.043614
0.291834 0.000041 0.044239
0.361563 0.000021 0.044576
0.435929 0.000000 0.044908
0.511925 0.000000 0.045192
0.584415 0.000000 0.045386
0.659831 0.000000 0.045537
0.740071 0.000000 0.045523
0.824169 0.000277 0.045522
0.909211 0.000983 0.045527
0.979652 0.001039 0.045359
0.999900 0.001027 0.047406
0.000000 0.039527 0.042244
0.020419 0.036991 0.042244
0.047418 0.029043 0.042244
0.130961 0.020540 0.042714
0.220461 0.020475 0.043189
0.293203 0.020459 0.043680
0.362543 0.020440 0.043939
0.436948 0.020419 0.044208
0.512845 0.020419 0.044436
0.585124 0.020419 0.044593
0.660372 0.020419 0.044714
0.740456 0.020419 0.044700
0.824507 0.020699 0.044695
0.909543 0.021405 0.044697
0.979652 0.021459 0.044557
0.999900 0.021447 0.045972
0.000000 0.097462 0.043419
0.020419 0.096558 0.042992
0.052330 0.079585 0.042080
0.157930 0.070398 0.042244
0.233054 0.059310 0.042244
0.305945 0.044588 0.042244
0.375016 0.042754 0.042244
0.445370 0.042244 0.042244
0.515782 0.042244 0.042244
0.587303 0.042244 0.042244
0.662046 0.042244 0.042244
0.741675 0.042244 0.042244
0.825589 0.042534 0.042244
0.910552 0.043241 0.042244
0.979652 0.043285 0.042244
0.999899 0.043274 0.042244
0.000000 0.146925 0.043249
0.020487 0.142266 0.042813
0.075255 0.132507 0.042080
0.150041 0.137908 0.042244
0.250368 0.133261 0.042244
0.318045 0.125799 0.042244
0.381553 0.115250 0.042244
0.451097 0.102513 0.042244
0.522038 0.089069 0.042244
0.594255 0.069096 0.042244
0.670416 0.066557 0.042244
0.749369 0.066535 0.042244
0.831162 0.066870 0.042244
0.913286 0.067544 0.042244
0.979652 0.067388 0.042244
0.999900 0.067050 0.042244
0.002455 0.192561 0.043695
0.034176 0.191585 0.043259
0.098247 0.193114 0.042080
0.169874 0.197706 0.042244
0.243814 0.202928 0.042244
0.329094 0.199290 0.042244
0.395641 0.191609 0.042244
0.459205 0.184266 0.042244
0.527207 0.177600 0.042244
0.602413 0.170965 0.042244
0.682002 0.158102 0.042244
0.763227 0.133132 0.042244
0.846442 0.117151 0.042244
0.928896 0.107588 0.042244
0.979650 0.097764 0.042244
0.999896 0.092783 0.042244
0.030541 0.256055 0.044176
0.065186 0.256663 0.043626
0.122644 0.259052 0.042080
0.193349 0.264340 0.042244
0.262497 0.268970 0.042244
0.331105 0.270604 0.042244
0.407563 0.265710 0.042244
0.476048 0.260121 0.042244
0.546609 0.256730 0.042244
0.619924 0.256090 0.042244
0.699440 0.256757 0.042244
0.780725 0.254373 0.042244
0.861671 0.248212 0.042244
0.941184 0.238427 0.042244
0.979649 0.231144 0.042244
0.999889 0.222763 0.042244
0.066932 0.326815 0.044576
0.099261 0.328272 0.043939
0.153721 0.332541 0.042080
0.220236 0.336708 0.042244
0.286880 0.339937 0.042244
0.351819 0.342733 0.042244
0.418613 0.344240 0.042244
0.495610 0.342245 0.042244
0.572152 0.342732 0.042244
0.648206 0.343321 0.042244
0.724863 0.343910 0.042244
0.801583 0.343679 0.042244
0.879212 0.342151 0.042244
0.955027 0.338016 0.042244
0.979749 0.334329 0.042244
0.999991 0.330012 0.042244
0.109863 0.407138 0.044908
0.140568 0.408927 0.044208
0.190046 0.413075 0.042080
0.250958 0.415635 0.042244
0.316420 0.420068 0.042244
0.383595 0.424887 0.042244
0.447307 0.429484 0.042244
0.516033 0.431903 0.042244
0.595903 0.433378 0.042244
0.675388 0.434558 0.042244
0.753072 0.435317 0.042244
0.826813 0.431107 0.042244
0.899089 0.427853 0.042244
0.958230 0.426792 0.042244
0.979759 0.424400 0.042244
1.000004 0.419945 0.042244
0.152181 0.500018 0.045192
0.183086 0.502376 0.044436
0.229071 0.506344 0.042080
0.288337 0.509795 0.042244
0.353073 0.514324 0.042244
0.417821 0.517362 0.042244
0.483164 0.520749 0.042244
0.547772 0.526279 0.042244
0.618668 0.527946 0.042244
0.698628 0.527387 0.042244
0.776639 0.525143 0.042244
0.848418 0.520958 0.042244
0.919701 0.515567 0.042244
0.958230 0.509041 0.042244
0.979759 0.507362 0.042244
1.000004 0.501802 0.042244
0.182289 0.594456 0.045386
0.215382 0.597904 0.044593
0.268979 0.606708 0.042080
0.326127 0.609678 0.042244
0.388674 0.613040 0.042244
0.452838 0.615329 0.042244
0.517317 0.616753 0.042244
0.582263 0.618656 0.042244
0.646001 0.622623 0.042244
0.716571 0.620335 0.042244
0.793099 0.616691 0.042244
0.864262 0.608682 0.042244
0.929627 0.600547 0.042244
0.958199 0.590722 0.042244
0.979739 0.580646 0.042244
0.999990 0.574372 0.042244
0.211519 0.685090 0.055354
0.242461 0.687502 0.050610
0.297492 0.697060 0.042080
0.359827 0.703043 0.042244
0.419118 0.704971 0.042244
0.481670 0.706721 0.042244
0.545625 0.707615 0.042244
0.610421 0.708136 0.042244
0.674083 0.708391 0.042244
0.734772 0.710809 0.042244
0.802571 0.703806 0.042244
0.869464 0.692284 0.042244
0.934560 0.681431 0.042244
0.958127 0.671624 0.042244
0.979670 0.658464 0.042244
0.999926 0.647550 0.042244
0.241786 0.768525 0.096744
0.269743 0.769425 0.092104
0.315770 0.773624 0.076329
0.383624 0.781754 0.055033
0.442810 0.785056 0.049655
0.501743 0.786196 0.050346
0.563407 0.786641 0.050186
0.625228 0.785595 0.047208
0.686469 0.783765 0.042303
0.747653 0.782261 0.042244
0.806047 0.781869 0.042244
0.871464 0.771967 0.042244
0.935028 0.760201 0.042244
0.958230 0.749402 0.042244
0.979746 0.736251 0.042244
0.999970 0.725722 0.042244
0.267561 0.844966 0.141229
0.294113 0.845395 0.137805
0.335232 0.847070 0.125931
0.394127 0.849721 0.111132
0.458494 0.854466 0.087491
0.515020 0.855620 0.083637
0.573115 0.855342 0.081563
0.632342 0.853956 0.077294
0.692355 0.852106 0.070457
0.752976 0.850305 0.058036
0.813215 0.848104 0.042244
0.872343 0.846417 0.042244
0.935465 0.836280 0.042244
0.958211 0.825305 0.042244
0.979757 0.813802 0.042244
1.000004 0.803790 0.042244
0.278879 0.908561 0.180929
0.304572 0.908890 0.178108
0.342912 0.909892 0.168882
0.397808 0.911493 0.158460
0.459051 0.914485 0.141471
0.524208 0.918950 0.117796
0.581749 0.919999 0.109765
0.638463 0.918864 0.105545
0.696254 0.917329 0.099044
0.755196 0.915424 0.086911
0.815282 0.913421 0.064470
0.875805 0.911660 0.042602
0.934501 0.909272 0.042244
0.958210 0.901674 0.042244
0.979715 0.891287 0.042244
0.999939 0.881566 0.042244
0.338942 0.938350 0.230863
0.362007 0.938840 0.228850
0.393325 0.940261 0.222169
0.435643 0.942933 0.216333
0.483106 0.946768 0.207537
0.538525 0.952648 0.191341
0.592856 0.957739 0.174939
0.645977 0.961858 0.165787
0.699892 0.964051 0.157099
0.755827 0.966315 0.142430
0.813730 0.967214 0.125330
0.873525 0.969126 0.101599
0.932562 0.970137 0.067709
0.957087 0.968823 0.042244
0.979759 0.965480 0.042244
1.000004 0.956177 0.042244
0.381535 0.962445 0.254607
0.404235 0.962817 0.252751
0.433055 0.964051 0.247099
0.470961 0.966292 0.242072
0.513300 0.969278 0.235373
0.560171 0.973011 0.225631
0.606684 0.976339 0.220149
0.654562 0.979728 0.216926
0.704936 0.983182 0.211801
0.757458 0.986663 0.203852
0.811275 0.989723 0.192702
0.868641 0.993907 0.175208
0.927660 0.997683 0.143190
0.954910 0.999759 0.059597
0.977423 0.999870 0.042244
1.000004 0.999863 0.042244
0.000000 0.007629 0.064631
0.021546 0.007639 0.064631
0.043088 0.007091 0.064918
0.074666 0.000000 0.081113
0.145155 0.000000 0.073949
0.250781 0.000048 0.068172
0.334455 0.000027 0.068182
0.412607 0.000000 0.069017
0.491921 0.000000 0.068917
0.568781 0.000000 0.068076
0.649534 0.000000 0.068301
0.733331 0.000000 0.068288
0.819716 0.000253 0.070311
0.905478 0.000952 0.078407
0.979217 0.001011 0.097088
0.999907 0.001001 0.123624
0.000000 0.036747 0.068240
0.020419 0.034088 0.067375
0.042813 0.032692 0.066574
0.073768 0.020419 0.082469
0.147116 0.020419 0.073478
0.251923 0.020467 0.067799
0.335246 0.020446 0.067856
0.413319 0.020419 0.068601
0.492617 0.020419 0.068506
0.569341 0.020419 0.067654
0.650102 0.020419 0.067856
0.733857 0.020419 0.067835
0.820172 0.020675 0.069917
0.905829 0.021375 0.077113
0.979369 0.021431 0.095663
0.999907 0.021421 0.122649
0.000000 0.094836 0.084098
0.020419 0.093840 0.084089
0.042080 0.089751 0.083275
0.067976 0.073650 0.086562
0.160279 0.060346 0.068542
0.261089 0.044415 0.066214
0.344006 0.042414 0.066080
0.418707 0.042244 0.066822
0.495070 0.042244 0.067065
0.571403 0.042244 0.066431
0.651852 0.042244 0.066557
0.735421 0.042244 0.066660
0.821575 0.042511 0.068402
0.906930 0.043210 0.072949
0.979656 0.043257 0.092122
0.999907 0.043245 0.119966
0.000000 0.152083 0.099978
0.020419 0.152012 0.100101
0.042080 0.147027 0.096501
0.077126 0.120407 0.078307
0.190064 0.118361 0.065162
0.280051 0.113863 0.064749
0.354319 0.101697 0.064631
0.429890 0.086313 0.064631
0.507334 0.073315 0.064631
0.584546 0.064707 0.064631
0.663360 0.064631 0.064631
0.744644 0.064631 0.064631
0.826865 0.064942 0.064703
0.909267 0.065619 0.065973
0.979659 0.065645 0.088094
0.999907 0.065632 0.117223
0.000000 0.203122 0.096902
0.020419 0.200070 0.094360
0.042080 0.187947 0.083275
0.104316 0.173731 0.069852
0.190696 0.183204 0.065349
0.299009 0.185549 0.064631
0.373751 0.181676 0.064631
0.444395 0.175713 0.064631
0.517531 0.168480 0.064631
0.596865 0.160458 0.064631
0.678642 0.143857 0.064631
0.761526 0.118643 0.064631
0.845841 0.106805 0.064631
0.928281 0.096857 0.064631
0.979653 0.089578 0.064854
0.999905 0.089194 0.094206
0.000000 0.247262 0.088663
0.020419 0.244124 0.084466
0.051794 0.238518 0.075759
0.133137 0.237973 0.068865
0.216299 0.247028 0.066070
0.294315 0.256971 0.065009
0.386546 0.256272 0.064631
0.467735 0.253910 0.064631
0.541548 0.251890 0.064631
0.617131 0.250894 0.064631
0.698217 0.250921 0.064631
0.780651 0.248211 0.064631
0.861588 0.240629 0.064631
0.941232 0.228718 0.064631
0.979633 0.207284 0.064631
0.999880 0.184763 0.064631
0.000000 0.302484 0.081928
0.023853 0.302843 0.079307
0.081855 0.303696 0.074602
0.164810 0.309580 0.069801
0.244883 0.317995 0.067704
0.317731 0.326013 0.065172
0.391067 0.333587 0.064919
0.486214 0.337795 0.064631
0.570366 0.339982 0.064631
0.649214 0.340498 0.064631
0.725423 0.341004 0.064631
0.801644 0.339574 0.064631
0.879048 0.337723 0.064631
0.954946 0.332796 0.064631
0.979739 0.325047 0.064631
0.999973 0.316334 0.064631
0.029162 0.377325 0.081565
0.064904 0.378624 0.080465
0.125506 0.382555 0.076899
0.199782 0.389852 0.071827
0.276228 0.398285 0.070426
0.349756 0.407447 0.066538
0.423769 0.418121 0.065203
0.500556 0.426011 0.064840
