example_ofxGpuLutCube/bin/data/ofxGpuLutCube/LUT/C19 (dark magenta look).cube
LUT_3D_SIZE 16
0.075303 0.012981 0.041526
0.098305 0.012981 0.041526
0.138980 0.012981 0.038943
0.195421 0.010398 0.036573
0.269166 0.007815 0.036360
0.331944 0.007815 0.033777
0.409796 0.007815 0.031629
0.496655 0.007815 0.021169
0.585794 0.007815 0.012981
0.660036 0.007815 0.008462
0.736941 0.010138 0.007815
0.800814 0.012981 0.007815
0.861093 0.012981 0.005166
0.911085 0.012981 0.005166
0.958268 0.015564 0.005166
0.999920 0.015564 0.005166
0.077561 0.037974 0.043842
0.100621 0.038299 0.044175
0.141563 0.036789 0.041526
0.198009 0.034407 0.039156
0.266608 0.032211 0.033796
0.331932 0.032214 0.036202
0.408999 0.031019 0.028838
0.496585 0.033079 0.018306
0.581559 0.033576 0.011447
0.657453 0.035677 0.010398
0.734119 0.036873 0.007839
0.798021 0.041615 0.007815
0.856038 0.041670 0.005403
0.908266 0.041905 0.005166
0.955132 0.041740 0.005166
0.997141 0.041416 0.005166
0.077886 0.084510 0.044491
0.103920 0.084787 0.044155
0.144810 0.082153 0.041810
0.198021 0.078701 0.036573
0.266603 0.072205 0.028545
0.331944 0.069044 0.025962
0.409086 0.074926 0.020086
0.492938 0.079932 0.014594
0.579054 0.084868 0.012981
0.655088 0.087788 0.010506
0.731350 0.090129 0.008494
0.793030 0.092938 0.007821
0.853278 0.092942 0.007815
0.903635 0.093417 0.007815
0.950452 0.093239 0.007496
0.994728 0.094202 0.005519
0.077886 0.153994 0.041704
0.104607 0.153994 0.041704
0.146531 0.149161 0.039232
0.198466 0.146352 0.036533
0.266603 0.140881 0.028539
0.332180 0.141895 0.026162
0.409440 0.143495 0.021053
0.495521 0.150214 0.015842
0.580588 0.153816 0.013554
0.655999 0.156677 0.011527
0.731769 0.158422 0.010468
0.793715 0.158378 0.010398
0.853971 0.158373 0.008508
0.904291 0.158368 0.008508
0.951390 0.158157 0.007815
0.994754 0.156878 0.007815
0.075245 0.223075 0.036302
0.102310 0.220550 0.036302
0.147637 0.220491 0.036302
0.201008 0.220408 0.036261
0.269716 0.212793 0.033664
0.337086 0.214620 0.029184
0.415010 0.219516 0.026078
0.497658 0.222950 0.019477
0.584687 0.228003 0.016351
0.658313 0.231455 0.014493
0.734448 0.233121 0.013075
0.796562 0.233027 0.012981
0.856934 0.234665 0.011322
0.908657 0.234670 0.011322
0.953948 0.233396 0.011244
0.997318 0.232696 0.011086
0.066833 0.306214 0.033777
0.096122 0.303977 0.033777
0.142689 0.303631 0.034133
0.200727 0.303631 0.034489
0.275080 0.303987 0.034489
0.340145 0.302336 0.036755
0.418189 0.303532 0.033690
0.502569 0.308797 0.026448
0.587438 0.313180 0.022803
0.662669 0.314950 0.019934
0.737058 0.318750 0.019374
0.800814 0.317617 0.016762
0.861093 0.318765 0.016748
0.911279 0.318789 0.015325
0.958268 0.317289 0.014039
0.999920 0.315975 0.013841
0.055993 0.396105 0.033067
0.085734 0.394198 0.033100
0.134534 0.393503 0.035650
0.196056 0.391631 0.035650
0.272525 0.393637 0.036124
0.344644 0.394232 0.038825
0.420709 0.392145 0.039458
0.506866 0.396415 0.034024
0.589452 0.398094 0.030190
0.663001 0.402354 0.027575
0.737202 0.403944 0.024893
0.800844 0.403834 0.023583
0.861195 0.403820 0.023466
0.913668 0.403868 0.022185
0.958268 0.402019 0.022064
0.999920 0.398437 0.021829
0.059739 0.480690 0.027440
0.090460 0.479585 0.027440
0.138850 0.478480 0.029091
0.196760 0.476964 0.031746
0.272533 0.478750 0.032672
0.343253 0.479585 0.033462
0.424590 0.479585 0.040126
0.508502 0.477596 0.038943
0.590794 0.482090 0.036167
0.663332 0.482302 0.033343
0.738084 0.483827 0.031938
0.800844 0.483689 0.029266
0.861283 0.483658 0.027577
0.913668 0.485047 0.027580
0.958268 0.481573 0.027441
0.999920 0.478526 0.027164
0.062322 0.569142 0.024428
0.092340 0.568950 0.024428
0.141020 0.566559 0.025962
0.200837 0.566559 0.025962
0.273177 0.566559 0.027011
0.345017 0.567607 0.030204
0.426500 0.568290 0.034541
0.509838 0.569142 0.042165
0.593569 0.567182 0.041116
0.665269 0.570008 0.038943
0.737202 0.571626 0.035899
0.800844 0.568765 0.035625
0.861283 0.569482 0.033041
0.913668 0.569557 0.032736
0.958268 0.567279 0.031194
0.999920 0.562762 0.031194
0.066891 0.649688 0.020796
0.093694 0.648876 0.020796
0.141920 0.647055 0.021443
0.202318 0.647055 0.023379
0.274307 0.647055 0.023379
0.346552 0.647055 0.025100
0.427022 0.647055 0.032807
0.510769 0.647702 0.038508
0.594033 0.647702 0.044175
0.664946 0.647055 0.043678
0.739633 0.649292 0.041036
0.801340 0.649123 0.038943
0.861283 0.648455 0.038440
0.913668 0.646572 0.038443
0.958268 0.644027 0.037991
0.999920 0.638972 0.036360
0.070137 0.728688 0.018213
0.098519 0.726105 0.018213
0.144111 0.726105 0.018266
0.203110 0.726105 0.019117
0.275084 0.726105 0.021094
0.347459 0.726105 0.023379
0.428320 0.726105 0.028876
0.510564 0.726105 0.035489
0.595177 0.726105 0.041074
0.667091 0.726105 0.043700
0.739844 0.726603 0.041793
0.800844 0.726424 0.041526
0.861283 0.726410 0.043444
0.913668 0.726413 0.041255
0.958268 0.723369 0.040754
0.999920 0.715986 0.038943
0.070137 0.795979 0.015564
0.099026 0.795977 0.015564
0.144484 0.793396 0.018211
0.205280 0.793395 0.018213
0.276246 0.793395 0.018213
0.347866 0.795977 0.021968
0.428964 0.794569 0.026197
0.511005 0.795038 0.034478
0.595199 0.795977 0.038239
0.665697 0.793864 0.041526
0.740163 0.793631 0.046522
0.801212 0.795976 0.044177
0.861283 0.795561 0.043949
0.913668 0.793425 0.041532
0.958268 0.790493 0.042094
0.999920 0.785655 0.043471
0.070137 0.858910 0.015564
0.101161 0.856501 0.015564
0.144482 0.856457 0.015564
0.205289 0.856261 0.018039
0.275363 0.856348 0.018213
0.347858 0.856501 0.019386
0.428945 0.856501 0.026195
0.510991 0.856501 0.032600
0.593303 0.856501 0.036360
0.665392 0.856501 0.041056
0.740146 0.856501 0.043716
0.801183 0.856501 0.046758
0.861727 0.856501 0.046758
0.913668 0.856107 0.044370
0.958268 0.853580 0.044127
0.999920 0.848281 0.043644
0.070519 0.908413 0.015182
0.098966 0.908413 0.015564
0.144404 0.908345 0.015564
0.204866 0.905773 0.015564
0.275869 0.906569 0.018213
0.347405 0.908413 0.019183
0.428220 0.908413 0.024742
0.510277 0.908413 0.030177
0.592493 0.908413 0.036360
0.664304 0.908413 0.040612
0.739298 0.908413 0.041526
0.800373 0.908413 0.044164
0.860812 0.908413 0.046758
0.913668 0.908935 0.046758
0.958268 0.906272 0.046758
0.999920 0.901387 0.046421
0.072720 0.958268 0.012981
0.099176 0.957896 0.015223
0.144429 0.957534 0.015564
0.203739 0.955685 0.015564
0.275011 0.955685 0.016432
0.346340 0.957896 0.018213
0.426666 0.957896 0.024647
0.508667 0.958055 0.030062
0.590658 0.958268 0.036360
0.662222 0.958268 0.038265
0.736830 0.958268 0.041526
0.798301 0.958268 0.043569
0.858858 0.958268 0.046347
0.911265 0.958268 0.046758
0.958268 0.958268 0.046758
0.999920 0.953177 0.046758
0.072720 0.999920 0.012981
0.100921 0.999724 0.013153
0.143543 0.997337 0.015564
0.202608 0.997337 0.015564
0.273595 0.997337 0.016270
0.343722 0.999894 0.018213
0.422849 0.999894 0.022878
0.504715 0.999908 0.029778
0.586141 0.999920 0.036360
0.657159 0.999920 0.037911
0.729851 0.999920 0.041526
0.793453 0.999920 0.041526
0.854017 0.999920 0.044175
0.906553 0.999920 0.046758
0.953356 0.999920 0.046758
0.999920 0.999920 0.049290
0.075303 0.012981 0.062277
0.097980 0.012981 0.066810
0.138626 0.010905 0.065388
0.190538 0.010398 0.065593
0.258788 0.007815 0.063354
0.326768 0.007815 0.063964
0.407213 0.007815 0.060290
0.495431 0.007815 0.052112
0.583057 0.007815 0.041775
0.658046 0.007815 0.039336
0.734619 0.007815 0.036920
0.800585 0.010398 0.034121
0.860861 0.010398 0.033902
0.909128 0.010398 0.031513
0.958237 0.010398 0.031316
0.999748 0.010398 0.031020
0.075303 0.035658 0.068785
0.100621 0.038258 0.069111
0.139099 0.035982 0.066829
0.192929 0.033288 0.064410
0.259171 0.030492 0.059323
0.327208 0.030147 0.059037
0.407213 0.028234 0.054924
0.496655 0.029362 0.044934
0.584088 0.030685 0.037938
0.660036 0.031029 0.031889
0.736941 0.032876 0.030780
0.800814 0.033717 0.028260
0.861238 0.033440 0.028234
0.913385 0.033819 0.027901
0.958268 0.035740 0.027901
0.999920 0.035983 0.027901
0.075442 0.079286 0.072295
0.100621 0.080357 0.069365
0.141613 0.077305 0.068578
0.193351 0.073212 0.061770
0.261387 0.066180 0.051964
0.331888 0.062782 0.050882
0.409075 0.065640 0.042711
0.496250 0.070444 0.035983
0.583676 0.076657 0.033400
0.659659 0.081607 0.031390
0.736048 0.081228 0.030817
0.799896 0.085648 0.028237
0.860321 0.085637 0.028234
0.910548 0.085912 0.028234
0.957385 0.085701 0.028234
0.999269 0.085201 0.027926
0.080184 0.143769 0.070999
0.100886 0.144359 0.068959
0.141234 0.141469 0.064584
0.191209 0.138748 0.061190
0.259148 0.132916 0.048964
0.329361 0.132985 0.046711
0.408794 0.135840 0.043266
0.493747 0.139552 0.037668
0.582441 0.145722 0.034626
0.657073 0.148651 0.033400
0.732236 0.151964 0.031408
0.795361 0.151961 0.030817
0.856266 0.151939 0.028819
0.908048 0.151945 0.028819
0.955095 0.151150 0.028763
0.997010 0.150636 0.028238
0.072590 0.210152 0.066008
0.095929 0.215376 0.062073
0.139312 0.215332 0.061555
0.193389 0.212722 0.061240
0.261917 0.205367 0.056660
0.332237 0.207374 0.052201
0.410232 0.210703 0.048093
0.495777 0.217858 0.041235
0.582348 0.221738 0.038267
0.657653 0.224850 0.036723
0.734402 0.226014 0.034264
0.797927 0.226811 0.033409
0.858185 0.228666 0.031671
0.909521 0.228673 0.031672
0.956039 0.227403 0.031593
0.997091 0.227479 0.031441
0.063338 0.301048 0.061237
0.085494 0.299407 0.057090
0.136489 0.298808 0.057090
0.192966 0.298764 0.057427
0.269346 0.298768 0.057417
0.335261 0.297144 0.059432
0.415082 0.300243 0.057080
0.500357 0.305041 0.050339
0.585794 0.307995 0.045789
0.660295 0.311536 0.042940
0.735789 0.313476 0.040854
0.800814 0.314511 0.038244
0.859710 0.313336 0.038083
0.911085 0.315273 0.037898
0.958041 0.313192 0.036858
0.999902 0.311225 0.036492
0.049781 0.390832 0.058503
0.076686 0.391010 0.056039
0.127613 0.389233 0.056069
0.187992 0.389000 0.056315
0.264914 0.389000 0.058764
0.340063 0.389261 0.062689
0.418545 0.389066 0.063626
0.504441 0.393208 0.058851
0.587997 0.396001 0.055289
0.661781 0.399357 0.051535
0.736958 0.400893 0.047867
0.800844 0.401096 0.047412
0.861105 0.402040 0.045992
0.911480 0.401057 0.044967
0.958268 0.400302 0.043693
0.999920 0.397873 0.044470
0.056745 0.478001 0.055601
0.081361 0.477172 0.052763
0.130877 0.475672 0.052773
0.190710 0.475486 0.052970
0.266400 0.475486 0.053601
0.339868 0.476964 0.058314
0.421822 0.476964 0.062925
0.505999 0.476491 0.064002
0.590748 0.478741 0.059619
0.663086 0.480977 0.057257
0.737116 0.483288 0.055478
0.800844 0.483326 0.053091
0.861117 0.482418 0.050580
0.911518 0.482577 0.050266
0.958268 0.481160 0.050123
0.999920 0.476967 0.049843
0.059275 0.566637 0.050189
0.086703 0.566583 0.047298
0.134645 0.565217 0.047414
0.196192 0.565007 0.047678
0.268307 0.565277 0.049764
0.341936 0.566073 0.052142
0.422941 0.567607 0.058631
0.508592 0.567607 0.066106
0.592035 0.565762 0.064263
0.663707 0.568900 0.063209
0.737202 0.570601 0.059497
0.800844 0.568547 0.058320
0.861234 0.568568 0.058278
0.911597 0.568576 0.055703
0.958268 0.566046 0.055543
0.999920 0.561366 0.055226
0.061839 0.648876 0.046722
0.087955 0.647097 0.043554
0.135017 0.647055 0.043798
0.196721 0.646699 0.044244
0.269372 0.645362 0.045085
0.342028 0.647055 0.050092
0.424039 0.647332 0.054992
0.509486 0.647702 0.063141
0.592456 0.649413 0.066852
0.663494 0.647553 0.066224
0.737899 0.649235 0.064232
0.800844 0.648990 0.063739
0.861117 0.648271 0.061170
0.911518 0.646369 0.059600
0.958268 0.643802 0.059275
0.999920 0.638752 0.059230
0.066312 0.728459 0.044506
0.090485 0.726110 0.040923
0.137530 0.726105 0.041188
0.196539 0.726037 0.041051
0.270116 0.725926 0.043511
0.344103 0.726105 0.045034
0.425246 0.726105 0.051791
0.509103 0.726105 0.058442
0.593391 0.726105 0.063874
0.664900 0.726105 0.067318
0.737257 0.726603 0.067056
0.800844 0.726417 0.066318
0.861117 0.726358 0.064558
0.913437 0.726325 0.064232
0.958268 0.722942 0.064140
0.999920 0.715811 0.063367
0.067080 0.795977 0.041695
0.090882 0.795978 0.038632
0.138160 0.793687 0.038632
0.198262 0.793395 0.038632
0.270326 0.793395 0.040998
0.344648 0.793395 0.043614
0.425816 0.793548 0.050043
0.509725 0.793397 0.056537
0.591452 0.793397 0.061620
0.665593 0.793397 0.066101
0.737794 0.793397 0.069196
0.801210 0.793397 0.069435
0.861283 0.792945 0.066848
0.913668 0.792966 0.066843
0.958268 0.790428 0.066623
0.999920 0.784948 0.066245
0.069662 0.856501 0.041460
0.093139 0.856501 0.038299
0.139932 0.856501 0.038331
0.196582 0.856470 0.038632
0.270342 0.856470 0.038632
0.344533 0.856501 0.042016
0.425804 0.856501 0.047507
0.509681 0.856501 0.055488
0.591419 0.856501 0.060898
0.664879 0.856501 0.063825
0.737434 0.856501 0.066821
0.801202 0.856501 0.069435
0.861727 0.856501 0.069435
0.913668 0.856071 0.069435
0.958268 0.853515 0.069019
0.999920 0.848199 0.066852
0.069676 0.908413 0.041415
0.093097 0.908413 0.035983
0.140036 0.908413 0.037957
0.196696 0.908081 0.038095
0.269999 0.907839 0.038632
0.343168 0.908385 0.040834
0.425089 0.908413 0.046290
0.508996 0.908413 0.054331
0.590404 0.908413 0.059037
0.663826 0.908413 0.061876
0.736531 0.908413 0.066532
0.800257 0.908413 0.069029
0.860777 0.908413 0.069435
0.913668 0.908935 0.069490
0.958268 0.906242 0.069453
0.999920 0.901342 0.069435
0.069708 0.958237 0.040967
0.092855 0.957984 0.035983
0.139598 0.957871 0.035983
0.197616 0.957222 0.035983
0.268890 0.955685 0.038632
0.343058 0.957727 0.039513
0.423496 0.957896 0.046106
0.507151 0.957943 0.052736
0.588688 0.957943 0.058240
0.660546 0.958180 0.061823
0.736034 0.958268 0.066103
0.798236 0.958268 0.066847
0.858798 0.958268 0.069435
0.911238 0.958268 0.069457
0.958268 0.958268 0.069760
0.999920 0.953155 0.069438
0.069788 0.999918 0.038599
0.093176 0.999900 0.035942
0.138981 0.999428 0.035983
0.196514 0.997337 0.035983
0.267771 0.997337 0.038382
0.340502 0.997438 0.039345
0.419674 0.999894 0.045469
0.502965 0.999897 0.052461
0.584661 0.999897 0.057964
0.656938 0.999911 0.060583
0.728927 0.999920 0.065755
0.792760 0.999920 0.066763
0.853943 0.999920 0.067199
0.906508 0.999920 0.069139
0.953336 0.999920 0.069438
0.999920 0.999920 0.071973
0.075303 0.012981 0.101352
0.098988 0.012981 0.106203
0.137035 0.012981 0.106203
0.190266 0.010398 0.102637
0.256224 0.007815 0.103400
0.326607 0.007815 0.105085
0.405273 0.007815 0.101792
0.493908 0.007815 0.094398
0.581637 0.007815 0.088272
0.657453 0.007815 0.083700
0.734619 0.007815 0.080094
0.798256 0.010393 0.079963
0.858510 0.010398 0.075202
0.908935 0.010398 0.074860
0.957896 0.010398 0.072566
0.997337 0.010398 0.070830
0.075303 0.036666 0.106660
0.100621 0.038008 0.109125
0.139341 0.035981 0.108669
0.190482 0.031191 0.104655
0.258807 0.028234 0.102963
0.327169 0.028234 0.103598
0.407213 0.028234 0.099516
0.496646 0.029144 0.091067
0.584137 0.030685 0.083622
0.660036 0.030817 0.080738
0.736941 0.030817 0.075547
0.800814 0.030817 0.070848
0.861242 0.030817 0.070247
0.913372 0.030817 0.070001
0.958268 0.030817 0.068982
0.999920 0.030817 0.064609
0.075303 0.079286 0.106802
0.098801 0.079044 0.108808
0.139286 0.076346 0.107942
0.191037 0.069870 0.101720
0.261371 0.062086 0.094412
0.331628 0.059503 0.093235
0.408857 0.061770 0.087232
0.496655 0.059818 0.075190
0.583412 0.062415 0.064961
0.660036 0.064838 0.061074
0.736941 0.066697 0.058568
0.800814 0.067178 0.057783
0.861283 0.069211 0.055506
0.913668 0.069211 0.055455
0.958268 0.069870 0.055187
0.999920 0.073836 0.055187
0.077712 0.138715 0.105353
0.098283 0.141298 0.107354
0.136898 0.140978 0.103867
0.188850 0.134267 0.096646
0.258487 0.124191 0.085534
0.329361 0.120973 0.080580
0.407931 0.124410 0.074748
0.495341 0.131341 0.066940
0.581550 0.133864 0.063480
0.657453 0.137411 0.060197
0.734352 0.139934 0.057960
0.798261 0.138062 0.057493
0.858680 0.142162 0.055185
0.910885 0.142270 0.054943
0.958058 0.141655 0.054938
0.997655 0.143327 0.054929
0.069877 0.210209 0.101053
0.090244 0.212476 0.102541
0.133391 0.212793 0.098046
0.191693 0.210219 0.096134
0.259435 0.204985 0.090534
0.329595 0.203303 0.086770
0.410022 0.203769 0.080744
0.497142 0.209538 0.073455
0.581677 0.213424 0.068498
0.657609 0.217111 0.064477
0.732853 0.218880 0.061735
0.798241 0.219212 0.061379
0.858510 0.220587 0.058743
0.909002 0.220874 0.058739
0.956188 0.221381 0.058169
0.997337 0.219210 0.058358
0.051212 0.300922 0.098361
0.072252 0.301404 0.095719
0.122731 0.301404 0.092898
0.189519 0.299041 0.091310
0.266696 0.298764 0.091336
0.336987 0.296778 0.094221
0.412924 0.296568 0.092225
0.499680 0.300043 0.084755
0.585712 0.303907 0.078095
0.658818 0.305934 0.074481
0.734619 0.308484 0.072183
0.799227 0.308267 0.070429
0.858581 0.308210 0.069478
0.911085 0.308327 0.068644
0.957911 0.306740 0.066952
0.997422 0.305959 0.068338
0.043999 0.389000 0.102681
0.066231 0.389000 0.098088
0.111546 0.390657 0.089999
0.180363 0.390664 0.090495
0.258659 0.390144 0.093048
0.338595 0.390920 0.097502
0.418396 0.388117 0.096693
0.502883 0.391035 0.093351
0.588806 0.393746 0.087987
0.660952 0.395626 0.084267
0.736941 0.397026 0.080805
0.800816 0.396853 0.079251
0.861093 0.396741 0.077893
0.911111 0.396689 0.075468
0.958085 0.394939 0.075251
0.999905 0.393019 0.074823
0.042659 0.476964 0.093601
0.068904 0.476964 0.088979
0.116708 0.475486 0.084435
0.181911 0.475420 0.084966
0.261091 0.474492 0.087655
0.336914 0.474776 0.090539
0.421955 0.475550 0.096468
0.504519 0.474686 0.096241
0.590295 0.477765 0.093033
0.662564 0.478476 0.091518
0.737098 0.480264 0.087614
0.800818 0.479956 0.086061
0.861093 0.478693 0.083761
0.911085 0.478905 0.083626
0.958268 0.477809 0.081961
0.999920 0.473659 0.081802
0.048574 0.569142 0.087535
0.074184 0.569142 0.085011
0.118758 0.567397 0.078961
0.185499 0.566559 0.079337
0.262293 0.566559 0.080949
0.336756 0.566646 0.085052
0.421406 0.566559 0.091654
0.506321 0.566622 0.099377
0.592035 0.565647 0.097765
0.665611 0.567301 0.094460
0.737202 0.566591 0.093294
0.800844 0.567867 0.092745
0.861093 0.565936 0.090034
0.911102 0.565851 0.088548
0.958268 0.563831 0.088253
0.999920 0.560453 0.087088
0.050096 0.647163 0.084990
0.078273 0.647278 0.082153
0.122858 0.647055 0.077731
0.186189 0.644544 0.076440
0.263658 0.644472 0.077992
0.336955 0.645124 0.079827
0.422845 0.647896 0.087688
0.507467 0.649120 0.094628
0.591993 0.647266 0.099488
0.665915 0.647127 0.098160
0.737202 0.649043 0.095768
0.800844 0.648074 0.094296
0.861093 0.645885 0.095370
0.911097 0.645814 0.093052
0.958268 0.643196 0.092878
0.999920 0.638163 0.092448
0.052318 0.726105 0.079802
0.080792 0.726105 0.077479
0.125999 0.726105 0.072597
0.188549 0.725613 0.073143
0.262671 0.723669 0.073965
0.337463 0.725837 0.077907
0.422696 0.726105 0.083811
0.506897 0.725046 0.091013
0.592067 0.724103 0.096359
0.664690 0.725827 0.100608
0.737225 0.724461 0.099024
0.800844 0.723853 0.098729
0.861093 0.725775 0.098181
0.911132 0.723613 0.098076
0.958268 0.720531 0.095969
0.999920 0.715409 0.095367
0.056428 0.795977 0.078626
0.083547 0.793721 0.074643
0.126306 0.793397 0.069916
0.189189 0.793395 0.070158
0.264330 0.793395 0.071081
0.337699 0.793395 0.074859
0.422007 0.793395 0.081837
0.507166 0.793395 0.089726
0.590673 0.793395 0.095397
0.665236 0.793396 0.098257
0.737332 0.793395 0.101131
0.801210 0.793397 0.101354
0.861093 0.792754 0.099078
0.911400 0.792629 0.099017
0.958268 0.789451 0.098727
0.999920 0.782695 0.098760
0.057102 0.856501 0.076458
0.083909 0.856501 0.074365
0.128416 0.856501 0.069714
0.189141 0.856474 0.070136
0.261513 0.856261 0.070158
0.337634 0.856371 0.073580
0.421911 0.856501 0.079406
0.506974 0.856501 0.087242
0.590537 0.856501 0.092765
0.662429 0.856501 0.096178
0.737129 0.856501 0.099025
0.801012 0.856501 0.101340
0.861514 0.856501 0.101557
0.913315 0.855972 0.101485
0.958268 0.853334 0.101292
0.999920 0.848007 0.099103
0.060034 0.908413 0.076327
0.086044 0.908413 0.072151
0.126952 0.908413 0.067374
0.188944 0.908373 0.067481
0.262808 0.906543 0.069907
0.337132 0.908048 0.071247
0.421035 0.908413 0.079329
0.504497 0.908413 0.086078
0.589686 0.908413 0.091152
0.661477 0.908413 0.095639
0.735455 0.908413 0.098652
0.800018 0.908413 0.101261
0.860747 0.908413 0.103302
0.913352 0.908935 0.103620
0.958268 0.906159 0.103620
0.999920 0.901225 0.101372
0.060619 0.957896 0.075606
0.084066 0.957896 0.071487
0.126622 0.957896 0.065366
0.188441 0.955685 0.065308
0.262277 0.955685 0.067912
0.336130 0.955776 0.071053
0.419454 0.957896 0.077657
0.503622 0.957896 0.084575
0.587968 0.957896 0.090833
0.659496 0.957896 0.095426
0.731521 0.957896 0.097950
0.797767 0.957941 0.099050
0.858564 0.957941 0.101352
0.909323 0.957941 0.103623
0.958268 0.957988 0.103704
0.999920 0.953149 0.103623
0.060937 0.997337 0.074956
0.086326 0.999894 0.068844
0.126664 0.997385 0.065104
0.187389 0.997337 0.065444
0.260416 0.997337 0.068269
0.333969 0.997337 0.070869
0.415715 0.997337 0.076412
0.498666 0.997471 0.084275
0.583836 0.999894 0.089684
0.654816 0.999894 0.092606
0.726742 0.999894 0.096178
0.790526 0.999897 0.098995
0.853225 0.999897 0.101352
0.906391 0.999897 0.103309
0.953330 0.999897 0.103935
0.999920 0.999920 0.103935
0.072720 0.010571 0.157097
0.099374 0.010571 0.162037
0.136306 0.010406 0.159614
0.188229 0.010398 0.162094
0.253595 0.007815 0.164161
0.321432 0.007815 0.164323
0.402023 0.007815 0.162411
0.490987 0.007815 0.158346
0.579674 0.007815 0.153972
0.656810 0.007815 0.151785
0.733655 0.007815 0.148587
0.797528 0.009682 0.146593
0.857851 0.010398 0.144005
0.908935 0.010398 0.140173
0.955593 0.010398 0.139326
0.996821 0.010398 0.137126
0.072893 0.034643 0.167094
0.097980 0.033532 0.164949
0.138035 0.033369 0.166838
0.188407 0.030968 0.166838
0.258468 0.028234 0.164102
0.326565 0.028234 0.166235
0.406894 0.028234 0.163284
0.493995 0.028234 0.155100
0.581443 0.030073 0.150971
0.657900 0.030617 0.148358
0.736177 0.030817 0.145952
0.799986 0.030817 0.143044
0.860313 0.030817 0.139098
0.912478 0.030817 0.138545
0.958135 0.030817 0.137344
0.999451 0.030817 0.135800
0.070592 0.076344 0.164787
0.093478 0.075675 0.169719
0.134753 0.071815 0.169578
0.188708 0.069236 0.165125
0.256721 0.059515 0.160566
0.329020 0.059476 0.159861
0.407126 0.059423 0.154634
0.493985 0.059630 0.145219
0.583060 0.059792 0.139901
0.658044 0.059818 0.137478
0.734871 0.061633 0.132399
0.800814 0.061808 0.129750
0.861093 0.061810 0.125129
0.913668 0.060130 0.124623
0.958268 0.061881 0.121727
0.999920 0.061948 0.120455
0.070484 0.131471 0.162106
0.091175 0.133607 0.167012
0.131402 0.133868 0.167312
0.185472 0.127943 0.161877
0.254147 0.115672 0.153980
0.324852 0.110505 0.146163
0.405586 0.110397 0.137423
0.494311 0.109776 0.126319
0.582841 0.110896 0.114398
0.658019 0.109398 0.109217
0.734369 0.113438 0.105652
0.798273 0.113750 0.103380
0.858545 0.116011 0.100604
0.909214 0.118158 0.098193
0.957921 0.118008 0.098345
0.997511 0.116187 0.100281
0.064689 0.205016 0.169795
0.087726 0.210189 0.169362
0.125868 0.210210 0.165260
0.184696 0.205910 0.160608
0.256967 0.197407 0.153822
0.329658 0.189631 0.148189
0.409211 0.192137 0.135251
0.494475 0.192881 0.125222
0.583090 0.195397 0.117243
0.658312 0.200569 0.112160
0.732053 0.201456 0.108979
0.795789 0.202988 0.106447
0.858510 0.203298 0.103958
0.908590 0.203258 0.103461
0.955704 0.202484 0.103370
0.997337 0.203549 0.103198
0.050642 0.298365 0.172437
0.071476 0.300840 0.169467
0.107542 0.299131 0.162087
0.166371 0.298782 0.148345
0.260010 0.296569 0.146409
0.333607 0.292480 0.155251
0.412893 0.289500 0.148550
0.498791 0.291759 0.136692
0.585813 0.293865 0.128096
0.660127 0.295000 0.123592
0.734511 0.296525 0.120137
0.796566 0.296255 0.117304
0.858510 0.296098 0.116232
0.909080 0.296315 0.114210
0.955833 0.296547 0.112018
0.997337 0.292978 0.111746
0.041171 0.388388 0.175753
0.064090 0.388718 0.171788
0.099662 0.390764 0.161495
0.153774 0.389163 0.142711
0.247382 0.389000 0.142780
0.333335 0.389502 0.146489
0.417641 0.388074 0.147768
0.502650 0.387858 0.145983
0.588431 0.388052 0.139708
0.662948 0.389373 0.134063
0.736981 0.388865 0.130769
0.798433 0.388307 0.127223
0.859649 0.388206 0.125581
0.909943 0.388024 0.124289
0.957906 0.386250 0.122853
0.997391 0.383035 0.121722
0.041323 0.476491 0.168586
0.064014 0.475644 0.164158
0.099208 0.474525 0.153945
0.158063 0.476758 0.132844
0.246603 0.475868 0.135374
0.328649 0.476890 0.140155
0.416796 0.476964 0.145847
0.505877 0.475087 0.146547
