example_ofxGpuLutCube/bin/data/ofxGpuLutCube/LUT/C19 (dark magenta look).cube
LUT_3D_SIZE 6
0.075303 0.012981 0.041526
0.195421 0.010398 0.036573
0.409796 0.007815 0.031629
0.660036 0.007815 0.008462
0.861093 0.012981 0.005166
0.999920 0.015564 0.005166
0.077886 0.153994 0.041704
0.198466 0.146352 0.036533
0.409440 0.143495 0.021053
0.655999 0.156677 0.011527
0.853971 0.158373 0.008508
0.994754 0.156878 0.007815
0.055993 0.396105 0.033067
0.196056 0.391631 0.035650
0.420709 0.392145 0.039458
0.663001 0.402354 0.027575
0.861195 0.403820 0.023466
0.999920 0.398437 0.021829
0.066891 0.649688 0.020796
0.202318 0.647055 0.023379
0.427022 0.647055 0.032807
0.664946 0.647055 0.043678
0.861283 0.648455 0.038440
0.999920 0.638972 0.036360
0.070137 0.858910 0.015564
0.205289 0.856261 0.018039
0.428945 0.856501 0.026195
0.665392 0.856501 0.041056
0.861727 0.856501 0.046758
0.999920 0.848281 0.043644
0.072720 0.999920 0.012981
0.202608 0.997337 0.015564
0.422849 0.999894 0.022878
0.657159 0.999920 0.037911
0.854017 0.999920 0.044175
0.999920 0.999920 0.049290
0.072720 0.010571 0.157097
0.188229 0.010398 0.162094
0.402023 0.007815 0.162411
0.656810 0.007815 0.151785
0.857851 0.010398 0.144005
0.996821 0.010398 0.137126
0.070484 0.131471 0.162106
0.185472 0.127943 0.161877
0.405586 0.110397 0.137423
0.658019 0.109398 0.109217
0.858545 0.116011 0.100604
0.997511 0.116187 0.100281
0.041171 0.388388 0.175753
0.153774 0.389163 0.142711
0.417641 0.388074 0.147768
0.662948 0.389373 0.134063
0.859649 0.388206 0.125581
0.997391 0.383035 0.121722
0.040883 0.647702 0.157822
0.162306 0.647073 0.123925
0.414703 0.647112 0.134162
0.665269 0.646671 0.146381
0.861093 0.642254 0.143545
0.997535 0.633924 0.140411
0.041526 0.856501 0.146254
0.165309 0.856281 0.117546
0.412897 0.856277 0.127208
0.661275 0.856501 0.143717
0.861493 0.856501 0.149460
0.999404 0.844709 0.146877
0.041526 0.997337 0.138188
0.167728 0.997337 0.112734
0.407231 0.997337 0.124297
0.650701 0.997337 0.139173
0.850615 0.997509 0.146877
0.999920 0.999894 0.151822
0.067554 0.005166 0.354285
0.186961 0.005166 0.351605
0.397525 0.005894 0.356171
0.657453 0.007815 0.353987
0.858700 0.010398 0.350322
0.999920 0.010398 0.343387
0.038943 0.114322 0.350045
0.159973 0.101489 0.368349
0.400284 0.102667 0.357012
0.654914 0.105285 0.343440
0.856220 0.105208 0.336725
0.997339 0.105285 0.328639
0.033777 0.383834 0.372645
0.139427 0.385250 0.375953
0.406278 0.378932 0.370209
0.662851 0.356960 0.328507
0.861093 0.347297 0.308336
0.997337 0.343642 0.301163
0.036360 0.646409 0.366324
0.138696 0.646462 0.352956
0.368807 0.649688 0.313011
0.666882 0.645531 0.324034
0.862432 0.631345 0.326496
0.997351 0.620150 0.319345
0.036360 0.856501 0.358342
0.136326 0.856281 0.343378
0.360572 0.858910 0.297206
0.647157 0.859144 0.313909
0.864076 0.858926 0.319475
0.997363 0.841278 0.317067
0.036360 0.999920 0.352196
0.136326 0.997337 0.334740
0.359733 0.997337 0.293201
0.635026 0.997337 0.308242
0.847036 0.999480 0.315775
0.999920 0.999894 0.317925
0.062322 0.005166 0.573046
0.189652 0.005166 0.565247
0.407549 0.006489 0.573046
0.657453 0.007815 0.570463
0.861093 0.010398 0.567011
0.999920 0.010398 0.560528
0.036360 0.112206 0.563295
0.157380 0.097383 0.588402
0.400189 0.096918 0.579751
0.652461 0.102832 0.568364
0.856220 0.102875 0.562558
0.997337 0.105285 0.551635
0.031194 0.387076 0.585388
0.126971 0.375626 0.589815
0.358574 0.327248 0.597592
0.662669 0.337513 0.575066
0.858700 0.331716 0.553046
0.997337 0.327379 0.539807
0.031194 0.647055 0.580376
0.133583 0.644512 0.578525
0.347135 0.649870 0.579066
0.663677 0.643719 0.575843
0.863486 0.624834 0.563795
0.997337 0.616575 0.552455
0.033777 0.858910 0.575176
0.133530 0.856281 0.570649
0.334969 0.856501 0.549200
0.627424 0.861727 0.540475
0.865858 0.859673 0.543976
0.999920 0.839188 0.549191
0.033777 0.999920 0.565733
0.131160 0.997337 0.556775
0.330872 0.997337 0.536086
0.614970 0.997337 0.527594
0.842402 0.999894 0.533475
0.999895 0.999894 0.537975
0.057156 0.005166 0.783781
0.185667 0.005166 0.772676
0.409466 0.006610 0.781192
0.659981 0.007815 0.781192
0.861493 0.010398 0.778609
0.999920 0.010398 0.767281
0.031194 0.119885 0.766098
0.151931 0.097579 0.791176
0.397166 0.095196 0.788115
0.653661 0.100292 0.781192
0.856662 0.102875 0.776041
0.994933 0.102875 0.761904
0.028545 0.385039 0.790415
0.125687 0.373457 0.794173
0.340190 0.308912 0.798244
0.647151 0.316280 0.791654
0.858910 0.319498 0.778778
0.995468 0.321479 0.760029
0.031194 0.649113 0.789007
0.131160 0.642465 0.789479
0.333603 0.632476 0.794837
0.636509 0.614179 0.804381
0.863848 0.613738 0.785775
0.997337 0.610445 0.766107
0.033777 0.858692 0.785918
0.133530 0.856281 0.783586
0.331722 0.856501 0.779320
0.621443 0.861727 0.784437
0.863500 0.858519 0.788559
0.999920 0.851329 0.786621
0.033777 0.999920 0.774512
0.131160 0.997337 0.769333
0.327813 0.997337 0.760320
0.606182 0.997337 0.759641
0.848306 0.999920 0.770763
0.999895 0.999894 0.773850
0.057156 0.007815 0.929781
0.183362 0.007815 0.913701
0.400530 0.007815 0.922043
0.651953 0.007815 0.924615
0.853499 0.010398 0.922037
0.999920 0.010398 0.922032
0.031194 0.112763 0.904335
0.149934 0.097579 0.931778
0.389770 0.093437 0.932365
0.644371 0.100216 0.924693
0.847863 0.100298 0.922032
0.994928 0.100342 0.919561
0.028545 0.376118 0.928242
0.124282 0.362960 0.934864
0.329907 0.305567 0.937403
0.627642 0.311114 0.931991
0.849672 0.312987 0.929781
0.994754 0.313704 0.919429
0.031194 0.639491 0.932365
0.131066 0.632223 0.931057
0.326562 0.613985 0.933585
0.616561 0.598363 0.942121
0.850583 0.600088 0.939534
0.997337 0.600369 0.922077
0.033777 0.848281 0.929781
0.133530 0.847233 0.927198
0.328131 0.847599 0.929781
0.616580 0.848865 0.942117
0.858724 0.853687 0.940181
0.999920 0.851562 0.935271
0.033777 0.999920 0.927198
0.131160 0.997337 0.927175
0.327388 0.997337 0.921311
0.606182 0.997337 0.924616
0.850911 0.999920 0.932367
0.999920 0.999920 0.937571
