example_ofxGpuLutCube/bin/data/ofxGpuLutCube/LUT/C2 (warm contrasty_1).cube
LUT_3D_SIZE 16
0.000000 0.005212 0.114667
0.081364 0.000439 0.116527
0.111371 0.008029 0.118055
0.136933 0.014869 0.119014
0.165780 0.013593 0.121659
0.218613 0.000162 0.126038
0.290162 0.000000 0.131110
0.353098 0.080739 0.131756
0.414470 0.091071 0.135383
0.473359 0.092800 0.139177
0.524843 0.091460 0.142653
0.564434 0.096387 0.145010
0.598942 0.082307 0.147909
0.626412 0.063110 0.150540
0.645237 0.085563 0.150774
0.662084 0.083976 0.151965
0.000000 0.084868 0.115346
0.083391 0.084770 0.115721
0.113025 0.085803 0.116621
0.140385 0.086456 0.118321
0.173171 0.085550 0.119551
0.235358 0.083685 0.123794
0.305666 0.086637 0.128373
0.367411 0.117745 0.131200
0.434548 0.118811 0.135533
0.494572 0.118477 0.139464
0.547829 0.117254 0.142969
0.588362 0.109443 0.145971
0.619430 0.113565 0.147814
0.644582 0.103512 0.149888
0.666119 0.126507 0.150324
0.686364 0.122337 0.151816
0.000000 0.117248 0.116143
0.084705 0.116407 0.115603
0.114684 0.117235 0.115122
0.142423 0.117946 0.117312
0.182749 0.119136 0.119086
0.251747 0.120545 0.123529
0.319916 0.132756 0.127537
0.385807 0.148755 0.131215
0.455928 0.151021 0.135658
0.520902 0.150391 0.139896
0.574589 0.153300 0.143243
0.614883 0.144277 0.146261
0.645595 0.143692 0.148274
0.671706 0.148229 0.149716
0.692037 0.173080 0.150075
0.711949 0.177724 0.151169
0.000000 0.145729 0.113857
0.084340 0.145648 0.113764
0.114620 0.145419 0.113493
0.144697 0.147717 0.115262
0.188900 0.151118 0.118331
0.265856 0.158035 0.123137
0.334746 0.180148 0.126763
0.406100 0.188106 0.131046
0.479925 0.193848 0.135563
0.547969 0.193225 0.139966
0.603774 0.197983 0.143394
0.644549 0.200623 0.145879
0.676616 0.207829 0.147712
0.702944 0.210671 0.149258
0.725219 0.213978 0.150565
0.744961 0.227551 0.151304
0.000000 0.181569 0.110546
0.085519 0.181163 0.111749
0.114883 0.182659 0.111870
0.144717 0.185970 0.112945
0.193386 0.193761 0.116519
0.275570 0.207639 0.121832
0.350076 0.223660 0.126100
0.428551 0.232773 0.130815
0.505403 0.241169 0.135414
0.576039 0.248687 0.139645
0.634585 0.249184 0.143404
0.675518 0.251213 0.145968
0.707004 0.256819 0.147711
0.734520 0.260679 0.149305
0.753086 0.275532 0.149960
0.772289 0.276608 0.151134
0.053862 0.239640 0.107919
0.098426 0.239035 0.109066
0.129156 0.236652 0.109945
0.154528 0.238928 0.110889
0.210188 0.248744 0.114503
0.294690 0.259156 0.120764
0.369698 0.271722 0.125439
0.452430 0.282383 0.130440
0.533216 0.291188 0.135312
0.608549 0.298976 0.139839
0.666682 0.303990 0.143333
0.707426 0.307380 0.145771
0.737893 0.312739 0.147583
0.762184 0.317859 0.148918
0.783808 0.326618 0.149975
0.801015 0.331830 0.150867
0.139947 0.293964 0.107891
0.162811 0.292416 0.108911
0.182751 0.291995 0.109979
0.205786 0.290386 0.111602
0.233743 0.297137 0.113448
0.311703 0.308418 0.119379
0.392836 0.322885 0.124715
0.478653 0.337363 0.129953
0.566241 0.349376 0.135205
0.641178 0.358903 0.139661
0.701092 0.369944 0.143097
0.744305 0.373082 0.145700
0.773908 0.377296 0.147439
0.799494 0.383239 0.148826
0.817541 0.388381 0.149790
0.836082 0.394283 0.150751
0.122802 0.356559 0.104591
0.146445 0.358006 0.105420
0.187066 0.356251 0.107292
0.227900 0.352279 0.109833
0.251829 0.354760 0.111446
0.326778 0.369051 0.116887
0.419586 0.386713 0.123472
0.511660 0.403361 0.129325
0.603376 0.419542 0.134821
0.679280 0.430349 0.139350
0.743066 0.440168 0.143068
0.783401 0.444508 0.145515
0.814076 0.448582 0.147318
0.838645 0.453828 0.148673
0.858850 0.460551 0.149722
0.876383 0.464019 0.150692
0.087576 0.427532 0.140441
0.122176 0.429344 0.138929
0.155692 0.428903 0.117451
0.235935 0.423342 0.106218
0.278266 0.421261 0.109689
0.341885 0.437757 0.113832
0.453647 0.459497 0.122014
0.555697 0.481954 0.128697
0.649895 0.500462 0.134480
0.729790 0.514609 0.139257
0.790901 0.522956 0.142918
0.832512 0.524032 0.145598
0.862929 0.527498 0.147464
0.888261 0.532631 0.148863
0.909930 0.539471 0.149978
0.928231 0.544740 0.150943
0.103449 0.490772 0.180151
0.135657 0.493918 0.178954
0.168790 0.495378 0.164526
0.226774 0.490748 0.110454
0.306031 0.484967 0.108283
0.362327 0.504073 0.111459
0.487145 0.532507 0.120308
0.598600 0.559973 0.127826
0.701778 0.585791 0.134159
0.782275 0.598856 0.139170
0.843574 0.605460 0.143014
0.884948 0.607369 0.145650
0.916426 0.609999 0.147596
0.943468 0.615663 0.149183
0.962379 0.620044 0.150225
0.978651 0.622042 0.151208
0.128557 0.536506 0.196271
0.161277 0.540725 0.188257
0.189982 0.545111 0.184007
0.236007 0.541746 0.121025
0.329097 0.538785 0.107088
0.380213 0.559704 0.109609
0.519688 0.593732 0.119250
0.634645 0.623664 0.127048
0.742863 0.653152 0.133814
0.827528 0.669597 0.139100
0.888928 0.675611 0.143051
0.930310 0.677300 0.145808
0.962157 0.678977 0.147862
0.988108 0.683610 0.149374
1.005621 0.685194 0.150442
1.018261 0.685176 0.151271
0.151789 0.570944 0.204456
0.178394 0.572985 0.196698
0.207796 0.571602 0.182619
0.254428 0.578786 0.127618
0.345675 0.580459 0.106033
0.403340 0.601175 0.109031
0.543037 0.636110 0.118572
0.661844 0.670616 0.126481
0.768776 0.699323 0.133347
0.857861 0.719263 0.138893
0.918258 0.724670 0.142889
0.962554 0.727814 0.145769
0.991833 0.730902 0.147607
1.006201 0.731308 0.148562
1.018318 0.733450 0.149284
1.028013 0.731013 0.150025
0.160332 0.592874 0.209302
0.189943 0.597066 0.200953
0.218744 0.595375 0.184689
0.281350 0.601994 0.112579
0.360405 0.606444 0.105733
0.431381 0.632049 0.109433
0.561419 0.665734 0.118266
0.678669 0.700650 0.126056
0.786584 0.730588 0.133025
0.875912 0.751571 0.138605
0.943670 0.762693 0.142908
0.982822 0.762074 0.145662
1.000412 0.765028 0.146733
1.012696 0.765074 0.147540
1.024200 0.766609 0.148262
1.033660 0.764760 0.148978
0.169063 0.612776 0.211847
0.199991 0.617322 0.202514
0.236123 0.616725 0.171073
0.306092 0.620610 0.101776
0.368533 0.626994 0.105197
0.456776 0.656139 0.110030
0.579183 0.689943 0.118245
0.696804 0.725214 0.126081
0.802863 0.753490 0.133034
0.889145 0.773769 0.138475
0.955980 0.784571 0.142758
0.991181 0.787157 0.145128
1.002692 0.786483 0.145921
1.016414 0.789535 0.146733
1.027438 0.789073 0.147504
1.036944 0.788327 0.148181
0.167649 0.635743 0.221435
0.213868 0.637437 0.196473
0.263881 0.643957 0.140130
0.346216 0.643061 0.103214
0.379894 0.657147 0.104531
0.487302 0.685011 0.110755
0.601374 0.715897 0.118516
0.713410 0.746482 0.126160
0.818410 0.776294 0.132968
0.903274 0.794862 0.138442
0.968166 0.805488 0.142608
0.994041 0.808335 0.144320
1.006197 0.808044 0.145175
1.018396 0.807451 0.146042
1.030706 0.810520 0.146769
1.039789 0.809156 0.147456
0.168541 0.668858 0.242939
0.237672 0.672523 0.203903
0.314288 0.675767 0.099467
0.372085 0.678730 0.102436
0.417936 0.694922 0.105095
0.524866 0.718073 0.111830
0.628489 0.744286 0.119053
0.734099 0.771165 0.126375
0.832976 0.796102 0.132999
0.918477 0.814568 0.138561
0.982900 0.825261 0.142728
0.996925 0.828088 0.143595
1.008565 0.829588 0.144337
1.021428 0.830783 0.145172
1.032819 0.830325 0.146006
1.043255 0.833455 0.146599
0.000000 0.008433 0.135408
0.081511 0.003097 0.137049
0.112208 0.004439 0.138232
0.136803 0.015681 0.139750
0.166042 0.012015 0.141511
0.224955 0.000043 0.146501
0.296334 0.004574 0.152207
0.357341 0.083469 0.153069
0.421819 0.093225 0.157023
0.483138 0.094238 0.161092
0.536146 0.091651 0.164641
0.576937 0.085195 0.167650
0.610127 0.067151 0.170641
0.635191 0.083739 0.171479
0.656601 0.073303 0.173439
0.673820 0.069617 0.174639
0.000000 0.085020 0.135551
0.083093 0.084897 0.136112
0.113691 0.085946 0.136747
0.139633 0.085810 0.138026
0.174697 0.084539 0.139578
0.239257 0.084362 0.144005
0.311297 0.090448 0.148642
0.373245 0.114537 0.151817
0.439169 0.117991 0.156026
0.502082 0.117826 0.160166
0.554652 0.119325 0.163535
0.597604 0.099048 0.167211
0.627910 0.104522 0.169055
0.653756 0.099619 0.170894
0.674681 0.091268 0.172641
0.693556 0.117490 0.172721
0.000000 0.117437 0.136596
0.083322 0.117367 0.136367
0.115347 0.116449 0.135921
0.142063 0.118293 0.136491
0.182505 0.118908 0.139019
0.255234 0.120948 0.143774
0.323959 0.139260 0.147646
0.392394 0.149103 0.151735
0.464552 0.151002 0.156368
0.530534 0.150238 0.160679
0.585275 0.152278 0.164174
0.625654 0.146026 0.167060
0.656295 0.145611 0.169053
0.681383 0.144512 0.170773
0.702069 0.155633 0.171627
0.722795 0.177884 0.172073
0.000000 0.147006 0.136327
0.083112 0.146935 0.135715
0.112685 0.147015 0.136261
0.143905 0.148643 0.135600
0.189888 0.152678 0.138441
0.267894 0.160534 0.143258
0.341045 0.183522 0.147165
0.415359 0.191437 0.151656
0.491422 0.197626 0.156324
0.559401 0.199705 0.160618
0.615223 0.199813 0.164178
0.657896 0.203193 0.166852
0.687070 0.210565 0.168493
0.713901 0.216536 0.170002
0.733679 0.217678 0.171170
0.752424 0.222787 0.172165
0.000000 0.184894 0.134047
0.083245 0.184576 0.133604
0.113297 0.185558 0.134177
0.143300 0.188879 0.133301
0.197625 0.198552 0.136764
0.281725 0.212340 0.142197
0.358401 0.226395 0.146694
0.437959 0.236444 0.151446
0.518025 0.244749 0.156255
0.589884 0.252212 0.160590
0.647427 0.255636 0.164172
0.687398 0.255765 0.166687
0.719505 0.260162 0.168590
0.743467 0.269567 0.169780
0.766559 0.273084 0.171118
0.785106 0.282570 0.171950
0.050433 0.242815 0.130425
0.099489 0.241286 0.130386
0.129105 0.241059 0.131717
0.156304 0.244235 0.131344
0.214441 0.252860 0.134779
0.298804 0.262784 0.141063
0.376009 0.274851 0.145903
0.460633 0.285897 0.151019
0.545879 0.295915 0.156130
0.622555 0.303953 0.160738
0.681602 0.312496 0.164209
0.721417 0.313298 0.166658
0.750412 0.317092 0.168423
0.775400 0.326909 0.169637
0.794480 0.334894 0.170543
0.815012 0.337013 0.171766
0.136946 0.298154 0.129499
0.161682 0.298288 0.129229
0.182875 0.297214 0.130224
0.205637 0.295339 0.131604
0.236320 0.302732 0.133505
0.316332 0.315888 0.139496
0.401600 0.328346 0.145272
0.488383 0.342746 0.150560
0.576683 0.354671 0.155865
0.655539 0.366684 0.160489
0.716860 0.378006 0.163941
0.758860 0.380826 0.166569
0.787407 0.382372 0.168257
0.810625 0.392473 0.169377
0.831254 0.394415 0.170655
0.850373 0.401537 0.171609
0.107794 0.365603 0.126055
0.146347 0.363931 0.125917
0.176670 0.364479 0.127573
0.226564 0.358324 0.129756
0.253069 0.360899 0.131429
0.332280 0.375353 0.137153
0.431210 0.394647 0.144113
0.524518 0.411428 0.150026
0.616679 0.427510 0.155551
0.696040 0.439710 0.160269
0.758889 0.450852 0.163898
0.800195 0.452905 0.166450
0.830318 0.456314 0.168232
0.853167 0.459771 0.169570
0.873008 0.464408 0.170664
0.890869 0.469990 0.171620
0.086008 0.438890 0.168488
0.120351 0.440033 0.164214
0.154944 0.440454 0.144015
0.231828 0.432371 0.126823
0.279021 0.428319 0.129644
0.344983 0.443353 0.133931
0.464147 0.469272 0.142461
0.570405 0.493065 0.149411
0.664995 0.511394 0.155226
0.746266 0.526316 0.160041
0.810215 0.533787 0.163968
0.851296 0.535760 0.166542
0.880647 0.537350 0.168418
0.903343 0.542055 0.169628
0.925333 0.546419 0.170903
0.942998 0.551290 0.171844
0.106773 0.501724 0.201541
0.135363 0.503911 0.199746
0.168833 0.505524 0.186492
0.220685 0.503072 0.135128
0.309427 0.495643 0.128226
0.366679 0.513406 0.131442
0.500016 0.543992 0.140878
0.614699 0.573909 0.148493
0.719205 0.597385 0.155041
0.801711 0.611252 0.160159
0.863263 0.616989 0.164033
0.904378 0.618719 0.166688
0.935673 0.621381 0.168600
0.959828 0.625941 0.170044
0.979532 0.629488 0.171160
0.996430 0.632288 0.172148
0.126490 0.545737 0.218012
0.158463 0.549847 0.214833
0.189796 0.552349 0.202876
0.239265 0.551896 0.144357
0.333199 0.550565 0.127033
0.393926 0.570505 0.130271
0.533209 0.605355 0.139856
0.651566 0.637306 0.147816
0.760276 0.665758 0.154650
0.848460 0.681759 0.160185
0.908586 0.687237 0.164073
0.950303 0.688437 0.166860
0.980463 0.691338 0.168706
0.997446 0.693888 0.169755
1.009266 0.694868 0.170477
1.020155 0.696426 0.171165
0.144127 0.577630 0.224851
0.175257 0.581920 0.223786
0.209694 0.587150 0.210721
0.255001 0.586898 0.156194
0.346756 0.588809 0.125961
0.414055 0.612129 0.129442
0.554736 0.648019 0.138998
0.676671 0.681675 0.147233
0.788448 0.712179 0.154335
0.876417 0.729599 0.159911
0.937921 0.734553 0.163984
0.979536 0.739246 0.166623
0.994289 0.738678 0.167640
1.006324 0.741431 0.168330
1.018416 0.741253 0.169162
1.028836 0.742263 0.169820
0.152277 0.601958 0.236914
0.183959 0.606152 0.228667
0.221434 0.613293 0.217890
0.265610 0.613046 0.164972
0.355803 0.616262 0.125247
0.432402 0.639693 0.129288
0.569584 0.675396 0.138540
0.691313 0.711083 0.146667
0.804032 0.741879 0.153936
0.894533 0.761771 0.159670
0.954616 0.768008 0.163618
0.988304 0.771526 0.165826
1.000285 0.770661 0.166638
1.012884 0.773953 0.167387
1.024197 0.773255 0.168167
1.033579 0.772742 0.168837
0.142880 0.620556 0.244762
0.186550 0.626930 0.234362
0.225524 0.635482 0.223816
0.283624 0.634027 0.148167
0.372163 0.637163 0.125177
0.446722 0.665166 0.128944
0.580846 0.699329 0.137990
0.703865 0.734546 0.146278
0.816288 0.763514 0.153704
0.907170 0.784577 0.159430
0.971123 0.793516 0.163569
0.990764 0.794221 0.164936
1.004756 0.797033 0.165800
1.015755 0.796441 0.166539
1.028082 0.798807 0.167315
1.037185 0.797230 0.168005
0.121324 0.651810 0.276935
0.182894 0.658645 0.256373
0.237603 0.665038 0.233431
0.298657 0.664990 0.152344
0.383573 0.668667 0.124445
0.463616 0.694011 0.128581
0.590543 0.722916 0.137326
0.709161 0.752988 0.145583
0.821916 0.783160 0.153055
0.914018 0.802827 0.159032
0.982292 0.815926 0.163337
0.993885 0.818349 0.164018
1.008300 0.819722 0.165006
1.020429 0.820765 0.165796
1.031266 0.820304 0.166541
1.040144 0.818641 0.167252
0.056281 0.685899 0.307283
0.183354 0.697963 0.285327
0.256019 0.704013 0.248296
0.319601 0.698412 0.141435
0.398141 0.708229 0.123379
0.502146 0.728526 0.129573
0.613366 0.753398 0.137345
0.723521 0.780308 0.145102
0.828571 0.802694 0.152469
0.924154 0.824403 0.158659
0.984003 0.835377 0.162492
0.997785 0.840809 0.163225
1.010475 0.843659 0.163997
1.022098 0.843530 0.164833
1.034325 0.846390 0.165566
1.045097 0.846247 0.166326
0.000000 0.013757 0.154341
0.081766 0.011940 0.155853
0.111289 0.013642 0.156611
0.137066 0.015835 0.158000
0.167615 0.007351 0.161103
0.229640 0.000651 0.164505
0.302854 0.012596 0.170042
0.366983 0.086077 0.171499
0.433734 0.094163 0.175773
0.495334 0.098343 0.179789
0.549042 0.091603 0.183493
0.591756 0.076623 0.187136
0.621122 0.082156 0.188840
0.648776 0.067079 0.191057
0.669816 0.063045 0.192862
0.687388 0.054894 0.194229
0.000000 0.086675 0.154793
0.082505 0.085736 0.155480
0.112515 0.086611 0.155995
0.139963 0.085733 0.156921
0.176382 0.085287 0.158035
0.243538 0.083263 0.162904
0.317775 0.094152 0.167437
0.382603 0.116286 0.171025
0.452442 0.117136 0.175731
0.517368 0.117984 0.180041
0.572744 0.108701 0.184962
0.611279 0.109937 0.187513
0.643087 0.097519 0.190177
0.669897 0.092610 0.192040
0.690311 0.092975 0.192513
0.707981 0.090130 0.193693
0.000000 0.117669 0.155661
0.082737 0.117557 0.155981
0.114156 0.117606 0.155221
0.142297 0.118588 0.155755
0.184898 0.119073 0.156799
0.258805 0.119858 0.161758
0.330313 0.141352 0.165749
0.401898 0.145984 0.170282
0.474504 0.145448 0.175072
0.539754 0.142931 0.179444
0.594844 0.136038 0.183370
0.636929 0.137723 0.186037
0.668762 0.132066 0.188359
0.694881 0.128942 0.190215
0.714898 0.129491 0.191514
0.735747 0.125466 0.193064
0.000000 0.147585 0.156378
0.083061 0.147574 0.156221
0.111662 0.148553 0.155551
0.142019 0.151452 0.154386
0.194298 0.155051 0.156373
0.277462 0.161887 0.161599
0.346438 0.183954 0.165288
0.422841 0.188927 0.170043
0.499576 0.191346 0.174923
0.569227 0.189761 0.179500
0.627708 0.195454 0.183005
0.669602 0.186450 0.186146
0.701198 0.187374 0.188169
0.724172 0.192416 0.189459
0.746740 0.194531 0.190822
0.765376 0.216054 0.191162
0.000000 0.189613 0.156163
0.083039 0.188818 0.154028
0.111726 0.188641 0.152828
0.139759 0.195567 0.152033
0.201937 0.203728 0.154699
0.287648 0.219952 0.160113
0.363755 0.229605 0.164757
0.444521 0.237239 0.169666
0.526791 0.242329 0.174785
0.601549 0.246855 0.179414
0.663037 0.245362 0.183390
0.703159 0.247413 0.185915
0.733363 0.250119 0.187741
0.758888 0.254132 0.189210
0.781698 0.267843 0.190202
0.800788 0.269051 0.191381
0.018944 0.254797 0.148556
0.087276 0.250728 0.149725
0.121581 0.249273 0.149330
0.151296 0.251018 0.149203
0.218714 0.258630 0.152675
0.305427 0.266789 0.159224
0.382334 0.277646 0.164049
0.467357 0.287930 0.169253
0.556187 0.296809 0.174639
0.636568 0.303141 0.179559
0.697961 0.306598 0.183300
0.739797 0.312408 0.185822
0.767990 0.316174 0.187416
0.791383 0.319368 0.188865
0.812911 0.328143 0.189882
0.831084 0.330475 0.190936
0.095030 0.311460 0.147014
0.130839 0.310434 0.147348
0.168717 0.307489 0.146865
0.201402 0.303214 0.148878
0.233401 0.308546 0.150846
0.320394 0.321801 0.157356
0.408132 0.333955 0.163344
0.497517 0.345674 0.168939
0.590101 0.356988 0.174543
0.671726 0.368884 0.179316
0.735362 0.376440 0.183126
0.775888 0.379229 0.185609
0.805611 0.384462 0.187294
0.829665 0.389392 0.188632
0.850518 0.394531 0.189785
0.868511 0.400423 0.190687
0.048539 0.381021 0.178553
0.101390 0.379493 0.169901
0.137968 0.377695 0.150215
0.208127 0.371429 0.145734
0.252613 0.368258 0.148951
0.332995 0.383306 0.154602
0.438227 0.402757 0.162102
0.535480 0.419158 0.168338
0.630814 0.433478 0.174129
0.714419 0.446547 0.179078
0.776112 0.453898 0.182828
0.817444 0.457859 0.185240
0.847839 0.460278 0.187116
0.872421 0.465756 0.188466
0.891692 0.472261 0.189492
0.910224 0.477840 0.190428
0.034439 0.456413 0.220694
0.096935 0.455124 0.213373
0.140299 0.454052 0.193643
0.196531 0.447664 0.145269
0.279338 0.440292 0.147026
0.344952 0.453821 0.151145
0.469683 0.478124 0.160278
0.581747 0.502388 0.167650
0.680682 0.520813 0.173762
0.768081 0.535637 0.179010
0.831164 0.543121 0.182856
0.871975 0.545027 0.185400
0.900931 0.547390 0.187185
0.926130 0.550732 0.188659
0.944863 0.555601 0.189700
0.960659 0.559927 0.190555
0.059057 0.517120 0.246715
0.117538 0.518568 0.238831
0.156735 0.519797 0.228016
0.208154 0.519273 0.182757
0.309434 0.509142 0.145512
0.356603 0.526131 0.147877
0.505389 0.555439 0.158507
0.625620 0.584253 0.166670
0.735894 0.609641 0.173532
0.822748 0.624095 0.178906
0.887228 0.631980 0.182910
0.927815 0.632517 0.185555
0.957041 0.634308 0.187359
0.979847 0.635280 0.188823
0.996498 0.639675 0.189784
1.008967 0.644527 0.190401
0.100288 0.560937 0.257097
0.136311 0.560670 0.251808
0.176093 0.565763 0.240947
0.227945 0.572497 0.215181
0.326559 0.565385 0.143822
0.376434 0.582805 0.146223
0.533005 0.615995 0.157048
0.658358 0.647057 0.165689
0.773579 0.676979 0.172947
0.867298 0.694935 0.178783
0.929099 0.699327 0.182847
0.971113 0.702435 0.185566
0.984930 0.702361 0.186447
0.997331 0.704423 0.187213
1.010783 0.706967 0.187958
1.021810 0.708906 0.188618
0.107513 0.593073 0.273180
0.143845 0.595223 0.266429
0.186629 0.599752 0.253989
0.239767 0.607838 0.228822
0.334175 0.602780 0.142560
0.391594 0.621287 0.145239
0.549786 0.655970 0.155953
0.680822 0.691033 0.164907
0.797533 0.722067 0.172384
0.892144 0.741125 0.178344
0.957564 0.748211 0.182604
0.982740 0.750662 0.184211
0.995700 0.751198 0.185122
1.008301 0.751395 0.185917
1.019820 0.752983 0.186634
1.029543 0.752014 0.187357
0.097209 0.614983 0.281433
0.143543 0.620524 0.281256
0.187361 0.625492 0.264313
0.244395 0.634114 0.241811
0.328978 0.632331 0.146653
0.401152 0.648226 0.144517
0.558239 0.684018 0.154906
0.692023 0.719713 0.164087
0.813787 0.751279 0.172073
0.908821 0.772275 0.178052
0.972814 0.778404 0.182297
0.988238 0.782100 0.183209
1.001748 0.782952 0.184074
1.014461 0.784823 0.184879
1.025323 0.784695 0.185671
1.034868 0.784636 0.186294
0.047283 0.636101 0.297871
0.124212 0.643635 0.295169
0.185402 0.649990 0.279203
0.250410 0.659900 0.255073
0.338863 0.657721 0.145054
0.409134 0.673805 0.143727
0.564175 0.707471 0.153919
0.696232 0.741365 0.163086
0.817839 0.770439 0.171330
0.917349 0.794459 0.177606
0.978206 0.802251 0.181552
0.992863 0.806168 0.182429
1.005778 0.807165 0.183264
1.019184 0.809567 0.184088
1.028917 0.808847 0.184814
1.037989 0.807334 0.185508
0.001187 0.665688 0.335650
0.089725 0.676253 0.321679
0.169102 0.683393 0.306373
0.248860 0.691312 0.275371
0.333329 0.690642 0.157717
0.417802 0.707519 0.142610
0.577000 0.734610 0.153296
0.703134 0.765067 0.162221
0.820693 0.790975 0.170395
0.923183 0.813302 0.177055
0.982377 0.826568 0.180729
0.997131 0.830738 0.181557
1.009259 0.832995 0.182319
1.021088 0.833016 0.183161
1.032862 0.833647 0.183944
1.042088 0.832000 0.184657
0.000424 0.695072 0.373344
0.085894 0.712165 0.355941
0.164642 0.723457 0.334381
0.260866 0.726930 0.293725
0.330568 0.730252 0.229372
0.442302 0.750002 0.183479
0.585389 0.773225 0.158689
0.711299 0.796330 0.163283
0.827974 0.818904 0.169336
0.927945 0.835867 0.176235
0.985346 0.849717 0.179800
1.001106 0.858832 0.180472
1.013700 0.860314 0.180725
1.025803 0.860171 0.182132
1.030304 0.859519 0.273773
1.036658 0.860370 0.310544
0.000000 0.023282 0.174192
0.082109 0.023010 0.175508
0.110253 0.020228 0.177137
0.134538 0.021066 0.177146
0.169426 0.013777 0.180309
0.232822 0.000751 0.183238
0.310918 0.011299 0.186524
0.376986 0.082137 0.188320
0.444105 0.091412 0.192652
0.508340 0.087154 0.197258
0.562514 0.087837 0.200695
0.605257 0.077064 0.204117
0.636118 0.068130 0.206631
0.661226 0.055329 0.208585
0.681954 0.057805 0.210098
0.699040 0.046059 0.211511
0.000000 0.088364 0.175622
0.081920 0.086996 0.176070
0.111301 0.087284 0.176829
0.138441 0.087014 0.178111
0.176478 0.086421 0.180447
0.248674 0.082465 0.181195
0.325399 0.089438 0.184212
0.392686 0.114440 0.187965
0.463715 0.119615 0.192644
0.530090 0.112258 0.197431
0.585967 0.107258 0.201271
0.625949 0.098329 0.204421
0.658585 0.092308 0.206807
0.683740 0.092481 0.208263
0.702766 0.090722 0.209796
0.722573 0.084179 0.211177
0.000000 0.119572 0.177854
0.082460 0.119270 0.178182
0.110920 0.119500 0.180463
0.138121 0.121280 0.180588
0.186619 0.121102 0.179801
0.271877 0.113280 0.179439
0.340814 0.137449 0.183111
0.411153 0.144345 0.187613
0.484211 0.139389 0.192750
0.552731 0.134455 0.197558
0.610666 0.126001 0.201620
0.652563 0.116578 0.204849
0.684127 0.115283 0.207011
0.706871 0.111931 0.208482
0.728217 0.109820 0.210103
0.747997 0.109435 0.211303
0.000000 0.150550 0.181316
0.082847 0.148584 0.180446
0.111455 0.151490 0.181636
0.135910 0.157349 0.182539
0.194758 0.160325 0.180588
0.287557 0.158881 0.179305
0.357106 0.180174 0.182197
0.430920 0.185900 0.186806
0.506301 0.178648 0.191972
0.578375 0.159501 0.197469
0.637319 0.148748 0.201800
0.680127 0.135807 0.205165
0.710441 0.132399 0.207297
0.734971 0.127787 0.209121
0.755534 0.127893 0.210431
0.776329 0.128206 0.211797
0.000000 0.197048 0.189310
0.083109 0.196598 0.188408
0.111682 0.197035 0.185447
0.135131 0.203428 0.182440
0.194010 0.213768 0.171516
0.295503 0.222941 0.176662
0.372837 0.229636 0.181476
0.452442 0.236339 0.186377
0.535147 0.235559 0.191715
0.611359 0.228668 0.196892
0.671891 0.222123 0.201030
0.716226 0.207856 0.204480
0.746842 0.205185 0.206570
0.772978 0.209824 0.208164
0.794194 0.228756 0.208758
0.813201 0.231568 0.209832
0.000000 0.262254 0.198389
0.082985 0.262881 0.195049
0.111871 0.261148 0.186306
0.136347 0.260679 0.171187
0.200456 0.265911 0.167205
0.309342 0.274773 0.175309
0.391145 0.284327 0.180559
0.476095 0.290052 0.185906
0.566895 0.294101 0.191599
0.647461 0.291965 0.196834
0.710321 0.291262 0.200899
0.754404 0.294432 0.203559
0.786545 0.292098 0.205787
0.811325 0.294100 0.207283
0.831590 0.305033 0.208171
0.849150 0.310058 0.209119
0.000000 0.325190 0.218831
0.083128 0.325512 0.218667
0.113480 0.323792 0.202460
0.152467 0.319811 0.170215
0.205763 0.318013 0.165051
0.318589 0.329508 0.172951
0.414217 0.340574 0.179674
0.505723 0.350334 0.185452
0.600194 0.358586 0.191286
0.685525 0.363612 0.196600
0.751118 0.365517 0.200690
0.795802 0.368023 0.203451
0.825910 0.369728 0.205313
0.850406 0.377658 0.206620
0.871949 0.380736 0.207873
0.890135 0.387694 0.208745
0.000000 0.397205 0.252959
0.083242 0.397756 0.254118
0.112652 0.396680 0.238204
0.144453 0.392096 0.200706
0.218503 0.383517 0.162731
0.325204 0.392549 0.169552
0.439983 0.409284 0.178093
0.541844 0.423368 0.184786
