example_ofxGpuLutCube/bin/data/ofxGpuLutCube/LUT/C2 (warm contrasty_1).cube
LUT_3D_SIZE 6
0.000000 0.005212 0.114667
0.136933 0.014869 0.119014
0.290162 0.000000 0.131110
0.473359 0.092800 0.139177
0.598942 0.082307 0.147909
0.662084 0.083976 0.151965
0.000000 0.145729 0.113857
0.144697 0.147717 0.115262
0.334746 0.180148 0.126763
0.547969 0.193225 0.139966
0.676616 0.207829 0.147712
0.744961 0.227551 0.151304
0.139947 0.293964 0.107891
0.205786 0.290386 0.111602
0.392836 0.322885 0.124715
0.641178 0.358903 0.139661
0.773908 0.377296 0.147439
0.836082 0.394283 0.150751
0.103449 0.490772 0.180151
0.226774 0.490748 0.110454
0.487145 0.532507 0.120308
0.782275 0.598856 0.139170
0.916426 0.609999 0.147596
0.978651 0.622042 0.151208
0.160332 0.592874 0.209302
0.281350 0.601994 0.112579
0.561419 0.665734 0.118266
0.875912 0.751571 0.138605
1.000412 0.765028 0.146733
1.033660 0.764760 0.148978
0.168541 0.668858 0.242939
0.372085 0.678730 0.102436
0.628489 0.744286 0.119053
0.918477 0.814568 0.138561
1.008565 0.829588 0.144337
1.043255 0.833455 0.146599
0.000000 0.023282 0.174192
0.134538 0.021066 0.177146
0.310918 0.011299 0.186524
0.508340 0.087154 0.197258
0.636118 0.068130 0.206631
0.699040 0.046059 0.211511
0.000000 0.150550 0.181316
0.135910 0.157349 0.182539
0.357106 0.180174 0.182197
0.578375 0.159501 0.197469
0.710441 0.132399 0.207297
0.776329 0.128206 0.211797
0.000000 0.325190 0.218831
0.152467 0.319811 0.170215
0.414217 0.340574 0.179674
0.685525 0.363612 0.196600
0.825910 0.369728 0.205313
0.890135 0.387694 0.208745
0.000000 0.533319 0.302094
0.162159 0.541953 0.266765
0.499890 0.565906 0.173579
0.838936 0.631744 0.195873
0.972683 0.644230 0.204240
1.009985 0.654084 0.206314
0.000227 0.631493 0.344243
0.188726 0.654236 0.315723
0.533806 0.693206 0.168418
0.916790 0.780784 0.194408
1.003940 0.799217 0.199705
1.036100 0.798004 0.202010
0.000000 0.712726 0.443331
0.140309 0.745518 0.385420
0.543891 0.790588 0.322107
0.912972 0.855190 0.321347
1.008665 0.877499 0.317613
1.032754 0.876372 0.392561
0.000000 0.080320 0.257060
0.134309 0.075497 0.260197
0.301749 0.001226 0.332850
0.517997 0.000000 0.354459
0.644441 0.000000 0.373443
0.702503 0.000000 0.383150
0.000000 0.219599 0.324211
0.133794 0.188583 0.304136
0.345116 0.172767 0.379713
0.584886 0.133106 0.383751
0.717741 0.131341 0.393726
0.778397 0.130697 0.406489
0.000000 0.381324 0.422861
0.134828 0.371816 0.413543
0.364668 0.375077 0.405038
0.699828 0.371554 0.411728
0.853749 0.354875 0.418038
0.918279 0.381166 0.431150
0.000000 0.581486 0.510427
0.134981 0.597812 0.507346
0.350024 0.629342 0.416894
0.835395 0.680434 0.438756
0.973716 0.686575 0.440088
1.009219 0.702869 0.456569
0.000000 0.674487 0.556299
0.134584 0.701512 0.555117
0.210442 0.759067 0.466641
0.884274 0.838829 0.498378
0.997034 0.858629 0.496349
1.023156 0.854966 0.519560
0.000000 0.744587 0.621055
0.134427 0.782470 0.612593
0.354900 0.840034 0.575758
0.854056 0.905498 0.598246
0.997329 0.928672 0.612885
1.022357 0.925515 0.624938
0.000000 0.226772 0.418112
0.133425 0.162759 0.389076
0.185699 0.070157 0.505851
0.504029 0.001832 0.518921
0.634518 0.001038 0.538143
0.692121 0.000564 0.549713
0.000000 0.315784 0.471973
0.133266 0.296384 0.461361
0.183108 0.197895 0.551329
0.552927 0.136239 0.573829
0.692490 0.135292 0.590031
0.750457 0.134800 0.601553
0.000000 0.438777 0.552097
0.134010 0.433035 0.551294
0.185383 0.404032 0.582451
0.640972 0.403279 0.658103
0.808294 0.388379 0.668534
0.872513 0.420179 0.681160
0.000000 0.612647 0.656189
0.134774 0.630924 0.672504
0.187030 0.657360 0.686118
0.748916 0.736639 0.725671
0.952126 0.743650 0.741851
0.997589 0.764208 0.753588
0.000000 0.701400 0.698714
0.135053 0.728804 0.717819
0.187234 0.789495 0.742765
0.780740 0.897581 0.771371
0.992430 0.920339 0.788975
1.012523 0.920219 0.791021
0.000000 0.758549 0.724333
0.135130 0.801203 0.751416
0.187258 0.850649 0.776497
0.765030 0.948633 0.814925
0.992482 0.972692 0.832610
1.012146 0.974162 0.834873
0.000000 0.257242 0.489373
0.133261 0.223154 0.473881
0.183250 0.170288 0.549281
0.487148 0.002360 0.624973
0.625914 0.002273 0.643507
0.682215 0.002062 0.654379
0.000000 0.348384 0.547068
0.132748 0.333744 0.537535
0.183514 0.249891 0.585508
0.521977 0.136946 0.695084
0.672953 0.136766 0.710488
0.730451 0.136606 0.724510
0.000000 0.456386 0.615075
0.133421 0.455651 0.620734
0.184817 0.422404 0.642883
0.581300 0.417633 0.795458
0.768577 0.401623 0.807490
0.834777 0.438000 0.819179
0.000000 0.621894 0.717988
0.134285 0.638063 0.734011
0.186421 0.674855 0.777413
0.673988 0.754803 0.879537
0.903055 0.765536 0.886355
0.966887 0.784847 0.893964
0.000000 0.705596 0.753863
0.134756 0.732901 0.776148
0.186978 0.798839 0.828397
0.704198 0.913612 0.920340
0.967573 0.943899 0.924869
1.002672 0.948557 0.930749
0.000000 0.763253 0.773504
0.134983 0.803631 0.805629
0.187147 0.858725 0.847753
0.702583 0.957480 0.926500
0.966886 0.990755 0.932101
1.005138 0.998306 0.936780
0.000000 0.282871 0.548892
0.133541 0.255810 0.538696
0.182255 0.195140 0.602432
0.490325 0.002661 0.707135
0.639984 0.002674 0.722588
0.699460 0.002669 0.740030
0.000000 0.369494 0.601399
0.132246 0.359764 0.598654
0.182914 0.292900 0.634568
0.517421 0.147215 0.806777
0.685485 0.137223 0.792564
0.760298 0.137231 0.823731
0.000000 0.467546 0.659464
0.132985 0.470792 0.667689
0.184564 0.443943 0.682940
0.561204 0.449080 0.853676
0.767564 0.438415 0.866656
0.834120 0.468839 0.879835
0.000000 0.620901 0.751824
0.133909 0.637232 0.769553
0.185997 0.674298 0.815226
0.647835 0.762494 0.934622
0.888454 0.774698 0.939544
0.958744 0.794504 0.947192
0.000000 0.707028 0.789587
0.134446 0.736031 0.814939
0.186692 0.799223 0.867036
0.678012 0.912494 0.975140
0.953554 0.946101 0.987338
0.998595 0.950740 0.995588
0.000000 0.763271 0.808857
0.134769 0.803886 0.841666
0.186973 0.858960 0.886738
0.684040 0.957467 0.980945
0.952645 0.993050 0.999892
1.000065 1.000029 1.000006
