example_ofxGpuLutCube/bin/data/ofxGpuLutCube/LUT/C20 (teal yellow).cube
LUT_3D_SIZE 6
0.020730 0.032452 0.039738
0.088859 0.033998 0.040185
0.219857 0.040625 0.031847
0.463332 0.024027 0.000000
0.692116 0.000000 0.000000
0.792787 0.000000 0.000000
0.012609 0.108097 0.043940
0.087185 0.109523 0.044094
0.236244 0.119611 0.030020
0.499421 0.110613 0.000000
0.717210 0.068286 0.000000
0.812789 0.067541 0.000000
0.000000 0.258144 0.061183
0.066857 0.261962 0.059129
0.270348 0.287633 0.000592
0.594297 0.315225 0.000000
0.802391 0.306118 0.000000
0.887537 0.291066 0.000066
0.000000 0.475954 0.031744
0.068076 0.487692 0.008167
0.211000 0.552238 0.000000
0.676726 0.619181 0.000000
0.902908 0.629221 0.000000
0.989923 0.614948 0.000000
0.000000 0.607146 0.000000
0.068333 0.622570 0.000000
0.136662 0.703983 0.000000
0.693936 0.814174 0.000000
0.935403 0.837570 0.000000
1.000024 0.826149 0.000000
0.000000 0.681254 0.000000
0.067541 0.695930 0.000000
0.135082 0.774368 0.000000
0.674520 0.891377 0.000000
0.931099 0.923633 0.000000
1.000024 0.920282 0.000000
0.018726 0.033040 0.111370
0.086847 0.034536 0.111457
0.220143 0.040114 0.106747
0.463076 0.009432 0.068076
0.692512 0.000000 0.068286
0.793317 0.000000 0.067541
0.008114 0.108940 0.119168
0.080536 0.110031 0.118955
0.235491 0.115360 0.106680
0.493586 0.089241 0.064631
0.714970 0.064631 0.064631
0.811819 0.064631 0.064631
0.000000 0.261596 0.150340
0.064464 0.265030 0.144440
0.267847 0.292963 0.074162
0.583292 0.306966 0.064631
0.798571 0.296167 0.064631
0.884401 0.280715 0.064697
0.000000 0.482042 0.152333
0.064464 0.491219 0.133558
0.180374 0.548311 0.064631
0.669666 0.616075 0.064631
0.900438 0.625448 0.064631
0.988046 0.610413 0.064631
0.000000 0.611901 0.124219
0.064464 0.623301 0.081282
0.135516 0.698869 0.064631
0.679587 0.812484 0.064631
0.935075 0.839211 0.064631
1.000024 0.827707 0.064631
0.000000 0.685890 0.123940
0.064464 0.697750 0.084283
0.134096 0.767596 0.064631
0.654776 0.887165 0.064631
0.930117 0.925160 0.064631
1.000024 0.921275 0.064631
0.000000 0.030352 0.251495
0.067605 0.032535 0.252314
0.215249 0.023116 0.260105
0.472562 0.000000 0.256523
0.700550 0.000000 0.247262
0.800143 0.000000 0.232351
0.000000 0.111354 0.271543
0.064464 0.109398 0.270181
0.224556 0.091947 0.279585
0.502619 0.064631 0.267575
0.721058 0.064631 0.257959
0.818059 0.064631 0.242928
0.000000 0.276087 0.335153
0.064464 0.280290 0.332312
0.174197 0.296619 0.334938
0.587242 0.256895 0.244502
0.783516 0.196373 0.178025
0.890308 0.164300 0.155900
0.000000 0.499573 0.386629
0.064464 0.517300 0.376257
0.133719 0.563753 0.351433
0.637185 0.615526 0.149954
0.875825 0.598718 0.133719
0.994148 0.594175 0.133719
0.000000 0.638268 0.378479
0.064464 0.649052 0.368464
0.133719 0.705596 0.332792
0.604275 0.801205 0.133719
0.910423 0.825963 0.133719
1.000024 0.821805 0.133719
0.000000 0.711497 0.376185
0.064464 0.721093 0.366057
0.133719 0.775631 0.336537
0.567529 0.874571 0.133719
0.904999 0.912061 0.133719
1.000024 0.914598 0.133719
0.000000 0.000000 0.458999
0.068076 0.000000 0.461568
0.224198 0.000000 0.473235
0.484785 0.000000 0.491602
0.714828 0.000000 0.499697
0.815041 0.000000 0.491137
0.000000 0.068076 0.480919
0.064464 0.064464 0.480937
0.228897 0.064859 0.494910
0.507480 0.064631 0.512586
0.733556 0.064631 0.517647
0.830139 0.064631 0.507159
0.000000 0.273328 0.558597
0.064464 0.274683 0.561335
0.138519 0.297992 0.569846
0.577688 0.212926 0.591232
0.791312 0.155297 0.559578
0.880568 0.146184 0.545249
0.000000 0.512199 0.625448
0.064464 0.530168 0.627695
0.133719 0.574382 0.634834
0.538698 0.632254 0.631603
0.864785 0.591267 0.569037
0.974644 0.573504 0.539419
0.000000 0.649856 0.645193
0.064464 0.674515 0.640440
0.133719 0.726712 0.643517
0.377845 0.832886 0.587266
0.883372 0.859933 0.497485
0.999886 0.850632 0.467007
0.000000 0.737866 0.639174
0.064464 0.747276 0.637824
0.133719 0.796382 0.639990
0.320267 0.907161 0.597414
0.871738 0.956049 0.492456
0.992272 0.944474 0.457676
0.000000 0.000000 0.621937
0.068333 0.000000 0.625472
0.198350 0.000000 0.638754
0.489602 0.000000 0.670850
0.723300 0.000000 0.685834
0.825372 0.000000 0.680139
0.000000 0.068333 0.640599
0.064464 0.064464 0.642239
0.205065 0.064631 0.657053
0.506362 0.064631 0.689648
0.740306 0.064631 0.703471
0.839290 0.064631 0.696420
0.000000 0.219610 0.702856
0.064464 0.223535 0.705927
0.133719 0.279120 0.727832
0.534134 0.190598 0.761253
0.782301 0.138123 0.759283
0.874395 0.133719 0.745567
0.000000 0.512465 0.790573
0.064464 0.517400 0.794976
0.133719 0.554680 0.813706
0.415815 0.567246 0.837176
0.848096 0.531971 0.838522
0.947875 0.517826 0.813545
0.000000 0.670115 0.821146
0.064464 0.678911 0.824004
0.133719 0.723497 0.842717
0.204253 0.828962 0.857058
0.845552 0.877909 0.860487
0.971344 0.877071 0.856113
0.000000 0.763497 0.826451
0.064464 0.754606 0.825137
0.133719 0.797710 0.841740
0.204253 0.908147 0.855932
0.834360 0.972753 0.863330
0.971061 0.977890 0.859965
0.000000 0.000000 0.710730
0.067541 0.000000 0.714916
0.167391 0.000000 0.727373
0.477014 0.000000 0.762593
0.717431 0.000000 0.781521
0.829681 0.000000 0.784445
0.000000 0.067541 0.727683
0.064464 0.064464 0.729749
0.173842 0.064631 0.743964
0.491660 0.064631 0.779709
0.732526 0.064631 0.797310
0.842571 0.064631 0.799238
0.000000 0.186376 0.780259
0.064464 0.195304 0.783891
0.133719 0.268287 0.809907
0.508663 0.185905 0.846242
0.768983 0.134619 0.850976
0.872140 0.133719 0.846416
0.000000 0.497866 0.872256
0.064464 0.499009 0.873994
0.133719 0.534375 0.895020
0.383268 0.552866 0.924160
0.820410 0.507276 0.936313
0.943704 0.488265 0.930192
0.000000 0.666287 0.905670
0.064464 0.672783 0.910602
0.133719 0.712246 0.929352
0.204253 0.817353 0.949111
0.827480 0.871490 0.969200
0.964283 0.874496 0.968052
0.198481 0.853190 0.953993
0.064464 0.753587 0.915514
0.133719 0.793625 0.934928
0.204253 0.904574 0.955583
0.819536 0.974679 0.975661
0.964586 0.979691 0.973992
