example_ofxGpuLutCube/bin/data/ofxGpuLutCube/LUT/C20 (teal yellow).cube
LUT_3D_SIZE 16
0.020730 0.032452 0.039738
0.041686 0.032568 0.039738
0.064591 0.033021 0.039861
0.088859 0.033998 0.040185
0.122684 0.035374 0.040065
0.169382 0.038243 0.038002
0.219857 0.040625 0.031847
0.295273 0.034640 0.011587
0.372289 0.030630 0.000000
0.463332 0.024027 0.000000
0.553037 0.000781 0.000000
0.628502 0.000000 0.000000
0.692116 0.000000 0.000000
0.741149 0.000000 0.000000
0.772264 0.000000 0.000000
0.792787 0.000000 0.000000
0.020912 0.053343 0.040036
0.041868 0.053467 0.040043
0.064843 0.054608 0.040179
0.089232 0.056008 0.040448
0.123480 0.057780 0.040397
0.170262 0.061000 0.038219
0.221093 0.063563 0.031746
0.296868 0.058125 0.011185
0.375336 0.054378 0.000000
0.466949 0.047873 0.000000
0.555898 0.023690 0.000000
0.631456 0.022764 0.000000
0.694676 0.022763 0.000000
0.743292 0.022765 0.000000
0.774116 0.022680 0.000000
0.794310 0.022514 0.000000
0.020480 0.077766 0.041346
0.042224 0.077835 0.041354
0.064597 0.078322 0.041529
0.089577 0.080057 0.041804
0.125932 0.082178 0.041458
0.172970 0.086034 0.039449
0.226599 0.088388 0.031313
0.304662 0.083671 0.008934
0.384719 0.080802 0.000000
0.478415 0.073369 0.000000
0.566976 0.046845 0.000000
0.642001 0.045523 0.000000
0.703454 0.045522 0.000000
0.750816 0.045527 0.000000
0.781296 0.045359 0.000000
0.801374 0.045026 0.000000
0.012609 0.108097 0.043940
0.035310 0.108110 0.043940
0.057957 0.108690 0.044070
0.087185 0.109523 0.044094
0.128184 0.112093 0.043381
0.177302 0.117209 0.040985
0.236244 0.119611 0.030020
0.317872 0.116009 0.005114
0.402262 0.116143 0.000000
0.499421 0.110613 0.000000
0.586207 0.084270 0.000000
0.659845 0.068323 0.000000
0.717210 0.068286 0.000000
0.763136 0.068285 0.000000
0.792834 0.068035 0.000000
0.812789 0.067541 0.000000
0.000000 0.145602 0.048438
0.021849 0.145735 0.048439
0.043695 0.146338 0.048433
0.068955 0.147942 0.048219
0.127369 0.150968 0.045576
0.181956 0.158332 0.041512
0.249332 0.161525 0.027366
0.334753 0.162664 0.001524
0.423919 0.166628 0.000000
0.525286 0.165010 0.000000
0.612044 0.154607 0.000000
0.682454 0.132938 0.000000
0.737052 0.106615 0.000000
0.779830 0.098166 0.000000
0.808224 0.093954 0.000000
0.827832 0.092681 0.000000
0.000000 0.192430 0.055959
0.022088 0.192816 0.056030
0.044176 0.193785 0.055976
0.066443 0.195406 0.055143
0.107845 0.200033 0.049483
0.180803 0.208117 0.037799
0.267723 0.213635 0.017443
0.355819 0.217541 0.000000
0.452605 0.225094 0.000000
0.558818 0.227174 0.000000
0.644812 0.223514 0.000000
0.713913 0.213105 0.000000
0.766826 0.203061 0.000000
0.807178 0.193712 0.000005
0.834778 0.187867 0.000027
0.853848 0.183971 0.000022
0.000000 0.258144 0.061183
0.022289 0.258399 0.061093
0.044576 0.259358 0.060526
0.066857 0.261962 0.059129
0.089149 0.266990 0.053454
0.144452 0.278249 0.016907
0.270348 0.287633 0.000592
0.375881 0.296638 0.000000
0.484011 0.308069 0.000000
0.594297 0.315225 0.000000
0.681945 0.316431 0.000000
0.751360 0.311815 0.000000
0.802391 0.306118 0.000000
0.842118 0.300278 0.000066
0.868883 0.295592 0.000066
0.887537 0.291066 0.000066
0.000000 0.329446 0.061444
0.022455 0.329924 0.061192
0.044908 0.331816 0.060232
0.067358 0.335883 0.057249
0.089816 0.342854 0.048955
0.120171 0.356391 0.022684
0.273876 0.371465 0.000000
0.393682 0.385401 0.000000
0.513779 0.400633 0.000000
0.628971 0.411876 0.000000
0.718804 0.416593 0.000000
0.788490 0.414015 0.000000
0.839787 0.409793 0.000000
0.879662 0.405182 0.000032
0.905914 0.400380 0.000066
0.924569 0.395186 0.000066
0.000000 0.408884 0.051829
0.022597 0.409568 0.050959
0.045192 0.413025 0.048024
0.067781 0.418709 0.040633
0.090385 0.428849 0.019395
0.112978 0.445168 0.000000
0.255906 0.467775 0.000000
0.408787 0.492751 0.000000
0.536476 0.507674 0.000000
0.657852 0.521197 0.000000
0.750887 0.528639 0.000000
0.822407 0.527867 0.000000
0.874758 0.525118 0.000000
0.914841 0.520530 0.000000
0.941522 0.515645 0.000000
0.959859 0.508806 0.000000
0.000000 0.475954 0.031744
0.022693 0.477113 0.029560
0.045386 0.480616 0.022928
0.068076 0.487692 0.008167
0.090775 0.500779 0.000000
0.113467 0.523549 0.000000
0.211000 0.552238 0.000000
0.411360 0.582935 0.000000
0.554642 0.607417 0.000000
0.676726 0.619181 0.000000
0.774993 0.629156 0.000000
0.848789 0.630140 0.000000
0.902908 0.629221 0.000000
0.944515 0.626069 0.000000
0.971440 0.621338 0.000000
0.989923 0.614948 0.000000
0.000000 0.532514 0.001375
0.022752 0.533749 0.001060
0.045503 0.537841 0.000151
0.068250 0.546537 0.000000
0.091005 0.562996 0.000000
0.113756 0.589530 0.000000
0.189469 0.621783 0.000000
0.405517 0.657322 0.000000
0.559063 0.687689 0.000000
0.690162 0.705276 0.000000
0.788939 0.715292 0.000000
0.866452 0.718791 0.000000
0.922203 0.718626 0.000000
0.958054 0.715790 0.000000
0.979779 0.710077 0.000000
1.000024 0.703956 0.000000
0.000000 0.574761 0.000000
0.022778 0.575857 0.000000
0.045555 0.580445 0.000000
0.068331 0.589800 0.000000
0.091111 0.607833 0.000000
0.113885 0.635771 0.000000
0.158689 0.670543 0.000000
0.390452 0.709935 0.000000
0.554665 0.744886 0.000000
0.697061 0.772177 0.000000
0.795593 0.780422 0.000000
0.876383 0.786108 0.000000
0.931600 0.787583 0.000000
0.958251 0.783843 0.000000
0.979779 0.779526 0.000000
1.000024 0.774402 0.000000
0.000000 0.607146 0.000000
0.022777 0.608010 0.000000
0.045554 0.612924 0.000000
0.068333 0.622570 0.000000
0.091108 0.640200 0.000000
0.113883 0.668255 0.000000
0.136662 0.703983 0.000000
0.373503 0.745445 0.000000
0.545128 0.783121 0.000000
0.693936 0.814174 0.000000
0.797368 0.826759 0.000000
0.881313 0.834871 0.000000
0.935403 0.837570 0.000000
0.958251 0.834171 0.000000
0.979779 0.830374 0.000000
1.000024 0.826149 0.000000
0.000000 0.636741 0.000000
0.022747 0.637924 0.000000
0.045495 0.642597 0.000000
0.068238 0.651791 0.000000
0.090991 0.668921 0.000000
0.113738 0.696462 0.000000
0.136474 0.732534 0.000000
0.358403 0.774956 0.000000
0.536820 0.814860 0.000000
0.689347 0.848103 0.000000
0.799327 0.865388 0.000000
0.883724 0.873261 0.000000
0.935246 0.877090 0.000000
0.958251 0.874376 0.000000
0.979779 0.871852 0.000000
1.000024 0.868232 0.000000
0.000000 0.661017 0.000000
0.022680 0.662477 0.000000
0.045359 0.667112 0.000000
0.068035 0.675988 0.000000
0.090718 0.692769 0.000000
0.113399 0.719346 0.000000
0.136071 0.755125 0.000000
0.347126 0.797795 0.000000
0.528932 0.838309 0.000000
0.683484 0.872352 0.000000
0.799554 0.894830 0.000000
0.881606 0.899500 0.000000
0.934320 0.903354 0.000000
0.957154 0.900966 0.000000
0.979779 0.900039 0.000000
1.000024 0.897716 0.000000
0.000000 0.681254 0.000000
0.022514 0.682689 0.000000
0.045026 0.687293 0.000000
0.067541 0.695930 0.000000
0.090052 0.712371 0.000000
0.112565 0.738362 0.000000
0.135082 0.774368 0.000000
0.335980 0.816040 0.000000
0.519708 0.857213 0.000000
0.674520 0.891377 0.000000
0.792341 0.914356 0.000000
0.875267 0.919276 0.000000
0.931099 0.923633 0.000000
0.955004 0.921578 0.000000
0.977457 0.920282 0.000000
1.000024 0.920282 0.000000
0.020664 0.032452 0.060396
0.041628 0.032619 0.060389
0.064530 0.033074 0.061152
0.088734 0.034057 0.061874
0.122618 0.035440 0.062139
0.169449 0.038189 0.060393
0.219819 0.040558 0.054342
0.295344 0.034363 0.034280
0.372697 0.030422 0.022597
0.463412 0.023355 0.022693
0.551998 0.000720 0.022769
0.628243 0.000000 0.022764
0.691837 0.000000 0.022763
0.741144 0.000000 0.022765
0.772216 0.000000 0.022680
0.792456 0.000000 0.022514
0.020612 0.053408 0.060694
0.041752 0.053530 0.060694
0.064714 0.053975 0.060817
0.089031 0.054947 0.061127
0.123164 0.056323 0.061006
0.170208 0.059136 0.058915
0.221174 0.061544 0.052339
0.297190 0.055609 0.031624
0.375188 0.051665 0.020419
0.465800 0.044947 0.020419
0.555054 0.021283 0.020419
0.630606 0.020419 0.020419
0.693663 0.020419 0.020419
0.742734 0.020419 0.020419
0.773452 0.020419 0.020419
0.793692 0.020419 0.020419
0.020211 0.077835 0.062783
0.041369 0.077876 0.062056
0.064474 0.078379 0.062189
0.089401 0.079738 0.062380
0.125624 0.081609 0.062090
0.172806 0.085253 0.060057
0.226677 0.087341 0.051967
0.304776 0.082168 0.029534
0.384904 0.079211 0.020419
0.477840 0.071644 0.020419
0.565943 0.045989 0.020419
0.641411 0.044700 0.020419
0.702580 0.044695 0.020419
0.750128 0.044697 0.020419
0.780515 0.044557 0.020419
0.800627 0.044280 0.020419
0.012213 0.108044 0.065807
0.033960 0.108095 0.064653
0.057606 0.108620 0.064774
0.086957 0.109515 0.064858
0.128010 0.111795 0.064142
0.177380 0.116445 0.061666
0.236308 0.118498 0.050673
0.318141 0.114832 0.025668
0.402387 0.114721 0.020419
0.498068 0.109099 0.020419
0.585504 0.082240 0.020419
0.658693 0.067864 0.020419
0.716805 0.067829 0.020419
0.762623 0.067830 0.020419
0.792317 0.067593 0.020419
0.812277 0.067121 0.020419
0.000000 0.145667 0.071152
0.020419 0.145710 0.069583
0.043259 0.146318 0.069631
0.068488 0.147850 0.069309
0.127269 0.151011 0.066709
0.181680 0.157372 0.062437
0.249338 0.160597 0.048215
0.335196 0.161502 0.022011
0.423729 0.165807 0.020419
0.524408 0.164348 0.020419
0.610910 0.153683 0.020419
0.681771 0.130855 0.020419
0.736171 0.105090 0.020419
0.779416 0.096929 0.020419
0.807622 0.093029 0.020419
0.827223 0.091878 0.020419
0.000000 0.193112 0.079326
0.020419 0.193197 0.077508
0.043626 0.193954 0.077472
0.066132 0.195275 0.076459
0.107241 0.199805 0.071168
0.180791 0.207922 0.059356
0.267543 0.212535 0.039626
0.357179 0.216889 0.020419
0.452344 0.224370 0.020419
0.557938 0.226473 0.020419
0.643920 0.222192 0.020419
0.713462 0.212219 0.020419
0.766030 0.201602 0.020419
0.806734 0.191841 0.020423
0.834139 0.186485 0.020445
0.853241 0.182753 0.020440
0.000000 0.257974 0.084722
0.020419 0.258310 0.082639
0.043939 0.259353 0.082157
0.066550 0.262015 0.080783
0.088991 0.266765 0.075219
0.142941 0.278383 0.039101
0.271291 0.288007 0.021672
0.376811 0.296293 0.020419
0.483664 0.307410 0.020419
0.593564 0.314469 0.020419
0.681645 0.315754 0.020419
0.750347 0.310721 0.020419
0.801854 0.305045 0.020419
0.841587 0.299046 0.020485
0.868518 0.294495 0.020485
0.887038 0.289857 0.020485
0.000000 0.329804 0.085670
0.020419 0.330046 0.083137
0.044208 0.331925 0.082228
0.066997 0.335777 0.079422
0.089611 0.343060 0.071278
0.119118 0.356288 0.045534
0.273947 0.372107 0.020419
0.393658 0.384857 0.020419
0.513239 0.400174 0.020419
0.628273 0.411274 0.020419
0.718500 0.416150 0.020419
0.788294 0.413343 0.020419
0.839578 0.409293 0.020419
0.879215 0.403877 0.020451
0.905575 0.399623 0.020485
0.923918 0.393983 0.020485
0.000000 0.409805 0.077090
0.020419 0.410414 0.073733
0.044436 0.413060 0.071215
0.067382 0.418698 0.063950
0.090147 0.428901 0.043769
0.112833 0.445122 0.021621
0.253028 0.467225 0.020419
0.407511 0.492301 0.020419
0.535587 0.507360 0.020419
0.657177 0.520736 0.020419
0.751068 0.528279 0.020419
0.822359 0.527622 0.020419
0.874624 0.524522 0.020419
0.914684 0.519738 0.020419
0.941350 0.514893 0.020419
0.959591 0.508005 0.020419
0.000000 0.476553 0.058582
0.020419 0.477454 0.054175
0.044593 0.480698 0.047904
0.067654 0.487935 0.032497
0.090510 0.500786 0.020709
0.113293 0.523279 0.020419
0.206587 0.551822 0.020419
0.410288 0.583114 0.020419
0.553416 0.607485 0.020419
0.676085 0.618486 0.020419
0.774807 0.629308 0.020419
0.848955 0.630187 0.020419
0.902882 0.628986 0.020419
0.944207 0.625230 0.020419
0.971328 0.621018 0.020419
0.989816 0.614669 0.020419
0.000000 0.533208 0.028440
0.020419 0.534033 0.022836
0.044686 0.538018 0.021060
0.067807 0.546651 0.020419
0.090726 0.562739 0.020419
0.113569 0.589389 0.020419
0.185917 0.621608 0.020419
0.403487 0.657203 0.020419
0.557695 0.687331 0.020419
0.688974 0.705023 0.020419
0.788272 0.715157 0.020419
0.865722 0.718254 0.020419
0.921884 0.718531 0.020419
0.958029 0.715547 0.020419
0.979779 0.709208 0.020419
1.000024 0.703170 0.020419
0.000000 0.575146 0.022778
0.020419 0.576076 0.020419
0.044726 0.580571 0.020419
0.067881 0.589750 0.020419
0.090824 0.607413 0.020419
0.113695 0.635498 0.020419
0.154274 0.670304 0.020419
0.388008 0.709672 0.020419
0.552259 0.744316 0.020419
0.695270 0.771496 0.020419
0.794954 0.780425 0.020419
0.876094 0.786720 0.020419
0.931541 0.788586 0.020419
0.958251 0.783821 0.020419
0.979779 0.778677 0.020419
1.000024 0.773671 0.020419
0.000000 0.607343 0.022777
0.020419 0.608249 0.020419
0.044723 0.612692 0.020419
0.067874 0.622295 0.020419
0.090816 0.639813 0.020419
0.113686 0.667962 0.020419
0.136518 0.703626 0.020419
0.370879 0.745172 0.020419
0.543906 0.782984 0.020419
0.692527 0.813801 0.020419
0.796832 0.826521 0.020419
0.880704 0.834353 0.020419
0.935355 0.838288 0.020419
0.958251 0.834144 0.020419
0.979779 0.830444 0.020419
1.000024 0.826085 0.020419
0.000000 0.637105 0.022747
0.020419 0.637983 0.020419
0.044670 0.642622 0.020419
0.067779 0.651773 0.020419
0.090695 0.668519 0.020419
0.113527 0.695744 0.020419
0.136332 0.731874 0.020419
0.354621 0.774310 0.020419
0.534499 0.814454 0.020419
0.688101 0.847778 0.020419
0.798708 0.865878 0.020419
0.883270 0.872818 0.020419
0.935232 0.877324 0.020419
0.958251 0.874376 0.020419
0.979779 0.871833 0.020419
1.000024 0.868196 0.020419
0.000000 0.661402 0.022680
0.020419 0.662506 0.020419
0.044557 0.667192 0.020419
0.067593 0.675955 0.020419
0.090425 0.692171 0.020419
0.113189 0.718733 0.020419
0.135919 0.754605 0.020419
0.342475 0.796948 0.020419
0.526174 0.837820 0.020419
0.681561 0.872092 0.020419
0.798946 0.895234 0.020419
0.880960 0.899292 0.020419
0.934274 0.904199 0.020419
0.957142 0.902098 0.020419
0.979779 0.900039 0.020419
1.000024 0.897706 0.020419
0.000000 0.681935 0.022514
0.020419 0.682743 0.020419
0.044280 0.687320 0.020419
0.067121 0.695957 0.020419
0.089782 0.711792 0.020419
0.112377 0.737784 0.020419
0.134928 0.773158 0.020419
0.330581 0.814889 0.020419
0.516614 0.856009 0.020419
0.671746 0.890037 0.020419
0.791303 0.914293 0.020419
0.874463 0.918613 0.020419
0.930991 0.924208 0.020419
0.954984 0.921592 0.020419
0.977446 0.920342 0.020419
1.000024 0.920282 0.020419
0.020198 0.032701 0.083865
0.041888 0.032880 0.083854
0.064122 0.033331 0.083989
0.088218 0.034322 0.085017
0.122420 0.035639 0.085475
0.169266 0.038389 0.084224
0.220170 0.040612 0.078184
0.296029 0.034119 0.057588
0.373732 0.029512 0.045196
0.463164 0.021232 0.045386
0.553074 0.000415 0.045537
0.628638 0.000000 0.045523
0.692892 0.000000 0.045522
0.741884 0.000000 0.045527
0.772933 0.000000 0.045359
0.793162 0.000000 0.045026
0.020198 0.054380 0.084289
0.041265 0.053774 0.084270
0.064188 0.054280 0.084338
0.088398 0.055212 0.085028
0.123009 0.056478 0.085308
0.169972 0.059345 0.083838
0.221581 0.061560 0.077395
0.297821 0.055424 0.056238
0.375820 0.051201 0.044436
0.466492 0.042788 0.044593
0.555368 0.020919 0.044714
0.630463 0.020419 0.044700
0.694368 0.020419 0.044695
0.743604 0.020419 0.044697
0.774436 0.020419 0.044557
0.794668 0.020419 0.044280
0.019273 0.078081 0.085890
0.040420 0.078197 0.085890
0.063345 0.078485 0.085786
0.088412 0.079445 0.086137
0.125215 0.080739 0.085744
0.172406 0.083633 0.083480
0.226212 0.085601 0.075646
0.304192 0.079507 0.052595
0.384204 0.076039 0.042244
0.476197 0.067323 0.042244
0.564644 0.043240 0.042244
0.639437 0.042244 0.042244
0.701912 0.042244 0.042244
0.749660 0.042244 0.042244
0.780058 0.042244 0.042244
0.800263 0.042244 0.042244
0.011533 0.108490 0.090053
0.033116 0.108589 0.089795
0.055845 0.108973 0.089020
0.084651 0.109888 0.089334
0.127657 0.111801 0.088700
0.177136 0.115898 0.086150
0.236278 0.117381 0.075283
0.317865 0.112200 0.049119
0.401535 0.111187 0.042244
0.496741 0.104529 0.042244
0.584281 0.076585 0.042244
0.657798 0.066544 0.042244
0.716230 0.066525 0.042244
0.762616 0.066519 0.042244
0.792177 0.066348 0.042244
0.812220 0.066022 0.042244
0.000000 0.146327 0.096200
0.020419 0.146315 0.095619
0.042080 0.146849 0.094220
0.067340 0.148114 0.094060
0.125531 0.151219 0.092046
0.181333 0.157752 0.087883
0.249284 0.160317 0.073937
0.335024 0.160176 0.045206
0.423645 0.163127 0.042244
0.522644 0.161518 0.042244
0.609200 0.150311 0.042244
0.680774 0.124996 0.042244
0.736021 0.100432 0.042244
0.779126 0.093880 0.042244
0.807361 0.090739 0.042244
0.827110 0.089901 0.042244
0.000000 0.193816 0.105114
0.020419 0.193944 0.104279
0.042080 0.194606 0.102415
0.065420 0.196195 0.101858
0.105212 0.200542 0.097140
0.178819 0.207767 0.085297
0.265851 0.211988 0.066817
0.357202 0.215831 0.042244
0.451433 0.221817 0.042244
0.555434 0.224021 0.042244
0.642301 0.219440 0.042244
0.712364 0.208548 0.042244
0.765533 0.198151 0.042244
0.806382 0.188324 0.042248
0.833562 0.182276 0.042267
0.852909 0.178663 0.042262
0.000000 0.258906 0.111962
0.020419 0.259235 0.110859
0.042080 0.259664 0.107823
0.065736 0.262154 0.106772
0.088577 0.266760 0.101722
0.137514 0.280356 0.067314
0.271910 0.290434 0.044541
0.376453 0.296091 0.042244
0.481748 0.305600 0.042244
0.591381 0.312324 0.042244
0.679904 0.313392 0.042244
0.748907 0.308062 0.042244
0.801199 0.302480 0.042244
0.841256 0.296614 0.042311
0.867986 0.291709 0.042311
0.886707 0.287194 0.042311
0.000000 0.331355 0.115170
0.020419 0.331636 0.113506
0.042080 0.333354 0.109725
0.066014 0.337286 0.107136
0.089056 0.344606 0.099483
0.116080 0.357576 0.075056
0.269794 0.373383 0.042244
0.391923 0.384479 0.042244
0.510748 0.398690 0.042244
0.626552 0.409804 0.042244
0.717092 0.414568 0.042244
0.787205 0.411921 0.042244
0.839176 0.407611 0.042244
0.878962 0.402330 0.042278
0.905261 0.397452 0.042311
0.923770 0.392100 0.042311
0.000000 0.411667 0.110004
0.020419 0.411903 0.108129
0.042080 0.414127 0.102062
0.066265 0.419501 0.095739
0.089481 0.429586 0.078911
0.112435 0.445430 0.048692
0.243641 0.466707 0.042244
0.404584 0.491642 0.042244
0.533312 0.506732 0.042244
0.655645 0.519973 0.042244
0.750078 0.527465 0.042244
0.821476 0.526351 0.042244
0.874481 0.523702 0.042244
0.914542 0.518534 0.042244
0.941257 0.513253 0.042244
0.959232 0.506505 0.042244
0.000000 0.478456 0.096816
0.020419 0.479255 0.093459
0.042080 0.481668 0.084527
0.066431 0.488662 0.072406
0.089767 0.501479 0.045592
0.112818 0.522504 0.042244
0.197379 0.550885 0.042244
0.405420 0.582114 0.042244
0.551102 0.607499 0.042244
0.674739 0.618958 0.042244
0.773742 0.628702 0.042244
0.848548 0.630109 0.042244
0.903015 0.628588 0.042244
0.944041 0.625172 0.042244
0.971216 0.620116 0.042244
0.989612 0.613790 0.042244
0.000000 0.535100 0.074133
0.020419 0.535932 0.069895
0.042080 0.539025 0.056135
0.066529 0.547600 0.043298
0.089930 0.562277 0.042244
0.113046 0.587676 0.042244
0.175785 0.620343 0.042244
0.396203 0.656030 0.042244
0.552785 0.686839 0.042244
0.686626 0.705191 0.042244
0.787275 0.715339 0.042244
0.864944 0.718484 0.042244
0.921573 0.717901 0.042244
0.958003 0.714906 0.042244
0.979779 0.708386 0.042244
1.000024 0.702543 0.042244
0.000000 0.576778 0.055046
0.020419 0.577714 0.050509
0.042080 0.581277 0.042080
0.066565 0.589813 0.042244
0.089995 0.606140 0.042244
0.113128 0.633884 0.042244
0.137577 0.669126 0.042244
0.378705 0.708689 0.042244
0.546709 0.744034 0.042244
0.692557 0.771791 0.042244
0.793089 0.780422 0.042244
0.875430 0.787060 0.042244
0.931266 0.788101 0.042244
0.958251 0.784535 0.042244
0.979779 0.779241 0.042244
1.000024 0.774246 0.042244
0.000000 0.608916 0.048933
0.020419 0.609720 0.046372
0.042080 0.613253 0.042080
0.066551 0.622021 0.042244
0.089979 0.638652 0.042244
0.113107 0.666303 0.042244
0.136108 0.702243 0.042244
0.358196 0.743795 0.042244
0.536864 0.782195 0.042244
0.689006 0.813609 0.042244
0.795061 0.826972 0.042244
0.879524 0.835199 0.042244
0.935108 0.838566 0.042244
0.958251 0.834753 0.042244
0.979779 0.831171 0.042244
1.000024 0.826925 0.042244
0.000000 0.638574 0.049867
0.020419 0.639386 0.046711
0.042080 0.643132 0.042080
0.066490 0.651644 0.042244
0.089865 0.667048 0.042244
0.112948 0.693955 0.042244
0.135914 0.729911 0.042244
0.340187 0.772594 0.042244
0.527528 0.813376 0.042244
0.683570 0.847191 0.042244
0.797563 0.867053 0.042244
0.881572 0.872697 0.042244
0.935219 0.877254 0.042244
0.958251 0.874980 0.042244
0.979779 0.871780 0.042244
1.000024 0.868222 0.042244
0.000000 0.662889 0.052918
0.020419 0.663960 0.047017
0.042080 0.667446 0.042080
0.066348 0.676140 0.042244
0.089631 0.690943 0.042244
0.112629 0.716731 0.042244
0.135515 0.752507 0.042244
0.325049 0.795052 0.042244
0.518422 0.836235 0.042244
0.675743 0.870867 0.042244
0.795861 0.894889 0.042244
0.878937 0.899293 0.042244
0.934153 0.904363 0.042244
0.957108 0.902274 0.042244
0.979779 0.901033 0.042244
1.000024 0.898627 0.042244
0.000000 0.683086 0.051867
0.020419 0.684172 0.046136
0.042080 0.687683 0.042080
0.066022 0.696249 0.042244
0.089069 0.710680 0.042244
0.111870 0.735859 0.042244
0.134554 0.771137 0.042244
0.311720 0.813036 0.042244
0.508785 0.854309 0.042244
0.666260 0.889076 0.042244
0.788033 0.913654 0.042244
0.872507 0.919043 0.042244
0.930802 0.924444 0.042244
0.954930 0.922736 0.042244
0.977444 0.921275 0.042244
1.000024 0.921275 0.042244
0.018726 0.033040 0.111370
0.040918 0.033114 0.111436
0.063888 0.033567 0.111385
0.086847 0.034536 0.111457
0.121224 0.035769 0.112207
0.168558 0.038508 0.111972
0.220143 0.040114 0.106747
0.296069 0.031284 0.086029
0.374061 0.023745 0.068886
0.463076 0.009432 0.068076
0.551752 0.000000 0.068301
0.627879 0.000000 0.068288
0.692512 0.000000 0.068286
0.741964 0.000000 0.068285
0.773117 0.000000 0.068035
0.793317 0.000000 0.067541
0.018291 0.055236 0.112134
0.039550 0.054059 0.112073
0.063376 0.054516 0.112139
0.086793 0.055491 0.112153
0.121723 0.056605 0.112662
0.169183 0.059490 0.112125
0.221435 0.061174 0.106356
0.297942 0.052577 0.085005
0.376027 0.045251 0.068318
0.465506 0.031266 0.067654
0.553531 0.020419 0.067856
0.629939 0.020419 0.067835
0.694366 0.020419 0.067829
0.743917 0.020419 0.067830
0.774598 0.020419 0.067593
0.794876 0.020419 0.067121
0.016241 0.079486 0.114599
0.037529 0.079228 0.114566
0.061086 0.078670 0.114451
0.086211 0.079729 0.114492
0.123412 0.080773 0.114542
0.171742 0.083774 0.113408
0.226225 0.085421 0.106248
0.304317 0.076964 0.081751
0.384475 0.069872 0.066571
0.474487 0.055558 0.066431
0.563031 0.042244 0.066557
0.638897 0.042244 0.066535
0.701698 0.042244 0.066525
0.750000 0.042244 0.066519
0.780624 0.042244 0.066348
0.800837 0.042244 0.066022
0.008114 0.108940 0.119168
0.029834 0.109049 0.119214
0.052690 0.109429 0.119175
0.080536 0.110031 0.118955
0.124813 0.111412 0.118780
0.175872 0.114698 0.116422
0.235491 0.115360 0.106680
0.317271 0.107042 0.077663
0.400433 0.102967 0.064631
0.493586 0.089241 0.064631
0.580306 0.065577 0.064631
0.655297 0.064631 0.064631
0.714970 0.064631 0.064631
0.761659 0.064631 0.064631
0.791579 0.064631 0.064631
0.811819 0.064631 0.064631
0.000000 0.147008 0.127574
0.020419 0.147063 0.127265
0.042080 0.147545 0.126484
0.065270 0.148878 0.125495
0.121483 0.152051 0.125078
0.179227 0.157663 0.121128
0.248439 0.159665 0.108251
0.334618 0.156543 0.073767
0.422442 0.157874 0.064631
0.519039 0.153720 0.064631
0.604916 0.141268 0.064631
0.677526 0.103040 0.064631
0.733513 0.093065 0.064631
0.777235 0.088982 0.064631
0.806129 0.088541 0.064631
0.826291 0.088183 0.064631
0.000000 0.194534 0.139719
0.020419 0.194795 0.139254
0.042080 0.195391 0.138095
0.064464 0.196983 0.136043
0.100692 0.200630 0.133007
0.172994 0.208675 0.122051
0.264852 0.212320 0.105475
0.357182 0.212877 0.069534
0.449629 0.216849 0.064631
0.549784 0.216912 0.064631
0.636455 0.211703 0.064631
0.707723 0.199935 0.064631
0.762649 0.188639 0.064631
0.803639 0.177509 0.064634
0.831414 0.171044 0.064649
0.850989 0.168001 0.064645
0.000000 0.261596 0.150340
0.020419 0.261879 0.149651
0.042080 0.262660 0.147542
0.064464 0.265030 0.144440
0.088024 0.269515 0.140613
0.128978 0.281370 0.117790
0.267847 0.292963 0.074162
0.377158 0.296565 0.064631
0.477660 0.302576 0.064631
0.583292 0.306966 0.064631
0.672546 0.307422 0.064631
0.744121 0.301618 0.064631
0.798571 0.296167 0.064631
0.838885 0.289790 0.064697
0.865609 0.284802 0.064697
0.884401 0.280715 0.064697
0.000000 0.334895 0.156972
0.020419 0.335348 0.156051
0.042080 0.336569 0.152910
0.064464 0.339966 0.148040
0.088293 0.346845 0.142631
0.111435 0.358943 0.126916
0.256904 0.376790 0.064631
0.389718 0.385312 0.064631
