example_ofxGpuLutCube/bin/data/ofxGpuLutCube/LUT/C21 (hard teal fade).cube
LUT_3D_SIZE 16
0.000000 0.000000 0.000594
0.048905 0.000000 0.006224
0.105288 0.000000 0.013330
0.154973 0.000000 0.023370
0.205387 0.000000 0.033088
0.251985 0.000000 0.041974
0.307504 0.001781 0.056814
0.366398 0.013194 0.073739
0.429582 0.033274 0.091987
0.498024 0.058934 0.113271
0.571553 0.088697 0.142967
0.649729 0.124787 0.182024
0.727041 0.166947 0.224287
0.799655 0.215587 0.267906
0.853138 0.264158 0.300231
0.880710 0.293444 0.315792
0.000441 0.041290 0.000051
0.039275 0.040333 0.004355
0.101262 0.033991 0.012289
0.159264 0.026922 0.019954
0.207239 0.023496 0.024204
0.254156 0.024331 0.033529
0.308844 0.029642 0.049182
0.367680 0.042009 0.068078
0.430986 0.059769 0.087697
0.499489 0.081843 0.109910
0.573266 0.108398 0.139779
0.651463 0.141075 0.178873
0.728405 0.179006 0.221170
0.800462 0.226112 0.265929
0.853661 0.274582 0.298514
0.881184 0.303868 0.314383
0.000712 0.085989 0.000085
0.024809 0.087291 0.002201
0.091538 0.092426 0.010735
0.151507 0.089129 0.018713
0.203667 0.081213 0.021199
0.255428 0.077662 0.021131
0.310078 0.082953 0.032701
0.369457 0.092786 0.054372
0.433238 0.105987 0.077992
0.502077 0.123286 0.102865
0.576454 0.145634 0.134063
0.654434 0.174360 0.174189
0.731813 0.209171 0.216241
0.804156 0.249860 0.259861
0.855815 0.290352 0.291938
0.882932 0.316518 0.308851
0.001187 0.133706 0.000153
0.011323 0.133706 0.000153
0.074660 0.138923 0.008225
0.140815 0.142247 0.017017
0.195853 0.137926 0.021199
0.250137 0.135283 0.021199
0.308328 0.136423 0.020626
0.370366 0.142321 0.029312
0.435558 0.153135 0.057818
0.504885 0.168357 0.089623
0.579914 0.188400 0.124634
0.657446 0.214276 0.167066
0.734622 0.246292 0.211588
0.806150 0.283725 0.256618
0.857795 0.320065 0.286158
0.885442 0.341610 0.300185
0.003358 0.179219 0.000526
0.013494 0.179219 0.000526
0.035565 0.180121 0.002317
0.128815 0.186091 0.015097
0.188340 0.189418 0.021179
0.244608 0.188292 0.021199
0.303885 0.190860 0.020131
0.367605 0.196182 0.019188
0.436026 0.204566 0.030503
0.508175 0.217655 0.065304
0.583560 0.235592 0.108489
0.661408 0.259430 0.155137
0.738126 0.288830 0.204027
0.808134 0.322193 0.251364
0.858501 0.353774 0.281935
0.886069 0.371992 0.295982
0.007971 0.220865 0.001187
0.018106 0.220865 0.001187
0.028242 0.220865 0.001187
0.100449 0.228598 0.010684
0.182204 0.235280 0.020436
0.238587 0.242064 0.021199
0.300839 0.244201 0.020266
0.364396 0.250289 0.018469
0.433618 0.259312 0.016162
0.507928 0.271590 0.044959
0.586647 0.286752 0.086408
0.666502 0.308426 0.137320
0.742237 0.335340 0.192471
0.810237 0.364578 0.243485
0.859074 0.390899 0.275741
0.886473 0.405745 0.290786
0.016807 0.265920 0.002510
0.026942 0.265920 0.002510
0.037078 0.265920 0.002510
0.058719 0.266300 0.004219
0.164817 0.281200 0.018248
0.239181 0.289137 0.021199
0.298095 0.298773 0.020310
0.363396 0.305615 0.018509
0.432170 0.315180 0.016189
0.506646 0.328432 0.026063
0.585222 0.343475 0.070178
0.668907 0.362425 0.121398
0.746707 0.385164 0.174097
0.812564 0.410494 0.231162
0.859647 0.431409 0.266383
0.887146 0.442772 0.282957
0.030018 0.314570 0.004477
0.040154 0.314570 0.004477
0.050289 0.314570 0.004477
0.060425 0.314570 0.004477
0.124111 0.322900 0.012774
0.229158 0.338771 0.021199
0.299971 0.349571 0.020270
0.361859 0.363267 0.018581
0.433170 0.373470 0.016464
0.507714 0.387108 0.036072
0.584544 0.402385 0.074214
0.667449 0.420447 0.115194
0.745737 0.438732 0.160198
0.814701 0.459016 0.214101
0.859973 0.474086 0.251798
0.887647 0.481702 0.270122
0.045078 0.367375 0.009158
0.055213 0.367375 0.009158
0.065349 0.367375 0.009158
0.075485 0.367375 0.009158
0.094344 0.368732 0.010359
0.210435 0.391169 0.021199
0.294611 0.401833 0.020378
0.367164 0.416466 0.018336
0.433754 0.434863 0.024469
0.510021 0.448027 0.055881
0.587597 0.463060 0.092123
0.667272 0.480402 0.132181
0.741667 0.496395 0.174837
0.810088 0.511360 0.217398
0.858521 0.519592 0.245137
0.887095 0.523665 0.264671
0.056169 0.422962 0.018299
0.066305 0.422962 0.018299
0.076440 0.422962 0.018299
0.086576 0.422962 0.018299
0.096712 0.422962 0.018299
0.150246 0.432730 0.022115
0.280467 0.456032 0.020629
0.366360 0.472266 0.020890
0.441484 0.491084 0.044959
0.512144 0.510465 0.078532
0.590565 0.524989 0.112983
0.668188 0.540659 0.153448
0.739720 0.554437 0.194455
0.805156 0.566648 0.234574
0.853359 0.568446 0.252361
0.886740 0.567589 0.260720
0.064445 0.475818 0.031120
0.074581 0.475818 0.031120
0.084717 0.475818 0.031120
0.094852 0.475818 0.031120
0.104988 0.475818 0.031120
0.115123 0.475818 0.031120
0.248706 0.507023 0.029255
0.357579 0.528629 0.032613
0.446677 0.548913 0.069855
0.520698 0.568127 0.102485
0.591226 0.590887 0.137710
0.668317 0.602877 0.177971
0.738268 0.613511 0.216960
0.801317 0.622058 0.252846
0.848593 0.620667 0.267652
0.883008 0.613906 0.269644
0.069245 0.523349 0.048911
0.079380 0.523349 0.048911
0.089516 0.523349 0.048911
0.099652 0.523349 0.048911
0.109787 0.523349 0.048911
0.119923 0.523349 0.048911
0.187235 0.542184 0.058761
0.340914 0.587326 0.064930
0.439388 0.607175 0.090410
0.527024 0.628663 0.128440
0.600011 0.648084 0.166490
0.667588 0.665868 0.206174
0.736097 0.673730 0.243268
0.796324 0.676295 0.270335
0.844794 0.673255 0.284442
0.879861 0.662766 0.284191
0.074180 0.570337 0.070907
0.084316 0.570337 0.070907
0.094451 0.570337 0.070907
0.104587 0.570337 0.070907
0.114723 0.570337 0.070907
0.124858 0.570337 0.070907
0.134994 0.570337 0.070907
0.295694 0.634725 0.103370
0.428914 0.668006 0.115622
0.523388 0.689076 0.154272
0.605964 0.708199 0.198203
0.672106 0.722191 0.236355
0.733557 0.733967 0.270711
0.791260 0.731254 0.289665
0.840480 0.725647 0.301862
0.875906 0.711945 0.299333
0.099280 0.638541 0.105775
0.109415 0.638541 0.105775
0.119551 0.638541 0.105775
0.129687 0.638541 0.105775
0.139822 0.638541 0.105775
0.149958 0.638541 0.105775
0.160094 0.638541 0.105775
0.213258 0.658862 0.117440
0.406446 0.734419 0.160462
0.514868 0.751270 0.183035
0.602029 0.767110 0.227713
0.675321 0.777954 0.266773
0.733611 0.782811 0.290913
0.786267 0.786067 0.310084
0.836654 0.779307 0.321481
0.872121 0.761935 0.315652
0.151141 0.740715 0.169017
0.161277 0.740715 0.169017
0.171413 0.740715 0.169017
0.181548 0.740715 0.169017
0.191684 0.740715 0.169017
0.201819 0.740715 0.169017
0.211955 0.740715 0.169017
0.229600 0.744439 0.171265
0.368179 0.799591 0.206554
0.498692 0.818694 0.228944
0.593227 0.825308 0.258070
0.670081 0.829935 0.289031
0.732414 0.831454 0.310501
0.785992 0.833910 0.329319
0.833659 0.832577 0.341791
0.870087 0.814345 0.332962
0.216051 0.853985 0.244647
0.226187 0.853985 0.244647
0.236323 0.853985 0.244647
0.246458 0.853985 0.244647
0.256594 0.853985 0.244647
0.266730 0.853985 0.244647
0.276865 0.853985 0.244647
0.287001 0.853985 0.244647
0.335269 0.873158 0.257087
0.478849 0.891078 0.281699
0.579795 0.882519 0.293837
0.657191 0.879629 0.306380
0.727190 0.879958 0.328833
0.784639 0.881659 0.347754
0.833197 0.880341 0.359096
0.867782 0.866056 0.348614
0.000000 0.002883 0.069239
0.018737 0.003633 0.060529
0.068507 0.003948 0.041344
0.136521 0.000000 0.046635
0.200018 0.000000 0.057371
0.251900 0.000000 0.066084
0.308491 0.001475 0.078349
0.368212 0.012825 0.093060
0.431247 0.033135 0.109531
0.499455 0.059225 0.129678
0.572893 0.089274 0.159530
0.650805 0.125496 0.197509
0.728045 0.167873 0.238917
0.800428 0.216553 0.281654
0.853271 0.264952 0.312951
0.880660 0.294073 0.328084
0.000000 0.042843 0.057666
0.020887 0.039593 0.051480
0.077674 0.031892 0.037404
0.143659 0.026292 0.041672
0.205831 0.022780 0.048683
0.255157 0.023537 0.056940
0.310834 0.029085 0.071294
0.369825 0.041413 0.087519
0.432844 0.059362 0.105100
0.501146 0.081806 0.126088
0.574735 0.108686 0.155955
0.652712 0.141637 0.194112
0.729343 0.180089 0.235914
0.801145 0.227059 0.279726
0.853776 0.275388 0.311304
0.881135 0.304447 0.326672
0.000580 0.088359 0.027173
0.016483 0.087604 0.028107
0.081711 0.086387 0.028568
0.144746 0.084998 0.035651
0.203628 0.080258 0.041578
0.256300 0.077573 0.043973
0.312708 0.082727 0.056686
0.371767 0.092512 0.075610
0.435206 0.105773 0.096113
0.503838 0.123245 0.119327
0.577964 0.145814 0.150158
0.655753 0.174722 0.189351
0.732901 0.209806 0.230580
0.804875 0.250775 0.273697
0.855959 0.291185 0.304805
0.882882 0.317107 0.321266
0.001421 0.133676 0.011082
0.011528 0.133669 0.011349
0.070121 0.138229 0.018026
0.140168 0.142517 0.027844
0.197430 0.138004 0.034072
0.251999 0.135331 0.037745
0.310607 0.137000 0.042502
0.372350 0.142732 0.054982
0.437537 0.153236 0.078709
0.506619 0.168490 0.107271
0.581491 0.188647 0.140892
0.658806 0.214720 0.182503
0.735628 0.246860 0.225956
0.807005 0.284398 0.270224
0.858073 0.320728 0.298852
0.885393 0.342198 0.312679
0.003358 0.179219 0.010661
0.013494 0.179219 0.010661
0.034843 0.180036 0.012345
0.127183 0.185965 0.024987
0.188206 0.189409 0.031302
0.245541 0.188472 0.031335
0.306330 0.191596 0.034491
0.369823 0.196949 0.041510
0.437762 0.205122 0.057576
0.509905 0.217999 0.086748
0.585209 0.235965 0.125537
0.662697 0.259909 0.171098
0.739082 0.289366 0.218623
0.808942 0.322826 0.265126
0.858788 0.354268 0.294695
0.886069 0.372395 0.308259
0.007971 0.220865 0.011323
0.018106 0.220865 0.011323
0.028242 0.220865 0.011323
0.098984 0.228259 0.020549
0.181427 0.235216 0.030460
0.238350 0.242013 0.031335
0.300601 0.244201 0.030402
0.366170 0.250879 0.029992
0.435786 0.260295 0.041673
0.509566 0.272177 0.072139
0.588038 0.287277 0.106532
0.667805 0.308941 0.154015
0.743190 0.335917 0.207610
0.811041 0.365223 0.257525
0.859308 0.391330 0.288726
0.886523 0.406084 0.303179
0.016786 0.265920 0.012646
0.026922 0.265920 0.012646
0.037058 0.265920 0.012646
0.057000 0.265914 0.014105
0.163431 0.280984 0.028223
0.238608 0.289056 0.031335
0.297876 0.298704 0.030446
0.363225 0.305578 0.028661
0.432911 0.315471 0.028748
0.508427 0.328951 0.049485
0.587176 0.343980 0.097568
0.670106 0.363061 0.140926
0.747484 0.385714 0.190706
0.813331 0.411085 0.245847
0.859902 0.431797 0.279759
0.887196 0.442989 0.295659
0.030018 0.314570 0.014613
0.040154 0.314570 0.014613
0.050289 0.314570 0.014613
0.060425 0.314570 0.014613
0.121084 0.322371 0.022463
0.228334 0.338635 0.031335
0.299622 0.349499 0.030405
0.361720 0.363162 0.028716
0.432999 0.373397 0.026578
0.507551 0.387037 0.046135
0.586247 0.402728 0.085252
0.669252 0.420967 0.133601
0.746793 0.439257 0.180229
0.815372 0.459413 0.229758
0.860374 0.474296 0.266264
0.887793 0.481729 0.284306
0.045078 0.367375 0.019294
0.055213 0.367375 0.019294
0.065349 0.367375 0.019294
0.075485 0.367375 0.019294
0.091407 0.368558 0.020200
0.209299 0.391142 0.031335
0.294002 0.401697 0.030538
0.366984 0.416415 0.028505
0.433607 0.434758 0.034550
0.509841 0.447972 0.065943
0.587495 0.463009 0.102198
0.667478 0.480423 0.142452
0.743108 0.496629 0.185946
0.811340 0.511412 0.228344
0.859128 0.519273 0.255719
0.887513 0.523366 0.275384
0.056169 0.422962 0.028435
0.066305 0.422962 0.028435
0.076440 0.422962 0.028435
0.086576 0.422962 0.028435
0.096712 0.422962 0.028435
0.149005 0.432242 0.032251
0.279692 0.455902 0.030814
0.365866 0.472123 0.030991
0.441288 0.491022 0.054978
0.512004 0.510426 0.088578
0.590463 0.524989 0.123068
0.668078 0.540621 0.163480
0.739693 0.554415 0.204607
0.805748 0.566712 0.245142
0.853958 0.568210 0.262530
0.887175 0.567372 0.271253
0.064445 0.475818 0.041256
0.074581 0.475818 0.041256
0.084717 0.475818 0.041256
0.094852 0.475818 0.041256
0.104988 0.475818 0.041256
0.115123 0.475818 0.041256
0.247244 0.506531 0.039519
0.357019 0.528527 0.042511
0.446267 0.548811 0.079821
0.520532 0.568056 0.112519
0.591090 0.590836 0.147710
0.668161 0.602806 0.188005
0.738176 0.613511 0.227045
0.801266 0.622058 0.262931
0.848756 0.620627 0.277808
0.883482 0.613754 0.279730
0.069245 0.523318 0.059046
0.079380 0.523318 0.059046
0.089516 0.523318 0.059046
0.099652 0.523318 0.059046
0.109787 0.523318 0.059046
0.119923 0.523318 0.059046
0.186195 0.541775 0.068807
0.340138 0.587135 0.075008
0.438913 0.607073 0.100308
0.526778 0.628600 0.138459
0.599896 0.648051 0.176540
0.667472 0.665829 0.216229
0.736046 0.673714 0.253342
0.796246 0.676295 0.280442
0.844748 0.673268 0.294598
0.879831 0.662816 0.294327
0.074180 0.570337 0.081042
0.084316 0.570337 0.081042
0.094451 0.570337 0.081042
0.104587 0.570337 0.081042
0.114723 0.570337 0.081042
0.124858 0.570337 0.081042
0.134994 0.570337 0.081042
0.294249 0.634040 0.113229
0.428396 0.667885 0.125662
0.522995 0.688994 0.164170
0.605787 0.708148 0.208251
0.672024 0.722191 0.246395
0.733472 0.733935 0.280806
0.791208 0.731262 0.299760
0.840433 0.725647 0.311973
0.875866 0.711945 0.309468
0.099280 0.638541 0.115911
0.109415 0.638541 0.115911
0.119551 0.638541 0.115911
0.129687 0.638541 0.115911
0.139822 0.638541 0.115911
0.149958 0.638541 0.115911
0.160094 0.638541 0.115911
0.212670 0.658576 0.127415
0.405679 0.734263 0.170576
0.514491 0.751172 0.192950
0.601690 0.767059 0.237679
0.675215 0.777926 0.276835
0.733505 0.782811 0.301016
0.786247 0.786043 0.320220
0.836580 0.779334 0.331616
0.872080 0.761936 0.325855
0.151141 0.740715 0.179152
0.161277 0.740715 0.179152
0.171413 0.740715 0.179152
0.181548 0.740715 0.179152
0.191684 0.740715 0.179152
0.201819 0.740715 0.179152
0.211955 0.740715 0.179152
0.229348 0.744307 0.181315
0.367243 0.799309 0.216455
0.498194 0.818661 0.238972
0.592888 0.825257 0.268019
0.669898 0.829935 0.299075
0.732353 0.831465 0.320610
0.785931 0.833910 0.339445
0.833628 0.832577 0.351915
0.870087 0.814365 0.343118
0.216051 0.853985 0.254782
0.226187 0.853985 0.254782
0.236323 0.853985 0.254782
0.246458 0.853985 0.254782
0.256594 0.853985 0.254782
0.266730 0.853985 0.254782
0.276865 0.853985 0.254782
0.287001 0.853985 0.254782
0.333704 0.872350 0.266657
0.478377 0.891097 0.291783
0.579456 0.882518 0.303971
0.656954 0.879629 0.316431
0.726974 0.879951 0.338850
0.784571 0.881652 0.357840
0.833147 0.880361 0.369201
0.867781 0.866057 0.358750
0.000000 0.007191 0.126979
0.010217 0.005441 0.128224
0.031471 0.012017 0.121464
0.087003 0.010511 0.089811
0.166408 0.002866 0.091114
0.247508 0.000000 0.105848
0.310658 0.000722 0.116424
0.373439 0.012228 0.128621
0.436623 0.033230 0.142026
0.504207 0.060406 0.160901
0.577472 0.091343 0.190170
0.654505 0.128077 0.225119
0.731328 0.171147 0.264214
0.803359 0.220057 0.304781
0.854356 0.268039 0.332825
0.880519 0.296186 0.345517
0.000000 0.044705 0.128360
0.010136 0.042630 0.129174
0.033866 0.034712 0.114332
0.088611 0.033163 0.086643
0.172232 0.026469 0.089136
0.253461 0.022489 0.099865
0.315444 0.029483 0.110268
0.376332 0.041944 0.122875
0.438862 0.058971 0.137083
0.506452 0.082156 0.156472
0.579738 0.110114 0.185893
0.656575 0.144124 0.221758
0.732680 0.183764 0.261519
0.803988 0.230534 0.302851
0.854626 0.278385 0.330975
0.880848 0.306559 0.344049
0.000000 0.100496 0.121610
0.010136 0.100561 0.122433
0.035739 0.079674 0.100336
0.094804 0.069290 0.078634
0.176772 0.075464 0.084721
0.253976 0.077584 0.093963
0.318547 0.081612 0.101376
0.378916 0.091336 0.113577
0.441634 0.105022 0.128685
0.509688 0.123174 0.149202
0.583326 0.146625 0.179448
0.660320 0.176152 0.215968
0.736674 0.212188 0.255070
0.807527 0.254095 0.296453
0.856411 0.294290 0.324464
0.882275 0.319164 0.338672
0.001248 0.138594 0.082319
0.011286 0.138884 0.083446
0.032339 0.131055 0.078878
0.105319 0.118858 0.064350
0.178571 0.128487 0.076770
0.252063 0.135165 0.087803
0.316165 0.138384 0.094728
0.378922 0.143747 0.102774
0.443832 0.153462 0.116363
0.512751 0.169040 0.139404
0.586501 0.189716 0.171226
0.663305 0.216297 0.209914
0.739295 0.248945 0.250427
0.809952 0.286782 0.292082
0.858641 0.322785 0.317510
0.885080 0.344259 0.330881
0.004806 0.175976 0.039239
0.014985 0.175730 0.039712
0.030846 0.174972 0.040831
0.109316 0.176917 0.044971
0.180727 0.185592 0.057594
0.247942 0.190483 0.073211
0.312845 0.194469 0.086044
0.376475 0.199251 0.095694
0.443356 0.206781 0.106361
0.515568 0.219251 0.125595
0.590446 0.237189 0.157340
0.667127 0.261720 0.199874
0.742419 0.291337 0.243453
0.811684 0.325038 0.287382
0.859386 0.355883 0.313284
0.886272 0.373721 0.325549
0.008039 0.218931 0.025664
0.018195 0.218847 0.025790
0.028412 0.218572 0.026251
0.091121 0.224596 0.032791
0.176868 0.233530 0.044394
0.239350 0.243743 0.049492
0.306300 0.247681 0.059739
0.373470 0.254570 0.084015
0.441810 0.262792 0.098939
0.514796 0.274005 0.118730
0.592701 0.289143 0.144210
0.671980 0.310871 0.184966
0.746273 0.337833 0.233626
0.813636 0.367247 0.280502
0.860027 0.392792 0.307989
0.886692 0.407236 0.320849
0.016854 0.265906 0.022808
0.026914 0.265906 0.022897
0.036956 0.265907 0.023118
0.046967 0.265924 0.023454
0.158395 0.280490 0.037855
0.237041 0.289178 0.042630
0.298422 0.299557 0.044281
0.365907 0.307378 0.050388
0.438483 0.318283 0.074457
0.514478 0.331472 0.111527
0.592260 0.346192 0.140747
0.673574 0.365356 0.176782
0.750010 0.387661 0.220023
0.815892 0.413049 0.270234
0.860724 0.433138 0.300119
0.887331 0.443921 0.313995
0.030018 0.314570 0.024748
0.040154 0.314570 0.024748
0.050289 0.314570 0.024748
0.060425 0.314570 0.024748
0.109005 0.321896 0.030758
0.225549 0.338296 0.041470
0.298237 0.349198 0.040550
0.361326 0.363091 0.039232
0.433394 0.373921 0.043275
0.510810 0.388439 0.076587
0.591959 0.404868 0.131965
0.673397 0.423449 0.174765
0.749201 0.441354 0.214531
0.817560 0.461247 0.257858
0.861180 0.475250 0.288789
0.887950 0.482254 0.304289
0.045078 0.367375 0.029429
0.055213 0.367375 0.029429
0.065349 0.367375 0.029429
0.075485 0.367375 0.029429
0.090857 0.368423 0.030245
0.205239 0.390694 0.041470
0.291885 0.401306 0.040729
0.366259 0.416173 0.038678
0.433042 0.434514 0.044458
0.509458 0.447941 0.076848
0.588323 0.463494 0.114477
0.670866 0.481874 0.163906
0.747353 0.498045 0.211093
0.814865 0.512185 0.249123
0.860670 0.518604 0.271426
0.888646 0.522577 0.290302
0.056169 0.422962 0.038570
0.066305 0.422962 0.038570
0.076440 0.422962 0.038570
0.086576 0.422962 0.038570
0.096712 0.422962 0.038570
0.144538 0.430685 0.042315
0.277022 0.455385 0.041243
0.364095 0.471651 0.041103
0.440581 0.490800 0.064724
0.511464 0.510207 0.098423
0.589903 0.524877 0.132891
0.667923 0.540634 0.173558
0.741138 0.554883 0.216548
0.809172 0.567495 0.259020
0.855980 0.567376 0.273276
0.888761 0.566696 0.282678
0.064445 0.475818 0.051392
0.074581 0.475818 0.051392
0.084717 0.475818 0.051392
0.094852 0.475818 0.051392
0.104988 0.475818 0.051392
0.115123 0.475818 0.051392
0.241977 0.504805 0.049936
0.354940 0.528019 0.051907
0.444581 0.548302 0.089068
0.519993 0.567866 0.122356
0.590632 0.590582 0.157574
0.667717 0.602724 0.197879
0.737864 0.613494 0.236930
0.801225 0.622109 0.273087
0.849828 0.620376 0.288120
0.885146 0.613093 0.289817
0.069245 0.523298 0.069182
0.079380 0.523298 0.069182
0.089516 0.523298 0.069182
0.099652 0.523298 0.069182
0.109787 0.523298 0.069182
0.119923 0.523298 0.069182
0.182477 0.540387 0.078539
0.337404 0.586483 0.084923
0.437139 0.606622 0.109667
0.525847 0.628332 0.148125
0.599411 0.647898 0.186405
0.667118 0.665679 0.226083
0.735704 0.673696 0.263265
0.796020 0.676293 0.290443
0.844652 0.673339 0.304736
0.880334 0.662676 0.304469
0.074180 0.570337 0.091178
0.084316 0.570337 0.091178
0.094451 0.570337 0.091178
0.104587 0.570337 0.091178
0.114723 0.570337 0.091178
0.124858 0.570337 0.091178
0.134994 0.570337 0.091178
0.289067 0.631593 0.122221
0.426381 0.667495 0.135384
0.521588 0.688610 0.173476
0.605187 0.708043 0.217963
0.671644 0.722091 0.256275
0.733194 0.733844 0.290734
0.790952 0.731274 0.309820
0.840261 0.725688 0.322079
0.875787 0.711976 0.319604
0.099280 0.638541 0.126046
0.109415 0.638541 0.126046
0.119551 0.638541 0.126046
0.129687 0.638541 0.126046
0.139822 0.638541 0.126046
0.149958 0.638541 0.126046
0.160094 0.638541 0.126046
0.210524 0.657540 0.136972
0.402890 0.733547 0.180417
0.513060 0.750907 0.202290
0.600588 0.766805 0.247051
0.674653 0.777865 0.286666
0.733252 0.782793 0.311012
0.786027 0.786019 0.330250
0.836405 0.779383 0.341711
0.872001 0.761967 0.336004
0.151141 0.740715 0.189288
0.161277 0.740715 0.189288
0.171413 0.740715 0.189288
0.181548 0.740715 0.189288
0.191684 0.740715 0.189288
0.201819 0.740715 0.189288
0.211955 0.740715 0.189288
0.228424 0.743827 0.191168
0.363850 0.798254 0.225828
0.496449 0.818538 0.248780
0.591718 0.825054 0.277476
0.669139 0.829914 0.308903
0.732085 0.831452 0.330619
0.785690 0.833908 0.349472
0.833488 0.832616 0.362035
0.869985 0.814481 0.353368
0.216051 0.853985 0.264918
0.226187 0.853985 0.264918
0.236323 0.853985 0.264918
0.246458 0.853985 0.264918
0.256594 0.853985 0.264918
0.266730 0.853985 0.264918
0.276865 0.853985 0.264918
0.287001 0.853985 0.264918
0.327833 0.869335 0.274772
0.476556 0.891268 0.301708
0.578051 0.882517 0.313999
0.656099 0.879596 0.326295
0.726330 0.879928 0.348743
0.784330 0.881642 0.367907
0.832991 0.880382 0.379347
0.867679 0.866159 0.368988
0.000000 0.010040 0.182294
0.010136 0.010040 0.182413
0.026492 0.008381 0.181243
0.057494 0.020443 0.170918
0.105368 0.029119 0.146388
0.212436 0.015535 0.144543
0.308040 0.008090 0.165512
0.380101 0.012608 0.178984
0.446216 0.033827 0.191792
0.513474 0.063078 0.210220
0.586087 0.095684 0.235445
0.661696 0.133382 0.266786
0.738573 0.177740 0.302258
0.809355 0.227248 0.339623
0.856757 0.274049 0.361765
0.880192 0.300402 0.369379
0.000000 0.043837 0.182671
0.010136 0.043837 0.182769
0.025017 0.035882 0.182219
0.057013 0.041290 0.171104
0.108638 0.048061 0.143444
0.214454 0.039638 0.143973
0.311453 0.035303 0.162037
0.383843 0.045067 0.173716
0.449054 0.062973 0.186795
0.515947 0.085961 0.206122
0.588421 0.114673 0.232118
0.663692 0.149793 0.264002
0.739870 0.190974 0.300032
0.809952 0.237733 0.338021
0.857009 0.284395 0.360178
0.880453 0.310747 0.368103
0.000000 0.098108 0.183397
0.010136 0.098108 0.183537
0.022768 0.093304 0.182922
0.058639 0.074725 0.161317
0.115024 0.076059 0.134055
0.216706 0.081342 0.141110
0.313695 0.084841 0.156165
0.388666 0.089607 0.163061
0.453120 0.104108 0.176509
0.520452 0.124017 0.196803
0.593027 0.148972 0.223882
0.668317 0.180209 0.257008
0.743824 0.218247 0.293447
0.813135 0.261304 0.331846
0.858253 0.300453 0.353695
0.881650 0.323311 0.363133
0.000000 0.151727 0.178675
0.010136 0.151681 0.179000
0.021116 0.149602 0.178125
0.057920 0.117444 0.146675
0.122499 0.104996 0.120157
0.220383 0.127635 0.136145
0.314873 0.139540 0.151188
0.388584 0.145036 0.156882
0.455188 0.154219 0.166119
0.523895 0.170373 0.187232
0.596365 0.191792 0.215769
0.671964 0.219528 0.250400
0.746944 0.253344 0.286981
0.815843 0.291897 0.324783
0.859757 0.327385 0.344938
0.883534 0.348021 0.355016
0.000858 0.189286 0.141646
0.010988 0.189373 0.142131
0.021466 0.189095 0.143355
0.058169 0.153714 0.118570
0.128139 0.145690 0.109984
0.225461 0.178300 0.129653
0.316408 0.195258 0.145042
0.386594 0.202269 0.153221
0.453800 0.209918 0.161554
0.525434 0.222287 0.178365
0.599902 0.240065 0.204433
0.675631 0.265380 0.242086
0.749371 0.295507 0.280588
0.817204 0.329491 0.319763
0.860463 0.359039 0.338819
0.885295 0.375895 0.347576
0.010888 0.206042 0.094140
0.020962 0.206188 0.094767
0.030854 0.206755 0.097088
0.053892 0.199265 0.093424
0.138866 0.200195 0.093808
0.228157 0.236484 0.114915
0.313993 0.251995 0.135799
0.384120 0.259251 0.148352
0.452569 0.266875 0.157687
0.524416 0.278374 0.174982
0.600706 0.293485 0.197354
0.679836 0.314996 0.230377
0.752351 0.341578 0.271494
0.818737 0.371318 0.313431
0.861031 0.395478 0.334067
0.886292 0.409002 0.343619
0.015307 0.248391 0.063729
0.025435 0.248233 0.064137
0.035743 0.247659 0.065522
0.046307 0.246579 0.068203
0.126062 0.255409 0.071707
0.232998 0.288554 0.095463
0.306386 0.306436 0.112407
0.378267 0.315076 0.130578
0.450148 0.323995 0.149524
0.524163 0.336508 0.172054
0.600496 0.351320 0.196048
0.679980 0.370108 0.226450
0.754883 0.391354 0.260944
0.820374 0.416687 0.304273
0.861636 0.435357 0.327168
0.887494 0.445630 0.338305
0.023451 0.313919 0.042156
0.033435 0.313517 0.042493
0.043202 0.312008 0.043643
0.052556 0.308709 0.045901
0.097771 0.314467 0.050032
0.222049 0.341281 0.064739
0.301420 0.354308 0.079931
0.369190 0.369872 0.098612
