example_ofxGpuLutCube/bin/data/ofxGpuLutCube/LUT/C21 (hard teal fade).cube
LUT_3D_SIZE 6
0.000000 0.000000 0.000594
0.154973 0.000000 0.023370
0.307504 0.001781 0.056814
0.498024 0.058934 0.113271
0.727041 0.166947 0.224287
0.880710 0.293444 0.315792
0.001187 0.133706 0.000153
0.140815 0.142247 0.017017
0.308328 0.136423 0.020626
0.504885 0.168357 0.089623
0.734622 0.246292 0.211588
0.885442 0.341610 0.300185
0.016807 0.265920 0.002510
0.058719 0.266300 0.004219
0.298095 0.298773 0.020310
0.506646 0.328432 0.026063
0.746707 0.385164 0.174097
0.887146 0.442772 0.282957
0.056169 0.422962 0.018299
0.086576 0.422962 0.018299
0.280467 0.456032 0.020629
0.512144 0.510465 0.078532
0.739720 0.554437 0.194455
0.886740 0.567589 0.260720
0.074180 0.570337 0.070907
0.104587 0.570337 0.070907
0.134994 0.570337 0.070907
0.523388 0.689076 0.154272
0.733557 0.733967 0.270711
0.875906 0.711945 0.299333
0.216051 0.853985 0.244647
0.246458 0.853985 0.244647
0.276865 0.853985 0.244647
0.478849 0.891078 0.281699
0.727190 0.879958 0.328833
0.867782 0.866056 0.348614
0.000000 0.010040 0.182294
0.057494 0.020443 0.170918
0.308040 0.008090 0.165512
0.513474 0.063078 0.210220
0.738573 0.177740 0.302258
0.880192 0.300402 0.369379
0.000000 0.151727 0.178675
0.057920 0.117444 0.146675
0.314873 0.139540 0.151188
0.523895 0.170373 0.187232
0.746944 0.253344 0.286981
0.883534 0.348021 0.355016
0.015307 0.248391 0.063729
0.046307 0.246579 0.068203
0.306386 0.306436 0.112407
0.524163 0.336508 0.172054
0.754883 0.391354 0.260944
0.887494 0.445630 0.338305
0.056169 0.422962 0.048706
0.086576 0.422962 0.048706
0.271421 0.454405 0.051981
0.511052 0.510331 0.108453
0.747268 0.558191 0.251862
0.890835 0.565232 0.301713
0.074180 0.570337 0.101259
0.104587 0.570337 0.101259
0.134994 0.570337 0.101259
0.518731 0.687793 0.181961
0.732600 0.733697 0.300478
0.875691 0.712098 0.329807
0.216051 0.853985 0.274986
0.246458 0.853985 0.274986
0.276865 0.853985 0.274986
0.472840 0.891616 0.311434
0.725102 0.879874 0.358352
0.867476 0.866296 0.379260
0.001781 0.031951 0.372085
0.037055 0.030635 0.372004
0.215937 0.089800 0.389926
0.537390 0.154934 0.420690
0.772790 0.229765 0.468801
0.871367 0.324115 0.467964
0.000000 0.167764 0.378017
0.030407 0.167916 0.378749
0.217437 0.174419 0.395608
0.545312 0.231020 0.416012
0.781090 0.294186 0.460489
0.874396 0.371904 0.459503
0.000000 0.340049 0.385564
0.030407 0.340573 0.387740
0.241970 0.335811 0.384347
0.558581 0.378474 0.407320
0.791083 0.420478 0.439554
0.882615 0.453705 0.434483
0.064449 0.410815 0.259010
0.094907 0.412847 0.262225
0.229951 0.463458 0.306413
0.560456 0.561941 0.381574
0.778589 0.586768 0.443543
0.886690 0.564514 0.411056
0.099843 0.585454 0.225770
0.132550 0.587546 0.229755
0.172774 0.596588 0.245786
0.527132 0.722157 0.330704
0.747981 0.749929 0.409537
0.883128 0.707998 0.392149
0.216051 0.853901 0.305376
0.246458 0.853901 0.305376
0.276865 0.853901 0.305376
0.442152 0.890650 0.336688
0.716879 0.883277 0.387498
0.869603 0.870349 0.410068
0.102841 0.124142 0.631917
0.133604 0.124447 0.632460
0.293801 0.160852 0.666399
0.526705 0.299590 0.759557
0.766169 0.439433 0.743632
0.847908 0.387843 0.599541
0.032596 0.233698 0.643117
0.063324 0.233927 0.643633
0.284845 0.238058 0.672388
0.524050 0.365506 0.763366
0.767600 0.474491 0.728454
0.849307 0.423611 0.594829
0.000000 0.421416 0.671738
0.030407 0.421610 0.672312
0.111948 0.428734 0.691425
0.537884 0.490732 0.765368
0.771973 0.526085 0.682654
0.856561 0.476790 0.570151
0.000000 0.638827 0.709849
0.030407 0.639355 0.711426
0.060814 0.641913 0.718591
0.567789 0.667892 0.728464
0.765425 0.611819 0.639413
0.869356 0.559753 0.525062
0.226726 0.745272 0.568965
0.256521 0.746750 0.571357
0.284610 0.753091 0.581443
0.543593 0.772333 0.607235
0.756109 0.758124 0.599461
0.869179 0.691629 0.519492
0.341696 0.896336 0.532782
0.372979 0.896647 0.533907
0.407022 0.897718 0.538768
0.456997 0.905774 0.547834
0.714980 0.903125 0.548890
0.873572 0.876844 0.486984
0.294685 0.309609 0.886204
0.325384 0.309860 0.886442
0.357035 0.311152 0.887398
0.596595 0.430309 0.916975
0.787477 0.580375 0.923281
0.917151 0.661633 0.905235
0.288498 0.377449 0.889949
0.319200 0.377675 0.890159
0.350972 0.378698 0.891074
0.595194 0.478591 0.917657
0.789075 0.622519 0.923271
0.916543 0.694083 0.905291
0.279194 0.519960 0.902668
0.310071 0.520131 0.902889
0.342467 0.520887 0.903802
0.596537 0.569373 0.919612
0.796814 0.696402 0.923176
0.914217 0.734589 0.905262
0.288654 0.697927 0.918725
0.319663 0.697986 0.918873
0.352727 0.698303 0.919495
0.565756 0.717671 0.923764
0.810975 0.779637 0.921121
0.915686 0.774113 0.873114
0.366090 0.872837 0.923878
0.398159 0.872755 0.924098
0.435600 0.872431 0.925078
0.546172 0.872319 0.925717
0.804491 0.863399 0.899875
0.857881 0.702325 0.699017
0.485943 0.957634 0.817745
0.518316 0.957523 0.818809
0.557274 0.956957 0.823288
0.603398 0.955812 0.831459
0.702131 0.930566 0.787252
0.846709 0.853150 0.646988
0.505388 0.530233 0.967184
0.535794 0.530233 0.967184
0.566201 0.530233 0.967184
0.662784 0.567544 0.962927
0.783617 0.595679 0.957398
0.923711 0.652773 0.950754
0.504404 0.573953 0.967269
0.534811 0.573953 0.967269
0.565218 0.573953 0.967269
0.663442 0.603676 0.962927
0.783061 0.629752 0.957415
0.922611 0.682792 0.950840
0.512951 0.650693 0.966692
0.543358 0.650693 0.966692
0.573765 0.650693 0.966692
0.662129 0.661381 0.963019
0.779158 0.676942 0.957693
0.917096 0.711576 0.951233
0.528486 0.748275 0.965691
0.558893 0.748275 0.965691
0.589300 0.748275 0.965691
0.636103 0.747614 0.964613
0.769396 0.736763 0.958382
0.897350 0.738827 0.952567
0.510931 0.846893 0.966913
0.541964 0.846808 0.966912
0.573975 0.846550 0.966801
0.605553 0.846329 0.966716
0.726990 0.831487 0.961187
0.878640 0.803353 0.953731
0.663414 0.957886 0.957463
0.694052 0.957885 0.957397
0.725285 0.957798 0.957380
0.757559 0.957708 0.957215
0.809653 0.956273 0.955925
0.847159 0.952605 0.955490
