example_ofxGpuLutCube/bin/data/ofxGpuLutCube/LUT/C22 (deep teal).cube
LUT_3D_SIZE 6
0.034416 0.051350 0.060847
0.129271 0.064517 0.045853
0.393836 0.124071 0.050142
0.666043 0.195223 0.070819
0.767542 0.220765 0.083913
0.809511 0.231698 0.090346
0.036835 0.113519 0.149984
0.095504 0.119091 0.100437
0.381252 0.155267 0.073576
0.637050 0.205731 0.077379
0.744810 0.233450 0.087059
0.794780 0.247306 0.094707
0.044496 0.257765 0.316111
0.062744 0.252458 0.246042
0.318071 0.270618 0.163236
0.647332 0.283469 0.111557
0.752289 0.297689 0.113158
0.807466 0.311170 0.119585
0.061112 0.421227 0.429384
0.057105 0.413665 0.373436
0.155975 0.432301 0.313438
0.615727 0.465964 0.244625
0.765998 0.477120 0.208517
0.843718 0.491105 0.199639
0.106148 0.526506 0.456005
0.108297 0.535894 0.408690
0.213396 0.570886 0.354915
0.657657 0.636140 0.346688
0.800298 0.648935 0.318862
0.889273 0.662714 0.292888
0.125897 0.585817 0.460245
0.165653 0.623287 0.408891
0.399523 0.695944 0.363132
0.755531 0.764502 0.359858
0.865622 0.777384 0.338624
0.928337 0.785540 0.311186
0.033787 0.052760 0.080613
0.114807 0.065319 0.068200
0.431294 0.129643 0.066157
0.686489 0.196023 0.080103
0.774266 0.218933 0.091729
0.810057 0.227457 0.096775
0.032230 0.112741 0.194630
0.085901 0.116296 0.136324
0.399124 0.157689 0.093025
0.655339 0.209005 0.087788
0.752247 0.231985 0.094785
0.796405 0.242904 0.100912
0.040351 0.253481 0.358364
0.050715 0.244267 0.313913
0.279508 0.270511 0.219667
0.651567 0.281542 0.140021
0.754385 0.294820 0.130017
0.807855 0.306619 0.133352
0.059220 0.419906 0.465219
0.056919 0.411993 0.434812
0.127330 0.427452 0.379960
0.599254 0.469199 0.304947
0.763867 0.476394 0.270152
0.845866 0.490163 0.252628
0.104092 0.531308 0.513019
0.105558 0.539707 0.489951
0.190135 0.570756 0.450290
0.641032 0.648438 0.422376
0.797719 0.660291 0.403789
0.892924 0.671127 0.378955
0.124422 0.597700 0.544459
0.140808 0.632857 0.527120
0.345217 0.698243 0.501193
0.745601 0.780554 0.474136
0.866700 0.794453 0.442171
0.936707 0.803416 0.407464
0.040579 0.055524 0.099924
0.099845 0.067018 0.096250
0.411602 0.129577 0.096848
0.693549 0.197148 0.101508
0.775572 0.215166 0.108037
0.808253 0.222686 0.111882
0.029705 0.110980 0.253007
0.067602 0.120130 0.196468
0.362996 0.158160 0.134433
0.657324 0.209258 0.109454
0.751972 0.230089 0.110852
0.794684 0.238064 0.114640
0.039300 0.251000 0.396997
0.044574 0.240587 0.369775
0.246856 0.269061 0.287075
0.653410 0.286089 0.178603
0.756051 0.296189 0.160064
0.808398 0.303118 0.158055
0.059064 0.422736 0.507474
0.057793 0.419591 0.490709
0.102779 0.428563 0.458843
0.583824 0.482566 0.389050
0.765939 0.482811 0.341537
0.848149 0.491510 0.316716
0.104389 0.539099 0.569164
0.105457 0.551120 0.558615
0.178188 0.581538 0.541832
0.633262 0.676773 0.531668
0.798941 0.678296 0.507496
0.896630 0.683604 0.485281
0.122690 0.607843 0.612572
0.133802 0.644792 0.608824
0.300388 0.708617 0.606327
0.744558 0.809528 0.611583
0.869159 0.820048 0.581386
0.940277 0.826405 0.562997
0.051294 0.062223 0.136968
0.104104 0.072494 0.133924
0.370851 0.129934 0.148629
0.679642 0.193647 0.144495
0.770837 0.209368 0.143229
0.803344 0.214243 0.144409
0.033077 0.110758 0.280789
0.066402 0.128105 0.254043
0.249280 0.156769 0.212377
0.626410 0.206691 0.160462
0.747760 0.228459 0.151032
0.792791 0.234616 0.150876
0.039903 0.250211 0.444222
0.045546 0.239465 0.422700
0.161152 0.263476 0.368011
0.614473 0.292620 0.249841
0.748536 0.301767 0.218548
0.805265 0.302428 0.209093
0.058785 0.419162 0.549021
0.058021 0.418348 0.541470
0.093547 0.430777 0.527411
0.577164 0.494866 0.471420
0.762499 0.492321 0.413926
0.845081 0.498611 0.395623
0.102963 0.543689 0.626258
0.104628 0.559774 0.624075
0.162380 0.591587 0.621655
0.594739 0.699270 0.641676
0.801247 0.696250 0.601248
0.898745 0.690668 0.574175
0.118989 0.613958 0.675989
0.129513 0.655501 0.683460
0.251576 0.716356 0.693381
0.728069 0.836302 0.735261
0.871572 0.848517 0.712211
0.939713 0.845401 0.691716
0.062258 0.069562 0.169005
0.124054 0.080421 0.169358
0.379314 0.134376 0.185126
0.650912 0.193367 0.192205
0.753673 0.204946 0.181003
0.792351 0.209917 0.177121
0.044431 0.118755 0.307056
0.071712 0.138672 0.296485
0.222943 0.163899 0.263169
0.561408 0.199525 0.211809
0.727319 0.226723 0.191737
0.782871 0.229448 0.183732
0.041799 0.255947 0.473864
0.051231 0.249666 0.456671
0.141607 0.274696 0.422948
0.502892 0.289868 0.318153
0.726973 0.307092 0.273923
0.797228 0.304439 0.257988
0.057253 0.417385 0.579961
0.057443 0.419522 0.577443
0.094590 0.431924 0.565703
0.509493 0.505507 0.534660
0.750952 0.506076 0.473608
0.843446 0.509840 0.462166
0.100245 0.545698 0.661286
0.102134 0.564603 0.665276
0.160209 0.601260 0.672678
0.559536 0.709042 0.707683
0.810502 0.711712 0.673200
0.901247 0.702737 0.648560
0.116112 0.618521 0.714110
0.125465 0.662399 0.729899
0.228664 0.723133 0.750094
0.693608 0.843610 0.806763
0.879750 0.881887 0.823563
0.940065 0.858272 0.783502
0.069927 0.074339 0.194345
0.147536 0.088072 0.196167
0.393348 0.141138 0.214530
0.635741 0.193792 0.220942
0.739506 0.207464 0.216901
0.780350 0.209227 0.209823
0.053073 0.130185 0.332504
0.078975 0.149697 0.328748
0.220677 0.172668 0.298974
0.523355 0.199494 0.248834
0.698429 0.226621 0.232920
0.767205 0.229542 0.219993
0.043674 0.263084 0.493746
0.055958 0.260691 0.480686
0.144053 0.288439 0.456998
0.440766 0.294324 0.366492
0.688812 0.313902 0.321001
0.786924 0.309711 0.302186
0.056645 0.420288 0.604404
0.057709 0.424505 0.602967
0.096227 0.441485 0.596470
0.392956 0.492763 0.565699
0.700317 0.504848 0.509467
0.831613 0.517466 0.509014
0.096870 0.546837 0.684197
0.099796 0.569112 0.693174
0.158432 0.609182 0.705751
0.543663 0.712412 0.742673
0.788677 0.723007 0.719244
0.896458 0.715646 0.705771
0.113503 0.621870 0.736328
0.121833 0.666697 0.757541
0.225622 0.729892 0.784282
0.667698 0.846482 0.847274
0.874582 0.893147 0.877738
0.938824 0.863485 0.839186
