example_ofxGpuLutCube/bin/data/ofxGpuLutCube/LUT/C22 (deep teal).cube
LUT_3D_SIZE 16
0.034416 0.051350 0.060847
0.047497 0.051383 0.054255
0.078152 0.055322 0.049451
0.129271 0.064517 0.045853
0.192662 0.077533 0.044570
0.283100 0.097040 0.045773
0.393836 0.124071 0.050142
0.492544 0.148865 0.055500
0.593327 0.175124 0.063968
0.666043 0.195223 0.070819
0.712270 0.206696 0.076046
0.745144 0.215460 0.080725
0.767542 0.220765 0.083913
0.784283 0.225128 0.086395
0.797586 0.228734 0.088404
0.809511 0.231698 0.090346
0.035317 0.065270 0.078094
0.044064 0.063974 0.067565
0.076023 0.066515 0.060540
0.130859 0.073720 0.054394
0.201186 0.086008 0.050955
0.292042 0.105141 0.051214
0.400389 0.130866 0.054036
0.497339 0.155561 0.059122
0.593335 0.180303 0.066456
0.664892 0.199812 0.073007
0.709495 0.211528 0.077949
0.742256 0.220267 0.082279
0.764816 0.225863 0.085425
0.781492 0.230244 0.087928
0.794326 0.233722 0.089824
0.805510 0.236592 0.091491
0.034823 0.083602 0.107235
0.039331 0.083882 0.095683
0.062625 0.085070 0.080868
0.119709 0.089568 0.069998
0.195997 0.099571 0.063717
0.288211 0.116153 0.061239
0.394502 0.139465 0.061359
0.490537 0.161424 0.063749
0.582188 0.183739 0.068890
0.652901 0.202103 0.074679
0.698080 0.214556 0.078953
0.731058 0.223172 0.082806
0.755752 0.229625 0.086202
0.773787 0.234494 0.088918
0.788697 0.238682 0.091195
0.800041 0.241696 0.092755
0.036835 0.113519 0.149984
0.039257 0.114876 0.140070
0.050290 0.116346 0.121403
0.095504 0.119091 0.100437
0.174857 0.125261 0.087036
0.271493 0.137086 0.078897
0.381252 0.155267 0.073576
0.478679 0.171861 0.071225
0.566442 0.189562 0.072814
0.637050 0.205731 0.077379
0.685251 0.218796 0.080946
0.718649 0.227260 0.084076
0.744810 0.233450 0.087059
0.765395 0.238721 0.090078
0.782230 0.243865 0.092900
0.794780 0.247306 0.094707
0.043094 0.156184 0.203832
0.044713 0.156961 0.193475
0.051213 0.156998 0.169716
0.078473 0.157787 0.144520
0.148545 0.161258 0.120475
0.251825 0.168994 0.104624
0.371710 0.182274 0.091674
0.480623 0.195200 0.084036
0.570981 0.208812 0.082576
0.637423 0.221016 0.084441
0.685320 0.231769 0.086605
0.718669 0.239190 0.089345
0.744072 0.244566 0.091845
0.764361 0.249593 0.094623
0.781717 0.254416 0.097266
0.795105 0.257837 0.099120
0.045976 0.204443 0.262136
0.047779 0.203287 0.248669
0.051944 0.202009 0.223047
0.071139 0.202518 0.192558
0.116771 0.205687 0.168460
0.219745 0.211676 0.141148
0.353926 0.219466 0.119533
0.479159 0.228518 0.103582
0.576255 0.237931 0.096638
0.643720 0.246680 0.095591
0.690509 0.254020 0.096204
0.723312 0.260304 0.098387
0.747867 0.265318 0.100758
0.767878 0.270488 0.103398
0.785823 0.275506 0.105747
0.799651 0.278500 0.107369
0.044496 0.257765 0.316111
0.046216 0.255034 0.302991
0.048977 0.252729 0.278178
0.062744 0.252458 0.246042
0.097268 0.256434 0.221583
0.172705 0.262767 0.190823
0.318071 0.270618 0.163236
0.467259 0.275075 0.136163
0.575858 0.279158 0.118373
0.647332 0.283469 0.111557
0.694707 0.287692 0.110010
0.727668 0.292825 0.111083
0.752289 0.297689 0.113158
0.772999 0.302586 0.115587
0.792212 0.308129 0.118130
0.807466 0.311170 0.119585
0.044093 0.314141 0.362435
0.045090 0.310267 0.350430
0.046314 0.306776 0.327446
0.053929 0.306419 0.297065
0.079499 0.310835 0.271844
0.132054 0.316426 0.249267
0.247722 0.329421 0.218270
0.433153 0.335193 0.188527
0.564071 0.334570 0.156752
0.645894 0.334826 0.139061
0.696759 0.337375 0.132563
0.732073 0.341387 0.130984
0.758260 0.345637 0.131524
0.780338 0.350077 0.132903
0.800840 0.355277 0.134987
0.817990 0.358868 0.136704
0.047336 0.369578 0.400326
0.047099 0.365629 0.388717
0.047468 0.361646 0.368174
0.050759 0.361122 0.340398
0.067963 0.365094 0.315599
0.105405 0.370764 0.296432
0.185318 0.381854 0.274096
0.358408 0.399993 0.249297
0.533531 0.401837 0.216091
0.634767 0.398636 0.186172
0.693572 0.400283 0.171840
0.733527 0.404483 0.165654
0.763546 0.409857 0.163481
0.788582 0.414992 0.163012
0.811091 0.419022 0.163150
0.830841 0.423305 0.164458
0.061112 0.421227 0.429384
0.058734 0.416654 0.417522
0.056661 0.413449 0.398025
0.057105 0.413665 0.373436
0.069425 0.417046 0.350990
0.094910 0.421274 0.330040
0.155975 0.432301 0.313438
0.292029 0.452232 0.294144
0.493893 0.466712 0.273511
0.615727 0.465964 0.244625
0.684560 0.466986 0.225292
0.731019 0.471260 0.214599
0.765998 0.477120 0.208517
0.795316 0.482697 0.204698
0.820656 0.487504 0.202100
0.843718 0.491105 0.199639
0.078664 0.464802 0.446977
0.076078 0.460969 0.435391
0.072763 0.458526 0.416579
0.072383 0.459494 0.394343
0.083068 0.463261 0.373353
0.107434 0.468079 0.352701
0.155448 0.479300 0.335115
0.281872 0.501933 0.320768
0.480159 0.524084 0.312441
0.609609 0.526846 0.293727
0.682238 0.528686 0.275715
0.731387 0.533013 0.263728
0.770758 0.538347 0.254957
0.803392 0.543877 0.247558
0.831133 0.548382 0.241112
0.856002 0.552831 0.237304
0.093567 0.500065 0.454888
0.091660 0.498058 0.442772
0.089044 0.497776 0.424952
0.089693 0.500247 0.405332
0.103465 0.504977 0.385460
0.128961 0.511777 0.364785
0.181004 0.525996 0.348385
0.296647 0.548791 0.336443
0.502203 0.577461 0.336099
0.624527 0.582921 0.325872
0.694400 0.585918 0.313457
0.742690 0.590911 0.302524
0.782176 0.595592 0.292520
0.815645 0.600525 0.283457
0.845909 0.605271 0.275807
0.871858 0.609272 0.269515
0.106148 0.526506 0.456005
0.104795 0.527374 0.443292
0.103336 0.530462 0.427187
0.108297 0.535894 0.408690
0.128600 0.543263 0.389380
0.159259 0.554230 0.370733
0.213396 0.570886 0.354915
0.361273 0.601776 0.350752
0.553597 0.629748 0.352134
0.657657 0.636140 0.346688
0.717131 0.640010 0.338782
0.762159 0.644313 0.328853
0.800298 0.648935 0.318862
0.833933 0.653552 0.309196
0.864035 0.659247 0.300769
0.889273 0.662714 0.292888
0.116081 0.548968 0.456928
0.115325 0.552369 0.442744
0.115715 0.559310 0.427455
0.128038 0.568662 0.409485
0.156445 0.580757 0.390820
0.192420 0.594579 0.372583
0.267810 0.615403 0.359013
0.434353 0.651433 0.358719
0.603996 0.677570 0.362272
0.692326 0.685349 0.359000
0.747153 0.689175 0.352641
0.787673 0.692624 0.344781
0.821994 0.697447 0.335358
0.853648 0.702691 0.325142
0.881797 0.708124 0.315260
0.905266 0.711657 0.305954
0.122250 0.568687 0.459408
0.122492 0.574258 0.445144
0.125585 0.584236 0.427200
0.146253 0.597574 0.405886
0.184578 0.613703 0.388096
0.233828 0.631374 0.371348
0.326248 0.656764 0.360274
0.518841 0.700206 0.366745
0.654052 0.721578 0.366157
0.726861 0.728737 0.363422
0.776254 0.731964 0.356900
0.813127 0.736038 0.349935
0.844813 0.740789 0.341491
0.872074 0.746109 0.332233
0.897467 0.749838 0.321459
0.918418 0.753099 0.311356
0.125897 0.585817 0.460245
0.127251 0.594427 0.447762
0.132522 0.606723 0.430920
0.165653 0.623287 0.408891
0.212449 0.641259 0.384865
0.277554 0.662285 0.366104
0.399523 0.695944 0.363132
0.572869 0.734940 0.366223
0.688497 0.755385 0.364726
0.755531 0.764502 0.359858
0.802079 0.768974 0.353571
0.837512 0.772959 0.345960
0.865622 0.777384 0.338624
0.889403 0.780727 0.330599
0.910288 0.783083 0.320774
0.928337 0.785540 0.311186
0.034237 0.052104 0.067618
0.045818 0.052162 0.060282
0.077930 0.055995 0.054221
0.133788 0.065373 0.050177
0.203752 0.079249 0.048292
0.299746 0.100197 0.049730
0.410415 0.126655 0.053457
0.507720 0.151308 0.058857
0.602968 0.176693 0.066991
0.673008 0.195762 0.073195
0.718235 0.206736 0.078395
0.749062 0.214998 0.083003
0.770140 0.220491 0.086272
0.785885 0.224681 0.088644
0.798666 0.227962 0.090426
0.810084 0.230621 0.092141
0.035310 0.065513 0.085196
0.044769 0.064343 0.074986
0.077374 0.066918 0.064883
0.134218 0.074472 0.058744
0.210068 0.087454 0.054973
0.305080 0.107732 0.055369
0.414418 0.133378 0.057697
0.511256 0.157734 0.062342
0.603856 0.182212 0.069671
0.672033 0.200558 0.075449
0.715249 0.211521 0.080138
0.746053 0.219744 0.084350
0.767123 0.225193 0.087464
0.782887 0.229516 0.089981
0.795202 0.232756 0.091773
0.806125 0.235483 0.093333
0.034583 0.084092 0.115471
0.038847 0.083959 0.105680
0.063360 0.084850 0.087301
0.122090 0.089623 0.075266
0.201491 0.100668 0.068820
0.297945 0.118064 0.065920
0.406053 0.141550 0.065161
0.502681 0.163478 0.067034
0.591606 0.185235 0.071878
0.659962 0.203175 0.077122
0.704033 0.214821 0.081178
0.735696 0.223005 0.084925
0.758497 0.229049 0.088173
0.775501 0.233563 0.090722
0.789696 0.237389 0.092849
0.800864 0.240237 0.094390
0.036018 0.113530 0.160785
0.038663 0.114727 0.152770
0.048866 0.115977 0.133801
0.094533 0.118909 0.108828
0.176017 0.125468 0.094095
0.276517 0.137673 0.085103
0.389412 0.156021 0.078403
0.488374 0.173320 0.075132
0.575947 0.191138 0.076293
0.644112 0.207023 0.080153
0.691387 0.219355 0.083245
0.723625 0.227291 0.086245
0.748225 0.233210 0.089183
0.767498 0.238197 0.092043
0.783637 0.242744 0.094549
0.795748 0.245913 0.096242
0.041531 0.154841 0.215245
0.043638 0.155354 0.207161
0.049395 0.155831 0.186416
0.074989 0.157319 0.156968
0.144110 0.161174 0.130464
0.250313 0.169055 0.113713
0.374305 0.182028 0.099534
0.486792 0.195675 0.090008
0.577420 0.209405 0.087018
0.643019 0.221622 0.087964
0.690128 0.232049 0.089492
0.722473 0.239158 0.091840
0.746579 0.244271 0.094194
0.765847 0.248937 0.096797
0.782652 0.253277 0.099150
0.795649 0.256492 0.100857
0.044195 0.202496 0.274056
0.046265 0.200956 0.263170
0.050269 0.199837 0.241321
0.067224 0.200899 0.208268
0.109900 0.204970 0.181535
0.213100 0.211404 0.152099
0.351279 0.219190 0.130174
0.481235 0.228464 0.111979
0.578999 0.237561 0.102711
0.646631 0.246331 0.100301
0.693080 0.253751 0.100146
0.725263 0.259800 0.101661
0.748983 0.264552 0.103715
0.768464 0.269369 0.106061
0.786180 0.274162 0.108227
0.799863 0.277241 0.109778
0.043463 0.256753 0.327262
0.045151 0.252842 0.315881
0.048049 0.250226 0.295303
0.059751 0.250615 0.263032
0.091589 0.255056 0.235960
0.162846 0.261446 0.204589
0.309431 0.270432 0.174491
0.465061 0.275112 0.146309
0.576212 0.278736 0.126615
0.649004 0.282855 0.117993
0.696546 0.287182 0.115386
0.729066 0.292202 0.115686
0.753054 0.296751 0.117303
0.773588 0.301757 0.119533
0.792632 0.307096 0.121876
0.807788 0.310059 0.123222
0.043653 0.313760 0.371901
0.044619 0.309353 0.362128
0.046018 0.305452 0.343024
0.052414 0.304770 0.314064
0.075332 0.308878 0.286541
0.124288 0.314953 0.262238
0.235070 0.327718 0.229630
0.424503 0.335682 0.199488
0.562407 0.334767 0.166724
0.646402 0.334893 0.147870
0.697877 0.337144 0.140336
0.733252 0.341068 0.138006
0.759076 0.344774 0.137725
0.781061 0.348913 0.138663
0.801542 0.354200 0.140729
0.818843 0.358119 0.142398
0.047088 0.369365 0.409207
0.046842 0.365032 0.399702
0.047387 0.361058 0.382960
0.050258 0.359827 0.357499
0.065604 0.363328 0.331055
0.100425 0.369327 0.308390
0.175441 0.380127 0.284558
0.343404 0.399382 0.258096
0.528407 0.402122 0.225338
0.632877 0.399170 0.196339
0.693192 0.400126 0.181912
0.733850 0.404307 0.175438
0.764176 0.409920 0.172821
0.789180 0.414787 0.172081
0.811871 0.419065 0.171780
0.832037 0.422804 0.172149
0.060518 0.420112 0.438635
0.058482 0.415499 0.428756
0.056884 0.412363 0.413047
0.057212 0.412528 0.390185
0.068040 0.415594 0.366161
0.091955 0.419787 0.341922
0.148014 0.430717 0.322373
0.278147 0.451029 0.300279
0.485188 0.467497 0.281212
0.611819 0.466584 0.254032
0.682932 0.467527 0.235936
0.730159 0.471454 0.226332
0.765683 0.477122 0.220637
0.795725 0.482825 0.216345
0.821313 0.487587 0.213041
0.844725 0.491080 0.209383
0.077829 0.464226 0.457751
0.075678 0.460414 0.448576
0.072976 0.457785 0.433512
0.072138 0.458434 0.411357
0.081345 0.462064 0.388539
0.105168 0.467069 0.365127
0.150336 0.477909 0.343846
0.269199 0.500416 0.326271
0.471371 0.525144 0.318197
0.605396 0.528534 0.302212
0.679651 0.530170 0.286101
0.729861 0.534239 0.275857
0.769883 0.539313 0.268289
0.803258 0.544652 0.261327
0.832186 0.549138 0.254419
0.857174 0.552646 0.249432
0.092681 0.500121 0.467926
0.091217 0.498219 0.459294
0.089178 0.497603 0.444336
0.089450 0.499475 0.423539
0.102007 0.503829 0.402285
0.126308 0.510513 0.379478
0.175344 0.524337 0.359403
0.286882 0.547169 0.343143
0.492593 0.577964 0.340847
0.619898 0.584710 0.333145
0.692121 0.587784 0.322856
0.741006 0.592511 0.313997
0.781540 0.597444 0.305899
0.815935 0.602133 0.297913
0.846721 0.606464 0.290349
0.873377 0.610196 0.282428
0.105357 0.527328 0.472790
0.104473 0.528142 0.463963
0.103426 0.530568 0.450193
0.107570 0.535162 0.430245
0.125315 0.541657 0.408480
0.155362 0.552402 0.386954
0.206448 0.568609 0.367145
0.348960 0.599319 0.355540
0.545121 0.630399 0.356813
0.653118 0.638122 0.353469
0.714290 0.641978 0.347744
0.760652 0.646752 0.340425
0.799872 0.651648 0.332498
0.834224 0.656455 0.323859
0.864798 0.661468 0.315325
0.891121 0.664964 0.306849
0.115137 0.550256 0.477533
0.114926 0.553855 0.468415
0.115547 0.560364 0.455170
0.123960 0.568493 0.435916
0.150716 0.579213 0.415382
0.186500 0.593082 0.393813
0.259695 0.613216 0.372909
0.421550 0.649333 0.365307
0.597884 0.678475 0.366984
0.688335 0.687174 0.365707
0.744529 0.691838 0.362415
0.785957 0.695891 0.356848
0.821590 0.700883 0.348967
0.854132 0.706296 0.340528
0.882835 0.711570 0.330727
0.907067 0.714874 0.320932
0.121521 0.570775 0.482176
0.122272 0.576870 0.473912
0.124733 0.586421 0.461730
0.141502 0.598279 0.442205
0.177196 0.612736 0.420069
0.226104 0.629792 0.397581
0.315202 0.654488 0.380088
0.505175 0.698265 0.378023
0.648247 0.722255 0.375787
0.722975 0.730998 0.372292
0.773746 0.735037 0.366786
0.811968 0.739399 0.361485
0.844534 0.744486 0.355035
0.872859 0.749813 0.347087
0.899350 0.753678 0.336280
0.921044 0.757296 0.325788
0.125494 0.589191 0.485968
0.127069 0.597896 0.478494
0.131617 0.609719 0.467006
0.158445 0.624723 0.448772
0.203887 0.642177 0.427751
0.266842 0.662123 0.406994
0.382913 0.693315 0.392054
0.561138 0.733748 0.382599
0.681456 0.755783 0.374781
0.751474 0.766131 0.368310
0.799630 0.771318 0.363264
0.836505 0.775959 0.357237
0.865745 0.780600 0.351758
0.890937 0.784228 0.344364
0.912950 0.787123 0.334897
0.931545 0.790133 0.325166
0.033849 0.052562 0.074279
0.042893 0.052872 0.067926
0.071620 0.056388 0.061759
0.130131 0.065598 0.057674
0.209176 0.080297 0.055402
0.311081 0.102180 0.056089
0.423703 0.128607 0.058622
0.521434 0.153489 0.063431
0.613194 0.178145 0.070671
0.680030 0.195973 0.076019
0.722882 0.206225 0.080907
0.751679 0.214133 0.085343
0.772093 0.219914 0.088755
0.787307 0.224005 0.091038
0.799545 0.226919 0.092688
0.810297 0.229287 0.094195
0.034359 0.065490 0.095402
0.041539 0.064194 0.084787
0.072054 0.067075 0.073106
0.130548 0.074598 0.065873
0.212791 0.088403 0.061891
0.314638 0.109782 0.061956
0.427176 0.135551 0.062950
0.525958 0.160148 0.067142
0.614339 0.183654 0.073412
0.678929 0.200947 0.078355
0.720434 0.211245 0.082663
0.748815 0.218836 0.086572
0.768837 0.224328 0.089712
0.784144 0.228738 0.092261
0.796113 0.231886 0.094091
0.806517 0.234365 0.095578
0.033401 0.083837 0.128251
0.037620 0.083847 0.118185
0.061361 0.083875 0.097841
0.123037 0.089610 0.081903
0.204760 0.101689 0.075519
0.306116 0.120295 0.072479
0.417187 0.143457 0.070514
0.515958 0.165458 0.071407
0.602285 0.186632 0.075654
0.667296 0.204057 0.080036
0.709523 0.214758 0.083739
0.739396 0.222321 0.087190
0.760647 0.228042 0.090296
0.777068 0.232628 0.092877
0.790740 0.236370 0.095019
0.801381 0.239027 0.096589
0.034429 0.112882 0.174426
0.037176 0.114105 0.166749
0.045978 0.114739 0.149682
0.091871 0.118015 0.120706
0.175922 0.125229 0.103268
0.279886 0.138162 0.093011
0.396061 0.156601 0.084606
0.498102 0.174860 0.080178
0.584941 0.192290 0.080407
0.650751 0.208095 0.083340
0.696742 0.219676 0.085989
0.727716 0.227091 0.088791
0.750855 0.232776 0.091677
0.769245 0.237482 0.094384
0.784709 0.241554 0.096607
0.796239 0.244406 0.098180
0.038819 0.153229 0.231805
0.041181 0.153469 0.223247
0.046249 0.153176 0.205509
0.069345 0.155069 0.175763
0.137152 0.160229 0.144879
0.247731 0.168430 0.125561
0.376353 0.181773 0.109550
0.492007 0.196248 0.097812
0.582352 0.209785 0.092521
0.647085 0.222005 0.091976
0.693557 0.232163 0.092742
0.724821 0.238927 0.094761
0.748073 0.243838 0.096974
0.766866 0.248180 0.099365
0.783270 0.252038 0.101416
0.795842 0.254897 0.102920
0.041644 0.201089 0.291877
0.043695 0.199027 0.281162
0.047413 0.196451 0.262121
0.061255 0.197359 0.232375
0.102347 0.203150 0.201385
0.203535 0.210837 0.169125
0.347938 0.218657 0.145781
0.482494 0.228267 0.124576
0.581284 0.236839 0.111234
0.648488 0.245734 0.106228
0.694696 0.253303 0.104726
0.726350 0.259175 0.105401
0.749720 0.263775 0.107087
0.769004 0.268199 0.109120
0.786407 0.272594 0.111044
0.799871 0.275573 0.112463
0.042103 0.255782 0.342655
0.043763 0.251683 0.332167
0.046319 0.247730 0.315068
0.055638 0.246936 0.287673
0.083885 0.252283 0.259789
0.148746 0.259524 0.229110
0.296351 0.270516 0.196428
0.461698 0.274727 0.164612
0.576486 0.277671 0.140075
0.650180 0.281685 0.127855
0.697858 0.286235 0.123222
0.730164 0.291210 0.122047
0.753748 0.295703 0.122825
0.773955 0.300597 0.124454
0.792884 0.305642 0.126433
0.808021 0.308918 0.127852
0.043197 0.314283 0.385977
0.044128 0.309301 0.376576
0.045472 0.304359 0.361346
0.050018 0.302467 0.338024
0.069439 0.306365 0.312463
0.114070 0.313339 0.288479
0.215613 0.325536 0.256082
0.411926 0.335815 0.221921
0.559207 0.334629 0.185439
0.646095 0.333965 0.163115
0.698614 0.336219 0.153517
0.733995 0.340169 0.149541
0.759590 0.343787 0.147712
0.781409 0.348026 0.147865
0.801742 0.352796 0.148935
0.819331 0.356927 0.150249
0.047186 0.369276 0.421449
0.046951 0.364946 0.413121
0.047338 0.360502 0.400086
0.049328 0.359154 0.380510
0.062169 0.361602 0.357543
0.093596 0.367111 0.333908
0.161384 0.378211 0.310538
0.319105 0.397965 0.280970
0.519625 0.402578 0.245890
0.629603 0.398883 0.214506
0.691978 0.399483 0.198939
0.733472 0.403620 0.192117
0.764191 0.409066 0.188852
0.789445 0.414063 0.186885
0.812337 0.418415 0.185208
0.832720 0.421813 0.184190
0.060074 0.419570 0.450963
0.058345 0.415124 0.442489
0.056915 0.411444 0.430297
0.057031 0.411407 0.413009
0.065374 0.414619 0.392738
0.087656 0.418050 0.368388
0.137587 0.428467 0.346666
0.258422 0.448438 0.320791
0.469855 0.467771 0.299058
0.605727 0.467055 0.271603
0.679943 0.467465 0.254487
0.728427 0.471238 0.245814
0.764574 0.476207 0.240306
0.795384 0.481981 0.235688
0.821443 0.486788 0.231514
0.845376 0.490690 0.227009
0.077044 0.464485 0.472044
0.075052 0.460559 0.464190
0.072811 0.457483 0.453075
0.072108 0.458130 0.436668
0.079607 0.461595 0.417079
0.101657 0.465904 0.393814
0.142599 0.475947 0.370649
0.248481 0.497464 0.349427
0.454595 0.525175 0.335799
0.597405 0.529779 0.320153
0.675705 0.531046 0.303769
0.727226 0.534925 0.294890
0.767756 0.539732 0.289276
0.802071 0.544353 0.283801
0.831909 0.549206 0.278294
0.857767 0.552658 0.272034
0.091774 0.501042 0.484611
0.090578 0.499577 0.477754
0.089100 0.498963 0.467611
0.089333 0.500278 0.451807
0.099928 0.503978 0.432969
0.122545 0.509929 0.411144
0.166997 0.523188 0.390420
0.271307 0.545627 0.369412
0.477268 0.577784 0.359226
0.612098 0.586863 0.350303
0.688213 0.590028 0.341061
0.738406 0.594286 0.334773
0.780104 0.599142 0.329442
0.815336 0.603957 0.323083
0.846671 0.608193 0.315730
0.874076 0.611515 0.306968
0.104453 0.528840 0.491614
0.103836 0.530078 0.484931
0.103297 0.532435 0.475797
0.106214 0.536595 0.461587
0.121029 0.542779 0.444263
0.150148 0.552415 0.424498
0.196955 0.568261 0.404373
0.327803 0.597116 0.385889
0.532713 0.632300 0.381778
0.647051 0.641268 0.376119
0.710967 0.644985 0.370115
0.758268 0.649894 0.363301
0.798377 0.654725 0.355746
0.833733 0.659731 0.348184
0.865165 0.664315 0.340343
0.892261 0.667444 0.332162
0.114212 0.552527 0.499113
0.114235 0.556465 0.492363
0.115219 0.562687 0.483512
0.121620 0.570748 0.470364
0.146065 0.581169 0.454870
0.180874 0.594807 0.438245
0.247520 0.614135 0.419051
0.397811 0.648171 0.404582
0.588136 0.681425 0.397286
0.682919 0.690480 0.391657
0.741056 0.695567 0.386725
0.783282 0.700141 0.381459
0.819982 0.704974 0.374795
0.853640 0.710502 0.367025
0.883060 0.714915 0.356797
0.908469 0.718698 0.346575
0.120758 0.573805 0.506575
0.121659 0.580245 0.500127
0.124339 0.589814 0.491728
0.137678 0.601632 0.479616
0.169646 0.616032 0.466490
0.217970 0.633076 0.450472
0.299967 0.656023 0.433349
0.486780 0.699623 0.424072
0.641218 0.726654 0.416149
0.718678 0.735689 0.406179
0.770688 0.739978 0.397166
0.809995 0.744386 0.389416
0.843421 0.749413 0.381370
0.872862 0.754173 0.372345
0.900053 0.758244 0.361045
0.922729 0.762025 0.349270
0.124890 0.593192 0.513446
0.126581 0.602127 0.507893
0.130623 0.614014 0.500189
0.147435 0.628314 0.488716
0.193474 0.645954 0.475704
0.253490 0.665629 0.460704
0.364454 0.695081 0.448200
0.547599 0.738112 0.440754
0.674825 0.761057 0.427154
0.747440 0.770856 0.411325
0.796656 0.776357 0.398206
0.834621 0.780723 0.386340
0.865330 0.785084 0.377048
0.891470 0.788474 0.368991
0.914318 0.791930 0.358798
0.933944 0.795314 0.347919
0.033787 0.052760 0.080613
0.042580 0.053496 0.075153
0.065315 0.056988 0.070619
0.114807 0.065319 0.068200
0.198447 0.079690 0.065229
0.312296 0.102753 0.064805
0.431294 0.129643 0.066157
0.535892 0.155840 0.070142
0.623925 0.179397 0.075863
0.686489 0.196023 0.080103
0.726824 0.205735 0.084179
0.754439 0.213104 0.088262
0.774266 0.218933 0.091729
0.788858 0.223007 0.094088
0.800251 0.225629 0.095621
0.810057 0.227457 0.096775
0.033437 0.064800 0.103799
0.040403 0.064166 0.094415
0.063746 0.067240 0.084733
0.116884 0.074439 0.076963
0.203858 0.088271 0.071955
0.316525 0.110964 0.070932
0.435982 0.136967 0.070717
0.539759 0.162412 0.073903
0.624722 0.185015 0.078639
0.684844 0.201270 0.082493
0.724360 0.210848 0.086075
0.751311 0.217688 0.089461
0.770489 0.223130 0.092563
0.785073 0.227510 0.095169
0.796496 0.230546 0.096983
0.806498 0.232820 0.098379
0.031634 0.083232 0.146760
0.035949 0.083514 0.134841
0.054748 0.083632 0.113849
0.113354 0.089788 0.094430
0.199523 0.102422 0.086038
0.308108 0.122167 0.081697
0.424587 0.144991 0.078449
0.527894 0.167324 0.078024
0.612137 0.187925 0.081101
0.672587 0.204528 0.084158
0.713568 0.214678 0.087336
0.741965 0.221419 0.090161
0.762081 0.226708 0.092949
0.777779 0.231323 0.095581
0.791025 0.235106 0.097815
0.801478 0.237671 0.099455
0.032230 0.112741 0.194630
0.034975 0.113677 0.186449
0.043041 0.113724 0.167851
0.085901 0.116296 0.136324
0.174444 0.125281 0.113842
0.280846 0.139168 0.102611
0.399124 0.157689 0.093025
0.504477 0.175976 0.086958
0.591797 0.193360 0.086215
0.655339 0.209005 0.087788
0.699862 0.219859 0.089837
0.729886 0.226692 0.092233
0.752247 0.231985 0.094785
0.770001 0.236405 0.097228
0.785006 0.240196 0.099313
0.796405 0.242904 0.100912
0.035436 0.151570 0.251628
0.037775 0.151187 0.242413
0.042461 0.150885 0.225083
0.062024 0.151945 0.197487
0.129032 0.158235 0.161795
0.245759 0.167994 0.138102
0.377626 0.181787 0.120139
0.495229 0.196865 0.106267
0.585214 0.210186 0.099140
0.649627 0.222530 0.097125
0.695016 0.232317 0.097137
0.725800 0.238646 0.098620
0.748913 0.243323 0.100557
0.767542 0.247298 0.102649
0.783567 0.250553 0.104337
0.796013 0.253146 0.105720
0.038779 0.198549 0.309645
0.040681 0.196732 0.300844
0.043889 0.194428 0.284086
0.054387 0.193606 0.258579
0.092232 0.199894 0.226755
0.192037 0.209297 0.188899
0.344168 0.218055 0.161559
0.484015 0.227951 0.137105
0.583551 0.236886 0.121085
0.650365 0.245720 0.113366
0.695872 0.253194 0.110486
0.727003 0.258932 0.110431
0.750378 0.263157 0.111538
0.769542 0.267097 0.113112
0.786619 0.270793 0.114618
0.799896 0.273430 0.115968
0.040351 0.253481 0.358364
0.041969 0.250177 0.350048
0.044405 0.246670 0.335834
0.050715 0.244267 0.313913
0.074537 0.248500 0.288643
0.132610 0.256610 0.256471
0.279508 0.270511 0.219667
0.458409 0.274963 0.184185
0.577608 0.277559 0.155504
0.651567 0.281542 0.140021
0.698973 0.285678 0.133027
0.731054 0.290669 0.130464
0.754385 0.294820 0.130017
0.774331 0.299430 0.130956
0.792942 0.303645 0.132216
0.807855 0.306619 0.133352
0.042462 0.313100 0.400467
0.043442 0.309199 0.392951
0.044776 0.304402 0.379932
0.047846 0.301489 0.361955
0.063187 0.303891 0.341048
0.102250 0.310984 0.318012
0.192468 0.323407 0.287789
0.396131 0.336560 0.248912
