example_ofxGpuLutCube/bin/data/ofxGpuLutCube/LUT/C23 (violet fade).cube
LUT_3D_SIZE 16
0.035782 0.055680 0.072664
0.035782 0.055680 0.072664
0.035782 0.055680 0.072664
0.041467 0.057039 0.073441
0.084202 0.065461 0.076126
0.147197 0.073422 0.074493
0.216760 0.078070 0.068686
0.285756 0.077642 0.059601
0.358214 0.070867 0.048373
0.429414 0.058930 0.039888
0.498066 0.044987 0.033001
0.564888 0.034560 0.032888
0.625850 0.027862 0.036452
0.680671 0.022613 0.038562
0.715293 0.021035 0.040255
0.739613 0.021983 0.046802
0.035782 0.055680 0.072664
0.035782 0.055680 0.072664
0.035782 0.055680 0.072664
0.043538 0.057428 0.073606
0.091659 0.066695 0.076194
0.161720 0.074619 0.073493
0.233884 0.078737 0.066797
0.309465 0.076625 0.056324
0.391845 0.066039 0.043897
0.474334 0.049951 0.035186
0.565505 0.034476 0.032937
0.628650 0.027513 0.036582
0.671835 0.023283 0.038297
0.702481 0.021015 0.038685
0.726798 0.021678 0.043342
0.746837 0.021965 0.048919
0.035782 0.055680 0.072664
0.035782 0.055680 0.072664
0.035782 0.055680 0.072664
0.047136 0.058161 0.073892
0.102058 0.068323 0.076145
0.186303 0.076459 0.071631
0.273685 0.077949 0.061349
0.376075 0.068812 0.045771
0.457866 0.055468 0.036621
0.529549 0.043629 0.031719
0.591999 0.036387 0.034278
0.641714 0.032462 0.036251
0.677937 0.030373 0.035991
0.706955 0.035091 0.037195
0.728517 0.038542 0.040706
0.746091 0.042250 0.042294
0.034091 0.058878 0.074384
0.032477 0.060816 0.075044
0.029200 0.064646 0.075983
0.046867 0.068644 0.076966
0.119986 0.084592 0.078467
0.204330 0.097441 0.074389
0.281839 0.107143 0.065721
0.361525 0.112823 0.050891
0.441402 0.117489 0.038413
0.515742 0.121504 0.032883
0.579136 0.122721 0.029146
0.632649 0.124003 0.027553
0.675200 0.125802 0.028339
0.707065 0.128793 0.028794
0.732523 0.133365 0.027580
0.752246 0.138789 0.026123
0.011955 0.102171 0.086850
0.010465 0.110845 0.089128
0.010032 0.114719 0.089828
0.035521 0.116026 0.087654
0.116987 0.129014 0.084736
0.204683 0.142469 0.078467
0.282542 0.156551 0.067981
0.357769 0.169163 0.051896
0.432351 0.179623 0.035703
0.507020 0.189152 0.024741
0.573355 0.196849 0.020524
0.628970 0.202421 0.020487
0.674487 0.206772 0.020235
0.711455 0.211703 0.019170
0.740056 0.217679 0.017702
0.765622 0.224570 0.016043
0.005832 0.166730 0.096547
0.005704 0.170256 0.097014
0.005669 0.171078 0.097155
0.019160 0.170335 0.092304
0.106469 0.184704 0.085697
0.206297 0.198875 0.074725
0.288341 0.211497 0.056609
0.361608 0.224089 0.037912
0.433990 0.236258 0.025735
0.506925 0.247753 0.020267
0.576438 0.256526 0.018347
0.635322 0.263596 0.016847
0.683646 0.269179 0.015367
0.722808 0.275031 0.013768
0.753109 0.280847 0.012728
0.780673 0.287313 0.011802
0.003537 0.220218 0.100590
0.003461 0.221828 0.100661
0.003502 0.220985 0.100619
0.010866 0.219248 0.092444
0.095594 0.234595 0.080839
0.209455 0.249028 0.066203
0.294533 0.261439 0.045091
0.369861 0.274006 0.030532
0.442655 0.286463 0.022516
0.515785 0.298030 0.017310
0.587335 0.308068 0.014448
0.647719 0.316141 0.012644
0.696358 0.322659 0.011170
0.736104 0.329095 0.010042
0.767303 0.335279 0.009372
0.794996 0.341474 0.009411
0.001578 0.265603 0.101687
0.001562 0.266170 0.101644
0.001607 0.264723 0.101610
0.004267 0.262224 0.091215
0.083013 0.277838 0.072671
0.205426 0.295027 0.053004
0.298666 0.308802 0.036091
0.375687 0.321794 0.022951
0.450562 0.334054 0.014706
0.525664 0.345722 0.010598
0.597526 0.356633 0.009219
0.659587 0.365715 0.008182
0.708119 0.373111 0.007960
0.747868 0.380032 0.007830
0.778960 0.386301 0.007539
0.806865 0.393034 0.007058
0.000655 0.305527 0.097949
0.000655 0.305290 0.097936
0.000659 0.303528 0.097799
0.003644 0.303207 0.083371
0.066328 0.318874 0.057726
0.194257 0.337558 0.038330
0.297890 0.354173 0.024881
0.378716 0.369985 0.014327
0.454922 0.383568 0.008761
0.531325 0.395470 0.008001
0.603204 0.406155 0.007193
0.667279 0.415724 0.006366
0.716962 0.423279 0.005621
0.757022 0.430967 0.005057
0.788933 0.438627 0.004685
0.817199 0.446217 0.004352
0.000664 0.341022 0.093388
0.000665 0.340342 0.093553
0.000667 0.338478 0.092992
0.001364 0.340270 0.073800
0.047641 0.357030 0.042427
0.184237 0.378332 0.025433
0.289956 0.398991 0.017789
0.375464 0.416538 0.013362
0.453753 0.432037 0.009926
0.531563 0.445166 0.006625
0.604836 0.456249 0.004662
0.669806 0.466694 0.003562
0.721940 0.476133 0.003164
0.762714 0.484064 0.002869
0.796447 0.492346 0.002594
0.825099 0.500312 0.002291
0.000681 0.370769 0.090137
0.000681 0.369982 0.090283
0.000683 0.368391 0.089484
0.001098 0.374217 0.064050
0.037244 0.392428 0.033664
0.162153 0.417898 0.020075
0.277339 0.440441 0.015567
0.367178 0.460435 0.011403
0.448946 0.478041 0.007289
0.529035 0.492973 0.003788
0.604210 0.505507 0.002480
0.669889 0.516551 0.001829
0.724911 0.527377 0.001535
0.766226 0.536150 0.001317
0.801673 0.545566 0.001152
0.830363 0.554123 0.001130
0.000709 0.396130 0.086199
0.000701 0.395123 0.086406
0.000697 0.394025 0.084888
0.000789 0.404843 0.053738
0.030891 0.425977 0.026278
0.137499 0.452749 0.015937
0.260878 0.477712 0.012506
0.359582 0.501486 0.006863
0.445544 0.520916 0.003775
0.527563 0.538032 0.002177
0.604447 0.552094 0.001370
0.671346 0.564172 0.000884
0.727581 0.575520 0.000607
0.769893 0.584872 0.000574
0.806744 0.594687 0.000473
0.835691 0.603073 0.000406
0.000724 0.419196 0.082958
0.000725 0.418052 0.083099
0.000715 0.417799 0.080131
0.000735 0.432778 0.044102
0.022700 0.456462 0.019959
0.123475 0.484550 0.012107
0.243080 0.512112 0.007730
0.359426 0.538465 0.004425
0.447022 0.560247 0.002638
0.529950 0.578381 0.001610
0.608485 0.593967 0.001048
0.676413 0.607391 0.000476
0.732663 0.619082 0.000138
0.777130 0.629644 0.000064
0.813783 0.639367 0.000050
0.843675 0.647880 0.000044
0.000742 0.441596 0.083793
0.000743 0.440369 0.083656
0.000742 0.441659 0.077911
0.001120 0.460299 0.036257
0.022269 0.486214 0.016207
0.112681 0.516025 0.010346
0.246012 0.545099 0.008471
0.362753 0.571847 0.005641
0.454417 0.596015 0.002230
0.539183 0.615553 0.001249
0.618166 0.632205 0.000484
0.688458 0.646910 0.000088
0.743574 0.658943 0.000047
0.790027 0.670397 0.000036
0.824918 0.679900 0.000026
0.855739 0.688523 0.000021
0.000761 0.462531 0.087193
0.000762 0.461039 0.086939
0.000761 0.463968 0.079005
0.000794 0.488240 0.039092
0.026682 0.517253 0.020279
0.123414 0.547594 0.012794
0.269143 0.578495 0.007822
0.375755 0.606040 0.003314
0.469616 0.630558 0.001132
0.556905 0.652289 0.000354
0.636370 0.668937 0.000074
0.703821 0.683023 0.000041
0.760088 0.695553 0.000027
0.802398 0.705606 0.000018
0.837700 0.714612 0.000014
0.868547 0.723210 0.000015
0.000784 0.482035 0.093726
0.000784 0.480467 0.093133
0.000786 0.486603 0.080341
0.001930 0.515970 0.038587
0.035133 0.547930 0.017838
0.162857 0.580511 0.010024
0.287499 0.611764 0.006778
0.399169 0.640317 0.005282
0.490833 0.664392 0.002989
0.577254 0.684551 0.001076
0.656683 0.702476 0.000048
0.722500 0.716363 0.000024
0.776913 0.728321 0.000016
0.817632 0.737830 0.000013
0.852954 0.747008 0.000011
0.880401 0.754132 0.000007
0.035782 0.055680 0.072664
0.035782 0.055680 0.072664
0.035782 0.055680 0.072664
0.041584 0.057057 0.073458
0.084766 0.065531 0.076126
0.148351 0.073513 0.074410
0.217988 0.078115 0.068546
0.287264 0.077621 0.059423
0.360437 0.070598 0.048036
0.432180 0.058475 0.039569
0.501260 0.044315 0.032720
0.569003 0.033969 0.033132
0.631827 0.027269 0.036749
0.685944 0.022205 0.038611
0.717168 0.021129 0.040729
0.740778 0.021961 0.047140
0.035782 0.055680 0.072664
0.035782 0.055680 0.072664
0.035782 0.055680 0.072664
0.043843 0.057499 0.073631
0.092760 0.066879 0.076208
0.163723 0.074814 0.073366
0.236453 0.078773 0.066457
0.313548 0.076148 0.055640
0.398447 0.064782 0.043293
0.483947 0.048058 0.034470
0.572255 0.033526 0.033296
0.631939 0.027152 0.036758
0.673453 0.023129 0.038352
0.703608 0.020928 0.038686
0.727507 0.021704 0.043558
0.747263 0.021968 0.049054
0.035782 0.055680 0.072664
0.035782 0.055680 0.072664
0.035782 0.055680 0.072664
0.048388 0.058408 0.073970
0.105803 0.068774 0.076042
0.192730 0.076927 0.071134
0.285150 0.077465 0.059701
0.382281 0.068260 0.045149
0.461677 0.055209 0.036272
0.532417 0.043508 0.031791
0.594041 0.036594 0.034395
0.642973 0.032614 0.036217
0.678689 0.030801 0.035813
0.707559 0.035727 0.037257
0.728883 0.038870 0.040702
0.746355 0.042801 0.042294
0.033613 0.059541 0.074675
0.031541 0.061842 0.075301
0.028346 0.065688 0.076213
0.050102 0.070900 0.077635
0.123720 0.086655 0.078579
0.207485 0.099000 0.074443
0.284529 0.108420 0.065392
0.364090 0.113879 0.050504
0.443389 0.118589 0.038375
0.517251 0.122508 0.032815
0.580383 0.123523 0.029039
0.633588 0.124738 0.027489
0.675775 0.126471 0.028336
0.707404 0.129151 0.028726
0.732704 0.133633 0.027555
0.752447 0.139125 0.026046
0.011298 0.106592 0.088134
0.010237 0.113078 0.089533
0.009832 0.116267 0.090095
0.036227 0.117446 0.087760
0.118398 0.130294 0.084758
0.206323 0.143450 0.078316
0.283811 0.157578 0.067628
0.358838 0.169866 0.051542
0.433250 0.180251 0.035454
0.507764 0.189778 0.024499
0.573915 0.197275 0.020541
0.629187 0.202664 0.020522
0.674647 0.206921 0.020225
0.711483 0.211839 0.019137
0.739958 0.217672 0.017706
0.765574 0.224499 0.016057
0.005781 0.168207 0.096702
0.005657 0.171416 0.097170
0.005641 0.171909 0.097281
0.019303 0.171144 0.092289
0.107415 0.185447 0.085635
0.207143 0.199459 0.074545
0.288960 0.212035 0.056348
0.362048 0.224456 0.037789
0.434073 0.236506 0.025677
0.507234 0.247765 0.020255
0.576516 0.256519 0.018346
0.635275 0.263576 0.016867
0.683544 0.269063 0.015369
0.722629 0.274770 0.013793
0.752866 0.280637 0.012752
0.780345 0.287063 0.011819
0.003506 0.220808 0.100609
0.003422 0.222521 0.100711
0.003478 0.221431 0.100634
0.010956 0.219581 0.092391
0.096128 0.234959 0.080746
0.209916 0.249099 0.066132
0.294848 0.261606 0.044975
0.369782 0.274130 0.030606
0.442576 0.286433 0.022512
0.515475 0.297850 0.017298
0.586742 0.307809 0.014522
0.647383 0.315876 0.012671
0.695979 0.322116 0.011216
0.735782 0.328671 0.010068
0.766925 0.334823 0.009399
0.794644 0.341152 0.009421
0.001576 0.265797 0.101727
0.001558 0.266363 0.101673
0.001606 0.264726 0.101610
0.004336 0.262236 0.091189
0.083014 0.277810 0.072674
0.205418 0.294987 0.053016
0.298586 0.308754 0.036087
0.375718 0.321461 0.023030
0.450160 0.333975 0.014695
0.525201 0.345526 0.010631
0.596895 0.356343 0.009247
0.659062 0.365391 0.008203
0.707478 0.372334 0.008012
0.747286 0.379216 0.007850
0.778399 0.385800 0.007565
0.806583 0.392720 0.007065
0.000655 0.305505 0.097945
0.000655 0.305271 0.097940
0.000659 0.303498 0.097809
0.003638 0.303117 0.083410
0.066277 0.318541 0.057945
0.193729 0.337327 0.038453
0.297577 0.353720 0.024983
0.378266 0.369659 0.014412
0.454101 0.383138 0.008756
0.530531 0.394874 0.008014
0.602429 0.405414 0.007233
0.666199 0.415063 0.006437
0.716097 0.422537 0.005670
0.756444 0.430158 0.005087
0.788515 0.437475 0.004732
0.816603 0.445082 0.004387
0.000665 0.340956 0.093408
0.000665 0.340237 0.093559
0.000666 0.338279 0.092989
0.001370 0.340020 0.073931
0.046996 0.356633 0.042655
0.183191 0.377916 0.025543
0.289150 0.398410 0.017807
0.374705 0.415909 0.013382
0.452513 0.431479 0.010012
0.530816 0.444184 0.006652
0.603975 0.455641 0.004696
0.668974 0.465915 0.003605
0.721076 0.475168 0.003207
0.762028 0.483183 0.002907
0.795751 0.491362 0.002629
0.824400 0.498975 0.002332
0.000681 0.370571 0.090195
0.000682 0.369637 0.090297
0.000683 0.368165 0.089542
0.001045 0.373600 0.064486
0.036844 0.391724 0.033899
0.161509 0.417256 0.020096
0.276672 0.439629 0.015638
0.366391 0.459552 0.011514
0.448115 0.477166 0.007414
0.527876 0.492062 0.003876
0.603007 0.504430 0.002526
0.668845 0.515678 0.001849
0.724128 0.526224 0.001564
0.765465 0.535134 0.001349
0.801008 0.544572 0.001167
0.829743 0.552807 0.001151
0.000708 0.395808 0.086275
0.000701 0.394897 0.086386
0.000696 0.393661 0.084997
0.000785 0.404245 0.054180
0.030445 0.425156 0.026549
0.136254 0.451946 0.016066
0.259612 0.476834 0.012645
0.358528 0.500321 0.007031
0.444371 0.519981 0.003845
0.526171 0.537095 0.002210
0.603401 0.551043 0.001391
0.670148 0.563065 0.000905
0.726543 0.574483 0.000613
0.768806 0.583727 0.000584
0.805894 0.593479 0.000505
0.834885 0.601813 0.000423
0.000725 0.418828 0.083024
0.000725 0.417714 0.083140
0.000715 0.417365 0.080347
0.000736 0.432065 0.044574
0.022817 0.455628 0.020180
0.122077 0.483497 0.012296
0.241526 0.511024 0.007880
0.357694 0.537498 0.004496
0.445017 0.559162 0.002675
0.528209 0.577385 0.001628
0.606992 0.592753 0.001069
0.674839 0.606171 0.000503
0.731400 0.618017 0.000144
0.775840 0.628443 0.000067
0.812827 0.638340 0.000051
0.842883 0.646492 0.000044
0.000742 0.441347 0.083699
0.000743 0.440063 0.083552
0.000742 0.441103 0.078004
0.001093 0.459468 0.036640
0.021270 0.485260 0.016213
0.111362 0.514882 0.010364
0.243894 0.543916 0.008448
0.361030 0.570533 0.005716
0.452286 0.594706 0.002291
0.537132 0.614195 0.001304
0.616108 0.631118 0.000512
0.686723 0.645596 0.000091
0.742049 0.657772 0.000048
0.788573 0.669204 0.000037
0.823947 0.678601 0.000027
0.854664 0.687445 0.000021
0.000762 0.462106 0.087131
0.000762 0.460724 0.086810
0.000761 0.463375 0.079169
0.000795 0.487494 0.039271
0.025528 0.516095 0.020315
0.120044 0.546406 0.012810
0.267010 0.577228 0.007974
0.373400 0.604805 0.003457
0.467146 0.629224 0.001158
0.554458 0.651039 0.000380
0.633815 0.667751 0.000077
0.702087 0.681898 0.000042
0.758070 0.694338 0.000028
0.801096 0.704278 0.000018
0.836274 0.713293 0.000015
0.867276 0.722183 0.000015
0.000784 0.481658 0.093513
0.000785 0.480092 0.092904
0.000782 0.485820 0.080607
0.001543 0.514895 0.039041
0.032978 0.546531 0.018159
0.159492 0.579144 0.010286
0.284489 0.610232 0.006505
0.396432 0.639047 0.005122
0.488338 0.662837 0.003031
0.574661 0.683239 0.001126
0.654274 0.701011 0.000054
0.720247 0.714840 0.000025
0.775519 0.727296 0.000016
0.816064 0.736703 0.000013
0.851744 0.745928 0.000012
0.879221 0.753083 0.000008
0.035782 0.055680 0.072664
0.035782 0.055680 0.072664
0.035782 0.055680 0.072664
0.041543 0.057049 0.073454
0.084688 0.065515 0.076140
0.148479 0.073509 0.074423
0.218213 0.078122 0.068512
0.288047 0.077578 0.059302
0.361610 0.070446 0.047849
0.433900 0.058154 0.039357
0.503813 0.043809 0.032546
0.572932 0.033446 0.033342
0.641284 0.026020 0.038014
0.688924 0.021158 0.045254
0.719078 0.019913 0.052967
0.742782 0.018962 0.070802
0.035782 0.055680 0.072664
0.035782 0.055680 0.072664
0.035782 0.055680 0.072664
0.043993 0.057523 0.073639
0.093258 0.066961 0.076208
0.164881 0.074899 0.073295
0.238244 0.078826 0.066289
0.317076 0.075754 0.055087
0.403527 0.063855 0.042784
0.495652 0.045403 0.034254
0.576597 0.032191 0.037395
0.634063 0.025756 0.043646
0.674815 0.021566 0.049675
0.705722 0.018751 0.060206
0.729785 0.018180 0.075762
0.749297 0.016673 0.089415
0.035782 0.055680 0.072664
0.035782 0.055680 0.072664
0.035782 0.055680 0.072664
0.049382 0.058604 0.074045
0.110176 0.069284 0.075888
0.197981 0.077184 0.070592
0.295364 0.077164 0.058304
0.386142 0.067614 0.045633
0.463841 0.054213 0.039141
0.533678 0.041916 0.037628
0.594845 0.034944 0.041873
0.643344 0.030651 0.046409
0.679052 0.027802 0.051203
0.707914 0.030270 0.061771
0.728035 0.029644 0.070150
0.745143 0.031049 0.079470
0.033197 0.060021 0.074826
0.030343 0.063157 0.075597
0.027619 0.066675 0.076458
0.052010 0.073889 0.079051
0.126182 0.087929 0.078567
0.209255 0.099905 0.074468
0.286040 0.108986 0.065165
0.364969 0.114295 0.050361
0.443944 0.118785 0.038378
0.517450 0.122382 0.033103
0.580126 0.123023 0.029697
0.632904 0.123671 0.029712
0.674680 0.124387 0.031332
0.705944 0.126308 0.031722
0.730995 0.130234 0.031554
0.750504 0.135020 0.031893
0.010895 0.108597 0.088648
0.010076 0.114410 0.089769
0.009713 0.117134 0.090243
0.036558 0.117993 0.087811
0.118953 0.130626 0.084768
0.206644 0.143594 0.078296
0.283805 0.157617 0.067640
0.358689 0.169775 0.051624
0.432798 0.179922 0.035607
0.507162 0.189280 0.024696
0.573200 0.196693 0.020530
0.628446 0.202124 0.020477
0.673736 0.206082 0.020527
0.710456 0.210507 0.019723
0.738811 0.216030 0.018337
0.764291 0.222641 0.016653
0.005756 0.168723 0.096796
0.005647 0.171695 0.097244
0.005633 0.172046 0.097285
0.019306 0.171092 0.092300
0.107058 0.185268 0.085676
0.206623 0.198970 0.074687
0.288242 0.211506 0.056634
0.361232 0.223759 0.038056
0.433117 0.235810 0.025791
0.506066 0.246809 0.020329
0.575272 0.255532 0.018456
0.633809 0.262479 0.016966
0.682268 0.268056 0.015486
0.721604 0.273559 0.013968
0.751662 0.279163 0.013010
0.778979 0.285418 0.012283
0.003513 0.220705 0.100650
0.003433 0.222249 0.100664
0.003492 0.221033 0.100619
0.010844 0.219116 0.092456
0.095047 0.234327 0.080935
0.208631 0.248484 0.066457
0.293465 0.260894 0.045332
0.368373 0.273256 0.030883
0.441016 0.285442 0.022742
0.513783 0.296719 0.017466
0.585049 0.306577 0.014651
0.645509 0.314466 0.012825
0.694489 0.320782 0.011347
0.734570 0.327353 0.010176
0.765487 0.333472 0.009731
0.792931 0.339217 0.009996
0.001573 0.265684 0.102797
0.001567 0.265942 0.102883
0.001621 0.264188 0.102511
0.003921 0.261494 0.091403
0.082031 0.276855 0.073057
0.204059 0.293765 0.053610
0.296872 0.307477 0.036615
0.373924 0.320536 0.023325
0.448393 0.332774 0.015108
0.523012 0.344100 0.010857
0.594990 0.354906 0.009363
0.657242 0.364063 0.008284
0.706032 0.370872 0.008020
0.745893 0.377947 0.007972
0.776890 0.383916 0.007817
0.805148 0.390754 0.007358
0.000655 0.305540 0.101210
0.000655 0.305288 0.101122
0.000660 0.303190 0.100318
0.003594 0.302255 0.084039
0.064705 0.317261 0.058767
0.191617 0.335965 0.039107
0.295839 0.352544 0.025530
0.376369 0.368067 0.014802
0.452168 0.381287 0.008978
0.528242 0.393376 0.008013
0.600201 0.403843 0.007344
0.664207 0.413264 0.006609
0.714298 0.420865 0.005849
0.755095 0.428250 0.005218
0.786854 0.435239 0.004876
0.815314 0.443041 0.004537
0.000668 0.341157 0.098542
0.000668 0.340518 0.098445
0.000669 0.338336 0.097219
0.001364 0.339167 0.075951
0.044904 0.355263 0.043705
0.180809 0.376308 0.026061
0.287581 0.396613 0.018028
0.372849 0.414132 0.013452
0.450573 0.429573 0.010097
0.528330 0.442213 0.006864
0.601519 0.453431 0.004896
0.666899 0.463844 0.003751
0.719099 0.472873 0.003342
0.760397 0.481069 0.003023
0.794194 0.488995 0.002774
0.822938 0.496775 0.002548
0.000684 0.371195 0.096360
0.000685 0.370275 0.096065
0.000686 0.368314 0.094582
0.000881 0.372751 0.068119
0.034697 0.390385 0.036138
0.159069 0.415496 0.021169
0.274383 0.437675 0.016119
0.363895 0.457685 0.011954
0.445674 0.475126 0.007778
0.525184 0.489896 0.004130
0.600358 0.502173 0.002643
0.666497 0.513489 0.001922
0.721931 0.524034 0.001659
0.763647 0.532704 0.001511
0.799033 0.541801 0.001451
0.828034 0.550109 0.001408
0.000706 0.396856 0.094910
0.000702 0.395738 0.094433
0.000699 0.394223 0.091858
0.000768 0.403389 0.058988
0.028537 0.423590 0.029407
0.132931 0.450104 0.017208
0.256851 0.474784 0.013329
0.355564 0.498128 0.007557
0.441475 0.517688 0.004114
0.523176 0.535090 0.002358
0.600191 0.548724 0.001591
0.667422 0.560830 0.001115
0.724325 0.572060 0.000819
0.766828 0.581273 0.000752
0.803913 0.590915 0.000651
0.833137 0.599325 0.000545
0.000727 0.420725 0.096798
0.000728 0.419246 0.094910
0.000721 0.418106 0.089864
0.000734 0.431368 0.051261
0.021705 0.453996 0.023275
0.117390 0.481361 0.013797
0.236985 0.508767 0.009028
0.353773 0.534883 0.005416
0.441098 0.556551 0.003317
0.524556 0.574980 0.002015
0.603140 0.590386 0.001304
0.671257 0.603728 0.000676
0.728574 0.615656 0.000224
0.773136 0.625931 0.000114
0.810741 0.635880 0.000057
0.840586 0.644231 0.000120
0.000748 0.444410 0.105222
0.000748 0.442699 0.102524
0.000745 0.442376 0.092703
0.001000 0.458746 0.046258
0.018685 0.483490 0.021954
0.105524 0.512662 0.013426
0.236537 0.541429 0.010075
0.356182 0.568153 0.006543
0.447644 0.592139 0.002669
0.532247 0.611482 0.001519
0.611799 0.628551 0.000640
0.682706 0.643071 0.000141
0.738605 0.655129 0.000103
0.785621 0.666630 0.000093
0.821282 0.676012 0.000090
0.852137 0.684730 0.000080
0.000767 0.466372 0.116306
0.000768 0.464464 0.112845
0.000768 0.465679 0.101044
0.000799 0.486630 0.050043
0.022920 0.513982 0.025335
0.111838 0.543839 0.015006
0.260272 0.574495 0.009500
0.367609 0.601973 0.005128
0.461990 0.626511 0.002511
0.549159 0.648155 0.001231
0.628512 0.664838 0.000500
0.697861 0.679307 0.000114
0.754050 0.691627 0.000061
0.797969 0.701775 0.000026
0.833226 0.710789 0.000018
0.864656 0.719643 0.000144
0.000804 0.488562 0.134713
0.000803 0.486361 0.130063
0.000803 0.489795 0.112936
0.000991 0.514125 0.054699
0.027392 0.544095 0.029110
0.150315 0.576209 0.018310
0.275299 0.606971 0.011391
0.389636 0.635794 0.008084
0.481288 0.659430 0.004592
0.568288 0.680063 0.001687
0.648660 0.697782 0.000240
0.715437 0.712101 0.000084
0.771445 0.724696 0.000380
0.812330 0.733996 0.000463
0.848438 0.743449 0.000279
0.876001 0.750585 0.000305
0.033765 0.056541 0.081119
0.033666 0.056593 0.081415
0.033817 0.056519 0.080931
0.039587 0.057495 0.079264
0.081892 0.065470 0.081889
0.144804 0.073219 0.081542
0.215032 0.077813 0.077833
0.285276 0.077377 0.072895
0.359118 0.068904 0.069659
0.431854 0.052642 0.070321
0.503252 0.034317 0.079676
0.578175 0.024176 0.099078
0.656799 0.016990 0.142958
0.707457 0.014589 0.180139
0.740018 0.014705 0.208575
0.765507 0.014538 0.234882
0.033296 0.056742 0.082953
0.033041 0.056851 0.084002
0.033014 0.056860 0.084124
0.041663 0.058167 0.081717
0.091091 0.067152 0.084884
0.163161 0.074641 0.085122
0.237685 0.078504 0.086148
0.319665 0.073931 0.089287
0.407920 0.055860 0.098470
0.509532 0.029928 0.129924
0.589431 0.021613 0.153725
0.649147 0.017351 0.174881
0.694778 0.015115 0.196748
0.728381 0.014611 0.218373
0.753437 0.014947 0.239437
0.775059 0.014500 0.258375
0.033034 0.056858 0.084026
0.032480 0.057089 0.086237
0.032083 0.057231 0.087828
0.046666 0.059793 0.087811
0.111775 0.070157 0.095885
0.202503 0.076827 0.104634
0.303021 0.074436 0.122583
0.391651 0.058663 0.133707
0.470429 0.040070 0.145739
0.543928 0.029337 0.159000
0.607776 0.023658 0.172595
0.659188 0.020190 0.188201
0.699068 0.018257 0.204071
0.728582 0.020587 0.220613
0.751434 0.021266 0.236088
0.771562 0.022379 0.250243
0.031533 0.060786 0.081327
0.026811 0.065720 0.088835
0.023777 0.069465 0.096775
0.047692 0.076259 0.103201
0.124283 0.089182 0.108882
0.208137 0.100474 0.113262
0.285122 0.109614 0.117788
0.364267 0.113779 0.120907
0.442353 0.114746 0.124186
0.514664 0.114165 0.128428
0.577014 0.109514 0.133475
0.627462 0.104905 0.139953
0.667868 0.101200 0.146744
0.700103 0.101558 0.154657
0.725447 0.103803 0.163931
0.744845 0.107336 0.174174
0.009731 0.111549 0.114283
0.008995 0.117423 0.120908
0.008669 0.120025 0.123836
0.029463 0.119796 0.117460
0.110265 0.131758 0.116291
0.200271 0.145760 0.117520
0.278645 0.159698 0.118719
0.352952 0.171072 0.117427
0.426201 0.178882 0.115197
0.498506 0.184490 0.112473
0.563459 0.188166 0.110738
0.616950 0.189847 0.110880
0.660897 0.190693 0.111452
0.697396 0.192664 0.114158
0.725407 0.196442 0.119447
0.750513 0.201544 0.125766
0.005393 0.173710 0.142068
0.005250 0.177012 0.145747
0.005241 0.177228 0.145919
0.013387 0.174054 0.133253
0.088774 0.186320 0.125743
0.193952 0.200860 0.122768
0.277692 0.213621 0.118755
0.350676 0.225286 0.113873
0.421093 0.235412 0.108968
0.492899 0.243472 0.104408
0.560438 0.249370 0.100685
0.617950 0.253203 0.098074
0.665802 0.256213 0.096191
0.704643 0.259722 0.097367
0.734858 0.263790 0.101587
0.761203 0.268516 0.106900
0.002937 0.229442 0.166728
0.002864 0.230879 0.168453
0.002933 0.229512 0.166960
0.006193 0.224875 0.148378
0.068402 0.236182 0.134538
0.187570 0.251484 0.128064
0.278839 0.263577 0.120809
0.354811 0.274521 0.113313
0.426206 0.284387 0.107062
0.497790 0.293069 0.101074
0.566994 0.300042 0.095349
0.627113 0.305531 0.091277
0.676543 0.310327 0.089459
0.716218 0.314785 0.089761
0.746943 0.319192 0.092758
0.774025 0.324173 0.096155
0.001074 0.277771 0.185243
0.001064 0.278023 0.185814
0.001107 0.275772 0.182699
0.002055 0.269533 0.158756
0.055378 0.279874 0.140802
0.173293 0.296503 0.130401
0.277532 0.309877 0.122657
0.357000 0.320664 0.113888
