example_ofxGpuLutCube/bin/data/ofxGpuLutCube/LUT/C23 (violet fade).cube
LUT_3D_SIZE 6
0.035782 0.055680 0.072664
0.041467 0.057039 0.073441
0.216760 0.078070 0.068686
0.429414 0.058930 0.039888
0.625850 0.027862 0.036452
0.739613 0.021983 0.046802
0.034091 0.058878 0.074384
0.046867 0.068644 0.076966
0.281839 0.107143 0.065721
0.515742 0.121504 0.032883
0.675200 0.125802 0.028339
0.752246 0.138789 0.026123
0.003537 0.220218 0.100590
0.010866 0.219248 0.092444
0.294533 0.261439 0.045091
0.515785 0.298030 0.017310
0.696358 0.322659 0.011170
0.794996 0.341474 0.009411
0.000664 0.341022 0.093388
0.001364 0.340270 0.073800
0.289956 0.398991 0.017789
0.531563 0.445166 0.006625
0.721940 0.476133 0.003164
0.825099 0.500312 0.002291
0.000724 0.419196 0.082958
0.000735 0.432778 0.044102
0.243080 0.512112 0.007730
0.529950 0.578381 0.001610
0.732663 0.619082 0.000138
0.843675 0.647880 0.000044
0.000784 0.482035 0.093726
0.001930 0.515970 0.038587
0.287499 0.611764 0.006778
0.577254 0.684551 0.001076
0.776913 0.728321 0.000016
0.880401 0.754132 0.000007
0.033765 0.056541 0.081119
0.039587 0.057495 0.079264
0.215032 0.077813 0.077833
0.431854 0.052642 0.070321
0.656799 0.016990 0.142958
0.765507 0.014538 0.234882
0.031533 0.060786 0.081327
0.047692 0.076259 0.103201
0.285122 0.109614 0.117788
0.514664 0.114165 0.128428
0.667868 0.101200 0.146744
0.744845 0.107336 0.174174
0.002937 0.229442 0.166728
0.006193 0.224875 0.148378
0.278839 0.263577 0.120809
0.497790 0.293069 0.101074
0.676543 0.310327 0.089459
0.774025 0.324173 0.096155
0.000703 0.359934 0.210896
0.000806 0.350759 0.172272
0.251374 0.396905 0.121637
0.504926 0.435055 0.094042
0.698537 0.459593 0.072940
0.803852 0.481674 0.079775
0.000774 0.447078 0.241001
0.000770 0.447127 0.187002
0.175027 0.506453 0.122885
0.491429 0.566734 0.087737
0.704883 0.603662 0.061058
0.818975 0.631310 0.069785
0.000905 0.522693 0.310502
0.000901 0.535292 0.241068
0.182820 0.605065 0.178278
0.523442 0.674212 0.140629
0.738300 0.716043 0.121451
0.847308 0.742270 0.134274
0.014359 0.038624 0.238952
0.020330 0.042869 0.232283
0.225957 0.063897 0.269741
0.472926 0.031565 0.316898
0.717230 0.018569 0.416615
0.801336 0.016493 0.474728
0.012567 0.050186 0.250413
0.029611 0.072854 0.287761
0.301220 0.104388 0.345289
0.542777 0.105265 0.385552
0.699270 0.093009 0.406871
0.775672 0.096193 0.428920
0.001127 0.255036 0.382999
0.001747 0.249973 0.364637
0.223329 0.288485 0.372075
0.478366 0.316040 0.387737
0.666010 0.325766 0.392375
0.766676 0.337861 0.406460
0.000757 0.391356 0.441257
0.000749 0.382967 0.413447
0.148463 0.424008 0.400131
0.458422 0.464591 0.408475
0.672541 0.483511 0.411848
0.785192 0.502814 0.424901
0.000900 0.485579 0.472115
0.000893 0.488189 0.438523
0.070394 0.540897 0.420659
0.418959 0.598030 0.423063
0.667531 0.632343 0.428189
0.791828 0.658238 0.445580
0.001042 0.560756 0.532460
0.001048 0.578642 0.494016
0.072824 0.642887 0.476542
0.440555 0.708563 0.481197
0.694592 0.748345 0.487051
0.814316 0.773182 0.504364
0.008036 0.039140 0.361750
0.011010 0.038756 0.355792
0.233489 0.040555 0.406208
0.517660 0.031719 0.477597
0.746456 0.020430 0.569105
0.819715 0.017810 0.614483
0.007506 0.043357 0.384881
0.019752 0.063280 0.413577
0.306174 0.096529 0.488837
0.558489 0.098535 0.533008
0.714168 0.083406 0.553192
0.789110 0.087680 0.575758
0.000830 0.260421 0.512314
0.000995 0.256830 0.495740
0.192550 0.300080 0.513661
0.464193 0.324955 0.541412
0.662206 0.333729 0.549590
0.763297 0.345166 0.565192
0.000809 0.403580 0.575216
0.000797 0.396754 0.551568
0.103571 0.437178 0.547471
0.429033 0.478687 0.571570
0.661364 0.498457 0.579101
0.776920 0.516895 0.593025
0.000974 0.501437 0.610076
0.000968 0.506025 0.582411
0.036607 0.557213 0.572639
0.368286 0.617766 0.589787
0.646049 0.652061 0.599225
0.777539 0.676637 0.616652
0.001105 0.577491 0.665351
0.001126 0.597423 0.635739
0.042038 0.661382 0.626577
0.387271 0.728399 0.641819
0.669385 0.767240 0.650810
0.796048 0.790387 0.666414
0.006488 0.047132 0.464919
0.007448 0.046829 0.461525
0.245834 0.040010 0.523270
0.574122 0.031134 0.616585
0.764038 0.021766 0.663494
0.830823 0.019412 0.691602
0.006134 0.050240 0.500115
0.014835 0.064965 0.515627
0.306659 0.096486 0.598582
0.559372 0.095316 0.641506
0.720298 0.078598 0.657047
0.795495 0.086184 0.675476
0.000935 0.252305 0.604375
0.000870 0.250818 0.594598
0.171872 0.300300 0.621085
0.446298 0.323619 0.657212
0.654040 0.330799 0.669861
0.758949 0.342301 0.685185
0.000840 0.406405 0.668760
0.000830 0.400566 0.654158
0.069535 0.443414 0.657968
0.402831 0.485326 0.692419
0.647581 0.505051 0.706834
0.767067 0.523850 0.720415
0.001014 0.508913 0.703225
0.001017 0.515236 0.688121
0.019351 0.567962 0.688849
0.327328 0.627910 0.714554
0.626496 0.662963 0.731173
0.765206 0.686809 0.745734
0.001145 0.585562 0.749148
0.001172 0.608102 0.735766
0.011833 0.673224 0.736910
0.343530 0.739720 0.758762
0.646436 0.778521 0.771758
0.780723 0.800384 0.784499
0.005874 0.051967 0.527835
0.005933 0.052012 0.528311
0.265175 0.042543 0.597811
0.609985 0.031308 0.680519
0.776422 0.021632 0.710961
0.837332 0.019688 0.729792
0.005577 0.054591 0.557436
0.014087 0.072580 0.572446
0.318783 0.108904 0.661171
0.567090 0.105916 0.701148
0.722952 0.084101 0.712473
0.798908 0.093209 0.728432
0.000969 0.250348 0.655509
0.000912 0.248798 0.653323
0.160760 0.299531 0.685705
0.443347 0.322649 0.725530
0.651332 0.330539 0.739053
0.755554 0.340525 0.751052
0.000870 0.408605 0.716770
0.000856 0.403243 0.709464
0.051805 0.448187 0.720682
0.392866 0.490761 0.760235
0.641390 0.509996 0.778405
0.761958 0.529156 0.791415
0.001039 0.514203 0.753500
0.001042 0.521199 0.746366
0.012771 0.575918 0.754599
0.308579 0.635073 0.783574
0.618381 0.670952 0.805426
0.759645 0.695101 0.820581
0.001166 0.591040 0.793613
0.001202 0.615466 0.790331
0.002251 0.682136 0.797816
0.332648 0.747657 0.823595
0.637492 0.785281 0.840220
0.773675 0.807398 0.852157
