example_ofxGpuLutCube/bin/data/ofxGpuLutCube/LUT/C24 (violet fade_1).cube
LUT_3D_SIZE 6
0.027890 0.043400 0.056637
0.076559 0.044489 0.057260
0.260689 0.061235 0.053390
0.470479 0.045498 0.030609
0.667475 0.021254 0.028459
0.799973 0.016970 0.036739
0.026534 0.090075 0.058017
0.080889 0.097905 0.060087
0.311469 0.128428 0.050999
0.535958 0.140263 0.025509
0.704277 0.144259 0.021943
0.808974 0.154534 0.020160
0.002248 0.263189 0.078873
0.052232 0.262420 0.072345
0.320707 0.294771 0.034314
0.536530 0.322492 0.013177
0.721199 0.341229 0.008563
0.842627 0.355771 0.007217
0.000433 0.401675 0.072665
0.045104 0.401089 0.056961
0.317376 0.446698 0.012591
0.548438 0.482003 0.004942
0.740645 0.505683 0.002363
0.865722 0.524402 0.001688
0.000530 0.507131 0.064237
0.044658 0.517810 0.033075
0.282299 0.580171 0.004681
0.547060 0.630732 0.001084
0.748839 0.661929 0.000057
0.880112 0.684180 0.000000
0.000606 0.600713 0.072889
0.045646 0.627468 0.028730
0.316640 0.702550 0.004775
0.583875 0.758056 0.000782
0.783424 0.791656 0.000000
0.908936 0.811617 0.000000
0.026273 0.044089 0.107528
0.075052 0.044854 0.106041
0.259331 0.061034 0.104836
0.472402 0.040456 0.099126
0.691533 0.012695 0.158023
0.819614 0.011270 0.227654
0.024483 0.091604 0.107694
0.081550 0.104010 0.125232
0.313949 0.130393 0.136862
0.535104 0.134385 0.146199
0.698569 0.124658 0.160538
0.802944 0.129787 0.180787
0.001893 0.270374 0.175908
0.048562 0.266802 0.161265
0.308592 0.296499 0.139094
0.522534 0.318668 0.124340
0.705744 0.331618 0.115428
0.826195 0.342269 0.120843
0.000490 0.416297 0.209348
0.044668 0.409251 0.179541
0.288035 0.445278 0.139799
0.527781 0.474170 0.119045
0.722426 0.492781 0.102397
0.849072 0.509856 0.107906
0.000602 0.528653 0.231842
0.044700 0.528920 0.190393
0.228531 0.575948 0.140574
0.517174 0.621783 0.114217
0.727150 0.649931 0.092990
0.860669 0.671270 0.100018
0.000711 0.632014 0.285208
0.044820 0.642159 0.231335
0.234788 0.697753 0.183968
0.542250 0.750279 0.156702
0.753302 0.782204 0.141467
0.882961 0.802493 0.151751
0.010947 0.029648 0.277273
0.059817 0.033058 0.272032
0.268139 0.049777 0.301352
0.504161 0.023848 0.337320
0.736657 0.014422 0.413049
0.846581 0.012800 0.458001
0.009560 0.083023 0.286241
0.067452 0.101245 0.315357
0.326230 0.126335 0.359506
0.555896 0.127861 0.388944
0.721906 0.118233 0.404834
0.826097 0.120813 0.421754
0.000761 0.290125 0.388783
0.045361 0.286166 0.374437
0.266886 0.315861 0.379801
0.507901 0.336326 0.391066
0.697924 0.343613 0.394439
0.820821 0.352981 0.405366
0.000585 0.440357 0.432767
0.044685 0.433817 0.411001
0.207238 0.466089 0.400258
0.493136 0.496939 0.406812
0.703115 0.511271 0.409241
0.835250 0.526244 0.419361
0.000706 0.558394 0.456265
0.044813 0.560502 0.429846
0.144647 0.602021 0.415545
0.463993 0.646124 0.417992
0.699519 0.672168 0.421791
0.840540 0.692173 0.435302
0.000818 0.661593 0.503344
0.044934 0.675722 0.473010
0.146592 0.726473 0.459102
0.481952 0.777027 0.463356
0.720964 0.807193 0.467664
0.858355 0.826325 0.481037
0.006109 0.030436 0.417434
0.052601 0.030093 0.412756
0.274263 0.031395 0.452328
0.538046 0.024651 0.506711
0.758920 0.015907 0.576507
0.860717 0.013831 0.611807
0.005699 0.078013 0.435599
0.059654 0.094051 0.458122
0.329925 0.120561 0.516359
0.567562 0.122461 0.548663
0.733202 0.110502 0.563767
0.836374 0.113962 0.581160
0.000539 0.294527 0.534541
0.044777 0.291720 0.521535
0.242494 0.324979 0.535097
0.497276 0.343204 0.555764
0.694984 0.349728 0.561820
0.818180 0.358606 0.573937
0.000635 0.449855 0.582223
0.044735 0.444512 0.563654
0.171248 0.476216 0.560073
0.471282 0.507903 0.578973
0.694670 0.522793 0.584408
0.828898 0.537084 0.595196
0.000765 0.570766 0.608929
0.044872 0.574380 0.587086
0.117556 0.614664 0.579116
0.426127 0.661721 0.593095
0.683447 0.687418 0.599848
0.829684 0.706351 0.613393
0.000868 0.674676 0.652130
0.044996 0.690394 0.628669
0.121908 0.740883 0.621227
0.441955 0.792791 0.633693
0.702123 0.821841 0.640068
0.844424 0.839612 0.652128
0.004943 0.037013 0.542672
0.049822 0.036771 0.540001
0.284006 0.031198 0.588578
0.580401 0.024278 0.659027
0.772493 0.016963 0.694845
0.869348 0.015102 0.716793
0.004684 0.083602 0.570385
0.055785 0.095392 0.582575
0.329962 0.120571 0.646720
0.568061 0.119865 0.678123
0.737795 0.106622 0.689695
0.841239 0.112740 0.703974
0.000616 0.288519 0.651350
0.044673 0.287362 0.643666
0.225941 0.325294 0.663812
0.483600 0.342183 0.691064
0.688724 0.347481 0.700498
0.814816 0.356418 0.712422
0.000659 0.452118 0.700141
0.044762 0.447533 0.688657
0.143959 0.481115 0.691279
0.451768 0.513150 0.718362
0.684299 0.527902 0.728926
0.821373 0.542456 0.739432
0.000796 0.576642 0.726573
0.044910 0.581603 0.714575
0.103720 0.623065 0.714867
0.394495 0.669823 0.735516
0.668857 0.695897 0.747723
0.820340 0.714213 0.758973
0.000899 0.681018 0.762516
0.045032 0.698781 0.751823
0.097689 0.750159 0.752480
0.407662 0.801876 0.770051
0.684889 0.830650 0.779425
0.832711 0.847386 0.789229
0.004496 0.040850 0.636343
0.048656 0.040885 0.636718
0.299049 0.033205 0.691317
0.607877 0.024474 0.753163
0.782177 0.016855 0.776450
0.874438 0.015320 0.791139
0.004282 0.087036 0.659676
0.055226 0.101440 0.671467
0.338640 0.130538 0.739528
0.573906 0.128365 0.769270
0.739773 0.111030 0.777651
0.843858 0.118367 0.790036
0.000645 0.287115 0.735828
0.044708 0.285924 0.734128
0.217033 0.324837 0.758868
0.481388 0.341450 0.789050
0.686688 0.347330 0.799152
0.812186 0.355095 0.808483
0.000683 0.453883 0.782198
0.044782 0.449680 0.776467
0.129743 0.484886 0.784948
0.444436 0.517447 0.816075
0.679655 0.531772 0.829527
0.817483 0.546605 0.839597
0.000816 0.580812 0.810474
0.044930 0.586304 0.804773
0.098444 0.629321 0.810999
0.379664 0.675526 0.834194
0.662849 0.702134 0.850476
0.816154 0.720666 0.862182
0.000916 0.685324 0.841885
0.045056 0.704576 0.839182
0.090007 0.757177 0.844880
0.398997 0.808150 0.865456
0.678228 0.835946 0.877704
0.827334 0.852859 0.886846
