example_ofxGpuLutCube/bin/data/ofxGpuLutCube/LUT/C24 (violet fade_1).cube
LUT_3D_SIZE 16
0.027890 0.043400 0.056637
0.042594 0.043400 0.056637
0.057298 0.043400 0.056637
0.076559 0.044489 0.057260
0.125527 0.051241 0.059413
0.190738 0.057624 0.058104
0.260689 0.061235 0.053390
0.329362 0.060672 0.046091
0.400342 0.055085 0.037209
0.470479 0.045498 0.030609
0.538609 0.034448 0.025337
0.605309 0.026339 0.025454
0.667475 0.021254 0.028459
0.724854 0.017293 0.030218
0.766465 0.016134 0.031535
0.799973 0.016970 0.036739
0.027890 0.058103 0.056637
0.042594 0.058103 0.056637
0.057298 0.058103 0.056637
0.078220 0.059505 0.057393
0.131506 0.066934 0.059468
0.202379 0.073287 0.057302
0.274124 0.076417 0.051862
0.347760 0.074494 0.043490
0.426532 0.065886 0.033704
0.505442 0.053066 0.026998
0.591086 0.040977 0.025495
0.654952 0.035693 0.028570
0.703273 0.032500 0.030004
0.741818 0.030782 0.030293
0.775356 0.031390 0.033988
0.805572 0.031680 0.038425
0.027890 0.072807 0.056637
0.042594 0.072807 0.056637
0.057298 0.072807 0.056637
0.081104 0.074796 0.057622
0.139842 0.082944 0.059428
0.222033 0.089454 0.055802
0.305276 0.090360 0.047484
0.399539 0.082824 0.035164
0.477907 0.072158 0.028089
0.548346 0.062875 0.024432
0.611624 0.057351 0.026652
0.665023 0.054454 0.028345
0.707905 0.052930 0.028154
0.744993 0.056820 0.029075
0.776316 0.059660 0.031849
0.804596 0.062686 0.033089
0.026534 0.090075 0.058017
0.039944 0.091628 0.058546
0.052020 0.094700 0.059298
0.080889 0.097905 0.060087
0.154217 0.110691 0.061290
0.236177 0.120912 0.057979
0.311469 0.128428 0.050999
0.387828 0.132815 0.039276
0.463927 0.136675 0.029652
0.535958 0.140263 0.025509
0.599887 0.141575 0.022664
0.656294 0.142758 0.021363
0.704277 0.144259 0.021943
0.743977 0.146657 0.022282
0.778717 0.150270 0.021309
0.808974 0.154534 0.020160
0.008786 0.139490 0.068011
0.022295 0.146444 0.069838
0.036653 0.149550 0.070399
0.071792 0.150598 0.068656
0.151812 0.161011 0.066316
0.236352 0.171697 0.061241
0.311475 0.182672 0.052836
0.384134 0.192509 0.040122
0.456765 0.200685 0.027400
0.529479 0.208041 0.018932
0.595741 0.213939 0.015680
0.653797 0.218207 0.015740
0.704075 0.221534 0.015612
0.747746 0.225310 0.014791
0.784903 0.229891 0.013620
0.819725 0.235228 0.012304
0.003877 0.205954 0.075786
0.018478 0.208781 0.076160
0.033154 0.209440 0.076274
0.058675 0.208845 0.072384
0.143391 0.220350 0.067081
0.237525 0.231268 0.058145
0.315891 0.240815 0.043612
0.387376 0.250431 0.028764
0.458273 0.259735 0.019296
0.529612 0.268503 0.015284
0.598322 0.275145 0.014062
0.658887 0.280508 0.013025
0.711316 0.284755 0.011887
0.756714 0.289253 0.010608
0.795187 0.293734 0.009785
0.831540 0.298739 0.009054
0.002248 0.263189 0.078873
0.016910 0.264448 0.078922
0.031637 0.263788 0.078893
0.052232 0.262420 0.072345
0.135143 0.274219 0.062903
0.240170 0.285410 0.051149
0.320707 0.294771 0.034314
0.393724 0.304287 0.022849
0.464990 0.313717 0.016874
0.536530 0.322492 0.013177
0.606842 0.330088 0.011129
0.668539 0.336239 0.009718
0.721199 0.341229 0.008563
0.767001 0.346185 0.007678
0.806161 0.350969 0.007163
0.842627 0.355771 0.007217
0.001045 0.313364 0.079530
0.015738 0.313807 0.079494
0.030473 0.312677 0.079472
0.047301 0.310727 0.071148
0.125204 0.322792 0.056203
0.237382 0.336181 0.040498
0.323957 0.346512 0.027081
0.398168 0.356377 0.016964
0.471040 0.365678 0.010909
0.544122 0.374531 0.007952
0.614670 0.382829 0.006966
0.677630 0.389775 0.006188
0.730224 0.395456 0.006051
0.775998 0.400787 0.005983
0.815102 0.405646 0.005775
0.851750 0.410870 0.005412
0.000394 0.359232 0.076428
0.015098 0.359047 0.076418
0.029801 0.357672 0.076312
0.046897 0.357422 0.064745
0.111879 0.369591 0.044128
0.228908 0.384226 0.028645
0.323376 0.396761 0.018202
0.400433 0.408852 0.010292
0.474302 0.419219 0.006298
0.548378 0.428268 0.005931
0.618928 0.436396 0.005410
0.683457 0.443706 0.004818
0.736939 0.449504 0.004261
0.782980 0.455437 0.003840
0.822748 0.461387 0.003561
0.859675 0.467279 0.003305
0.000433 0.401675 0.072665
0.015137 0.401143 0.072798
0.029840 0.399685 0.072352
0.045104 0.401089 0.056961
0.096925 0.414184 0.031787
0.221103 0.430963 0.018261
0.317376 0.446698 0.012591
0.397850 0.460140 0.009652
0.473290 0.471993 0.007337
0.548438 0.482003 0.004942
0.620035 0.490447 0.003495
0.685261 0.498431 0.002663
0.740645 0.505683 0.002363
0.787295 0.511801 0.002133
0.828495 0.518223 0.001919
0.865722 0.524402 0.001688
0.000468 0.439682 0.070025
0.015172 0.439065 0.070142
0.029875 0.437819 0.069504
0.044915 0.442390 0.049107
0.088612 0.456672 0.024732
0.203469 0.476756 0.013873
0.307887 0.494076 0.010883
0.391414 0.509378 0.008210
0.469486 0.522869 0.005343
0.546378 0.534268 0.002794
0.619444 0.543813 0.001814
0.685232 0.552268 0.001305
0.742837 0.560595 0.001089
0.789936 0.567378 0.000931
0.832468 0.574667 0.000815
0.869739 0.581300 0.000809
0.000505 0.474299 0.066852
0.015202 0.473508 0.067018
0.029902 0.472647 0.065802
0.044686 0.481151 0.040819
0.083536 0.497749 0.018789
0.183726 0.518860 0.010502
0.295612 0.538238 0.008485
0.385588 0.556413 0.004703
0.466815 0.571267 0.002662
0.545192 0.584352 0.001558
0.619579 0.595095 0.000939
0.686322 0.604341 0.000582
0.744886 0.613059 0.000390
0.792758 0.620274 0.000379
0.836368 0.627855 0.000312
0.873857 0.634356 0.000266
0.000530 0.507131 0.064237
0.015234 0.506232 0.064351
0.029929 0.506033 0.061972
0.044658 0.517810 0.033075
0.076984 0.536451 0.013724
0.172495 0.558609 0.007452
0.282299 0.580171 0.004681
0.385534 0.600231 0.002917
0.467969 0.616864 0.001845
0.547060 0.630732 0.001084
0.622719 0.642647 0.000706
0.690247 0.652941 0.000301
0.748839 0.661929 0.000057
0.798387 0.670069 0.000005
0.841847 0.677575 0.000000
0.880112 0.684180 0.000000
0.000556 0.539455 0.064899
0.015260 0.538489 0.064789
0.029963 0.539505 0.060183
0.044979 0.554182 0.026791
0.076650 0.574595 0.010742
0.163849 0.598132 0.006084
0.284633 0.620849 0.005489
0.388185 0.641190 0.004038
0.473779 0.659658 0.001504
0.554260 0.674584 0.000809
0.630254 0.687337 0.000302
0.699631 0.698621 0.000020
0.757395 0.707882 0.000000
0.808478 0.716706 0.000000
0.850589 0.724045 0.000000
0.889583 0.730728 0.000000
0.000581 0.570643 0.067630
0.015285 0.569469 0.067426
0.029989 0.571775 0.061066
0.044728 0.590897 0.029092
0.080195 0.613773 0.014054
0.172456 0.637767 0.008110
0.302600 0.661722 0.005380
0.398347 0.682717 0.002269
0.485641 0.701447 0.000651
0.568059 0.718095 0.000150
0.644438 0.730827 0.000000
0.711618 0.741623 0.000000
0.770296 0.751265 0.000000
0.818151 0.759007 0.000000
0.860631 0.765983 0.000000
0.899648 0.772646 0.000000
0.000606 0.600713 0.072889
0.015310 0.599477 0.072411
0.030017 0.604311 0.062162
0.045646 0.627468 0.028730
0.086972 0.652691 0.012158
0.204079 0.678481 0.006082
0.316640 0.702550 0.004775
0.416499 0.724260 0.003916
0.502167 0.742646 0.002203
0.583875 0.758056 0.000782
0.660220 0.771792 0.000001
0.726193 0.782456 0.000000
0.783424 0.791656 0.000000
0.830104 0.799003 0.000000
0.872616 0.806111 0.000000
0.908936 0.811617 0.000000
0.027890 0.043400 0.071341
0.042594 0.043400 0.071341
0.057298 0.043400 0.071341
0.076653 0.044503 0.071978
0.125978 0.051298 0.074117
0.191663 0.057697 0.072741
0.261652 0.061267 0.067981
0.330531 0.060651 0.060654
0.402072 0.054866 0.051647
0.472631 0.045135 0.045067
0.541094 0.033919 0.039828
0.608513 0.025883 0.040365
0.672127 0.020811 0.043415
0.728957 0.016984 0.044959
0.767914 0.016216 0.046615
0.800875 0.016955 0.051712
0.027890 0.058103 0.071341
0.042594 0.058103 0.071341
0.057298 0.058103 0.071341
0.078464 0.059561 0.072117
0.132388 0.067082 0.074183
0.203983 0.073443 0.071904
0.276140 0.076437 0.066291
0.350930 0.074104 0.057653
0.431678 0.064874 0.047941
0.512918 0.051576 0.041165
0.596342 0.040246 0.040506
0.657512 0.035421 0.043423
0.704533 0.032383 0.044751
0.742695 0.030716 0.044997
0.775904 0.031413 0.048864
0.805905 0.031683 0.053236
0.027890 0.072807 0.071341
0.042594 0.072807 0.071341
0.057298 0.072807 0.071341
0.082109 0.074994 0.072389
0.142845 0.083305 0.074050
0.227088 0.089807 0.070097
0.314189 0.089940 0.060875
0.404370 0.082377 0.049386
0.480870 0.071955 0.042527
0.550573 0.062791 0.039201
0.613205 0.057528 0.041455
0.665995 0.054583 0.043025
0.708482 0.053276 0.042715
0.745443 0.057333 0.043827
0.776594 0.059924 0.046549
0.804794 0.063128 0.047792
0.026151 0.090607 0.072954
0.039193 0.092451 0.073455
0.051336 0.095535 0.074186
0.083483 0.099713 0.075327
0.157210 0.112345 0.076084
0.238652 0.122150 0.072721
0.313543 0.129444 0.065442
0.389802 0.133658 0.053679
0.465425 0.137567 0.044341
0.537103 0.141080 0.040165
0.600855 0.142215 0.037284
0.657027 0.143339 0.036014
0.704727 0.144787 0.036644
0.744244 0.146939 0.036932
0.778860 0.150480 0.035993
0.809133 0.154798 0.034804
0.008260 0.143034 0.083744
0.022113 0.148234 0.084866
0.036492 0.150791 0.085317
0.072359 0.151736 0.083445
0.152943 0.162037 0.081038
0.237635 0.172478 0.075821
0.312440 0.183484 0.067259
0.384968 0.193064 0.054542
0.457470 0.201175 0.041906
0.530060 0.208528 0.033442
0.596179 0.214269 0.030399
0.653967 0.218395 0.030472
0.704200 0.221649 0.030308
0.747768 0.225415 0.029469
0.784826 0.229886 0.028327
0.819687 0.235173 0.027018
0.003836 0.207138 0.090614
0.018441 0.209711 0.090989
0.033131 0.210106 0.091078
0.058789 0.209493 0.087076
0.144159 0.220932 0.081731
0.238184 0.231723 0.072701
0.316370 0.241236 0.058106
0.387717 0.250718 0.043370
0.458338 0.259929 0.033953
0.529853 0.268512 0.029980
0.598383 0.275139 0.028765
0.658850 0.280493 0.027745
0.711236 0.284665 0.026592
0.756573 0.289050 0.025331
0.794997 0.293571 0.024507
0.831283 0.298545 0.023772
0.002230 0.263650 0.093589
0.016887 0.264990 0.093662
0.031623 0.264138 0.093605
0.052308 0.262680 0.087004
0.135574 0.274503 0.077530
0.240527 0.285464 0.065796
0.320950 0.294900 0.048926
0.393662 0.304384 0.037612
0.464928 0.313694 0.031573
0.536290 0.322352 0.027869
0.606381 0.329888 0.025891
0.668279 0.336033 0.024443
0.720904 0.340804 0.023302
0.766751 0.345854 0.022402
0.805866 0.350613 0.021887
0.842351 0.355520 0.021928
0.001044 0.313515 0.094265
0.015736 0.313957 0.094219
0.030473 0.312680 0.094176
0.047357 0.310737 0.085831
0.125204 0.322770 0.070909
0.237376 0.336149 0.055211
0.323895 0.346475 0.041781
0.398193 0.356116 0.031730
0.470727 0.365618 0.025602
0.543763 0.374379 0.022682
0.614180 0.382604 0.021691
0.677221 0.389522 0.020908
0.729725 0.394849 0.020796
0.775545 0.400149 0.020701
0.814662 0.405254 0.020499
0.851529 0.410625 0.020120
0.000394 0.359215 0.091129
0.015098 0.359032 0.091125
0.029801 0.357649 0.091024
0.046893 0.357352 0.079480
0.111838 0.369331 0.059008
0.228491 0.384047 0.043445
0.323137 0.396408 0.032984
0.400085 0.408598 0.025059
0.473665 0.418885 0.020993
0.547763 0.427803 0.020642
0.618327 0.435817 0.020143
0.682616 0.443189 0.019577
0.736266 0.448924 0.019002
0.782529 0.454802 0.018567
0.822424 0.460484 0.018301
0.859210 0.466390 0.018037
0.000433 0.401624 0.087385
0.015137 0.401061 0.087506
0.029840 0.399529 0.087054
0.045109 0.400893 0.071770
0.096407 0.413874 0.046673
0.220276 0.430638 0.033049
0.316759 0.446244 0.027304
0.397262 0.459649 0.024364
0.472327 0.471560 0.022103
0.547860 0.481235 0.019663
0.619369 0.489972 0.018224
0.684613 0.497822 0.017400
0.739971 0.504928 0.017100
0.786757 0.511111 0.016867
0.827951 0.517453 0.016650
0.865176 0.523354 0.016423
0.000468 0.439527 0.084775
0.015172 0.438795 0.084858
0.029875 0.437642 0.084255
0.044873 0.441906 0.064161
0.088290 0.456119 0.039625
0.202953 0.476250 0.028591
0.307377 0.493440 0.025637
0.390808 0.508687 0.022994
0.468841 0.522186 0.020141
0.545479 0.533557 0.017563
0.618512 0.542973 0.016554
0.684421 0.551585 0.016024
0.742227 0.559691 0.015815
0.789339 0.566584 0.015659
0.831947 0.573890 0.015529
0.869252 0.580270 0.015528
0.000504 0.474046 0.081616
0.015202 0.473331 0.081706
0.029901 0.472360 0.080593
0.044682 0.480681 0.055878
0.083178 0.497103 0.033710
0.182727 0.518226 0.025309
0.294651 0.537555 0.023287
0.384777 0.555502 0.019531
0.465905 0.570538 0.017415
0.544112 0.583622 0.016287
0.618767 0.594274 0.015659
0.685389 0.603477 0.015301
0.744072 0.612248 0.015097
0.791906 0.619380 0.015089
0.835703 0.626911 0.015040
0.873224 0.633371 0.014982
0.000530 0.506842 0.078994
0.015234 0.505966 0.079087
0.029929 0.505691 0.076849
0.044658 0.517249 0.048157
0.077076 0.535794 0.028605
0.171373 0.557778 0.022305
0.281085 0.579322 0.019487
0.384204 0.599478 0.017666
0.466410 0.616020 0.016577
0.545708 0.629958 0.015800
0.621559 0.641699 0.015424
0.689022 0.651989 0.015024
0.747851 0.661098 0.014765
0.797376 0.669130 0.014710
0.841094 0.676772 0.014704
0.879488 0.683094 0.014704
0.000556 0.539259 0.079528
0.015260 0.538248 0.079409
0.029963 0.539067 0.074962
0.044957 0.553528 0.041802
0.075848 0.573843 0.025449
0.162792 0.597229 0.020800
0.283004 0.619933 0.020147
0.386856 0.640167 0.018793
0.472124 0.658639 0.016255
0.552667 0.673527 0.015554
0.628655 0.686490 0.015026
0.698277 0.697594 0.014726
0.756202 0.706968 0.014704
0.807339 0.715775 0.014704
0.849825 0.723029 0.014704
0.888735 0.729884 0.014704
0.000581 0.570309 0.082284
0.015285 0.569221 0.082027
0.029989 0.571308 0.075901
0.044729 0.590309 0.043939
0.079270 0.612859 0.028785
0.169754 0.636827 0.022822
0.300946 0.660738 0.020178
0.396529 0.681760 0.017081
0.483722 0.700413 0.015372
0.566162 0.717123 0.014870
0.642453 0.729905 0.014705
0.710265 0.740745 0.014704
0.768718 0.750318 0.014704
0.817131 0.757969 0.014704
0.859509 0.764950 0.014704
0.898647 0.771843 0.014704
0.000606 0.600416 0.087421
0.015310 0.599182 0.086931
0.030014 0.603694 0.077078
0.045335 0.626620 0.043796
0.085244 0.651586 0.027116
0.201381 0.677402 0.020965
0.314380 0.701365 0.019242
0.414392 0.723278 0.018487
0.500232 0.741438 0.016934
0.581865 0.757039 0.015522
0.658348 0.770651 0.014708
0.724434 0.781266 0.014704
0.782334 0.790855 0.014704
0.828871 0.798121 0.014704
0.871665 0.805266 0.014704
0.908008 0.810797 0.014704
0.027890 0.043400 0.086045
0.042594 0.043400 0.086045
0.057298 0.043400 0.086045
0.076621 0.044497 0.086678
0.125917 0.051285 0.088832
0.191765 0.057694 0.087455
0.261829 0.061271 0.082657
0.331139 0.060614 0.075262
0.402985 0.054743 0.066203
0.473970 0.044879 0.059606
0.543080 0.033521 0.054401
0.611572 0.025481 0.055249
0.679491 0.019858 0.059157
0.731274 0.016154 0.064985
0.769384 0.015248 0.071126
0.802465 0.014551 0.085387
0.027890 0.058103 0.086045
0.042594 0.058103 0.086045
0.057298 0.058103 0.086045
0.078585 0.059581 0.086827
0.132787 0.067148 0.088887
0.204912 0.073511 0.086550
0.277545 0.076473 0.080858
0.353669 0.073780 0.071919
0.435635 0.064130 0.062251
0.522027 0.049478 0.055741
0.599730 0.039194 0.058508
0.659170 0.034311 0.063654
0.705595 0.031133 0.068534
0.744321 0.028979 0.076951
0.777668 0.028593 0.089384
0.807580 0.027431 0.100303
0.027890 0.072807 0.086045
0.042594 0.072807 0.086045
0.057298 0.072807 0.086045
0.082905 0.075152 0.087152
0.146352 0.083714 0.088630
0.231219 0.089995 0.084356
0.322113 0.089669 0.074469
0.407378 0.081857 0.064489
0.482557 0.071158 0.059538
0.551564 0.061518 0.058586
0.613847 0.056207 0.062155
0.666312 0.053007 0.065899
0.708781 0.050871 0.069757
0.745769 0.052954 0.078187
0.776024 0.052514 0.084869
0.803930 0.053696 0.092310
0.025817 0.090991 0.087778
0.038233 0.093506 0.088397
0.050753 0.096326 0.089087
0.085012 0.102110 0.091166
0.159185 0.113366 0.090778
0.240041 0.122869 0.087441
0.314709 0.129892 0.079966
0.390478 0.133990 0.068272
0.465846 0.137727 0.059050
0.537260 0.140980 0.055100
0.600655 0.141819 0.052514
0.656491 0.142497 0.052502
0.703869 0.143146 0.053750
0.743094 0.144705 0.054034
0.777509 0.147813 0.053895
0.807592 0.151580 0.054179
0.007936 0.144641 0.098861
0.021984 0.149302 0.099759
0.036396 0.151486 0.100139
0.072624 0.152175 0.098189
0.153389 0.162303 0.095749
0.237887 0.172592 0.090508
0.312434 0.183515 0.081972
0.384852 0.192992 0.069312
0.457115 0.200918 0.056732
0.529589 0.208140 0.048303
0.595620 0.213818 0.045092
0.653387 0.217977 0.045137
0.703485 0.221002 0.045251
0.746960 0.224389 0.044639
0.783923 0.228617 0.043534
0.818675 0.233730 0.042195
0.003816 0.207552 0.105393
0.018433 0.209934 0.105752
0.033126 0.210216 0.105785
0.058792 0.209451 0.101788
0.143870 0.220792 0.096469
0.237779 0.231341 0.087521
0.315814 0.240823 0.073040
0.387084 0.250173 0.058286
0.457596 0.259386 0.048745
0.528944 0.267768 0.044736
0.597414 0.274372 0.043548
0.657705 0.279640 0.042523
0.710239 0.283882 0.041387
0.755769 0.288108 0.040173
0.794053 0.292422 0.039416
0.830212 0.297262 0.038844
0.002234 0.263570 0.108327
0.016893 0.264777 0.108329
0.031629 0.263826 0.108300
0.052213 0.262317 0.101763
0.134703 0.274009 0.092389
0.239526 0.284986 0.080760
0.319883 0.294348 0.063913
0.392570 0.303706 0.052533
0.463717 0.312924 0.046448
0.534974 0.321473 0.042693
0.605065 0.328931 0.040692
0.666823 0.334934 0.039269
0.719742 0.339763 0.038110
0.765806 0.344824 0.037190
0.804742 0.349558 0.036855
0.841010 0.354008 0.037089
0.001042 0.313426 0.109827
0.015742 0.313628 0.109895
0.030483 0.312259 0.109604
0.047022 0.310158 0.100710
0.124415 0.322025 0.085923
0.236309 0.335198 0.070390
0.322575 0.345485 0.056905
0.396801 0.355400 0.046654
0.469357 0.364682 0.040620
0.542065 0.373269 0.037562
0.612702 0.381481 0.036486
0.675805 0.388484 0.035674
0.728600 0.393705 0.035503
0.774460 0.399157 0.035500
0.813484 0.403779 0.035401
0.850408 0.409086 0.035056
0.000394 0.359241 0.108450
0.015098 0.359045 0.108380
0.029801 0.357408 0.107739
0.046856 0.356679 0.094691
0.110577 0.368330 0.074375
0.226823 0.382985 0.058668
0.321805 0.395492 0.048116
0.398614 0.407356 0.040055
0.472167 0.417439 0.035861
0.545987 0.426635 0.035338
0.616600 0.434591 0.034931
0.681066 0.441782 0.034414
0.734867 0.447616 0.033845
0.781477 0.453308 0.033372
0.821124 0.458733 0.033118
0.858201 0.464793 0.032859
0.000436 0.401781 0.106205
0.015139 0.401280 0.106127
0.029842 0.399573 0.105149
0.045104 0.400225 0.088094
0.094729 0.412801 0.062221
0.218376 0.429374 0.048158
0.315558 0.444839 0.042173
0.395825 0.458260 0.039106
0.470822 0.470071 0.036862
0.545933 0.479694 0.034524
0.617469 0.488245 0.033082
0.683001 0.496203 0.032216
0.738429 0.503133 0.031912
0.785480 0.509456 0.031663
0.826732 0.515599 0.031469
0.864032 0.521631 0.031297
0.000471 0.440017 0.104421
0.015175 0.439295 0.104185
0.029878 0.437759 0.102999
0.044741 0.441239 0.081778
0.086568 0.455069 0.056124
0.200997 0.474862 0.044145
0.305633 0.491915 0.040705
0.388886 0.507230 0.038027
0.466947 0.520594 0.035121
0.543390 0.531868 0.032459
0.616459 0.541211 0.031350
0.682595 0.549874 0.030786
0.740512 0.557977 0.030593
0.787914 0.564682 0.030490
0.830400 0.571723 0.030458
0.867910 0.578160 0.030435
0.000504 0.474867 0.103243
0.015203 0.473989 0.102861
0.029904 0.472800 0.100797
0.044668 0.480008 0.074438
0.081647 0.495872 0.050706
0.180062 0.516771 0.040927
0.292554 0.535957 0.038509
0.382498 0.553788 0.034631
0.463658 0.568749 0.032319
0.541785 0.582061 0.031106
0.616276 0.592466 0.030521
0.683267 0.601732 0.030170
0.742335 0.610353 0.029964
0.790358 0.617461 0.029925
0.834152 0.624907 0.029858
0.871849 0.631424 0.029782
0.000534 0.508332 0.104739
0.015237 0.507169 0.103227
0.029935 0.506273 0.099183
0.044656 0.516701 0.068222
0.076184 0.534510 0.045790
0.167615 0.556090 0.038210
0.277535 0.577567 0.035062
0.381194 0.597440 0.033077
0.463366 0.613985 0.031791
0.542870 0.628086 0.030813
0.618569 0.639855 0.030309
0.686237 0.650084 0.029862
0.745640 0.659253 0.029530
0.795258 0.667168 0.029450
0.839451 0.674847 0.029411
0.877677 0.681327 0.029467
0.000562 0.541672 0.111489
0.015265 0.540324 0.109325
0.029967 0.540069 0.101450
0.044882 0.552959 0.064217
0.073775 0.572449 0.044754
0.158110 0.595473 0.037956
0.277249 0.618014 0.036070
0.383121 0.638324 0.034137
0.468519 0.656643 0.031258
0.548875 0.671418 0.030423
0.625307 0.684490 0.029827
0.695150 0.695627 0.029467
0.753507 0.704905 0.029450
0.805027 0.713766 0.029452
0.847727 0.721006 0.029456
0.886745 0.727759 0.029454
0.000588 0.573672 0.120384
0.015291 0.572168 0.117607
0.029995 0.573124 0.108146
0.044732 0.589628 0.067278
0.077178 0.611194 0.047509
0.163175 0.634792 0.039282
0.295731 0.658630 0.036025
0.392066 0.679569 0.033110
0.479717 0.698307 0.031154
0.562049 0.714878 0.030246
0.638331 0.727639 0.029744
0.706967 0.738725 0.029463
0.765574 0.748205 0.029433
0.814679 0.756013 0.029413
0.857111 0.762991 0.029410
0.896585 0.769854 0.029511
0.000625 0.605853 0.135118
0.015327 0.604122 0.131410
0.030032 0.606829 0.117707
0.044893 0.626012 0.071052
0.080765 0.649662 0.050595
0.194024 0.675083 0.042033
0.307485 0.698861 0.037810
0.409161 0.720761 0.035555
0.494767 0.738801 0.032875
0.576923 0.754576 0.030666
0.653990 0.768139 0.029558
0.720678 0.779132 0.029453
0.779150 0.788824 0.029699
0.825933 0.796003 0.029768
0.869062 0.803328 0.029621
0.905476 0.808844 0.029645
0.026273 0.044089 0.107528
0.040897 0.044132 0.107765
0.055722 0.044072 0.107377
0.075052 0.044854 0.106041
0.123675 0.051249 0.108145
0.188819 0.057462 0.107867
0.259331 0.061034 0.104836
0.328984 0.060460 0.100861
0.401043 0.053509 0.098388
0.472402 0.040456 0.099126
0.542709 0.025900 0.106880
0.615680 0.018068 0.122669
0.691533 0.012695 0.158023
0.745491 0.011133 0.186686
0.785330 0.011360 0.207984
0.819614 0.011270 0.227654
0.025897 0.058955 0.108999
0.040396 0.059042 0.109840
0.055079 0.059049 0.109937
0.076716 0.060097 0.108007
0.131050 0.067301 0.110547
0.203533 0.073304 0.110737
0.277102 0.076216 0.111485
0.355666 0.072312 0.114048
0.439065 0.057723 0.121615
0.532895 0.037102 0.147192
0.609715 0.030776 0.166505
0.670889 0.027786 0.183040
0.720833 0.026285 0.199400
0.761491 0.025983 0.215536
0.795483 0.026285 0.231306
0.826843 0.025946 0.245471
0.025687 0.073752 0.109858
0.039946 0.073937 0.111631
0.054332 0.074051 0.112907
0.080728 0.076104 0.112893
0.147633 0.084414 0.119367
0.234772 0.089694 0.126346
0.328039 0.087459 0.140718
0.411684 0.074676 0.149819
0.487733 0.059835 0.159727
0.559600 0.051475 0.170556
0.623966 0.047305 0.181308
0.678561 0.044917 0.193163
0.723987 0.043546 0.204815
0.761406 0.045491 0.217012
0.793759 0.046063 0.228554
0.824014 0.046972 0.239063
0.024483 0.091604 0.107694
0.035401 0.095561 0.113715
0.047673 0.098563 0.120080
0.081550 0.104010 0.125232
0.157662 0.114371 0.129787
0.239152 0.123328 0.133249
0.313949 0.130393 0.136862
0.389803 0.133572 0.139548
0.464558 0.134494 0.142551
0.535104 0.134385 0.146199
0.598269 0.131002 0.150287
0.652284 0.127514 0.155316
0.698569 0.124658 0.160538
0.738511 0.125038 0.166549
0.773057 0.126907 0.173301
0.802944 0.129787 0.180787
0.007003 0.147008 0.134118
0.021117 0.151717 0.139429
0.035560 0.153804 0.141776
0.066935 0.153620 0.136664
0.146422 0.163211 0.135727
0.232864 0.174347 0.136671
0.308269 0.185161 0.137624
0.380345 0.194008 0.136756
0.451925 0.200089 0.135230
0.522785 0.204393 0.133376
0.587964 0.207175 0.132115
0.644336 0.208454 0.132290
0.693370 0.209103 0.132800
0.736671 0.210629 0.134999
0.773357 0.213526 0.139264
0.807806 0.217448 0.144321
0.003525 0.211550 0.156394
0.018114 0.214198 0.159344
0.032811 0.214371 0.159482
0.054046 0.211826 0.149327
0.129224 0.221618 0.143290
0.227931 0.232845 0.140761
0.307623 0.242512 0.137528
0.378855 0.251393 0.133742
0.448233 0.259097 0.130080
0.518693 0.265183 0.126788
0.585865 0.269597 0.124096
0.645319 0.272431 0.122197
0.697357 0.274671 0.120766
0.742465 0.277340 0.121718
0.780868 0.280466 0.125108
0.816267 0.284115 0.129377
0.001893 0.270374 0.175908
0.016557 0.271496 0.177272
0.031299 0.270428 0.176093
0.048562 0.266802 0.161265
0.113336 0.275494 0.150068
0.223220 0.287397 0.144827
0.308592 0.296499 0.139094
0.382024 0.304754 0.133286
0.452193 0.312153 0.128667
0.522534 0.318668 0.124340
0.591028 0.323881 0.120037
0.652503 0.327991 0.116861
0.705744 0.331618 0.115428
0.751481 0.335026 0.115684
0.790240 0.338416 0.118101
0.826195 0.342269 0.120843
0.000691 0.322820 0.190176
0.015388 0.323015 0.190620
0.030120 0.321261 0.188186
0.045557 0.316407 0.169326
0.103049 0.324398 0.154937
0.212191 0.337386 0.146593
0.307689 0.347444 0.140541
0.383684 0.355563 0.133876
