example_ofxGpuLutCube/bin/data/ofxGpuLutCube/LUT/C25 (smooth green fade).cube
LUT_3D_SIZE 16
0.032480 0.035311 0.035845
0.062688 0.036427 0.037462
0.109244 0.036763 0.037448
0.185737 0.033682 0.034601
0.283938 0.027512 0.030195
0.399459 0.019112 0.024369
0.516023 0.010456 0.021138
0.627923 0.003100 0.022595
0.727024 0.000081 0.024981
0.806879 0.000000 0.031550
0.850010 0.000000 0.037554
0.873727 0.000000 0.042148
0.892196 0.000000 0.046827
0.907581 0.000000 0.050559
0.920937 0.000000 0.053369
0.932166 0.000201 0.055677
0.022746 0.065233 0.037682
0.055700 0.067273 0.038976
0.107958 0.068988 0.040167
0.186148 0.069871 0.038611
0.280167 0.067875 0.035441
0.385191 0.061561 0.028914
0.491830 0.050965 0.024792
0.594521 0.041300 0.023087
0.693094 0.032073 0.024574
0.770774 0.026052 0.027825
0.831082 0.020463 0.032589
0.848605 0.019482 0.038046
0.854403 0.021834 0.043216
0.861263 0.024332 0.047330
0.870098 0.027187 0.050289
0.877424 0.030195 0.052376
0.010705 0.106903 0.033766
0.038127 0.109302 0.036591
0.096746 0.114768 0.038607
0.183019 0.118924 0.037639
0.281883 0.123090 0.032439
0.387947 0.125361 0.024666
0.492394 0.124622 0.019685
0.589454 0.119929 0.017998
0.673112 0.110845 0.016965
0.734605 0.102650 0.018234
0.763838 0.101201 0.025552
0.777967 0.103274 0.033802
0.793616 0.104117 0.039934
0.810245 0.106072 0.044241
0.824057 0.109007 0.047351
0.831864 0.113415 0.050114
0.005861 0.171587 0.027622
0.017479 0.174651 0.027859
0.068574 0.179321 0.028001
0.167462 0.188801 0.023854
0.273882 0.197506 0.016971
0.383759 0.204484 0.012365
0.491098 0.209278 0.010499
0.592372 0.211231 0.010201
0.680434 0.210877 0.010177
0.746762 0.211383 0.010318
0.787080 0.216358 0.011529
0.810704 0.223512 0.014426
0.829787 0.226791 0.018593
0.845324 0.229873 0.021972
0.857437 0.234233 0.024287
0.863759 0.239700 0.026098
0.004616 0.249127 0.026030
0.011245 0.252057 0.025298
0.040606 0.253290 0.021839
0.141946 0.264369 0.012889
0.260527 0.276974 0.006995
0.377542 0.287112 0.005608
0.489698 0.294047 0.005231
0.596915 0.298760 0.005576
0.690054 0.301621 0.006163
0.762341 0.305178 0.007179
0.810774 0.310940 0.008368
0.839493 0.319236 0.009385
0.859930 0.324775 0.011043
0.876257 0.329896 0.012267
0.889132 0.335549 0.013271
0.896294 0.342967 0.014079
0.003789 0.326290 0.023796
0.009954 0.327717 0.021962
0.025244 0.328443 0.016896
0.107911 0.337497 0.007228
0.237811 0.355333 0.003770
0.367810 0.369821 0.002973
0.488278 0.379878 0.002592
0.600638 0.386386 0.002411
0.698467 0.391502 0.002816
0.775654 0.395479 0.003995
0.828725 0.400674 0.005665
0.861249 0.407728 0.007272
0.882088 0.414052 0.008816
0.899280 0.419475 0.009833
0.912263 0.425454 0.010593
0.919911 0.432883 0.011310
0.002972 0.397308 0.020028
0.008666 0.398584 0.016571
0.018304 0.400776 0.009603
0.076754 0.407441 0.004728
0.201001 0.429044 0.003545
0.348945 0.449969 0.002455
0.482529 0.464280 0.001746
0.603510 0.473968 0.001353
0.707030 0.480401 0.001410
0.789040 0.484806 0.002240
0.846605 0.489297 0.003695
0.883018 0.494830 0.005288
0.905727 0.501386 0.006713
0.922404 0.506626 0.007690
0.935332 0.512110 0.008517
0.943572 0.518615 0.009628
0.002383 0.461774 0.017992
0.007952 0.463288 0.012527
0.014961 0.466921 0.005186
0.055367 0.473908 0.003844
0.155219 0.493364 0.003691
0.312017 0.519930 0.002556
0.467037 0.540712 0.001590
0.601122 0.555318 0.001047
0.713262 0.564435 0.001137
0.801101 0.570986 0.001900
0.864442 0.575949 0.003086
0.905123 0.580037 0.004380
0.930360 0.585110 0.005544
0.947620 0.590076 0.006777
0.959819 0.595270 0.007779
0.967623 0.601223 0.008685
0.002326 0.516307 0.015687
0.007797 0.518415 0.008342
0.013827 0.523166 0.003694
0.045331 0.530664 0.003084
0.117974 0.545655 0.004356
0.258495 0.574304 0.004423
0.434648 0.603743 0.003319
0.588455 0.623885 0.002393
0.712874 0.636596 0.002143
0.808054 0.644969 0.002438
0.877790 0.651595 0.003181
0.922528 0.656027 0.004221
0.948039 0.660522 0.005549
0.964964 0.666030 0.006750
0.975038 0.670236 0.007702
0.981552 0.675677 0.008539
0.003637 0.559369 0.014237
0.009019 0.562363 0.007159
0.014356 0.569075 0.003454
0.041648 0.577165 0.003119
0.100334 0.590037 0.006072
0.206749 0.615394 0.008418
0.391154 0.650825 0.007066
0.573519 0.680197 0.005253
0.711077 0.696749 0.004499
0.815156 0.707297 0.004472
0.889508 0.714867 0.005076
0.934141 0.719395 0.006023
0.955648 0.724268 0.007119
0.968966 0.729725 0.008080
0.978677 0.733415 0.008767
0.985123 0.736785 0.009195
0.006374 0.586094 0.018221
0.011214 0.589864 0.011237
0.016788 0.597629 0.007293
0.043361 0.607511 0.006913
0.097861 0.619413 0.009669
0.186797 0.638671 0.012850
0.364869 0.679205 0.011448
0.568609 0.716261 0.008655
0.715480 0.737261 0.007418
0.826151 0.750627 0.007102
0.901993 0.759592 0.007348
0.943325 0.765464 0.007880
0.959842 0.769303 0.008558
0.971834 0.772477 0.009121
0.981336 0.774531 0.009672
0.988369 0.776079 0.010687
0.009384 0.588462 0.026092
0.014287 0.593486 0.019477
0.019458 0.602139 0.014608
0.047947 0.613262 0.012934
0.103073 0.623923 0.014528
0.180884 0.644330 0.017498
0.359817 0.690844 0.014913
0.579513 0.734556 0.011327
0.733266 0.760137 0.009614
0.843310 0.777084 0.008968
0.913728 0.787398 0.009062
0.947853 0.793196 0.009605
0.962164 0.796647 0.010564
0.974616 0.798411 0.011653
0.984104 0.799259 0.012642
0.991289 0.798804 0.013480
0.010869 0.596758 0.033289
0.015803 0.601127 0.026544
0.021791 0.609486 0.019463
0.052083 0.620210 0.015708
0.108182 0.631181 0.017507
0.195904 0.651609 0.019283
0.386208 0.701681 0.016120
0.600624 0.748829 0.012597
0.751534 0.774910 0.011027
0.855886 0.792463 0.010639
0.920698 0.803235 0.010912
0.950567 0.809077 0.011612
0.964571 0.812202 0.012416
0.977039 0.813836 0.013153
0.986823 0.813719 0.013734
0.993110 0.813805 0.014149
0.011034 0.608231 0.039500
0.015634 0.612600 0.034074
0.023329 0.620682 0.026847
0.059279 0.631664 0.021827
0.114104 0.641972 0.020737
0.222084 0.665291 0.019808
0.422411 0.720384 0.016062
0.628752 0.763880 0.012751
0.767539 0.787846 0.011387
0.867239 0.804923 0.010973
0.926556 0.814907 0.011156
0.953422 0.820790 0.011637
0.967132 0.823618 0.012133
0.979348 0.825065 0.012533
0.988811 0.824916 0.012837
0.993299 0.825375 0.013067
0.011019 0.617113 0.045825
0.015525 0.621752 0.042539
0.028244 0.630258 0.036914
0.066373 0.640634 0.031142
0.126802 0.650393 0.027583
0.250131 0.682380 0.022411
0.460115 0.737400 0.017078
0.654062 0.775385 0.013957
0.786160 0.799234 0.012257
0.879450 0.815093 0.011575
0.932994 0.823713 0.011681
0.956345 0.829287 0.012406
0.969643 0.832652 0.013102
0.981956 0.833538 0.013604
0.989645 0.833549 0.013752
0.993299 0.834486 0.013463
0.011263 0.619704 0.057333
0.015452 0.626294 0.054686
0.032379 0.635813 0.050877
0.074437 0.646535 0.047567
0.148176 0.658668 0.045485
0.284364 0.698378 0.039335
0.498831 0.749506 0.030876
0.681851 0.783988 0.025556
0.807101 0.806916 0.022342
0.891780 0.821290 0.019370
0.937204 0.829454 0.018452
0.958690 0.836260 0.018701
0.972531 0.839653 0.018321
0.984288 0.841264 0.017016
0.989773 0.841770 0.015908
0.993327 0.842649 0.015241
0.031079 0.032980 0.063392
0.062625 0.032838 0.065545
0.112183 0.032877 0.064486
0.191738 0.029201 0.061799
0.293372 0.023332 0.058942
0.409376 0.015044 0.057208
0.524231 0.005459 0.057356
0.631981 0.000118 0.059328
0.730539 0.000000 0.067173
0.808007 0.000000 0.075009
0.850012 0.000000 0.082091
0.873410 0.000000 0.087795
0.891526 0.000000 0.093741
0.906352 0.000000 0.099836
0.919272 0.000000 0.106339
0.929722 0.000000 0.111123
0.021440 0.063255 0.066503
0.053369 0.065083 0.067970
0.108878 0.067677 0.068457
0.189508 0.067605 0.067699
0.284605 0.065130 0.067155
0.389874 0.057658 0.065605
0.495959 0.046743 0.063528
0.600473 0.035067 0.062656
0.695683 0.024067 0.063982
0.781828 0.015429 0.066791
0.833793 0.010979 0.071210
0.842446 0.013568 0.079446
0.851658 0.016145 0.086799
0.870087 0.017402 0.091993
0.889758 0.018744 0.095274
0.900346 0.019211 0.098104
0.012067 0.106123 0.064013
0.034945 0.108892 0.066118
0.094560 0.115258 0.068310
0.186028 0.119457 0.069482
0.286226 0.124007 0.069967
0.392288 0.125860 0.068519
0.495778 0.123529 0.065961
0.590933 0.116849 0.064219
0.672354 0.105552 0.064244
0.732397 0.097797 0.067269
0.759535 0.095390 0.076869
0.773180 0.094893 0.086097
0.791342 0.092400 0.091580
0.812569 0.092837 0.095913
0.828825 0.095311 0.099794
0.834927 0.099894 0.103865
0.007405 0.170773 0.056892
0.017068 0.174301 0.057557
0.063144 0.180577 0.061630
0.168628 0.191680 0.062041
0.279065 0.201057 0.060049
0.390097 0.207924 0.056099
0.497109 0.211091 0.051251
0.596520 0.212224 0.047478
0.682459 0.211503 0.044941
0.746661 0.211301 0.045595
0.786435 0.214998 0.052376
0.811959 0.220470 0.060811
0.830255 0.222921 0.066624
0.845134 0.226528 0.071884
0.856579 0.231080 0.076912
0.861949 0.240996 0.081101
0.005403 0.248663 0.050469
0.011764 0.251681 0.049909
0.034851 0.253476 0.050516
0.140664 0.266798 0.048197
0.264071 0.280344 0.042901
0.383912 0.290293 0.038829
0.498388 0.297364 0.035119
0.604730 0.301941 0.031233
0.696597 0.304766 0.028514
0.767356 0.308352 0.027931
0.814797 0.314527 0.028659
0.844838 0.322764 0.032890
0.864697 0.327316 0.038781
0.879975 0.331889 0.044395
0.891944 0.337858 0.049270
0.897940 0.346613 0.052681
0.004035 0.325953 0.042452
0.009710 0.327746 0.041349
0.021646 0.329291 0.039868
0.104635 0.338958 0.035771
0.238266 0.357150 0.030738
0.370990 0.372143 0.027070
0.494720 0.382687 0.023726
0.608511 0.390131 0.020893
0.706404 0.395344 0.020083
0.783605 0.399757 0.020567
0.836423 0.406055 0.021861
0.870054 0.414577 0.024919
0.891718 0.421262 0.028476
0.907913 0.426872 0.031923
0.920335 0.432946 0.034769
0.927607 0.440708 0.036650
0.003079 0.398156 0.037148
0.008649 0.399541 0.035815
0.016150 0.401565 0.032694
0.070745 0.407742 0.027966
0.198447 0.429117 0.024561
0.348835 0.450082 0.020096
0.484655 0.464992 0.017190
0.606454 0.474962 0.015390
0.711351 0.482452 0.015999
0.794501 0.487700 0.017657
0.852419 0.493077 0.019382
0.890132 0.500335 0.021923
0.914413 0.508088 0.024596
0.931301 0.514379 0.026920
0.943696 0.519944 0.028361
0.952089 0.526934 0.029597
0.002497 0.462472 0.036066
0.008048 0.464314 0.033950
0.013761 0.467605 0.029569
0.048450 0.473064 0.023633
0.150856 0.492748 0.019422
0.309200 0.519197 0.015998
0.465661 0.540803 0.013758
0.601254 0.555478 0.013395
0.715228 0.564909 0.013752
0.804381 0.571931 0.015340
0.867938 0.577124 0.017608
0.908987 0.581666 0.020265
0.934389 0.587182 0.023040
0.951109 0.592242 0.025118
0.962506 0.597176 0.027196
0.971261 0.603836 0.028613
0.002514 0.517147 0.036575
0.007596 0.519587 0.034027
0.013116 0.523917 0.027800
0.038339 0.529873 0.020260
0.112148 0.544735 0.016650
0.253899 0.573620 0.015551
0.431906 0.603833 0.013507
0.587642 0.624068 0.012858
0.713685 0.636933 0.013291
0.810204 0.646069 0.014626
0.880296 0.652234 0.016769
0.924839 0.656746 0.019458
0.950449 0.661393 0.021878
0.966771 0.667319 0.024437
0.977386 0.672823 0.026761
0.984887 0.678958 0.028816
0.003848 0.560534 0.038209
0.008805 0.563722 0.035112
0.013572 0.569989 0.027691
0.033436 0.577242 0.018718
0.093688 0.589662 0.017039
0.202133 0.614886 0.017790
0.388552 0.651181 0.016260
0.571769 0.679966 0.014688
0.710159 0.697055 0.014610
0.816240 0.708803 0.015635
0.891253 0.715982 0.017373
0.935966 0.720522 0.019322
0.958703 0.725726 0.021965
0.972076 0.731576 0.025051
0.981946 0.735293 0.027720
0.988970 0.739405 0.030453
0.006518 0.587098 0.044668
0.011464 0.591044 0.040750
0.015891 0.598240 0.032545
0.034036 0.606859 0.023827
0.089885 0.618081 0.020173
0.182310 0.637458 0.021520
0.361332 0.678502 0.019490
0.566192 0.715677 0.016903
0.715166 0.737182 0.016421
0.827651 0.751205 0.017143
0.904097 0.760054 0.018812
0.945457 0.766010 0.021890
0.963161 0.770137 0.025495
0.975395 0.773521 0.028868
0.984892 0.775852 0.031725
0.992213 0.779092 0.034513
0.009649 0.589572 0.054060
0.014505 0.594549 0.050201
0.018829 0.602875 0.042283
0.039016 0.612556 0.034612
0.094906 0.622682 0.028744
0.176419 0.643015 0.029739
0.356634 0.689723 0.025857
0.576997 0.733418 0.022584
0.732393 0.759505 0.022161
0.844400 0.776655 0.023317
0.915422 0.787326 0.025688
0.950406 0.793419 0.028748
0.966285 0.797305 0.031969
0.978489 0.799437 0.034517
0.987853 0.800539 0.037230
0.993707 0.802484 0.039644
0.011330 0.597908 0.063152
0.015835 0.602530 0.059277
0.021236 0.610519 0.053087
0.045293 0.620319 0.047696
0.100230 0.630695 0.044399
0.190757 0.650018 0.042590
0.382333 0.700076 0.034509
0.597239 0.747521 0.028975
0.749925 0.773760 0.028567
0.856039 0.791826 0.029549
0.922080 0.802706 0.031522
0.953134 0.809046 0.034237
0.969133 0.812835 0.036902
0.981183 0.814381 0.039785
0.989748 0.814999 0.042387
0.993768 0.816112 0.044427
0.011661 0.609191 0.070779
0.016152 0.614006 0.066745
0.022229 0.622205 0.063518
0.052125 0.632384 0.060540
0.107302 0.642537 0.059452
0.217446 0.665318 0.056800
0.417994 0.719434 0.047652
0.625069 0.762365 0.040140
0.766299 0.787493 0.039788
0.867449 0.804250 0.040614
0.927915 0.814472 0.042367
0.956101 0.820540 0.044873
0.971800 0.824126 0.047351
0.983695 0.826018 0.049430
0.990254 0.826998 0.050717
0.993860 0.827912 0.052371
0.011904 0.618178 0.087567
0.016329 0.623284 0.084089
0.024170 0.632001 0.080790
0.058453 0.642752 0.079163
0.119994 0.652526 0.078370
0.242946 0.684102 0.075835
0.454714 0.738255 0.069740
0.650522 0.775989 0.063825
0.784845 0.799563 0.059990
0.880291 0.815541 0.058724
0.934581 0.824251 0.059506
0.958956 0.830394 0.061529
0.974114 0.834671 0.063313
0.985664 0.836218 0.064296
0.990447 0.837112 0.065022
0.994020 0.837995 0.065275
0.012197 0.621380 0.110736
0.016157 0.628365 0.107195
0.025191 0.637947 0.101167
0.066824 0.649104 0.098741
0.138817 0.661588 0.096832
0.273190 0.700548 0.093860
0.491283 0.752705 0.088685
0.677566 0.787840 0.085006
0.804786 0.810539 0.082431
0.890938 0.825771 0.079989
0.938138 0.834525 0.079529
0.960866 0.840978 0.080271
0.975586 0.844800 0.080286
0.986522 0.846129 0.078841
0.990599 0.847072 0.077701
0.994170 0.847572 0.077724
0.027510 0.024340 0.108567
0.060652 0.024056 0.115733
0.115617 0.022655 0.116374
0.200949 0.019989 0.114070
0.306020 0.016051 0.114143
0.420458 0.010893 0.115757
0.532765 0.004035 0.118610
0.637351 0.000070 0.123465
0.732917 0.000000 0.130326
0.808631 0.000000 0.137438
0.849923 0.000000 0.144149
0.873181 0.000000 0.151353
0.891263 0.000000 0.159059
0.906339 0.000000 0.168029
0.919563 0.000000 0.176810
0.929612 0.000000 0.183344
0.018692 0.057076 0.112687
0.048173 0.058773 0.115873
0.106031 0.060051 0.118469
0.191116 0.059189 0.116215
0.289056 0.054892 0.115974
0.397279 0.048170 0.116786
0.507157 0.039708 0.119003
0.612342 0.029065 0.122697
0.710748 0.019661 0.126384
0.796049 0.011815 0.131304
0.831871 0.010112 0.140247
0.851779 0.011535 0.149193
0.873469 0.011988 0.154848
0.893048 0.012549 0.160038
0.902853 0.013314 0.165331
0.901966 0.014225 0.171472
0.012964 0.102620 0.111364
0.032308 0.105256 0.113829
0.088476 0.111708 0.118061
0.186944 0.116890 0.120683
0.288622 0.121011 0.122905
0.394677 0.121583 0.125841
0.496815 0.118270 0.128298
0.591184 0.109930 0.130578
0.672763 0.098451 0.133843
0.731172 0.090291 0.139267
0.758983 0.083857 0.149720
0.782603 0.077491 0.157785
0.806407 0.073634 0.162715
0.823562 0.076405 0.167660
0.830932 0.083039 0.173409
0.830541 0.089674 0.180083
0.010698 0.168937 0.108705
0.018856 0.172440 0.109957
0.054296 0.179197 0.114097
0.163233 0.192345 0.117500
0.280248 0.202196 0.120887
0.392213 0.208592 0.123260
0.498830 0.211543 0.124415
0.597611 0.211623 0.125044
0.682083 0.209788 0.127083
0.744660 0.208973 0.132086
0.784229 0.211817 0.142713
0.810930 0.215417 0.152815
0.828815 0.217691 0.158615
0.843191 0.221668 0.163923
0.854517 0.227510 0.170064
0.859645 0.236888 0.176429
0.008675 0.246243 0.107805
0.014598 0.249408 0.107895
0.031152 0.251294 0.108840
0.129870 0.267163 0.112876
0.262191 0.283134 0.112542
0.386841 0.293740 0.112166
0.503041 0.301058 0.110837
0.609300 0.305134 0.108989
0.699802 0.307343 0.110135
0.768670 0.310718 0.114196
0.815959 0.317280 0.122502
0.846993 0.324548 0.133417
0.866519 0.329276 0.141432
0.880883 0.334066 0.148167
0.892202 0.339977 0.154391
0.899239 0.348689 0.161299
0.006928 0.321674 0.104425
0.012475 0.323372 0.102920
0.020760 0.325397 0.101317
0.092342 0.338260 0.104252
0.232647 0.361126 0.100990
0.374375 0.377578 0.096295
0.502638 0.388783 0.093296
0.617926 0.396716 0.090431
0.715187 0.401577 0.088526
0.790200 0.406847 0.089956
0.842081 0.414132 0.095396
0.875780 0.422241 0.104523
0.896695 0.428808 0.112805
0.911841 0.434445 0.119282
0.923685 0.440985 0.125974
0.931958 0.449697 0.134441
0.005168 0.394093 0.096255
0.010694 0.395254 0.094417
0.016492 0.398233 0.091463
0.059645 0.406184 0.092223
0.188951 0.431988 0.089121
0.349139 0.455654 0.082615
0.492569 0.472230 0.077448
0.618474 0.483616 0.072662
0.724660 0.490847 0.067530
0.806677 0.497697 0.065316
0.863503 0.505179 0.068217
0.899850 0.513166 0.074278
0.922384 0.520742 0.080976
0.938115 0.527324 0.090918
0.950011 0.533890 0.100343
0.958682 0.542377 0.109290
0.003731 0.459989 0.085218
0.008839 0.461879 0.084576
0.014331 0.465752 0.081597
0.040234 0.471542 0.080464
0.140590 0.492639 0.079500
0.303918 0.521922 0.072133
0.468186 0.544637 0.065707
0.608975 0.559476 0.059936
0.725116 0.569787 0.054996
0.814691 0.577463 0.053575
0.877413 0.584898 0.055385
0.916732 0.592987 0.061149
0.940263 0.601095 0.069968
0.956369 0.608514 0.079005
0.967840 0.615461 0.087266
0.977067 0.624270 0.095184
0.003254 0.517920 0.077563
0.008319 0.519575 0.076820
0.013104 0.524539 0.074287
0.030433 0.530704 0.071839
0.101715 0.544969 0.071854
0.245860 0.574653 0.067739
0.428539 0.604966 0.059737
0.588250 0.624978 0.050499
0.716462 0.638586 0.047032
0.814218 0.647831 0.046913
0.883791 0.655297 0.049479
0.926727 0.662695 0.053383
0.950167 0.671016 0.058638
0.965767 0.679557 0.064047
0.976980 0.686610 0.070299
0.985367 0.693911 0.076719
0.004532 0.562719 0.080623
0.009499 0.566360 0.079064
0.013940 0.572161 0.076286
0.026226 0.579108 0.072448
0.083226 0.590371 0.070897
0.193020 0.614774 0.067182
0.381209 0.650949 0.056382
0.568293 0.679805 0.048409
0.710268 0.697787 0.047011
0.817929 0.709653 0.046877
0.892092 0.718082 0.048530
0.934992 0.724658 0.053500
0.957169 0.732064 0.059402
0.971671 0.739276 0.065018
0.982466 0.744656 0.069996
0.990151 0.750100 0.074677
0.007155 0.590051 0.089628
0.011996 0.593987 0.087794
0.016033 0.601308 0.084379
0.028176 0.609614 0.080157
0.079098 0.619999 0.076653
0.173900 0.638184 0.073000
0.352456 0.678183 0.064111
0.561150 0.716031 0.057474
0.712885 0.737934 0.054972
0.826316 0.752083 0.052694
0.902595 0.761217 0.055392
0.943315 0.768254 0.060235
0.962213 0.773943 0.065530
0.976238 0.778733 0.070980
0.986187 0.782836 0.076961
0.993050 0.787332 0.083332
0.010352 0.592843 0.105348
0.014850 0.597659 0.104014
0.019296 0.606043 0.101106
0.033167 0.615623 0.096863
0.084275 0.625665 0.092290
0.168311 0.644383 0.089729
0.347809 0.690470 0.080757
0.569789 0.735048 0.073798
0.728180 0.761440 0.069482
0.840947 0.778600 0.065291
0.912678 0.790070 0.067551
0.948593 0.797736 0.073258
0.966266 0.804483 0.079941
0.979679 0.809288 0.087104
0.989244 0.812603 0.094188
0.994177 0.815988 0.100409
0.012023 0.600572 0.118514
0.016543 0.605139 0.118232
0.020963 0.613349 0.115876
0.037210 0.622746 0.112283
0.087612 0.632931 0.108628
0.181497 0.650594 0.105748
0.373392 0.701763 0.098020
0.591277 0.751472 0.092167
0.747782 0.779804 0.089119
0.855010 0.798599 0.087532
0.920960 0.810555 0.090128
0.952456 0.818461 0.095497
0.969494 0.823792 0.101642
0.982455 0.827886 0.107713
0.990565 0.829905 0.112924
0.994285 0.831666 0.117174
0.012555 0.611862 0.137216
0.017034 0.616711 0.136701
0.021211 0.625192 0.133553
0.043070 0.634940 0.129426
0.094023 0.645104 0.125758
0.206812 0.667876 0.122119
0.406816 0.723533 0.117978
0.619915 0.768945 0.113951
0.764587 0.795188 0.112260
0.866837 0.813164 0.111937
0.927408 0.823866 0.114113
0.956062 0.831149 0.117980
0.972391 0.836652 0.122305
0.984926 0.839626 0.126205
0.990871 0.840853 0.129040
0.994466 0.841623 0.131159
0.012944 0.620454 0.162571
0.016962 0.625670 0.161702
0.021997 0.634314 0.157518
0.050414 0.645037 0.152340
0.106166 0.655232 0.147212
0.225668 0.687047 0.144431
0.440474 0.743602 0.140653
0.643282 0.783815 0.135864
0.780814 0.808469 0.132918
0.877373 0.825017 0.132421
0.932748 0.834848 0.134186
0.958462 0.841816 0.137354
0.974415 0.846790 0.140543
0.986620 0.848923 0.142985
0.991008 0.849525 0.143873
0.994601 0.849254 0.143286
0.014324 0.623567 0.203977
0.017749 0.630326 0.202795
0.023841 0.639869 0.198738
0.060757 0.651312 0.193093
0.122482 0.664637 0.185556
0.250695 0.706710 0.181857
0.472833 0.764296 0.172730
0.668467 0.802940 0.161151
0.800174 0.825834 0.154457
0.888279 0.840702 0.151983
0.936071 0.849020 0.152480
0.959778 0.854770 0.154126
0.975918 0.858502 0.155238
0.986931 0.859671 0.155669
0.991088 0.859624 0.154408
0.994672 0.859400 0.152221
0.019552 0.013700 0.178117
0.054570 0.014079 0.189916
0.113876 0.014155 0.196482
0.203958 0.013639 0.196014
0.309686 0.012325 0.196461
0.423680 0.008394 0.198642
0.534042 0.001992 0.202358
0.638547 0.000019 0.207718
0.732952 0.000000 0.214400
0.807861 0.000000 0.221868
0.848233 0.000000 0.229381
0.870662 0.000000 0.239174
0.887955 0.000000 0.248978
0.902371 0.000000 0.258919
0.914878 0.000000 0.268289
0.924705 0.000000 0.275715
0.014692 0.041115 0.189746
0.043786 0.041948 0.195256
0.103575 0.041478 0.199229
0.196429 0.039787 0.197357
0.301745 0.038171 0.197644
0.416260 0.034676 0.200816
0.526970 0.028920 0.204660
0.631859 0.022673 0.210258
0.727809 0.016164 0.217530
0.800873 0.010245 0.225036
0.839479 0.008748 0.232299
0.861295 0.009351 0.239797
0.876577 0.010199 0.247447
0.887712 0.011281 0.254403
0.895615 0.012603 0.260958
0.893472 0.013229 0.268522
0.012250 0.092594 0.180924
0.028361 0.095263 0.183693
0.076586 0.100728 0.190805
0.179832 0.104475 0.198305
0.286655 0.107346 0.200426
0.394610 0.106844 0.203376
0.497895 0.102148 0.207097
0.593959 0.093793 0.211185
0.677355 0.083529 0.215097
0.741657 0.071511 0.220946
0.777250 0.062314 0.230648
0.794346 0.059300 0.238985
0.805786 0.060911 0.245324
0.814776 0.066747 0.251539
0.825582 0.073344 0.258091
0.832437 0.078982 0.266385
0.013488 0.163682 0.179047
0.021101 0.167835 0.182267
0.047009 0.173997 0.186325
0.151710 0.187545 0.195379
0.276969 0.197567 0.200908
0.390664 0.203440 0.205112
0.497678 0.206418 0.208898
0.595456 0.206050 0.212530
0.678624 0.202793 0.217196
0.740356 0.200519 0.224972
0.779787 0.202042 0.236822
0.806483 0.205910 0.247338
0.824449 0.209591 0.253868
0.838243 0.213810 0.260263
0.849349 0.218662 0.267441
0.855864 0.228001 0.276210
0.013990 0.241966 0.185664
0.019755 0.244750 0.186456
0.031648 0.247844 0.186045
0.111331 0.263872 0.192595
0.250699 0.283070 0.197360
0.383530 0.293506 0.202788
0.502012 0.300732 0.207346
0.608375 0.305156 0.211035
0.698196 0.307499 0.215846
0.767106 0.311806 0.223532
0.814974 0.318338 0.234871
0.846365 0.325722 0.246916
0.865417 0.330409 0.254988
0.879752 0.334861 0.261538
0.890533 0.340757 0.268749
0.898106 0.349132 0.276856
0.012977 0.317586 0.190626
0.018457 0.319480 0.189460
0.025124 0.322026 0.186890
0.077444 0.335032 0.191418
0.212470 0.362366 0.197071
0.366302 0.380766 0.198611
0.500920 0.392540 0.201374
0.618427 0.400490 0.204065
0.716146 0.406586 0.207662
0.790865 0.412452 0.214626
0.842772 0.420006 0.225621
0.876096 0.428417 0.238990
0.896591 0.434649 0.248937
0.911741 0.440290 0.256626
0.923000 0.447057 0.264341
0.931915 0.455665 0.273357
0.011203 0.389249 0.192729
0.016468 0.390845 0.190578
0.021408 0.393897 0.187109
0.051354 0.402119 0.187075
0.166798 0.432687 0.193875
0.336000 0.461015 0.191506
0.490422 0.479481 0.190058
0.621667 0.491501 0.190462
0.729163 0.500133 0.192057
0.810208 0.507257 0.197667
0.865461 0.515780 0.209047
0.901080 0.524383 0.223647
0.923167 0.532402 0.236154
0.938751 0.538720 0.246016
0.950337 0.545939 0.256067
0.959600 0.553791 0.267046
0.009231 0.454288 0.190057
0.014173 0.456253 0.187983
0.018986 0.460177 0.184249
0.036602 0.466357 0.181440
0.121883 0.490155 0.185410
0.285484 0.526513 0.182393
0.464121 0.553390 0.175751
0.613645 0.570208 0.171251
