example_ofxGpuLutCube/bin/data/ofxGpuLutCube/LUT/C25 (smooth green fade).cube
LUT_3D_SIZE 6
0.032480 0.035311 0.035845
0.185737 0.033682 0.034601
0.516023 0.010456 0.021138
0.806879 0.000000 0.031550
0.892196 0.000000 0.046827
0.932166 0.000201 0.055677
0.005861 0.171587 0.027622
0.167462 0.188801 0.023854
0.491098 0.209278 0.010499
0.746762 0.211383 0.010318
0.829787 0.226791 0.018593
0.863759 0.239700 0.026098
0.002972 0.397308 0.020028
0.076754 0.407441 0.004728
0.482529 0.464280 0.001746
0.789040 0.484806 0.002240
0.905727 0.501386 0.006713
0.943572 0.518615 0.009628
0.003637 0.559369 0.014237
0.041648 0.577165 0.003119
0.391154 0.650825 0.007066
0.815156 0.707297 0.004472
0.955648 0.724268 0.007119
0.985123 0.736785 0.009195
0.010869 0.596758 0.033289
0.052083 0.620210 0.015708
0.386208 0.701681 0.016120
0.855886 0.792463 0.010639
0.964571 0.812202 0.012416
0.993110 0.813805 0.014149
0.011263 0.619704 0.057333
0.074437 0.646535 0.047567
0.498831 0.749506 0.030876
0.891780 0.821290 0.019370
0.972531 0.839653 0.018321
0.993327 0.842649 0.015241
0.019552 0.013700 0.178117
0.203958 0.013639 0.196014
0.534042 0.001992 0.202358
0.807861 0.000000 0.221868
0.887955 0.000000 0.248978
0.924705 0.000000 0.275715
0.013488 0.163682 0.179047
0.151710 0.187545 0.195379
0.497678 0.206418 0.208898
0.740356 0.200519 0.224972
0.824449 0.209591 0.253868
0.855864 0.228001 0.276210
0.011203 0.389249 0.192729
0.051354 0.402119 0.187075
0.490422 0.479481 0.190058
0.810208 0.507257 0.197667
0.923167 0.532402 0.236154
0.959600 0.553791 0.267046
0.007693 0.557535 0.177218
0.024689 0.574452 0.168826
0.367029 0.656349 0.157017
0.828365 0.725700 0.138410
0.956162 0.757936 0.163938
0.990815 0.779683 0.205072
0.015658 0.601274 0.225598
0.035583 0.623368 0.227701
0.340862 0.715110 0.225398
0.855242 0.829848 0.214251
0.968818 0.858165 0.248162
0.994288 0.868682 0.284966
0.025766 0.624237 0.355140
0.063964 0.653684 0.346351
0.438280 0.794056 0.345594
0.884341 0.881097 0.310982
0.974160 0.899999 0.317492
0.994387 0.903288 0.320991
0.007270 0.004532 0.453089
0.182334 0.003086 0.475295
0.530283 0.000000 0.488664
0.805226 0.000000 0.499964
0.846920 0.000000 0.500631
0.860083 0.000000 0.505403
0.010294 0.120414 0.422445
0.109729 0.139336 0.435423
0.479338 0.146287 0.460751
0.729340 0.128167 0.461863
0.796215 0.137863 0.468518
0.831465 0.153569 0.489375
0.023423 0.380670 0.419900
0.046639 0.392626 0.421220
0.450729 0.481643 0.476459
0.797503 0.514102 0.496763
0.911689 0.538920 0.526393
0.949065 0.562503 0.549266
0.027662 0.557795 0.449469
0.040332 0.575876 0.446506
0.286776 0.671434 0.486057
0.807033 0.767300 0.508555
0.952862 0.798793 0.549435
0.989498 0.818407 0.585244
0.037658 0.616228 0.517619
0.049484 0.640344 0.519544
0.286560 0.748994 0.561315
0.819064 0.885405 0.595725
0.963376 0.910991 0.622554
0.993980 0.920400 0.651586
0.040670 0.642105 0.576944
0.064074 0.674463 0.580248
0.350376 0.824345 0.641429
0.848909 0.930163 0.662876
0.967776 0.950622 0.676233
0.993963 0.956568 0.691928
0.005910 0.003241 0.714443
0.137288 0.002674 0.726642
0.517263 0.000000 0.746459
0.779504 0.000000 0.730068
0.710990 0.000000 0.601121
0.740703 0.000000 0.603747
0.006744 0.057762 0.716424
0.097433 0.073805 0.726528
0.488949 0.075813 0.743118
0.774263 0.072612 0.731458
0.712162 0.074866 0.592564
0.744778 0.082022 0.602673
0.021899 0.351875 0.595379
0.038392 0.361760 0.600536
0.376374 0.450347 0.670564
0.764011 0.478692 0.715407
0.889807 0.507610 0.736653
0.928540 0.533819 0.752551
0.032383 0.556340 0.625187
0.044456 0.575288 0.629193
0.232113 0.667422 0.684027
0.771027 0.777243 0.747734
0.943803 0.807774 0.773739
0.985529 0.827720 0.796603
0.040867 0.632977 0.665214
0.051788 0.658319 0.672206
0.224252 0.760875 0.727148
0.778188 0.905411 0.798635
0.954276 0.931649 0.817312
0.993239 0.941545 0.834603
0.044980 0.662229 0.698789
0.056638 0.697262 0.708433
0.299686 0.824971 0.780534
0.813004 0.951324 0.844165
0.959135 0.973659 0.855774
0.993441 0.979564 0.863775
0.005346 0.002718 0.848384
0.108299 0.002693 0.856728
0.502573 0.000000 0.859604
0.635992 0.000000 0.697690
0.717194 0.000000 0.703992
0.709536 0.000000 0.670207
0.006485 0.054758 0.841228
0.069922 0.075223 0.844478
0.470697 0.077824 0.860751
0.667222 0.077125 0.743897
0.708996 0.077523 0.686147
0.743236 0.082598 0.693261
0.018570 0.321096 0.682398
0.032653 0.331026 0.689788
0.317219 0.415682 0.764237
0.729669 0.434726 0.824165
0.867325 0.463991 0.846502
0.912177 0.503020 0.863448
0.031803 0.546195 0.711350
0.042797 0.567876 0.717668
0.193582 0.666593 0.786952
0.746057 0.779408 0.874584
0.928877 0.810135 0.900612
0.977437 0.833191 0.909303
0.041475 0.640143 0.741952
0.052064 0.667970 0.751415
0.218266 0.764650 0.810536
0.763279 0.911292 0.904692
0.940736 0.939073 0.924105
0.992196 0.947387 0.930527
0.046408 0.673227 0.759499
0.057559 0.709127 0.772939
0.286850 0.833846 0.851058
0.797975 0.960144 0.930535
0.946258 0.984034 0.945612
0.992517 0.989582 0.948676
0.005228 0.002571 0.898846
0.108250 0.005078 0.907582
0.480871 0.001994 0.866488
0.630035 0.000000 0.732871
0.680480 0.000000 0.704410
0.713647 0.001197 0.710007
0.006568 0.062668 0.876658
0.060416 0.085134 0.879876
0.434187 0.088877 0.878502
0.605407 0.088151 0.726433
0.711675 0.087174 0.742890
0.747762 0.094746 0.748586
0.017634 0.312666 0.706370
0.029311 0.323356 0.723635
0.289065 0.406477 0.819691
0.711427 0.429095 0.882286
0.860249 0.465332 0.905554
0.908436 0.507700 0.918787
0.031126 0.538640 0.748935
0.041387 0.565102 0.763715
0.195289 0.673900 0.847665
0.732360 0.788276 0.938923
0.918649 0.820674 0.966151
0.968923 0.841223 0.973477
0.041838 0.642323 0.785665
0.052623 0.675570 0.801322
0.222616 0.771308 0.861907
0.754656 0.917499 0.961856
0.931927 0.944348 0.982219
0.986422 0.953124 0.989918
0.046732 0.679086 0.796556
0.058826 0.714010 0.811715
0.286391 0.841251 0.893663
0.791846 0.964858 0.976009
0.938644 0.988337 0.991551
0.988745 0.991719 0.993798
