example_ofxGpuLutCube/bin/data/ofxGpuLutCube/LUT/C26 (brown green fade).cube
LUT_3D_SIZE 16
0.037101 0.040793 0.040793
0.048394 0.041045 0.040793
0.060077 0.044579 0.040793
0.076013 0.045923 0.042156
0.095205 0.049948 0.044579
0.119779 0.056094 0.046629
0.149092 0.060858 0.049746
0.183818 0.065761 0.051961
0.221435 0.071572 0.053930
0.265235 0.076475 0.055652
0.314076 0.081238 0.059343
0.360981 0.085094 0.062120
0.411002 0.085371 0.063129
0.465037 0.091851 0.066745
0.522579 0.096514 0.070266
0.569263 0.103885 0.070512
0.037101 0.048394 0.041045
0.048419 0.048595 0.041063
0.060569 0.052159 0.041899
0.079830 0.056088 0.044579
0.101177 0.061236 0.045739
0.129729 0.067773 0.048428
0.166011 0.074121 0.052001
0.211916 0.084211 0.054675
0.267529 0.093901 0.057873
0.320691 0.101995 0.059727
0.374488 0.107809 0.063464
0.427147 0.114465 0.066749
0.480661 0.120315 0.069313
0.534626 0.126892 0.070933
0.581424 0.131513 0.074454
0.623511 0.139315 0.078199
0.037101 0.056386 0.044579
0.048681 0.059847 0.044579
0.063955 0.060985 0.044589
0.081656 0.065602 0.044840
0.109427 0.073669 0.048307
0.146995 0.084573 0.050543
0.193422 0.096636 0.055733
0.249264 0.107638 0.058460
0.312910 0.120032 0.061830
0.376352 0.133487 0.065750
0.438249 0.145128 0.069633
0.494667 0.152134 0.071470
0.545958 0.159395 0.074685
0.593794 0.170181 0.078360
0.635953 0.178194 0.081959
0.674042 0.186957 0.083145
0.037101 0.067097 0.044579
0.052351 0.071814 0.046079
0.068243 0.076442 0.048285
0.092640 0.083668 0.048440
0.122129 0.093091 0.050396
0.165556 0.105959 0.054428
0.220073 0.120663 0.058382
0.285538 0.138646 0.062320
0.359195 0.158241 0.066240
0.427811 0.172481 0.069845
0.491350 0.187349 0.074190
0.548640 0.200490 0.077872
0.599553 0.212660 0.081786
0.647228 0.224732 0.085601
0.689425 0.234570 0.090370
0.725760 0.248865 0.095011
0.037101 0.079361 0.048270
0.053075 0.086388 0.048613
0.073780 0.092603 0.050237
0.102959 0.104384 0.052380
0.135757 0.113945 0.054176
0.183226 0.130893 0.057665
0.248187 0.151321 0.062250
0.319856 0.172000 0.065971
0.397999 0.193987 0.069721
0.470585 0.215617 0.073761
0.536019 0.234527 0.078876
0.593680 0.248706 0.083099
0.646368 0.266008 0.089176
0.695355 0.283460 0.095070
0.736442 0.299163 0.102920
0.774874 0.312862 0.110851
0.037101 0.092047 0.049500
0.056325 0.102604 0.052119
0.079374 0.114157 0.054531
0.117922 0.130392 0.057791
0.157200 0.143935 0.060004
0.204656 0.160414 0.061447
0.270309 0.183981 0.065975
0.349296 0.210299 0.070085
0.433706 0.239642 0.075520
0.510149 0.263112 0.079308
0.577425 0.284643 0.084109
0.636813 0.304857 0.092051
0.688878 0.325730 0.100742
0.738997 0.345862 0.109311
0.781728 0.362268 0.120342
0.820437 0.381527 0.131103
0.037101 0.107504 0.052567
0.054587 0.119834 0.055924
0.086572 0.140922 0.060247
0.129537 0.160457 0.064897
0.182464 0.183392 0.066770
0.234459 0.201665 0.069187
0.296850 0.222920 0.070300
0.374551 0.252207 0.075267
0.464312 0.284190 0.080923
0.543568 0.313512 0.086935
0.614371 0.340057 0.095290
0.675762 0.363075 0.104490
0.729784 0.385894 0.116177
0.779989 0.408648 0.129339
0.822227 0.428195 0.142567
0.860215 0.451147 0.153567
0.037101 0.126715 0.056491
0.055933 0.140078 0.059657
0.092459 0.170207 0.065830
0.145458 0.200588 0.071698
0.204725 0.227007 0.074753
0.268810 0.251390 0.078012
0.331979 0.274109 0.080445
0.402506 0.298357 0.082790
0.492181 0.333725 0.089841
0.574450 0.365686 0.096979
0.645882 0.393768 0.108318
0.710238 0.420670 0.121169
0.766417 0.446735 0.136006
0.817096 0.471509 0.150313
0.856738 0.492241 0.164877
0.891497 0.515297 0.181317
0.037101 0.145831 0.059343
0.058918 0.168042 0.063483
0.096123 0.201854 0.070459
0.163954 0.246524 0.079619
0.232652 0.280042 0.084537
0.305446 0.310623 0.088779
0.374403 0.334823 0.091992
0.445322 0.359699 0.094994
0.519808 0.385062 0.099671
0.604029 0.419770 0.110523
0.679886 0.452246 0.124664
0.741751 0.478554 0.139683
0.800732 0.505777 0.156794
0.849279 0.530488 0.172560
0.886046 0.550273 0.185446
0.913014 0.573319 0.202568
0.037101 0.167219 0.063129
0.063171 0.199503 0.068430
0.104595 0.240532 0.074964
0.183948 0.296097 0.085924
0.262897 0.337797 0.093259
0.342281 0.372596 0.099524
0.414822 0.398244 0.104498
0.488072 0.422757 0.110670
0.562284 0.446963 0.116509
0.630889 0.470406 0.124233
0.708955 0.503770 0.140298
0.773739 0.531409 0.157761
0.826740 0.555251 0.174896
0.871272 0.579277 0.189609
0.905131 0.598491 0.202649
0.928618 0.619190 0.218180
0.039562 0.195263 0.066379
0.067714 0.235040 0.073425
0.118068 0.286669 0.081760
0.201811 0.349853 0.093486
0.293807 0.397668 0.104458
0.380857 0.436812 0.113681
0.457211 0.462690 0.121047
0.528543 0.485446 0.128642
0.603345 0.508670 0.138485
0.672373 0.529404 0.147523
0.734055 0.548337 0.154663
0.798333 0.576908 0.171454
0.850876 0.601821 0.187495
0.886425 0.621787 0.201255
0.915914 0.639219 0.213062
0.938033 0.659108 0.231265
0.043569 0.238230 0.073219
0.072997 0.281982 0.080237
0.137707 0.343446 0.091768
0.225630 0.408342 0.103860
0.325814 0.457109 0.116676
0.416496 0.496424 0.129992
0.496143 0.524231 0.142128
0.567804 0.545743 0.151662
0.637321 0.565226 0.160058
0.706178 0.584637 0.171231
0.765989 0.601926 0.178714
0.814678 0.615478 0.182626
0.864839 0.638470 0.199784
0.901804 0.659013 0.212860
0.926573 0.674651 0.223842
0.943288 0.690493 0.242183
0.050447 0.291501 0.080942
0.082699 0.338793 0.088825
0.154823 0.403200 0.102499
0.254956 0.465004 0.115545
0.357926 0.513327 0.130866
0.449528 0.550940 0.148684
0.531835 0.579803 0.161501
0.604427 0.601505 0.175398
0.672499 0.619788 0.185415
0.733028 0.634312 0.194245
0.793998 0.652105 0.201042
0.838423 0.661587 0.204259
0.874892 0.668331 0.205622
0.907895 0.686939 0.217853
0.931594 0.702778 0.229395
0.947819 0.718415 0.250783
0.055160 0.355947 0.092186
0.104532 0.407076 0.103123
0.181190 0.468154 0.115385
0.289689 0.522735 0.131365
0.392739 0.567723 0.149914
0.485593 0.602316 0.168984
0.566274 0.631343 0.186614
0.637346 0.652316 0.200741
0.704328 0.671423 0.211087
0.760691 0.682324 0.217020
0.811476 0.693812 0.220840
0.854988 0.702887 0.224451
0.887158 0.709785 0.222005
0.912708 0.711503 0.221726
0.935199 0.726603 0.233083
0.950762 0.742579 0.255105
0.066057 0.421901 0.106831
0.132016 0.475682 0.118776
0.215762 0.527103 0.134387
0.327938 0.575781 0.149966
0.427243 0.612419 0.169177
0.516119 0.645269 0.188421
0.592400 0.671770 0.205429
0.660783 0.692038 0.219661
0.722999 0.707667 0.229554
0.778684 0.718166 0.234446
0.824367 0.726553 0.236774
0.866770 0.736237 0.236774
0.896747 0.741830 0.236800
0.920329 0.746264 0.236774
0.936112 0.746783 0.233554
0.951655 0.761702 0.255999
0.081604 0.483779 0.122398
0.167428 0.534500 0.141612
0.261809 0.583891 0.157241
0.371420 0.621951 0.172882
0.461139 0.653162 0.192146
0.543548 0.681898 0.207783
0.615019 0.705138 0.223348
0.679569 0.723013 0.237258
0.740350 0.737502 0.245930
0.792890 0.748212 0.248576
0.836910 0.757389 0.252347
0.872094 0.764060 0.252347
0.903889 0.771953 0.252347
0.924570 0.777099 0.255930
0.940207 0.780593 0.252764
0.951693 0.780912 0.256113
0.037101 0.040793 0.048570
0.048394 0.041281 0.048405
0.059825 0.044579 0.048570
0.076013 0.045923 0.051870
0.095205 0.049948 0.052480
0.119749 0.056094 0.055726
0.148943 0.060858 0.058063
0.180071 0.065761 0.061242
0.215761 0.070512 0.063320
0.259329 0.076403 0.066303
0.306330 0.080382 0.069418
0.349801 0.081680 0.070784
0.393009 0.085302 0.074124
0.445621 0.088521 0.077148
0.499247 0.092667 0.078213
0.545750 0.096512 0.082003
0.037101 0.048570 0.051879
0.048612 0.052275 0.052275
0.064269 0.055796 0.052380
0.084040 0.059952 0.055799
0.108330 0.064822 0.056491
0.137443 0.070066 0.060253
0.172337 0.077976 0.064140
0.217013 0.086111 0.067439
0.267877 0.094185 0.070978
0.321059 0.100252 0.074072
0.374738 0.107719 0.077281
0.426647 0.112720 0.080336
0.480181 0.118811 0.082472
0.533977 0.124140 0.085870
0.581166 0.131463 0.089413
0.626273 0.139091 0.093620
0.037101 0.059202 0.052265
0.052181 0.063696 0.055978
0.065878 0.065418 0.056063
0.090856 0.072937 0.056887
0.124093 0.082262 0.060346
0.164128 0.093275 0.065368
0.208610 0.102461 0.068705
0.261104 0.113453 0.072562
0.325400 0.126726 0.077283
0.385781 0.137799 0.081189
0.444200 0.146548 0.084496
0.498270 0.152196 0.086772
0.547088 0.161804 0.090323
0.594625 0.170622 0.094206
0.639664 0.179271 0.097885
0.678465 0.187048 0.101795
0.037101 0.067873 0.055614
0.056078 0.078962 0.059841
0.074338 0.084827 0.060815
0.105995 0.093674 0.061891
0.142387 0.105535 0.065733
0.191655 0.119199 0.070116
0.250028 0.135385 0.076028
0.316187 0.151978 0.080390
0.386181 0.168133 0.085060
0.449797 0.183555 0.088163
0.508427 0.195098 0.091894
0.561670 0.205273 0.095115
0.611539 0.215305 0.099146
0.658211 0.226839 0.104745
0.697626 0.240218 0.110154
0.733374 0.250404 0.114287
0.037101 0.079408 0.056190
0.056396 0.092574 0.063585
0.082811 0.106380 0.065940
0.120435 0.119652 0.069296
0.164344 0.133932 0.072682
0.217350 0.151843 0.076646
0.286708 0.172385 0.081923
0.357608 0.192317 0.086359
0.432361 0.213648 0.091102
0.499167 0.232057 0.095049
0.559998 0.246849 0.099332
0.614270 0.260734 0.104536
0.665033 0.276375 0.112072
0.711917 0.294117 0.118588
0.751680 0.308412 0.126659
0.787279 0.321307 0.132687
0.037101 0.093924 0.059778
0.056089 0.108451 0.065757
0.089349 0.129733 0.072141
0.135534 0.150717 0.077336
0.188642 0.169024 0.080939
0.246024 0.188477 0.083336
0.316582 0.214103 0.088764
0.396586 0.241119 0.094437
0.474350 0.264805 0.098957
0.544983 0.286388 0.103737
0.606645 0.306567 0.110172
0.661711 0.323565 0.118243
0.712312 0.341453 0.127033
0.759825 0.362439 0.138298
0.802035 0.382074 0.150057
0.836915 0.399175 0.160759
0.037101 0.109936 0.063553
0.053532 0.127570 0.070016
0.093451 0.155190 0.077745
0.149097 0.185999 0.085852
0.214204 0.213600 0.091209
0.278201 0.236860 0.094913
0.348363 0.261620 0.096679
0.428164 0.289077 0.103163
0.511778 0.321009 0.110752
0.585254 0.345630 0.118261
0.649689 0.368115 0.124800
0.705725 0.388928 0.135569
0.757111 0.411247 0.149366
0.805148 0.433789 0.163578
0.845249 0.453649 0.176818
0.877240 0.473419 0.192391
0.037101 0.127159 0.067962
0.056727 0.149863 0.075977
0.094711 0.183856 0.084861
0.163921 0.229492 0.097700
0.235231 0.263915 0.104745
0.312297 0.293950 0.111675
0.383331 0.319584 0.114719
0.457939 0.344762 0.117375
0.544293 0.375996 0.125728
0.619956 0.404621 0.135563
0.686656 0.430153 0.145979
0.745301 0.452955 0.158828
0.796363 0.476629 0.173411
0.843588 0.501055 0.191512
0.881257 0.523425 0.208371
0.907939 0.543991 0.224318
0.037101 0.150119 0.072865
0.058188 0.180235 0.082061
0.100502 0.220972 0.092808
0.182012 0.281563 0.109527
0.264853 0.324498 0.120551
0.347367 0.358874 0.129282
0.426144 0.388038 0.137057
0.501477 0.412423 0.141147
0.578580 0.436091 0.145493
0.656853 0.466500 0.158384
0.726232 0.492544 0.169861
0.783115 0.516390 0.184097
0.832547 0.540816 0.201695
0.875351 0.564900 0.221177
0.908821 0.586915 0.237956
0.931844 0.606623 0.255748
0.037101 0.175280 0.076996
0.061599 0.215689 0.089102
0.113637 0.267443 0.101823
0.198892 0.333375 0.119829
0.295495 0.385860 0.135258
0.383847 0.424805 0.146336
0.466541 0.453885 0.157629
0.543645 0.477723 0.165787
0.621394 0.501185 0.171840
0.690917 0.522780 0.178816
0.760220 0.548765 0.193404
0.815356 0.572231 0.208309
0.859116 0.593243 0.224567
0.896636 0.616861 0.243627
0.924500 0.637060 0.260813
0.944479 0.656379 0.279481
0.038742 0.207125 0.082096
0.067232 0.253011 0.095712
0.131702 0.318698 0.111337
0.222054 0.389350 0.129730
0.326495 0.445686 0.149010
0.420817 0.488290 0.165830
0.505350 0.518160 0.179233
0.580884 0.539306 0.188523
0.659179 0.562234 0.198995
0.726953 0.581177 0.206127
0.788881 0.600276 0.214260
0.842093 0.621808 0.229433
0.880695 0.641579 0.245449
0.911245 0.661224 0.264577
0.935314 0.680169 0.282388
0.951610 0.697649 0.299961
0.043504 0.250113 0.090844
0.075051 0.304611 0.104594
0.150190 0.375342 0.122839
0.251102 0.446343 0.142616
0.357853 0.502216 0.163433
0.453766 0.542558 0.184187
0.539396 0.573670 0.200859
0.613627 0.594600 0.213376
0.686638 0.613765 0.224681
0.753417 0.632597 0.234010
0.813479 0.649336 0.241230
0.858074 0.662676 0.246994
0.894735 0.681182 0.261865
0.923085 0.699983 0.281081
0.941965 0.714607 0.296976
0.955837 0.730760 0.316351
0.047986 0.306401 0.100332
0.089972 0.368641 0.118607
0.168401 0.436431 0.135544
0.282828 0.501375 0.158851
0.389942 0.553463 0.179536
0.484761 0.591020 0.202704
0.569163 0.620258 0.221513
0.643645 0.642349 0.237592
0.713419 0.660649 0.249486
0.774502 0.676465 0.260255
0.830398 0.692795 0.268483
0.871611 0.705492 0.272874
0.900664 0.711093 0.275199
0.927756 0.729272 0.293401
0.944549 0.745117 0.312182
0.959200 0.760591 0.331618
0.054231 0.368213 0.114388
0.116299 0.440455 0.137880
0.200860 0.503133 0.157012
0.320883 0.556849 0.178692
0.426857 0.600872 0.200895
0.517343 0.635841 0.221829
0.597207 0.663182 0.241470
0.668577 0.685916 0.258643
0.736131 0.703725 0.272410
0.794872 0.719281 0.283146
0.842774 0.732707 0.292360
0.882857 0.743928 0.297272
0.908762 0.749997 0.298416
0.928822 0.751516 0.296970
0.947594 0.768783 0.317320
0.959415 0.784849 0.340305
0.059080 0.426765 0.129985
0.144581 0.503030 0.160306
0.243148 0.558315 0.180442
0.361363 0.607375 0.201527
0.458497 0.642870 0.223228
0.546510 0.674691 0.242500
0.620633 0.698549 0.261515
0.688200 0.719429 0.274228
0.753913 0.738579 0.289830
0.809518 0.751511 0.299858
0.854206 0.764161 0.308181
0.888933 0.773070 0.313613
0.913299 0.780660 0.316912
0.932131 0.784849 0.317895
0.944675 0.785605 0.315603
0.959415 0.803635 0.341457
0.073882 0.480582 0.145745
0.178905 0.560338 0.180402
0.288460 0.608064 0.204376
0.399772 0.649841 0.227100
0.490418 0.682296 0.246244
0.569552 0.706429 0.261805
0.639327 0.728555 0.276148
0.701132 0.746268 0.287107
0.763036 0.761966 0.297920
0.815597 0.774235 0.306099
0.859391 0.786539 0.314089
0.892425 0.795979 0.320780
0.917076 0.803962 0.326001
0.935976 0.811553 0.330480
0.948320 0.815500 0.334268
0.959415 0.819219 0.341532
0.037101 0.041708 0.059591
0.048420 0.044579 0.059591
0.060077 0.044579 0.059591
0.076013 0.046236 0.059688
0.095205 0.049948 0.060837
0.119337 0.054428 0.064698
0.147615 0.060858 0.067820
0.178404 0.064852 0.070986
0.211156 0.069673 0.073870
0.248732 0.074122 0.076860
0.290373 0.077989 0.079953
0.334779 0.081402 0.082222
0.377371 0.081680 0.085082
0.427371 0.085361 0.086411
0.477269 0.088781 0.089769
0.523188 0.092230 0.093482
0.037101 0.049263 0.060077
0.049490 0.053180 0.063617
0.063822 0.056039 0.063446
0.084045 0.059976 0.063858
0.105618 0.064652 0.065587
0.134083 0.069991 0.069542
0.169310 0.077645 0.073709
0.210381 0.085053 0.077583
0.253928 0.091153 0.080956
0.298042 0.096322 0.084069
0.350600 0.103666 0.087982
0.403412 0.108559 0.090410
0.453963 0.112505 0.093903
0.507028 0.115962 0.097079
0.554192 0.123080 0.101207
0.600098 0.131557 0.105383
0.037101 0.059656 0.063347
0.049342 0.064107 0.064738
0.069110 0.069351 0.068104
0.094976 0.077003 0.071910
0.129831 0.085935 0.075566
0.167520 0.096245 0.080047
0.211534 0.105168 0.083976
0.263589 0.115606 0.088947
0.326706 0.126967 0.093429
0.385427 0.135600 0.096628
0.442653 0.143284 0.099671
0.494431 0.150033 0.103637
0.545124 0.157797 0.106234
0.595600 0.166421 0.112322
0.641111 0.174308 0.116674
0.679657 0.186059 0.121454
0.037101 0.070374 0.063955
0.053028 0.079603 0.069234
0.078348 0.092187 0.076477
0.114495 0.102176 0.078618
0.154962 0.115058 0.083095
0.210272 0.131062 0.089586
0.267573 0.147000 0.096257
0.327840 0.160182 0.100425
0.394946 0.172933 0.103913
0.455126 0.185114 0.106823
0.511403 0.196066 0.110497
0.564424 0.203945 0.114052
0.611842 0.213437 0.118239
0.658615 0.225411 0.124479
0.698489 0.237949 0.129825
0.735827 0.250376 0.137286
0.037081 0.080575 0.067603
0.053146 0.094881 0.075199
0.085074 0.117326 0.085664
0.130239 0.135174 0.091140
0.186710 0.152669 0.095106
0.245592 0.169826 0.101082
0.313983 0.189861 0.106422
0.383288 0.209110 0.111467
0.452689 0.226435 0.115769
0.515294 0.239964 0.118429
0.572475 0.252512 0.122289
0.623114 0.265289 0.126806
0.670089 0.278038 0.133502
0.716493 0.292942 0.139893
0.755512 0.306477 0.147918
0.790357 0.321300 0.158100
0.037101 0.096155 0.071655
0.052817 0.111782 0.079471
0.085894 0.140641 0.093296
0.147354 0.172262 0.103664
0.211748 0.196565 0.110560
0.280415 0.218263 0.114541
0.353399 0.242036 0.119161
0.431266 0.264684 0.123251
0.502667 0.284159 0.127115
0.566199 0.301924 0.131785
0.625111 0.319108 0.138366
0.677158 0.333613 0.144660
0.725020 0.350918 0.154041
0.772104 0.370825 0.165520
0.810429 0.387983 0.176585
0.843259 0.404004 0.189439
0.037101 0.115166 0.076910
0.052217 0.130489 0.084694
0.086365 0.165814 0.099873
0.158830 0.211781 0.116027
0.235714 0.246930 0.127109
0.312925 0.272233 0.131404
0.389296 0.297709 0.133916
0.466735 0.323110 0.140017
0.545340 0.348791 0.146829
0.613149 0.368414 0.151705
0.674052 0.388031 0.158681
0.727634 0.406913 0.168873
0.775109 0.426275 0.182092
0.821310 0.447537 0.196365
0.857942 0.469449 0.213299
0.886222 0.489006 0.230400
0.037101 0.135348 0.083521
0.052903 0.156915 0.090874
0.087302 0.194037 0.107291
0.169684 0.254210 0.128251
0.256463 0.301157 0.144344
0.343522 0.335597 0.153391
0.423871 0.361108 0.158551
0.502081 0.385411 0.160788
0.580346 0.411308 0.169588
0.651350 0.434783 0.178257
0.716326 0.457434 0.188238
0.773057 0.478303 0.198413
0.820759 0.499836 0.214504
0.863580 0.524049 0.235128
0.894471 0.545471 0.254754
0.918672 0.566400 0.274488
0.037101 0.159827 0.089063
0.056148 0.189019 0.099229
0.094514 0.239004 0.120742
0.180980 0.306896 0.142960
0.281294 0.364776 0.164911
0.374150 0.404548 0.179614
0.460698 0.433233 0.190640
0.538704 0.455363 0.196564
0.615705 0.476797 0.199348
0.688344 0.500459 0.208573
0.756119 0.524917 0.220878
0.813657 0.547763 0.233226
0.858780 0.570525 0.250825
0.894825 0.593992 0.273044
0.921419 0.614751 0.295599
0.940187 0.634687 0.318385
0.037101 0.187806 0.095430
0.057627 0.224728 0.107738
0.110634 0.292563 0.133942
0.202012 0.365279 0.159323
0.312080 0.427666 0.185890
0.408679 0.470433 0.205562
0.495148 0.499134 0.220335
0.573682 0.520890 0.230082
0.652009 0.541435 0.235266
0.721277 0.559973 0.240643
0.788741 0.584762 0.254082
0.843989 0.607313 0.267373
0.884265 0.628515 0.283710
0.915706 0.650582 0.306787
0.936703 0.670256 0.330120
0.952664 0.688981 0.353950
0.037594 0.223706 0.104493
0.061644 0.265373 0.117388
0.130191 0.348528 0.149856
0.233963 0.425476 0.176382
0.345858 0.488172 0.204227
0.445576 0.531072 0.230006
0.531253 0.560951 0.248220
0.606172 0.579942 0.260115
0.683086 0.599657 0.269630
0.752054 0.618474 0.276579
0.815233 0.637244 0.283943
0.866201 0.658644 0.298026
0.901170 0.678330 0.315238
0.928843 0.696444 0.335093
0.946247 0.715427 0.356960
0.959268 0.731601 0.380549
0.040793 0.270125 0.115304
0.067491 0.317336 0.128969
0.150942 0.410141 0.162462
0.269831 0.483002 0.192332
0.382819 0.543359 0.222417
0.482123 0.585861 0.251042
0.566131 0.614624 0.271974
0.638678 0.634080 0.287147
0.711248 0.651651 0.298644
0.776414 0.669796 0.308898
0.835607 0.686994 0.317859
0.880538 0.702557 0.325911
0.913861 0.720019 0.341326
0.937551 0.736090 0.359795
0.951381 0.749654 0.378162
0.962916 0.765147 0.401251
0.044579 0.323740 0.126761
0.084455 0.381234 0.143486
0.178598 0.471975 0.178542
0.306477 0.537358 0.210712
0.418470 0.590297 0.239460
0.515980 0.630123 0.267501
0.596151 0.657150 0.290555
0.667157 0.678894 0.308763
0.735923 0.695952 0.322612
0.796794 0.712896 0.335623
0.848522 0.729644 0.346680
0.890272 0.742877 0.354438
0.917166 0.750610 0.358321
0.939910 0.765183 0.375461
0.954527 0.779691 0.395908
0.963699 0.791616 0.416520
0.051113 0.384784 0.142249
0.109523 0.449886 0.165287
0.221792 0.533815 0.203514
0.349968 0.591599 0.232535
0.454552 0.634984 0.259451
0.547254 0.669239 0.283739
0.622731 0.694526 0.304810
0.692305 0.716326 0.324324
0.759063 0.735038 0.341439
0.816506 0.752165 0.356634
0.862363 0.766186 0.370372
0.897569 0.778819 0.378598
0.923429 0.786629 0.383266
0.940245 0.789518 0.384345
0.955038 0.803304 0.403344
0.966552 0.815017 0.425878
0.058807 0.438915 0.157879
0.133996 0.507966 0.185356
0.267339 0.584620 0.227064
0.389270 0.635799 0.255614
0.488040 0.672264 0.278309
0.573559 0.702228 0.298279
0.646479 0.725464 0.317479
0.710719 0.745659 0.333929
0.774853 0.765502 0.353015
0.827815 0.781218 0.369208
0.870960 0.794192 0.383301
0.903112 0.805655 0.394383
0.926913 0.814139 0.399801
0.941286 0.816411 0.403368
0.955046 0.819758 0.404221
0.966553 0.830743 0.429076
0.070437 0.485354 0.174201
0.161030 0.558046 0.205222
0.306688 0.629974 0.250673
0.423552 0.673593 0.278621
0.517546 0.706167 0.300334
0.594019 0.731365 0.316398
0.663568 0.752003 0.332018
0.725004 0.770029 0.345780
0.786652 0.788867 0.361086
0.836752 0.804457 0.377984
0.877874 0.816471 0.392879
0.908514 0.826916 0.405024
0.928593 0.834586 0.413677
0.944103 0.841382 0.418653
0.955812 0.842772 0.422762
0.966553 0.846045 0.426637
0.037101 0.044579 0.070807
0.048640 0.044807 0.071230
0.061340 0.046236 0.071503
0.076619 0.048270 0.070944
0.095427 0.050351 0.071674
0.120284 0.054100 0.075306
0.148577 0.060161 0.078678
0.178749 0.064852 0.082374
0.212055 0.069673 0.086160
0.247634 0.073597 0.089339
0.287007 0.077547 0.092343
0.329249 0.081100 0.095484
0.371648 0.081680 0.097850
0.419989 0.085212 0.101142
0.467099 0.087421 0.104220
0.512073 0.089062 0.108129
0.037101 0.052120 0.071621
0.052311 0.056209 0.076135
0.065423 0.057849 0.076461
0.082140 0.059970 0.075715
0.105183 0.063990 0.075921
0.132411 0.068680 0.079760
0.163625 0.075538 0.084441
0.197633 0.081527 0.088557
0.238008 0.087411 0.092496
0.279193 0.092527 0.096380
0.327376 0.098135 0.100265
0.377904 0.102755 0.104212
0.428612 0.105413 0.106148
0.481662 0.108945 0.109802
0.529265 0.112918 0.113547
0.574140 0.120371 0.119932
0.037101 0.060718 0.075078
0.052109 0.067609 0.079332
0.072363 0.075530 0.084480
0.093491 0.077290 0.082289
0.125272 0.084930 0.085682
0.158986 0.092761 0.091358
0.197198 0.100938 0.095802
0.243945 0.109951 0.100747
0.299566 0.120225 0.104820
0.352970 0.127298 0.108797
0.403982 0.132735 0.112420
0.457527 0.139057 0.115740
0.510346 0.146113 0.119732
0.561386 0.152286 0.124776
0.607661 0.159114 0.129228
0.650434 0.170490 0.136729
0.036954 0.072216 0.079189
0.048912 0.080791 0.084574
0.073311 0.090640 0.090112
0.114010 0.107009 0.099033
0.156829 0.122349 0.107492
0.208506 0.135436 0.113267
0.262651 0.148620 0.117620
0.321974 0.159798 0.121632
0.388157 0.172896 0.126167
0.447560 0.182525 0.129238
0.503305 0.189550 0.130354
0.555308 0.197115 0.133940
0.604702 0.207651 0.139589
0.651645 0.219935 0.147498
0.691448 0.232339 0.155307
0.729304 0.244730 0.161483
0.035021 0.084563 0.082873
0.049005 0.096818 0.089265
0.079311 0.116763 0.101368
0.129335 0.145631 0.117937
0.192187 0.165252 0.124520
0.252268 0.181867 0.129037
0.318976 0.200912 0.135922
0.385552 0.217925 0.140593
0.453305 0.231165 0.143786
0.513554 0.241285 0.143752
0.567545 0.250707 0.146817
0.618202 0.261857 0.150995
0.665082 0.273482 0.157629
0.709858 0.287006 0.165842
0.748176 0.301404 0.173902
0.782573 0.317403 0.185956
0.034395 0.100881 0.087781
0.048865 0.115462 0.094394
0.076942 0.140989 0.109455
0.135382 0.185103 0.136124
0.210388 0.214705 0.146945
0.294295 0.241606 0.153232
0.365817 0.260248 0.157284
0.439737 0.278465 0.159975
0.510530 0.295705 0.163190
0.570967 0.308550 0.164664
0.626534 0.320281 0.166922
0.677138 0.333497 0.172560
0.723933 0.348980 0.181944
0.767609 0.365795 0.193048
0.803454 0.381609 0.203754
0.835314 0.398847 0.219157
0.036999 0.121375 0.094056
0.048585 0.136688 0.102139
0.075738 0.166249 0.117466
0.133497 0.219641 0.146706
0.226957 0.269521 0.167514
0.321437 0.303594 0.179876
0.404246 0.325583 0.183457
0.479868 0.345786 0.185565
0.558274 0.366275 0.187270
0.622276 0.380324 0.189777
0.679842 0.395603 0.194540
0.732052 0.413482 0.203886
0.779979 0.430810 0.215028
0.823515 0.452213 0.231862
0.858004 0.472796 0.250969
0.881998 0.491012 0.271229
0.037101 0.146742 0.103043
0.048813 0.165065 0.111688
0.074827 0.197811 0.127218
0.134948 0.259202 0.158422
0.241280 0.323362 0.187063
0.347190 0.370132 0.207264
0.435843 0.393392 0.215307
0.516310 0.413983 0.217458
