example_ofxGpuLutCube/bin/data/ofxGpuLutCube/LUT/C26 (brown green fade).cube
LUT_3D_SIZE 6
0.037101 0.040793 0.040793
0.076013 0.045923 0.042156
0.149092 0.060858 0.049746
0.265235 0.076475 0.055652
0.411002 0.085371 0.063129
0.569263 0.103885 0.070512
0.037101 0.067097 0.044579
0.092640 0.083668 0.048440
0.220073 0.120663 0.058382
0.427811 0.172481 0.069845
0.599553 0.212660 0.081786
0.725760 0.248865 0.095011
0.037101 0.107504 0.052567
0.129537 0.160457 0.064897
0.296850 0.222920 0.070300
0.543568 0.313512 0.086935
0.729784 0.385894 0.116177
0.860215 0.451147 0.153567
0.037101 0.167219 0.063129
0.183948 0.296097 0.085924
0.414822 0.398244 0.104498
0.630889 0.470406 0.124233
0.826740 0.555251 0.174896
0.928618 0.619190 0.218180
0.050447 0.291501 0.080942
0.254956 0.465004 0.115545
0.531835 0.579803 0.161501
0.733028 0.634312 0.194245
0.874892 0.668331 0.205622
0.947819 0.718415 0.250783
0.081604 0.483779 0.122398
0.371420 0.621951 0.172882
0.615019 0.705138 0.223348
0.792890 0.748212 0.248576
0.903889 0.771953 0.252347
0.951693 0.780912 0.256113
0.037101 0.044579 0.070807
0.076619 0.048270 0.070944
0.148577 0.060161 0.078678
0.247634 0.073597 0.089339
0.371648 0.081680 0.097850
0.512073 0.089062 0.108129
0.036954 0.072216 0.079189
0.114010 0.107009 0.099033
0.262651 0.148620 0.117620
0.447560 0.182525 0.129238
0.604702 0.207651 0.139589
0.729304 0.244730 0.161483
0.036999 0.121375 0.094056
0.133497 0.219641 0.146706
0.404246 0.325583 0.183457
0.622276 0.380324 0.189777
0.779979 0.430810 0.215028
0.881998 0.491012 0.271229
0.037101 0.215443 0.126263
0.177167 0.383450 0.202367
0.506188 0.537237 0.289613
0.733183 0.588801 0.307754
0.894517 0.653431 0.349851
0.955739 0.712791 0.429721
0.046926 0.351689 0.162728
0.316400 0.571337 0.272190
0.609362 0.690216 0.365985
0.800266 0.739092 0.412502
0.923587 0.780012 0.442902
0.966577 0.814810 0.496837
0.069105 0.497986 0.211756
0.443120 0.697048 0.331704
0.686646 0.777228 0.394807
0.847947 0.827128 0.453669
0.935043 0.856708 0.495388
0.970244 0.864806 0.509618
0.040793 0.050598 0.114924
0.097554 0.060161 0.132354
0.167851 0.064969 0.126789
0.285425 0.075929 0.137552
0.404574 0.081680 0.147994
0.520265 0.085371 0.158079
0.037101 0.083645 0.131283
0.106576 0.125314 0.176872
0.238207 0.137592 0.174323
0.382976 0.157012 0.178397
0.532633 0.173547 0.189309
0.664283 0.204649 0.216369
0.037101 0.149289 0.170247
0.078477 0.209673 0.215234
0.375238 0.377899 0.333768
0.589768 0.404017 0.329034
0.746199 0.436266 0.339054
0.859033 0.498657 0.398591
0.037101 0.274703 0.234463
0.088162 0.358972 0.275353
0.388472 0.551711 0.412361
0.725393 0.651545 0.496946
0.876977 0.691376 0.517279
0.946459 0.745193 0.589694
0.044579 0.403128 0.285220
0.152465 0.524640 0.345723
0.557981 0.727914 0.525427
0.799019 0.800398 0.598876
0.909294 0.820196 0.617343
0.966157 0.852463 0.665978
0.051954 0.481639 0.299747
0.271691 0.664546 0.419450
0.708572 0.832544 0.584329
0.850788 0.875725 0.643311
0.927648 0.894408 0.676325
0.970244 0.904158 0.687999
0.040793 0.055652 0.176172
0.112266 0.073575 0.217544
0.229095 0.087586 0.245427
0.352995 0.082566 0.215776
0.463395 0.081680 0.219876
0.552989 0.085370 0.227480
0.039771 0.101670 0.208958
0.096747 0.135842 0.251116
0.260517 0.174844 0.302285
0.423364 0.174107 0.276691
0.537465 0.171613 0.269646
0.654571 0.197636 0.291082
0.037465 0.187458 0.274737
0.076320 0.249089 0.326467
0.266994 0.347900 0.398670
0.547002 0.393056 0.424440
0.691740 0.403334 0.416103
0.812455 0.455320 0.463443
0.040793 0.302631 0.340255
0.072387 0.355581 0.367049
0.214739 0.462297 0.428298
0.701765 0.695024 0.632338
0.854081 0.722971 0.659052
0.934259 0.768681 0.712247
0.044579 0.419354 0.392693
0.095064 0.500299 0.430615
0.324461 0.641695 0.524190
0.757341 0.824545 0.715246
0.906739 0.859574 0.760634
0.962860 0.883384 0.796650
0.051924 0.492202 0.412269
0.133408 0.608724 0.478174
0.558858 0.812104 0.656746
0.852720 0.905482 0.778706
0.928367 0.922264 0.809314
0.966589 0.928850 0.821188
0.048099 0.066082 0.254438
0.128712 0.088090 0.307886
0.230772 0.096343 0.334157
0.367748 0.090365 0.315311
0.483195 0.081695 0.299028
0.565672 0.081680 0.303331
0.044427 0.119952 0.297737
0.100133 0.149832 0.333780
0.258278 0.189333 0.392734
0.445955 0.204142 0.400973
0.551841 0.184043 0.369399
0.655258 0.193981 0.379257
0.043216 0.216919 0.375483
0.078156 0.260048 0.407540
0.226315 0.338920 0.464807
0.561812 0.433987 0.547981
0.697339 0.423896 0.531137
0.804889 0.452022 0.555528
0.044579 0.338003 0.446673
0.076013 0.379943 0.467269
0.180692 0.449752 0.504807
0.624947 0.672125 0.687405
0.824851 0.708462 0.725159
0.917104 0.748574 0.765514
0.048236 0.421989 0.473439
0.080892 0.485530 0.504941
0.217250 0.594045 0.566624
0.610608 0.768185 0.718271
0.901390 0.882322 0.850416
0.961471 0.902826 0.877305
0.055447 0.508646 0.513636
0.106582 0.600763 0.559396
0.340186 0.743764 0.653298
0.771064 0.892509 0.827216
0.926452 0.935329 0.884875
0.966552 0.942943 0.897886
0.055652 0.081643 0.350288
0.159069 0.100399 0.403719
0.244950 0.099616 0.411137
0.364509 0.092740 0.399202
0.483785 0.085371 0.388181
0.572995 0.081680 0.383738
0.044579 0.137591 0.388166
0.103788 0.163900 0.420817
0.251309 0.193850 0.464882
0.464232 0.218789 0.496453
0.610921 0.232099 0.505589
0.662210 0.197905 0.469131
0.044579 0.241863 0.468494
0.080151 0.270587 0.485175
0.230046 0.354524 0.548204
0.564347 0.447851 0.631499
0.734108 0.478952 0.659758
0.806187 0.463810 0.646519
0.048270 0.343009 0.520364
0.079030 0.394235 0.547787
0.183383 0.464609 0.588500
0.640945 0.689920 0.764879
0.837563 0.738445 0.814327
0.907150 0.744752 0.819579
0.051961 0.442962 0.564762
0.085798 0.506015 0.598836
0.198634 0.596521 0.646246
0.598796 0.774280 0.786853
0.893070 0.886361 0.899089
0.954638 0.897051 0.911571
0.055652 0.506285 0.587853
0.092242 0.581245 0.623514
0.240491 0.699280 0.687364
0.662575 0.860418 0.833823
0.905339 0.931628 0.917383
0.966516 0.948002 0.936832
