example_ofxGpuLutCube/bin/data/ofxGpuLutCube/LUT/C27 (warm skintone brown green fade).cube
LUT_3D_SIZE 16
0.029719 0.033410 0.033410
0.041617 0.037127 0.037101
0.065756 0.040793 0.033410
0.096816 0.044579 0.033410
0.127517 0.048270 0.033688
0.158458 0.049500 0.037101
0.189241 0.051961 0.037101
0.220125 0.051961 0.037101
0.252832 0.050901 0.037101
0.282309 0.048270 0.037101
0.311584 0.048270 0.037101
0.342316 0.048270 0.039114
0.373674 0.048270 0.040793
0.407157 0.051059 0.040793
0.434703 0.051961 0.044326
0.469070 0.059307 0.044579
0.029719 0.044614 0.040793
0.041699 0.045345 0.037101
0.067197 0.049831 0.037101
0.109770 0.060773 0.037101
0.150926 0.067580 0.037101
0.184450 0.071342 0.037101
0.217878 0.071461 0.037101
0.252805 0.072327 0.037101
0.289807 0.075027 0.037115
0.317767 0.072276 0.037413
0.346673 0.071342 0.040380
0.376607 0.071336 0.040793
0.408374 0.071336 0.040954
0.439649 0.071620 0.044496
0.469829 0.075276 0.044579
0.503958 0.086651 0.048269
0.028817 0.056386 0.040793
0.039161 0.058459 0.037594
0.078880 0.073221 0.037167
0.122238 0.081723 0.037101
0.168279 0.089661 0.037101
0.214333 0.096995 0.037101
0.255828 0.099189 0.037132
0.293598 0.101790 0.037785
0.328767 0.102897 0.040793
0.357586 0.101123 0.040793
0.385297 0.099212 0.040793
0.413735 0.097798 0.041484
0.446264 0.099242 0.044431
0.477566 0.102129 0.044644
0.505691 0.106249 0.047823
0.536176 0.118648 0.048345
0.026028 0.072322 0.040963
0.043154 0.084392 0.040793
0.082098 0.098150 0.040793
0.142205 0.113819 0.037692
0.193107 0.124810 0.037101
0.240270 0.130895 0.037158
0.285724 0.135228 0.039702
0.328893 0.138649 0.040793
0.368817 0.141489 0.040884
0.396937 0.139491 0.041913
0.424176 0.137584 0.043771
0.454686 0.138366 0.044579
0.485591 0.139142 0.045048
0.517443 0.142753 0.047957
0.544807 0.146964 0.048270
0.575101 0.164294 0.051931
0.026028 0.091444 0.044579
0.045910 0.108370 0.042253
0.083052 0.128812 0.040793
0.159899 0.149601 0.040793
0.220648 0.162750 0.038595
0.275130 0.172441 0.039451
0.323452 0.178667 0.040793
0.366904 0.181507 0.041017
0.406574 0.183529 0.043607
0.439267 0.184237 0.044579
0.467776 0.183916 0.045327
0.496004 0.183024 0.046257
0.525989 0.185462 0.048270
0.556589 0.189588 0.049051
0.583974 0.193869 0.051633
0.615001 0.210352 0.053625
0.028015 0.110661 0.048270
0.046780 0.134794 0.044461
0.096703 0.163495 0.040793
0.184592 0.194190 0.040641
0.260071 0.212019 0.040793
0.320945 0.222029 0.040940
0.368325 0.228421 0.041910
0.411448 0.232570 0.043838
0.452188 0.236825 0.045441
0.485219 0.237437 0.047614
0.514917 0.237225 0.048964
0.542816 0.238056 0.050055
0.571390 0.239229 0.052201
0.600779 0.242157 0.053191
0.627814 0.248688 0.055778
0.658432 0.264000 0.058132
0.029719 0.131260 0.050598
0.047929 0.159744 0.044450
0.115024 0.203423 0.040793
0.213232 0.241720 0.039339
0.305831 0.268677 0.042118
0.373438 0.282973 0.045109
0.422132 0.287514 0.046396
0.460472 0.288740 0.047513
0.497069 0.290790 0.049411
0.530465 0.294136 0.051779
0.563464 0.296703 0.053829
0.593251 0.295506 0.054895
0.621606 0.299001 0.058325
0.651953 0.301675 0.060560
0.678348 0.306791 0.062315
0.706681 0.319121 0.066048
0.029719 0.155323 0.053684
0.052839 0.189918 0.047733
0.124931 0.240259 0.040793
0.234801 0.284867 0.040793
0.333732 0.315470 0.043746
0.415321 0.337949 0.048844
0.470842 0.347125 0.051661
0.513348 0.350776 0.054499
0.547691 0.351168 0.055983
0.576664 0.350897 0.057375
0.610005 0.354687 0.060448
0.642270 0.357499 0.063182
0.673883 0.360839 0.066418
0.702840 0.362992 0.069129
0.728817 0.365079 0.070992
0.755654 0.374515 0.074841
0.029719 0.182093 0.056712
0.055568 0.221828 0.047733
0.123199 0.272256 0.040793
0.232273 0.315741 0.040793
0.334176 0.349400 0.044856
0.426541 0.376544 0.050493
0.501591 0.397937 0.057591
0.556548 0.407756 0.062243
0.594822 0.410116 0.064282
0.623176 0.409612 0.067041
0.654045 0.411344 0.069879
0.686940 0.413678 0.072923
0.721576 0.418721 0.076529
0.752304 0.421205 0.080533
0.776489 0.421240 0.081901
0.799386 0.427580 0.085583
0.033410 0.207197 0.059343
0.051098 0.244887 0.048014
0.100292 0.287946 0.040793
0.193318 0.329765 0.040793
0.283171 0.359287 0.042552
0.378650 0.387922 0.048043
0.473094 0.418627 0.056129
0.559456 0.443650 0.065537
0.620480 0.456936 0.073031
0.661467 0.460654 0.076687
0.693357 0.464125 0.080305
0.724776 0.464125 0.084061
0.757182 0.466003 0.086810
0.790050 0.469834 0.090312
0.814301 0.470202 0.093500
0.834493 0.473070 0.096368
0.033410 0.228642 0.061867
0.043857 0.257591 0.051618
0.067373 0.288637 0.045176
0.119437 0.321736 0.043153
0.190527 0.349016 0.041011
0.281046 0.377847 0.044873
0.397268 0.414623 0.051191
0.509826 0.449764 0.061596
0.610412 0.483675 0.074214
0.672361 0.498978 0.083409
0.718891 0.506903 0.091397
0.752441 0.508291 0.094155
0.788232 0.509389 0.097770
0.817499 0.510237 0.101299
0.839637 0.510702 0.102343
0.860136 0.510784 0.105097
0.033410 0.248130 0.063129
0.040696 0.265644 0.055568
0.050508 0.287039 0.050829
0.073440 0.313688 0.047147
0.113999 0.337187 0.045546
0.189424 0.366716 0.044579
0.312827 0.406768 0.047190
0.449708 0.450148 0.056821
0.573787 0.490952 0.070702
0.664659 0.522315 0.086947
0.724483 0.539451 0.097381
0.766214 0.542847 0.104747
0.798824 0.542958 0.108759
0.829529 0.543472 0.109348
0.855189 0.542188 0.110313
0.874763 0.542840 0.113081
0.037101 0.266969 0.063129
0.040670 0.278704 0.059186
0.045179 0.292727 0.055183
0.058855 0.316053 0.051571
0.084020 0.338237 0.047851
0.145182 0.369112 0.044579
0.259658 0.408685 0.046907
0.407964 0.455289 0.055431
0.545167 0.500162 0.069010
0.647388 0.537196 0.086015
0.727209 0.566911 0.103398
0.773333 0.573975 0.112367
0.803528 0.573586 0.116680
0.833849 0.570918 0.117267
0.855268 0.570086 0.117791
0.877451 0.567496 0.118043
0.037101 0.282968 0.063129
0.040670 0.291519 0.062406
0.044731 0.303882 0.058731
0.054355 0.324221 0.053995
0.081531 0.350007 0.050227
0.146196 0.387548 0.046495
0.264087 0.429013 0.049421
0.405913 0.475903 0.057154
0.546671 0.520801 0.072676
0.649483 0.558487 0.088308
0.727907 0.587152 0.104820
0.781095 0.605442 0.119146
0.814105 0.605388 0.125022
0.834965 0.597934 0.122769
0.854619 0.594340 0.125186
0.873835 0.593750 0.125668
0.037101 0.298065 0.066821
0.040670 0.309278 0.065933
0.045114 0.321638 0.061714
0.059660 0.343137 0.054874
0.096661 0.376065 0.048274
0.177448 0.418241 0.046629
0.322009 0.466157 0.053854
0.462408 0.512910 0.064335
0.591617 0.555735 0.083260
0.683708 0.588970 0.098940
0.750166 0.614645 0.114579
0.798870 0.632195 0.127529
0.826651 0.632367 0.133105
0.843222 0.624987 0.133140
0.854860 0.617298 0.129450
0.873760 0.616635 0.129922
0.037101 0.313300 0.074165
0.040696 0.325669 0.073919
0.048005 0.344911 0.069902
0.067080 0.371146 0.061558
0.133126 0.414821 0.053669
0.244339 0.461618 0.051468
0.400233 0.510618 0.063148
0.533839 0.554322 0.076491
0.644394 0.593381 0.096897
0.723728 0.623477 0.114257
0.779868 0.643553 0.127359
0.819122 0.653469 0.138300
0.842232 0.655480 0.143310
0.858168 0.651516 0.141473
0.869652 0.644084 0.137716
0.877489 0.636235 0.133677
0.029694 0.037101 0.048842
0.037909 0.037107 0.049136
0.064860 0.040793 0.049145
0.096429 0.044579 0.052533
0.127664 0.048270 0.052344
0.158403 0.050245 0.048951
0.189185 0.051961 0.046422
0.220125 0.051961 0.045081
0.253089 0.051961 0.044904
0.283870 0.049894 0.044904
0.314257 0.048270 0.044904
0.345409 0.048270 0.044904
0.377254 0.048270 0.046954
0.408689 0.048270 0.048569
0.439415 0.051921 0.048838
0.476993 0.059306 0.056187
0.029694 0.044919 0.049135
0.041680 0.052365 0.055848
0.074225 0.056504 0.052308
0.116469 0.057476 0.045543
0.151668 0.060308 0.043696
0.184573 0.060475 0.041467
0.217165 0.060380 0.041083
0.247231 0.060118 0.040952
0.277981 0.056508 0.040908
0.307692 0.055131 0.040937
0.337980 0.052751 0.042630
0.369194 0.052751 0.044380
0.400487 0.054665 0.044617
0.431429 0.056417 0.047915
0.466124 0.066518 0.051577
0.504189 0.082230 0.055959
0.026028 0.057094 0.049935
0.041592 0.065520 0.053240
0.091767 0.083922 0.052423
0.138727 0.086172 0.045736
0.184569 0.091647 0.044971
0.227292 0.092209 0.042777
0.263306 0.092149 0.044056
0.293548 0.090014 0.041762
0.323772 0.086644 0.043683
0.351389 0.083560 0.044362
0.378663 0.081221 0.044365
0.408775 0.079928 0.044945
0.439598 0.079909 0.048010
0.470967 0.085946 0.048234
0.504571 0.095339 0.051889
0.539447 0.114488 0.056689
0.026028 0.076033 0.056394
0.034519 0.084695 0.052834
0.081527 0.106620 0.052239
0.168618 0.131698 0.048983
0.222797 0.136289 0.045133
0.270931 0.135379 0.044631
0.315690 0.138457 0.044635
0.348673 0.135030 0.044688
0.377686 0.128974 0.044904
0.403102 0.123904 0.045583
0.428369 0.120053 0.047370
0.456490 0.119813 0.048151
0.486078 0.119462 0.048634
0.516736 0.123685 0.051778
0.547232 0.137946 0.055117
0.579287 0.161355 0.060065
0.026093 0.095230 0.060994
0.034572 0.104440 0.056093
0.084305 0.137898 0.051655
0.174152 0.170178 0.047860
0.266234 0.191511 0.048070
0.322310 0.195882 0.045922
0.366690 0.192375 0.045936
0.397839 0.186297 0.048160
0.427235 0.180990 0.048191
0.453750 0.175944 0.048656
0.477667 0.170940 0.049595
0.503307 0.168255 0.050827
0.530988 0.168310 0.051844
0.559717 0.174015 0.052886
0.588616 0.187059 0.056655
0.623353 0.210840 0.063987
0.029719 0.114485 0.065243
0.034890 0.127404 0.056339
0.094174 0.173262 0.048911
0.191730 0.217384 0.045078
0.300149 0.246006 0.048384
0.381093 0.261548 0.049272
0.426382 0.260021 0.049730
0.454435 0.251581 0.050369
0.483161 0.243505 0.051454
0.509144 0.237714 0.052785
0.535161 0.233314 0.053832
0.558872 0.230422 0.054268
0.580974 0.226942 0.055866
0.608105 0.231721 0.057471
0.638968 0.245630 0.060639
0.673850 0.269441 0.068841
0.029719 0.134539 0.067955
0.035030 0.149966 0.058347
0.101757 0.208104 0.048379
0.212755 0.266062 0.044785
0.339446 0.305417 0.048860
0.428561 0.326802 0.053048
0.488697 0.334104 0.055368
0.514928 0.324022 0.056669
0.541009 0.313588 0.057384
0.569325 0.309686 0.058652
0.595892 0.304875 0.061304
0.619408 0.300070 0.062023
0.640944 0.296386 0.062251
0.665141 0.298265 0.065102
0.691460 0.306451 0.066954
0.722473 0.327909 0.074960
0.029719 0.158401 0.070489
0.034822 0.175439 0.061401
0.093831 0.234468 0.050133
0.204611 0.295722 0.044705
0.330933 0.337803 0.048824
0.441692 0.371481 0.055720
0.518191 0.388443 0.061343
0.568414 0.392648 0.065879
0.596792 0.383234 0.066834
0.622339 0.377113 0.068355
0.653397 0.375726 0.070620
0.679946 0.371370 0.072143
0.700553 0.365626 0.073170
0.723088 0.364942 0.075368
0.746063 0.368788 0.077640
0.771266 0.383511 0.084639
0.029733 0.184233 0.075179
0.037248 0.203610 0.063427
0.080016 0.255780 0.051811
0.158389 0.304848 0.044791
0.271054 0.347703 0.047241
0.389883 0.385243 0.053294
0.505105 0.420986 0.063221
0.584471 0.439948 0.071869
0.644336 0.450313 0.079668
0.673495 0.444407 0.081728
0.705627 0.441336 0.083558
0.734030 0.439007 0.084659
0.757324 0.433917 0.086103
0.777771 0.430166 0.087425
0.796918 0.429334 0.089482
0.816027 0.436855 0.094466
0.033410 0.209175 0.078877
0.037356 0.225751 0.066236
0.060159 0.263727 0.054827
0.109799 0.304545 0.048399
0.181201 0.339020 0.047200
0.294500 0.377660 0.049706
0.435357 0.422254 0.058351
0.557810 0.462190 0.072256
0.651850 0.489106 0.085174
0.708129 0.499696 0.094538
0.741563 0.495439 0.096427
0.771031 0.490226 0.097304
0.795282 0.485077 0.098173
0.817770 0.482015 0.099498
0.834545 0.479423 0.100968
0.850262 0.482681 0.104304
0.033410 0.232514 0.082271
0.037334 0.247810 0.066951
0.046047 0.267896 0.059339
0.068479 0.295817 0.053308
0.107017 0.326209 0.050118
0.187833 0.360497 0.048201
0.325476 0.407219 0.052418
0.484204 0.457730 0.065734
0.623127 0.506238 0.083536
0.707493 0.531168 0.099010
0.762928 0.539975 0.110024
0.795011 0.536514 0.111408
0.819583 0.529233 0.109265
0.841949 0.524162 0.109813
0.859057 0.519068 0.110334
0.876296 0.524265 0.113794
0.033410 0.251859 0.082257
0.040670 0.263402 0.067230
0.044296 0.277338 0.062825
0.052563 0.296879 0.057910
0.072876 0.322445 0.053864
0.135868 0.357435 0.050097
0.256517 0.403616 0.050499
0.426423 0.458386 0.061448
0.585619 0.512195 0.080129
0.693686 0.551990 0.099789
0.763358 0.570962 0.114875
0.802685 0.571131 0.120715
0.828041 0.563647 0.120002
0.852235 0.558378 0.118326
0.871973 0.553616 0.118099
0.888840 0.554702 0.121843
0.037101 0.270676 0.082271
0.040670 0.278944 0.067541
0.044239 0.290504 0.064989
0.052024 0.307818 0.059312
0.068291 0.333463 0.054727
0.131752 0.372628 0.051839
0.258117 0.422204 0.052568
0.421422 0.476256 0.063112
0.579920 0.530471 0.081927
0.687777 0.568212 0.101692
0.764422 0.596170 0.119236
0.806377 0.601213 0.128152
0.829051 0.594125 0.128338
0.853827 0.586708 0.125734
0.870982 0.582199 0.125751
0.892758 0.582468 0.128809
0.037101 0.286449 0.085158
0.040670 0.294989 0.073746
0.044239 0.306590 0.070405
0.053326 0.327696 0.065998
0.075358 0.358677 0.057613
0.150878 0.401235 0.052247
0.302829 0.456701 0.057097
0.457915 0.507872 0.069707
0.603314 0.557764 0.089570
0.703025 0.593866 0.108946
0.770651 0.617349 0.123939
0.818455 0.630400 0.137533
0.839235 0.625123 0.136726
0.854370 0.613684 0.133332
0.870681 0.609329 0.133486
0.892800 0.608853 0.136873
0.037101 0.302527 0.089938
0.040670 0.313940 0.085944
0.045088 0.330411 0.085563
0.055917 0.355312 0.080589
0.101815 0.392808 0.065938
0.204137 0.441321 0.059633
0.367097 0.496970 0.064263
0.519034 0.546528 0.080471
0.648350 0.592291 0.101358
0.733456 0.623541 0.120638
0.793206 0.643609 0.134553
0.831962 0.652996 0.143850
0.851663 0.649212 0.145199
0.865458 0.641054 0.144243
0.874437 0.633181 0.138144
0.893005 0.632504 0.141596
0.037101 0.321434 0.105200
0.041093 0.341154 0.109849
0.049889 0.364765 0.113672
0.076277 0.394985 0.106850
0.143668 0.439697 0.088094
0.281160 0.489880 0.073485
0.444106 0.541232 0.075851
0.577269 0.584931 0.096016
0.686056 0.624184 0.120746
0.757358 0.651811 0.141087
0.816102 0.668017 0.150718
0.851501 0.674309 0.156578
0.870194 0.674020 0.156951
0.881711 0.667923 0.156921
0.889440 0.662943 0.153065
0.896795 0.655695 0.149060
0.026028 0.037101 0.068040
0.034168 0.037101 0.069206
0.057338 0.040421 0.076408
0.091084 0.044256 0.076289
0.123126 0.047946 0.073220
0.156153 0.049500 0.071060
0.187294 0.051961 0.066450
0.219316 0.051961 0.061516
0.255684 0.051961 0.060852
0.287939 0.051961 0.058340
0.319219 0.048270 0.057507
0.350967 0.048270 0.057370
0.384699 0.048270 0.057868
0.419787 0.048270 0.061505
0.452117 0.051715 0.068196
0.489076 0.059306 0.077859
0.026056 0.045221 0.069198
0.040702 0.051901 0.077092
0.066163 0.053418 0.087007
0.111237 0.056582 0.076991
0.149195 0.059741 0.071337
0.182575 0.060010 0.066239
0.216747 0.060010 0.059485
0.247899 0.059937 0.056590
0.280559 0.056081 0.053118
0.311397 0.054650 0.052682
0.341890 0.052253 0.052767
0.373462 0.052126 0.052447
0.405611 0.052207 0.053107
0.439950 0.055806 0.056831
0.474299 0.063450 0.064294
0.512148 0.079155 0.073783
0.026093 0.061063 0.075704
0.040485 0.071521 0.084203
0.070364 0.080033 0.083366
0.126582 0.085170 0.076202
0.176012 0.084872 0.064526
0.215072 0.083739 0.057868
0.250539 0.081281 0.053363
0.282555 0.078985 0.050059
0.310723 0.073915 0.049379
0.338622 0.069003 0.048638
0.368035 0.065286 0.049040
0.398852 0.065130 0.050782
0.429560 0.065148 0.052195
0.463196 0.071290 0.053380
0.498229 0.084011 0.060659
0.540236 0.111091 0.076426
0.026187 0.080264 0.077157
0.033927 0.089635 0.081182
0.063528 0.101774 0.080979
0.158560 0.133209 0.076474
0.218662 0.134270 0.065865
0.270322 0.132819 0.059652
0.312087 0.131934 0.055242
0.344377 0.126291 0.052930
0.370409 0.117534 0.052366
0.394166 0.110044 0.051830
0.419381 0.104547 0.051828
0.448858 0.102051 0.051998
0.477032 0.101147 0.053317
0.509149 0.109766 0.055636
0.541469 0.129648 0.061232
0.583366 0.161578 0.080454
0.027674 0.099412 0.081786
0.033451 0.111212 0.082323
0.049248 0.125014 0.076908
0.149513 0.165480 0.072342
0.266243 0.198126 0.069750
0.324975 0.196273 0.062343
0.370664 0.190223 0.057191
0.407276 0.185590 0.056135
0.432845 0.174695 0.053829
0.454630 0.163938 0.053608
0.476699 0.156121 0.053683
0.501527 0.152645 0.054975
0.528585 0.151047 0.055846
0.557526 0.157825 0.058812
0.590034 0.179452 0.064898
0.632310 0.217721 0.085818
0.029719 0.119310 0.089310
0.033288 0.132455 0.085784
0.045460 0.147130 0.074376
0.154626 0.205933 0.065219
0.281310 0.248847 0.064886
0.383892 0.270956 0.065958
0.433213 0.266896 0.060789
0.469903 0.257077 0.058091
0.496029 0.243644 0.058058
0.517951 0.232834 0.057953
0.539859 0.224125 0.058087
0.561927 0.217415 0.058851
0.584303 0.214012 0.060135
0.611677 0.220988 0.062002
0.644398 0.243101 0.069579
0.686404 0.278652 0.091541
0.029719 0.142099 0.096305
0.033288 0.155917 0.088275
0.043772 0.171030 0.072440
0.163343 0.244756 0.060762
0.301752 0.301696 0.058724
0.417065 0.331162 0.063381
0.496290 0.345911 0.067551
0.532304 0.336789 0.066587
0.561311 0.323984 0.066589
0.586090 0.312966 0.066331
0.609511 0.303051 0.066284
0.631398 0.294956 0.066895
0.648918 0.288773 0.067261
0.671938 0.291819 0.069777
0.702317 0.308977 0.077688
0.739092 0.344294 0.100415
0.029719 0.165640 0.100792
0.033355 0.180641 0.088084
0.043671 0.196413 0.071596
0.148351 0.270746 0.057219
0.287191 0.334506 0.054394
0.427042 0.378650 0.062035
0.523517 0.402783 0.070389
0.588932 0.412558 0.076969
0.621650 0.402440 0.078752
0.650904 0.392520 0.078960
0.678240 0.385520 0.079654
0.700591 0.374965 0.079246
0.717126 0.366084 0.079297
0.737226 0.365498 0.081133
0.758806 0.376023 0.088055
0.788235 0.402313 0.106619
0.030779 0.190579 0.104387
0.036979 0.205808 0.090842
0.042818 0.221492 0.072577
0.098346 0.279777 0.058639
0.209125 0.337327 0.052906
0.355237 0.385364 0.057633
0.495511 0.430922 0.069257
0.595020 0.457535 0.081546
0.669476 0.472937 0.094518
0.704384 0.465790 0.096056
0.735884 0.458689 0.095523
0.762990 0.450784 0.094892
0.780114 0.440116 0.094715
0.795090 0.434609 0.094953
0.810922 0.439196 0.100040
0.829918 0.455540 0.115311
0.033410 0.214388 0.106706
0.036979 0.229352 0.090958
0.041631 0.242591 0.074587
0.068590 0.283851 0.062630
0.123450 0.325227 0.054459
0.243887 0.372280 0.053909
0.405791 0.424162 0.062113
0.557382 0.474668 0.078255
0.665598 0.507810 0.097077
0.736442 0.522843 0.111994
0.771709 0.515679 0.111835
0.801533 0.507758 0.108879
0.822894 0.499174 0.107594
0.836839 0.491436 0.107273
0.847645 0.491630 0.112179
0.861271 0.500932 0.123422
0.033410 0.236857 0.106222
0.037206 0.248702 0.090505
0.043878 0.260507 0.075363
0.051985 0.285385 0.066623
0.079624 0.316258 0.060070
0.152192 0.358927 0.054585
0.304406 0.411194 0.057762
0.483768 0.470797 0.071971
0.637010 0.524890 0.094863
0.730148 0.553347 0.115060
0.788795 0.562360 0.126046
0.820399 0.552647 0.123288
0.843815 0.543977 0.119542
0.860014 0.536364 0.119369
0.874222 0.533664 0.121333
0.884492 0.540249 0.131319
0.033410 0.255906 0.105837
0.040670 0.267431 0.090491
0.044239 0.276590 0.075486
0.048508 0.292514 0.068268
0.063145 0.318065 0.063031
0.122613 0.360750 0.056113
0.257647 0.414287 0.056742
0.437006 0.476089 0.068496
0.608112 0.536084 0.092140
0.722480 0.578103 0.116466
0.788499 0.593685 0.130708
0.826854 0.590039 0.133992
0.849534 0.581205 0.129880
0.867511 0.571581 0.128604
0.886628 0.567963 0.130707
0.897982 0.572212 0.138742
0.037101 0.274919 0.106547
0.040670 0.283106 0.091055
0.044239 0.291115 0.076193
0.048730 0.307859 0.071214
0.063226 0.334205 0.063746
0.125320 0.379367 0.056921
0.275640 0.440255 0.060402
0.452052 0.501297 0.072520
0.614823 0.557692 0.096565
0.726064 0.599146 0.119695
0.795357 0.620759 0.137313
0.833761 0.621600 0.142572
0.852470 0.611148 0.138466
0.870508 0.602200 0.137125
0.886375 0.597963 0.138760
0.903258 0.601640 0.146462
0.037101 0.291724 0.110322
0.040670 0.302091 0.099058
0.044239 0.310525 0.089546
0.049781 0.330891 0.085642
0.075122 0.365109 0.076530
0.155120 0.414904 0.065376
0.323653 0.478018 0.066782
0.502329 0.537747 0.082304
0.648262 0.588912 0.107953
0.744900 0.624510 0.130883
0.808388 0.644303 0.144465
0.844847 0.650096 0.151727
0.862543 0.642066 0.150281
0.874569 0.632883 0.145754
0.889620 0.628015 0.149035
0.904402 0.626649 0.155615
0.037101 0.310481 0.121254
0.040670 0.325058 0.120839
0.045455 0.341651 0.123864
0.057659 0.367628 0.122145
0.100606 0.410504 0.112471
0.216075 0.461206 0.086551
0.385717 0.519801 0.082737
0.548336 0.571264 0.098745
0.679130 0.618456 0.128041
0.762840 0.648388 0.148023
0.823315 0.666745 0.159721
0.858339 0.672541 0.165363
0.873748 0.667793 0.165818
0.885415 0.660741 0.162218
0.893666 0.652949 0.155082
0.908131 0.652694 0.167041
0.037101 0.333782 0.141411
0.044332 0.353338 0.153426
0.053148 0.383681 0.171180
0.077572 0.416547 0.171747
0.138056 0.457872 0.153464
0.286811 0.508371 0.115142
0.451234 0.558913 0.105218
0.591169 0.604737 0.123109
0.698016 0.644497 0.155554
0.774974 0.671150 0.175187
0.833206 0.685887 0.181826
0.864696 0.693142 0.185995
0.883653 0.693382 0.189062
0.898874 0.690137 0.187827
0.907349 0.683360 0.183014
0.915056 0.676274 0.175419
0.027296 0.037101 0.091043
0.033913 0.037101 0.095186
0.052399 0.037510 0.102292
0.079916 0.041398 0.106122
0.112052 0.044801 0.106470
0.146993 0.048421 0.102407
0.182059 0.051586 0.095798
0.217229 0.051961 0.091313
0.256411 0.051961 0.088337
0.294242 0.051086 0.085841
0.327005 0.048270 0.084304
0.361411 0.048270 0.084304
0.396177 0.048270 0.087961
0.434547 0.048270 0.093607
0.470121 0.051936 0.101773
0.503926 0.060056 0.120509
0.029719 0.048783 0.095781
0.033752 0.048708 0.103524
0.053971 0.049340 0.114083
0.096709 0.053380 0.123587
0.139426 0.056033 0.111368
0.178224 0.058829 0.099776
0.213535 0.059347 0.090772
0.248524 0.059253 0.083513
0.284317 0.055898 0.076812
0.318408 0.054351 0.074002
0.349821 0.052065 0.073026
0.384282 0.052041 0.073739
0.416795 0.052082 0.074612
0.454631 0.055404 0.081473
0.489384 0.063995 0.096838
0.524257 0.079833 0.117527
0.029719 0.064514 0.101066
0.033962 0.068723 0.112476
0.059692 0.075644 0.116749
0.112302 0.080920 0.129329
0.165898 0.082268 0.113108
0.213390 0.082474 0.099736
0.249552 0.079827 0.088082
0.283318 0.076282 0.078454
0.315118 0.072273 0.070271
0.343686 0.067043 0.068110
0.374934 0.063101 0.066209
0.407834 0.061685 0.066737
0.439842 0.064139 0.066811
0.474382 0.067893 0.075088
0.509289 0.083516 0.094351
0.550316 0.111362 0.117179
0.029719 0.084758 0.111645
0.034015 0.098501 0.125884
0.060239 0.110205 0.130117
0.124992 0.126597 0.130846
0.193823 0.132315 0.118107
0.253243 0.128607 0.097547
0.294541 0.123117 0.084009
0.327471 0.115628 0.073296
0.355009 0.107528 0.067869
0.380569 0.099457 0.064239
0.407351 0.092710 0.061808
0.436765 0.088260 0.062103
0.466715 0.086754 0.062153
0.499464 0.093600 0.065917
0.537467 0.118915 0.081325
0.582183 0.153642 0.111625
0.029719 0.104874 0.116920
0.033486 0.119548 0.124972
0.046462 0.132047 0.124407
0.106399 0.155807 0.125593
0.235281 0.195025 0.124028
0.307863 0.194072 0.103814
0.358006 0.188120 0.088385
0.395697 0.180999 0.076699
0.424040 0.168673 0.070241
0.443188 0.154949 0.066472
0.466318 0.146334 0.064493
0.492045 0.139735 0.064303
0.518439 0.137108 0.064654
0.547600 0.142368 0.067904
0.587451 0.170933 0.084981
0.635873 0.218870 0.122341
0.029719 0.126985 0.123500
0.033305 0.142608 0.126168
0.041872 0.154428 0.119767
0.081848 0.180172 0.112499
0.223782 0.235004 0.110257
0.360205 0.272793 0.115523
0.420566 0.267365 0.097532
0.462439 0.256074 0.081489
0.494324 0.243169 0.074564
0.515713 0.229736 0.070733
0.536387 0.216634 0.067392
0.557773 0.208280 0.066961
0.581097 0.203397 0.068822
0.608035 0.209913 0.073277
0.645863 0.240112 0.093376
0.693075 0.287174 0.133615
0.029719 0.151325 0.132691
0.033288 0.167285 0.132281
0.038082 0.177349 0.116010
0.068104 0.202029 0.098460
0.223142 0.274290 0.093137
0.377874 0.326034 0.100972
0.477390 0.348412 0.107636
0.524068 0.339387 0.094203
0.561339 0.327123 0.082587
0.586887 0.312711 0.079806
0.609552 0.300769 0.076744
0.631535 0.290842 0.075954
0.649644 0.282200 0.075812
0.674874 0.285818 0.081231
0.711929 0.317246 0.103744
0.751648 0.360124 0.149784
0.029719 0.177102 0.142335
0.034387 0.191350 0.135311
0.039813 0.200750 0.114854
0.060735 0.221448 0.090153
0.210457 0.301882 0.078762
0.381138 0.369101 0.084100
0.499555 0.402374 0.098034
0.578899 0.417626 0.107507
