example_ofxGpuLutCube/bin/data/ofxGpuLutCube/LUT/C27 (warm skintone brown green fade).cube
LUT_3D_SIZE 6
0.029719 0.033410 0.033410
0.096816 0.044579 0.033410
0.189241 0.051961 0.037101
0.282309 0.048270 0.037101
0.373674 0.048270 0.040793
0.469070 0.059307 0.044579
0.026028 0.072322 0.040963
0.142205 0.113819 0.037692
0.285724 0.135228 0.039702
0.396937 0.139491 0.041913
0.485591 0.139142 0.045048
0.575101 0.164294 0.051931
0.029719 0.131260 0.050598
0.213232 0.241720 0.039339
0.422132 0.287514 0.046396
0.530465 0.294136 0.051779
0.621606 0.299001 0.058325
0.706681 0.319121 0.066048
0.033410 0.207197 0.059343
0.193318 0.329765 0.040793
0.473094 0.418627 0.056129
0.661467 0.460654 0.076687
0.757182 0.466003 0.086810
0.834493 0.473070 0.096368
0.037101 0.266969 0.063129
0.058855 0.316053 0.051571
0.259658 0.408685 0.046907
0.647388 0.537196 0.086015
0.803528 0.573586 0.116680
0.877451 0.567496 0.118043
0.037101 0.313300 0.074165
0.067080 0.371146 0.061558
0.400233 0.510618 0.063148
0.723728 0.623477 0.114257
0.842232 0.655480 0.143310
0.877489 0.636235 0.133677
0.027296 0.037101 0.091043
0.079916 0.041398 0.106122
0.182059 0.051586 0.095798
0.294242 0.051086 0.085841
0.396177 0.048270 0.087961
0.503926 0.060056 0.120509
0.029719 0.084758 0.111645
0.124992 0.126597 0.130846
0.294541 0.123117 0.084009
0.380569 0.099457 0.064239
0.466715 0.086754 0.062153
0.582183 0.153642 0.111625
0.029719 0.151325 0.132691
0.068104 0.202029 0.098460
0.477390 0.348412 0.107636
0.586887 0.312711 0.079806
0.649644 0.282200 0.075812
0.751648 0.360124 0.149784
0.033410 0.226422 0.148232
0.049913 0.259098 0.089232
0.396474 0.428895 0.071973
0.746848 0.536425 0.137008
0.834866 0.506773 0.117582
0.868115 0.525003 0.179183
0.037101 0.283328 0.141353
0.048371 0.312885 0.102818
0.278857 0.455891 0.073201
0.749174 0.620415 0.142509
0.875650 0.632782 0.157436
0.909684 0.626227 0.197628
0.037270 0.353262 0.192983
0.073689 0.431744 0.239611
0.429637 0.564768 0.144394
0.770282 0.683963 0.221161
0.886812 0.713773 0.251976
0.922124 0.703602 0.240807
0.029719 0.037101 0.153502
0.062600 0.037101 0.167934
0.172087 0.044556 0.183990
0.314459 0.045124 0.186557
0.422038 0.044579 0.198459
0.524760 0.063076 0.241826
0.033410 0.092126 0.185792
0.054913 0.093688 0.208889
0.288937 0.115724 0.260598
0.396423 0.079640 0.202583
0.499066 0.081069 0.208024
0.605640 0.167870 0.284729
0.033410 0.170448 0.230605
0.054262 0.230412 0.286030
0.377671 0.365995 0.349179
0.563435 0.317158 0.252424
0.618599 0.258578 0.203103
0.755137 0.385216 0.334834
0.036556 0.270281 0.289267
0.050030 0.318384 0.291163
0.211734 0.394819 0.236398
0.713476 0.562587 0.329817
0.827468 0.544654 0.282879
0.874633 0.593827 0.423606
0.039259 0.357091 0.318047
0.053529 0.389924 0.307455
0.132044 0.440161 0.264730
0.706041 0.643237 0.283800
0.885357 0.686980 0.334971
0.916624 0.693486 0.443560
0.044564 0.426107 0.359034
0.074931 0.471422 0.374885
0.260767 0.564103 0.369737
0.695756 0.699557 0.387090
0.876248 0.761447 0.451907
0.931732 0.766774 0.466536
0.033410 0.040793 0.216965
0.063020 0.037101 0.229042
0.185883 0.040486 0.261945
0.346177 0.043413 0.284005
0.440596 0.045987 0.297585
0.516644 0.055615 0.320849
0.036132 0.099012 0.256728
0.046030 0.073738 0.258182
0.180738 0.069385 0.300118
0.437679 0.084580 0.347521
0.502592 0.072219 0.333008
0.593161 0.153503 0.376429
0.037101 0.184171 0.312937
0.050654 0.204909 0.351994
0.152181 0.260722 0.379544
0.554683 0.334140 0.462572
0.611531 0.253962 0.407811
0.744628 0.399285 0.476784
0.041610 0.303408 0.392137
0.074180 0.408750 0.475538
0.228403 0.474867 0.488238
0.624086 0.595681 0.560033
0.779891 0.572457 0.519112
0.852987 0.622838 0.570768
0.059597 0.454419 0.473791
0.087623 0.511637 0.509770
0.197154 0.555058 0.504475
0.534716 0.643843 0.523377
0.851320 0.731089 0.572821
0.903857 0.741216 0.617117
0.063849 0.511538 0.494601
0.116733 0.549816 0.501515
0.294219 0.632321 0.535008
0.606914 0.724732 0.577616
0.830563 0.797074 0.626945
0.923400 0.806829 0.625106
0.033410 0.043821 0.266969
0.064121 0.040793 0.277017
0.204986 0.040793 0.323454
0.361808 0.044510 0.347850
0.459548 0.050148 0.362865
0.513556 0.051961 0.367170
0.037101 0.096078 0.304044
0.047808 0.065484 0.300687
0.161531 0.063693 0.344307
0.405834 0.073753 0.395155
0.506899 0.072334 0.399892
0.573300 0.128095 0.413156
0.040793 0.198880 0.378803
0.051499 0.188316 0.395534
0.087525 0.203555 0.400359
0.447271 0.251994 0.485449
0.600072 0.235358 0.480388
0.708129 0.356607 0.525467
0.044579 0.319240 0.460097
0.063324 0.372653 0.517199
0.161493 0.440659 0.541687
0.501292 0.542505 0.614315
0.757856 0.575263 0.650550
0.833078 0.619028 0.660247
0.062387 0.468926 0.543144
0.092977 0.529080 0.600373
0.283083 0.625404 0.642091
0.592284 0.707888 0.692241
0.800620 0.759058 0.729031
0.880274 0.770506 0.739457
0.070512 0.535273 0.563913
0.171956 0.610020 0.598221
0.412253 0.705925 0.656237
0.653962 0.778371 0.709095
0.800601 0.821175 0.744935
0.903314 0.846801 0.773087
0.037101 0.044579 0.309572
0.067097 0.044541 0.319413
0.238244 0.053409 0.388223
0.388389 0.056221 0.406017
0.458690 0.051961 0.406054
0.517417 0.055652 0.409839
0.037101 0.104185 0.353456
0.053506 0.124241 0.374066
0.175284 0.131188 0.411622
0.428473 0.155488 0.466254
0.520518 0.140714 0.462463
0.581358 0.136313 0.462501
0.040793 0.216489 0.434893
0.065076 0.261316 0.472107
0.228319 0.368027 0.551864
0.530286 0.396078 0.600945
0.653793 0.387421 0.598847
0.724300 0.385807 0.595304
0.048269 0.332576 0.510877
0.095759 0.411919 0.560026
0.344787 0.546627 0.655339
0.614500 0.617033 0.711645
0.746563 0.632043 0.726977
0.828425 0.634077 0.727473
0.058001 0.449645 0.577580
0.146399 0.531869 0.618376
0.394110 0.638418 0.692250
0.641028 0.713793 0.752068
0.785201 0.759458 0.788818
0.871502 0.779278 0.806885
0.070475 0.532239 0.617647
0.182811 0.623401 0.665071
0.432684 0.726066 0.731115
0.686618 0.800953 0.791212
0.817740 0.841955 0.830583
0.903312 0.866211 0.855134
