example_ofxGpuLutCube/bin/data/ofxGpuLutCube/LUT/C28 (deep B&W).cube
LUT_3D_SIZE 16
0.022242 0.022242 0.022242
0.025811 0.022242 0.022242
0.031424 0.024286 0.024286
0.039233 0.028527 0.028527
0.050033 0.035758 0.035758
0.062612 0.044768 0.044768
0.074188 0.052775 0.052775
0.085215 0.060233 0.060233
0.097586 0.069035 0.069035
0.112096 0.079976 0.079976
0.128253 0.092564 0.092564
0.145981 0.106724 0.106724
0.164921 0.122094 0.122094
0.185091 0.138695 0.138695
0.207456 0.157492 0.157492
0.224270 0.170737 0.170737
0.035682 0.039251 0.035682
0.043786 0.043786 0.040217
0.052159 0.048590 0.045022
0.060850 0.053713 0.050144
0.071832 0.061125 0.057557
0.085176 0.070901 0.067332
0.098399 0.080555 0.076986
0.111478 0.090065 0.086496
0.125473 0.100491 0.096922
0.141361 0.112810 0.109241
0.159600 0.127480 0.123911
0.180274 0.144585 0.141016
0.203397 0.164139 0.160570
0.228276 0.185450 0.181881
0.254575 0.208180 0.204611
0.272559 0.222595 0.219026
0.047513 0.054650 0.047513
0.057283 0.060852 0.053714
0.065221 0.065221 0.058083
0.077232 0.073663 0.066525
0.087986 0.080849 0.073711
0.099581 0.088875 0.081737
0.112956 0.098680 0.091542
0.127821 0.109977 0.102839
0.143782 0.122368 0.115230
0.161021 0.136039 0.128901
0.180631 0.152080 0.144942
0.203943 0.171823 0.164685
0.231151 0.195462 0.188324
0.261031 0.221774 0.214636
0.291291 0.248464 0.241326
0.311383 0.264988 0.257850
0.053305 0.064012 0.053305
0.065979 0.073117 0.062410
0.076949 0.080518 0.069811
0.085731 0.085731 0.075025
0.099238 0.095669 0.084962
0.114441 0.107303 0.096596
0.131101 0.120395 0.109688
0.148390 0.134115 0.123408
0.167110 0.149266 0.138559
0.187958 0.166544 0.155838
0.210861 0.185879 0.175172
0.235385 0.206833 0.196127
0.261313 0.229193 0.218486
0.288415 0.252726 0.242019
0.317826 0.278568 0.267861
0.338471 0.295644 0.284938
0.067653 0.081929 0.067653
0.081164 0.091871 0.077595
0.092471 0.099609 0.085333
0.101310 0.104879 0.090603
0.111394 0.111394 0.097119
0.128770 0.125201 0.110926
0.148762 0.141625 0.127349
0.169405 0.158699 0.144423
0.191718 0.177443 0.163167
0.217529 0.199685 0.185409
0.246334 0.224921 0.210646
0.275106 0.250124 0.235848
0.302787 0.274236 0.259960
0.330737 0.298617 0.284341
0.360886 0.325197 0.310922
0.382462 0.343205 0.328929
0.088400 0.106244 0.088400
0.102039 0.116315 0.098470
0.113767 0.124473 0.106629
0.124491 0.131629 0.113784
0.135404 0.138973 0.121129
0.148646 0.148646 0.130802
0.169573 0.166004 0.148160
0.193188 0.186050 0.168206
0.219018 0.208311 0.190467
0.248179 0.233904 0.216059
0.278741 0.260897 0.243053
0.311594 0.290181 0.272336
0.347570 0.322588 0.304743
0.386423 0.357872 0.340028
0.425863 0.393743 0.375899
0.451231 0.415542 0.397698
0.111002 0.132415 0.111002
0.124285 0.142129 0.120716
0.137746 0.152022 0.130609
0.152609 0.163315 0.141902
0.166218 0.173355 0.151942
0.180258 0.183827 0.162414
0.197831 0.197831 0.176418
0.223399 0.219831 0.198417
0.250925 0.243788 0.222374
0.279939 0.269232 0.247819
0.312284 0.298009 0.276595
0.349101 0.331256 0.309843
0.393125 0.371712 0.350299
0.443385 0.418403 0.396990
0.492335 0.463784 0.442371
0.520851 0.488731 0.467318
0.135383 0.160365 0.135383
0.148662 0.170076 0.145093
0.163755 0.181600 0.156618
0.183528 0.197803 0.172821
0.202600 0.213306 0.188324
0.218382 0.225520 0.200537
0.235886 0.239455 0.214473
0.257018 0.257018 0.232036
0.285108 0.281539 0.256557
0.315098 0.307961 0.282978
0.349745 0.339039 0.314057
0.392403 0.378128 0.353146
0.441581 0.423736 0.398754
0.496194 0.474781 0.449799
0.552235 0.527253 0.502271
0.585060 0.556509 0.531527
0.163171 0.191722 0.163171
0.176886 0.201868 0.173317
0.192668 0.214081 0.185530
0.214931 0.232776 0.204225
0.239875 0.254151 0.225600
0.258891 0.269597 0.241046
0.276573 0.283711 0.255160
0.297303 0.300872 0.272321
0.322819 0.322819 0.294268
0.357966 0.354397 0.325846
0.396255 0.389117 0.360566
0.440378 0.429671 0.401120
0.490543 0.476268 0.447717
0.545642 0.527797 0.499246
0.604037 0.582624 0.554073
0.638631 0.613648 0.585097
0.195067 0.227187 0.195067
0.209141 0.237693 0.205573
0.224833 0.249815 0.217695
0.245764 0.267177 0.235057
0.274914 0.292758 0.260638
0.301482 0.315757 0.283637
0.322791 0.333498 0.301378
0.345793 0.352931 0.320811
0.374299 0.377868 0.345748
0.408965 0.408965 0.376845
0.452494 0.448925 0.416805
0.494974 0.487836 0.455716
0.541069 0.530363 0.498243
0.594021 0.579746 0.547626
0.649521 0.631676 0.599556
0.682395 0.660982 0.628862
0.229329 0.265018 0.229329
0.243120 0.275240 0.239551
0.258728 0.287279 0.251590
0.278689 0.303671 0.267983
0.310936 0.332349 0.296661
0.349392 0.367236 0.331547
0.379178 0.393453 0.357764
0.406522 0.417228 0.381540
0.436933 0.444070 0.408382
0.472322 0.475891 0.440202
0.510910 0.510910 0.475221
0.555536 0.551968 0.516279
0.598289 0.591151 0.555462
0.644752 0.634045 0.598356
0.695038 0.680763 0.645074
0.725895 0.708050 0.672361
0.264897 0.304155 0.264897
0.279343 0.315032 0.275774
0.296571 0.328691 0.289433
0.317400 0.345951 0.306693
0.351945 0.376927 0.337669
0.402072 0.423485 0.384228
0.442943 0.460788 0.421530
0.473611 0.487887 0.448629
0.504374 0.515081 0.475823
0.538495 0.545633 0.506375
0.576576 0.580145 0.540887
0.616292 0.616292 0.577034
0.658711 0.655143 0.615885
0.699155 0.692017 0.652759
0.740332 0.729626 0.690368
0.765269 0.750993 0.711735
0.304441 0.347267 0.304441
0.320772 0.360029 0.317203
0.341680 0.377369 0.334542
0.365904 0.398024 0.355198
0.400286 0.428837 0.386011
0.454185 0.479167 0.436340
0.505751 0.527164 0.484337
0.541337 0.559181 0.516354
0.572171 0.586447 0.543620
0.604187 0.614894 0.572067
0.640879 0.648016 0.605190
0.679531 0.683100 0.640273
0.715382 0.715382 0.672556
0.751449 0.747880 0.705053
0.781466 0.774328 0.731501
0.799590 0.788883 0.746057
0.352199 0.398595 0.352199
0.371464 0.414291 0.367895
0.396439 0.435696 0.389301
0.423499 0.459188 0.412792
0.455496 0.487616 0.441220
0.505956 0.534507 0.488112
0.565389 0.590372 0.543976
0.607483 0.628897 0.582501
0.638916 0.656761 0.610365
0.669429 0.683705 0.637309
0.702475 0.713181 0.666786
0.736989 0.744127 0.697732
0.768055 0.771624 0.725228
0.793499 0.793499 0.747103
0.818442 0.814873 0.768478
0.832774 0.825636 0.779241
0.409176 0.459141 0.409176
0.430088 0.476484 0.426520
0.457364 0.500191 0.450227
0.485992 0.525250 0.475285
0.516122 0.551811 0.501847
0.560018 0.592138 0.542174
0.621049 0.649600 0.599636
0.672278 0.697260 0.647296
0.704809 0.726222 0.676258
0.731196 0.749040 0.699076
0.756669 0.770945 0.720980
0.783567 0.794273 0.744309
0.809790 0.816928 0.766964
0.831399 0.834968 0.785003
0.849354 0.849354 0.799390
0.862852 0.859284 0.809319
0.451543 0.505076 0.451543
0.472812 0.522776 0.469243
0.500912 0.547308 0.493775
0.530074 0.572901 0.519367
0.559747 0.599004 0.545471
0.599622 0.635311 0.581778
0.658561 0.690681 0.637148
0.713315 0.741867 0.688333
0.743388 0.768370 0.714837
0.765924 0.787337 0.733804
0.786985 0.804829 0.751296
0.810090 0.824366 0.770833
0.833403 0.844109 0.790576
0.853819 0.860957 0.807424
0.868936 0.872504 0.818971
0.878753 0.878753 0.825220
0.022242 0.022242 0.025811
0.025845 0.022276 0.025845
0.033737 0.026600 0.030168
0.043534 0.032827 0.036396
0.054315 0.040039 0.043608
0.065471 0.047626 0.051195
0.076554 0.055141 0.058710
0.088297 0.063315 0.066884
0.101561 0.073010 0.076579
0.116658 0.084538 0.088107
0.133194 0.097505 0.101074
0.151459 0.112202 0.115771
0.171202 0.128375 0.131944
0.192526 0.146131 0.149700
0.216520 0.166555 0.170124
0.234057 0.180523 0.184092
0.035470 0.039039 0.039039
0.045032 0.045032 0.045032
0.053473 0.049904 0.049904
0.063479 0.056342 0.056342
0.075033 0.064327 0.064327
0.087875 0.073600 0.073600
0.101447 0.083603 0.083603
0.115760 0.094346 0.094346
0.131149 0.106167 0.106167
0.147866 0.119315 0.119315
0.166362 0.134242 0.134242
0.187505 0.151816 0.151816
0.211334 0.172076 0.172076
0.237221 0.194394 0.194394
0.265478 0.219082 0.219082
0.285078 0.235113 0.235113
0.048171 0.055309 0.051740
0.059586 0.063155 0.059586
0.068701 0.068701 0.065132
0.079871 0.076302 0.072733
0.090539 0.083401 0.079832
0.102557 0.091850 0.088281
0.116595 0.102320 0.098751
0.132639 0.114794 0.111225
0.150291 0.128878 0.125309
0.169613 0.144631 0.141062
0.191428 0.162877 0.159308
0.217193 0.185073 0.181504
0.246374 0.210685 0.207116
0.276922 0.237665 0.234096
0.308321 0.265494 0.261926
0.329683 0.283288 0.279719
0.055493 0.066200 0.059062
0.068701 0.075839 0.068701
0.081849 0.085418 0.078280
0.092425 0.092425 0.085287
0.105529 0.101960 0.094822
0.120665 0.113527 0.106389
0.137000 0.126293 0.119155
0.154054 0.139778 0.132640
0.172671 0.154827 0.147689
0.193714 0.172301 0.165163
0.217672 0.192690 0.185552
0.244995 0.216444 0.209306
0.275351 0.243231 0.236093
0.308375 0.272686 0.265549
0.344487 0.305229 0.298091
0.369430 0.326603 0.319465
0.069565 0.083841 0.073134
0.081434 0.092140 0.081434
0.095086 0.102223 0.091517
0.107377 0.110946 0.100240
0.118809 0.118809 0.108102
0.137338 0.133769 0.123062
0.158162 0.151024 0.140317
0.178971 0.168264 0.157558
0.200763 0.186488 0.175781
0.224846 0.207002 0.196295
0.251029 0.229616 0.218909
0.278442 0.253460 0.242753
0.308433 0.279882 0.269176
0.343122 0.311002 0.300295
0.383482 0.347793 0.337086
0.411512 0.372254 0.361548
0.090444 0.108289 0.094013
0.100620 0.114895 0.100620
0.114073 0.124780 0.110504
0.128436 0.135574 0.121298
0.141291 0.144860 0.130585
0.155764 0.155764 0.141488
0.178595 0.175026 0.160751
0.204012 0.196874 0.182599
0.230421 0.219714 0.205439
0.257936 0.243660 0.229385
0.286200 0.268355 0.254080
0.316330 0.294917 0.280641
0.350413 0.325431 0.311155
0.390614 0.362063 0.347788
0.435631 0.403511 0.389235
0.465256 0.429567 0.415291
0.113080 0.134493 0.116649
0.122400 0.140244 0.122400
0.136849 0.151125 0.133280
0.155478 0.166185 0.148340
0.171984 0.179122 0.161278
0.187107 0.190676 0.172831
0.205471 0.205471 0.187626
0.232537 0.228968 0.211124
0.260926 0.253788 0.235944
0.290245 0.279538 0.261694
0.322078 0.307803 0.289958
0.357901 0.340057 0.322212
0.399630 0.378217 0.360373
0.447432 0.422449 0.404605
0.496183 0.467632 0.449788
0.525603 0.493483 0.475639
0.137590 0.162572 0.141159
0.146881 0.168294 0.146881
0.161772 0.179617 0.158203
0.185175 0.199451 0.178038
0.208455 0.219162 0.197748
0.225923 0.233061 0.211648
0.243729 0.247298 0.225885
0.265162 0.265162 0.243749
0.293982 0.290413 0.269000
0.325781 0.318644 0.297230
0.361879 0.351172 0.329759
0.404317 0.390041 0.368628
0.451796 0.433951 0.412538
0.503645 0.482232 0.460818
0.557023 0.532041 0.510627
0.588786 0.560235 0.538822
0.165461 0.194012 0.169030
0.175451 0.200433 0.175451
0.190094 0.211507 0.186525
0.214479 0.232323 0.207341
0.243415 0.257691 0.232709
0.265997 0.276703 0.251721
0.284496 0.291633 0.266651
0.305781 0.309350 0.284367
0.331977 0.331977 0.306995
0.368180 0.364611 0.339629
0.408915 0.401777 0.376795
0.453351 0.442645 0.417663
0.502302 0.488027 0.463044
0.555681 0.537837 0.512854
0.610270 0.588857 0.563875
0.642742 0.617760 0.592778
0.197679 0.229799 0.201248
0.208368 0.236919 0.208368
0.222471 0.247453 0.218902
0.243750 0.265164 0.236612
0.274682 0.292526 0.263975
0.306717 0.320993 0.292442
0.331217 0.341924 0.313372
0.355218 0.362356 0.333805
0.383896 0.387465 0.358914
0.418321 0.418321 0.389770
0.461890 0.458322 0.429770
0.505839 0.498701 0.470150
0.552806 0.542100 0.513549
0.604900 0.590624 0.562073
0.657386 0.639542 0.610991
0.687901 0.666488 0.637937
0.232055 0.267744 0.235624
0.243245 0.275364 0.243245
0.256903 0.285454 0.253334
0.276244 0.301226 0.269106
0.307010 0.328423 0.296304
0.349657 0.367501 0.335381
0.387011 0.401286 0.369166
0.416535 0.427242 0.395122
0.446670 0.453808 0.421688
0.480272 0.483841 0.451721
0.517440 0.517440 0.485320
0.562453 0.558884 0.526764
0.607015 0.599878 0.567758
0.654686 0.643979 0.611859
0.704075 0.689800 0.657680
0.732635 0.714790 0.682670
0.268062 0.307320 0.271631
0.280575 0.316264 0.280575
0.295640 0.327760 0.292071
0.316220 0.344771 0.309082
0.347149 0.372131 0.336442
0.396185 0.417598 0.381909
0.446503 0.464347 0.428658
0.483091 0.497367 0.461678
0.514261 0.524968 0.489279
0.546560 0.553698 0.518009
0.582376 0.585944 0.550256
0.620074 0.620074 0.584385
0.663364 0.659795 0.624106
0.706396 0.699259 0.663570
0.747675 0.736969 0.701280
0.770779 0.756503 0.720815
0.308563 0.351390 0.312132
0.323756 0.363014 0.323756
0.342282 0.377970 0.338713
0.366783 0.398903 0.359646
0.397926 0.426477 0.387220
0.445939 0.470921 0.431663
0.503687 0.525100 0.485842
0.548884 0.566729 0.527471
0.582395 0.596671 0.557413
0.614168 0.624874 0.585616
0.647258 0.654396 0.615138
0.682066 0.685635 0.646377
0.717494 0.717494 0.678236
0.755360 0.751791 0.712533
0.786192 0.779054 0.739797
0.803425 0.792719 0.753461
0.358135 0.404531 0.361704
0.376849 0.419675 0.376849
0.398815 0.438072 0.395246
0.426411 0.462100 0.419273
0.456713 0.488833 0.446007
0.499910 0.528461 0.485635
0.559280 0.584262 0.541435
0.612750 0.634163 0.591337
0.649967 0.667812 0.624985
0.680051 0.694326 0.651500
0.709789 0.720496 0.677669
0.740019 0.747156 0.704330
0.768996 0.772565 0.729738
0.795575 0.795575 0.752749
0.821424 0.817855 0.775029
0.834979 0.827841 0.785014
0.416396 0.466360 0.419965
0.435932 0.482327 0.435932
0.459436 0.502263 0.455867
0.488409 0.527667 0.481271
0.518376 0.554065 0.507669
0.556880 0.589000 0.542604
0.612926 0.641477 0.595082
0.672813 0.697795 0.651400
0.712617 0.734030 0.687635
0.739309 0.757153 0.710758
0.763083 0.777358 0.730963
0.786502 0.797208 0.750813
0.810122 0.817260 0.770864
0.831788 0.835357 0.788961
0.851053 0.851053 0.804658
0.863839 0.860270 0.813874
0.459456 0.512989 0.463024
0.476430 0.526395 0.476430
0.500424 0.546819 0.496855
0.529820 0.572647 0.522682
0.559652 0.598910 0.548945
0.595386 0.631075 0.581111
0.648474 0.680594 0.630630
0.709869 0.738420 0.688455
0.747686 0.772668 0.722704
0.770989 0.792402 0.742438
0.791377 0.809222 0.759257
0.811840 0.826116 0.776152
0.832423 0.843130 0.793166
0.852477 0.859614 0.809650
0.868726 0.872295 0.822331
0.879189 0.879189 0.829225
0.022242 0.022242 0.029380
0.027132 0.023563 0.030701
0.037663 0.030525 0.037663
0.050534 0.039827 0.046965
0.062621 0.048346 0.055483
0.073781 0.055936 0.063074
0.084569 0.063156 0.070294
0.095668 0.070686 0.077824
0.108357 0.079806 0.086944
0.123916 0.091796 0.098934
0.141712 0.106023 0.113161
0.161087 0.121829 0.128967
0.182006 0.139180 0.146318
0.205523 0.159128 0.166265
0.232303 0.182339 0.189476
0.251074 0.197541 0.204678
0.036098 0.039667 0.043236
0.046037 0.046037 0.049606
0.055059 0.051490 0.055059
0.068302 0.061164 0.064733
0.083101 0.072394 0.075963
0.097083 0.082807 0.086376
0.110192 0.092347 0.095916
0.124313 0.102899 0.106468
0.139898 0.114916 0.118485
0.157350 0.128799 0.132367
0.176924 0.144804 0.148373
0.199193 0.163504 0.167073
0.224263 0.185006 0.188575
0.251626 0.208799 0.212368
0.280633 0.234238 0.237807
0.300596 0.250632 0.254201
0.048243 0.055381 0.055381
0.060629 0.064198 0.064198
0.072023 0.072023 0.072023
0.083429 0.079860 0.079860
0.096420 0.089282 0.089282
0.110193 0.099486 0.099486
0.124983 0.110708 0.110708
0.142346 0.124502 0.124502
0.162482 0.141069 0.141069
0.185202 0.160220 0.160220
0.210800 0.182249 0.182249
0.238322 0.206202 0.206202
0.267764 0.232075 0.232075
0.298838 0.259580 0.259580
0.331868 0.289041 0.289041
0.354507 0.308111 0.308111
0.057704 0.068411 0.064842
0.072558 0.079696 0.076127
0.090777 0.094346 0.090777
0.104322 0.104322 0.100753
0.116000 0.112431 0.108862
0.129138 0.122000 0.118431
0.145052 0.134346 0.130777
0.162944 0.148669 0.145100
0.183175 0.165331 0.161762
0.206876 0.185462 0.181893
0.234133 0.209150 0.205582
0.264854 0.236303 0.232734
0.300372 0.268252 0.264683
0.341904 0.306216 0.302647
0.386429 0.347172 0.343603
0.414515 0.371689 0.368120
0.071636 0.085912 0.078774
0.084494 0.095201 0.088063
0.103697 0.110835 0.103697
0.121727 0.125296 0.118158
0.134887 0.134887 0.127749
0.152576 0.149007 0.141869
0.173834 0.166696 0.159558
0.194863 0.184156 0.177019
0.215917 0.201641 0.194503
0.237917 0.220072 0.212935
0.261531 0.240118 0.232980
0.288151 0.263169 0.256031
0.322476 0.293925 0.286788
0.371171 0.339051 0.331914
0.430308 0.394620 0.387482
0.465598 0.426340 0.419202
0.092318 0.110163 0.099456
0.102615 0.116890 0.106184
0.117761 0.128467 0.117761
0.137060 0.144198 0.133491
0.154519 0.158088 0.147381
0.171570 0.171570 0.160863
0.197199 0.193630 0.182923
0.224793 0.217655 0.206948
0.250365 0.239658 0.228952
0.274627 0.260352 0.249645
0.299128 0.281284 0.270577
0.324981 0.303568 0.292861
0.355596 0.330614 0.319907
0.399272 0.370721 0.360015
0.456423 0.424303 0.413596
0.493499 0.457810 0.447104
0.115249 0.136663 0.122387
0.124569 0.142413 0.128138
0.136898 0.151173 0.136898
0.158045 0.168752 0.154476
0.180237 0.187375 0.173100
0.199328 0.202896 0.188621
0.220294 0.220294 0.206018
0.249420 0.245851 0.231575
0.278989 0.271851 0.257576
0.308771 0.298065 0.283789
0.339607 0.325331 0.311056
0.373015 0.355171 0.340895
0.409289 0.387876 0.373601
0.450414 0.425432 0.411156
0.496909 0.468358 0.454082
0.527545 0.495425 0.481149
0.139888 0.164870 0.147026
0.149255 0.170668 0.152824
0.160631 0.178476 0.160631
0.184704 0.198979 0.181135
0.214085 0.224791 0.206947
0.236543 0.243680 0.225836
0.255556 0.259124 0.241280
0.277283 0.277283 0.259439
0.308221 0.304653 0.286808
0.343879 0.336742 0.318897
0.383095 0.372388 0.354544
0.424632 0.410356 0.392512
0.467945 0.450100 0.432256
0.513630 0.492216 0.474372
0.560444 0.535462 0.517617
0.589447 0.560897 0.543052
0.167937 0.196488 0.175075
0.178285 0.203267 0.181854
0.189612 0.211025 0.189612
0.213254 0.231099 0.209685
0.246793 0.261068 0.239655
0.276052 0.286759 0.265345
0.296912 0.304050 0.282637
0.318656 0.322225 0.300812
0.345221 0.345221 0.323807
0.384952 0.381383 0.359970
0.430297 0.423160 0.401746
0.475800 0.465093 0.443680
0.521717 0.507441 0.486028
0.570646 0.552801 0.531388
0.620931 0.599518 0.578105
0.651124 0.626142 0.604729
0.200087 0.232207 0.207225
0.211335 0.239886 0.214904
0.222789 0.247771 0.222789
0.242399 0.263813 0.238831
0.274889 0.292733 0.267751
0.314304 0.328580 0.303598
0.345350 0.356057 0.331075
0.370580 0.377717 0.352735
0.399787 0.403356 0.378374
0.433769 0.433769 0.408787
0.479423 0.475854 0.450872
0.526463 0.519325 0.494343
0.572819 0.562113 0.537130
0.620475 0.606199 0.581217
0.669372 0.651527 0.626545
0.698989 0.677576 0.652594
0.234402 0.270091 0.241540
0.246042 0.278162 0.249611
0.257705 0.286256 0.257705
0.275244 0.300226 0.271675
0.304159 0.325573 0.297022
0.350641 0.368485 0.339934
0.398872 0.413147 0.384596
0.432527 0.443234 0.414683
0.462158 0.469296 0.440745
0.495037 0.498606 0.470055
0.530937 0.530937 0.502386
0.577351 0.573782 0.545231
0.623386 0.616248 0.587697
0.668213 0.657506 0.628955
0.713354 0.699079 0.670528
0.739810 0.721965 0.693414
0.270792 0.310049 0.277929
0.283950 0.319639 0.287519
0.297561 0.329681 0.297561
0.316478 0.345029 0.312909
0.343732 0.368714 0.336594
0.389223 0.410636 0.378516
0.448835 0.466680 0.434560
0.495637 0.509913 0.477793
0.528378 0.539084 0.506965
0.559790 0.566928 0.534808
0.593597 0.597166 0.565046
0.629091 0.629091 0.596971
0.672429 0.668860 0.636740
0.715744 0.708607 0.676487
0.753907 0.743200 0.711080
0.775125 0.760850 0.728730
0.312629 0.355456 0.319767
0.329024 0.368282 0.332593
0.346738 0.382426 0.346738
0.369193 0.401313 0.365624
0.397467 0.426018 0.390329
0.436898 0.461880 0.426192
0.495495 0.516908 0.481219
0.554051 0.571895 0.536207
0.595066 0.609342 0.573653
0.626124 0.636831 0.601142
0.656446 0.663584 0.627895
0.688321 0.691890 0.656201
0.721643 0.721643 0.685954
0.758604 0.755035 0.719346
0.789867 0.782729 0.747040
0.806981 0.796274 0.760586
0.364477 0.410872 0.371615
0.384583 0.427410 0.388152
0.404440 0.443697 0.404440
0.429138 0.464827 0.425569
0.458290 0.490410 0.451153
0.492971 0.521522 0.482264
0.544803 0.569785 0.530527
0.608131 0.629545 0.590287
0.657324 0.675168 0.635911
0.689708 0.703983 0.664726
0.717315 0.728022 0.688764
0.744120 0.751258 0.712000
0.770447 0.774016 0.734759
0.796483 0.796483 0.757225
0.822217 0.818648 0.779390
0.836818 0.829680 0.790423
0.424691 0.474655 0.431829
0.444962 0.491358 0.448531
0.465753 0.508580 0.465753
0.491830 0.531088 0.488261
0.521975 0.557664 0.514837
0.554866 0.586986 0.544159
0.599242 0.627793 0.584966
0.660337 0.685319 0.642493
0.713921 0.735334 0.692508
0.745568 0.763412 0.720586
0.768602 0.782878 0.740051
0.789914 0.800621 0.757794
0.810734 0.817871 0.775045
0.831011 0.834580 0.791753
0.850835 0.850835 0.808008
0.863695 0.860126 0.817300
0.468144 0.521677 0.475282
0.485914 0.535878 0.489483
0.508435 0.554830 0.508435
0.535222 0.578049 0.531653
0.565701 0.604959 0.558564
0.597298 0.632986 0.586591
0.637813 0.669933 0.623537
0.696462 0.725013 0.678618
0.746910 0.771892 0.725496
0.776077 0.797490 0.751095
0.796547 0.814391 0.767996
0.815478 0.829754 0.783359
0.833446 0.844152 0.797757
0.851701 0.858839 0.812443
0.868085 0.871654 0.825259
0.878924 0.878924 0.832528
0.022242 0.022242 0.032949
0.032504 0.028935 0.039642
0.046045 0.038907 0.049614
0.059654 0.048947 0.059654
0.071984 0.057708 0.068415
0.084059 0.066215 0.076921
0.098266 0.076853 0.087560
0.112390 0.087408 0.098115
0.124095 0.095544 0.106251
0.136644 0.104524 0.115231
0.153070 0.117381 0.128087
0.172645 0.133387 0.144094
0.194223 0.151397 0.162103
0.218637 0.172242 0.182948
0.246072 0.196108 0.206815
0.265025 0.211492 0.222198
0.040327 0.043896 0.051034
0.051941 0.051941 0.059079
0.063225 0.059656 0.066794
0.077012 0.069874 0.077012
0.093396 0.082690 0.089827
0.109156 0.094880 0.102018
0.124773 0.106928 0.114066
0.140602 0.119189 0.126326
0.155446 0.130464 0.137601
0.170861 0.142310 0.149447
0.189690 0.157570 0.164708
0.212916 0.177227 0.184365
0.239203 0.199945 0.207083
0.267205 0.224379 0.231517
0.295867 0.249472 0.256609
0.315683 0.265719 0.272856
0.052771 0.059909 0.063478
0.065865 0.069433 0.073002
0.077571 0.077571 0.081140
0.088131 0.084563 0.088131
0.102933 0.095795 0.099364
0.119635 0.108928 0.112497
0.136866 0.122591 0.126160
0.155668 0.137824 0.141393
0.176388 0.154975 0.158544
0.199540 0.174558 0.178127
0.225096 0.196545 0.200114
0.252360 0.220240 0.223809
0.281411 0.245722 0.249291
0.314442 0.275184 0.278753
0.350388 0.307561 0.311130
0.374556 0.328161 0.331730
0.060036 0.070743 0.070743
0.076480 0.083618 0.083618
0.096862 0.100431 0.100431
0.112055 0.112055 0.112055
0.123887 0.120318 0.120318
0.137209 0.130071 0.130071
0.154452 0.143745 0.143745
0.175126 0.160850 0.160850
0.198347 0.180503 0.180503
0.224737 0.203323 0.203323
0.254523 0.229541 0.229541
0.286708 0.258157 0.258157
0.323315 0.291195 0.291195
0.366861 0.331172 0.331172
0.414722 0.375464 0.375464
0.444294 0.401468 0.401468
0.073832 0.088107 0.084539
0.088622 0.099329 0.095760
0.111494 0.118631 0.115063
0.136647 0.140215 0.136647
0.153140 0.153140 0.149571
0.168972 0.165404 0.161835
0.186491 0.179353 0.175784
0.207631 0.196924 0.193355
0.230573 0.216297 0.212728
0.253941 0.236097 0.232528
0.279510 0.258097 0.254528
0.308866 0.283884 0.280315
0.347949 0.319398 0.315829
0.403519 0.371399 0.367831
0.467039 0.431350 0.427781
0.503228 0.463971 0.460402
0.094457 0.112302 0.105164
0.106756 0.121032 0.113894
0.124450 0.135157 0.128019
0.153048 0.160185 0.153048
0.178650 0.182219 0.175081
0.197067 0.197067 0.189930
0.219361 0.215792 0.208655
0.244691 0.237553 0.230416
0.269234 0.258527 0.251389
0.292550 0.278274 0.271136
0.315900 0.298055 0.290918
0.341930 0.320517 0.313379
0.375937 0.350955 0.343818
0.423767 0.395216 0.388078
0.485468 0.453348 0.446210
0.524884 0.489195 0.482057
0.117703 0.139116 0.128409
0.129472 0.147316 0.136609
0.142760 0.157035 0.146329
0.167760 0.178466 0.167760
0.197698 0.204836 0.194129
0.224015 0.227584 0.216877
0.246038 0.246038 0.235331
0.272711 0.269142 0.258436
0.301426 0.294288 0.283581
0.331367 0.320660 0.309954
0.361410 0.347134 0.336428
0.393276 0.375431 0.364725
0.427462 0.406049 0.395342
0.465775 0.440793 0.430086
0.510929 0.482378 0.471672
0.541825 0.509705 0.498999
0.143465 0.168448 0.154172
0.154972 0.176385 0.162110
0.166842 0.184687 0.170411
0.188696 0.202972 0.188696
0.220885 0.231591 0.217316
0.251849 0.258987 0.244711
0.276422 0.279991 0.265715
0.299031 0.299031 0.284756
