example_ofxGpuLutCube/bin/data/ofxGpuLutCube/LUT/C28 (deep B&W).cube
LUT_3D_SIZE 6
0.022242 0.022242 0.022242
0.039233 0.028527 0.028527
0.074188 0.052775 0.052775
0.112096 0.079976 0.079976
0.164921 0.122094 0.122094
0.224270 0.170737 0.170737
0.053305 0.064012 0.053305
0.085731 0.085731 0.075025
0.131101 0.120395 0.109688
0.187958 0.166544 0.155838
0.261313 0.229193 0.218486
0.338471 0.295644 0.284938
0.111002 0.132415 0.111002
0.152609 0.163315 0.141902
0.197831 0.197831 0.176418
0.279939 0.269232 0.247819
0.393125 0.371712 0.350299
0.520851 0.488731 0.467318
0.195067 0.227187 0.195067
0.245764 0.267177 0.235057
0.322791 0.333498 0.301378
0.408965 0.408965 0.376845
0.541069 0.530363 0.498243
0.682395 0.660982 0.628862
0.304441 0.347267 0.304441
0.365904 0.398024 0.355198
0.505751 0.527164 0.484337
0.604187 0.614894 0.572067
0.715382 0.715382 0.672556
0.799590 0.788883 0.746057
0.451543 0.505076 0.451543
0.530074 0.572901 0.519367
0.658561 0.690681 0.637148
0.765924 0.787337 0.733804
0.833403 0.844109 0.790576
0.878753 0.878753 0.825220
0.022242 0.022242 0.032949
0.059654 0.048947 0.059654
0.098266 0.076853 0.087560
0.136644 0.104524 0.115231
0.194223 0.151397 0.162103
0.265025 0.211492 0.222198
0.060036 0.070743 0.070743
0.112055 0.112055 0.112055
0.154452 0.143745 0.143745
0.224737 0.203323 0.203323
0.323315 0.291195 0.291195
0.444294 0.401468 0.401468
0.117703 0.139116 0.128409
0.167760 0.178466 0.167760
0.246038 0.246038 0.235331
0.331367 0.320660 0.309954
0.427462 0.406049 0.395342
0.541825 0.509705 0.498999
0.206565 0.238684 0.217271
0.246559 0.267973 0.246559
0.360274 0.370981 0.349568
0.450731 0.450731 0.429318
0.597651 0.586944 0.565531
0.715454 0.694041 0.672628
0.319682 0.362509 0.330389
0.377857 0.409977 0.377857
0.497247 0.518660 0.486540
0.641301 0.652007 0.619888
0.734807 0.734807 0.702687
0.816491 0.805784 0.773664
0.478006 0.531539 0.488712
0.548385 0.591212 0.548385
0.642560 0.674680 0.631853
0.779813 0.801226 0.758400
0.838663 0.849370 0.806543
0.881347 0.881347 0.838520
0.032577 0.032577 0.053991
0.095692 0.084985 0.106398
0.162327 0.140914 0.162327
0.204759 0.172639 0.194053
0.261173 0.218346 0.239759
0.304191 0.250657 0.272071
0.090569 0.101276 0.111983
0.160822 0.160822 0.171528
0.222456 0.211749 0.222456
0.300651 0.279238 0.289945
0.395669 0.363549 0.374256
0.488993 0.446166 0.456873
0.132441 0.153854 0.153854
0.216563 0.227270 0.227270
0.319051 0.319051 0.319051
0.395792 0.385085 0.385085
0.513791 0.492377 0.492377
0.652880 0.620760 0.620760
0.219641 0.251761 0.241054
0.289437 0.310850 0.300143
0.437760 0.448467 0.437760
0.562481 0.562481 0.551774
0.669260 0.658553 0.647846
0.763040 0.741627 0.730920
0.358298 0.401125 0.379712
0.429329 0.461449 0.440036
0.529705 0.551119 0.529705
0.691594 0.702300 0.680887
0.772097 0.772097 0.750683
0.849361 0.838654 0.817241
0.528056 0.581589 0.549469
0.598011 0.640838 0.608718
0.701889 0.734009 0.701889
0.800099 0.821512 0.789392
0.856594 0.867300 0.835180
0.896226 0.896226 0.864106
0.050257 0.050257 0.082377
0.117945 0.107238 0.139358
0.246960 0.225547 0.257667
0.310714 0.278594 0.310714
0.320512 0.277686 0.309806
0.388330 0.334797 0.366916
0.144370 0.155077 0.176490
0.237892 0.237892 0.259305
0.313953 0.303246 0.324659
0.422543 0.401130 0.422543
0.490059 0.457939 0.479352
0.601972 0.559145 0.580558
0.187688 0.209101 0.219808
0.302642 0.313349 0.324056
0.423906 0.423906 0.434612
0.511261 0.500554 0.511261
0.604493 0.583079 0.593786
0.711388 0.679268 0.689975
0.252464 0.284584 0.284584
0.364214 0.385628 0.385628
0.526123 0.536830 0.536830
0.648550 0.648550 0.648550
0.725979 0.715272 0.715272
0.802607 0.781193 0.781193
0.394923 0.437749 0.427043
0.481966 0.514086 0.503379
0.619202 0.640616 0.629909
0.762975 0.773681 0.762975
0.829731 0.829731 0.819025
0.874328 0.863622 0.852915
0.564798 0.618331 0.596918
0.653379 0.696206 0.674793
0.748465 0.780585 0.759171
0.812514 0.833927 0.812514
0.879369 0.890076 0.868663
0.917614 0.917614 0.896201
0.078197 0.078197 0.121024
0.140229 0.129522 0.172349
0.290259 0.268846 0.311672
0.380700 0.348580 0.391407
0.449898 0.407072 0.449898
0.451420 0.397886 0.440713
0.223457 0.234164 0.266284
0.310174 0.310174 0.342294
0.386742 0.376035 0.408155
0.559298 0.537885 0.570005
0.646454 0.614334 0.646454
0.674513 0.631686 0.663806
0.273025 0.294439 0.315852
0.428881 0.439587 0.461001
0.552883 0.552883 0.574296
0.625567 0.614860 0.636273
0.727891 0.706478 0.727891
0.797087 0.764967 0.786380
0.333599 0.365719 0.376426
0.500654 0.522067 0.532774
0.643732 0.654438 0.665145
0.733827 0.733827 0.744534
0.789916 0.779209 0.789916
0.840319 0.818906 0.829612
0.454300 0.497127 0.497127
0.570864 0.602984 0.602984
0.708362 0.729775 0.729775
0.803503 0.814210 0.814210
0.853531 0.853531 0.853531
0.887193 0.876486 0.876486
0.628496 0.682029 0.671323
0.708879 0.751705 0.740999
0.787953 0.820073 0.809366
0.848185 0.869598 0.858891
0.905487 0.916194 0.905487
0.938172 0.938172 0.927465
0.109504 0.109504 0.163037
0.177300 0.166594 0.220127
0.302700 0.281287 0.334820
0.405346 0.373226 0.426759
0.497031 0.454204 0.507738
0.560457 0.506924 0.560457
0.275077 0.285783 0.328610
0.379158 0.379158 0.421985
0.476914 0.466207 0.509034
0.625585 0.604172 0.646999
0.720055 0.687935 0.730762
0.771843 0.729017 0.771843
0.368530 0.389943 0.422063
0.564409 0.575115 0.607235
0.649295 0.649295 0.681415
0.671587 0.660880 0.693000
0.778779 0.757366 0.789486
0.835748 0.803628 0.835748
0.385054 0.417174 0.438587
0.607663 0.629077 0.650490
0.738974 0.749681 0.771094
0.792102 0.792102 0.813515
0.837420 0.826713 0.848127
0.870597 0.849184 0.870597
0.556856 0.599682 0.610389
0.676067 0.708187 0.718894
0.776451 0.797865 0.808571
0.841236 0.851943 0.862649
0.869404 0.869404 0.880110
0.897874 0.887168 0.897874
0.665263 0.718796 0.718796
0.750724 0.793551 0.793551
0.822158 0.854278 0.854278
0.865215 0.886628 0.886628
0.914405 0.925112 0.925112
0.950582 0.950582 0.950582
