example_ofxGpuLutCube/bin/data/ofxGpuLutCube/LUT/C29 (deep teal).cube
LUT_3D_SIZE 16
0.043233 0.071276 0.080127
0.047297 0.075965 0.082610
0.071422 0.083163 0.085996
0.104788 0.095555 0.088601
0.147416 0.107620 0.089113
0.197630 0.118642 0.086855
0.255034 0.128392 0.082201
0.311119 0.142897 0.078745
0.378350 0.153557 0.082989
0.444582 0.164716 0.091632
0.513812 0.174499 0.108717
0.578637 0.183869 0.124870
0.639653 0.197398 0.136699
0.699710 0.214579 0.144613
0.757509 0.234119 0.149740
0.813091 0.257113 0.151430
0.043208 0.086665 0.081538
0.046920 0.086914 0.084454
0.074134 0.089349 0.084205
0.107060 0.100779 0.086722
0.151060 0.111256 0.088390
0.203600 0.119911 0.086279
0.260119 0.129079 0.082378
0.317887 0.141631 0.080394
0.384713 0.153688 0.084088
0.449821 0.166624 0.091993
0.518700 0.176524 0.108635
0.583990 0.188499 0.122559
0.645930 0.203748 0.132766
0.705723 0.220901 0.140756
0.763797 0.241766 0.145213
0.819088 0.266032 0.146206
0.043211 0.110774 0.078800
0.045033 0.117122 0.077217
0.069524 0.114653 0.085091
0.121200 0.107838 0.078790
0.168497 0.120680 0.078269
0.221406 0.134843 0.074337
0.281173 0.148317 0.069151
0.340003 0.162032 0.068283
0.408515 0.173850 0.075231
0.473692 0.185445 0.086305
0.541436 0.195252 0.102189
0.605150 0.207899 0.114681
0.665579 0.223684 0.123798
0.723977 0.242190 0.130324
0.779795 0.262927 0.134292
0.833440 0.288539 0.134003
0.043200 0.138294 0.073922
0.043828 0.151330 0.068934
0.068347 0.152947 0.077877
0.113371 0.144103 0.087338
0.183856 0.131438 0.072825
0.250884 0.144669 0.060182
0.311103 0.160947 0.058356
0.376266 0.177872 0.061596
0.439339 0.193914 0.068327
0.506773 0.207850 0.081553
0.575628 0.225562 0.092119
0.641306 0.246316 0.099366
0.703446 0.266405 0.105932
0.760871 0.286334 0.110961
0.813770 0.307605 0.113412
0.862901 0.331426 0.112569
0.043200 0.168498 0.071164
0.043207 0.181249 0.065164
0.062377 0.191744 0.065330
0.118310 0.179615 0.089336
0.194205 0.165243 0.074533
0.266149 0.158479 0.057172
0.341107 0.173268 0.052621
0.418565 0.192571 0.062000
0.489143 0.209369 0.074340
0.558878 0.227589 0.085031
0.623231 0.248236 0.091978
0.684976 0.270334 0.096900
0.746387 0.296014 0.099169
0.804586 0.325313 0.097603
0.857592 0.356049 0.092747
0.895613 0.378671 0.088592
0.043200 0.194931 0.069865
0.043200 0.206743 0.063269
0.059152 0.224612 0.054800
0.122940 0.217529 0.074853
0.211861 0.207218 0.077896
0.281318 0.186879 0.065741
0.361257 0.189311 0.047290
0.446534 0.205977 0.061444
0.534461 0.226274 0.077574
0.610399 0.249313 0.086842
0.670881 0.270731 0.091976
0.727738 0.293663 0.094524
0.784589 0.320600 0.094254
0.841084 0.352059 0.090083
0.893474 0.387394 0.080904
0.919762 0.407119 0.074229
0.043200 0.222193 0.067723
0.043200 0.229902 0.062104
0.059906 0.248533 0.051854
0.130832 0.258701 0.057424
0.216948 0.244456 0.087489
0.313776 0.241201 0.053194
0.395480 0.227704 0.048981
0.485192 0.232032 0.059491
0.569389 0.246887 0.073570
0.641761 0.268289 0.083348
0.707383 0.292505 0.088295
0.768264 0.318872 0.089700
0.820800 0.347159 0.086620
0.872824 0.380328 0.079048
0.922588 0.416502 0.067226
0.944099 0.433693 0.060199
0.043200 0.246757 0.067675
0.043200 0.252502 0.062378
0.064560 0.275858 0.046680
0.147864 0.290875 0.052708
0.241052 0.279567 0.079639
0.347450 0.286140 0.057453
0.448467 0.293569 0.043485
0.536471 0.277694 0.061603
0.611653 0.284115 0.067898
0.675773 0.295159 0.073446
0.736408 0.316717 0.079192
0.793597 0.341291 0.080981
0.849213 0.373136 0.075915
0.901362 0.407761 0.066506
0.946673 0.444475 0.050664
0.952778 0.455434 0.043777
0.043200 0.267679 0.071057
0.043866 0.280981 0.058381
0.079149 0.304628 0.043200
0.171554 0.321486 0.050936
0.268407 0.317415 0.070035
0.361612 0.333284 0.062416
0.485737 0.336411 0.043490
0.581824 0.356373 0.045339
0.654908 0.337498 0.064315
0.712863 0.341988 0.067302
0.764438 0.350251 0.068808
0.816941 0.369940 0.067089
0.869568 0.397675 0.062793
0.918937 0.432242 0.052604
0.952887 0.468325 0.043200
0.952900 0.474321 0.043200
0.043200 0.297846 0.065201
0.051558 0.311062 0.052202
0.100620 0.332113 0.043200
0.198500 0.348498 0.052095
0.293999 0.351426 0.064894
0.383797 0.371566 0.058490
0.509226 0.385157 0.043726
0.596284 0.400646 0.043582
0.675722 0.429746 0.043648
0.741210 0.405063 0.055606
0.796014 0.406484 0.058217
0.840999 0.413222 0.058046
0.886469 0.429926 0.054112
0.933949 0.460166 0.044274
0.952900 0.488135 0.043200
0.952900 0.490589 0.043200
0.043200 0.330605 0.061752
0.054706 0.342835 0.050394
0.114176 0.365051 0.043200
0.217299 0.377327 0.058167
0.314108 0.384948 0.069082
0.404320 0.405911 0.054291
0.506412 0.429725 0.045570
0.618429 0.454084 0.043822
0.679380 0.475608 0.043648
0.748924 0.513262 0.043688
0.810687 0.481752 0.044909
0.861725 0.474236 0.044909
0.905582 0.478571 0.043200
0.943284 0.492289 0.043200
0.952900 0.511601 0.043200
0.952900 0.510991 0.043200
0.047472 0.356525 0.067016
0.060244 0.366314 0.056806
0.130995 0.391115 0.049231
0.235985 0.401857 0.068072
0.334140 0.416007 0.074156
0.424636 0.437172 0.058856
0.520623 0.476561 0.045740
0.618546 0.501230 0.046661
0.699310 0.530827 0.045284
0.746758 0.556511 0.045449
0.807415 0.599724 0.045992
0.865293 0.557654 0.043874
0.916377 0.541316 0.046307
0.944952 0.540659 0.044315
0.952762 0.539241 0.043346
0.952762 0.537634 0.043346
0.058481 0.374071 0.077944
0.071510 0.389711 0.061611
0.153470 0.414421 0.058126
0.256179 0.423283 0.080785
0.356362 0.444118 0.080927
0.453422 0.472802 0.064188
0.544843 0.521982 0.048054
0.616602 0.553676 0.044594
0.694767 0.585324 0.046088
0.762766 0.616776 0.047900
0.801206 0.638200 0.047978
0.857224 0.681524 0.048335
0.916048 0.632926 0.044051
0.945800 0.602620 0.046067
0.949320 0.584592 0.046821
0.949735 0.577690 0.046382
0.059341 0.422895 0.066506
0.087812 0.439249 0.055559
0.163680 0.470456 0.048331
0.266127 0.488930 0.058510
0.360476 0.505130 0.060676
0.459309 0.545487 0.043676
0.555508 0.595196 0.043829
0.623535 0.634784 0.044341
0.690200 0.678235 0.044474
0.741324 0.698707 0.044558
0.801224 0.713857 0.044619
0.849510 0.723433 0.044962
0.907983 0.754467 0.045568
0.938545 0.697956 0.048142
0.951727 0.648839 0.044401
0.951915 0.638843 0.044185
0.049198 0.485405 0.043200
0.096917 0.496218 0.043200
0.175475 0.523641 0.044819
0.267212 0.545190 0.059600
0.356956 0.574208 0.067783
0.459298 0.622272 0.047806
0.559314 0.672709 0.043822
0.637816 0.712976 0.043912
0.696027 0.741631 0.044541
0.741413 0.765338 0.044599
0.793232 0.794929 0.044600
0.835998 0.796650 0.044692
0.886326 0.795820 0.044810
0.934187 0.812210 0.044884
0.947679 0.741871 0.048418
0.947448 0.709207 0.048676
0.063224 0.585160 0.061035
0.065086 0.589767 0.062683
0.114182 0.604423 0.064885
0.251855 0.629731 0.073973
0.361696 0.658644 0.073859
0.466107 0.698781 0.043893
0.562416 0.734549 0.043882
0.637223 0.760420 0.043912
0.700130 0.782967 0.044337
0.747710 0.798534 0.044641
0.790289 0.816042 0.044641
0.838304 0.834347 0.044700
0.881977 0.829508 0.044790
0.931406 0.848863 0.044884
0.951127 0.829162 0.044900
0.951200 0.795837 0.044900
0.043206 0.078703 0.089157
0.051460 0.081980 0.093825
0.082482 0.086168 0.096612
0.115755 0.092131 0.097510
0.152815 0.098093 0.093567
0.199678 0.112541 0.090631
0.254624 0.122933 0.086024
0.311043 0.134550 0.084564
0.377803 0.147057 0.088358
0.445470 0.160515 0.095956
0.511280 0.171346 0.112098
0.575722 0.180806 0.128325
0.637581 0.194392 0.139668
0.697191 0.211136 0.147580
0.754723 0.230051 0.152788
0.810056 0.252049 0.154890
0.043241 0.086968 0.095079
0.046747 0.088270 0.096321
0.070827 0.094939 0.100266
0.106170 0.105745 0.102259
0.152634 0.117996 0.100794
0.206492 0.128756 0.092839
0.267118 0.138278 0.081538
0.324830 0.150351 0.075374
0.390115 0.159878 0.081229
0.454779 0.169720 0.091386
0.522446 0.177399 0.109225
0.585520 0.186988 0.124513
0.646736 0.201954 0.134850
0.705893 0.219135 0.142535
0.763794 0.239661 0.147054
0.818856 0.263428 0.148211
0.043251 0.114630 0.096097
0.046198 0.116483 0.097024
0.067899 0.115566 0.099573
0.114769 0.115514 0.098035
0.163004 0.128031 0.097439
0.219830 0.137608 0.088296
0.283613 0.147334 0.076507
0.342863 0.159944 0.071408
0.410029 0.171181 0.077538
0.474072 0.182121 0.088854
0.541128 0.192084 0.104394
0.603972 0.204554 0.116767
0.663402 0.219553 0.126180
0.721630 0.237945 0.132660
0.777631 0.258790 0.136679
0.832053 0.284772 0.136296
0.043200 0.139243 0.082706
0.043391 0.149191 0.084600
0.061072 0.154396 0.090088
0.113155 0.147828 0.101661
0.187533 0.136773 0.083209
0.248328 0.148703 0.070176
0.313497 0.163564 0.058996
0.375296 0.179824 0.058497
0.438074 0.195418 0.066753
0.506538 0.208451 0.081019
0.574616 0.224881 0.092224
0.637799 0.243487 0.100206
0.696889 0.260721 0.107752
0.753531 0.279337 0.113495
0.807221 0.300801 0.116146
0.858076 0.325041 0.115620
0.043200 0.166402 0.074093
0.043200 0.176570 0.076492
0.055003 0.192361 0.074736
0.113251 0.186439 0.095163
0.197686 0.169993 0.083657
0.274996 0.162112 0.060086
0.346477 0.176294 0.050451
0.415298 0.194198 0.059354
0.487553 0.211264 0.072378
0.556457 0.229151 0.083083
0.618822 0.249250 0.089783
0.680021 0.270653 0.095062
0.739556 0.295018 0.097575
0.796888 0.321906 0.097439
0.850836 0.350612 0.094526
0.893844 0.376129 0.089939
0.043200 0.194673 0.071996
0.043200 0.202492 0.072256
0.052527 0.224803 0.060361
0.115513 0.223256 0.076324
0.212184 0.212421 0.087170
0.290737 0.192663 0.069925
0.374113 0.193838 0.047808
0.465066 0.211301 0.064043
0.542513 0.230055 0.077498
0.609735 0.250869 0.085437
0.669330 0.272122 0.090311
0.724954 0.295015 0.092557
0.782880 0.321890 0.092659
0.837454 0.352560 0.088395
0.889162 0.386966 0.079701
0.917869 0.408642 0.072114
0.043200 0.221664 0.070822
0.043200 0.226588 0.070169
0.053131 0.250390 0.054451
0.121651 0.264187 0.057184
0.214932 0.247366 0.094070
0.313898 0.244089 0.057170
0.408327 0.233755 0.051861
0.501452 0.237496 0.061033
0.587699 0.253634 0.074843
0.659392 0.275217 0.084305
0.714296 0.297129 0.087144
0.766781 0.320765 0.087660
0.819424 0.348807 0.084759
0.871516 0.382145 0.077070
0.921126 0.418941 0.064406
0.942417 0.435978 0.057391
0.043200 0.246072 0.071692
0.043200 0.249994 0.069932
0.058325 0.276635 0.050578
0.136771 0.298016 0.050039
0.238035 0.284070 0.084822
0.345563 0.290739 0.061248
0.449484 0.296618 0.043797
0.550227 0.285054 0.062270
0.626045 0.291132 0.068280
0.688612 0.302131 0.072939
0.749527 0.323831 0.078237
0.804672 0.348927 0.078815
0.851887 0.377101 0.073461
0.899719 0.409907 0.063779
0.945784 0.447204 0.047831
0.952900 0.458710 0.043200
0.043200 0.267292 0.076062
0.043200 0.279056 0.066605
0.068959 0.306897 0.044221
0.159292 0.327953 0.048313
0.262750 0.321047 0.077072
0.360961 0.338109 0.069365
0.489636 0.341096 0.043493
0.582972 0.359967 0.044390
0.664075 0.344823 0.063957
0.723461 0.349489 0.066661
0.772968 0.356777 0.068134
0.826339 0.377310 0.065959
0.878669 0.405953 0.060029
0.923402 0.438753 0.050747
0.952839 0.471722 0.043200
0.952900 0.478143 0.043200
0.043200 0.295563 0.073166
0.045365 0.312438 0.055639
0.088194 0.334693 0.043200
0.185695 0.353302 0.050590
0.287248 0.354064 0.073568
0.382999 0.374768 0.062942
0.510422 0.390011 0.043930
0.600188 0.405728 0.043582
0.677336 0.434505 0.043648
0.744474 0.410990 0.053708
0.803512 0.414427 0.056403
0.846779 0.419733 0.056385
0.892952 0.437075 0.051981
0.941767 0.468468 0.043358
0.952900 0.492950 0.043200
0.952900 0.495200 0.043200
0.043200 0.330147 0.071015
0.048351 0.343974 0.053895
0.099311 0.366153 0.043553
0.203225 0.379810 0.056771
0.304911 0.385779 0.078478
0.401213 0.407405 0.060557
0.505921 0.434313 0.046637
0.621276 0.459755 0.043875
0.680574 0.479512 0.043648
0.749751 0.517283 0.043688
0.810206 0.485170 0.044909
0.866824 0.481760 0.044943
0.910338 0.484638 0.043200
0.945926 0.499217 0.043200
0.952900 0.514243 0.043200
0.952900 0.513219 0.043200
0.047570 0.357947 0.075394
0.057178 0.363981 0.063003
0.120019 0.389477 0.051303
0.223090 0.403111 0.066861
0.323614 0.414609 0.083942
0.423527 0.439399 0.064215
0.521815 0.481184 0.052929
0.618908 0.506228 0.046464
0.701080 0.536180 0.045663
0.746609 0.558952 0.045664
0.806493 0.601798 0.046237
0.864866 0.560365 0.043874
0.919792 0.547495 0.046782
0.947228 0.545186 0.044315
0.952762 0.541675 0.043346
0.952762 0.539374 0.043346
0.059228 0.375354 0.087580
0.068767 0.387771 0.068597
0.143815 0.413202 0.060271
0.245347 0.424081 0.080000
0.345630 0.441387 0.090036
0.449929 0.472927 0.068546
0.542799 0.523486 0.055923
0.617560 0.562214 0.044425
0.693115 0.591628 0.045549
0.762802 0.621642 0.047474
0.802138 0.641066 0.047853
0.855713 0.680518 0.048282
0.915282 0.633063 0.044064
0.948355 0.608379 0.045913
0.949249 0.586476 0.046884
0.949445 0.578185 0.046655
0.056380 0.430120 0.072712
0.078580 0.443205 0.056198
0.155865 0.469918 0.050678
0.256418 0.490312 0.059294
0.353123 0.507600 0.065501
0.453686 0.540850 0.043691
0.551334 0.591893 0.043829
0.621652 0.635943 0.044341
0.690385 0.682064 0.044484
0.741885 0.703689 0.044559
0.801196 0.715905 0.044617
0.849234 0.723523 0.044946
0.906099 0.751501 0.045580
0.938820 0.697529 0.048093
0.951469 0.652046 0.044675
0.951915 0.639315 0.044185
0.046716 0.493962 0.043989
0.082424 0.500284 0.043200
0.168664 0.525014 0.044051
0.261814 0.542839 0.058684
0.350341 0.566543 0.067628
0.449124 0.610911 0.049652
0.551528 0.664851 0.043793
0.634461 0.711098 0.043909
0.696119 0.744362 0.044541
0.740778 0.766608 0.044598
0.792854 0.794989 0.044600
0.835594 0.795447 0.044692
0.885616 0.794359 0.044813
0.933616 0.810469 0.044884
0.947630 0.741436 0.048467
0.947397 0.709974 0.048729
0.065687 0.591254 0.063215
0.066254 0.592657 0.063717
0.102903 0.604142 0.065654
0.245009 0.628008 0.073115
0.353430 0.657245 0.074515
0.454210 0.698481 0.043810
0.551881 0.735658 0.043894
0.630535 0.762388 0.043912
0.696512 0.785973 0.044264
0.748075 0.802621 0.044641
0.788773 0.817713 0.044641
0.837713 0.838028 0.044700
0.881096 0.832950 0.044782
0.929204 0.848171 0.044884
0.951086 0.831455 0.044900
0.951200 0.798400 0.044900
0.043259 0.090455 0.103178
0.048186 0.091184 0.104269
0.090895 0.098328 0.115735
0.130155 0.103399 0.114858
0.174004 0.113169 0.113547
0.227340 0.120682 0.105568
0.286421 0.127956 0.096718
0.333775 0.136441 0.091420
0.395008 0.148495 0.094533
0.458404 0.160966 0.101935
0.521549 0.172212 0.116171
0.582863 0.181910 0.130642
0.640734 0.194178 0.142007
0.697604 0.209720 0.150083
0.752341 0.226917 0.155842
0.805543 0.246394 0.159057
0.043300 0.093325 0.104998
0.047301 0.098455 0.110254
0.078095 0.104082 0.119004
0.122744 0.111391 0.120621
0.169329 0.117770 0.115746
0.222443 0.120095 0.103045
0.281447 0.126845 0.094172
0.333392 0.136323 0.090007
0.396609 0.148885 0.093508
0.459924 0.161885 0.101189
0.522694 0.172752 0.115624
0.583798 0.182354 0.130046
0.642728 0.195472 0.140894
0.700364 0.211824 0.148432
0.757144 0.230681 0.153362
0.812112 0.252606 0.155318
0.043300 0.109942 0.117172
0.044982 0.113595 0.120066
0.066974 0.116893 0.124462
0.107652 0.126276 0.128385
0.160180 0.138905 0.124600
0.223971 0.147209 0.109678
0.290800 0.153847 0.090234
0.360076 0.161392 0.077710
0.417323 0.168820 0.080629
0.477118 0.175423 0.094918
0.540032 0.182935 0.111129
0.601791 0.195998 0.122779
0.660716 0.211733 0.131452
0.718345 0.229515 0.138088
0.774987 0.251302 0.141510
0.829494 0.276907 0.141350
0.043305 0.150032 0.132676
0.043302 0.151228 0.122493
0.058331 0.154569 0.121670
0.107645 0.152725 0.125473
0.177338 0.150005 0.117772
0.240178 0.160363 0.102819
0.307677 0.169947 0.083763
0.379089 0.180575 0.070264
0.439083 0.190869 0.070552
0.500921 0.199765 0.085313
0.565735 0.212318 0.098158
0.627433 0.229365 0.106777
0.686308 0.248151 0.113152
0.743218 0.267640 0.118413
0.798886 0.289865 0.121210
0.851925 0.315270 0.120692
0.043200 0.179637 0.113092
0.043200 0.174551 0.101133
0.048307 0.190581 0.098023
0.094366 0.198872 0.106727
0.194423 0.179015 0.103407
0.272389 0.168569 0.079084
0.344745 0.181892 0.061536
0.413904 0.197952 0.058800
0.480607 0.213611 0.068144
0.544465 0.229509 0.078633
0.607629 0.247730 0.087038
0.667067 0.267518 0.092966
0.726643 0.289411 0.097266
0.784340 0.314380 0.098745
0.838201 0.340000 0.098064
0.887891 0.366471 0.095111
0.043200 0.201504 0.095932
0.043200 0.197202 0.081716
0.044180 0.219556 0.080190
0.087815 0.236887 0.079168
0.200805 0.223082 0.110970
0.288389 0.200561 0.086991
0.377182 0.198936 0.054321
0.458186 0.213881 0.058802
0.534949 0.232260 0.072898
0.602481 0.252653 0.081412
0.662247 0.273282 0.086949
0.717757 0.296207 0.089110
0.773560 0.321662 0.089392
0.826396 0.350663 0.085876
0.877999 0.383763 0.078159
0.916223 0.409747 0.070632
0.043200 0.221761 0.080283
0.043200 0.222273 0.077474
0.043200 0.245939 0.074101
0.090520 0.275187 0.056695
0.206708 0.257294 0.103251
0.317632 0.252763 0.072384
0.405950 0.240014 0.059940
0.499757 0.241386 0.060458
0.585790 0.256036 0.071874
0.653876 0.277805 0.080015
0.710622 0.299539 0.083701
0.762704 0.323476 0.083931
0.815328 0.350974 0.081350
0.865822 0.383331 0.073688
0.914235 0.419105 0.061362
0.938883 0.439080 0.052538
0.043200 0.242501 0.077856
0.043200 0.246963 0.079525
0.043680 0.275517 0.067908
0.106471 0.308756 0.049004
0.225914 0.294067 0.094615
0.336513 0.302400 0.083029
0.445404 0.301564 0.047620
0.548866 0.290312 0.061761
0.625630 0.295923 0.067705
0.688543 0.306252 0.071108
0.749628 0.326752 0.075469
0.800566 0.351239 0.074973
0.848558 0.379796 0.069341
0.896026 0.412897 0.059152
0.942458 0.450584 0.046312
0.952900 0.464111 0.043200
0.043200 0.263715 0.082709
0.043200 0.269273 0.083389
0.048622 0.309130 0.056061
0.129607 0.336165 0.048591
0.247786 0.328313 0.089617
0.353576 0.344892 0.083968
0.490862 0.349479 0.043493
0.583053 0.366612 0.043576
0.663159 0.351286 0.062467
0.724088 0.355220 0.065627
0.773250 0.361601 0.067282
0.825652 0.380139 0.065426
0.875195 0.408474 0.059342
0.920358 0.441902 0.050034
0.952512 0.477048 0.043200
0.952900 0.483798 0.043200
0.043200 0.282425 0.087802
0.043200 0.296781 0.081930
0.060435 0.338449 0.048910
0.158708 0.360478 0.050370
0.269740 0.358308 0.088830
0.374371 0.378448 0.072821
0.504184 0.397822 0.046953
0.605972 0.414973 0.043602
0.678441 0.442596 0.043648
0.744221 0.418395 0.050776
0.802726 0.419037 0.055576
0.845455 0.422975 0.055487
0.891760 0.439427 0.051230
0.939796 0.470136 0.043282
0.952900 0.498299 0.043200
0.952900 0.501718 0.043200
0.043200 0.302544 0.094434
0.043390 0.333552 0.080550
0.070811 0.362913 0.051763
0.178139 0.385475 0.055828
0.286572 0.387005 0.091432
0.394365 0.410714 0.070834
0.499319 0.444583 0.063865
0.620589 0.467541 0.044284
0.686253 0.489413 0.043648
0.750073 0.523930 0.043696
0.810633 0.490119 0.044299
0.862820 0.483540 0.045560
0.907686 0.485575 0.043200
0.945002 0.500621 0.043200
0.952900 0.516804 0.043200
0.952900 0.517908 0.043200
0.043200 0.336968 0.098935
0.049358 0.360677 0.086603
0.090234 0.386890 0.057825
0.200618 0.407582 0.065861
0.305584 0.413200 0.095703
0.416523 0.442823 0.071727
0.518107 0.486508 0.067898
0.614156 0.511647 0.047185
0.701935 0.543849 0.046277
0.750384 0.566837 0.045993
0.805375 0.604832 0.046584
0.864199 0.561656 0.043874
0.916989 0.547833 0.046649
0.945816 0.545184 0.044398
0.952197 0.543384 0.043943
0.952540 0.542259 0.043581
0.049075 0.367246 0.106082
0.061684 0.378316 0.099752
0.117494 0.410969 0.066606
0.225412 0.427528 0.079885
0.327932 0.438297 0.102713
0.438305 0.471420 0.074948
0.533457 0.520546 0.070086
0.616619 0.571488 0.051457
0.688674 0.599648 0.044990
0.762017 0.628950 0.046623
0.804437 0.645767 0.047733
0.853948 0.679262 0.048239
0.914811 0.631986 0.044003
0.947342 0.608122 0.045901
0.949320 0.587374 0.046818
0.949442 0.579058 0.046658
0.045032 0.417109 0.107472
0.054633 0.443855 0.078988
0.129390 0.471240 0.055656
0.234770 0.493191 0.061376
0.337511 0.505822 0.076818
0.445535 0.545215 0.049549
0.541042 0.582896 0.044456
0.616460 0.634008 0.044341
0.687684 0.684995 0.044480
0.741371 0.709722 0.044559
0.798505 0.718505 0.044609
0.849183 0.724409 0.044945
0.904216 0.749150 0.045606
0.939058 0.695910 0.047941
0.951368 0.653295 0.044781
0.951915 0.640489 0.044185
0.043237 0.496866 0.055530
0.045704 0.507176 0.045515
0.143472 0.528990 0.043200
0.247455 0.542800 0.057139
0.339032 0.561340 0.066855
0.435690 0.599163 0.052607
0.539621 0.653032 0.043793
0.626969 0.704761 0.043897
0.692688 0.744656 0.044541
0.738403 0.767179 0.044587
0.791208 0.795051 0.044600
0.834614 0.795001 0.044692
0.884639 0.792691 0.044817
0.932910 0.808582 0.044884
0.947596 0.741138 0.048500
0.947375 0.710317 0.048752
0.067637 0.595852 0.064923
0.069291 0.599591 0.066356
0.076616 0.604569 0.067748
0.226053 0.627768 0.071962
0.340064 0.649837 0.077241
0.441479 0.692739 0.046225
0.540702 0.738181 0.043912
0.621062 0.765932 0.043912
0.689059 0.789823 0.043971
0.744793 0.807260 0.044641
0.784595 0.819462 0.044641
0.835963 0.842616 0.044700
0.880616 0.839372 0.044772
0.927010 0.848711 0.044874
0.951000 0.834553 0.044900
0.951200 0.802557 0.044900
0.043259 0.104215 0.119962
0.048624 0.104195 0.119998
0.073445 0.110483 0.130178
0.149875 0.119016 0.138572
0.190767 0.124151 0.129477
0.248367 0.135321 0.122163
0.312961 0.144493 0.111763
0.378656 0.150265 0.101844
0.437720 0.157198 0.097263
0.485388 0.166887 0.105668
0.546353 0.176443 0.120258
0.602745 0.187007 0.132278
0.656423 0.200078 0.141476
0.708700 0.214754 0.148680
0.761087 0.231822 0.153908
0.812230 0.251359 0.156637
0.043300 0.106327 0.121410
0.047159 0.111971 0.127198
0.068506 0.115880 0.132947
0.142583 0.125304 0.145532
0.186298 0.128795 0.133988
0.249796 0.140054 0.125883
0.314824 0.145847 0.111579
0.383132 0.152301 0.102081
0.444863 0.159118 0.097750
0.490033 0.168226 0.105871
0.549769 0.177475 0.120151
0.604998 0.188208 0.131694
0.657337 0.200880 0.140876
0.709721 0.215608 0.148152
0.762183 0.232638 0.153429
0.813629 0.252457 0.156143
0.043300 0.114335 0.127503
0.044527 0.120435 0.133324
0.062867 0.128932 0.142087
0.122150 0.137884 0.155577
0.181405 0.144681 0.148467
0.247341 0.148196 0.131411
0.317442 0.150389 0.112857
0.389499 0.156398 0.102259
0.455053 0.163078 0.098884
0.498098 0.171601 0.105450
0.553834 0.180124 0.118741
0.607007 0.190555 0.129838
0.659016 0.202898 0.139140
0.711709 0.217772 0.146512
0.765673 0.235862 0.151499
0.818988 0.257977 0.153146
0.043334 0.140424 0.144774
0.043401 0.146302 0.149074
0.054411 0.152439 0.156196
0.095704 0.158172 0.165704
0.162748 0.169993 0.167822
0.235519 0.177741 0.151671
0.312289 0.178616 0.125713
0.387595 0.179510 0.106452
0.459039 0.179943 0.096063
0.512327 0.185291 0.099656
0.564338 0.195032 0.110259
0.620837 0.208493 0.119738
0.678007 0.226888 0.125754
0.736057 0.249507 0.129118
0.792638 0.273836 0.130746
0.846523 0.301078 0.129234
0.043436 0.182846 0.164375
0.043400 0.193625 0.165902
0.043879 0.199266 0.158717
0.070753 0.204688 0.151891
0.172694 0.200429 0.151309
0.258663 0.192075 0.139772
0.331517 0.202286 0.122310
0.407667 0.213186 0.105839
0.482865 0.220618 0.092944
0.547642 0.230347 0.092990
0.610365 0.241238 0.095120
0.654068 0.255637 0.097040
0.709568 0.273820 0.102727
0.768737 0.297743 0.105431
0.825686 0.324774 0.105056
0.878933 0.353081 0.102181
0.043215 0.236811 0.168676
0.043200 0.225181 0.142814
0.043200 0.218450 0.128559
0.057000 0.236438 0.113632
0.159524 0.246431 0.123479
0.282321 0.216696 0.119727
0.371449 0.210674 0.089632
0.452719 0.224837 0.076763
0.532878 0.241389 0.080455
0.602003 0.259433 0.082958
0.656273 0.278327 0.084467
0.709538 0.297154 0.085322
0.757260 0.317829 0.086555
0.813608 0.345215 0.085534
0.868699 0.377320 0.079990
0.915094 0.408475 0.071268
0.043200 0.250648 0.141331
0.043200 0.242573 0.126665
0.043200 0.235968 0.108003
0.053962 0.268219 0.091695
0.168847 0.284588 0.099492
0.310426 0.272256 0.108787
0.402138 0.252714 0.085474
0.497681 0.250536 0.075451
0.583971 0.261520 0.068716
0.645756 0.282241 0.072522
0.702669 0.303971 0.076522
0.754617 0.326821 0.077711
0.805251 0.352785 0.075634
0.854721 0.383319 0.068804
0.903072 0.418085 0.057261
0.934454 0.443422 0.048889
0.043200 0.267716 0.133672
0.043200 0.258036 0.112679
0.043200 0.255136 0.099152
0.060794 0.302301 0.078323
0.192299 0.317537 0.091761
0.317769 0.318072 0.109669
0.442000 0.314144 0.066004
0.542186 0.301355 0.076539
