example_ofxGpuLutCube/bin/data/ofxGpuLutCube/LUT/C29 (deep teal).cube
LUT_3D_SIZE 6
0.043233 0.071276 0.080127
0.104788 0.095555 0.088601
0.255034 0.128392 0.082201
0.444582 0.164716 0.091632
0.639653 0.197398 0.136699
0.813091 0.257113 0.151430
0.043200 0.138294 0.073922
0.113371 0.144103 0.087338
0.311103 0.160947 0.058356
0.506773 0.207850 0.081553
0.703446 0.266405 0.105932
0.862901 0.331426 0.112569
0.043200 0.222193 0.067723
0.130832 0.258701 0.057424
0.395480 0.227704 0.048981
0.641761 0.268289 0.083348
0.820800 0.347159 0.086620
0.944099 0.433693 0.060199
0.043200 0.297846 0.065201
0.198500 0.348498 0.052095
0.509226 0.385157 0.043726
0.741210 0.405063 0.055606
0.886469 0.429926 0.054112
0.952900 0.490589 0.043200
0.058481 0.374071 0.077944
0.256179 0.423283 0.080785
0.544843 0.521982 0.048054
0.762766 0.616776 0.047900
0.916048 0.632926 0.044051
0.949735 0.577690 0.046382
0.063224 0.585160 0.061035
0.251855 0.629731 0.073973
0.562416 0.734549 0.043882
0.747710 0.798534 0.044641
0.881977 0.829508 0.044790
0.951200 0.795837 0.044900
0.043259 0.104215 0.119962
0.149875 0.119016 0.138572
0.312961 0.144493 0.111763
0.485388 0.166887 0.105668
0.656423 0.200078 0.141476
0.812230 0.251359 0.156637
0.043334 0.140424 0.144774
0.095704 0.158172 0.165704
0.312289 0.178616 0.125713
0.512327 0.185291 0.099656
0.678007 0.226888 0.125754
0.846523 0.301078 0.129234
0.043200 0.250648 0.141331
0.053962 0.268219 0.091695
0.402138 0.252714 0.085474
0.645756 0.282241 0.072522
0.805251 0.352785 0.075634
0.934454 0.443422 0.048889
0.043200 0.289203 0.121113
0.104246 0.362713 0.058736
0.480355 0.412520 0.079946
0.742851 0.427339 0.045883
0.889943 0.442697 0.050230
0.952900 0.508895 0.043200
0.043200 0.331209 0.160635
0.181167 0.433627 0.081213
0.516562 0.513293 0.084806
0.758214 0.636046 0.045593
0.915421 0.631610 0.043971
0.949028 0.581049 0.047096
0.067519 0.595584 0.064820
0.175071 0.628685 0.069117
0.526532 0.738001 0.043879
0.739305 0.811951 0.044641
0.879365 0.846939 0.044756
0.951200 0.807125 0.044900
0.043441 0.157080 0.181486
0.089922 0.165047 0.195186
0.391745 0.184950 0.174339
0.591738 0.196977 0.148419
0.736222 0.238297 0.160763
0.864356 0.290783 0.159187
0.043441 0.168696 0.189792
0.057856 0.200333 0.226303
0.388135 0.214133 0.214393
0.605917 0.213023 0.173225
0.745626 0.249882 0.169670
0.866511 0.307304 0.162319
0.043547 0.254960 0.254834
0.043607 0.293582 0.288775
0.245902 0.351219 0.355911
0.599829 0.366932 0.312802
0.768271 0.372774 0.257324
0.910113 0.434003 0.208157
0.043954 0.448652 0.380584
0.043556 0.426232 0.332343
0.298549 0.456528 0.212809
0.709078 0.485635 0.164870
0.858991 0.498216 0.134025
0.952887 0.564476 0.135242
0.043615 0.477760 0.367768
0.043381 0.440475 0.325305
0.405281 0.523555 0.206251
0.710600 0.664184 0.148368
0.905527 0.644943 0.082083
0.951981 0.607963 0.113911
0.043200 0.598366 0.305659
0.043200 0.587209 0.200076
0.375549 0.834472 0.061938
0.701524 0.852813 0.110568
0.867198 0.868114 0.136252
0.951361 0.825976 0.140493
0.043541 0.217030 0.249306
0.068689 0.217505 0.249881
0.342450 0.257661 0.272987
0.660297 0.249985 0.175168
0.779284 0.280578 0.167372
0.874206 0.349896 0.246735
0.043573 0.224824 0.256732
0.045575 0.246443 0.284854
0.307252 0.264159 0.324028
0.656214 0.270911 0.218030
0.779323 0.300941 0.219550
0.869407 0.373417 0.304227
0.043588 0.271377 0.299884
0.043722 0.309804 0.343234
0.128650 0.367266 0.423265
0.639331 0.382470 0.381442
0.779060 0.406314 0.388121
0.875269 0.453567 0.407610
0.043814 0.389056 0.402689
0.043901 0.428445 0.436631
0.087770 0.496152 0.511654
0.606609 0.580911 0.574152
0.800367 0.619078 0.571701
0.914579 0.629562 0.535139
0.044198 0.580895 0.553396
0.044273 0.614911 0.584197
0.045392 0.589104 0.525999
0.626119 0.674600 0.454431
0.868681 0.702320 0.379948
0.952900 0.703300 0.435539
0.043972 0.789500 0.672208
0.043912 0.773378 0.557612
0.043200 0.737206 0.431174
0.590600 0.896852 0.280782
0.837976 0.880725 0.416107
0.951412 0.849361 0.385473
0.043656 0.274232 0.317418
0.056419 0.273733 0.310738
0.211193 0.303412 0.349144
0.614824 0.327436 0.293148
0.805550 0.350525 0.314772
0.863302 0.398564 0.383265
0.043696 0.283189 0.329416
0.043722 0.297621 0.350861
0.132668 0.314173 0.368999
0.597524 0.354858 0.362594
0.800719 0.375202 0.377972
0.866652 0.431907 0.440911
0.043760 0.321725 0.369933
0.043825 0.350688 0.406612
0.095553 0.391564 0.473583
0.600755 0.417085 0.498432
0.810119 0.463297 0.516279
0.878822 0.519499 0.560583
0.043958 0.397237 0.453876
0.044049 0.438830 0.501521
0.069022 0.478437 0.553367
0.435028 0.563728 0.673940
0.818557 0.605577 0.666530
0.890494 0.647555 0.681158
0.044221 0.529617 0.584230
0.044262 0.558881 0.610693
0.044322 0.596814 0.653396
0.247592 0.684242 0.741664
0.811687 0.775706 0.752698
0.921754 0.791509 0.752306
0.044481 0.694605 0.737370
0.044562 0.738781 0.762971
0.044685 0.788436 0.792292
0.141642 0.876449 0.760286
0.780822 0.912322 0.607159
0.951879 0.888145 0.613974
0.043862 0.348871 0.409227
0.043822 0.343868 0.393042
0.122286 0.364355 0.401488
0.597626 0.424700 0.465086
0.788484 0.463756 0.524188
0.897789 0.527429 0.639105
0.043863 0.359709 0.431198
0.043710 0.370120 0.448640
0.104227 0.383485 0.451794
0.539896 0.411750 0.514682
0.799664 0.466012 0.568591
0.907201 0.537503 0.674063
0.043963 0.385597 0.460885
0.044038 0.406745 0.491122
0.051505 0.430546 0.537459
0.295937 0.442008 0.603740
0.805071 0.497984 0.678571
0.920418 0.571464 0.733170
0.044123 0.456578 0.546064
0.044163 0.491853 0.589892
0.044263 0.504012 0.610902
0.214812 0.570786 0.721308
0.760250 0.586007 0.764691
0.928092 0.643509 0.790220
0.044320 0.537419 0.638969
0.044363 0.568067 0.674123
0.044422 0.584697 0.694551
0.177565 0.637716 0.757277
0.758457 0.750764 0.818922
0.926092 0.760663 0.838313
0.044521 0.645596 0.748484
0.044522 0.673479 0.771556
0.044577 0.698169 0.791305
0.132777 0.748729 0.831409
0.645561 0.838734 0.871074
0.934397 0.921686 0.860345
