example_ofxGpuLutCube/bin/data/ofxGpuLutCube/LUT/C3 (neutral faded).cube
LUT_3D_SIZE 6
0.141865 0.124833 0.182418
0.311359 0.122982 0.195310
0.469971 0.123241 0.204155
0.641625 0.124276 0.221640
0.818388 0.124943 0.236567
0.987281 0.125984 0.254798
0.155007 0.295098 0.177660
0.326339 0.292727 0.187786
0.487170 0.294066 0.202245
0.649276 0.295806 0.221953
0.818407 0.297179 0.237422
0.999339 0.295650 0.251644
0.167668 0.447129 0.176458
0.344237 0.443710 0.180525
0.496494 0.443864 0.192607
0.653750 0.450236 0.220360
0.831798 0.451141 0.234148
1.013141 0.447477 0.247408
0.176443 0.626946 0.177671
0.348605 0.628326 0.183489
0.508507 0.630243 0.192135
0.669937 0.630398 0.211674
0.850132 0.628438 0.230585
1.029089 0.625487 0.243903
0.184085 0.829081 0.179200
0.356242 0.829128 0.185334
0.520372 0.829148 0.193018
0.690689 0.830557 0.207536
0.868996 0.827673 0.225966
1.047530 0.821800 0.240398
0.196889 1.039990 0.176264
0.366999 1.036981 0.182617
0.528995 1.033219 0.189068
0.704994 1.028496 0.201195
0.881256 1.024977 0.216773
1.068882 1.022533 0.232425
0.143430 0.001156 0.312009
0.305380 0.001156 0.323729
0.455700 0.000000 0.343506
0.626487 0.000000 0.361769
0.800840 0.000000 0.379915
0.967875 0.000000 0.398118
0.153896 0.297105 0.315676
0.292902 0.305667 0.331076
0.475563 0.296549 0.330176
0.634713 0.296613 0.351326
0.810595 0.296025 0.368627
0.991185 0.295160 0.381905
0.156343 0.451707 0.321920
0.322430 0.452032 0.316091
0.486831 0.450744 0.324673
0.655977 0.450376 0.348059
0.829569 0.450922 0.364693
1.006838 0.448999 0.377637
0.165551 0.632383 0.320032
0.333979 0.633245 0.315141
0.506215 0.631346 0.318494
0.677538 0.630702 0.332034
0.842528 0.633866 0.357682
1.020905 0.629380 0.371064
0.176767 0.833410 0.316481
0.341814 0.833988 0.313729
0.508402 0.835592 0.319385
0.685327 0.836729 0.329684
0.861958 0.836509 0.348154
1.039197 0.826801 0.365944
0.185476 1.042605 0.313230
0.351244 1.039975 0.311800
0.516086 1.036575 0.316536
0.695763 1.031906 0.325129
0.873703 1.028163 0.337777
1.059243 1.025727 0.355565
0.138366 0.001717 0.456077
0.307172 0.001717 0.460183
0.452218 0.001694 0.473084
0.620274 0.000548 0.493783
0.787637 0.000000 0.514775
0.956435 0.000000 0.533697
0.149930 0.301979 0.456746
0.314220 0.298220 0.456312
0.467020 0.300898 0.463164
0.636872 0.300541 0.480966
0.801196 0.300680 0.503900
0.981410 0.299584 0.517201
0.154079 0.452812 0.462892
0.319177 0.455114 0.459572
0.448425 0.466237 0.474818
0.652903 0.453391 0.475124
0.821182 0.453649 0.496930
0.997609 0.452830 0.513164
0.156646 0.637146 0.468116
0.320101 0.638460 0.463276
0.483533 0.640346 0.457724
0.666053 0.637539 0.467276
0.844086 0.634193 0.491564
1.016901 0.630431 0.508462
0.165349 0.838600 0.463780
0.329424 0.840437 0.460723
0.495643 0.839936 0.455802
0.683820 0.837777 0.459470
0.865765 0.836007 0.472166
1.032223 0.830672 0.499354
0.175795 1.044699 0.455908
0.340997 1.042807 0.452855
0.506088 1.040131 0.453124
0.684562 1.035822 0.457081
0.867110 1.031434 0.466094
1.049096 1.028982 0.482650
0.132436 0.002382 0.611698
0.305535 0.002277 0.614271
0.455080 0.002353 0.624017
0.616460 0.002277 0.639157
0.781490 0.001304 0.663583
0.947879 0.000000 0.683542
0.144791 0.305546 0.615164
0.309056 0.300781 0.616704
0.466040 0.302730 0.618045
0.631866 0.303710 0.629407
0.804788 0.304206 0.648703
0.971502 0.303737 0.667030
0.149413 0.459197 0.618974
0.315370 0.458208 0.618367
0.472426 0.456997 0.617743
0.642757 0.458682 0.625941
0.818814 0.458578 0.641985
0.988148 0.457933 0.659901
0.153487 0.639967 0.627594
0.319054 0.641387 0.626827
0.476823 0.643023 0.620751
0.620733 0.657462 0.638683
0.835396 0.640836 0.637037
1.008129 0.640993 0.657839
0.158008 0.842334 0.632314
0.319484 0.845768 0.626432
0.479740 0.847159 0.621402
0.661816 0.847625 0.617518
0.850847 0.845641 0.627779
1.020094 0.834544 0.651595
0.166504 1.045552 0.622154
0.327927 1.044589 0.619426
0.490735 1.043226 0.614219
0.676107 1.040225 0.612279
0.866062 1.035558 0.614308
1.036634 1.032975 0.621436
0.130038 0.003090 0.776198
0.303832 0.002911 0.781700
0.454986 0.002932 0.788886
0.617725 0.003018 0.800296
0.788329 0.002888 0.815978
0.951102 0.001968 0.836675
0.140779 0.307942 0.782214
0.305437 0.303178 0.785878
0.462869 0.304614 0.786240
0.630303 0.305755 0.793567
0.804150 0.306210 0.808382
0.972922 0.306448 0.822597
0.145890 0.461467 0.789007
0.310604 0.461886 0.790550
0.467640 0.459115 0.791203
0.638624 0.460900 0.793835
0.813332 0.461302 0.804926
0.986796 0.461420 0.817296
0.139588 0.648326 0.801705
0.316291 0.645572 0.795937
0.473189 0.644237 0.793944
0.648378 0.645333 0.792089
0.824328 0.646652 0.799903
1.001086 0.646268 0.812103
0.154685 0.845517 0.805697
0.317746 0.849008 0.803646
0.476068 0.849489 0.800796
0.652262 0.851237 0.794433
0.800122 0.866224 0.812379
1.009168 0.847522 0.809144
0.162732 1.044214 0.803916
0.321111 1.043984 0.800234
0.479172 1.043888 0.793699
0.657168 1.043429 0.786999
0.846591 1.040516 0.785486
1.022379 1.037128 0.794137
0.128189 0.003795 0.936844
0.300806 0.003540 0.943472
0.450346 0.003515 0.950723
0.612787 0.003590 0.959427
0.783040 0.003655 0.971975
0.961519 0.003481 0.988370
0.138193 0.308997 0.941356
0.303365 0.305146 0.945310
0.457746 0.306397 0.949714
0.624615 0.307358 0.955624
0.797234 0.307669 0.965687
0.974982 0.308604 0.981029
0.142444 0.461582 0.950813
0.307609 0.461697 0.954006
0.462652 0.462104 0.957023
0.631509 0.462927 0.958354
0.805647 0.464490 0.966150
0.984373 0.464109 0.979505
0.138331 0.644930 0.965970
0.312924 0.641750 0.960388
0.468420 0.642794 0.961336
0.643513 0.647760 0.961847
0.815848 0.649312 0.964116
0.994705 0.649915 0.975446
0.149840 0.843656 0.965766
0.305903 0.850836 0.972180
0.472736 0.845724 0.965091
0.649038 0.847374 0.963428
0.829552 0.851501 0.960203
0.999390 0.853821 0.968206
0.159737 1.002889 0.974028
0.317559 1.002600 0.973229
0.474211 1.002554 0.972207
0.650979 1.002527 0.969720
0.831443 1.002220 0.963399
0.974173 1.001845 0.973494
