example_ofxGpuLutCube/bin/data/ofxGpuLutCube/LUT/C3 (neutral faded).cube
LUT_3D_SIZE 16
0.141865 0.124833 0.182418
0.192438 0.134922 0.187890
0.258856 0.126210 0.189080
0.311359 0.122982 0.195310
0.361379 0.122635 0.197162
0.416821 0.123217 0.201209
0.469971 0.123241 0.204155
0.525791 0.123725 0.210112
0.583363 0.124148 0.215973
0.641625 0.124276 0.221640
0.701983 0.124628 0.226472
0.758839 0.124881 0.231927
0.818388 0.124943 0.236567
0.876386 0.125192 0.242534
0.930718 0.125507 0.248791
0.987281 0.125984 0.254798
0.141232 0.195580 0.183878
0.196195 0.201085 0.185932
0.255545 0.199055 0.188077
0.315029 0.195621 0.191835
0.370595 0.194308 0.194564
0.423146 0.194580 0.197827
0.476312 0.194969 0.203405
0.531974 0.195175 0.208858
0.589535 0.195125 0.214352
0.647936 0.195063 0.219726
0.707277 0.195627 0.224369
0.764357 0.194342 0.232137
0.820111 0.194385 0.236557
0.876383 0.195340 0.242676
0.930801 0.195112 0.248824
0.989633 0.194881 0.254159
0.153142 0.244849 0.180092
0.216778 0.246355 0.181480
0.264770 0.247660 0.185413
0.318601 0.246051 0.189337
0.374757 0.245612 0.193260
0.427244 0.245936 0.197372
0.481464 0.246322 0.202986
0.537462 0.246447 0.208180
0.594812 0.246740 0.213245
0.652194 0.246697 0.219144
0.707612 0.247212 0.226306
0.762360 0.247337 0.232141
0.817670 0.247881 0.239404
0.875069 0.248307 0.244497
0.933011 0.247231 0.248462
0.994565 0.246562 0.252980
0.155007 0.295098 0.177660
0.224139 0.294576 0.179460
0.276020 0.293768 0.183703
0.326339 0.292727 0.187786
0.377524 0.293447 0.191429
0.433208 0.294133 0.197073
0.487170 0.294066 0.202245
0.541065 0.294735 0.208337
0.594918 0.295340 0.215408
0.649276 0.295806 0.221953
0.703999 0.297110 0.229399
0.759202 0.296352 0.234033
0.818407 0.297179 0.237422
0.880569 0.297363 0.243071
0.938544 0.296530 0.247118
0.999339 0.295650 0.251644
0.158576 0.344855 0.176058
0.228542 0.343833 0.177308
0.283760 0.342205 0.182205
0.335751 0.340481 0.185916
0.385063 0.341426 0.190416
0.435222 0.342660 0.193972
0.487217 0.342049 0.204354
0.538164 0.343222 0.211828
0.589899 0.344675 0.218673
0.645286 0.345650 0.223978
0.705381 0.346078 0.228563
0.764060 0.345889 0.232068
0.824332 0.346571 0.237141
0.885010 0.346361 0.241482
0.942745 0.346125 0.245534
1.003638 0.344758 0.250079
0.163458 0.394573 0.176425
0.232068 0.394053 0.176675
0.287534 0.393205 0.178482
0.342775 0.389085 0.183996
0.395492 0.388196 0.187929
0.441355 0.388695 0.191897
0.490735 0.391488 0.199356
0.539603 0.393092 0.211792
0.591699 0.395161 0.218035
0.649354 0.396507 0.222417
0.710535 0.397699 0.225965
0.768554 0.398006 0.230847
0.828086 0.398148 0.234424
0.888744 0.397478 0.238697
0.947353 0.396664 0.244157
1.008485 0.394906 0.248571
0.167668 0.447129 0.176458
0.236118 0.446569 0.176711
0.291910 0.445587 0.177233
0.344237 0.443710 0.180525
0.399404 0.442254 0.184552
0.448221 0.442005 0.189797
0.496494 0.443864 0.192607
0.546799 0.446323 0.204303
0.598014 0.448458 0.215102
0.653750 0.450236 0.220360
0.713697 0.451142 0.223730
0.772729 0.451814 0.228646
0.831798 0.451141 0.234148
0.894881 0.451155 0.237693
0.952309 0.449740 0.242671
1.013141 0.447477 0.247408
0.172124 0.502660 0.176056
0.239883 0.502232 0.176765
0.294829 0.502242 0.179048
0.346158 0.501642 0.180779
0.396893 0.502582 0.181148
0.449202 0.503351 0.185335
0.500087 0.503587 0.188754
0.550557 0.503462 0.198245
0.603480 0.505300 0.210170
0.658290 0.506884 0.218025
0.719703 0.508458 0.223373
0.779250 0.507432 0.228814
0.838483 0.507247 0.231632
0.899931 0.506778 0.237375
0.957401 0.505918 0.241471
1.018089 0.503171 0.245972
0.175014 0.562759 0.176537
0.241458 0.563011 0.178088
0.296136 0.563593 0.179157
0.346240 0.563689 0.182379
0.399651 0.562892 0.186010
0.451538 0.566165 0.185698
0.502573 0.567230 0.188818
0.553747 0.568466 0.193770
0.607648 0.566600 0.205332
0.664546 0.566404 0.215825
0.724280 0.566423 0.222589
0.783721 0.567377 0.226350
0.843664 0.565917 0.231839
0.904355 0.566587 0.236216
0.962631 0.565901 0.240387
1.023397 0.563014 0.245014
0.176443 0.626946 0.177671
0.242897 0.627672 0.179639
0.295809 0.629132 0.181392
0.348605 0.628326 0.183489
0.400729 0.628776 0.186767
0.454803 0.628630 0.190009
0.508507 0.630243 0.192135
0.560587 0.631874 0.195312
0.614514 0.632032 0.201440
0.669937 0.630398 0.211674
0.731349 0.630782 0.220855
0.789865 0.630387 0.225065
0.850132 0.628438 0.230585
0.911502 0.630157 0.234949
0.968651 0.628571 0.239270
1.029089 0.625487 0.243903
0.177995 0.693557 0.178696
0.244964 0.694136 0.180597
0.298275 0.694537 0.182622
0.350230 0.696113 0.184189
0.403273 0.695966 0.186660
0.458810 0.695578 0.189764
0.514147 0.694762 0.193853
0.567788 0.695725 0.197727
0.621745 0.697276 0.200676
0.677330 0.696851 0.208237
0.735751 0.695614 0.217360
0.796055 0.694295 0.223604
0.856509 0.694273 0.229309
0.917490 0.695439 0.234706
0.974596 0.693157 0.238298
1.034935 0.689844 0.242614
0.180736 0.761269 0.179015
0.247210 0.761940 0.181224
0.300628 0.762289 0.183088
0.353451 0.762799 0.184821
0.406613 0.762562 0.187520
0.460876 0.761699 0.189711
0.517693 0.761580 0.193603
0.573285 0.761657 0.198323
0.628070 0.763112 0.202134
0.684028 0.764435 0.206446
0.740824 0.763309 0.214644
0.802508 0.762640 0.221469
0.863278 0.761211 0.227754
0.922937 0.761012 0.232194
0.981284 0.759159 0.237094
1.041340 0.755556 0.241673
0.184085 0.829081 0.179200
0.250488 0.829457 0.181565
0.303783 0.830161 0.183424
0.356242 0.829128 0.185334
0.409886 0.830027 0.186172
0.463724 0.828910 0.189944
0.520372 0.829148 0.193018
0.577868 0.828958 0.197651
0.634351 0.829471 0.202988
0.690689 0.830557 0.207536
0.748248 0.831557 0.211056
0.809214 0.830805 0.219470
0.868996 0.827673 0.225966
0.930713 0.827197 0.231949
0.987925 0.825876 0.235815
1.047530 0.821800 0.240398
0.187459 0.896086 0.179333
0.253456 0.896437 0.181528
0.307211 0.897437 0.182362
0.357779 0.897906 0.185157
0.411101 0.896351 0.186318
0.466017 0.896503 0.189375
0.522735 0.897042 0.192621
0.581144 0.896781 0.196657
0.638644 0.897022 0.202043
0.696537 0.896952 0.207250
0.754778 0.897670 0.211677
0.813208 0.897022 0.216961
0.875392 0.897155 0.223723
0.936203 0.895796 0.229795
0.994507 0.893644 0.234249
1.054081 0.889019 0.238856
0.190542 0.964757 0.178814
0.256254 0.964998 0.181178
0.310123 0.963903 0.183222
0.360520 0.964235 0.184833
0.413332 0.963247 0.187445
0.466970 0.963903 0.189912
0.524888 0.962972 0.192129
0.583462 0.961787 0.195648
0.642076 0.960846 0.200496
0.700791 0.960072 0.205881
0.759150 0.958994 0.211099
0.816953 0.958999 0.216938
0.879630 0.958286 0.220168
0.939888 0.957713 0.226774
1.000707 0.956929 0.232580
1.060465 0.953007 0.237642
0.196889 1.039990 0.176264
0.261935 1.039011 0.178804
0.314103 1.038034 0.180890
0.366999 1.036981 0.182617
0.417302 1.035953 0.183839
0.471955 1.034669 0.187256
0.528995 1.033219 0.189068
0.587336 1.031648 0.192006
0.646001 1.030071 0.196043
0.704994 1.028496 0.201195
0.763584 1.027126 0.206145
0.822664 1.026059 0.213266
0.881256 1.024977 0.216773
0.943344 1.023978 0.221433
1.003615 1.023200 0.226591
1.068882 1.022533 0.232425
0.135764 0.000866 0.232925
0.193006 0.000866 0.234543
0.252785 0.000649 0.235728
0.307477 0.000000 0.238480
0.355125 0.000000 0.245128
0.407575 0.000000 0.251440
0.460442 0.000000 0.257956
0.516008 0.000000 0.264272
0.573708 0.000000 0.270573
0.632023 0.000000 0.276431
0.691033 0.000000 0.281364
0.749483 0.000000 0.287235
0.808322 0.000000 0.292727
0.866411 0.000000 0.298680
0.919495 0.000000 0.304396
0.976393 0.000000 0.310285
0.142058 0.195121 0.232728
0.188222 0.203956 0.236785
0.248296 0.202090 0.236180
0.310570 0.196522 0.235088
0.365952 0.193699 0.236531
0.419649 0.193869 0.242215
0.472678 0.193535 0.247746
0.528410 0.193375 0.253145
0.586024 0.193008 0.258528
0.644718 0.192694 0.263864
0.703975 0.192274 0.268808
0.760007 0.192089 0.276254
0.814940 0.191862 0.281746
0.872507 0.193123 0.287786
0.926795 0.192522 0.292963
0.985651 0.192655 0.298206
0.145279 0.248568 0.226506
0.202454 0.251796 0.230098
0.250419 0.253813 0.235126
0.305750 0.251648 0.238463
0.367390 0.248788 0.239412
0.425065 0.247764 0.241565
0.477652 0.247336 0.247348
0.533874 0.247362 0.252439
0.591283 0.247415 0.257712
0.647454 0.247452 0.263893
0.703170 0.248080 0.269618
0.756326 0.246917 0.276925
0.814245 0.247951 0.283335
0.871203 0.248551 0.288406
0.930794 0.247296 0.292606
0.991972 0.246738 0.297104
0.153828 0.296590 0.225181
0.217564 0.297331 0.222416
0.270233 0.298302 0.226443
0.317047 0.299057 0.232091
0.369744 0.297094 0.237945
0.428191 0.296670 0.241504
0.482849 0.295529 0.246741
0.535901 0.296204 0.253014
0.589132 0.296808 0.259971
0.643058 0.297239 0.266603
0.698165 0.297396 0.272840
0.756815 0.296529 0.279001
0.816451 0.297479 0.281577
0.878378 0.297796 0.287140
0.936568 0.296806 0.291401
0.997145 0.296077 0.295827
0.155406 0.346209 0.227323
0.220145 0.346336 0.224280
0.276344 0.345150 0.224981
0.327987 0.344932 0.226248
0.376674 0.344017 0.231544
0.430700 0.343867 0.239724
0.483082 0.344002 0.248036
0.534565 0.344907 0.255127
0.587423 0.345795 0.262112
0.642548 0.346369 0.268334
0.703017 0.347334 0.273092
0.762424 0.346680 0.276473
0.822387 0.346964 0.281405
0.884124 0.346711 0.285752
0.940958 0.346439 0.289904
1.001611 0.345213 0.294389
0.158470 0.396463 0.228011
0.222874 0.396402 0.225055
0.280437 0.395505 0.225326
0.335022 0.393489 0.224955
0.386873 0.394596 0.225851
0.437535 0.393752 0.233359
0.488069 0.393353 0.245131
0.541074 0.393577 0.254640
0.594368 0.395231 0.260954
0.648942 0.396475 0.267014
0.708276 0.397874 0.271976
0.768505 0.397994 0.275408
0.826885 0.397552 0.278318
0.888510 0.398384 0.283993
0.945249 0.397227 0.288069
1.005880 0.395760 0.292522
0.162327 0.449251 0.227887
0.226815 0.448913 0.224595
0.284184 0.448106 0.224548
0.338853 0.447249 0.225178
0.394523 0.446363 0.225457
0.449360 0.445098 0.225101
0.498110 0.444583 0.235494
0.548790 0.446276 0.248199
0.600603 0.447989 0.258804
0.654325 0.449943 0.264862
0.712094 0.451932 0.268038
0.771101 0.451415 0.274186
0.831308 0.452322 0.277584
0.891878 0.452407 0.282188
0.949641 0.450760 0.286116
1.010253 0.448581 0.290882
0.166733 0.504912 0.227065
0.230602 0.504710 0.224124
0.287105 0.503723 0.224098
0.342733 0.504286 0.225120
0.395969 0.502497 0.226502
0.451603 0.502125 0.227093
0.504996 0.502410 0.229939
0.554844 0.502537 0.240108
0.606726 0.504642 0.252619
0.659696 0.506402 0.261912
0.717793 0.508835 0.266479
0.776281 0.508090 0.270960
0.835489 0.507417 0.274836
0.895781 0.508192 0.280559
0.954643 0.507252 0.284586
1.015372 0.504509 0.289256
0.170884 0.564786 0.226431
0.234534 0.564520 0.223460
0.291207 0.564838 0.224963
0.345083 0.564100 0.226224
0.398503 0.564863 0.228723
0.449642 0.566290 0.231677
0.504788 0.566617 0.232212
0.558313 0.567044 0.235910
0.610533 0.566468 0.246413
0.665052 0.567394 0.257111
0.721849 0.568712 0.264167
0.781103 0.568247 0.269695
0.841111 0.568573 0.274722
0.902968 0.569215 0.278168
0.959848 0.567212 0.283318
1.020909 0.564451 0.288144
0.174754 0.628200 0.226083
0.237112 0.628577 0.223808
0.293593 0.628062 0.224721
0.346182 0.629386 0.227357
0.398721 0.628726 0.229419
0.452006 0.629145 0.233743
0.507576 0.631334 0.234645
0.560312 0.633399 0.237144
0.614157 0.634199 0.242306
0.669486 0.632305 0.252440
0.728919 0.632627 0.262725
0.786045 0.631096 0.267721
0.847206 0.631340 0.273247
0.908593 0.631458 0.277896
0.965833 0.630128 0.281985
1.026263 0.626971 0.286689
0.176992 0.694577 0.226320
0.238892 0.695068 0.224477
0.295697 0.695644 0.226430
0.347746 0.697154 0.226661
0.400059 0.696781 0.229704
0.454424 0.697732 0.233343
0.510820 0.696907 0.236341
0.566083 0.697899 0.239138
0.620102 0.699559 0.242072
0.675729 0.699590 0.248268
0.733402 0.698802 0.257399
0.793466 0.695780 0.267039
0.853485 0.695725 0.271711
0.913558 0.696933 0.276101
0.971933 0.694763 0.280726
1.032210 0.691242 0.285287
0.178950 0.762650 0.226591
0.240639 0.763277 0.224994
0.297615 0.763634 0.225643
0.350332 0.764108 0.228713
0.401628 0.765095 0.230193
0.456474 0.765007 0.232552
0.513545 0.764065 0.236040
0.571293 0.763639 0.240047
0.626839 0.765015 0.243952
0.682922 0.766400 0.247533
0.740028 0.766167 0.255305
0.799122 0.764678 0.263472
0.860452 0.763021 0.269972
0.921230 0.763729 0.275652
0.978700 0.761168 0.279315
1.038579 0.757179 0.283820
0.181773 0.830618 0.226456
0.243317 0.831259 0.224986
0.298650 0.831828 0.227087
0.351245 0.832600 0.228705
0.404642 0.831045 0.229113
0.458463 0.831072 0.233083
0.516242 0.831547 0.235522
0.574921 0.831114 0.239595
0.632338 0.831455 0.244297
0.688959 0.832667 0.248329
0.746537 0.835100 0.252483
0.805132 0.832690 0.258881
0.867531 0.831837 0.268052
0.927811 0.829610 0.272761
0.985179 0.827681 0.277723
1.044747 0.823329 0.282472
0.184416 0.898275 0.226284
0.246105 0.898465 0.224723
0.302739 0.899425 0.225717
0.355355 0.899781 0.228411
0.407559 0.898694 0.230352
0.461437 0.898830 0.232881
0.518911 0.899335 0.235143
0.577665 0.899004 0.238741
0.636719 0.898986 0.243381
0.694900 0.898918 0.248499
0.752951 0.899418 0.253177
0.810801 0.901359 0.256908
0.871396 0.899862 0.263466
0.934971 0.899777 0.270961
0.991608 0.895288 0.276453
1.051416 0.890630 0.281064
0.187438 0.966877 0.225696
0.249130 0.966836 0.224379
0.304155 0.967104 0.226397
0.357988 0.967026 0.228240
0.410218 0.966154 0.229898
0.463939 0.965314 0.231172
0.521260 0.964543 0.234668
0.579977 0.963306 0.237922
0.639651 0.962321 0.242098
0.698541 0.961664 0.247357
0.756812 0.961903 0.251514
0.814920 0.961384 0.257261
0.875510 0.960923 0.262055
0.937066 0.959142 0.267777
0.998096 0.958499 0.274419
1.057759 0.954450 0.279706
0.193110 1.040935 0.223458
0.254062 1.039895 0.222550
0.310348 1.038907 0.224302
0.361560 1.037978 0.226337
0.415013 1.036883 0.227761
0.468486 1.035707 0.229712
0.525131 1.034283 0.231566
0.583491 1.032801 0.234268
0.643431 1.031193 0.237753
0.702656 1.029580 0.242414
0.762238 1.028165 0.247933
0.820616 1.027007 0.253323
0.878308 1.025967 0.256378
0.939938 1.025007 0.261676
1.000525 1.024270 0.267368
1.065585 1.023621 0.273842
0.134901 0.001026 0.273629
0.205519 0.001026 0.274254
0.257519 0.000977 0.276175
0.305018 0.000803 0.281961
0.353074 0.000411 0.288828
0.405305 0.000000 0.294085
0.457908 0.000000 0.300825
0.513337 0.000000 0.307232
0.570724 0.000000 0.313596
0.628984 0.000000 0.319550
0.687893 0.000000 0.325720
0.747612 0.000000 0.330480
0.805600 0.000000 0.337316
0.861266 0.000000 0.342673
0.915524 0.000000 0.348837
0.972675 0.000000 0.354408
0.141089 0.197503 0.275894
0.195289 0.201555 0.278464
0.252694 0.199454 0.275918
0.309055 0.198552 0.277126
0.363269 0.195777 0.280901
0.415408 0.196055 0.285598
0.469535 0.195847 0.292381
0.525203 0.195626 0.298080
0.582841 0.195267 0.303734
0.641635 0.194848 0.309329
0.700795 0.194622 0.315200
0.755431 0.194234 0.321663
0.810829 0.195167 0.327966
0.866910 0.195099 0.334579
0.922440 0.194567 0.339346
0.982748 0.194494 0.344081
0.142816 0.249280 0.272723
0.196501 0.253921 0.279965
0.237952 0.257418 0.285823
0.299040 0.254674 0.282989
0.360521 0.248945 0.282867
0.420689 0.246317 0.284461
0.474097 0.246584 0.289259
0.530337 0.246099 0.294589
0.588155 0.245721 0.299886
0.642371 0.245675 0.306843
0.698435 0.245125 0.312928
0.752442 0.246413 0.319848
0.808158 0.245856 0.327040
0.869557 0.245631 0.331344
0.927459 0.245203 0.335431
0.988948 0.244986 0.340065
0.153513 0.297097 0.271796
0.212216 0.299333 0.273541
0.256092 0.302663 0.276427
0.302238 0.303390 0.282379
0.356898 0.301665 0.284933
0.419559 0.298403 0.285884
0.478529 0.296458 0.289298
0.530776 0.296914 0.295894
0.583813 0.297312 0.302926
0.637377 0.297662 0.309709
0.693082 0.298026 0.316859
0.752454 0.296913 0.320795
0.813931 0.296995 0.325930
0.875577 0.296155 0.330295
0.933886 0.296403 0.334621
0.994684 0.295677 0.339107
0.154265 0.346938 0.274429
0.217765 0.347424 0.272220
0.270475 0.348337 0.267938
0.319035 0.347875 0.273824
0.366832 0.347903 0.277923
0.425283 0.347170 0.283163
0.481512 0.345441 0.289002
0.533591 0.345790 0.296185
0.586696 0.346545 0.303098
0.640656 0.347132 0.310000
0.698383 0.346987 0.315975
0.759147 0.347657 0.320178
0.820434 0.346615 0.324711
0.882107 0.346687 0.329117
0.938907 0.346146 0.333311
0.999577 0.345088 0.337770
0.155884 0.397435 0.275152
0.219128 0.397877 0.273663
0.272155 0.397438 0.269375
0.325979 0.396904 0.271423
0.378672 0.396825 0.273427
0.431144 0.396458 0.279629
0.485603 0.395477 0.286961
0.540628 0.395118 0.295040
0.594654 0.396184 0.301808
0.649001 0.397116 0.308671
0.706217 0.397870 0.314737
0.766165 0.397465 0.318911
0.825268 0.397456 0.323064
0.886556 0.398507 0.327410
0.943859 0.396968 0.331649
1.003973 0.395726 0.336027
0.158453 0.450664 0.275336
0.221973 0.450913 0.274153
0.273702 0.451733 0.270723
0.329584 0.449930 0.271269
0.385943 0.448001 0.271491
0.440635 0.449255 0.271513
0.493742 0.447444 0.280309
0.546817 0.447920 0.291486
0.601944 0.448070 0.301028
0.656199 0.449508 0.307370
0.712391 0.450983 0.312255
0.769994 0.451093 0.317357
0.829593 0.451326 0.321056
0.890798 0.451670 0.324204
0.948223 0.450738 0.329684
1.008129 0.449017 0.334054
0.161731 0.506862 0.274927
0.225513 0.506949 0.273874
0.277339 0.506358 0.270025
0.334217 0.505855 0.271383
0.389728 0.504218 0.271696
0.447238 0.503076 0.271560
0.505790 0.502915 0.272543
0.557338 0.502392 0.282193
0.609505 0.504052 0.294643
0.662450 0.505629 0.304607
0.717105 0.507048 0.311538
0.774905 0.507231 0.314206
0.833734 0.507132 0.318896
0.895459 0.509420 0.323377
0.952174 0.507954 0.327347
1.012547 0.505596 0.331924
0.165868 0.566893 0.273770
0.229564 0.567066 0.272936
0.281505 0.566159 0.269884
0.337973 0.567222 0.270766
0.393696 0.565685 0.271604
0.450653 0.565542 0.272820
0.508357 0.564983 0.273629
0.563418 0.565325 0.276608
0.615841 0.565019 0.286387
0.668711 0.566532 0.298243
0.722625 0.568383 0.308209
0.779312 0.568496 0.312463
0.839403 0.568482 0.315807
0.899810 0.570405 0.320491
0.957446 0.568289 0.325601
1.018036 0.565532 0.330443
0.170144 0.630361 0.272991
0.233488 0.630555 0.272374
0.286026 0.630711 0.268432
0.343514 0.630412 0.270404
0.395754 0.630041 0.271675
0.451422 0.630887 0.274430
0.506637 0.631570 0.276818
0.562897 0.632631 0.278382
0.618153 0.633120 0.282258
0.672513 0.632259 0.292164
0.728674 0.633976 0.303178
0.784705 0.633498 0.310326
0.845751 0.632564 0.315366
0.904509 0.632699 0.319999
0.963211 0.631332 0.324017
1.023662 0.628112 0.328884
0.174334 0.695800 0.271979
0.237228 0.696071 0.271767
0.288988 0.697443 0.269112
0.344389 0.697146 0.269902
0.396626 0.697666 0.271910
0.451868 0.697702 0.275803
0.508469 0.697743 0.278154
0.564778 0.699157 0.280244
0.619038 0.701538 0.282628
0.674500 0.702127 0.287711
0.732915 0.700591 0.298081
0.791385 0.698190 0.307475
0.851011 0.697229 0.313757
0.911982 0.698099 0.318185
0.969558 0.696318 0.322663
1.029643 0.692379 0.327273
0.176905 0.763699 0.271587
0.239136 0.764173 0.272009
0.290322 0.765145 0.268945
0.344752 0.765434 0.271617
0.399154 0.765737 0.272541
0.452811 0.766064 0.275623
0.509490 0.766028 0.277716
0.567744 0.766056 0.281402
0.625146 0.767117 0.284567
0.681294 0.769012 0.287726
0.738598 0.768065 0.293729
0.796842 0.768324 0.302247
0.857453 0.764755 0.311981
0.918518 0.764192 0.316327
0.975692 0.762889 0.321057
1.035740 0.758594 0.325676
0.179423 0.832138 0.271369
0.241104 0.832756 0.272069
0.292773 0.833566 0.270291
0.346692 0.833956 0.271680
0.399151 0.833584 0.272535
0.454526 0.834672 0.274980
0.511820 0.833959 0.277394
0.570722 0.833436 0.281139
0.630305 0.833338 0.285361
0.687243 0.834615 0.289325
0.744456 0.836578 0.292669
0.803931 0.835900 0.298722
0.863361 0.833795 0.308455
0.926225 0.831543 0.314695
0.982450 0.829505 0.319332
1.041945 0.825266 0.324223
0.181346 0.899814 0.271115
0.243397 0.900346 0.271621
0.294633 0.901461 0.269138
0.348810 0.901798 0.271388
0.403524 0.901056 0.272814
0.456225 0.902265 0.274929
0.514560 0.901861 0.277101
0.573483 0.901441 0.280463
0.633758 0.900898 0.284626
0.692773 0.901080 0.289251
0.750067 0.902866 0.292001
0.808888 0.903379 0.296603
0.867160 0.901986 0.304830
0.930605 0.901522 0.311154
0.989067 0.897373 0.317728
1.048548 0.892484 0.322507
0.184068 0.968219 0.270214
0.245882 0.967949 0.271095
0.297109 0.967796 0.268487
0.352302 0.967176 0.271271
0.404719 0.967578 0.272919
0.458736 0.966891 0.273526
0.516977 0.965982 0.276989
0.575843 0.965102 0.279877
0.636135 0.964113 0.283607
0.696189 0.963453 0.288411
0.755903 0.962227 0.293404
0.814218 0.961919 0.297403
0.872532 0.962534 0.301845
0.934180 0.961902 0.308346
0.995131 0.959965 0.315349
1.054741 0.955989 0.321450
0.188901 1.041774 0.268608
0.250305 1.040877 0.269439
0.302922 1.039964 0.267437
0.355812 1.039025 0.268816
0.409914 1.037944 0.270305
0.463140 1.036831 0.272166
0.520977 1.035428 0.273697
0.579382 1.033955 0.276311
0.639342 1.032333 0.279606
0.699649 1.030728 0.283665
0.759397 1.029316 0.288574
0.817958 1.028155 0.293279
0.875574 1.027091 0.298889
0.936801 1.026025 0.301568
0.998144 1.025296 0.308495
1.062383 1.024673 0.314998
0.143430 0.001156 0.312009
0.208986 0.001195 0.316775
0.258775 0.001195 0.320143
0.305380 0.001156 0.323729
0.351659 0.000977 0.330122
0.403401 0.000548 0.337573
0.455700 0.000000 0.343506
0.510895 0.000000 0.349864
0.568121 0.000000 0.355801
0.626487 0.000000 0.361769
0.686541 0.000000 0.367021
0.743780 0.000000 0.374098
0.800840 0.000000 0.379915
0.858293 0.000000 0.386462
0.910551 0.000000 0.392746
0.967875 0.000000 0.398118
0.145456 0.197869 0.315837
0.206954 0.197264 0.316951
0.259951 0.197555 0.316892
0.311814 0.195767 0.317876
0.361736 0.197494 0.322180
0.412618 0.197606 0.330114
0.466536 0.197395 0.334579
0.522324 0.197217 0.340150
0.580041 0.196913 0.345908
0.638384 0.196580 0.351803
0.695322 0.196319 0.358396
0.750991 0.196104 0.363999
0.807090 0.195358 0.371798
0.862737 0.196413 0.377784
0.918697 0.196051 0.383154
0.979883 0.195785 0.387413
0.144869 0.250242 0.317576
0.201214 0.253372 0.322672
0.249342 0.254699 0.324513
0.304283 0.252890 0.323541
0.361775 0.249328 0.323445
0.417447 0.248148 0.326454
0.470931 0.248538 0.332118
0.526914 0.248160 0.338018
0.583135 0.247927 0.344248
0.636992 0.247889 0.351766
0.692392 0.248757 0.358390
0.747175 0.247382 0.366181
0.802771 0.247674 0.370705
0.865681 0.247375 0.375962
0.924554 0.246917 0.380567
0.985848 0.246707 0.384787
0.153896 0.297105 0.315676
0.210266 0.300074 0.319425
0.251671 0.303859 0.325851
0.292902 0.305667 0.331076
0.349480 0.305436 0.329545
0.415269 0.298985 0.328350
0.475563 0.296549 0.330176
0.528220 0.296692 0.336872
0.581076 0.296622 0.344224
0.634713 0.296613 0.351326
0.690559 0.296026 0.358063
0.748905 0.297299 0.363379
0.810595 0.296025 0.368627
0.871116 0.294433 0.373144
0.930321 0.295424 0.377272
0.991185 0.295160 0.381905
0.154145 0.347168 0.319641
0.217135 0.347870 0.317991
0.263510 0.350256 0.319843
0.306083 0.352122 0.322560
0.352093 0.353942 0.327966
0.410608 0.352574 0.330815
0.475372 0.347557 0.332023
0.533920 0.346215 0.336305
0.586869 0.346811 0.343459
0.641304 0.347166 0.350407
0.697711 0.347430 0.357386
0.755157 0.347894 0.362524
0.816446 0.346387 0.366392
0.878262 0.346820 0.372084
0.935962 0.345939 0.376376
0.996984 0.345123 0.380822
0.154830 0.398083 0.321492
0.217649 0.398729 0.319843
0.268902 0.398726 0.316793
0.321193 0.399932 0.314846
0.371444 0.399513 0.317784
0.421116 0.401625 0.325107
0.479170 0.398219 0.329750
0.539725 0.396557 0.335204
0.594146 0.397102 0.342422
0.648752 0.397709 0.349339
0.704621 0.399044 0.356224
0.761231 0.397009 0.361449
0.822288 0.398464 0.365049
0.884455 0.397078 0.370827
0.941936 0.396723 0.375030
1.002016 0.395542 0.379483
0.156343 0.451707 0.321920
0.219125 0.452156 0.320632
0.270960 0.453315 0.318261
0.322430 0.452032 0.316091
0.377467 0.451391 0.316740
0.431813 0.451513 0.319113
0.486831 0.450744 0.324673
0.543970 0.450134 0.333128
0.600687 0.449755 0.341442
0.655977 0.450376 0.348059
0.712182 0.451607 0.355125
0.768517 0.450940 0.360022
0.829569 0.450922 0.364693
0.889186 0.451720 0.368894
0.946737 0.450483 0.373212
1.006838 0.448999 0.377637
0.158372 0.508263 0.321792
0.221475 0.508571 0.320804
0.273751 0.509549 0.317938
0.326489 0.508096 0.316118
0.381144 0.508087 0.316731
0.439295 0.506228 0.317118
0.497335 0.506609 0.318353
0.552270 0.505653 0.326445
