example_ofxGpuLutCube/bin/data/ofxGpuLutCube/LUT/C30 (yellow brown fade).cube
LUT_3D_SIZE 6
0.061200 0.043300 0.042500
0.201060 0.071400 0.055020
0.478680 0.103540 0.080880
0.690060 0.220020 0.060700
0.814980 0.278620 0.063160
0.852300 0.336700 0.139800
0.051020 0.160840 0.091020
0.194824 0.184556 0.069772
0.400548 0.235100 0.093636
0.680852 0.302828 0.082404
0.861496 0.376712 0.098512
0.867000 0.426080 0.218400
0.076260 0.338760 0.189140
0.225668 0.375636 0.098724
0.518864 0.390128 0.122996
0.717960 0.441356 0.092892
0.869412 0.497168 0.127740
0.863440 0.515000 0.270580
0.165000 0.510160 0.308200
0.231812 0.577644 0.115400
0.599784 0.578096 0.114748
0.781328 0.558412 0.096112
0.864348 0.604616 0.229588
0.887120 0.619280 0.317000
0.220060 0.659820 0.377880
0.281340 0.672560 0.405232
0.595248 0.711564 0.198280
0.761652 0.709344 0.217392
0.868024 0.715988 0.351708
0.885300 0.735300 0.465440
0.344880 0.763832 0.557409
0.407199 0.781443 0.578785
0.660951 0.829763 0.448812
0.771985 0.809229 0.381571
0.855587 0.832816 0.468631
0.902758 0.842913 0.585597
0.061640 0.080040 0.149040
0.207020 0.086716 0.132440
0.519564 0.115384 0.116552
0.723600 0.142952 0.044372
0.797040 0.295768 0.105940
0.827120 0.355940 0.241440
0.047884 0.198952 0.176724
0.190701 0.209500 0.176529
0.486010 0.222812 0.132499
0.703610 0.284734 0.099552
0.839942 0.376634 0.192654
0.838812 0.421796 0.303232
0.067328 0.343256 0.263164
0.117954 0.414495 0.254771
0.543915 0.448435 0.122334
0.794094 0.462246 0.100364
0.847161 0.491259 0.312202
0.859968 0.544120 0.383864
0.174420 0.523180 0.340808
0.204174 0.559045 0.315515
0.541588 0.646330 0.141518
0.812934 0.624230 0.155779
0.844524 0.595402 0.363774
0.872276 0.622896 0.409884
0.227544 0.663868 0.406972
0.279095 0.670992 0.456599
0.555965 0.749589 0.368708
0.747803 0.739405 0.318118
0.852184 0.714495 0.409924
0.890020 0.737008 0.501512
0.352211 0.771019 0.580506
0.420637 0.795080 0.619627
0.632911 0.846818 0.583312
0.763136 0.818188 0.445138
0.855456 0.836745 0.516289
0.903845 0.843692 0.612663
0.074060 0.121740 0.304840
0.155064 0.125412 0.298324
0.429284 0.158100 0.231592
0.658316 0.196504 0.175864
0.750604 0.333356 0.284328
0.806960 0.381720 0.375440
0.044676 0.279236 0.279888
0.150023 0.194105 0.401518
0.493046 0.289297 0.307523
0.685326 0.305642 0.292073
0.816748 0.415926 0.376131
0.831000 0.439884 0.404888
0.101228 0.400200 0.368732
0.115864 0.449842 0.392510
0.517586 0.456717 0.388898
0.712070 0.477665 0.417075
0.838594 0.528266 0.461471
0.869676 0.590044 0.510984
0.191640 0.553624 0.446564
0.223582 0.595646 0.405836
0.460213 0.641945 0.452528
0.744278 0.645506 0.418262
0.870566 0.651526 0.496970
0.890132 0.695992 0.594536
0.242856 0.686104 0.463260
0.298918 0.701154 0.510933
0.517345 0.768702 0.535930
0.744107 0.785982 0.456114
0.885495 0.759458 0.546030
0.901256 0.779320 0.626748
0.379847 0.794018 0.635408
0.451382 0.816084 0.670318
0.621368 0.860880 0.678991
0.770950 0.846758 0.567782
0.870537 0.856770 0.591001
0.907773 0.854262 0.679248
0.091040 0.117700 0.527560
0.218112 0.119224 0.460424
0.462340 0.158496 0.420404
0.633736 0.284500 0.403408
0.754284 0.390220 0.510940
0.826520 0.433720 0.510680
0.099980 0.381068 0.427612
0.180178 0.199147 0.591656
0.482158 0.249311 0.513390
0.660265 0.359942 0.461546
0.826842 0.454119 0.491881
0.851292 0.486900 0.510532
0.139108 0.501480 0.485612
0.150496 0.522691 0.531513
0.538638 0.490113 0.567772
0.728799 0.502034 0.537302
0.860306 0.569093 0.578426
0.885312 0.659348 0.651208
0.217572 0.600152 0.549272
0.236758 0.627854 0.565134
0.437531 0.689813 0.625038
0.745754 0.678067 0.590499
0.875198 0.697302 0.657004
0.900360 0.741940 0.724164
0.279236 0.705472 0.638356
0.346642 0.743469 0.621882
0.534316 0.816846 0.692499
0.737697 0.808566 0.639944
0.888098 0.814034 0.675833
0.909040 0.829072 0.751276
0.432104 0.819302 0.725218
0.486418 0.843104 0.747876
0.602127 0.878452 0.763002
0.751716 0.882219 0.713022
0.884621 0.892077 0.712228
0.918233 0.888516 0.815134
0.106140 0.156400 0.737740
0.264064 0.143652 0.631864
0.550976 0.220776 0.612316
0.701992 0.348052 0.585684
0.796952 0.431416 0.635656
0.849000 0.476440 0.665420
0.133116 0.461892 0.630240
0.251047 0.275918 0.761347
0.570663 0.312206 0.705903
0.702439 0.396851 0.608663
0.792718 0.481378 0.647946
0.848312 0.538652 0.662028
0.191504 0.579676 0.626372
0.220504 0.595983 0.677959
0.545470 0.434822 0.843587
0.740586 0.501542 0.674308
0.832654 0.570698 0.650386
0.888772 0.686816 0.722428
0.244688 0.657572 0.680864
0.299802 0.693336 0.699174
0.479049 0.740917 0.767391
0.755566 0.724977 0.730897
0.894334 0.732366 0.749637
0.907000 0.783632 0.816876
0.359044 0.762824 0.762416
0.411362 0.791019 0.755538
0.515552 0.851861 0.819626
0.716531 0.842658 0.799368
0.884245 0.845666 0.792405
0.915352 0.858104 0.841104
0.477693 0.854352 0.850913
0.519542 0.874305 0.859924
0.610409 0.900956 0.883104
0.750989 0.913120 0.854985
0.890126 0.915583 0.823531
0.926536 0.922862 0.879036
0.230617 0.289535 0.861397
0.513675 0.258640 0.839049
0.656532 0.325435 0.824948
0.763347 0.402136 0.764652
0.856920 0.459173 0.794587
0.877550 0.552137 0.816930
0.213218 0.498814 0.884415
0.429416 0.355293 0.884723
0.647556 0.369969 0.859613
0.768776 0.422356 0.794041
0.864944 0.514647 0.802437
0.881655 0.615970 0.814424
0.255470 0.661051 0.779233
0.373035 0.656243 0.807412
0.641090 0.517159 0.937073
0.793839 0.496518 0.860990
0.868733 0.597867 0.806100
0.888818 0.689989 0.820068
0.343361 0.745456 0.806378
0.406521 0.770776 0.812541
0.541403 0.810355 0.875833
0.777322 0.736406 0.855924
0.886760 0.753469 0.843986
0.909019 0.793116 0.852643
0.451147 0.831437 0.861408
0.484085 0.854143 0.876377
0.586688 0.888401 0.905572
0.714616 0.897780 0.919360
0.887933 0.881530 0.891146
0.923102 0.892184 0.912834
0.576987 0.903301 0.922615
0.623855 0.911073 0.925101
0.684406 0.923775 0.936453
0.760488 0.933054 0.946887
0.885179 0.931032 0.926190
0.932374 0.940990 0.942713
