example_ofxGpuLutCube/bin/data/ofxGpuLutCube/LUT/C30 (yellow brown fade).cube
LUT_3D_SIZE 16
0.061200 0.043300 0.042500
0.090680 0.053960 0.045380
0.140420 0.063240 0.048700
0.201060 0.071400 0.055020
0.270100 0.065100 0.061380
0.385100 0.076200 0.072200
0.478680 0.103540 0.080880
0.572660 0.133240 0.074840
0.634020 0.171640 0.061560
0.690060 0.220020 0.060700
0.720300 0.247900 0.061700
0.755460 0.258340 0.060260
0.814980 0.278620 0.063160
0.846420 0.323660 0.109240
0.852300 0.336700 0.139800
0.852300 0.336700 0.139800
0.061360 0.072220 0.055740
0.085084 0.081420 0.056588
0.137300 0.083988 0.051400
0.192596 0.096420 0.057752
0.242440 0.108992 0.065488
0.333560 0.107960 0.071700
0.457656 0.125812 0.082872
0.570524 0.159284 0.080236
0.642604 0.205572 0.068780
0.695604 0.249616 0.066448
0.734600 0.283320 0.067280
0.767900 0.293872 0.065744
0.814772 0.309732 0.069672
0.849924 0.342308 0.118376
0.855240 0.355300 0.151400
0.855240 0.355300 0.151400
0.060300 0.109560 0.069820
0.077860 0.115528 0.065564
0.140760 0.115724 0.056124
0.197416 0.125916 0.062556
0.244640 0.143092 0.070544
0.306240 0.168600 0.079000
0.405972 0.184540 0.086660
0.546412 0.208004 0.093396
0.640028 0.241380 0.080868
0.699908 0.275468 0.072324
0.742600 0.308060 0.072320
0.794072 0.320944 0.068688
0.844568 0.337256 0.078288
0.855368 0.372040 0.141776
0.858280 0.387520 0.178640
0.858280 0.387520 0.178640
0.051020 0.160840 0.091020
0.050148 0.173528 0.073820
0.122424 0.164700 0.061420
0.194824 0.184556 0.069772
0.262864 0.192404 0.078400
0.327920 0.208920 0.085560
0.400548 0.235100 0.093636
0.501996 0.257364 0.102260
0.607388 0.281204 0.097668
0.680852 0.302828 0.082404
0.742360 0.332060 0.077600
0.820856 0.344400 0.071888
0.861496 0.376712 0.098512
0.866728 0.414696 0.187920
0.867000 0.426080 0.218400
0.867000 0.426080 0.218400
0.046960 0.211740 0.118500
0.048648 0.228220 0.091720
0.092156 0.242920 0.071776
0.206956 0.228392 0.077424
0.279044 0.251468 0.087780
0.366140 0.262460 0.094600
0.432932 0.278708 0.101608
0.508336 0.297596 0.109660
0.586448 0.319420 0.105772
0.661576 0.343672 0.095444
0.753020 0.360340 0.081460
0.830824 0.376900 0.078548
0.868544 0.419784 0.112084
0.867376 0.450904 0.207940
0.866180 0.457320 0.238560
0.866180 0.457320 0.238560
0.056800 0.275700 0.144000
0.068880 0.301140 0.098480
0.102700 0.322320 0.083540
0.185500 0.301440 0.086100
0.313640 0.299900 0.097120
0.406200 0.320600 0.104800
0.473380 0.330020 0.112500
0.544620 0.345600 0.116180
0.611420 0.367520 0.111380
0.683740 0.388900 0.098300
0.767400 0.401000 0.086700
0.842860 0.418840 0.083780
0.870360 0.463660 0.120120
0.863000 0.485980 0.217960
0.861300 0.488600 0.249500
0.861300 0.488600 0.249500
0.076260 0.338760 0.189140
0.089468 0.369420 0.129328
0.137252 0.386644 0.094068
0.225668 0.375636 0.098724
0.323088 0.371584 0.107632
0.427820 0.379980 0.115420
0.518864 0.390128 0.122996
0.587032 0.402844 0.118224
0.645016 0.425452 0.111584
0.717960 0.441356 0.092892
0.788880 0.447940 0.085540
0.850376 0.468968 0.090316
0.869412 0.497168 0.127740
0.862740 0.513360 0.236876
0.863440 0.515000 0.270580
0.863440 0.515000 0.270580
0.087480 0.402440 0.233260
0.098432 0.423476 0.190520
0.136420 0.454564 0.100144
0.238596 0.438628 0.101888
0.336732 0.439316 0.111600
0.448980 0.442420 0.119660
0.545012 0.459812 0.121032
0.628640 0.469632 0.113704
0.684272 0.482784 0.102008
0.749376 0.489532 0.092840
0.811020 0.486980 0.087860
0.851620 0.507260 0.096844
0.867900 0.534952 0.148888
0.865244 0.541064 0.262056
0.868100 0.546000 0.290240
0.868100 0.546000 0.290240
0.110600 0.462760 0.275100
0.115744 0.465908 0.256568
0.144356 0.489524 0.186624
0.226436 0.523188 0.100048
0.356012 0.488612 0.110864
0.478020 0.500020 0.117020
0.561492 0.532020 0.118024
0.642112 0.541200 0.109496
0.712976 0.528752 0.096136
0.769152 0.526636 0.091096
0.818380 0.525140 0.089540
0.856308 0.546780 0.105452
0.863788 0.574056 0.188984
0.872076 0.578184 0.279304
0.878260 0.586400 0.298880
0.878260 0.586400 0.298880
0.165000 0.510160 0.308200
0.168708 0.511952 0.294936
0.183524 0.537196 0.227128
0.231812 0.577644 0.115400
0.370072 0.564580 0.110524
0.514480 0.560200 0.116060
0.599784 0.578096 0.114748
0.648912 0.589688 0.114340
0.721968 0.569656 0.102196
0.781328 0.558412 0.096112
0.823980 0.565000 0.100480
0.858260 0.596796 0.138124
0.864348 0.604616 0.229588
0.881516 0.612408 0.300356
0.887120 0.619280 0.317000
0.887120 0.619280 0.317000
0.198600 0.557200 0.337500
0.200580 0.564860 0.317920
0.205900 0.603480 0.246800
0.249100 0.615320 0.124720
0.338680 0.621700 0.121580
0.524100 0.617400 0.127500
0.621540 0.611740 0.123520
0.669060 0.617200 0.123880
0.720740 0.612880 0.113880
0.787300 0.596780 0.110340
0.831700 0.615200 0.127200
0.848920 0.651540 0.193540
0.863680 0.650100 0.272080
0.887120 0.659140 0.322960
0.883800 0.660700 0.360000
0.883800 0.660700 0.360000
0.209920 0.612080 0.359780
0.208300 0.626280 0.335908
0.215840 0.646956 0.313212
0.264832 0.667020 0.268892
0.345968 0.676092 0.173696
0.447640 0.663080 0.150280
0.604328 0.653564 0.144532
0.687284 0.641980 0.132300
0.728276 0.641532 0.129612
0.775720 0.657324 0.149508
0.808180 0.687860 0.200300
0.837416 0.689036 0.257352
0.866956 0.688396 0.308796
0.885468 0.691180 0.368796
0.884700 0.698400 0.412040
0.884700 0.698400 0.412040
0.220060 0.659820 0.377880
0.221628 0.664680 0.373116
0.239980 0.667904 0.389232
0.281340 0.672560 0.405232
0.379048 0.719076 0.332132
0.485720 0.740900 0.246760
0.595248 0.711564 0.198280
0.694432 0.680432 0.163820
0.743280 0.679424 0.166652
0.761652 0.709344 0.217392
0.777360 0.724560 0.283680
0.832852 0.717568 0.307948
0.868024 0.715988 0.351708
0.885752 0.726036 0.422108
0.885300 0.735300 0.465440
0.885300 0.735300 0.465440
0.246300 0.689260 0.426120
0.260700 0.691304 0.437372
0.282556 0.696128 0.454784
0.320524 0.709360 0.453888
0.413656 0.747716 0.394740
0.520760 0.782580 0.366840
0.615296 0.769132 0.328552
0.680784 0.750512 0.289260
0.728928 0.739328 0.266620
0.748452 0.747152 0.295664
0.778000 0.753120 0.322240
0.826180 0.754512 0.347244
0.867272 0.751748 0.388748
0.887048 0.766404 0.471308
0.891620 0.775220 0.507360
0.891620 0.775220 0.507360
0.293520 0.722900 0.494220
0.311352 0.727716 0.501632
0.328452 0.734616 0.514216
0.352532 0.744056 0.524568
0.449064 0.777100 0.472384
0.555600 0.809180 0.424340
0.635788 0.807168 0.396260
0.679548 0.791604 0.381132
0.720172 0.780244 0.360908
0.753728 0.777172 0.345992
0.782280 0.782300 0.353440
0.822556 0.789336 0.374668
0.858804 0.794684 0.430548
0.890580 0.804732 0.506532
0.896620 0.811860 0.540780
0.896620 0.811860 0.540780
0.344880 0.763832 0.557409
0.356682 0.767221 0.560403
0.371573 0.772478 0.567334
0.407199 0.781443 0.578785
0.476933 0.805329 0.560856
0.578487 0.829076 0.514895
0.660951 0.829763 0.448812
0.699766 0.825277 0.423887
0.739118 0.812239 0.397140
0.771985 0.809229 0.381571
0.804213 0.811262 0.377560
0.829835 0.819615 0.410675
0.855587 0.832816 0.468631
0.895881 0.839130 0.544151
0.902758 0.842913 0.585597
0.902758 0.842913 0.585597
0.062180 0.047220 0.057600
0.093464 0.057240 0.060672
0.149512 0.058288 0.054940
0.208440 0.061392 0.056636
0.278672 0.062016 0.068100
0.399460 0.083140 0.088480
0.491864 0.101376 0.084364
0.574284 0.121732 0.071968
0.641452 0.166260 0.058528
0.697284 0.214352 0.058492
0.728960 0.228020 0.057540
0.761780 0.227792 0.054652
0.813016 0.278568 0.069608
0.840344 0.326520 0.132744
0.846120 0.340540 0.165980
0.846120 0.340540 0.165980
0.062528 0.079352 0.067012
0.083347 0.083964 0.072420
0.142308 0.084498 0.059457
0.203271 0.089190 0.059175
0.257087 0.095050 0.064777
0.354664 0.094408 0.071752
0.473353 0.108983 0.081723
0.570572 0.140907 0.076535
0.638492 0.189666 0.065047
0.694340 0.239109 0.064111
0.739204 0.270144 0.064076
0.773634 0.274361 0.061672
0.812834 0.308527 0.076165
0.844063 0.342431 0.138894
0.849428 0.355496 0.172864
0.849428 0.355496 0.172864
0.061520 0.115620 0.087636
0.063812 0.131225 0.088338
0.133665 0.127049 0.076383
0.207982 0.120655 0.064319
0.261811 0.134514 0.071203
0.333116 0.151748 0.077972
0.436141 0.157054 0.085306
0.558560 0.179581 0.086317
0.642518 0.222454 0.074886
0.702365 0.268780 0.070083
0.744636 0.300536 0.069808
0.799411 0.312267 0.067972
0.841460 0.334854 0.086366
0.850023 0.369034 0.159477
0.852880 0.384436 0.196428
0.852880 0.384436 0.196428
0.051936 0.164804 0.106468
0.049274 0.174214 0.097455
0.099118 0.176809 0.084009
0.206318 0.179503 0.071906
0.282784 0.177718 0.078461
0.353484 0.198292 0.085204
0.427472 0.223694 0.093571
0.517712 0.245981 0.100838
0.622125 0.272573 0.092621
0.695936 0.298492 0.077949
0.754348 0.323368 0.073920
0.830778 0.340798 0.075578
0.858820 0.373050 0.114094
0.860791 0.411222 0.208376
0.860128 0.422100 0.237356
0.860128 0.422100 0.237356
0.047220 0.214672 0.131552
0.047123 0.224499 0.120660
0.072202 0.249961 0.090436
0.197344 0.232025 0.077735
0.282007 0.254166 0.088383
0.381640 0.256796 0.094356
0.453926 0.271846 0.102662
0.530881 0.298266 0.109039
0.603950 0.319950 0.104527
0.682539 0.340448 0.089992
0.771140 0.350220 0.077228
0.846318 0.375616 0.085940
0.867485 0.417358 0.148186
0.864845 0.448945 0.245822
0.863600 0.456784 0.272984
0.863600 0.456784 0.272984
0.053140 0.270440 0.161600
0.063416 0.291896 0.144360
0.084480 0.331428 0.104912
0.171616 0.321316 0.089856
0.313120 0.305616 0.097908
0.402440 0.330920 0.105660
0.492744 0.340068 0.114980
0.566752 0.355320 0.114128
0.628592 0.375272 0.110144
0.708448 0.388160 0.092368
0.797800 0.389280 0.081260
0.859200 0.423036 0.096548
0.866496 0.458628 0.165792
0.860160 0.480356 0.260896
0.859560 0.487460 0.287700
0.859560 0.487460 0.287700
0.073424 0.336828 0.202024
0.085640 0.364527 0.169919
0.109122 0.404390 0.104878
0.194991 0.410041 0.100030
0.302885 0.386042 0.106860
0.430232 0.389416 0.117020
0.532654 0.405062 0.123394
0.605557 0.419068 0.116397
0.666114 0.436898 0.105472
0.746829 0.444760 0.089736
0.820468 0.447784 0.084224
0.863226 0.475040 0.102396
0.862247 0.494994 0.182018
0.856494 0.506632 0.276808
0.856784 0.512204 0.303292
0.856784 0.512204 0.303292
0.085840 0.403180 0.244024
0.095415 0.423166 0.221849
0.130648 0.465472 0.125778
0.220581 0.475741 0.099458
0.320016 0.471676 0.107663
0.444988 0.465504 0.117400
0.551810 0.478822 0.119394
0.641177 0.490472 0.111453
0.710921 0.493694 0.097514
0.780642 0.494225 0.090180
0.831804 0.496088 0.089804
0.861447 0.516638 0.113444
0.856971 0.531654 0.200906
0.856149 0.532730 0.295102
0.858896 0.540044 0.318000
0.858896 0.540044 0.318000
0.111568 0.464876 0.281688
0.116884 0.469742 0.271490
0.147794 0.492586 0.211846
0.205752 0.531053 0.101519
0.315251 0.529634 0.105417
0.454380 0.534032 0.113592
0.562795 0.552301 0.116130
0.655942 0.557781 0.108003
0.739625 0.535621 0.094205
0.794718 0.528910 0.090407
0.835212 0.537736 0.094892
0.856711 0.559077 0.132321
0.854693 0.562323 0.226321
0.862446 0.568710 0.310366
0.868816 0.577468 0.328816
0.868816 0.577468 0.328816
0.164676 0.510672 0.313776
0.166274 0.511235 0.305554
0.174538 0.518914 0.284328
0.206678 0.567868 0.186523
0.313899 0.590175 0.116520
0.466120 0.577632 0.114444
0.596065 0.594437 0.118462
0.665689 0.602045 0.118126
0.748386 0.575174 0.102261
0.801111 0.566984 0.099441
0.833964 0.579724 0.110060
0.849870 0.602382 0.166303
0.854642 0.593662 0.262313
0.872876 0.605022 0.328521
0.879616 0.612596 0.344092
0.879616 0.612596 0.344092
0.198280 0.556960 0.345080
0.199608 0.559764 0.333876
0.202896 0.581772 0.301696
0.225152 0.615036 0.233760
0.309508 0.643976 0.157760
0.492940 0.627040 0.130220
0.628784 0.626092 0.128376
0.689320 0.628052 0.124044
0.734776 0.626308 0.117356
0.800224 0.609612 0.117844
0.826440 0.634640 0.145500
0.838400 0.646100 0.221300
0.854736 0.640428 0.300152
0.879792 0.652204 0.349512
0.880960 0.658520 0.373860
0.880960 0.658520 0.373860
0.211804 0.610008 0.367728
0.209638 0.618886 0.353469
0.213321 0.633159 0.339905
0.248927 0.650865 0.320836
0.329051 0.688514 0.209933
0.435680 0.675424 0.163640
0.612536 0.664984 0.152263
0.701914 0.649026 0.135949
0.739395 0.652478 0.139350
0.772702 0.672760 0.167328
0.796212 0.685776 0.229228
0.827292 0.682419 0.282370
0.858019 0.681001 0.333042
0.882666 0.689209 0.382712
0.883648 0.696400 0.420844
0.883648 0.696400 0.420844
0.221808 0.659108 0.385216
0.223058 0.663626 0.380606
0.240995 0.666292 0.398006
0.278029 0.668935 0.421673
0.351882 0.704182 0.369853
0.459140 0.745012 0.278508
0.572940 0.728487 0.227282
0.696850 0.693606 0.180631
0.742882 0.690595 0.182279
0.753430 0.717326 0.236484
0.767824 0.720716 0.306608
0.822855 0.713026 0.330694
0.860268 0.712553 0.370930
0.884012 0.723676 0.434668
0.885600 0.733608 0.473872
0.885600 0.733608 0.473872
0.247184 0.689860 0.432224
0.262075 0.691712 0.443253
0.284282 0.696660 0.461404
0.315811 0.708122 0.481500
0.382352 0.732764 0.461585
0.497796 0.778468 0.412908
0.602770 0.774023 0.363718
0.667625 0.757718 0.317399
0.722860 0.743290 0.284193
0.743008 0.748677 0.310190
0.771552 0.752076 0.338432
0.817258 0.752638 0.365967
0.863942 0.751334 0.402358
0.887366 0.763583 0.479778
0.892560 0.772904 0.513904
0.892560 0.772904 0.513904
0.293924 0.723460 0.499376
0.312359 0.728621 0.506890
0.330778 0.737728 0.522223
0.354634 0.748570 0.538575
0.435129 0.775827 0.508145
0.538824 0.810320 0.463364
0.629477 0.809830 0.431018
0.678920 0.795221 0.399498
0.716699 0.781966 0.376358
0.751197 0.777538 0.357878
0.777604 0.783448 0.365692
0.816983 0.790058 0.389148
0.855701 0.795064 0.446039
0.891166 0.803758 0.516346
0.897480 0.810796 0.549952
0.897480 0.810796 0.549952
0.344762 0.764192 0.561454
0.358602 0.769810 0.567553
0.374653 0.777246 0.579009
0.407728 0.785826 0.592597
0.472250 0.807963 0.581169
0.573899 0.832947 0.532794
0.656317 0.835654 0.472103
0.699068 0.830159 0.440605
0.734298 0.816460 0.417062
0.766534 0.812724 0.400951
0.801186 0.812021 0.387734
0.826712 0.820471 0.424147
0.853639 0.833095 0.482622
0.896091 0.838770 0.551427
0.902861 0.842378 0.590982
0.902861 0.842378 0.590982
0.062920 0.059320 0.096240
0.090992 0.059896 0.098732
0.152444 0.066124 0.087864
0.215132 0.074924 0.084120
0.286336 0.064868 0.081404
0.411660 0.089400 0.105040
0.506044 0.107224 0.095144
0.583420 0.115236 0.069668
0.652012 0.147748 0.053236
0.710176 0.189624 0.052948
0.744120 0.191360 0.050180
0.770240 0.202360 0.050208
0.804768 0.287944 0.083284
0.833488 0.334520 0.166148
0.839120 0.348500 0.202000
0.839120 0.348500 0.202000
0.064112 0.100544 0.098688
0.078886 0.088647 0.119750
0.144818 0.100840 0.097190
0.214891 0.104478 0.086538
0.272913 0.101458 0.080581
0.385728 0.084244 0.079004
0.497587 0.102712 0.085904
0.577714 0.120963 0.071442
0.639753 0.165587 0.058763
0.699450 0.214762 0.058543
0.756180 0.245048 0.058012
0.783090 0.265096 0.062834
0.809616 0.308931 0.089762
0.835405 0.346218 0.171707
0.840052 0.359440 0.207428
0.840052 0.359440 0.207428
0.062732 0.134488 0.121204
0.061845 0.148255 0.143302
0.121254 0.143750 0.120062
0.213680 0.137302 0.091338
0.283467 0.142734 0.087376
0.360824 0.151212 0.087704
0.469091 0.143484 0.090861
0.572888 0.153082 0.080942
0.640027 0.199334 0.069141
0.698353 0.248468 0.066042
0.750284 0.282856 0.066156
0.805291 0.308663 0.073055
0.835741 0.334765 0.105304
0.839907 0.370051 0.191694
0.842588 0.384564 0.227440
0.842588 0.384564 0.227440
0.052972 0.178280 0.144628
0.049698 0.189519 0.145434
0.072138 0.204588 0.141601
0.212230 0.187823 0.105428
0.302856 0.184632 0.091830
0.383720 0.199580 0.093208
0.469174 0.207145 0.098653
0.554350 0.219498 0.098213
0.637310 0.247254 0.085067
0.708359 0.284836 0.073408
0.767740 0.313928 0.071292
0.832613 0.339902 0.086626
0.851267 0.371965 0.144475
0.851235 0.409939 0.239122
0.850428 0.419940 0.265616
0.850428 0.419940 0.265616
0.046756 0.224964 0.165332
0.046679 0.231998 0.152310
0.058310 0.248611 0.143329
0.185152 0.240192 0.112231
0.309362 0.250067 0.094095
0.411508 0.250844 0.098920
0.491696 0.266234 0.105935
0.566770 0.292793 0.104530
0.631192 0.312006 0.098031
0.711941 0.331550 0.081934
0.794120 0.344992 0.077168
0.850378 0.379458 0.109696
0.860750 0.419550 0.203656
0.858746 0.447758 0.283829
0.857316 0.456152 0.306444
0.857316 0.456152 0.306444
0.048660 0.274160 0.194140
0.059348 0.290720 0.180596
0.074284 0.319480 0.172028
0.160332 0.345800 0.119180
0.303436 0.313612 0.100212
0.404780 0.346640 0.108180
0.517292 0.341840 0.115752
0.593848 0.357744 0.110504
0.655864 0.381504 0.103816
0.741696 0.383432 0.086780
0.820340 0.394840 0.087340
0.861624 0.427572 0.137312
0.860036 0.454336 0.230420
0.857940 0.482480 0.310020
0.858220 0.494620 0.331380
0.858220 0.494620 0.331380
0.068288 0.338840 0.231500
0.077826 0.358799 0.215875
0.096514 0.397206 0.188179
0.162655 0.424710 0.148438
0.291387 0.413254 0.111758
0.433348 0.401704 0.118440
0.539749 0.425616 0.122494
0.628845 0.438736 0.113946
0.697181 0.448755 0.097968
0.775937 0.447898 0.088671
0.839252 0.460580 0.094504
0.861729 0.478546 0.154676
0.855030 0.487838 0.249421
0.854226 0.511557 0.325952
0.856384 0.523976 0.344136
0.856384 0.523976 0.344136
0.084972 0.409816 0.267312
0.090945 0.425526 0.253214
0.122050 0.465243 0.200204
0.191913 0.507810 0.128028
0.283900 0.508691 0.110130
0.430988 0.485920 0.113880
0.559738 0.503168 0.117837
0.654789 0.513154 0.109832
0.735918 0.505852 0.094206
0.801234 0.500240 0.091204
0.848668 0.509924 0.102896
0.857674 0.523740 0.169475
0.850533 0.522371 0.267096
0.853147 0.539798 0.338715
0.856820 0.551108 0.353812
0.856820 0.551108 0.353812
0.116364 0.472392 0.297120
0.124407 0.478034 0.287489
0.150438 0.497435 0.254194
0.208166 0.553544 0.129986
0.289234 0.569226 0.106566
0.422588 0.573872 0.111864
0.566627 0.577968 0.115200
0.666546 0.575132 0.110312
0.757954 0.546441 0.094430
0.814777 0.543475 0.095498
0.849724 0.556484 0.113808
0.852237 0.565017 0.193584
0.847736 0.552387 0.288955
0.855355 0.567139 0.349771
0.861188 0.576612 0.362260
0.861188 0.576612 0.362260
0.167908 0.514636 0.323224
0.171628 0.516858 0.317066
0.179650 0.523218 0.306315
0.204821 0.570344 0.237822
0.274813 0.608477 0.136878
0.403116 0.607352 0.120720
0.573124 0.618054 0.126673
0.675065 0.616909 0.122520
0.771279 0.586960 0.105739
0.818496 0.586195 0.111632
0.839092 0.607972 0.148008
0.844083 0.601506 0.228531
0.845686 0.586730 0.312402
0.864002 0.601076 0.362370
0.871988 0.609776 0.374524
0.871988 0.609776 0.374524
0.200040 0.560380 0.352220
0.200280 0.561284 0.346672
0.202920 0.569484 0.335188
0.208760 0.582604 0.324948
0.265016 0.625016 0.290120
0.406920 0.648720 0.142720
0.585940 0.643544 0.137644
0.702716 0.640204 0.129700
0.747996 0.642428 0.130548
0.810272 0.638964 0.142848
0.816580 0.654100 0.207520
0.829156 0.639224 0.273060
0.844312 0.632860 0.334960
0.873384 0.650412 0.376624
0.879820 0.657860 0.392200
0.879820 0.657860 0.392200
0.214416 0.612044 0.376820
0.212699 0.617222 0.368525
0.213315 0.627202 0.360675
0.237392 0.629947 0.378826
0.296563 0.665180 0.333582
0.421720 0.713988 0.247060
0.604117 0.688295 0.178180
0.717956 0.662638 0.145270
0.752305 0.672216 0.159238
0.769110 0.698089 0.210602
0.789640 0.684816 0.274508
0.816866 0.673360 0.319088
0.848458 0.675679 0.361185
0.880045 0.688431 0.402542
0.882120 0.696408 0.436268
0.882120 0.696408 0.436268
0.224280 0.660700 0.394572
0.226123 0.664292 0.391807
0.243022 0.665008 0.412849
0.276641 0.667453 0.440455
0.334738 0.694130 0.412252
0.435548 0.743252 0.323544
0.569667 0.748834 0.275405
0.702074 0.711166 0.211113
0.745286 0.713778 0.217827
0.745714 0.728070 0.278348
0.762648 0.718932 0.331844
0.813279 0.707260 0.359148
0.854859 0.712950 0.389466
0.882891 0.724482 0.449316
0.887780 0.734320 0.485640
0.887780 0.734320 0.485640
0.250120 0.691980 0.443884
0.265989 0.693716 0.454847
0.289150 0.699139 0.471610
0.318775 0.710314 0.494634
0.366318 0.727590 0.504310
0.468284 0.773668 0.449688
0.580928 0.782309 0.391566
0.653562 0.766571 0.356634
0.717830 0.751211 0.316525
0.739954 0.749894 0.331862
0.767736 0.750196 0.357780
0.811922 0.753878 0.383471
0.859637 0.750825 0.424670
0.888245 0.764201 0.495092
0.894324 0.772912 0.526280
0.894324 0.772912 0.526280
0.297232 0.725684 0.508448
0.315755 0.731290 0.516033
0.334586 0.740539 0.531053
0.358371 0.752494 0.551645
0.417295 0.772963 0.556546
0.516728 0.810744 0.519132
0.615778 0.813265 0.481194
0.673647 0.803025 0.429828
0.713535 0.783393 0.396769
0.749354 0.778362 0.373113
0.774532 0.785208 0.380440
0.812947 0.792307 0.406275
0.851832 0.797024 0.466400
0.892667 0.803690 0.530144
0.898460 0.810280 0.562244
0.898460 0.810280 0.562244
0.347088 0.766534 0.569223
0.361726 0.772398 0.575007
0.378819 0.781026 0.589252
0.412649 0.791531 0.607906
0.469991 0.812629 0.607337
0.573472 0.837872 0.557768
0.645420 0.841441 0.527525
0.695860 0.835771 0.478912
0.734284 0.821209 0.439148
0.763515 0.815652 0.420744
0.797737 0.813836 0.406766
0.822629 0.822553 0.444561
0.854304 0.834262 0.498714
0.896832 0.839366 0.564173
0.903281 0.842729 0.602041
0.903281 0.842729 0.602041
0.061640 0.080040 0.149040
0.078688 0.075496 0.157244
0.123788 0.079836 0.155064
0.207020 0.086716 0.132440
0.265008 0.067764 0.107324
0.397660 0.087480 0.118480
0.519564 0.115384 0.116552
0.598428 0.117572 0.074100
0.665804 0.123844 0.048324
0.723600 0.142952 0.044372
0.755960 0.157200 0.043620
0.774000 0.208168 0.056736
0.797040 0.295768 0.105940
0.822496 0.341704 0.205252
0.827120 0.355940 0.241440
0.827120 0.355940 0.241440
0.064096 0.130368 0.147872
0.060367 0.099777 0.178528
0.124014 0.113509 0.169459
0.218037 0.120910 0.143254
0.284660 0.124110 0.129342
0.394528 0.102932 0.108252
0.515718 0.111624 0.104506
0.593106 0.116650 0.070398
0.652559 0.143712 0.053163
0.715088 0.184618 0.052655
0.775524 0.232744 0.058028
0.789794 0.279557 0.078245
0.806480 0.313670 0.115291
0.822541 0.353683 0.212942
0.827924 0.367632 0.249380
0.827924 0.367632 0.249380
0.059180 0.163224 0.158612
0.055390 0.172492 0.187418
0.098266 0.164978 0.195412
0.218288 0.164239 0.150215
0.302216 0.171986 0.139421
0.384328 0.171468 0.127016
0.499085 0.135407 0.102282
0.591534 0.138931 0.085506
0.643262 0.192659 0.079912
0.700350 0.248647 0.077338
0.757436 0.293224 0.079740
0.814917 0.316686 0.093564
0.824646 0.339933 0.146661
0.826970 0.374131 0.234869
0.830396 0.388404 0.269728
0.830396 0.388404 0.269728
0.047884 0.198952 0.176724
0.044357 0.205282 0.202170
0.051018 0.222962 0.221956
0.190701 0.209500 0.176529
0.309022 0.214331 0.144400
0.407032 0.222588 0.133736
0.486010 0.222812 0.132499
0.568325 0.224227 0.137758
0.632904 0.245226 0.124882
0.703610 0.284734 0.099552
0.763948 0.320520 0.095756
0.825010 0.343662 0.119180
0.839942 0.376634 0.192654
0.839142 0.412189 0.279083
0.838812 0.421796 0.303232
0.838812 0.421796 0.303232
0.041684 0.234484 0.209844
0.041342 0.241530 0.210998
0.044822 0.255824 0.221377
0.128950 0.256262 0.211130
0.323967 0.261030 0.152882
0.434212 0.272636 0.137032
0.510000 0.286916 0.137961
0.585528 0.298754 0.138284
0.650770 0.304412 0.120815
0.726562 0.324754 0.104436
0.800712 0.353984 0.105136
0.841322 0.385407 0.162963
0.848897 0.422805 0.251102
0.848417 0.448837 0.320139
0.847796 0.457208 0.338652
0.847796 0.457208 0.338652
0.043140 0.276560 0.238140
0.054004 0.298208 0.225940
0.063532 0.318088 0.221884
0.103052 0.322648 0.220236
0.289660 0.312876 0.159636
0.434780 0.348400 0.119780
0.544348 0.347856 0.135480
0.615704 0.368960 0.125720
0.683224 0.385936 0.108408
0.763888 0.386760 0.097340
0.832740 0.403640 0.113100
0.845816 0.432340 0.208128
0.848532 0.458624 0.289668
0.853924 0.495984 0.355380
0.855900 0.514060 0.375380
0.855900 0.514060 0.375380
0.067328 0.343256 0.263164
0.073291 0.364767 0.252029
0.081535 0.393186 0.248534
0.117954 0.414495 0.254771
0.274226 0.424002 0.166711
0.437412 0.420424 0.118808
0.543915 0.448435 0.122334
0.649158 0.447206 0.114301
0.726083 0.458339 0.099987
0.794094 0.462246 0.100364
0.843700 0.470596 0.129272
0.845566 0.476267 0.228212
0.847161 0.491259 0.312202
0.856751 0.528251 0.368291
0.859968 0.544120 0.383864
0.859968 0.544120 0.383864
0.088220 0.416616 0.291504
0.093127 0.436690 0.279073
0.109030 0.459214 0.271663
0.150233 0.492206 0.256396
0.253740 0.521555 0.195535
0.422188 0.511984 0.117192
0.561690 0.526259 0.117283
0.661787 0.540009 0.107726
