example_ofxGpuLutCube/bin/data/ofxGpuLutCube/LUT/C31 (brown fade).cube
LUT_3D_SIZE 6
0.061200 0.043300 0.042500
0.129820 0.056700 0.047180
0.269660 0.060520 0.061040
0.469760 0.115440 0.082720
0.592440 0.174700 0.081160
0.660800 0.230600 0.072900
0.060660 0.103920 0.065640
0.125120 0.114924 0.055196
0.229660 0.139688 0.068364
0.415436 0.183832 0.087092
0.599776 0.270908 0.096008
0.667620 0.320040 0.102600
0.047180 0.199440 0.106560
0.107496 0.217156 0.068092
0.282644 0.228912 0.085276
0.428384 0.267232 0.099896
0.624512 0.355652 0.109000
0.707320 0.434380 0.142220
0.075540 0.337920 0.190120
0.112112 0.371768 0.094820
0.349108 0.338616 0.104652
0.507604 0.376760 0.121520
0.700696 0.505040 0.130660
0.746400 0.528740 0.235700
0.140340 0.490760 0.294400
0.185992 0.532384 0.247308
0.391840 0.521092 0.111240
0.588992 0.561964 0.118744
0.729400 0.603504 0.292848
0.773360 0.623140 0.357560
0.234292 0.607448 0.410705
0.265050 0.624074 0.439785
0.488459 0.701463 0.329381
0.659864 0.708183 0.328528
0.750843 0.742087 0.403853
0.822924 0.758328 0.444820
0.062300 0.052540 0.085800
0.143356 0.055948 0.076856
0.291632 0.064660 0.082356
0.512884 0.104536 0.080332
0.599768 0.158280 0.076292
0.652280 0.248760 0.116320
0.062776 0.125608 0.105652
0.125609 0.128039 0.096958
0.277226 0.107769 0.068990
0.482386 0.153138 0.087817
0.628830 0.259845 0.101569
0.665244 0.319704 0.152188
0.047668 0.218540 0.159064
0.053702 0.260798 0.116019
0.307417 0.257158 0.090802
0.522754 0.288630 0.107602
0.682147 0.399812 0.173864
0.711212 0.450376 0.296760
0.068732 0.342696 0.230760
0.093658 0.398378 0.180817
0.328946 0.424963 0.111365
0.599087 0.447398 0.121172
0.694371 0.503946 0.265812
0.726848 0.518488 0.332200
0.147968 0.497832 0.310412
0.167946 0.513916 0.318164
0.375969 0.582701 0.178273
0.630690 0.620009 0.153774
0.718548 0.592962 0.352989
0.766432 0.622432 0.401676
0.241844 0.616026 0.426500
0.277733 0.638583 0.473588
0.446740 0.686047 0.454978
0.669051 0.699955 0.375636
0.755370 0.740338 0.434412
0.822021 0.763043 0.490716
0.054900 0.096000 0.192200
0.132076 0.090192 0.174996
0.239332 0.084728 0.155996
0.473668 0.107132 0.122704
0.608528 0.210260 0.177464
0.639800 0.285340 0.255460
0.049108 0.188704 0.181000
0.070063 0.133109 0.254870
0.292681 0.163622 0.177696
0.528540 0.190656 0.178590
0.639810 0.318183 0.251817
0.659824 0.351928 0.299304
0.040368 0.247928 0.240364
0.042061 0.267034 0.262942
0.319154 0.275171 0.239241
0.547461 0.342466 0.287851
0.681463 0.437231 0.362513
0.725624 0.462616 0.384020
0.074128 0.359992 0.308588
0.091152 0.427755 0.292429
0.265577 0.445687 0.306791
0.597018 0.514761 0.296728
0.718666 0.533194 0.392725
0.766708 0.544796 0.425408
0.170452 0.521516 0.355464
0.193085 0.540759 0.354028
0.315297 0.573451 0.406646
0.647645 0.638699 0.363002
0.753777 0.642977 0.441133
0.799276 0.666172 0.472868
0.269247 0.643715 0.470314
0.305599 0.663949 0.516630
0.434088 0.702911 0.551061
0.679323 0.732272 0.462210
0.772931 0.772951 0.495056
0.834394 0.784184 0.560053
0.074360 0.117580 0.303360
0.132676 0.123120 0.284088
0.230712 0.129472 0.240932
0.406108 0.183168 0.238820
0.601104 0.305460 0.345020
0.670240 0.348180 0.389700
0.044656 0.262500 0.264536
0.099603 0.119536 0.374806
0.202478 0.138726 0.361354
0.458879 0.248848 0.264714
0.663022 0.363549 0.375182
0.697540 0.393704 0.404104
0.060856 0.311740 0.312940
0.064422 0.312933 0.338921
0.281681 0.311514 0.408986
0.555151 0.389841 0.407647
0.707615 0.455952 0.459982
0.762112 0.486988 0.477156
0.111380 0.437476 0.378864
0.119610 0.460670 0.398700
0.250955 0.489485 0.462883
0.602774 0.525894 0.463082
0.736155 0.567464 0.522179
0.795708 0.591988 0.546380
0.194384 0.556188 0.457084
0.226694 0.587764 0.457175
0.348633 0.624362 0.537738
0.639854 0.655030 0.507832
0.777647 0.704338 0.554383
0.838940 0.724772 0.597660
0.311666 0.682565 0.554407
0.353115 0.700475 0.574087
0.453481 0.753061 0.627840
0.670575 0.781859 0.596923
0.793528 0.834446 0.618766
0.877659 0.833566 0.666536
0.087700 0.110200 0.475140
0.161160 0.115056 0.415508
0.260300 0.121192 0.434024
0.519308 0.237432 0.396528
0.664192 0.359752 0.479288
0.715360 0.396060 0.532340
0.064476 0.308400 0.377440
0.124666 0.137158 0.530215
0.284731 0.168768 0.487275
0.507666 0.291228 0.432718
0.665126 0.408556 0.509738
0.716604 0.438548 0.542956
0.110484 0.407756 0.422052
0.106421 0.387418 0.473239
0.333890 0.334795 0.563668
0.586226 0.416417 0.517920
0.697514 0.470374 0.531486
0.787024 0.514648 0.555692
0.147964 0.515504 0.485516
0.173273 0.536306 0.508631
0.325841 0.559000 0.562468
0.643218 0.581266 0.578686
0.774473 0.609496 0.616637
0.843316 0.627396 0.645540
0.238836 0.615360 0.572456
0.287836 0.642117 0.575430
0.404230 0.684275 0.628892
0.654301 0.702162 0.644656
0.791641 0.756881 0.686162
0.847264 0.784288 0.722852
0.371576 0.726017 0.661454
0.414476 0.749663 0.676507
0.505476 0.813690 0.725896
0.695184 0.843117 0.731414
0.820840 0.866855 0.733327
0.893792 0.881063 0.764030
0.113236 0.157717 0.652885
0.225818 0.135295 0.587223
0.426604 0.220680 0.589921
0.644205 0.333460 0.573313
0.730165 0.405796 0.598932
0.773966 0.433091 0.635421
0.085969 0.351657 0.556601
0.219231 0.248899 0.656339
0.427254 0.298817 0.632914
0.644720 0.380076 0.591732
0.736719 0.447370 0.617848
0.778933 0.486309 0.662286
0.136781 0.495355 0.571327
0.218806 0.484836 0.597631
0.436613 0.398970 0.706135
0.668584 0.447464 0.637884
0.746998 0.513280 0.649437
0.794713 0.557317 0.692869
0.220041 0.591446 0.619909
0.281526 0.609454 0.625193
0.427658 0.631935 0.671104
0.688988 0.606269 0.703586
0.786455 0.655236 0.723440
0.844408 0.690187 0.733857
0.330446 0.682961 0.684729
0.379641 0.702603 0.685543
0.476155 0.757860 0.748896
0.659565 0.790791 0.789325
0.814071 0.818574 0.801900
0.879259 0.838253 0.831430
0.435710 0.794377 0.784865
0.471307 0.821978 0.801350
0.547575 0.864574 0.844585
0.664772 0.894519 0.891954
0.837568 0.899589 0.880369
0.917437 0.921665 0.897203
