example_ofxGpuLutCube/bin/data/ofxGpuLutCube/LUT/C31 (brown fade).cube
LUT_3D_SIZE 16
0.061200 0.043300 0.042500
0.076440 0.047940 0.043420
0.097660 0.054220 0.045420
0.129820 0.056700 0.047180
0.174120 0.053120 0.049800
0.216900 0.057800 0.057800
0.269660 0.060520 0.061040
0.343700 0.071800 0.066780
0.413940 0.093240 0.074700
0.469760 0.115440 0.082720
0.505600 0.127200 0.086200
0.542400 0.145180 0.082640
0.592440 0.174700 0.081160
0.643240 0.211740 0.071480
0.660800 0.230600 0.072900
0.660800 0.230600 0.072900
0.061340 0.059420 0.049420
0.073192 0.064460 0.048080
0.096280 0.066052 0.047000
0.126904 0.071764 0.049176
0.170008 0.074452 0.052224
0.212800 0.069400 0.056080
0.269140 0.073732 0.062772
0.343284 0.086756 0.068876
0.409172 0.107860 0.076604
0.464448 0.128616 0.083380
0.519020 0.151500 0.089580
0.552224 0.173468 0.085928
0.582976 0.198100 0.086364
0.632176 0.233156 0.082412
0.648900 0.251980 0.084520
0.648900 0.251980 0.084520
0.060660 0.078000 0.055880
0.070740 0.079384 0.050608
0.098720 0.082092 0.049356
0.129104 0.087308 0.051404
0.168584 0.092904 0.054680
0.200860 0.101840 0.059560
0.244444 0.107432 0.065500
0.316208 0.116176 0.071988
0.387728 0.132176 0.077988
0.453212 0.152744 0.085796
0.512040 0.182140 0.093860
0.552828 0.212772 0.092540
0.583536 0.236940 0.092440
0.630336 0.261644 0.089704
0.650820 0.276360 0.091640
0.650820 0.276360 0.091640
0.060660 0.103920 0.065640
0.060484 0.108408 0.057712
0.096976 0.101452 0.051996
0.125120 0.114924 0.055196
0.167448 0.118312 0.058312
0.199500 0.124480 0.062600
0.229660 0.139688 0.068364
0.280016 0.153168 0.075252
0.343344 0.167248 0.080484
0.415436 0.183832 0.087092
0.484200 0.210380 0.096660
0.538252 0.244948 0.100316
0.599776 0.270908 0.096008
0.655216 0.302908 0.096216
0.667620 0.320040 0.102600
0.667620 0.320040 0.102600
0.057460 0.134440 0.077820
0.053752 0.140872 0.067220
0.072120 0.145344 0.056652
0.130456 0.138592 0.058476
0.169768 0.152228 0.062936
0.207020 0.155980 0.067440
0.233708 0.167376 0.072216
0.269972 0.181060 0.078196
0.319812 0.197828 0.083620
0.387404 0.215508 0.089876
0.462480 0.236320 0.097860
0.535668 0.264920 0.103000
0.606052 0.293812 0.099104
0.663572 0.342020 0.105712
0.678740 0.361080 0.114960
0.678740 0.361080 0.114960
0.048600 0.167200 0.087500
0.047240 0.176120 0.070040
0.057360 0.185900 0.061740
0.109920 0.176940 0.062380
0.182420 0.179680 0.067620
0.226000 0.191000 0.074000
0.254340 0.197440 0.078560
0.293160 0.210100 0.083560
0.343400 0.226020 0.088600
0.403860 0.240760 0.094040
0.471900 0.259500 0.102200
0.545440 0.284560 0.104940
0.613540 0.321980 0.103340
0.666260 0.377900 0.115980
0.683300 0.395300 0.126900
0.683300 0.395300 0.126900
0.047180 0.199440 0.106560
0.046568 0.207340 0.082448
0.061240 0.218292 0.066796
0.107496 0.217156 0.068092
0.177608 0.217912 0.072740
0.230500 0.223620 0.079060
0.282644 0.228912 0.085276
0.324676 0.239868 0.089580
0.374884 0.254028 0.093676
0.428384 0.267232 0.099896
0.487220 0.285020 0.107720
0.558604 0.316196 0.108340
0.624512 0.355652 0.109000
0.684784 0.414468 0.127912
0.707320 0.434380 0.142220
0.707320 0.434380 0.142220
0.046620 0.234400 0.127600
0.047184 0.238596 0.107288
0.059280 0.255040 0.074924
0.100848 0.247888 0.072508
0.171852 0.255316 0.077744
0.238860 0.255700 0.084700
0.299140 0.265716 0.091480
0.360716 0.272256 0.095748
0.404524 0.282608 0.099988
0.453872 0.297180 0.106188
0.513180 0.321680 0.114120
0.580248 0.353004 0.111908
0.643724 0.395532 0.114288
0.710892 0.459948 0.142192
0.732660 0.477520 0.159740
0.732660 0.477520 0.159740
0.058380 0.281600 0.157040
0.060064 0.282532 0.141432
0.066272 0.292784 0.114076
0.106048 0.301440 0.082348
0.178156 0.282228 0.082272
0.256700 0.285780 0.091020
0.319300 0.305300 0.098264
0.380156 0.312400 0.102516
0.434972 0.319872 0.107780
0.486288 0.339692 0.114652
0.541740 0.363440 0.119400
0.607944 0.395324 0.116036
0.673308 0.453644 0.119824
0.733436 0.498412 0.160080
0.744180 0.507520 0.186140
0.744180 0.507520 0.186140
0.075540 0.337920 0.190120
0.079056 0.343396 0.178100
0.084640 0.355336 0.140996
0.112112 0.371768 0.094820
0.202756 0.338640 0.091932
0.287240 0.323140 0.098820
0.349108 0.338616 0.104652
0.392564 0.352156 0.108688
0.451348 0.357804 0.113808
0.507604 0.376760 0.121520
0.572780 0.405880 0.120400
0.641372 0.456260 0.115944
0.700696 0.505040 0.130660
0.741688 0.527936 0.199140
0.746400 0.528740 0.235700
0.746400 0.528740 0.235700
0.086600 0.395400 0.228900
0.090920 0.402560 0.215800
0.101600 0.423520 0.168120
0.127680 0.443600 0.095960
0.215240 0.408920 0.100460
0.297600 0.380100 0.107500
0.374220 0.374300 0.110880
0.415180 0.387180 0.114620
0.459180 0.403020 0.120780
0.529660 0.417880 0.125880
0.606100 0.462300 0.115100
0.662880 0.516760 0.122500
0.719080 0.551880 0.156560
0.741640 0.553160 0.258720
0.747000 0.551100 0.291100
0.747000 0.551100 0.291100
0.101580 0.449760 0.264960
0.109776 0.457084 0.251760
0.129980 0.476556 0.209300
0.160636 0.505996 0.142932
0.226344 0.498420 0.103548
0.294120 0.457740 0.107000
0.376700 0.437204 0.113760
0.441036 0.432540 0.118804
0.484588 0.452604 0.120852
0.549540 0.493656 0.120432
0.628020 0.534900 0.119100
0.686680 0.574256 0.145324
0.727008 0.585788 0.215880
0.750816 0.579308 0.303944
0.762180 0.581980 0.321260
0.762180 0.581980 0.321260
0.140340 0.490760 0.294400
0.147360 0.494252 0.290000
0.162920 0.504352 0.269180
0.185992 0.532384 0.247308
0.251516 0.579636 0.160548
0.312720 0.551900 0.110240
0.391840 0.521092 0.111240
0.463968 0.504756 0.115784
0.527872 0.521636 0.119368
0.588992 0.561964 0.118744
0.647920 0.605520 0.139180
0.702104 0.617280 0.198724
0.729400 0.603504 0.292848
0.762296 0.615872 0.342800
0.773360 0.623140 0.357560
0.773360 0.623140 0.357560
0.182100 0.526520 0.321840
0.185296 0.530956 0.315696
0.191208 0.539088 0.312876
0.213192 0.558800 0.311804
0.271644 0.624292 0.226756
0.350000 0.634940 0.156000
0.431536 0.609540 0.128152
0.503584 0.599236 0.125288
0.567680 0.604148 0.127272
0.629168 0.625932 0.138696
0.671280 0.661520 0.179420
0.701960 0.655312 0.273540
0.738136 0.645056 0.334944
0.772632 0.660880 0.378048
0.787280 0.668740 0.387720
0.787280 0.668740 0.387720
0.204340 0.567020 0.353960
0.208644 0.570780 0.358372
0.216448 0.575832 0.371212
0.231712 0.585480 0.385628
0.283388 0.628032 0.334012
0.367260 0.674500 0.244000
0.464420 0.689584 0.199884
0.549364 0.680880 0.197016
0.604148 0.684192 0.202840
0.649636 0.687044 0.212388
0.680660 0.691180 0.263320
0.706084 0.688880 0.331032
0.742304 0.690240 0.376816
0.790448 0.706464 0.401920
0.807540 0.714840 0.408280
0.807540 0.714840 0.408280
0.234292 0.607448 0.410705
0.240533 0.609562 0.417221
0.250261 0.614318 0.425943
0.265050 0.624074 0.439785
0.293368 0.636685 0.442673
0.385971 0.664744 0.378454
0.488459 0.701463 0.329381
0.576726 0.709243 0.319026
0.631743 0.705103 0.319788
0.659864 0.708183 0.328528
0.687350 0.714625 0.345286
0.714420 0.724593 0.377082
0.750843 0.742087 0.403853
0.807474 0.754351 0.426843
0.822924 0.758328 0.444820
0.822924 0.758328 0.444820
0.061680 0.044700 0.049700
0.078120 0.046208 0.049836
0.102276 0.047976 0.046760
0.134356 0.050600 0.047336
0.177040 0.055036 0.055468
0.218100 0.058840 0.064380
0.272468 0.061324 0.065260
0.350032 0.069028 0.067596
0.427168 0.090676 0.074972
0.483008 0.114424 0.083672
0.517200 0.124440 0.083840
0.547448 0.136704 0.079696
0.593920 0.167692 0.079592
0.643760 0.211644 0.074760
0.659380 0.232840 0.080520
0.659380 0.232840 0.080520
0.062024 0.063456 0.054244
0.073083 0.064191 0.055823
0.100553 0.060082 0.046625
0.133954 0.064312 0.048439
0.176918 0.065922 0.051686
0.216796 0.063420 0.056936
0.274350 0.063040 0.062770
0.346101 0.074191 0.067334
0.412987 0.098390 0.075462
0.471839 0.122320 0.083194
0.528180 0.146352 0.086244
0.559842 0.164454 0.083122
0.588165 0.188302 0.084360
0.634709 0.230394 0.084158
0.650088 0.250688 0.089280
0.650088 0.250688 0.089280
0.061512 0.081128 0.061704
0.063967 0.088270 0.062566
0.097472 0.086465 0.055009
0.134128 0.083866 0.051162
0.174871 0.088383 0.054551
0.209216 0.092400 0.059092
0.256496 0.090108 0.064057
0.328935 0.097149 0.069812
0.399249 0.118179 0.077108
0.466738 0.143979 0.085459
0.524680 0.175716 0.092176
0.563973 0.202006 0.088734
0.592599 0.225746 0.090255
0.631873 0.257778 0.092972
0.650316 0.274132 0.096928
0.650316 0.274132 0.096928
0.061064 0.105272 0.069672
0.060614 0.108666 0.066812
0.086659 0.108836 0.058666
0.131968 0.111844 0.055140
0.175668 0.111154 0.057972
0.204352 0.118240 0.062420
0.236611 0.131689 0.068210
0.289649 0.143014 0.074439
0.361140 0.158746 0.080033
0.440309 0.178101 0.088512
0.504728 0.207380 0.097328
0.558770 0.239938 0.096203
0.612372 0.264873 0.094550
0.655780 0.298671 0.100646
0.665996 0.316180 0.109728
0.665996 0.316180 0.109728
0.057460 0.136320 0.081948
0.055466 0.141373 0.078605
0.060392 0.149234 0.064410
0.123720 0.139974 0.058320
0.170071 0.153964 0.063210
0.212908 0.152440 0.067740
0.241576 0.162903 0.072734
0.283111 0.180637 0.079044
0.336190 0.198480 0.084494
0.408789 0.213561 0.090714
0.484152 0.236368 0.100412
0.564619 0.265341 0.099937
0.631483 0.294918 0.096818
0.678302 0.349369 0.117929
0.693400 0.364432 0.132588
0.693400 0.364432 0.132588
0.048820 0.170220 0.096480
0.047712 0.176968 0.089100
0.047820 0.189864 0.070888
0.095868 0.186696 0.063208
0.180740 0.183204 0.067908
0.221580 0.197980 0.074380
0.266252 0.201372 0.080220
0.310636 0.214588 0.085296
0.362684 0.228780 0.089760
0.426016 0.241860 0.096128
0.501140 0.263880 0.105340
0.577344 0.289324 0.102160
0.637224 0.328840 0.103108
0.684024 0.385624 0.132612
0.700400 0.400760 0.149600
0.700400 0.400760 0.149600
0.047264 0.203052 0.114492
0.046765 0.208886 0.098818
0.048799 0.227412 0.073368
0.079615 0.235495 0.070014
0.158621 0.224635 0.072497
0.231208 0.229536 0.079996
0.292661 0.237722 0.087188
0.342196 0.246780 0.091385
0.393556 0.258713 0.095881
0.455157 0.272637 0.102770
0.519644 0.294940 0.109984
0.589518 0.324441 0.106342
0.645726 0.365830 0.111845
0.693396 0.419382 0.148094
0.711352 0.436256 0.166648
0.711352 0.436256 0.166648
0.046832 0.236636 0.134208
0.047794 0.245054 0.121554
0.059349 0.267654 0.087532
0.095922 0.274653 0.076441
0.157758 0.275910 0.079699
0.237208 0.268368 0.086364
0.307838 0.276419 0.093493
0.375892 0.283125 0.098059
0.428074 0.293218 0.103634
0.484890 0.312145 0.110613
0.545220 0.336264 0.114096
0.606551 0.363691 0.111247
0.656275 0.407491 0.122523
0.709539 0.459648 0.164181
0.723644 0.474140 0.189584
0.723644 0.474140 0.189584
0.057904 0.281292 0.161216
0.061580 0.288347 0.153118
0.069672 0.304531 0.125084
0.099141 0.323510 0.085986
0.160533 0.306742 0.084362
0.240008 0.310528 0.092716
0.322897 0.319194 0.100450
0.395898 0.326210 0.105326
0.462788 0.336021 0.112040
0.516193 0.357159 0.118677
0.573428 0.378856 0.116448
0.626887 0.408280 0.117266
0.674310 0.457338 0.131742
0.721904 0.492995 0.192357
0.728588 0.496300 0.226352
0.728588 0.496300 0.226352
0.073460 0.334844 0.194640
0.076287 0.339175 0.187283
0.081382 0.348278 0.169145
0.091647 0.373549 0.116687
0.176187 0.365220 0.094700
0.250104 0.342308 0.098032
0.352119 0.354691 0.107020
0.410242 0.370585 0.112339
0.476747 0.375855 0.118944
0.536452 0.394252 0.123601
0.597020 0.420056 0.118072
0.645807 0.462837 0.121172
0.696344 0.503266 0.148810
0.728533 0.518012 0.235306
0.732568 0.517876 0.272084
0.732568 0.517876 0.272084
0.085300 0.392980 0.232660
0.087780 0.398120 0.226072
0.094600 0.412124 0.205192
0.109880 0.435932 0.134264
0.183136 0.435584 0.106420
0.286080 0.397940 0.108460
0.383536 0.393596 0.113916
0.435384 0.407384 0.119468
0.478104 0.427544 0.122236
0.552740 0.439164 0.123860
0.613140 0.471020 0.115400
0.660340 0.519312 0.132084
0.713460 0.549376 0.180456
0.732324 0.543632 0.286776
0.741660 0.544840 0.309640
0.741660 0.544840 0.309640
0.100812 0.449024 0.268164
0.105091 0.453839 0.263265
0.117786 0.465511 0.243950
0.150417 0.497626 0.177243
0.207898 0.512406 0.112017
0.286364 0.480480 0.105348
0.389348 0.457575 0.113370
0.458123 0.454742 0.119047
0.503896 0.475811 0.121098
0.558747 0.505606 0.120232
0.627080 0.539032 0.126180
0.682036 0.574523 0.163963
0.716494 0.575422 0.247641
0.746609 0.574311 0.320012
0.758624 0.577264 0.335612
0.758624 0.577264 0.335612
0.140668 0.491296 0.296988
0.146695 0.494497 0.294313
0.159403 0.502194 0.280602
0.176526 0.518686 0.277696
0.226918 0.565917 0.210674
0.300108 0.569420 0.118148
0.374607 0.538519 0.110772
0.472665 0.522537 0.116002
0.535926 0.532271 0.119195
0.590978 0.565696 0.121650
0.645556 0.610380 0.151620
0.694416 0.608656 0.227861
0.724733 0.597918 0.311694
0.759667 0.612142 0.354833
0.771164 0.619680 0.368436
0.771164 0.619680 0.368436
0.182236 0.526976 0.324684
0.185076 0.531089 0.320028
0.190661 0.538936 0.319043
0.204290 0.549144 0.342723
0.241938 0.581600 0.324050
0.330476 0.620908 0.234596
0.420198 0.628247 0.154951
0.497961 0.609670 0.131054
0.570642 0.608895 0.130728
0.628086 0.631069 0.147717
0.666196 0.659580 0.200724
0.697306 0.646752 0.295333
0.735027 0.640526 0.349022
0.770947 0.657707 0.388897
0.785932 0.665664 0.397956
0.785932 0.665664 0.397956
0.204616 0.567420 0.356632
0.208951 0.571298 0.362366
0.218094 0.578640 0.378550
0.233393 0.589302 0.397520
0.271261 0.614843 0.381030
0.351476 0.650648 0.312292
0.452590 0.679458 0.261225
0.550193 0.683267 0.225986
0.605678 0.680154 0.226827
0.647930 0.682261 0.233428
0.677764 0.685752 0.281672
0.703585 0.683704 0.344696
0.740761 0.687815 0.387453
0.788674 0.703953 0.412557
0.805956 0.712272 0.418652
0.805956 0.712272 0.418652
0.234613 0.608028 0.412808
0.242137 0.611858 0.422894
0.253175 0.618609 0.435676
0.268013 0.628309 0.450546
0.294112 0.640471 0.456705
0.379236 0.663717 0.403151
0.475903 0.701697 0.355660
0.569945 0.707352 0.340618
0.631642 0.701391 0.338197
0.660743 0.703959 0.345923
0.687288 0.709863 0.355634
0.715409 0.722867 0.383681
0.750820 0.739699 0.412726
0.804767 0.752490 0.440673
0.820034 0.758290 0.458047
0.820034 0.758290 0.458047
0.062300 0.047820 0.063160
0.077404 0.048376 0.064564
0.105244 0.050060 0.060088
0.140220 0.052860 0.058600
0.182100 0.056924 0.063904
0.222680 0.060220 0.071800
0.279888 0.062708 0.072436
0.359764 0.071768 0.072460
0.438708 0.089080 0.076572
0.501316 0.111880 0.082908
0.532080 0.120620 0.079400
0.554084 0.131548 0.077596
0.595208 0.161352 0.077988
0.642488 0.216280 0.084436
0.655800 0.240200 0.094800
0.655800 0.240200 0.094800
0.063112 0.073020 0.065052
0.070686 0.063317 0.074537
0.105303 0.064542 0.062294
0.146814 0.057402 0.051791
0.187675 0.057659 0.053641
0.225648 0.058724 0.062100
0.284906 0.062634 0.070878
0.358391 0.071106 0.070620
0.422823 0.090473 0.074911
0.488437 0.119424 0.083550
0.547252 0.143136 0.081164
0.570629 0.158124 0.080838
0.593484 0.178234 0.082092
0.635647 0.231190 0.091903
0.648760 0.253740 0.101644
0.648760 0.253740 0.101644
0.062472 0.089624 0.073940
0.062707 0.096336 0.080841
0.092399 0.093761 0.073988
0.144332 0.081374 0.055105
0.187890 0.080462 0.055010
0.220356 0.082004 0.058860
0.274055 0.071958 0.063250
0.345526 0.077635 0.067914
0.409951 0.104637 0.076113
0.477355 0.133829 0.085103
0.540416 0.164588 0.087228
0.577798 0.189063 0.085346
0.601444 0.215122 0.088452
0.633975 0.257486 0.100842
0.649884 0.274904 0.108668
0.649884 0.274904 0.108668
0.062024 0.111928 0.085364
0.061574 0.118326 0.083542
0.069218 0.128833 0.082148
0.140402 0.112401 0.062343
0.187247 0.107096 0.058857
0.215204 0.113092 0.063020
0.252622 0.118521 0.068203
0.314802 0.120522 0.072622
0.383465 0.138205 0.078273
0.465205 0.167909 0.088758
0.527568 0.199404 0.095388
0.575306 0.231098 0.092578
0.621825 0.256837 0.093719
0.656084 0.298626 0.111857
0.664780 0.315112 0.123996
0.664780 0.315112 0.123996
0.057948 0.142320 0.097648
0.055180 0.147680 0.090258
0.054912 0.154681 0.083984
0.111779 0.147574 0.065958
0.183427 0.150362 0.063982
0.225876 0.146476 0.068616
0.262246 0.155646 0.074160
0.308107 0.173462 0.079699
0.365365 0.188362 0.084368
0.437426 0.209502 0.092858
0.516464 0.233896 0.100972
0.591898 0.261473 0.096416
0.649285 0.301402 0.100526
0.687464 0.352558 0.139906
0.699624 0.365852 0.159212
0.699624 0.365852 0.159212
0.048820 0.176800 0.112080
0.047916 0.183328 0.105308
0.047404 0.192172 0.097540
0.072188 0.203996 0.071172
0.173112 0.187256 0.067900
0.219380 0.206720 0.075420
0.282932 0.197760 0.081152
0.333376 0.212004 0.086204
0.391424 0.229284 0.091692
0.456912 0.244300 0.099036
0.534160 0.266200 0.105300
0.608532 0.290424 0.099432
0.660820 0.344068 0.113876
0.702756 0.395444 0.169796
0.712180 0.409780 0.199320
0.712180 0.409780 0.199320
0.047428 0.209420 0.129080
0.046886 0.214266 0.119843
0.047232 0.230474 0.104275
0.058182 0.257422 0.077840
0.140796 0.242635 0.074357
0.232108 0.236228 0.081092
0.299500 0.247650 0.088962
0.367257 0.254152 0.093568
0.420966 0.264952 0.099130
0.483928 0.280688 0.105980
0.556636 0.302576 0.106692
0.622620 0.335979 0.106422
0.667251 0.383908 0.129906
0.705734 0.429287 0.198194
0.711452 0.442472 0.231448
0.711452 0.442472 0.231448
0.047244 0.244396 0.150268
0.048362 0.250937 0.139273
0.059286 0.276258 0.114647
0.083257 0.306630 0.084170
0.133260 0.304802 0.082542
0.227524 0.280368 0.086944
0.319442 0.289377 0.095999
0.393922 0.296711 0.100993
0.454543 0.309546 0.107642
0.516342 0.328785 0.114358
0.585820 0.351280 0.110160
0.634582 0.382866 0.117152
0.675810 0.426709 0.146686
0.708274 0.460962 0.225864
0.711736 0.467772 0.256228
0.711736 0.467772 0.256228
0.058604 0.287404 0.176716
0.064020 0.296671 0.167337
0.072082 0.317894 0.147540
0.094070 0.350569 0.094433
0.158550 0.347129 0.089614
0.228340 0.346608 0.095920
0.328063 0.339889 0.103647
0.410108 0.343361 0.108350
0.483119 0.354622 0.116842
0.552466 0.377495 0.119744
0.610316 0.399472 0.116256
0.650806 0.435125 0.126454
0.690556 0.472498 0.162955
0.709887 0.485054 0.248251
0.713208 0.488620 0.277396
0.713208 0.488620 0.277396
0.071212 0.335448 0.206488
0.075579 0.342734 0.198855
0.081798 0.355194 0.189566
0.092790 0.384471 0.140190
0.156405 0.394719 0.100974
0.238892 0.378784 0.100448
0.339214 0.384045 0.110216
0.422969 0.391422 0.115738
0.504559 0.398964 0.123972
0.574441 0.418304 0.121479
0.625832 0.448084 0.118876
0.662134 0.486354 0.137840
0.698003 0.506662 0.188158
0.715440 0.509357 0.280218
0.723760 0.513800 0.304104
0.723760 0.513800 0.304104
0.082860 0.392240 0.243500
0.085908 0.397904 0.235012
0.088876 0.406992 0.230372
0.096780 0.419984 0.206004
0.154920 0.438704 0.164752
0.259860 0.437000 0.103520
0.355932 0.418492 0.114464
0.454740 0.436076 0.120440
0.502964 0.462412 0.122168
0.584932 0.471688 0.118824
0.630600 0.503340 0.125480
0.667868 0.533004 0.157920
0.701628 0.539248 0.226908
0.726556 0.539088 0.311900
0.738080 0.543880 0.328060
0.738080 0.543880 0.328060
0.101652 0.451572 0.275652
0.104620 0.454701 0.271729
0.110727 0.461588 0.268151
0.131322 0.478260 0.240177
0.184164 0.508877 0.183021
0.273848 0.509036 0.121648
0.386362 0.485428 0.112782
0.480397 0.486742 0.118083
0.533066 0.509741 0.120483
0.583485 0.538063 0.121095
0.637768 0.560688 0.143992
0.677218 0.570951 0.200470
0.707643 0.565310 0.284759
0.742757 0.570340 0.340522
0.754908 0.576308 0.353452
0.754908 0.576308 0.353452
0.143696 0.493688 0.301548
0.148538 0.496710 0.300530
0.156590 0.501826 0.296622
0.168090 0.512178 0.304209
0.209194 0.551459 0.262605
0.289356 0.583608 0.146364
0.376631 0.564093 0.116276
0.491041 0.549954 0.116561
0.559530 0.561452 0.119486
0.608514 0.587526 0.129946
0.645352 0.617904 0.174652
0.686947 0.596892 0.266685
0.720977 0.594348 0.331654
0.756321 0.611641 0.371414
0.768320 0.619200 0.384300
0.768320 0.619200 0.384300
0.183600 0.529608 0.328844
0.186019 0.533123 0.326495
0.191188 0.540383 0.328542
0.203969 0.550390 0.354586
0.226614 0.569395 0.370702
0.299100 0.600792 0.307484
0.398586 0.639338 0.190177
0.491527 0.633110 0.149377
0.580625 0.627570 0.144737
0.630274 0.640108 0.167796
0.661720 0.654624 0.232316
0.692371 0.638441 0.323088
0.731828 0.638690 0.366586
0.769297 0.656841 0.403133
0.784976 0.664592 0.411132
0.784976 0.664592 0.411132
0.206200 0.569944 0.361428
0.210737 0.573538 0.369326
0.220376 0.581046 0.386336
0.235541 0.592914 0.408950
0.259411 0.610506 0.423478
0.321060 0.626688 0.397036
0.429692 0.649350 0.341585
0.538195 0.676078 0.275201
0.606557 0.674410 0.258798
0.648890 0.675334 0.261466
0.674484 0.676472 0.309560
0.703027 0.680918 0.359656
0.740654 0.687332 0.400151
0.788194 0.702756 0.425716
0.805204 0.710924 0.433288
0.805204 0.710924 0.433288
0.237130 0.610906 0.418096
0.244638 0.614313 0.428945
0.256588 0.622158 0.443902
0.272988 0.634180 0.463486
0.297001 0.646283 0.475311
0.375005 0.663556 0.435438
0.463491 0.693939 0.399710
0.561956 0.701535 0.374766
0.632393 0.699528 0.360522
0.664165 0.701137 0.361825
0.691315 0.706765 0.365962
0.717536 0.721841 0.393939
0.752765 0.738400 0.423268
0.802957 0.753267 0.457454
0.820353 0.759531 0.473241
0.820353 0.759531 0.473241
0.062300 0.052540 0.085800
0.073660 0.052344 0.090628
0.098524 0.053724 0.087176
0.143356 0.055948 0.076856
0.168980 0.057548 0.073728
0.216360 0.060860 0.077800
0.291632 0.064660 0.082356
0.374580 0.076952 0.082396
0.452180 0.094776 0.085036
0.512884 0.104536 0.080332
0.540960 0.113260 0.075560
0.560308 0.128028 0.076460
0.599768 0.158280 0.076292
0.641288 0.225048 0.100660
0.652280 0.248760 0.116320
0.652280 0.248760 0.116320
0.064152 0.087868 0.086028
0.064855 0.062459 0.104415
0.099361 0.064126 0.099263
0.150612 0.064858 0.077561
0.196078 0.060334 0.067542
0.231968 0.060708 0.072084
0.297328 0.064686 0.081246
0.376487 0.076639 0.079897
0.438065 0.089708 0.077366
0.510226 0.115594 0.081674
0.564900 0.141984 0.078540
0.581992 0.156236 0.079887
0.599823 0.176307 0.082278
0.633039 0.240144 0.109292
0.646072 0.261708 0.123116
0.646072 0.261708 0.123116
0.063224 0.104264 0.092756
0.064269 0.105258 0.110466
0.085017 0.092964 0.123476
0.147702 0.094938 0.082346
0.199590 0.086229 0.068860
0.233844 0.069060 0.059628
0.296343 0.066402 0.070552
0.371343 0.075046 0.074695
0.427692 0.093984 0.075879
0.495944 0.127979 0.084815
0.559744 0.158588 0.082220
0.592032 0.185428 0.084041
0.609242 0.214942 0.092026
0.634836 0.262389 0.118202
0.649452 0.279432 0.130908
0.649452 0.279432 0.130908
0.062776 0.125608 0.105652
0.063456 0.132394 0.120950
0.064358 0.144906 0.134503
0.125609 0.128039 0.096958
0.195324 0.113733 0.072246
0.234196 0.109684 0.067436
0.277226 0.107769 0.068990
0.342502 0.105491 0.073770
0.405852 0.123763 0.081418
0.482386 0.153138 0.087817
0.543760 0.183804 0.089420
0.590934 0.220372 0.089954
0.628830 0.259845 0.101569
0.655537 0.304053 0.135079
0.665244 0.319704 0.152188
0.665244 0.319704 0.152188
0.058988 0.152976 0.126496
0.056326 0.159824 0.123862
0.051981 0.172550 0.121488
0.085962 0.175977 0.116288
0.194531 0.152823 0.077674
0.246932 0.142300 0.072808
0.293536 0.149170 0.075786
0.348789 0.159341 0.081667
0.412101 0.166995 0.086886
0.480946 0.188715 0.092864
0.554720 0.224776 0.094316
0.611089 0.259892 0.097798
0.653394 0.309108 0.118747
0.685954 0.355463 0.173640
0.692568 0.367596 0.199068
0.692568 0.367596 0.199068
0.050980 0.185440 0.146240
0.048252 0.192832 0.128860
0.047564 0.200604 0.120084
0.053148 0.208460 0.105684
0.157400 0.190952 0.082012
0.238020 0.205280 0.077340
0.314308 0.185584 0.081616
0.369712 0.202420 0.086556
0.428848 0.221172 0.093388
0.497440 0.240284 0.101020
0.573600 0.264360 0.097620
0.627444 0.302056 0.108120
0.669652 0.358932 0.146436
0.700132 0.405188 0.237428
0.705620 0.417620 0.268200
0.705620 0.417620 0.268200
0.047668 0.218540 0.159064
0.047091 0.223536 0.141942
0.046746 0.234618 0.135222
0.053702 0.260798 0.116019
0.122162 0.261787 0.085883
0.234732 0.244244 0.082548
0.307417 0.257158 0.090802
0.392850 0.253755 0.094810
0.456146 0.268357 0.102150
0.522754 0.288630 0.107602
0.591980 0.309088 0.103140
0.639193 0.353291 0.122182
0.682147 0.399812 0.173864
0.705462 0.439841 0.270376
0.711212 0.450376 0.296760
0.711212 0.450376 0.296760
0.045564 0.250860 0.178108
0.049322 0.260060 0.159762
0.057343 0.278230 0.152279
0.073558 0.316690 0.120497
0.117407 0.332354 0.101525
0.222276 0.299312 0.089232
0.325167 0.301972 0.098127
0.406425 0.313054 0.103905
