example_ofxGpuLutCube/bin/data/ofxGpuLutCube/LUT/C32 (bright green fade).cube
LUT_3D_SIZE 16
0.000000 0.000000 0.000000
0.028149 0.000000 0.000000
0.085770 0.000000 0.000000
0.141108 0.000000 0.000000
0.197688 0.000000 0.000000
0.259566 0.000000 0.000000
0.330060 0.000000 0.000000
0.407098 0.000000 0.000000
0.485145 0.000000 0.000000
0.559882 0.000000 0.000000
0.630581 0.000000 0.000000
0.690844 0.000000 0.000000
0.741116 0.000000 0.000000
0.785457 0.000000 0.000000
0.829287 0.000000 0.000000
0.862031 0.000000 0.000000
0.000000 0.003164 0.000000
0.031318 0.003230 0.000000
0.094352 0.003103 0.000000
0.159471 0.002973 0.000000
0.222985 0.003026 0.000000
0.287399 0.003177 0.000000
0.357831 0.003265 0.000000
0.432294 0.003202 0.000000
0.504995 0.002982 0.000000
0.574069 0.002624 0.000000
0.640892 0.002166 0.000000
0.699458 0.001720 0.000000
0.749585 0.001327 0.000000
0.794624 0.000978 0.000000
0.839218 0.000689 0.000000
0.870464 0.000726 0.000000
0.001904 0.054783 0.000000
0.045189 0.056754 0.000000
0.114454 0.055895 0.000000
0.192999 0.054433 0.000000
0.269368 0.055375 0.000000
0.341490 0.057675 0.000000
0.414033 0.059178 0.000000
0.486485 0.058594 0.000000
0.554000 0.055766 0.000000
0.615983 0.050914 0.000000
0.674849 0.044582 0.000000
0.726817 0.038278 0.000000
0.772699 0.032588 0.000000
0.815766 0.027419 0.000000
0.859743 0.023019 0.000000
0.887684 0.023316 0.000000
0.023663 0.114479 0.000000
0.076178 0.123897 0.000000
0.143756 0.131170 0.000000
0.228037 0.133651 0.000000
0.312980 0.135995 0.000000
0.392147 0.138941 0.000000
0.466478 0.141881 0.000000
0.536699 0.143915 0.000000
0.603154 0.144498 0.000000
0.666060 0.143604 0.000000
0.724911 0.141274 0.000000
0.774356 0.138076 0.000000
0.815920 0.134361 0.000000
0.854630 0.130121 0.000000
0.892653 0.125704 0.000000
0.918743 0.124179 0.000000
0.077095 0.181926 0.000000
0.124460 0.195790 0.000000
0.179337 0.209513 0.000000
0.259581 0.215301 0.000000
0.346618 0.219837 0.000000
0.428186 0.224802 0.000000
0.503163 0.229033 0.000000
0.571640 0.232504 0.000000
0.636820 0.235227 0.000000
0.701015 0.236969 0.000000
0.763587 0.237633 0.000000
0.816678 0.237436 0.000000
0.860626 0.236706 0.000000
0.899499 0.235319 0.000000
0.935202 0.233278 0.000000
0.957093 0.231280 0.000000
0.141434 0.261321 0.000000
0.187111 0.274783 0.000000
0.221766 0.291402 0.000000
0.288300 0.298662 0.000000
0.374578 0.303267 0.000000
0.456204 0.309440 0.000151
0.530910 0.314936 0.000502
0.599409 0.319738 0.000306
0.663912 0.324549 0.000000
0.726355 0.328918 0.000000
0.787685 0.332115 0.000000
0.841511 0.334110 0.000000
0.888178 0.335561 0.000000
0.930660 0.336736 0.000000
0.969827 0.337565 0.000000
0.985812 0.336379 0.000000
0.203701 0.349486 0.000000
0.257503 0.359736 0.000000
0.275062 0.375768 0.000000
0.317734 0.383638 0.000327
0.398623 0.387077 0.002500
0.480575 0.392447 0.005769
0.554483 0.398071 0.007875
0.623223 0.403537 0.007620
0.688640 0.409844 0.005536
0.750826 0.416569 0.001784
0.809730 0.422204 0.000000
0.860404 0.425781 0.000000
0.904945 0.428135 0.000000
0.947198 0.430193 0.000000
0.984580 0.432224 0.000000
0.987420 0.432599 0.000000
0.251179 0.437735 0.000000
0.319725 0.445172 0.000000
0.336496 0.458100 0.000000
0.353533 0.465312 0.001889
0.420101 0.467941 0.012408
0.501801 0.472053 0.022463
0.575743 0.477042 0.026919
0.644164 0.482023 0.026986
0.709782 0.488037 0.023554
0.772882 0.495379 0.016478
0.832167 0.502414 0.009317
0.881707 0.507111 0.001970
0.923740 0.509932 0.000000
0.962896 0.512060 0.000000
0.986113 0.514056 0.000000
0.987425 0.514408 0.000000
0.278226 0.517778 0.000000
0.358391 0.524016 0.000000
0.391064 0.533683 0.000000
0.395114 0.539275 0.003905
0.441736 0.541665 0.025063
0.519366 0.545523 0.043118
0.594092 0.550350 0.049475
0.662785 0.554479 0.049259
0.727989 0.558678 0.046176
0.791026 0.564301 0.043050
0.851150 0.570570 0.036743
0.901909 0.575321 0.024959
0.944710 0.578423 0.014589
0.978591 0.580749 0.002150
0.987104 0.582806 0.000034
0.987425 0.583506 0.000000
0.289025 0.588028 0.000000
0.373410 0.594007 0.000000
0.425590 0.601956 0.000000
0.433280 0.606428 0.004503
0.464140 0.609017 0.031911
0.533461 0.613473 0.061397
0.608243 0.618771 0.069257
0.677860 0.622431 0.069000
0.743258 0.624602 0.067135
0.805734 0.627318 0.067202
0.865395 0.631123 0.067071
0.916711 0.634567 0.062965
0.961127 0.637117 0.053905
0.984999 0.639064 0.039717
0.987425 0.640673 0.031738
0.987425 0.641657 0.025181
0.291027 0.651911 0.000000
0.375187 0.657787 0.000000
0.440624 0.665407 0.000000
0.460893 0.669951 0.003167
0.485115 0.673107 0.029378
0.545093 0.678143 0.070920
0.618295 0.683778 0.079459
0.688637 0.686985 0.079249
0.754736 0.687327 0.081593
0.816977 0.687111 0.088759
0.875484 0.687944 0.097032
0.925695 0.689302 0.102383
0.969751 0.690409 0.105630
0.986145 0.691054 0.108114
0.987425 0.691352 0.110027
0.987425 0.691872 0.105987
0.289636 0.711352 0.000000
0.372704 0.717135 0.000000
0.444540 0.725097 0.000000
0.477675 0.730594 0.000675
0.502123 0.734589 0.019805
0.554913 0.739913 0.070098
0.625512 0.745407 0.079749
0.695985 0.747783 0.080539
0.762453 0.746325 0.090171
0.824215 0.743631 0.109964
0.881142 0.741977 0.132578
0.929248 0.741378 0.150586
0.971329 0.740978 0.164936
0.986308 0.740369 0.178128
0.987425 0.739612 0.189927
0.987425 0.739493 0.193293
0.287690 0.767207 0.000000
0.369975 0.772845 0.000000
0.444257 0.781228 0.000000
0.486629 0.787780 0.000000
0.514485 0.792824 0.014686
0.563294 0.798419 0.061662
0.631298 0.803391 0.074867
0.701334 0.804517 0.079665
0.767177 0.801225 0.099842
0.827343 0.796636 0.134461
0.881929 0.793397 0.170728
0.927766 0.791638 0.197786
0.968109 0.790479 0.216388
0.985838 0.789475 0.229676
0.987425 0.788620 0.238710
0.987425 0.788742 0.238585
0.285860 0.820639 0.000000
0.367820 0.826228 0.000000
0.442909 0.834808 0.000000
0.490959 0.842214 0.000000
0.523251 0.848426 0.011132
0.570800 0.854495 0.050433
0.636637 0.858590 0.070194
0.705518 0.858013 0.083618
0.769417 0.853067 0.116985
0.826779 0.847305 0.163736
0.878775 0.843416 0.205671
0.923146 0.841351 0.232066
0.963017 0.840213 0.246193
0.985152 0.839485 0.252965
0.987425 0.839044 0.255305
0.987425 0.839038 0.255664
0.284080 0.874370 0.000000
0.366064 0.879690 0.000000
0.441513 0.888117 0.000000
0.493150 0.895922 0.000000
0.529709 0.903277 0.008001
0.577688 0.909732 0.041213
0.641885 0.912255 0.070693
0.708521 0.909379 0.098258
0.768999 0.903202 0.145218
0.823058 0.897355 0.196914
0.873341 0.893802 0.233957
0.917660 0.892174 0.251607
0.958252 0.891463 0.257479
0.984538 0.891141 0.257623
0.987425 0.891000 0.255226
0.987425 0.890977 0.254966
0.283476 0.915716 0.000000
0.367352 0.919694 0.000000
0.443520 0.928530 0.000000
0.497320 0.936763 0.000000
0.537935 0.944087 0.005852
0.581315 0.951542 0.034308
0.643898 0.953702 0.069538
0.709424 0.950375 0.102993
0.768912 0.944190 0.150539
0.821489 0.937882 0.206897
0.871105 0.934158 0.243884
0.916058 0.932864 0.256802
0.957205 0.932342 0.259837
0.984410 0.932112 0.258595
0.987425 0.932043 0.255049
0.987425 0.932041 0.252881
0.000000 0.000000 0.002029
0.029538 0.000000 0.002241
0.086791 0.000000 0.002222
0.142721 0.000000 0.002020
0.198852 0.000000 0.001782
0.259721 0.000000 0.001447
0.330156 0.000000 0.000885
0.408457 0.000000 0.000249
0.488146 0.000000 0.000000
0.563970 0.000000 0.000000
0.635091 0.000000 0.000000
0.695674 0.000000 0.000000
0.746592 0.000000 0.000000
0.791929 0.000000 0.000000
0.836875 0.000000 0.000000
0.869438 0.000000 0.000000
0.000000 0.002813 0.001612
0.033199 0.002933 0.001887
0.095287 0.002868 0.001994
0.160891 0.002766 0.001868
0.223802 0.002863 0.001640
0.285665 0.003117 0.001320
0.353366 0.003337 0.000827
0.427335 0.003342 0.000251
0.502260 0.003081 0.000004
0.574340 0.002600 0.000000
0.643350 0.002000 0.000000
0.703108 0.001435 0.000000
0.754042 0.000948 0.000000
0.799956 0.000524 0.000000
0.845709 0.000177 0.000000
0.877142 0.000204 0.000000
0.002190 0.049895 0.001133
0.047628 0.052547 0.001485
0.114613 0.052631 0.001738
0.192409 0.051667 0.001755
0.268541 0.053245 0.001660
0.338655 0.056972 0.001498
0.407344 0.060341 0.001235
0.476487 0.060773 0.000693
0.543300 0.057404 0.000182
0.606917 0.050818 0.000028
0.668546 0.042342 0.000000
0.723035 0.034189 0.000000
0.770749 0.027014 0.000000
0.815228 0.020636 0.000000
0.860460 0.015321 0.000000
0.889680 0.015484 0.000000
0.025531 0.112569 0.001066
0.079208 0.121669 0.001492
0.144291 0.129789 0.001948
0.225628 0.133317 0.002480
0.309858 0.136305 0.002743
0.388868 0.139987 0.002722
0.462029 0.143937 0.002424
0.529948 0.146774 0.001946
0.593787 0.147268 0.001308
0.654624 0.145210 0.000507
0.712377 0.140915 0.000084
0.761732 0.135535 0.000000
0.803927 0.129834 0.000000
0.843468 0.123848 0.000000
0.882834 0.118004 0.000000
0.910619 0.116488 0.000000
0.078121 0.182391 0.001530
0.129183 0.195154 0.002028
0.183268 0.208977 0.003650
0.259141 0.215988 0.008343
0.343774 0.221700 0.010863
0.425013 0.227810 0.011402
0.500133 0.232930 0.010161
0.568152 0.236580 0.007806
0.632332 0.238527 0.004686
0.695057 0.238950 0.002170
0.755379 0.238191 0.000924
0.806068 0.236570 0.000296
0.847975 0.234275 0.000043
0.885190 0.231050 0.000000
0.919207 0.227135 0.000000
0.941681 0.224627 0.000000
0.143677 0.262931 0.002359
0.194791 0.275463 0.002781
0.231476 0.291814 0.006475
0.293134 0.299994 0.020205
0.375067 0.305687 0.028258
0.455117 0.313400 0.032116
0.529149 0.320621 0.032712
0.596877 0.325890 0.029344
0.660932 0.329287 0.019101
0.723617 0.331451 0.008224
0.784958 0.333147 0.003287
0.837905 0.334489 0.001564
0.882882 0.335406 0.000595
0.922878 0.335625 0.000173
0.958854 0.335074 0.000009
0.975329 0.333047 0.000000
0.206243 0.351828 0.003147
0.265850 0.361909 0.003127
0.290120 0.378063 0.006316
0.328804 0.386879 0.025237
0.402470 0.390672 0.040628
0.481580 0.396867 0.049049
0.554453 0.404541 0.053196
0.622074 0.411067 0.053358
0.686311 0.415964 0.046487
0.747949 0.420065 0.029474
0.807102 0.423854 0.012132
0.858256 0.426900 0.003875
0.902937 0.429271 0.001765
0.944639 0.431275 0.000796
0.981476 0.432948 0.000197
0.987388 0.433078 0.000114
0.251684 0.440707 0.003547
0.323787 0.448455 0.003083
0.352606 0.461956 0.004999
0.370788 0.470509 0.022663
0.427027 0.473053 0.048398
0.503030 0.476767 0.062181
0.576023 0.483247 0.069858
0.643968 0.489564 0.073285
0.708614 0.494612 0.070597
0.770308 0.499817 0.059354
0.828283 0.505390 0.038913
0.877053 0.509603 0.019694
0.918913 0.512283 0.005719
0.958311 0.514296 0.001728
0.985810 0.516148 0.000661
0.987425 0.516236 0.000408
0.276591 0.521062 0.003544
0.357055 0.527593 0.002852
0.403431 0.537884 0.003075
0.417446 0.544999 0.015075
0.454124 0.547332 0.052781
0.521234 0.550056 0.076273
0.593984 0.555549 0.088267
0.662846 0.560942 0.093947
0.727641 0.564673 0.092762
0.789340 0.569015 0.085979
0.847464 0.574989 0.074410
0.896190 0.580041 0.057685
0.937320 0.583140 0.035842
0.974386 0.585068 0.018689
0.986859 0.586627 0.003167
0.987425 0.586700 0.001427
0.286170 0.591463 0.003285
0.369174 0.597516 0.002569
0.432551 0.605879 0.001949
0.457741 0.611740 0.009949
0.484132 0.614408 0.052125
0.539115 0.617632 0.091128
0.609074 0.623116 0.109796
0.678760 0.627794 0.117201
0.743981 0.629757 0.116572
0.805266 0.631715 0.111373
0.862989 0.635992 0.105572
0.912194 0.640540 0.098220
0.954509 0.643737 0.086273
0.983819 0.645704 0.068104
0.987406 0.647061 0.046698
0.987425 0.647298 0.040001
0.287109 0.655524 0.002924
0.369826 0.661333 0.002251
0.442908 0.669019 0.001536
0.483340 0.674526 0.006937
0.510802 0.677873 0.044909
0.556603 0.682041 0.100648
0.621580 0.687740 0.127295
0.690943 0.691724 0.135433
0.756854 0.692108 0.136728
0.818076 0.691360 0.135841
0.874739 0.692576 0.135485
0.923040 0.695089 0.135511
0.965523 0.697185 0.134499
0.985544 0.698433 0.131404
0.987425 0.699059 0.126501
0.987425 0.699071 0.123954
0.284490 0.715138 0.002594
0.366387 0.720862 0.001946
0.443372 0.728572 0.001219
0.495299 0.734449 0.003541
0.528981 0.738645 0.032898
0.571049 0.743627 0.100220
0.631347 0.749179 0.133999
0.699302 0.752223 0.142612
0.765412 0.751196 0.147533
0.826555 0.748254 0.156214
0.881891 0.746515 0.167636
0.928156 0.746424 0.178650
0.968951 0.746668 0.188606
0.985962 0.746553 0.198115
0.987425 0.746128 0.206496
0.987425 0.745568 0.212597
0.281541 0.771036 0.002359
0.362697 0.776795 0.001713
0.440886 0.784837 0.000986
0.499354 0.791309 0.001246
0.539244 0.796274 0.022161
0.581320 0.801723 0.090883
0.638695 0.806901 0.130774
0.704999 0.808888 0.142211
0.770341 0.806525 0.152926
0.830297 0.801898 0.174386
0.883554 0.797922 0.202645
0.927429 0.795692 0.227645
0.966317 0.794410 0.246276
0.985567 0.793383 0.259876
0.987425 0.792501 0.269408
0.987425 0.792629 0.269771
0.279186 0.824495 0.002206
0.360102 0.830292 0.001566
0.438473 0.838697 0.000846
0.500131 0.845745 0.000772
0.544719 0.851515 0.017103
0.588549 0.857297 0.078501
0.644618 0.861912 0.123772
0.709253 0.862746 0.141889
0.772753 0.859154 0.161706
0.829996 0.853151 0.196687
0.880360 0.847624 0.238993
0.922462 0.844181 0.271618
0.960769 0.842340 0.290570
0.984819 0.841294 0.299709
0.987425 0.840711 0.303158
0.987425 0.840663 0.304349
0.277303 0.878058 0.002103
0.358418 0.883637 0.001485
0.436800 0.892084 0.000785
0.499751 0.899525 0.000735
0.547533 0.906005 0.014334
0.593754 0.912011 0.069177
0.649662 0.915649 0.119597
0.712355 0.914934 0.148293
0.772711 0.910127 0.180498
0.826216 0.903298 0.226565
0.874065 0.897230 0.273120
0.915937 0.893805 0.301581
0.955288 0.892371 0.312534
0.984120 0.891890 0.313785
0.987425 0.891792 0.311116
0.987425 0.891708 0.311761
0.277226 0.919073 0.002111
0.360575 0.923285 0.001643
0.438771 0.932254 0.000864
0.501634 0.940225 0.000746
0.551737 0.946717 0.012951
0.596146 0.953445 0.063299
0.651824 0.956793 0.115690
0.713044 0.955860 0.151973
0.772528 0.951070 0.186304
0.824308 0.943497 0.239696
0.871267 0.937034 0.288223
0.914064 0.934024 0.311197
0.954252 0.932916 0.318296
0.983998 0.932606 0.317415
0.987425 0.932631 0.313079
0.987425 0.932694 0.310433
0.000000 0.000000 0.034708
0.033931 0.000000 0.038568
0.090205 0.000000 0.038796
0.149250 0.000000 0.036066
0.208768 0.000000 0.033031
0.271075 0.000000 0.028812
0.341151 0.000000 0.021501
0.418507 0.000000 0.012692
0.497479 0.000000 0.008171
0.572848 0.000000 0.006461
0.643530 0.000000 0.004759
0.703756 0.000000 0.003397
0.754753 0.000000 0.002322
0.800996 0.000000 0.001370
0.847366 0.000000 0.000517
0.879770 0.000000 0.000426
0.000043 0.002238 0.029283
0.039170 0.002423 0.033933
0.099778 0.002453 0.036059
0.166968 0.002426 0.034565
0.232227 0.002563 0.031511
0.294305 0.002841 0.027107
0.359819 0.003133 0.020385
0.431791 0.003240 0.012307
0.506744 0.002996 0.007921
0.580105 0.002407 0.006204
0.650064 0.001642 0.004430
0.709988 0.000939 0.002942
0.760904 0.000380 0.001735
0.807264 0.000038 0.000695
0.853869 0.000000 0.000038
0.885033 0.000000 0.000000
0.003254 0.042014 0.022998
0.054201 0.045534 0.028641
0.119008 0.046990 0.032928
0.196259 0.047124 0.033670
0.273197 0.049296 0.032567
0.342612 0.053386 0.030142
0.407501 0.057756 0.026152
0.471670 0.059669 0.018360
0.536167 0.056603 0.010537
0.601105 0.048387 0.006749
0.665700 0.037323 0.004358
0.722463 0.026950 0.002632
0.771502 0.018535 0.001263
0.816794 0.013024 0.000143
0.862510 0.011626 0.000001
0.892823 0.011466 0.000000
0.028066 0.110606 0.022362
0.083888 0.119781 0.028993
0.146599 0.128906 0.035306
0.225130 0.133345 0.037516
0.309146 0.136854 0.038169
0.388630 0.140869 0.038493
0.460571 0.145350 0.038681
0.524420 0.149250 0.036529
0.583023 0.150191 0.027292
0.640073 0.146465 0.014955
0.696763 0.138803 0.006891
0.747042 0.130210 0.003541
0.790913 0.122035 0.001775
0.832211 0.114358 0.000393
0.873728 0.107628 0.000015
0.903173 0.106202 0.000000
0.074189 0.185890 0.029356
0.131671 0.197970 0.036604
0.185715 0.212387 0.046209
0.256470 0.220384 0.050395
0.339117 0.226652 0.051467
0.421267 0.233321 0.052503
0.497903 0.239156 0.054231
0.565610 0.243611 0.055765
0.626780 0.245512 0.052539
0.684413 0.243834 0.040231
0.739226 0.239416 0.021564
0.786054 0.234277 0.010617
0.825934 0.228956 0.004937
0.862728 0.223216 0.002333
0.897666 0.217474 0.000826
0.922235 0.214672 0.000470
0.135136 0.269375 0.042044
0.197297 0.280820 0.047524
0.239960 0.296968 0.059740
0.295667 0.306514 0.068473
0.372101 0.313307 0.072067
0.451137 0.322080 0.074283
0.526263 0.331018 0.075942
0.594988 0.337853 0.077274
0.658841 0.340930 0.075435
0.719631 0.340030 0.066334
0.777255 0.337439 0.049918
0.825829 0.335432 0.031824
0.866737 0.333823 0.016680
0.903371 0.331693 0.008788
0.936844 0.328878 0.004569
0.958020 0.326054 0.003605
0.196213 0.358674 0.054755
0.267359 0.368138 0.054764
0.305773 0.383926 0.064896
0.342146 0.394602 0.079858
0.406296 0.400002 0.090278
0.481160 0.407045 0.096730
0.553377 0.416934 0.100878
0.621025 0.426106 0.103018
0.684901 0.431023 0.100786
0.745844 0.431409 0.090322
0.803924 0.430221 0.071974
0.853521 0.430038 0.052694
0.896201 0.430847 0.035912
0.935525 0.431739 0.021138
0.971471 0.432261 0.011449
0.986129 0.432061 0.010092
0.241435 0.446829 0.062108
0.320038 0.454568 0.055766
0.367304 0.468156 0.058723
0.392476 0.479159 0.077399
0.438409 0.483938 0.097477
0.505941 0.487818 0.110373
0.576860 0.495637 0.118932
0.644468 0.504880 0.125055
0.708299 0.510645 0.125574
0.768480 0.512393 0.116227
0.824693 0.512989 0.096735
0.872179 0.514066 0.074067
0.913353 0.515531 0.052891
0.952456 0.517171 0.034427
0.984795 0.518820 0.019950
0.987418 0.518621 0.016342
0.266873 0.526513 0.063290
0.348023 0.533124 0.053379
0.410098 0.543772 0.048520
0.440774 0.553589 0.064964
0.472279 0.558699 0.093826
0.526833 0.561284 0.116246
0.595000 0.566781 0.130589
0.663493 0.574532 0.141652
0.727922 0.579495 0.145784
0.788069 0.581436 0.139577
0.843435 0.583695 0.125075
0.889346 0.586509 0.106241
0.928423 0.588704 0.084405
0.965149 0.590212 0.060563
0.986244 0.591380 0.038575
0.987425 0.590960 0.030964
0.277384 0.596645 0.060246
0.358578 0.602606 0.049756
0.431909 0.611231 0.040360
0.478244 0.619349 0.050380
0.508309 0.624684 0.083629
0.549863 0.627912 0.119794
0.610973 0.632703 0.145017
0.679115 0.638856 0.161793
0.744290 0.642039 0.168050
0.804478 0.642606 0.162270
0.859586 0.644941 0.152252
0.905470 0.648999 0.142341
0.944556 0.652338 0.128869
0.978193 0.654282 0.108827
0.987082 0.655269 0.085468
0.987425 0.654853 0.076150
0.278652 0.660668 0.055302
0.359581 0.666292 0.045297
0.438588 0.673945 0.034547
0.499370 0.680735 0.038419
0.538501 0.685913 0.071206
0.574754 0.690263 0.122012
0.627360 0.695401 0.163613
0.692645 0.700207 0.187051
0.758123 0.701531 0.194625
0.818384 0.700135 0.189004
0.872745 0.700666 0.180126
0.918129 0.703879 0.175539
0.957731 0.707238 0.171962
0.984210 0.709419 0.164159
0.987408 0.710474 0.152070
0.987425 0.710078 0.148572
0.275488 0.720406 0.050537
0.356053 0.725987 0.040841
0.437392 0.733337 0.029970
0.506675 0.739517 0.030233
0.556369 0.744443 0.059946
0.594948 0.749481 0.120847
0.642303 0.754911 0.178118
0.703555 0.758712 0.207339
0.768257 0.758734 0.215670
0.828549 0.755830 0.213662
0.882042 0.753824 0.209327
0.925897 0.754435 0.209556
0.964617 0.756038 0.213911
0.985336 0.757192 0.218754
0.987425 0.757629 0.221621
0.987425 0.756725 0.227608
0.271586 0.776553 0.047080
0.351738 0.782287 0.037372
0.433861 0.789808 0.026536
0.507004 0.795797 0.025297
0.563541 0.800572 0.051191
0.606693 0.805702 0.115132
0.652840 0.811092 0.182197
0.711098 0.814259 0.215870
0.774199 0.813509 0.225122
0.833678 0.809567 0.229623
0.885862 0.805253 0.237768
0.927722 0.802864 0.250313
0.964651 0.801966 0.264455
0.985299 0.801480 0.277487
0.987425 0.801007 0.287380
0.987425 0.801259 0.288159
0.268564 0.830358 0.044833
0.348485 0.836273 0.035174
0.430691 0.844123 0.024436
0.505252 0.850247 0.022865
0.565262 0.854982 0.045390
0.612244 0.859977 0.106722
0.659241 0.865152 0.177522
0.715900 0.867944 0.215911
0.777063 0.866666 0.228675
0.834382 0.861694 0.242166
0.884012 0.855306 0.267140
0.923855 0.850494 0.295040
0.959758 0.847816 0.317069
0.984626 0.846449 0.331258
0.987425 0.845727 0.338868
0.987425 0.845561 0.341792
0.266450 0.884220 0.043341
0.346550 0.889972 0.033975
0.428520 0.898000 0.023477
0.503059 0.904269 0.022291
0.564613 0.908957 0.042812
0.614720 0.913767 0.099278
0.663392 0.918545 0.169945
0.719058 0.920888 0.214145
0.777841 0.919012 0.234488
0.831760 0.912899 0.259566
0.878005 0.904854 0.298969
0.916620 0.898849 0.334617
0.953204 0.895855 0.355658
0.983779 0.894770 0.364079
0.987425 0.894573 0.365283
0.987425 0.894267 0.368229
0.266662 0.925044 0.043462
0.349269 0.929457 0.036374
0.430104 0.938315 0.024642
0.503378 0.945249 0.022465
0.565704 0.949908 0.040756
0.616182 0.954981 0.093580
0.665639 0.959589 0.162356
0.719686 0.962140 0.214353
0.777893 0.960375 0.237185
0.830035 0.953266 0.270688
0.874805 0.944222 0.317117
0.914211 0.938433 0.350993
0.951761 0.935615 0.369087
0.983606 0.934658 0.374994
0.987425 0.934659 0.373709
0.987425 0.934800 0.371921
0.000733 0.000000 0.068797
0.042348 0.000000 0.078353
0.095373 0.000000 0.083332
0.158799 0.000000 0.083211
0.226372 0.000000 0.084306
0.295012 0.000000 0.086176
0.367466 0.000000 0.087235
0.442680 0.000000 0.084793
0.516750 0.000000 0.077043
0.587675 0.000000 0.065538
0.655444 0.000000 0.053275
0.713707 0.000000 0.043002
0.763350 0.000000 0.034679
0.808901 0.000000 0.027229
0.855126 0.000000 0.020496
0.886710 0.000000 0.019650
0.001783 0.001866 0.070880
0.049522 0.002108 0.080015
0.107301 0.002230 0.086532
0.175833 0.002301 0.088081
0.246669 0.002496 0.088128
0.314637 0.002708 0.086999
0.383193 0.002850 0.085372
0.454062 0.002886 0.082132
0.525068 0.002676 0.074893
0.594384 0.002091 0.063615
0.661275 0.001242 0.050717
0.718946 0.000449 0.039402
0.768174 0.000053 0.030014
0.813404 0.000000 0.021869
0.859306 0.000000 0.016329
0.890178 0.000000 0.016011
0.009816 0.037000 0.073063
0.065456 0.041379 0.081968
0.128208 0.044014 0.090117
0.203897 0.045406 0.094266
0.282408 0.048504 0.095823
0.354683 0.051818 0.093931
0.421124 0.054087 0.089738
0.484239 0.054876 0.084503
0.546256 0.052193 0.076665
0.609019 0.043926 0.064522
0.672110 0.031487 0.049823
0.727726 0.019652 0.036772
0.775679 0.013162 0.026205
0.820069 0.011342 0.017478
0.864787 0.010454 0.015049
0.895219 0.010342 0.014943
0.033520 0.110401 0.076345
0.091983 0.120318 0.085282
0.153001 0.129400 0.093929
0.229117 0.133612 0.098625
0.313223 0.138119 0.102433
0.393510 0.142791 0.103866
0.465598 0.146333 0.102188
0.527746 0.148961 0.098460
0.583008 0.149476 0.091261
0.636640 0.144864 0.077712
0.691520 0.134820 0.059420
0.741801 0.123748 0.042779
0.786458 0.113954 0.029604
0.828549 0.105565 0.019172
0.870958 0.098899 0.015243
0.901127 0.097852 0.014846
0.070797 0.191252 0.083965
0.133568 0.203810 0.093016
0.187324 0.218485 0.103287
0.254257 0.225870 0.107501
0.336622 0.231879 0.110303
0.420334 0.238949 0.113493
0.498412 0.244929 0.115602
0.566104 0.249303 0.116649
0.624468 0.251264 0.114624
0.676294 0.248387 0.104636
0.724891 0.240396 0.085699
0.768406 0.231211 0.065317
0.807757 0.222867 0.047734
0.845662 0.215293 0.032809
0.883395 0.208772 0.021656
0.910822 0.206319 0.018754
0.119137 0.279040 0.097939
0.191104 0.290288 0.106102
0.240412 0.306644 0.119206
0.291912 0.316342 0.125831
0.364863 0.322985 0.127221
0.445041 0.331721 0.128984
0.522886 0.340984 0.131548
0.593902 0.348753 0.134772
0.657976 0.353222 0.137095
0.715029 0.352000 0.133359
0.765254 0.345258 0.119263
0.806857 0.337573 0.099882
0.843194 0.331204 0.080713
0.877960 0.325616 0.062937
0.911548 0.320502 0.047594
0.937917 0.317600 0.041445
0.170206 0.370070 0.116276
0.252440 0.378621 0.120689
0.307343 0.393618 0.132634
0.345977 0.405019 0.144242
0.403353 0.411749 0.149456
0.475239 0.419250 0.151592
0.548506 0.429399 0.154093
0.618306 0.439992 0.157546
0.683853 0.447274 0.160362
0.744433 0.448227 0.158249
0.798885 0.443144 0.146793
0.843153 0.437019 0.129530
0.880774 0.432806 0.111711
0.916054 0.430138 0.095039
0.950085 0.428087 0.080601
0.974585 0.427429 0.078382
0.213676 0.457405 0.133075
0.299734 0.463752 0.131693
0.366004 0.476079 0.135983
0.403820 0.488095 0.149140
0.445778 0.495659 0.162717
0.505804 0.500937 0.170458
0.574306 0.508748 0.175807
0.642502 0.519479 0.182057
