example_ofxGpuLutCube/bin/data/ofxGpuLutCube/LUT/C32 (bright green fade).cube
LUT_3D_SIZE 6
0.000000 0.000000 0.000000
0.141108 0.000000 0.000000
0.330060 0.000000 0.000000
0.559882 0.000000 0.000000
0.741116 0.000000 0.000000
0.862031 0.000000 0.000000
0.023663 0.114479 0.000000
0.228037 0.133651 0.000000
0.466478 0.141881 0.000000
0.666060 0.143604 0.000000
0.815920 0.134361 0.000000
0.918743 0.124179 0.000000
0.203701 0.349486 0.000000
0.317734 0.383638 0.000327
0.554483 0.398071 0.007875
0.750826 0.416569 0.001784
0.904945 0.428135 0.000000
0.987420 0.432599 0.000000
0.289025 0.588028 0.000000
0.433280 0.606428 0.004503
0.608243 0.618771 0.069257
0.805734 0.627318 0.067202
0.961127 0.637117 0.053905
0.987425 0.641657 0.025181
0.287690 0.767207 0.000000
0.486629 0.787780 0.000000
0.631298 0.803391 0.074867
0.827343 0.796636 0.134461
0.968109 0.790479 0.216388
0.987425 0.788742 0.238585
0.283476 0.915716 0.000000
0.497320 0.936763 0.000000
0.643898 0.953702 0.069538
0.821489 0.937882 0.206897
0.957205 0.932342 0.259837
0.987425 0.932041 0.252881
0.000733 0.000000 0.068797
0.158799 0.000000 0.083211
0.367466 0.000000 0.087235
0.587675 0.000000 0.065538
0.763350 0.000000 0.034679
0.886710 0.000000 0.019650
0.033520 0.110401 0.076345
0.229117 0.133612 0.098625
0.465598 0.146333 0.102188
0.636640 0.144864 0.077712
0.786458 0.113954 0.029604
0.901127 0.097852 0.014846
0.170206 0.370070 0.116276
0.345977 0.405019 0.144242
0.548506 0.429399 0.154093
0.744433 0.448227 0.158249
0.880774 0.432806 0.111711
0.974585 0.427429 0.078382
0.261599 0.604586 0.147730
0.481999 0.625763 0.130992
0.613634 0.645351 0.196712
0.803339 0.659247 0.226502
0.936355 0.659195 0.188024
0.987425 0.659937 0.138757
0.265650 0.783804 0.141925
0.504809 0.799451 0.116192
0.666646 0.813987 0.219319
0.834267 0.816823 0.298976
0.962795 0.809762 0.296332
0.987425 0.811815 0.316140
0.262851 0.933251 0.139466
0.500556 0.948798 0.114258
0.677422 0.959391 0.208670
0.834230 0.960806 0.325503
0.952722 0.940960 0.404377
0.987425 0.939105 0.427813
0.031510 0.000000 0.219186
0.179971 0.000000 0.290590
0.438800 0.000000 0.320891
0.651615 0.000000 0.345296
0.798836 0.000000 0.327606
0.903348 0.000000 0.296989
0.072348 0.122259 0.305886
0.256460 0.150056 0.350019
0.487877 0.159691 0.362659
0.675049 0.145068 0.360584
0.803617 0.109711 0.325264
0.902223 0.080331 0.287997
0.168485 0.401735 0.365100
0.339775 0.432986 0.391930
0.534133 0.453507 0.409609
0.735731 0.470161 0.418734
0.838195 0.435926 0.374503
0.918158 0.409040 0.329231
0.298687 0.661682 0.424648
0.444591 0.653423 0.408686
0.609874 0.672970 0.442509
0.785423 0.694286 0.464553
0.917775 0.694233 0.449921
0.985916 0.669555 0.391514
0.396530 0.847164 0.462815
0.505586 0.817922 0.411526
0.677473 0.822164 0.421712
0.823807 0.841611 0.493101
0.948233 0.837710 0.501130
0.987425 0.833820 0.474507
0.399819 0.992617 0.473057
0.507185 0.962145 0.412741
0.687039 0.958972 0.421500
0.837270 0.969093 0.519418
0.953164 0.962264 0.549866
0.987425 0.962707 0.567724
0.052052 0.000000 0.462141
0.211867 0.000340 0.525887
0.467417 0.000000 0.560831
0.677173 0.000000 0.579279
0.833751 0.000000 0.591932
0.933541 0.000000 0.580085
0.114472 0.110844 0.524186
0.309981 0.165763 0.591509
0.497046 0.169908 0.591737
0.693727 0.136275 0.604445
0.837800 0.119549 0.610459
0.929540 0.110628 0.590850
0.208906 0.399148 0.594328
0.392771 0.459340 0.639861
0.543528 0.457405 0.638874
0.732093 0.454539 0.648897
0.851885 0.424650 0.634284
0.935955 0.416473 0.610482
0.363052 0.669237 0.651836
0.473932 0.683813 0.664766
0.592609 0.691822 0.670231
0.764958 0.711339 0.691476
0.905928 0.708389 0.691962
0.978253 0.674958 0.651242
0.437899 0.856940 0.680801
0.558421 0.854198 0.689418
0.656682 0.847245 0.672891
0.810817 0.858055 0.702154
0.929824 0.868671 0.719246
0.987385 0.862117 0.702344
0.423532 0.998465 0.685826
0.559300 0.997813 0.693171
0.690208 0.971703 0.670817
0.844451 0.970049 0.693562
0.946244 0.971785 0.732414
0.987425 0.974266 0.738786
0.075119 0.000000 0.660761
0.244161 0.000000 0.706580
0.477418 0.000000 0.742195
0.691013 0.000000 0.761061
0.847145 0.000000 0.776745
0.956320 0.000000 0.792024
0.140464 0.048649 0.695902
0.378960 0.142086 0.772535
0.506189 0.159618 0.772175
0.702054 0.114573 0.775702
0.850630 0.090625 0.787949
0.954334 0.103755 0.802503
0.209310 0.341155 0.730093
0.390168 0.417336 0.781208
0.564595 0.466121 0.820066
0.720525 0.412027 0.798531
0.859495 0.406618 0.809890
0.955655 0.414454 0.819179
0.382344 0.657915 0.818196
0.467195 0.647572 0.809175
0.607231 0.688804 0.843241
0.758675 0.687424 0.850249
0.892663 0.677303 0.854867
0.977069 0.658667 0.838165
0.444116 0.852256 0.851461
0.561499 0.846996 0.847513
0.661316 0.854502 0.857315
0.798269 0.870144 0.873850
0.919789 0.878320 0.889295
0.967155 0.868268 0.881986
0.432720 0.998431 0.854483
0.564737 0.998413 0.856719
0.700910 0.993879 0.867963
0.827208 0.971667 0.867820
0.944120 0.972420 0.887700
0.980088 0.976384 0.900801
0.109681 0.000000 0.827531
0.274628 0.000000 0.866909
0.487482 0.000000 0.906132
0.702900 0.000000 0.927798
0.862411 0.000000 0.936628
0.971016 0.000000 0.948724
0.178562 0.017140 0.856715
0.389376 0.070274 0.898264
0.536112 0.141034 0.938246
0.708347 0.098290 0.931845
0.865080 0.094739 0.935883
0.970434 0.099059 0.950777
0.176370 0.316094 0.863743
0.355950 0.333795 0.874901
0.549951 0.423055 0.932255
0.720654 0.404926 0.940639
0.866959 0.395099 0.937140
0.969312 0.399678 0.956027
0.366680 0.656913 0.963805
0.419349 0.608241 0.918675
0.529868 0.603735 0.919337
0.756569 0.662881 0.965606
0.879348 0.624717 0.955291
0.978436 0.626839 0.968643
0.398642 0.847677 0.998429
0.539635 0.840027 0.988784
0.637524 0.815608 0.963859
0.784174 0.833648 0.958380
0.914979 0.845850 0.970074
0.970845 0.833563 0.975446
0.388896 0.997500 0.999565
0.546671 0.994572 0.999534
0.697792 0.981802 0.987413
0.816650 0.967690 0.972377
0.935464 0.972047 0.975858
0.973156 0.981914 0.987035
