example_ofxGpuLutCube/bin/data/ofxGpuLutCube/LUT/C33 (brown magenta fade).cube
LUT_3D_SIZE 16
0.010638 0.021010 0.019149
0.044084 0.025845 0.023977
0.071993 0.029905 0.027765
0.106970 0.035283 0.032943
0.159299 0.043811 0.040992
0.224825 0.054727 0.051358
0.290534 0.065602 0.061595
0.349015 0.074993 0.070525
0.399541 0.082918 0.078036
0.442698 0.089467 0.084218
0.478845 0.094709 0.089183
0.508940 0.098816 0.093078
0.534951 0.102179 0.096257
0.558605 0.105140 0.099035
0.581318 0.107888 0.101689
0.603659 0.110623 0.104241
0.014687 0.044859 0.023185
0.052051 0.052608 0.022334
0.078544 0.049958 0.027016
0.109505 0.054800 0.034820
0.161663 0.063316 0.043106
0.227128 0.074161 0.053386
0.292872 0.084946 0.063622
0.351359 0.094338 0.072552
0.401890 0.102216 0.080060
0.445052 0.108723 0.086243
0.481177 0.113961 0.091208
0.511306 0.118044 0.095103
0.537256 0.121429 0.098283
0.560910 0.124307 0.101061
0.583700 0.127061 0.103710
0.606046 0.129785 0.106262
0.019367 0.071337 0.027600
0.053678 0.078926 0.026664
0.092818 0.083012 0.022613
0.122309 0.077970 0.031068
0.165813 0.084708 0.044663
0.229878 0.095655 0.055779
0.295629 0.106378 0.066046
0.354109 0.115686 0.074975
0.404647 0.123558 0.082451
0.447809 0.130065 0.088634
0.483935 0.135248 0.093592
0.514061 0.139326 0.097487
0.540078 0.142689 0.100666
0.563669 0.145628 0.103434
0.586460 0.148386 0.106097
0.608800 0.151045 0.108650
0.024805 0.100551 0.032730
0.058467 0.106213 0.033881
0.095815 0.117916 0.023656
0.140302 0.113863 0.025099
0.181824 0.109796 0.039618
0.235717 0.119008 0.057044
0.298860 0.129973 0.068853
0.357336 0.139262 0.077739
0.407877 0.147093 0.085241
0.451038 0.153582 0.091392
0.487166 0.158742 0.096358
0.517290 0.162825 0.100254
0.543249 0.166135 0.103434
0.566902 0.169069 0.106213
0.589682 0.171827 0.108852
0.612027 0.174473 0.111404
0.033197 0.140818 0.040484
0.066487 0.144748 0.043549
0.097429 0.157872 0.031349
0.152329 0.167321 0.024917
0.210161 0.156926 0.030050
0.260860 0.153213 0.049038
0.313530 0.161203 0.067190
0.364482 0.170839 0.080618
0.412967 0.178910 0.089351
0.455927 0.185371 0.095645
0.492068 0.190523 0.100589
0.522172 0.194606 0.104490
0.548185 0.197897 0.107657
0.571843 0.200769 0.110439
0.594557 0.203518 0.113036
0.616898 0.206165 0.115588
0.045537 0.197461 0.052245
0.078483 0.201011 0.055438
0.106803 0.210345 0.048055
0.153718 0.227904 0.031672
0.236080 0.235526 0.026347
0.304138 0.220333 0.034564
0.354303 0.213400 0.053847
0.400785 0.216426 0.069825
0.441751 0.222206 0.083036
0.477012 0.228442 0.093958
0.507075 0.233936 0.102530
0.534708 0.238150 0.107870
0.559348 0.241538 0.111878
0.582016 0.244468 0.115207
0.603510 0.247429 0.118578
0.624824 0.250223 0.121730
0.061134 0.269524 0.067765
0.094562 0.272668 0.070726
0.124590 0.277067 0.070045
0.161582 0.295583 0.052063
0.240905 0.320448 0.030156
0.343126 0.323577 0.028185
0.413103 0.306814 0.034262
0.456986 0.294081 0.051322
0.496384 0.290923 0.065215
0.530671 0.291488 0.076591
0.560132 0.293394 0.085454
0.584891 0.295590 0.092534
0.607181 0.297665 0.097739
0.627027 0.299872 0.102827
0.646342 0.302024 0.107470
0.665128 0.304405 0.112262
0.078746 0.347006 0.084526
0.112289 0.349875 0.087215
0.143543 0.352356 0.089053
0.177759 0.366993 0.076172
0.243627 0.395924 0.048221
0.351164 0.419583 0.031382
0.452297 0.419244 0.029804
0.520655 0.405513 0.030843
0.560309 0.389483 0.044173
0.593310 0.380945 0.055956
0.621699 0.376887 0.065294
0.645924 0.375087 0.072563
0.667329 0.374311 0.078313
0.687280 0.374458 0.083769
0.706376 0.375386 0.089945
0.725398 0.376502 0.095762
0.095873 0.420753 0.100507
0.129328 0.423306 0.102876
0.160732 0.425611 0.104957
0.196537 0.434908 0.099255
0.252819 0.464265 0.070486
0.351383 0.498574 0.038510
0.461040 0.511875 0.035464
0.548921 0.510130 0.032533
0.616428 0.502510 0.027935
0.657217 0.489190 0.035761
0.685500 0.479000 0.047830
0.710063 0.474009 0.058744
0.732310 0.471373 0.067280
0.753107 0.469909 0.074400
0.772229 0.468877 0.081975
0.791806 0.468502 0.088749
0.111062 0.486793 0.114502
0.144520 0.489263 0.116786
0.175969 0.491561 0.118822
0.214269 0.496537 0.118874
0.265045 0.525577 0.090508
0.353162 0.561768 0.055685
0.462729 0.588862 0.034021
0.558663 0.595339 0.040356
0.635099 0.596045 0.041524
0.697768 0.594997 0.041116
0.744591 0.591419 0.043870
0.774242 0.584323 0.051654
0.795965 0.577465 0.060307
0.815464 0.572317 0.068284
0.834707 0.568382 0.075574
0.854042 0.565405 0.082253
0.124318 0.545067 0.126534
0.157776 0.547508 0.128822
0.189310 0.549805 0.130880
0.228079 0.553820 0.132244
0.277663 0.579343 0.108442
0.358156 0.616362 0.072516
0.463781 0.652577 0.044532
0.564437 0.669574 0.048610
0.648745 0.678272 0.058815
0.713373 0.679166 0.060472
0.765158 0.678398 0.060145
0.807587 0.677730 0.059893
0.842393 0.676401 0.060507
0.870648 0.673680 0.062893
0.890702 0.667437 0.069577
0.909851 0.661732 0.076172
0.135530 0.595463 0.136735
0.168994 0.597934 0.138999
0.200525 0.600150 0.141056
0.239863 0.603512 0.143423
0.289377 0.626114 0.123525
0.366499 0.665468 0.091799
0.467562 0.705914 0.066914
0.569278 0.733647 0.056069
0.654254 0.743038 0.066991
0.725315 0.750222 0.075362
0.778379 0.750668 0.076399
0.820867 0.750006 0.076122
0.856908 0.749469 0.075915
0.889361 0.748989 0.075732
0.920420 0.748550 0.075548
0.949520 0.747385 0.076320
0.144661 0.637946 0.145086
0.178207 0.640399 0.147285
0.209745 0.642633 0.149397
0.249308 0.645620 0.152122
0.301381 0.667402 0.139278
0.376731 0.709682 0.111464
0.472449 0.749856 0.086708
0.571811 0.782841 0.068303
0.658201 0.796620 0.073031
0.729813 0.804362 0.082031
0.788367 0.810130 0.088722
0.831671 0.810271 0.089353
0.867729 0.809787 0.089094
0.900180 0.809332 0.088911
0.931241 0.808877 0.088799
0.961698 0.808424 0.088634
0.152119 0.673685 0.151800
0.185666 0.676156 0.154010
0.217224 0.678393 0.156141
0.258231 0.683261 0.161210
0.313644 0.703747 0.156005
0.385825 0.746225 0.128004
0.477664 0.786759 0.102808
0.573717 0.821418 0.082057
0.661375 0.841324 0.077966
0.732978 0.849096 0.086884
0.791999 0.855294 0.094059
0.839817 0.859914 0.099401
0.876488 0.859917 0.099732
0.908941 0.859446 0.099549
0.940000 0.859006 0.099438
0.970457 0.858549 0.099260
0.158402 0.705004 0.157444
0.192257 0.707871 0.160227
0.225482 0.712214 0.164931
0.267357 0.718066 0.171367
0.324039 0.736289 0.169474
0.393984 0.778492 0.141717
0.482766 0.819177 0.116172
0.575642 0.853592 0.095610
0.663788 0.879441 0.083235
0.735660 0.887958 0.091006
0.794685 0.894130 0.098131
0.842805 0.899055 0.103816
0.883484 0.902949 0.108278
0.916324 0.902874 0.108509
0.947393 0.902424 0.108331
0.977851 0.901971 0.108231
0.165031 0.735174 0.164053
0.200414 0.739929 0.169268
0.233776 0.744355 0.174143
0.275650 0.750206 0.180573
0.333879 0.765779 0.182212
0.401706 0.808109 0.154196
0.487899 0.848924 0.128359
0.578307 0.884149 0.106969
0.665284 0.912331 0.090892
0.738089 0.923696 0.094697
0.797061 0.929890 0.101872
0.845247 0.934760 0.107475
0.885980 0.938767 0.112055
0.922484 0.942192 0.116029
0.954058 0.942240 0.116366
0.984433 0.941869 0.116271
0.011885 0.022535 0.044072
0.048710 0.026668 0.050973
0.076786 0.030893 0.051402
0.108808 0.036973 0.055344
0.161180 0.045803 0.063540
0.226913 0.056932 0.074001
0.292927 0.068051 0.084506
0.351604 0.077711 0.093617
0.402358 0.085820 0.101264
0.445661 0.092469 0.107588
0.481883 0.097833 0.112647
0.512125 0.102090 0.116636
0.538231 0.105548 0.119910
0.561907 0.108521 0.122777
0.584710 0.111363 0.125442
0.607134 0.114186 0.128001
0.016091 0.045441 0.047267
0.051707 0.051473 0.053013
0.079677 0.055416 0.056566
0.114932 0.060916 0.061714
0.167599 0.069605 0.069930
0.233200 0.080501 0.080245
0.299008 0.091297 0.090438
0.357460 0.100700 0.099290
0.408043 0.108551 0.106766
0.451211 0.115069 0.112918
0.487364 0.120272 0.117883
0.517466 0.124388 0.121783
0.543483 0.127752 0.124964
0.567143 0.130703 0.127736
0.589863 0.133462 0.130323
0.612204 0.136120 0.132876
0.020728 0.071330 0.051715
0.056240 0.077827 0.057070
0.089076 0.080955 0.055777
0.119202 0.082980 0.063994
0.170583 0.091425 0.072618
0.236113 0.102150 0.082824
0.301904 0.112871 0.092972
0.360419 0.122175 0.101813
0.410954 0.130042 0.109266
0.454070 0.136472 0.115412
0.490214 0.141702 0.120366
0.520314 0.145785 0.124241
0.546326 0.149095 0.127426
0.569981 0.152044 0.130144
0.592695 0.154788 0.132783
0.615112 0.157451 0.135335
0.026056 0.100582 0.057107
0.061218 0.106787 0.062234
0.094545 0.115945 0.055907
0.135912 0.112693 0.058693
0.178250 0.114978 0.072745
0.239455 0.125748 0.085550
0.305133 0.136418 0.095735
0.363577 0.145707 0.104605
0.414143 0.153500 0.112037
0.457300 0.159984 0.118169
0.493443 0.165145 0.123120
0.523545 0.169227 0.126997
0.549557 0.172541 0.130127
0.573214 0.175471 0.132898
0.595928 0.178227 0.135537
0.618269 0.180874 0.138089
0.034110 0.141181 0.064854
0.068884 0.146869 0.070073
0.098704 0.154335 0.065682
0.150704 0.165620 0.056648
0.205239 0.156289 0.063914
0.256683 0.157863 0.082383
0.312505 0.168104 0.098512
0.368671 0.177506 0.108723
0.419050 0.185345 0.116266
0.462213 0.191763 0.122381
0.498336 0.196878 0.127304
0.528484 0.200941 0.131192
0.554484 0.204298 0.134355
0.578131 0.207170 0.137124
0.600869 0.209918 0.139718
0.623209 0.212565 0.142250
0.046185 0.198095 0.076434
0.080872 0.203364 0.081561
0.111307 0.207187 0.081780
0.153160 0.224814 0.065359
0.233984 0.233657 0.058333
0.299048 0.219419 0.068459
0.349941 0.216207 0.087121
0.396763 0.221476 0.102835
0.437883 0.228730 0.115959
0.475127 0.235369 0.125536
0.509156 0.240579 0.131711
0.537658 0.244814 0.136568
0.562490 0.248274 0.140382
0.585602 0.251234 0.143476
0.608345 0.253953 0.146100
0.630685 0.256596 0.148596
0.061778 0.270164 0.091849
0.097002 0.275109 0.096664
0.128185 0.277615 0.098536
0.164027 0.291928 0.086269
0.239515 0.318064 0.062868
0.340993 0.321693 0.060146
0.407918 0.304725 0.068065
0.452042 0.294576 0.084971
0.491733 0.293185 0.098606
0.526523 0.294940 0.109500
0.555801 0.297718 0.118540
0.581112 0.300434 0.125134
0.603019 0.303026 0.130676
0.623083 0.305518 0.135577
0.642232 0.308114 0.140430
0.661539 0.310663 0.144697
0.079473 0.347644 0.108557
0.114754 0.352296 0.113111
0.146159 0.354612 0.115159
0.182623 0.363224 0.110431
0.243701 0.392588 0.082151
0.349760 0.418072 0.062855
0.450854 0.417678 0.061305
0.516177 0.402962 0.064327
0.555027 0.387931 0.077991
0.588323 0.380751 0.089534
0.616773 0.377668 0.098766
0.641207 0.376529 0.105816
0.662828 0.376302 0.111451
0.682860 0.377124 0.117313
0.702432 0.378433 0.123096
0.721767 0.379924 0.128688
0.096517 0.421391 0.124399
0.131798 0.425776 0.128648
0.163244 0.428031 0.130762
0.201748 0.432701 0.131278
0.254738 0.460914 0.104280
0.350036 0.495780 0.071820
0.459614 0.510411 0.066901
0.547503 0.508619 0.063992
0.613330 0.500156 0.060557
0.652123 0.486616 0.070063
0.680375 0.477455 0.082455
0.705647 0.473330 0.092782
0.727688 0.471219 0.101522
0.748170 0.470130 0.108864
0.767915 0.469658 0.115904
0.787861 0.469660 0.122303
0.111931 0.487573 0.138492
0.146990 0.491730 0.142469
0.178486 0.493979 0.144579
0.217523 0.497620 0.146435
0.268356 0.521749 0.124679
0.352718 0.558533 0.089417
0.461151 0.586891 0.066184
0.557506 0.594188 0.072191
0.634090 0.595130 0.073706
0.696717 0.594081 0.073320
0.741759 0.589617 0.077197
0.769475 0.581737 0.085939
0.790824 0.575219 0.094875
0.810570 0.570601 0.102608
0.830202 0.567175 0.109456
0.849409 0.564450 0.116254
0.125287 0.546003 0.150708
0.160247 0.549971 0.154494
0.191784 0.552195 0.156560
0.231237 0.555236 0.159271
0.281872 0.575894 0.142205
0.358695 0.612745 0.106509
0.462525 0.650006 0.078624
0.563432 0.668658 0.080663
0.647697 0.677356 0.090745
0.712320 0.678277 0.092399
0.764112 0.677482 0.092112
0.806583 0.676814 0.091839
0.840116 0.674799 0.093203
0.866903 0.671347 0.096479
0.886128 0.664854 0.103487
0.905066 0.659355 0.110294
0.136682 0.596610 0.161003
0.171547 0.600336 0.164614
0.203062 0.602608 0.166700
0.242559 0.605593 0.169436
0.294363 0.622621 0.157333
0.368253 0.662535 0.126275
0.466812 0.702968 0.101573
0.567989 0.732051 0.088977
0.653204 0.742122 0.098854
0.724244 0.749308 0.107182
0.777371 0.749752 0.108222
0.819851 0.749091 0.107947
0.855903 0.748557 0.107746
0.888356 0.748094 0.107564
0.919415 0.747638 0.107381
0.947662 0.745973 0.108559
0.145996 0.639187 0.169466
0.180683 0.642798 0.172892
0.212286 0.645072 0.174984
0.251808 0.648075 0.177743
0.307326 0.664305 0.173742
0.379219 0.706624 0.145996
0.472391 0.747187 0.120956
0.570686 0.781155 0.101367
0.657152 0.795703 0.104871
0.728763 0.803446 0.113754
0.787345 0.809215 0.120443
0.830644 0.809378 0.121032
0.866723 0.808872 0.120827
0.899174 0.808416 0.120647
0.930234 0.807961 0.120527
0.960671 0.807508 0.120349
0.153549 0.675110 0.176269
0.188142 0.678537 0.179596
0.219763 0.680920 0.181750
0.261203 0.686187 0.187498
0.319968 0.701165 0.190152
0.388901 0.743054 0.162628
0.478118 0.784292 0.136763
0.572576 0.818884 0.116171
0.660326 0.840410 0.109731
0.731942 0.848180 0.118599
0.790938 0.854378 0.125696
0.838808 0.859002 0.131036
0.875482 0.859011 0.131442
0.907926 0.858541 0.131259
0.938990 0.858095 0.131080
0.969446 0.857709 0.130898
0.159932 0.706523 0.182002
0.195231 0.710851 0.186500
0.228492 0.715218 0.191239
0.270355 0.721081 0.197664
0.330412 0.733904 0.203072
0.397457 0.775437 0.176215
0.483659 0.816742 0.150094
0.574947 0.851290 0.129401
0.662361 0.877485 0.116329
0.734619 0.887040 0.122670
0.793619 0.893214 0.129782
0.841797 0.898118 0.135359
0.882397 0.902033 0.139837
0.915314 0.901959 0.140129
0.946378 0.901518 0.139951
0.976763 0.901137 0.139775
0.167015 0.737245 0.189340
0.203422 0.742948 0.195580
0.236714 0.747358 0.200374
0.278582 0.753154 0.206803
0.338992 0.765326 0.213171
0.405525 0.805038 0.188621
0.489062 0.846256 0.162420
0.577810 0.881400 0.141105
0.663748 0.909794 0.124731
0.737078 0.922747 0.126324
0.796052 0.928973 0.133492
0.844177 0.933844 0.139034
0.884969 0.937851 0.143609
0.921473 0.941281 0.147566
0.952970 0.941330 0.147904
0.983427 0.940954 0.147804
0.012181 0.022996 0.066597
0.048568 0.027955 0.072681
0.084213 0.029935 0.079152
0.117071 0.036160 0.078164
0.162846 0.046212 0.083571
0.227490 0.057481 0.093795
0.293484 0.068598 0.104214
0.352236 0.078261 0.113275
0.402951 0.086370 0.120887
0.446244 0.093066 0.127206
0.482515 0.098438 0.132262
0.512678 0.102640 0.136247
0.538781 0.106097 0.139521
0.562529 0.109076 0.142306
0.585337 0.111913 0.144981
0.607695 0.114736 0.147611
0.017391 0.047107 0.070563
0.052749 0.052349 0.075978
0.086455 0.054878 0.081371
0.117807 0.061233 0.082264
0.168288 0.070300 0.089843
0.234086 0.081339 0.100241
0.300102 0.092364 0.110656
0.358776 0.101938 0.119717
0.409532 0.110043 0.127329
0.452869 0.116686 0.133641
0.489140 0.122050 0.138652
0.519306 0.126222 0.142633
0.545406 0.129680 0.145877
0.569154 0.132658 0.148747
0.591962 0.135495 0.151406
0.614314 0.138230 0.153965
0.021902 0.072051 0.073976
0.057312 0.078222 0.079868
0.088108 0.083077 0.084151
0.123091 0.088258 0.089163
0.175746 0.096843 0.097228
0.241499 0.107710 0.107589
0.307323 0.118460 0.117709
0.365863 0.127789 0.126505
0.416427 0.135604 0.133969
0.459603 0.142132 0.140102
0.495747 0.147323 0.145021
0.525887 0.151412 0.148904
0.551903 0.154777 0.152043
0.575513 0.157671 0.154813
0.598301 0.160431 0.157400
0.620657 0.163155 0.159941
0.027309 0.100509 0.079053
0.062225 0.106975 0.085013
0.094274 0.113125 0.086823
0.132000 0.113980 0.089530
0.179903 0.120905 0.100157
0.244991 0.131609 0.110627
0.310794 0.142247 0.120715
0.369245 0.151508 0.129485
0.419846 0.159329 0.136923
0.462970 0.165757 0.143037
0.499135 0.170933 0.147937
0.529262 0.175000 0.151815
0.555226 0.178363 0.154925
0.578880 0.181236 0.157692
0.601653 0.183984 0.160268
0.623997 0.186631 0.162818
0.035271 0.141140 0.087315
0.069639 0.147465 0.092702
0.101923 0.152287 0.095684
0.148848 0.163733 0.086353
0.201029 0.157152 0.094833
0.254545 0.163310 0.112045
0.316163 0.174012 0.124638
0.374183 0.183324 0.133724
0.424743 0.191101 0.141114
0.467901 0.197519 0.147225
0.504041 0.202670 0.152121
0.534147 0.206691 0.155978
0.560161 0.210051 0.159114
0.583811 0.212926 0.161882
0.606533 0.215652 0.164450
0.628877 0.218297 0.166999
0.047178 0.198280 0.099081
0.081700 0.204193 0.104240
0.114134 0.208151 0.107650
0.153536 0.221907 0.096396
0.232092 0.232093 0.087691
0.294630 0.219397 0.099404
0.346194 0.219723 0.117654
0.393320 0.227017 0.133194
0.437120 0.234811 0.144578
0.477820 0.241284 0.152104
0.511991 0.246676 0.158231
0.541622 0.250809 0.162313
0.567635 0.254090 0.165490
0.591287 0.256958 0.168256
0.614012 0.259698 0.170833
0.636353 0.262340 0.173323
0.062410 0.270747 0.114214
0.098012 0.276139 0.119500
0.130501 0.279689 0.122896
0.167495 0.288616 0.117834
0.238241 0.315504 0.093479
0.338968 0.320003 0.089540
0.403170 0.303294 0.099207
0.447858 0.295582 0.115655
0.487961 0.295817 0.128950
0.522678 0.298697 0.140020
0.552420 0.302156 0.148597
0.577487 0.305431 0.155431
0.599475 0.308433 0.160942
0.619819 0.311179 0.165602
0.639159 0.313995 0.170217
0.658493 0.316716 0.174458
0.080028 0.348194 0.130869
0.116064 0.353570 0.136109
0.148398 0.356804 0.139196
0.186942 0.361553 0.139728
0.244281 0.389292 0.113579
0.348389 0.416424 0.092221
0.448882 0.415947 0.090645
0.512355 0.400923 0.094813
0.550547 0.386945 0.108818
0.583974 0.380944 0.120251
0.612634 0.378750 0.129351
0.637182 0.378276 0.136300
0.658637 0.378671 0.142301
0.679102 0.380025 0.148096
0.698707 0.381656 0.153836
0.718268 0.383493 0.159104
0.097150 0.421940 0.146707
0.133323 0.427251 0.151882
0.165479 0.430263 0.154680
0.204556 0.433787 0.156725
0.257129 0.457526 0.135735
0.348915 0.492955 0.102679
0.458387 0.509069 0.095765
0.546227 0.507291 0.092867
0.610214 0.497934 0.090642
0.647445 0.484411 0.101566
0.676358 0.476426 0.113674
0.701670 0.473045 0.124155
0.723839 0.471405 0.132736
0.744062 0.470722 0.140300
0.764336 0.470632 0.146879
0.784046 0.471001 0.153437
0.112492 0.488122 0.160719
0.148730 0.493380 0.165836
0.180720 0.496169 0.168442
0.220248 0.499198 0.171227
0.271931 0.518689 0.155818
0.352640 0.555573 0.120457
0.459689 0.584910 0.095995
0.556421 0.593184 0.101463
0.633161 0.594307 0.103261
0.695285 0.592967 0.103168
0.738985 0.587911 0.107805
0.765132 0.579520 0.117475
0.786401 0.573406 0.126487
0.806356 0.569234 0.133995
0.825617 0.566104 0.141137
0.844715 0.563717 0.148105
0.125924 0.546580 0.172907
0.162188 0.551820 0.178052
0.194011 0.554387 0.180432
0.233540 0.557400 0.183167
0.286509 0.572348 0.173728
0.359604 0.610002 0.137604
0.461458 0.647674 0.110041
0.562516 0.667831 0.110148
0.646751 0.676539 0.120185
0.711387 0.677455 0.121866
0.763178 0.676655 0.121527
0.805667 0.675989 0.121295
0.838066 0.673357 0.123324
0.863020 0.668950 0.127547
0.881617 0.662472 0.135055
0.900014 0.657062 0.142381
0.137314 0.597160 0.183185
0.173622 0.602387 0.188306
0.205277 0.604797 0.190546
0.244840 0.607786 0.193304
0.299673 0.619176 0.189006
0.370290 0.659666 0.158295
0.466357 0.700340 0.133411
0.566845 0.730643 0.119282
0.652290 0.741294 0.128245
0.723329 0.748476 0.136520
0.776431 0.748936 0.137526
0.818864 0.748273 0.137305
0.854987 0.747735 0.137060
0.887438 0.747274 0.136936
0.918402 0.746761 0.136810
0.945637 0.744578 0.138576
0.146629 0.639737 0.191636
0.182869 0.644900 0.196625
0.214496 0.647207 0.198801
0.254150 0.650351 0.201659
0.312987 0.661984 0.205053
0.381896 0.703666 0.178099
0.472554 0.744512 0.152739
0.569518 0.778956 0.132696
0.656201 0.794868 0.134219
0.727847 0.802614 0.143045
0.786405 0.808397 0.149704
0.829679 0.808555 0.150301
0.865805 0.808046 0.150106
0.898251 0.807590 0.149935
0.929319 0.807136 0.149751
0.959760 0.806692 0.149569
0.154183 0.675659 0.198439
0.190350 0.680653 0.203338
0.222174 0.683263 0.205798
0.263860 0.688898 0.211896
0.324369 0.700921 0.218461
0.392015 0.740663 0.194134
0.478715 0.781597 0.168553
0.571602 0.816283 0.147925
0.659367 0.839572 0.139045
0.731026 0.847327 0.147890
0.789998 0.853551 0.154969
0.837864 0.858175 0.160256
0.874567 0.858192 0.160639
0.907010 0.857732 0.160465
0.938074 0.857273 0.160283
0.968460 0.856883 0.160101
0.160560 0.707072 0.204171
0.197792 0.713481 0.210830
0.231140 0.717886 0.215690
0.273019 0.723754 0.222059
0.333955 0.734916 0.229625
0.401008 0.772654 0.208016
0.484580 0.813882 0.181899
0.574285 0.848865 0.160887
0.661204 0.876045 0.146562
0.733703 0.886174 0.151952
0.792675 0.892394 0.158983
0.840861 0.897293 0.164562
0.881481 0.901155 0.169015
0.914402 0.901156 0.169255
0.945390 0.900696 0.169143
0.975847 0.900311 0.168977
0.168014 0.738256 0.212142
0.205993 0.745525 0.219943
0.239372 0.750027 0.224824
0.281251 0.755870 0.231169
0.342556 0.766462 0.239562
0.409302 0.802676 0.220012
0.490401 0.843634 0.194104
0.577396 0.878822 0.172664
0.662486 0.907597 0.156023
0.736110 0.921922 0.155562
0.795132 0.928099 0.162638
0.843261 0.933025 0.168215
0.883970 0.937026 0.172786
0.920475 0.940459 0.176691
0.952054 0.940580 0.177095
0.982511 0.940138 0.176924
0.012801 0.023528 0.090410
0.049351 0.029347 0.096021
0.085046 0.030573 0.106506
0.127494 0.034670 0.108165
0.172677 0.045253 0.107632
0.229789 0.057812 0.114978
0.294144 0.069212 0.125054
0.352821 0.078846 0.134150
0.403570 0.086978 0.141709
0.446871 0.093669 0.148033
0.483171 0.099035 0.153033
0.513349 0.103277 0.156992
0.539437 0.106697 0.160267
0.563123 0.109720 0.163050
0.585927 0.112564 0.165716
0.608357 0.115304 0.168339
0.017795 0.047762 0.094511
0.053783 0.053544 0.100229
0.087261 0.055525 0.107918
0.128197 0.059935 0.109747
0.173328 0.070230 0.111920
0.234860 0.081947 0.121182
0.300758 0.093020 0.131501
0.359430 0.102592 0.140503
0.410186 0.110651 0.148151
0.453499 0.117340 0.154386
0.489730 0.122633 0.159444
0.519958 0.126878 0.163413
0.546063 0.130279 0.166633
0.569753 0.133303 0.169470
0.592556 0.136142 0.172131
0.614966 0.138881 0.174709
0.023968 0.074363 0.098999
0.058157 0.079391 0.104137
0.090518 0.083524 0.109633
0.129005 0.088195 0.112758
0.177170 0.097625 0.118529
0.242493 0.108714 0.128784
0.308562 0.119681 0.139109
0.367249 0.129168 0.148121
0.418002 0.137228 0.155690
0.461310 0.143830 0.161987
0.497600 0.149164 0.166978
0.527785 0.153357 0.170951
0.553875 0.156753 0.174171
0.577617 0.159781 0.177004
0.600422 0.162552 0.179665
0.622795 0.165278 0.182224
0.028461 0.101491 0.102697
0.063398 0.107673 0.108607
0.095616 0.113128 0.113763
0.133309 0.118321 0.118501
0.185082 0.126828 0.126653
0.250737 0.137531 0.136785
0.316585 0.148177 0.146856
0.375073 0.157455 0.155637
0.425706 0.165286 0.163034
0.468856 0.171734 0.169164
0.505048 0.176926 0.174091
0.535176 0.181010 0.177916
0.561161 0.184376 0.181107
0.584829 0.187274 0.183824
0.607611 0.190022 0.186467
0.629956 0.192686 0.188946
0.036610 0.141035 0.110639
0.070817 0.147449 0.116444
0.103638 0.153155 0.121420
0.147113 0.161872 0.118169
0.197171 0.160516 0.127517
0.257042 0.169826 0.140930
0.321936 0.180460 0.151537
0.380433 0.189699 0.160256
0.430995 0.197447 0.167625
0.474153 0.203862 0.173736
0.510294 0.209001 0.178612
0.540400 0.213040 0.182440
0.566412 0.216371 0.185597
0.590070 0.219243 0.188307
0.612783 0.221987 0.190927
0.635137 0.224633 0.193423
0.048392 0.198217 0.122868
0.082547 0.204581 0.128165
0.116002 0.209755 0.132879
0.155560 0.218693 0.129701
0.230077 0.230572 0.119001
0.290022 0.220559 0.132409
0.342404 0.224840 0.150168
0.392657 0.233526 0.163819
0.440140 0.241359 0.173021
0.481694 0.247939 0.180025
0.517770 0.253075 0.184929
0.547881 0.257099 0.188794
0.573888 0.260421 0.191915
0.597546 0.263287 0.194666
0.620260 0.265955 0.197240
0.642612 0.268600 0.199722
0.063495 0.270843 0.138249
0.098707 0.276776 0.143336
0.132519 0.281645 0.148040
0.171715 0.286863 0.149173
0.237252 0.312656 0.126223
0.336851 0.318284 0.120902
0.398270 0.302366 0.132273
0.443407 0.297462 0.148434
0.483600 0.299504 0.161785
0.518732 0.303544 0.172471
0.548553 0.307841 0.181081
0.573756 0.311668 0.187775
0.595923 0.315107 0.193224
0.616676 0.318037 0.197554
0.637412 0.320883 0.201424
0.658577 0.323537 0.204582
0.080739 0.348840 0.154646
0.116763 0.354215 0.159930
0.150596 0.359028 0.164565
0.189986 0.362801 0.166931
0.245630 0.386013 0.146922
0.346828 0.414443 0.123820
0.446673 0.414013 0.122058
0.507809 0.398743 0.127656
