example_ofxGpuLutCube/bin/data/ofxGpuLutCube/LUT/C33 (brown magenta fade).cube
LUT_3D_SIZE 6
0.010638 0.021010 0.019149
0.106970 0.035283 0.032943
0.290534 0.065602 0.061595
0.442698 0.089467 0.084218
0.534951 0.102179 0.096257
0.603659 0.110623 0.104241
0.024805 0.100551 0.032730
0.140302 0.113863 0.025099
0.298860 0.129973 0.068853
0.451038 0.153582 0.091392
0.543249 0.166135 0.103434
0.612027 0.174473 0.111404
0.061134 0.269524 0.067765
0.161582 0.295583 0.052063
0.413103 0.306814 0.034262
0.530671 0.291488 0.076591
0.607181 0.297665 0.097739
0.665128 0.304405 0.112262
0.111062 0.486793 0.114502
0.214269 0.496537 0.118874
0.462729 0.588862 0.034021
0.697768 0.594997 0.041116
0.795965 0.577465 0.060307
0.854042 0.565405 0.082253
0.144661 0.637946 0.145086
0.249308 0.645620 0.152122
0.472449 0.749856 0.086708
0.729813 0.804362 0.082031
0.867729 0.809787 0.089094
0.961698 0.808424 0.088634
0.165031 0.735174 0.164053
0.275650 0.750206 0.180573
0.487899 0.848924 0.128359
0.738089 0.923696 0.094697
0.885980 0.938767 0.112055
0.984433 0.941869 0.116271
0.012801 0.023528 0.090410
0.127494 0.034670 0.108165
0.294144 0.069212 0.125054
0.446871 0.093669 0.148033
0.539437 0.106697 0.160267
0.608357 0.115304 0.168339
0.028461 0.101491 0.102697
0.133309 0.118321 0.118501
0.316585 0.148177 0.146856
0.468856 0.171734 0.169164
0.561161 0.184376 0.181107
0.629956 0.192686 0.188946
0.063495 0.270843 0.138249
0.171715 0.286863 0.149173
0.398270 0.302366 0.132273
0.518732 0.303544 0.172471
0.595923 0.315107 0.193224
0.658577 0.323537 0.204582
0.113154 0.488779 0.184422
0.222712 0.501610 0.196705
0.458117 0.582786 0.127727
0.693381 0.591519 0.135308
0.781498 0.571620 0.160405
0.840365 0.563403 0.181478
0.147302 0.640393 0.215213
0.256691 0.652848 0.227214
0.472976 0.741794 0.186670
0.726806 0.801682 0.174426
0.864768 0.807128 0.181454
0.958720 0.805817 0.180923
0.169142 0.739391 0.236375
0.284193 0.758837 0.257239
0.492174 0.840770 0.228033
0.735068 0.921012 0.186897
0.882986 0.936090 0.203972
0.981471 0.939193 0.208154
0.020993 0.031719 0.224648
0.129012 0.041602 0.244783
0.359387 0.061800 0.271683
0.488647 0.091442 0.270385
0.569178 0.106725 0.277002
0.630546 0.116546 0.282512
0.033365 0.108023 0.235088
0.143326 0.125037 0.252108
0.360563 0.146338 0.277616
0.490539 0.174949 0.285107
0.572834 0.189461 0.294515
0.638739 0.198356 0.301781
0.071502 0.272357 0.266176
0.182442 0.291390 0.284284
0.381843 0.321434 0.312890
0.532487 0.344597 0.335842
0.624851 0.357004 0.347590
0.693668 0.365158 0.355336
0.120728 0.489771 0.314686
0.231774 0.509139 0.330928
0.450445 0.566112 0.316824
0.673002 0.579602 0.325274
0.750711 0.568412 0.356531
0.811225 0.570710 0.376738
0.153572 0.642769 0.345490
0.267966 0.664173 0.364947
0.487188 0.722021 0.386400
0.719825 0.795519 0.355367
0.857905 0.801074 0.362330
0.948110 0.797650 0.364065
0.178040 0.745742 0.371109
0.295952 0.770809 0.395507
0.517137 0.821176 0.427153
0.726857 0.910447 0.373563
0.875998 0.929927 0.384345
0.974627 0.933147 0.388545
0.032606 0.043421 0.403284
0.136654 0.054620 0.413220
0.383699 0.063889 0.487431
0.583741 0.078775 0.501190
0.677928 0.092169 0.494477
0.737640 0.103387 0.487900
0.041737 0.116384 0.410879
0.154348 0.136372 0.429276
0.392659 0.146854 0.493717
0.592027 0.161669 0.507787
0.678600 0.176681 0.498359
0.738658 0.187484 0.493823
0.082637 0.286587 0.445095
0.189926 0.300735 0.459718
0.416190 0.328039 0.507385
0.602360 0.344890 0.520211
0.682005 0.360759 0.516774
0.744847 0.372426 0.521091
0.131409 0.491942 0.482403
0.243255 0.510498 0.500148
0.468475 0.557345 0.546302
0.641882 0.592366 0.583515
0.738739 0.611754 0.604486
0.811581 0.624547 0.617702
0.168072 0.642772 0.516445
0.284842 0.668927 0.542883
0.516539 0.726811 0.599692
0.709602 0.783922 0.603739
0.843816 0.790309 0.609534
0.903248 0.780566 0.629529
0.195207 0.750117 0.548290
0.312305 0.776024 0.574414
0.544149 0.833670 0.629769
0.725537 0.883793 0.642329
0.866062 0.921108 0.628600
0.964787 0.924546 0.632854
0.040407 0.051400 0.531423
0.144292 0.062463 0.540997
0.374369 0.072807 0.608223
0.588422 0.083190 0.649098
0.705853 0.091186 0.655694
0.791183 0.096427 0.659996
0.049343 0.124200 0.538972
0.162101 0.144017 0.557114
0.384032 0.155724 0.612710
0.598192 0.165586 0.656581
0.715605 0.173493 0.663144
0.800867 0.178627 0.667446
0.085105 0.290098 0.569437
0.193582 0.304297 0.583752
0.415245 0.337065 0.624298
0.624255 0.345229 0.676531
0.742811 0.354572 0.685154
0.823984 0.365406 0.690307
0.148097 0.508505 0.615719
0.258137 0.525662 0.632170
0.477257 0.567608 0.676432
0.675226 0.600308 0.730536
0.791650 0.615999 0.743714
0.856549 0.630521 0.745982
0.175852 0.649843 0.641123
0.293509 0.675268 0.667407
0.527032 0.731405 0.725372
0.718272 0.776203 0.771527
0.821728 0.795282 0.791835
0.894162 0.808041 0.805203
0.205009 0.755102 0.672405
0.322741 0.780364 0.698575
0.555691 0.836866 0.756679
0.745881 0.882626 0.801891
0.859021 0.913025 0.804139
0.952241 0.915776 0.809095
0.044675 0.055844 0.613488
0.148718 0.066890 0.622975
0.371528 0.077831 0.684025
0.590919 0.085421 0.742088
0.708526 0.093684 0.748932
0.793874 0.098923 0.753182
0.053486 0.128612 0.620953
0.166502 0.148332 0.639059
0.382504 0.161062 0.688215
0.600599 0.167799 0.749535
0.718296 0.175973 0.756322
0.803643 0.181124 0.760628
0.086292 0.291685 0.649553
0.196992 0.307586 0.664761
0.417917 0.341975 0.701442
0.624855 0.347763 0.766783
0.746803 0.358665 0.780417
0.835461 0.368278 0.790525
0.151716 0.513915 0.697780
0.259099 0.528916 0.712803
0.480980 0.571781 0.758662
0.673607 0.607324 0.809349
0.802973 0.618895 0.843165
0.891719 0.628418 0.853238
0.186841 0.660995 0.728283
0.304661 0.686495 0.754597
0.538149 0.742634 0.812470
0.723106 0.781934 0.854566
0.839904 0.799224 0.883908
0.923632 0.809753 0.892121
0.209082 0.759369 0.752631
0.326903 0.784689 0.778783
0.560381 0.840595 0.836445
0.751766 0.885136 0.882440
0.864973 0.908985 0.907102
0.941416 0.922350 0.921193
