example_ofxGpuLutCube/bin/data/ofxGpuLutCube/LUT/C34 (warmer brown).cube
LUT_3D_SIZE 16
0.020656 0.018351 0.000000
0.028582 0.018629 0.000000
0.047436 0.019757 0.000000
0.083176 0.022553 0.000000
0.127827 0.029202 0.000000
0.187562 0.038386 0.000000
0.251350 0.048279 0.000000
0.313460 0.059183 0.002275
0.366551 0.067593 0.010514
0.414985 0.074573 0.021755
0.458603 0.081884 0.030348
0.496706 0.087652 0.036554
0.538107 0.095069 0.045088
0.576021 0.099384 0.050478
0.614887 0.106517 0.059154
0.650315 0.112281 0.063453
0.021099 0.026360 0.000000
0.028665 0.026360 0.000000
0.047463 0.027326 0.000000
0.083176 0.030119 0.000000
0.127827 0.036768 0.000000
0.186762 0.045869 0.000000
0.252310 0.056871 0.000000
0.313460 0.066749 0.002275
0.365360 0.075027 0.010337
0.414092 0.082040 0.021589
0.458500 0.089438 0.030332
0.496706 0.095218 0.036554
0.537651 0.102587 0.045022
0.576335 0.107091 0.050625
0.615165 0.114367 0.059520
0.650780 0.120396 0.064101
0.021501 0.035167 0.000000
0.029067 0.035167 0.000000
0.047985 0.036269 0.000000
0.083549 0.039025 0.000000
0.128614 0.045489 0.000000
0.187625 0.054605 0.000000
0.252442 0.065608 0.000000
0.313507 0.075279 0.002308
0.366663 0.083942 0.010969
0.414089 0.090736 0.021663
0.457500 0.098100 0.030462
0.498636 0.104199 0.037133
0.538421 0.111849 0.045740
0.577321 0.116648 0.051930
0.615932 0.123815 0.060441
0.651881 0.129712 0.065538
0.030212 0.068672 0.000000
0.037739 0.068548 0.000000
0.057153 0.069438 0.000000
0.096970 0.073921 0.000000
0.137195 0.075305 0.000000
0.191119 0.082922 0.000000
0.255953 0.094168 0.000000
0.317653 0.104327 0.005060
0.371005 0.112825 0.017267
0.418613 0.120849 0.026897
0.461511 0.126047 0.034101
0.501954 0.133454 0.042674
0.542650 0.140168 0.049581
0.582260 0.147828 0.058064
0.618101 0.151910 0.063281
0.656586 0.158670 0.071341
0.044881 0.112520 0.000000
0.052183 0.111649 0.000000
0.070876 0.111377 0.000000
0.108838 0.123794 0.000000
0.161760 0.124709 0.000000
0.212605 0.123608 0.000000
0.267928 0.131885 0.000000
0.324745 0.140366 0.012402
0.376151 0.147929 0.023260
0.424527 0.156640 0.032263
0.467888 0.163534 0.041520
0.508116 0.168911 0.047831
0.548099 0.176580 0.056812
0.587486 0.182688 0.064508
0.625651 0.189180 0.070770
0.663483 0.194509 0.078326
0.066104 0.170334 0.002807
0.073729 0.170529 0.002833
0.091591 0.172282 0.002945
0.119635 0.178797 0.000331
0.175433 0.195546 0.000000
0.247500 0.199451 0.000000
0.306721 0.194163 0.000000
0.356154 0.194563 0.007453
0.401854 0.200851 0.022352
0.443165 0.206143 0.035129
0.480441 0.212522 0.048098
0.519763 0.219565 0.057466
0.556417 0.225475 0.064491
0.594670 0.232384 0.073850
0.633845 0.236751 0.078978
0.671023 0.243704 0.087359
0.093740 0.242609 0.028599
0.101306 0.242609 0.028599
0.118605 0.245771 0.031319
0.148058 0.248935 0.028425
0.187586 0.266745 0.007689
0.260805 0.288359 0.000000
0.345625 0.291477 0.000000
0.405450 0.284249 0.001465
0.449641 0.280275 0.012516
0.486842 0.279222 0.028198
0.523903 0.280564 0.041648
0.559150 0.285000 0.050695
0.594404 0.289860 0.063059
0.627391 0.293722 0.070522
0.662864 0.300172 0.082107
0.693346 0.303030 0.088795
0.118763 0.316841 0.056116
0.126468 0.317015 0.056297
0.144530 0.319308 0.057849
0.174282 0.320940 0.060382
0.209184 0.337522 0.044802
0.269184 0.361115 0.013463
0.355560 0.381650 0.000000
0.436021 0.383708 0.001939
0.496537 0.380203 0.005362
0.540138 0.376130 0.018917
0.574005 0.371000 0.029129
0.608405 0.369483 0.042196
0.640140 0.366586 0.051568
0.672232 0.368451 0.063223
0.705939 0.371332 0.074364
0.739305 0.376425 0.085228
0.142125 0.385038 0.081086
0.149685 0.384116 0.081127
0.168773 0.386394 0.082655
0.197718 0.389997 0.086015
0.234116 0.400021 0.078073
0.282393 0.425179 0.049359
0.362933 0.453922 0.014104
0.446690 0.465873 0.010742
0.515657 0.468888 0.014293
0.574794 0.469772 0.014227
0.618188 0.464400 0.021069
0.652657 0.457485 0.032579
0.684078 0.451160 0.046612
0.719142 0.452225 0.060269
0.754723 0.455940 0.076172
0.786282 0.456679 0.090399
0.163260 0.445712 0.103402
0.171192 0.446025 0.103858
0.188687 0.447741 0.104923
0.218769 0.449318 0.107810
0.256725 0.456636 0.107207
0.301525 0.482821 0.077215
0.370032 0.511718 0.043304
0.453278 0.534907 0.018000
0.522016 0.540195 0.022965
0.586131 0.542104 0.025549
0.641035 0.545172 0.027553
0.690530 0.546073 0.034782
0.729930 0.544196 0.048886
0.763004 0.539250 0.066546
0.796584 0.536065 0.081239
0.828872 0.536427 0.094267
0.182414 0.501096 0.122161
0.190351 0.501463 0.122533
0.206646 0.502359 0.124387
0.236323 0.503247 0.125884
0.274330 0.509695 0.128189
0.317258 0.533139 0.103406
0.379149 0.562372 0.068439
0.454453 0.588475 0.036556
0.529839 0.603248 0.030486
0.596631 0.612176 0.041483
0.654561 0.616362 0.050147
0.706322 0.621063 0.056451
0.757465 0.624835 0.062611
0.802080 0.625044 0.068232
0.836203 0.620411 0.082745
0.869544 0.616544 0.098953
0.200517 0.552509 0.140216
0.207903 0.551055 0.140065
0.224603 0.553292 0.141305
0.254163 0.555559 0.144943
0.291115 0.558467 0.146436
0.333461 0.580007 0.124878
0.390226 0.609385 0.090939
0.462838 0.639635 0.064575
0.538445 0.665380 0.047259
0.604123 0.675945 0.054097
0.663897 0.682785 0.066242
0.720624 0.688651 0.073884
0.768399 0.690237 0.079707
0.818801 0.693365 0.085713
0.867140 0.696541 0.089685
0.905122 0.695186 0.101241
0.215280 0.601298 0.156292
0.222705 0.599683 0.156085
0.241282 0.602240 0.157345
0.269024 0.604734 0.159086
0.307222 0.609008 0.163042
0.349651 0.626274 0.148786
0.404131 0.657449 0.118764
0.473623 0.689814 0.096160
0.543099 0.716376 0.076343
0.613769 0.736838 0.071151
0.671158 0.742034 0.079195
0.726739 0.751920 0.091866
0.780160 0.756313 0.097580
0.830876 0.761433 0.103308
0.881132 0.765187 0.109411
0.928996 0.767512 0.115535
0.231940 0.649247 0.171640
0.238998 0.647172 0.171088
0.255243 0.649897 0.172495
0.285181 0.653160 0.176423
0.321906 0.656010 0.179012
0.370074 0.674357 0.174757
0.422756 0.707786 0.150454
0.486404 0.740061 0.127097
0.554094 0.767856 0.108839
0.618292 0.790437 0.093571
0.680010 0.804997 0.093728
0.738253 0.813307 0.104454
0.790193 0.818446 0.114945
0.846173 0.826121 0.120949
0.894017 0.830903 0.126892
0.941633 0.832583 0.132388
0.246615 0.699070 0.187686
0.254145 0.698917 0.187640
0.269329 0.696902 0.187636
0.302479 0.704195 0.195341
0.342842 0.708080 0.200793
0.391435 0.722474 0.204031
0.441623 0.756518 0.179246
0.501645 0.788939 0.157582
0.562851 0.815029 0.138668
0.626984 0.840482 0.122749
0.687064 0.861087 0.110331
0.747150 0.871541 0.116968
0.800135 0.878009 0.124289
0.851220 0.884899 0.133760
0.906880 0.895178 0.143205
0.954073 0.897400 0.149046
0.265838 0.747383 0.208471
0.273406 0.747385 0.208471
0.290053 0.750792 0.212497
0.322208 0.755257 0.217147
0.362298 0.761668 0.223362
0.412233 0.773524 0.231378
0.460444 0.803909 0.211992
0.517738 0.837201 0.189793
0.577900 0.866018 0.167374
0.636273 0.890330 0.151271
0.696832 0.913082 0.137273
0.753974 0.931146 0.130531
0.808785 0.940339 0.139352
0.863100 0.945491 0.149700
0.914000 0.953738 0.156021
0.963570 0.958237 0.165147
0.025472 0.022275 0.007566
0.033209 0.022446 0.007566
0.052315 0.023691 0.007566
0.087413 0.026453 0.007566
0.131905 0.033085 0.007566
0.189744 0.042036 0.007566
0.255038 0.052091 0.007566
0.317006 0.062954 0.012690
0.368817 0.071226 0.023173
0.417549 0.078197 0.034064
0.461818 0.085590 0.042619
0.500099 0.091376 0.048795
0.541476 0.098722 0.057193
0.579322 0.103109 0.062568
0.618321 0.110258 0.071170
0.653596 0.115916 0.075452
0.025886 0.030172 0.007566
0.033452 0.030172 0.007566
0.052023 0.031224 0.007566
0.087413 0.034019 0.007566
0.132479 0.040727 0.007566
0.191293 0.049817 0.007566
0.255038 0.059657 0.007566
0.317006 0.070520 0.012690
0.368966 0.078808 0.023197
0.417609 0.085770 0.034073
0.461733 0.093146 0.042605
0.500204 0.098954 0.048811
0.541474 0.106288 0.057193
0.579600 0.110708 0.062612
0.618178 0.117809 0.071155
0.653596 0.123484 0.075453
0.026386 0.039366 0.007566
0.033838 0.039016 0.007566
0.052668 0.040222 0.007566
0.087789 0.042916 0.007566
0.132642 0.049463 0.007566
0.191418 0.058671 0.007566
0.255982 0.069220 0.007566
0.316985 0.079177 0.012674
0.369116 0.087421 0.023604
0.417681 0.094498 0.034190
0.461996 0.101766 0.042926
0.501813 0.108065 0.049178
0.541837 0.114953 0.057456
0.578087 0.119444 0.062935
0.618458 0.126646 0.071323
0.654121 0.132243 0.076133
0.034225 0.070594 0.007566
0.041799 0.070601 0.007566
0.061611 0.073290 0.007566
0.101421 0.078108 0.007566
0.139813 0.078581 0.007566
0.195238 0.087011 0.007566
0.258490 0.097075 0.007940
0.321086 0.107722 0.017912
0.373812 0.115526 0.029686
0.421896 0.123483 0.038996
0.463619 0.129170 0.045639
0.505967 0.136507 0.054195
0.545611 0.143192 0.060657
0.583725 0.147916 0.068088
0.620396 0.154315 0.073818
0.658516 0.159050 0.081480
0.048667 0.114137 0.007566
0.056256 0.114195 0.007566
0.074968 0.115146 0.007566
0.113029 0.126844 0.007566
0.166671 0.129578 0.007566
0.216568 0.127637 0.007566
0.270848 0.134143 0.010166
0.328606 0.143534 0.025096
0.379198 0.151241 0.035533
0.427675 0.160789 0.044270
0.470572 0.166478 0.052204
0.512018 0.174154 0.061433
0.551718 0.180528 0.068167
0.589933 0.185505 0.075459
0.628046 0.191677 0.081496
0.665783 0.198510 0.088940
0.070623 0.174360 0.012493
0.078403 0.174595 0.012588
0.095950 0.174891 0.012778
0.124461 0.183156 0.009921
0.180109 0.199961 0.007566
0.252000 0.205369 0.007566
0.309598 0.197831 0.007587
0.359409 0.198053 0.020507
0.404599 0.203894 0.034213
0.446654 0.209788 0.047419
0.483092 0.215986 0.060135
0.522520 0.222011 0.068109
0.560970 0.228762 0.076151
0.598827 0.235678 0.085205
0.635214 0.239398 0.089694
0.673450 0.246359 0.098077
0.098588 0.246909 0.040211
0.106299 0.247107 0.040580
0.124110 0.250667 0.045447
0.152967 0.252637 0.041879
0.191445 0.271137 0.020793
0.264122 0.292743 0.007566
0.348995 0.294914 0.007566
0.409929 0.288172 0.010851
0.453035 0.283292 0.026320
0.491991 0.282991 0.041463
0.528474 0.285623 0.053279
0.562132 0.287977 0.062815
0.597092 0.293159 0.074514
0.631666 0.298369 0.083707
0.664844 0.303018 0.093407
0.696803 0.307164 0.100047
0.124472 0.321073 0.070213
0.132648 0.322638 0.070899
0.150232 0.324588 0.072132
0.180452 0.328113 0.075194
0.214566 0.342720 0.059727
0.275811 0.367693 0.026748
0.360662 0.385932 0.009512
0.440303 0.389100 0.013658
0.501647 0.386778 0.018938
0.542710 0.378856 0.032065
0.577454 0.372605 0.042528
0.612182 0.372794 0.054729
0.643215 0.369416 0.063839
0.676179 0.371774 0.075479
0.710449 0.375962 0.086400
0.742438 0.379737 0.097029
0.148553 0.390992 0.095884
0.155981 0.389918 0.095706
0.174793 0.391894 0.097040
0.203498 0.395534 0.100146
0.239152 0.404775 0.092137
0.288396 0.431046 0.062948
0.367419 0.458396 0.026873
0.450721 0.469945 0.024529
0.519318 0.472638 0.027459
0.578494 0.473699 0.027629
0.622838 0.468110 0.033521
0.656505 0.462354 0.043156
0.687811 0.456275 0.057963
0.723716 0.457562 0.074350
0.755618 0.456075 0.086451
0.790161 0.461762 0.102050
0.169663 0.451497 0.118083
0.177262 0.451563 0.118149
0.194339 0.452791 0.118715
0.223946 0.454148 0.121192
0.261371 0.460929 0.119516
0.305258 0.486807 0.090208
0.373954 0.516335 0.056281
0.456751 0.538396 0.030686
0.525970 0.544318 0.036376
0.587958 0.545600 0.038080
0.644344 0.548573 0.039956
0.693786 0.549481 0.047071
0.734841 0.549058 0.060883
0.765010 0.540717 0.078695
0.799424 0.539995 0.090417
0.832085 0.539885 0.106138
0.188176 0.506311 0.135992
0.195732 0.506258 0.135982
0.211575 0.506912 0.137342
0.241140 0.508049 0.138652
0.278580 0.514021 0.140600
0.320676 0.536568 0.115532
0.382711 0.566094 0.080567
0.458510 0.592563 0.048818
0.533284 0.607722 0.042858
0.598747 0.615601 0.053706
0.656525 0.619144 0.062413
0.711119 0.624451 0.068489
0.760794 0.628104 0.074685
0.806066 0.627189 0.078963
0.841109 0.623425 0.095144
0.872359 0.618978 0.111376
0.205076 0.555254 0.152792
0.213198 0.557146 0.153349
0.228220 0.555696 0.153117
0.258085 0.559271 0.156866
0.296047 0.562379 0.158664
0.337636 0.584723 0.137197
0.393894 0.613351 0.103490
0.466404 0.642303 0.075957
0.541865 0.668875 0.059645
0.607615 0.679617 0.067729
0.665765 0.685861 0.078722
0.722242 0.692133 0.086738
0.773988 0.697351 0.092673
0.825126 0.699980 0.098636
0.870630 0.701740 0.102878
0.908841 0.699119 0.113744
0.219865 0.605554 0.168798
0.227839 0.605582 0.168826
0.245257 0.606234 0.169278
0.272925 0.608450 0.170943
0.312240 0.613328 0.175607
0.353091 0.629949 0.160398
0.408377 0.661565 0.131360
0.477917 0.694287 0.109313
0.548373 0.721164 0.088806
0.617258 0.739939 0.084770
0.677470 0.748698 0.095085
0.731393 0.756705 0.105489
0.786714 0.762637 0.111009
0.835518 0.763144 0.116268
0.887424 0.769419 0.122195
0.932900 0.771734 0.128245
0.236401 0.653668 0.184365
0.244039 0.653415 0.184113
0.260405 0.654544 0.185195
0.289858 0.657630 0.189244
0.328527 0.661469 0.192258
0.374496 0.678414 0.188068
0.427914 0.712924 0.164097
0.491583 0.745030 0.140893
0.559296 0.771683 0.122736
0.623908 0.794710 0.107075
0.686291 0.810388 0.108307
0.741157 0.818294 0.118287
0.795057 0.823359 0.128353
0.850480 0.830654 0.134321
0.896408 0.835048 0.139583
0.945705 0.836923 0.145269
0.250968 0.701318 0.200045
0.258866 0.701803 0.200391
0.277129 0.704451 0.201929
0.307939 0.709112 0.208911
0.346838 0.711865 0.214257
0.397708 0.728982 0.218674
0.447347 0.761476 0.193407
0.507512 0.793944 0.171793
0.570130 0.822312 0.153402
0.632542 0.846660 0.137311
0.692370 0.867346 0.124498
0.752101 0.878707 0.130904
0.806394 0.884553 0.140822
0.855441 0.892158 0.147266
0.907924 0.896713 0.155865
0.957730 0.901166 0.161275
0.271796 0.752979 0.222512
0.279616 0.753151 0.222766
0.296622 0.756770 0.226963
0.328726 0.761417 0.231856
0.366329 0.766028 0.237576
0.418944 0.779986 0.246487
0.465504 0.809827 0.225595
0.523821 0.843196 0.204418
0.583354 0.871558 0.181672
0.642496 0.895781 0.164771
0.699384 0.917062 0.151993
0.758313 0.935645 0.143663
0.812772 0.944467 0.152040
0.866706 0.949274 0.161867
0.917209 0.957167 0.167721
0.966726 0.961570 0.176687
0.025614 0.022381 0.015132
0.033181 0.022393 0.015132
0.052376 0.023793 0.015132
0.087491 0.026510 0.015132
0.132116 0.033243 0.015132
0.190391 0.042840 0.015132
0.255785 0.052966 0.015794
0.317190 0.063143 0.022084
0.371127 0.072542 0.036770
0.418492 0.078471 0.043370
0.461987 0.085820 0.051966
0.501447 0.092671 0.061795
0.541360 0.098995 0.066522
0.578035 0.103604 0.071817
0.619453 0.111414 0.083707
0.655191 0.117381 0.088379
0.025816 0.030125 0.015132
0.033469 0.030206 0.015132
0.052762 0.031682 0.015132
0.087924 0.034470 0.015132
0.133171 0.041944 0.015132
0.191776 0.050950 0.015132
0.255815 0.060594 0.016004
0.317845 0.071402 0.023317
0.370790 0.080709 0.037423
0.418545 0.086708 0.044422
0.462936 0.094272 0.053159
0.503612 0.101263 0.062952
0.542589 0.107538 0.067771
0.581705 0.113207 0.076569
0.619600 0.119133 0.081747
0.655988 0.125887 0.089352
0.027410 0.040012 0.015132
0.035181 0.040463 0.015132
0.054694 0.042014 0.015132
0.089602 0.044577 0.015132
0.134453 0.051755 0.015132
0.193302 0.060886 0.015147
0.257998 0.071331 0.016626
0.319378 0.081607 0.027260
0.371302 0.089563 0.035725
0.420132 0.097132 0.047839
0.464069 0.104129 0.054969
0.503296 0.110770 0.063351
0.543795 0.117196 0.068967
0.583007 0.123158 0.078110
0.621440 0.129736 0.085835
0.656597 0.134708 0.087977
0.037155 0.074821 0.015132
0.044112 0.072834 0.015132
0.064965 0.077770 0.015132
0.103702 0.080102 0.015132
0.142945 0.081724 0.015132
0.198967 0.090127 0.015995
0.262958 0.099513 0.020340
0.323607 0.110218 0.032174
0.377979 0.119678 0.043148
0.425248 0.128200 0.053566
0.468075 0.133569 0.060098
0.509441 0.139183 0.068589
0.548063 0.146233 0.076205
0.587685 0.152290 0.083890
0.623837 0.158023 0.087439
0.662250 0.163535 0.097544
0.052189 0.116674 0.015242
0.060103 0.117422 0.015242
0.079420 0.119068 0.015408
0.115872 0.129448 0.015180
0.169965 0.132844 0.015132
0.220238 0.131275 0.015885
0.274360 0.138406 0.024869
0.332120 0.147455 0.040366
0.384505 0.157456 0.051492
0.431938 0.165034 0.060864
0.473413 0.170102 0.066634
0.514717 0.175511 0.073251
0.554359 0.182833 0.082907
0.592972 0.188511 0.088353
0.630648 0.193374 0.096037
0.668977 0.200492 0.104229
0.074975 0.178027 0.028022
0.082080 0.177668 0.025410
0.099925 0.178214 0.026622
0.128329 0.186557 0.021508
0.183425 0.202733 0.015505
0.254622 0.206501 0.015308
0.311568 0.200812 0.018636
0.361588 0.200787 0.034958
0.406145 0.205981 0.048255
0.447431 0.212553 0.061446
0.486559 0.218975 0.073832
0.524695 0.225242 0.082017
0.562343 0.231615 0.091009
0.599590 0.237514 0.096581
0.638508 0.242639 0.102329
0.675894 0.249088 0.112316
0.102592 0.251530 0.056413
0.109725 0.250934 0.054406
0.126568 0.251715 0.057191
0.156370 0.255847 0.056849
0.195261 0.274474 0.032485
0.267415 0.293252 0.017283
0.350442 0.296612 0.017180
0.410835 0.290590 0.025078
0.454551 0.286743 0.040276
0.492690 0.285062 0.053885
0.529174 0.286243 0.066378
0.564452 0.289687 0.075795
0.598033 0.294716 0.088641
0.632034 0.299609 0.095865
0.663127 0.303428 0.106442
0.696422 0.309079 0.114580
0.126644 0.323203 0.081554
0.134582 0.324447 0.082054
0.151277 0.326008 0.082955
0.182223 0.328939 0.087977
0.216497 0.342314 0.074100
0.276702 0.368243 0.038819
0.361915 0.387443 0.024611
0.441012 0.391270 0.027538
0.500920 0.386067 0.030106
0.542477 0.378893 0.041575
0.577304 0.374678 0.055619
0.611422 0.372483 0.065201
0.642713 0.369211 0.075842
0.677731 0.373834 0.088902
0.709840 0.375578 0.098600
0.742481 0.380644 0.109250
0.152071 0.393768 0.108171
0.157534 0.391205 0.106002
0.175615 0.393617 0.108829
0.206188 0.396830 0.112842
0.242357 0.406730 0.107549
0.290641 0.432532 0.074170
0.368474 0.459576 0.041771
0.451771 0.472567 0.038199
0.520804 0.473929 0.039086
0.579274 0.472936 0.039263
0.623198 0.468877 0.048215
0.657121 0.462093 0.057202
0.689196 0.456429 0.070588
0.723918 0.457406 0.086428
0.758335 0.459666 0.102267
0.790504 0.461758 0.115689
0.171576 0.453411 0.129053
0.179194 0.453338 0.129016
0.197132 0.455304 0.132571
0.226293 0.456257 0.132538
0.263967 0.463130 0.133235
0.308298 0.488554 0.104633
0.376013 0.517286 0.070116
0.458814 0.540393 0.044689
0.528896 0.546535 0.050328
0.591919 0.547357 0.051832
0.645322 0.551090 0.054350
0.696419 0.551729 0.063826
0.735498 0.549342 0.078326
0.768488 0.545213 0.091290
0.801538 0.542601 0.106014
0.834513 0.542669 0.119213
0.191017 0.507209 0.150075
0.198971 0.508765 0.149824
0.214638 0.509649 0.149509
0.244703 0.511586 0.152090
0.282390 0.516566 0.153778
0.324311 0.539340 0.129851
0.385884 0.568783 0.095685
0.461751 0.595509 0.064097
0.536017 0.610438 0.058910
0.603019 0.618844 0.070201
0.660468 0.623364 0.079850
0.712027 0.627055 0.084454
0.764149 0.632429 0.091746
0.807452 0.629145 0.097588
0.842328 0.626937 0.112057
0.874729 0.622178 0.128856
0.209339 0.560473 0.166178
0.217345 0.560927 0.168198
0.232440 0.559634 0.168131
0.261560 0.562779 0.169670
0.299156 0.565566 0.172192
0.341090 0.586454 0.152329
0.397591 0.616103 0.119167
0.469569 0.645556 0.090440
0.544896 0.670744 0.077505
0.611125 0.681455 0.083183
0.670247 0.690005 0.095037
0.726580 0.695506 0.102814
0.776355 0.699992 0.109145
0.824959 0.700329 0.111482
0.873956 0.705086 0.118233
0.910992 0.701512 0.126323
0.224145 0.609454 0.183816
0.231273 0.607729 0.183279
0.249267 0.609768 0.183743
0.276403 0.610399 0.183671
0.314550 0.616354 0.188525
0.358028 0.632744 0.176617
0.411939 0.664318 0.146840
0.480637 0.696761 0.122270
0.550972 0.723979 0.103779
0.619984 0.743525 0.098938
0.678369 0.751320 0.107814
0.733611 0.758242 0.117749
0.786641 0.763023 0.123847
0.837157 0.765748 0.128120
0.884779 0.769372 0.133693
0.934053 0.773305 0.140146
0.239697 0.656471 0.196480
0.247354 0.656522 0.196928
0.262942 0.657092 0.197456
0.292600 0.660021 0.200805
0.329725 0.663582 0.205918
0.377774 0.681121 0.200206
0.430656 0.714631 0.178078
0.493503 0.745502 0.154073
0.560729 0.774686 0.135504
0.626254 0.797801 0.122609
0.686735 0.811787 0.120562
0.742488 0.816712 0.129592
0.798509 0.826387 0.139674
0.849525 0.829245 0.148221
0.896799 0.836386 0.151057
0.946423 0.837636 0.156315
0.255014 0.706760 0.214898
0.261965 0.706156 0.212591
0.280058 0.706980 0.215699
0.309003 0.708833 0.217477
0.350013 0.716745 0.228603
0.400449 0.730128 0.233839
0.450375 0.764464 0.208207
0.509827 0.796159 0.187384
0.572913 0.826533 0.165563
0.633936 0.847867 0.150756
0.695824 0.868121 0.136900
0.752135 0.879929 0.142410
0.808348 0.886292 0.154764
0.859240 0.891521 0.159102
0.909623 0.901278 0.167861
0.959098 0.900250 0.172976
0.274643 0.755865 0.234384
0.282380 0.756031 0.234550
0.299599 0.759294 0.238562
0.330832 0.763777 0.243350
0.369153 0.768791 0.249752
0.421741 0.781895 0.261609
0.470537 0.813047 0.239655
0.526326 0.845204 0.216608
0.584502 0.873339 0.195110
0.644694 0.897891 0.177585
0.703533 0.919995 0.163834
0.760960 0.937943 0.157555
0.815295 0.947015 0.165493
0.868873 0.951886 0.175022
0.920154 0.959826 0.181131
0.969671 0.964687 0.189599
0.020833 0.018475 0.023035
0.028399 0.018475 0.023035
0.055066 0.021386 0.022964
0.093736 0.028588 0.023294
0.135356 0.034666 0.023797
0.192632 0.044255 0.029347
0.257088 0.054212 0.042293
0.317912 0.063889 0.052068
0.372330 0.073196 0.063353
0.417904 0.079282 0.072066
0.463597 0.086754 0.081030
0.503649 0.093888 0.087449
0.544902 0.101158 0.095956
0.583776 0.107790 0.101894
0.619716 0.111749 0.110373
0.658077 0.118773 0.114057
0.021859 0.026920 0.023035
0.028855 0.026412 0.023035
0.054932 0.029346 0.023115
0.094456 0.036805 0.023282
0.135872 0.042792 0.023873
0.193165 0.052309 0.029994
0.257518 0.062248 0.041411
0.318238 0.071788 0.052484
0.371751 0.080898 0.064217
0.419932 0.088834 0.073246
0.463882 0.094479 0.080558
0.503796 0.101601 0.087718
0.543167 0.108130 0.097242
0.581827 0.115219 0.101455
0.621267 0.119519 0.108726
0.658077 0.126339 0.114193
0.023391 0.037685 0.023068
0.030160 0.036695 0.023213
0.055987 0.039605 0.023284
0.096275 0.047559 0.023392
0.137421 0.053034 0.024116
0.194387 0.061715 0.029216
0.258205 0.072188 0.042960
0.319843 0.081974 0.054812
0.374295 0.091107 0.065677
0.421415 0.098998 0.074914
0.463851 0.104231 0.081973
0.504738 0.111311 0.089450
0.544984 0.117530 0.096798
0.584163 0.124636 0.102799
0.620637 0.128753 0.109364
0.658580 0.135392 0.115045
0.032953 0.077981 0.024641
0.040400 0.077465 0.024604
0.068164 0.078646 0.024971
0.105251 0.083588 0.025921
0.148605 0.089651 0.033889
0.205928 0.096446 0.044376
0.268954 0.107207 0.056487
0.330722 0.117067 0.069617
0.384056 0.124989 0.077733
0.430928 0.133468 0.087729
0.474072 0.140011 0.093842
0.514696 0.145896 0.101600
0.554589 0.151726 0.107197
0.591965 0.156860 0.114173
0.629757 0.162356 0.118449
0.666875 0.168662 0.124970
0.052535 0.120946 0.031907
0.059100 0.121764 0.034317
0.082132 0.121446 0.035694
0.118230 0.129386 0.034286
0.167574 0.131997 0.034730
0.218373 0.136378 0.050162
0.277695 0.145346 0.063564
0.336967 0.155373 0.075954
0.389639 0.163156 0.084590
0.437272 0.170043 0.093674
0.480891 0.176915 0.102970
0.520912 0.183441 0.108670
0.560075 0.188032 0.113936
0.598957 0.193931 0.120930
0.636360 0.199581 0.125739
0.672921 0.205415 0.132386
0.076258 0.178620 0.055836
0.083744 0.178546 0.055744
0.104511 0.181290 0.059376
0.135904 0.185888 0.061342
0.183577 0.202596 0.043385
0.254919 0.207027 0.043385
0.309178 0.202315 0.060058
0.360049 0.206226 0.075931
0.407005 0.213722 0.091522
0.449518 0.219964 0.100253
0.490860 0.226521 0.110595
0.529995 0.232151 0.117283
0.567911 0.237544 0.123043
0.606615 0.243831 0.129689
0.644230 0.249799 0.135855
0.681515 0.253964 0.141439
0.103800 0.252403 0.083417
0.111285 0.252414 0.082409
0.129717 0.254864 0.086747
0.162161 0.258819 0.090695
0.198462 0.271918 0.080189
0.268225 0.292484 0.054635
0.349819 0.296193 0.055483
0.406876 0.288970 0.068366
0.450897 0.285929 0.080282
0.490696 0.288364 0.093610
0.526422 0.290388 0.104294
0.561878 0.295137 0.114301
0.596086 0.299393 0.124835
0.630331 0.305517 0.131022
0.663265 0.311176 0.141718
0.696451 0.315189 0.150376
0.129160 0.326304 0.110616
0.136635 0.326110 0.111372
0.157727 0.330464 0.114364
0.189321 0.334446 0.119318
0.224793 0.342231 0.113234
0.279410 0.367635 0.083843
0.361751 0.387471 0.063967
0.442386 0.390913 0.068008
