example_ofxGpuLutCube/bin/data/ofxGpuLutCube/LUT/C34 (warmer brown).cube
LUT_3D_SIZE 6
0.020656 0.018351 0.000000
0.083176 0.022553 0.000000
0.251350 0.048279 0.000000
0.414985 0.074573 0.021755
0.538107 0.095069 0.045088
0.650315 0.112281 0.063453
0.030212 0.068672 0.000000
0.096970 0.073921 0.000000
0.255953 0.094168 0.000000
0.418613 0.120849 0.026897
0.542650 0.140168 0.049581
0.656586 0.158670 0.071341
0.093740 0.242609 0.028599
0.148058 0.248935 0.028425
0.345625 0.291477 0.000000
0.486842 0.279222 0.028198
0.594404 0.289860 0.063059
0.693346 0.303030 0.088795
0.163260 0.445712 0.103402
0.218769 0.449318 0.107810
0.370032 0.511718 0.043304
0.586131 0.542104 0.025549
0.729930 0.544196 0.048886
0.828872 0.536427 0.094267
0.215280 0.601298 0.156292
0.269024 0.604734 0.159086
0.404131 0.657449 0.118764
0.613769 0.736838 0.071151
0.780160 0.756313 0.097580
0.928996 0.767512 0.115535
0.265838 0.747383 0.208471
0.322208 0.755257 0.217147
0.460444 0.803909 0.211992
0.636273 0.890330 0.151271
0.808785 0.940339 0.139352
0.963570 0.958237 0.165147
0.020833 0.018475 0.023035
0.093736 0.028588 0.023294
0.257088 0.054212 0.042293
0.417904 0.079282 0.072066
0.544902 0.101158 0.095956
0.658077 0.118773 0.114057
0.032953 0.077981 0.024641
0.105251 0.083588 0.025921
0.268954 0.107207 0.056487
0.430928 0.133468 0.087729
0.554589 0.151726 0.107197
0.666875 0.168662 0.124970
0.103800 0.252403 0.083417
0.162161 0.258819 0.090695
0.349819 0.296193 0.055483
0.490696 0.288364 0.093610
0.596086 0.299393 0.124835
0.696451 0.315189 0.150376
0.175518 0.456889 0.158189
0.232641 0.462296 0.163623
0.377230 0.515924 0.110851
0.590640 0.547846 0.090825
0.731428 0.546033 0.113158
0.830011 0.541360 0.158462
0.227032 0.610567 0.209436
0.282556 0.616586 0.214701
0.417624 0.664158 0.185732
0.620308 0.744331 0.136802
0.790098 0.765107 0.162132
0.935074 0.774604 0.174000
0.280542 0.763077 0.264830
0.336355 0.769020 0.273436
0.477816 0.812319 0.276188
0.645032 0.896482 0.219447
0.812558 0.944219 0.196700
0.969345 0.964267 0.225166
0.008085 0.008954 0.210234
0.100679 0.015716 0.212078
0.306175 0.082265 0.213244
0.454570 0.103782 0.222705
0.567330 0.119952 0.236198
0.674702 0.135496 0.249739
0.018840 0.070655 0.214606
0.105012 0.075153 0.218848
0.313720 0.134338 0.220380
0.459504 0.153611 0.230958
0.573010 0.170118 0.245406
0.684883 0.188049 0.262856
0.089105 0.296176 0.240201
0.163821 0.300056 0.244264
0.358792 0.314143 0.258930
0.508216 0.333388 0.287999
0.629036 0.351828 0.307456
0.741875 0.369331 0.324908
0.176710 0.485098 0.283030
0.249241 0.487142 0.296285
0.411584 0.520211 0.317909
0.610039 0.568479 0.289603
0.735229 0.565475 0.322720
0.836626 0.573067 0.360048
0.242531 0.631418 0.336313
0.305685 0.639201 0.348813
0.471061 0.678591 0.388933
0.638298 0.757256 0.343111
0.807576 0.785848 0.356622
0.947717 0.790844 0.371228
0.300883 0.782348 0.396744
0.362114 0.795117 0.410903
0.529496 0.836198 0.456446
0.674575 0.906155 0.424786
0.834003 0.964924 0.392990
0.989192 0.985326 0.414758
0.000000 0.000000 0.448265
0.077169 0.000000 0.454456
0.337476 0.083733 0.439978
0.514860 0.136111 0.447389
0.643457 0.157827 0.460804
0.747328 0.170809 0.463763
0.000000 0.047474 0.454279
0.081305 0.052412 0.458857
0.343809 0.132005 0.450794
0.522786 0.186879 0.454544
0.649395 0.209177 0.468947
0.753374 0.224548 0.472121
0.073197 0.299406 0.478779
0.142687 0.300417 0.483896
0.364545 0.306455 0.493051
0.563200 0.368919 0.494698
0.677095 0.385393 0.500939
0.784807 0.405082 0.517831
0.142799 0.544505 0.503881
0.212836 0.548804 0.508246
0.420461 0.561202 0.521879
0.621988 0.588183 0.549372
0.741912 0.611358 0.584094
0.860930 0.638993 0.615251
0.191890 0.705026 0.521608
0.266316 0.707675 0.529368
0.489264 0.722696 0.571597
0.672234 0.760622 0.616747
0.825366 0.806584 0.609078
0.941296 0.805453 0.635443
0.261145 0.853249 0.566384
0.335426 0.855905 0.575521
0.552032 0.871313 0.632104
0.729802 0.913979 0.686965
0.851152 0.971214 0.660671
0.999848 0.999769 0.663227
0.000000 0.000000 0.624595
0.047921 0.000000 0.631971
0.327140 0.034712 0.629506
0.531831 0.153636 0.601454
0.664797 0.169235 0.617475
0.795162 0.196311 0.641148
0.000000 0.026411 0.630397
0.054361 0.028119 0.634391
0.327367 0.083670 0.637750
0.537876 0.202806 0.609502
0.671133 0.220252 0.624554
0.801808 0.244349 0.648053
0.025911 0.271006 0.653825
0.100453 0.269054 0.657141
0.340300 0.278459 0.667619
0.579172 0.369454 0.653230
0.713361 0.403015 0.667186
0.841401 0.431704 0.693715
0.141803 0.544246 0.672988
0.210347 0.548169 0.677629
0.406073 0.562632 0.699439
0.619241 0.578824 0.729883
0.781045 0.636212 0.744580
0.894395 0.661312 0.763073
0.176589 0.725689 0.702683
0.248066 0.735621 0.710286
0.460678 0.762149 0.739716
0.671132 0.790017 0.770976
0.826345 0.810076 0.795241
0.941206 0.836438 0.824971
0.214849 0.903337 0.740475
0.288454 0.910599 0.748285
0.510300 0.925490 0.775759
0.730258 0.940625 0.814538
0.876973 0.966924 0.855686
0.999882 0.999840 0.846547
0.000000 0.000000 0.797864
0.033204 0.000000 0.800975
0.308103 0.005088 0.803528
0.548886 0.120109 0.778330
0.679311 0.187269 0.760566
0.799009 0.198279 0.769215
0.000000 0.023743 0.802618
0.040218 0.024269 0.803120
0.307054 0.046840 0.809577
0.555726 0.168712 0.784966
0.686070 0.236461 0.765641
0.806479 0.249298 0.776705
0.006493 0.257021 0.824784
0.079535 0.252433 0.825548
0.325824 0.262472 0.833064
0.579164 0.329852 0.829002
0.732913 0.422721 0.814118
0.858615 0.444202 0.836115
0.121047 0.546918 0.847338
0.184595 0.545311 0.849357
0.384405 0.553482 0.874950
0.606242 0.565926 0.899285
0.798279 0.631917 0.904011
0.922568 0.677145 0.909521
0.197191 0.746634 0.878506
0.265699 0.751810 0.883235
0.469364 0.776771 0.912001
0.661681 0.793359 0.941916
0.822556 0.802261 0.962336
0.971131 0.852492 0.964564
0.235229 0.926072 0.916349
0.304579 0.929872 0.923278
0.508608 0.953253 0.948670
0.715355 0.979420 0.976268
0.868673 0.997135 0.996474
0.999950 0.999961 1.000000
