example_ofxGpuLutCube/bin/data/ofxGpuLutCube/LUT/C35 (pink magenta fade).cube
LUT_3D_SIZE 6
0.046276 0.039716 0.046276
0.104452 0.049609 0.058084
0.159880 0.059201 0.069201
0.256460 0.068314 0.079272
0.394191 0.076860 0.087463
0.561551 0.084473 0.093956
0.064662 0.106934 0.068758
0.115771 0.112491 0.078899
0.190177 0.119693 0.087126
0.307604 0.130214 0.093665
0.461644 0.143497 0.105058
0.637693 0.159459 0.120113
0.080885 0.182185 0.086896
0.135533 0.200929 0.093371
0.230833 0.222439 0.104569
0.367380 0.246577 0.119509
0.534281 0.273190 0.138139
0.736053 0.318557 0.168144
0.092055 0.324526 0.104129
0.165128 0.355504 0.118920
0.281296 0.388380 0.137384
0.453077 0.440999 0.166806
0.668921 0.513427 0.210216
0.878888 0.588442 0.262087
0.111115 0.518356 0.136593
0.216542 0.574358 0.165295
0.389600 0.650187 0.208401
0.601248 0.725210 0.260095
0.816390 0.797000 0.319314
0.993761 0.862912 0.384848
0.167423 0.784962 0.206412
0.327881 0.854209 0.257820
0.533568 0.916291 0.316786
0.751428 0.969427 0.382174
0.940901 1.014611 0.452566
1.078177 1.053800 0.526142
0.050017 0.043563 0.101597
0.107090 0.053336 0.109778
0.164951 0.062687 0.116501
0.265655 0.071612 0.127870
0.406829 0.079892 0.142969
0.576193 0.086850 0.161670
0.068031 0.109328 0.116161
0.118765 0.114689 0.127384
0.197252 0.123352 0.142349
0.318609 0.134959 0.161003
0.475364 0.149257 0.183589
0.652622 0.166322 0.210047
0.083591 0.188982 0.141763
0.140462 0.208824 0.160265
0.239890 0.231343 0.182685
0.379898 0.256424 0.209095
0.550923 0.285506 0.240332
0.765075 0.342279 0.291330
0.094938 0.336097 0.181812
0.172076 0.367821 0.208050
0.293154 0.402514 0.238768
0.480867 0.468158 0.289324
0.698413 0.541859 0.349358
0.903896 0.617395 0.415482
0.115991 0.532714 0.236960
0.235557 0.603230 0.287240
0.416223 0.679006 0.347041
0.630875 0.753114 0.413087
0.842999 0.823016 0.483885
1.012167 0.885977 0.557721
0.184200 0.812063 0.344412
0.353124 0.878849 0.410268
0.562990 0.937598 0.480969
0.779294 0.987476 0.554839
0.961132 1.030159 0.630127
1.092283 1.067554 0.704744
0.053669 0.047322 0.150164
0.109321 0.056942 0.165132
0.170408 0.066173 0.183819
0.275240 0.074857 0.206415
0.419680 0.082747 0.232989
0.590873 0.088592 0.263337
0.071311 0.111470 0.183068
0.122201 0.117594 0.205537
0.204727 0.127472 0.231984
0.329902 0.140105 0.262257
0.489328 0.155463 0.296186
0.667551 0.173548 0.333354
0.086034 0.196202 0.230939
0.145821 0.217106 0.261080
0.249304 0.240623 0.294874
0.392642 0.266641 0.332010
0.575951 0.304485 0.379443
0.793636 0.366998 0.446164
0.098211 0.347969 0.293548
0.179419 0.380408 0.330569
0.312066 0.424460 0.377100
0.509243 0.495881 0.443749
0.727629 0.570596 0.515000
0.927716 0.646275 0.589082
0.124874 0.556635 0.374731
0.255886 0.632159 0.441184
0.443655 0.707587 0.512309
0.660442 0.780383 0.586455
0.868563 0.848020 0.661744
1.029508 0.907755 0.736156
0.202468 0.838333 0.509379
0.379332 0.902347 0.583438
0.592566 0.957572 0.658746
0.806378 1.004492 0.733370
0.980050 1.044944 0.805234
1.105856 1.080913 0.872147
0.057233 0.051027 0.228340
0.111360 0.060513 0.254843
0.176270 0.069591 0.285108
0.285161 0.078013 0.319054
0.432708 0.085424 0.356330
0.605623 0.090274 0.396567
0.074502 0.113214 0.283935
0.126046 0.121025 0.317732
0.212602 0.131977 0.354918
0.341497 0.145635 0.395128
0.503441 0.162027 0.437946
0.682638 0.181317 0.483066
0.087970 0.203858 0.353501
0.151547 0.225780 0.393609
0.259097 0.250247 0.436372
0.405661 0.277183 0.481410
0.605358 0.327523 0.546115
0.821617 0.392611 0.620432
0.101931 0.360125 0.434762
0.187181 0.393248 0.479704
0.335558 0.451169 0.543462
0.538149 0.524094 0.617803
0.756465 0.599506 0.693091
0.950125 0.674953 0.767287
0.136810 0.585241 0.540714
0.277554 0.661063 0.615005
0.471733 0.735788 0.690318
0.689813 0.806915 0.764712
0.893013 0.871868 0.836086
1.045844 0.928183 0.902300
0.222102 0.863630 0.687349
0.406342 0.924462 0.761782
0.622179 0.976345 0.833363
0.832535 1.020594 0.899894
0.997955 1.059071 0.959308
1.119107 1.093881 1.010453
0.060779 0.054680 0.340611
0.112934 0.064020 0.377763
0.182461 0.072860 0.417989
0.295385 0.081002 0.460889
0.446056 0.087637 0.506005
0.620550 0.092895 0.552906
0.077534 0.115707 0.416464
0.130235 0.124888 0.459271
0.220849 0.136858 0.504367
0.353377 0.151568 0.551253
0.517696 0.169067 0.599518
0.702323 0.191991 0.651834
0.089506 0.211893 0.502636
0.157634 0.234815 0.549494
0.269215 0.260264 0.597713
0.423212 0.291637 0.650014
0.634916 0.351619 0.724436
0.848802 0.419047 0.798403
0.105980 0.372546 0.595922
0.197713 0.409973 0.647797
0.360135 0.478552 0.721679
0.567391 0.552656 0.795823
0.784746 0.628439 0.866754
0.971161 0.703294 0.932173
0.150253 0.614138 0.718934
0.300459 0.689832 0.793153
0.500388 0.763476 0.864221
0.718854 0.832541 0.930026
0.916143 0.894420 0.988446
1.061353 0.947372 1.038721
0.243101 0.887883 0.861516
0.434105 0.945311 0.927580
0.651673 0.994025 0.986292
0.857576 1.035820 1.036936
1.014800 1.072685 1.080704
1.132143 1.106617 1.119162
0.064178 0.058326 0.481981
0.115369 0.067475 0.527076
0.189106 0.076057 0.573965
0.305946 0.083789 0.622238
0.459540 0.089074 0.671330
0.635365 0.096077 0.720699
0.080437 0.118826 0.572210
0.134819 0.129122 0.620413
0.229482 0.142131 0.669557
0.365541 0.157877 0.718952
0.532105 0.176445 0.768212
0.731627 0.209012 0.829286
0.091714 0.220308 0.667713
0.164128 0.244200 0.717179
0.279684 0.270574 0.766400
0.448976 0.313025 0.826648
0.664483 0.376654 0.897115
0.875032 0.446187 0.961854
0.110434 0.385213 0.764626
0.213879 0.434385 0.823992
0.385682 0.506421 0.894600
0.596828 0.581443 0.959684
0.812257 0.657197 1.017199
0.990891 0.731130 1.066610
0.165238 0.643023 0.892128
0.324444 0.718246 0.957449
0.529390 0.790460 1.015234
0.747416 0.857102 1.064996
0.937839 0.915625 1.108130
1.076111 0.965390 1.146092
0.265288 0.910877 1.013204
0.462391 0.964817 1.063234
0.680840 1.010610 1.106520
0.881392 1.050308 1.144670
1.030672 1.085827 1.179439
1.145119 1.119327 1.212495
