example_ofxGpuLutCube/bin/data/ofxGpuLutCube/LUT/C35 (pink magenta fade).cube
LUT_3D_SIZE 16
0.046276 0.039716 0.046276
0.066738 0.043019 0.050306
0.086242 0.046400 0.054237
0.104452 0.049609 0.058084
0.119813 0.052883 0.061908
0.137119 0.056027 0.065572
0.159880 0.059201 0.069201
0.187174 0.062274 0.072682
0.219385 0.065294 0.076027
0.256460 0.068314 0.079272
0.298292 0.071246 0.082327
0.344292 0.074089 0.085040
0.394191 0.076860 0.087463
0.447543 0.079532 0.089011
0.503618 0.082097 0.091139
0.561551 0.084473 0.093956
0.052594 0.063564 0.054142
0.072665 0.066672 0.057989
0.091605 0.069775 0.061742
0.108752 0.072860 0.065472
0.123642 0.075786 0.069046
0.143922 0.078704 0.072552
0.168862 0.081587 0.075930
0.198520 0.084400 0.079130
0.233097 0.087038 0.082141
0.272529 0.089607 0.084942
0.316391 0.091964 0.087337
0.364379 0.094075 0.088989
0.416024 0.095887 0.091076
0.470666 0.097204 0.093903
0.527878 0.099158 0.097290
0.586741 0.101577 0.101049
0.058722 0.086254 0.061642
0.078315 0.089144 0.065294
0.096620 0.091867 0.068923
0.112083 0.094562 0.072402
0.129158 0.097113 0.075758
0.151741 0.099445 0.079002
0.178933 0.101523 0.082045
0.210965 0.103439 0.084852
0.247945 0.104891 0.087224
0.289587 0.106779 0.088943
0.335465 0.109210 0.091003
0.385271 0.112104 0.093810
0.438472 0.115292 0.097127
0.494445 0.118836 0.100986
0.552682 0.122668 0.105221
0.612123 0.126770 0.109821
0.064662 0.106934 0.068758
0.083750 0.108989 0.072292
0.100963 0.110968 0.075655
0.115771 0.112491 0.078899
0.135870 0.114382 0.081950
0.160659 0.116822 0.084762
0.190177 0.119693 0.087126
0.224620 0.122871 0.088919
0.263876 0.126401 0.090925
0.307604 0.130214 0.093665
0.355484 0.134327 0.097031
0.407013 0.138794 0.100822
0.461644 0.143497 0.105058
0.518760 0.148484 0.109671
0.577787 0.153832 0.114693
0.637693 0.159459 0.120113
0.070389 0.124417 0.075560
0.088733 0.127274 0.078803
0.104276 0.130452 0.081857
0.121200 0.133963 0.084676
0.143621 0.137776 0.087030
0.170671 0.141921 0.088899
0.202534 0.146322 0.090842
0.239373 0.151075 0.093584
0.280884 0.156093 0.096910
0.326665 0.161430 0.100692
0.376366 0.167064 0.104894
0.429460 0.173020 0.109513
0.485328 0.179290 0.114510
0.543474 0.185867 0.119906
0.603105 0.192739 0.125745
0.663342 0.199878 0.131941
0.075826 0.149442 0.081766
0.093183 0.153876 0.084538
0.107871 0.158622 0.086974
0.127797 0.163655 0.088834
0.152467 0.168967 0.090725
0.181839 0.174609 0.093487
0.216138 0.180588 0.096765
0.255246 0.186839 0.100554
0.298875 0.193403 0.104722
0.346594 0.200268 0.109342
0.398015 0.207469 0.114340
0.452550 0.214923 0.119716
0.509591 0.222703 0.125542
0.568579 0.230713 0.131710
0.628650 0.239062 0.138400
0.690543 0.248707 0.145880
0.080885 0.182185 0.086896
0.096429 0.188077 0.088740
0.113220 0.194374 0.090627
0.135533 0.200929 0.093371
0.162423 0.207813 0.096672
0.194163 0.215003 0.100394
0.230833 0.222439 0.104569
0.272164 0.230194 0.109168
0.317829 0.238281 0.114151
0.367380 0.246577 0.119509
0.420382 0.255192 0.125323
0.476217 0.264031 0.131533
0.534281 0.273190 0.138139
0.595340 0.283652 0.145667
0.663329 0.298904 0.155663
0.736053 0.318557 0.168144
0.085395 0.222492 0.090572
0.099989 0.229986 0.093269
0.119744 0.237727 0.096528
0.144247 0.245782 0.100263
0.173501 0.254085 0.104417
0.207650 0.262671 0.108991
0.246610 0.271542 0.113966
0.290100 0.280676 0.119321
0.337714 0.290046 0.125083
0.389011 0.299671 0.131284
0.443449 0.309583 0.137872
0.501693 0.320681 0.145358
0.567899 0.336891 0.155268
0.640672 0.357806 0.167724
0.713934 0.379663 0.181281
0.785611 0.402037 0.195770
0.088639 0.270182 0.096387
0.105249 0.279050 0.100076
0.127390 0.288156 0.104231
0.154139 0.297574 0.108811
0.185728 0.307163 0.113764
0.222218 0.317060 0.119115
0.263473 0.327160 0.124894
0.308984 0.337479 0.131035
0.358445 0.348032 0.137643
0.412300 0.359679 0.145016
0.475007 0.376835 0.154889
0.545384 0.398674 0.167269
0.618146 0.421485 0.180795
0.691469 0.444917 0.195302
0.763896 0.468872 0.210767
0.833482 0.493086 0.227178
0.092055 0.324526 0.104129
0.111681 0.334661 0.108631
0.136048 0.344984 0.113576
0.165128 0.355504 0.118920
0.199129 0.366258 0.124639
0.237957 0.377226 0.130831
0.281296 0.388380 0.137384
0.329460 0.400407 0.144651
0.387031 0.418341 0.154513
0.453077 0.440999 0.166806
0.523224 0.464713 0.180263
0.595624 0.488861 0.194766
0.668921 0.513427 0.210216
0.741662 0.538236 0.226626
0.812279 0.563356 0.243932
0.878888 0.588442 0.262087
0.097221 0.384698 0.113385
0.119272 0.395846 0.118680
0.145875 0.407162 0.124417
0.177299 0.418692 0.130559
0.213651 0.430367 0.137139
0.255133 0.442715 0.144304
0.306125 0.461268 0.154093
0.366168 0.484558 0.166293
0.431733 0.508953 0.179729
0.501148 0.533684 0.194157
0.573160 0.558650 0.209610
0.646390 0.583812 0.225999
0.719416 0.609138 0.243294
0.790628 0.634421 0.261457
0.858469 0.659590 0.280488
0.921107 0.684571 0.300194
0.103645 0.449698 0.124218
0.127880 0.461633 0.130355
0.156766 0.473810 0.136883
0.190803 0.486289 0.143938
0.234086 0.505276 0.153648
0.286742 0.529093 0.165799
0.346026 0.553997 0.179217
0.410575 0.579130 0.193594
0.479228 0.604351 0.209035
0.550733 0.629624 0.225380
0.623831 0.654907 0.242604
0.697009 0.680053 0.260748
0.768782 0.704992 0.279766
0.837590 0.729550 0.299552
0.901696 0.753764 0.320115
0.959400 0.777420 0.341262
0.111115 0.518356 0.136593
0.137593 0.531019 0.143605
0.172357 0.550128 0.153187
0.216542 0.574358 0.165295
0.268219 0.599573 0.178673
0.326153 0.624861 0.193035
0.389600 0.650187 0.208401
0.457404 0.675377 0.224724
0.528432 0.700405 0.241964
0.601248 0.725210 0.260095
0.674557 0.749617 0.279050
0.746808 0.773577 0.298813
0.816390 0.797000 0.319314
0.881729 0.819802 0.340557
0.941230 0.841816 0.362457
0.993761 0.862912 0.384848
0.121948 0.595418 0.152734
0.157026 0.620128 0.164803
0.199894 0.645400 0.178120
0.249937 0.670668 0.192517
0.306610 0.695792 0.207803
0.368869 0.720708 0.224072
0.435783 0.745347 0.241308
0.506148 0.769586 0.259359
0.578752 0.793283 0.278303
0.652079 0.816355 0.298062
0.724658 0.838807 0.318570
0.795006 0.860389 0.339744
0.861433 0.881122 0.361644
0.922394 0.900864 0.384058
0.976650 0.919560 0.407129
1.024745 0.937213 0.430499
0.142373 0.691174 0.177603
0.183544 0.716198 0.191945
0.232063 0.741016 0.207232
0.287272 0.765404 0.223465
0.348352 0.789388 0.240644
0.414317 0.812790 0.258685
0.484077 0.835566 0.277554
0.556258 0.857568 0.297265
0.629534 0.878776 0.317736
0.702442 0.898998 0.338969
0.773440 0.918243 0.360809
0.840930 0.936397 0.383225
0.903258 0.953631 0.406231
0.959048 0.969940 0.429776
1.008504 0.985381 0.453722
1.052676 0.999987 0.477853
0.167423 0.784962 0.206412
0.214334 0.808681 0.222637
0.268033 0.831823 0.239809
0.327881 0.854209 0.257820
0.392845 0.875841 0.276677
0.461792 0.896512 0.296321
0.533568 0.916291 0.316786
0.606743 0.934979 0.337966
0.679854 0.952673 0.359763
0.751428 0.969427 0.382174
0.819869 0.985275 0.405153
0.883507 1.000330 0.428635
0.940901 1.014611 0.452566
0.991717 1.028246 0.476824
1.037138 1.041294 0.501442
1.078177 1.053800 0.526142
0.047552 0.040998 0.065550
0.067920 0.044296 0.069379
0.087329 0.047594 0.073037
0.105420 0.050890 0.076605
0.120331 0.054077 0.080140
0.138370 0.057274 0.083491
0.161514 0.060389 0.086735
0.189275 0.063418 0.089781
0.221959 0.066444 0.092534
0.259501 0.069414 0.094886
0.301712 0.072286 0.096601
0.348155 0.075123 0.098669
0.398369 0.077871 0.101495
0.451945 0.080536 0.104873
0.508287 0.083019 0.108733
0.566408 0.085295 0.112956
0.053865 0.064757 0.072860
0.073764 0.067860 0.076499
0.092598 0.070962 0.079962
0.109417 0.073961 0.083395
0.124641 0.076966 0.086582
0.145362 0.079856 0.089627
0.170724 0.082675 0.092429
0.200816 0.085402 0.094773
0.235908 0.088033 0.096597
0.275760 0.090507 0.098595
0.320008 0.092788 0.101419
0.368389 0.094812 0.104792
0.420320 0.096402 0.108576
0.475240 0.097855 0.112806
0.532719 0.100081 0.117440
0.591605 0.102688 0.122494
0.059915 0.087352 0.079867
0.079412 0.090226 0.083218
0.097510 0.092939 0.086471
0.112528 0.095542 0.089506
0.130409 0.098001 0.092326
0.153400 0.100246 0.094677
0.181034 0.102298 0.096578
0.213536 0.104037 0.098518
0.250945 0.105517 0.101303
0.293007 0.107651 0.104629
0.339280 0.110312 0.108410
0.389450 0.113305 0.112651
0.442925 0.116594 0.117272
0.499170 0.120237 0.122283
0.557530 0.124176 0.127743
0.617069 0.128367 0.133562
0.065832 0.107757 0.086367
0.084749 0.109788 0.089412
0.101715 0.111644 0.092219
0.116743 0.113151 0.094606
0.137298 0.115271 0.096512
0.162487 0.117890 0.098433
0.192488 0.120867 0.101173
0.227391 0.124209 0.104530
0.267071 0.127839 0.108319
0.311258 0.131762 0.112485
0.359472 0.136001 0.117104
0.411309 0.140520 0.122118
0.466207 0.145385 0.127550
0.523527 0.150542 0.133342
0.582645 0.155987 0.139566
0.642640 0.161711 0.146228
0.071487 0.125413 0.092134
0.089680 0.128453 0.094518
0.104775 0.131732 0.096444
0.122383 0.135410 0.098347
0.145260 0.139332 0.101087
0.172728 0.143574 0.104397
0.205105 0.148122 0.108155
0.242370 0.152934 0.112342
0.284273 0.158079 0.116932
0.330464 0.163536 0.121934
0.380484 0.169327 0.127369
0.433861 0.175378 0.133159
0.490008 0.181760 0.139388
0.548319 0.188436 0.146001
0.608046 0.195461 0.153096
0.668290 0.202676 0.160551
0.076837 0.151093 0.096406
0.093927 0.155649 0.098224
0.108796 0.160494 0.100988
0.129237 0.165631 0.104259
0.154313 0.171058 0.108036
0.184094 0.176840 0.112204
0.218877 0.182932 0.116780
0.258436 0.189308 0.121758
0.302484 0.196001 0.127139
0.350565 0.203005 0.132949
0.402312 0.210306 0.139123
0.457092 0.217855 0.145758
0.514342 0.225721 0.152839
0.573436 0.233882 0.160332
0.633681 0.242323 0.168334
0.697108 0.253166 0.177866
0.081801 0.184400 0.100863
0.096984 0.190475 0.104123
0.114382 0.196840 0.107853
0.137103 0.203521 0.112018
0.164446 0.210513 0.116594
0.196697 0.217802 0.121581
0.233787 0.225387 0.126940
0.275540 0.233253 0.132723
0.321609 0.241393 0.138910
0.371556 0.249834 0.145540
0.424811 0.258545 0.152572
0.480876 0.267506 0.160069
0.539118 0.276720 0.167987
0.602126 0.288670 0.177633
0.673101 0.306304 0.190472
0.745763 0.326379 0.205097
0.086172 0.225281 0.107752
0.100879 0.232872 0.111864
0.121178 0.240786 0.116445
0.146078 0.248908 0.121370
0.175756 0.257339 0.126752
0.210409 0.266024 0.132484
0.249769 0.274988 0.138673
0.293687 0.284236 0.145284
0.341656 0.293704 0.152300
0.393279 0.303403 0.159803
0.447999 0.313393 0.167717
0.508358 0.326164 0.177296
0.577407 0.344685 0.189981
0.650565 0.366058 0.204600
0.723703 0.388161 0.220237
0.795054 0.410817 0.236657
0.089192 0.273492 0.116256
0.106411 0.282494 0.121175
0.128979 0.291699 0.126519
0.156188 0.301173 0.132283
0.188233 0.310896 0.138437
0.225201 0.320857 0.145012
0.266832 0.331080 0.152024
0.312784 0.341491 0.159489
0.362594 0.352097 0.167422
0.418540 0.365480 0.176892
0.483939 0.384874 0.189464
0.555093 0.407309 0.204048
0.627984 0.430367 0.219618
0.701277 0.453988 0.236155
0.773426 0.478085 0.253593
0.842542 0.502485 0.271794
0.092989 0.328389 0.126326
0.113068 0.338535 0.132039
0.137873 0.348953 0.138227
0.167392 0.359573 0.144769
0.201852 0.370399 0.151777
0.241134 0.381426 0.159206
0.284905 0.392680 0.167118
0.334957 0.406415 0.176433
0.395139 0.426618 0.188957
0.462292 0.449978 0.203510
0.532835 0.473829 0.219054
0.605467 0.498202 0.235518
0.678771 0.522863 0.252950
0.751328 0.547808 0.271209
0.821438 0.572973 0.290343
0.887340 0.598113 0.310140
0.098383 0.388886 0.137954
0.120819 0.400154 0.144486
0.147891 0.411579 0.151486
0.179781 0.423121 0.158923
0.216605 0.434886 0.166830
0.259592 0.448678 0.175934
0.313221 0.469723 0.188438
0.374571 0.493823 0.202950
0.440798 0.518347 0.218462
0.510689 0.543170 0.234889
0.582963 0.568229 0.252262
0.656225 0.593483 0.270523
0.729083 0.618758 0.289609
0.799886 0.644040 0.309504
0.867157 0.669153 0.330102
0.928863 0.694010 0.351331
0.104997 0.454253 0.151248
0.129699 0.466258 0.158631
0.159042 0.478460 0.166541
0.194132 0.492028 0.175335
0.240038 0.513882 0.187918
0.294109 0.538574 0.202387
0.354257 0.563566 0.217863
0.419494 0.588713 0.234253
0.488647 0.613972 0.251618
0.560512 0.639269 0.269849
0.633699 0.664503 0.288880
0.706770 0.689601 0.308722
0.778203 0.714403 0.329353
0.846400 0.738873 0.350612
0.909673 0.762909 0.372609
0.966369 0.786309 0.395011
0.112658 0.523118 0.166183
0.139839 0.536148 0.174651
0.177092 0.558909 0.187365
0.222709 0.583960 0.201805
0.275347 0.609211 0.217257
0.334239 0.634535 0.233670
0.398378 0.659787 0.250958
0.466788 0.684961 0.269137
0.538129 0.709900 0.288147
0.611135 0.734548 0.307983
0.684375 0.758829 0.328549
0.756313 0.782611 0.349866
0.825366 0.805791 0.371791
0.889906 0.828256 0.394296
0.948392 0.849997 0.417377
1.000044 0.870784 0.440825
0.125428 0.604495 0.186802
0.161788 0.629738 0.201217
0.205785 0.655021 0.216604
0.256927 0.680286 0.233015
0.314453 0.705319 0.250269
0.377484 0.730142 0.268404
0.445002 0.754644 0.287441
0.515828 0.778659 0.307239
0.588556 0.802165 0.327769
0.661919 0.825001 0.349039
0.734259 0.847100 0.370964
0.804113 0.868389 0.393470
0.869854 0.888753 0.416546
0.929827 0.908118 0.440099
0.983130 0.926436 0.464047
1.030370 0.943708 0.488276
0.146929 0.700708 0.216010
0.189236 0.725720 0.232340
0.238800 0.750372 0.249604
0.294944 0.774635 0.267731
0.356838 0.798365 0.286696
0.423461 0.821569 0.306443
0.493585 0.844044 0.326975
0.566095 0.865761 0.348202
0.639383 0.886593 0.370137
0.712103 0.906441 0.392634
0.782650 0.925254 0.415626
0.849478 0.943078 0.439198
0.910902 0.959935 0.463151
0.965712 0.975870 0.487479
1.014315 0.991020 0.512096
1.057821 1.005339 0.536875
0.172914 0.794037 0.248764
0.220856 0.817561 0.266795
0.275501 0.840426 0.285753
0.336196 0.862529 0.305486
0.401805 0.883853 0.326018
0.471289 0.904234 0.347236
0.543318 0.923547 0.369085
0.616590 0.941856 0.391585
0.689562 0.959136 0.414566
0.760791 0.975552 0.438105
0.828605 0.991081 0.462006
0.891417 1.005856 0.486331
0.947770 1.019876 0.510939
0.997721 1.033298 0.535843
1.042466 1.046154 0.560853
1.082944 1.058393 0.585831
0.048752 0.042281 0.084067
0.069030 0.045578 0.087595
0.088340 0.048875 0.090957
0.106290 0.052085 0.094200
0.120987 0.055291 0.097240
0.139655 0.058462 0.099981
0.163183 0.061546 0.102318
0.191423 0.064567 0.104200
0.224580 0.067582 0.106184
0.262596 0.070513 0.109000
0.305195 0.073385 0.112376
0.351986 0.076210 0.116158
0.402573 0.078897 0.120401
0.456422 0.081454 0.125029
0.512956 0.083935 0.130110
0.571342 0.086117 0.135552
0.055053 0.065945 0.090790
0.074858 0.069052 0.094038
0.093595 0.072133 0.097076
0.110161 0.075141 0.099876
0.125644 0.078060 0.102242
0.146811 0.080941 0.104178
0.172636 0.083711 0.106102
0.203233 0.086400 0.108925
0.238760 0.088981 0.112211
0.279001 0.091427 0.116043
0.323699 0.093596 0.120241
0.372389 0.095499 0.124921
0.424616 0.096854 0.129925
0.479881 0.098616 0.135333
0.537482 0.101016 0.141172
0.596552 0.103805 0.147385
0.061086 0.088439 0.096973
0.080422 0.091239 0.099777
0.098397 0.093936 0.102143
0.113175 0.096506 0.104111
0.131611 0.098873 0.106021
0.155042 0.101065 0.108780
0.183144 0.103004 0.112114
0.216154 0.104565 0.115906
0.253987 0.106266 0.120112
0.296438 0.108631 0.124738
0.343151 0.111373 0.129748
0.393646 0.114537 0.135152
0.447388 0.117985 0.140992
0.503849 0.121727 0.147231
0.562388 0.125766 0.153869
0.622016 0.130129 0.160922
0.066931 0.108557 0.102058
0.085736 0.110518 0.104041
0.102388 0.112184 0.105931
0.117734 0.113848 0.108671
0.138758 0.116197 0.112020
0.164399 0.118983 0.115739
0.194821 0.122097 0.119969
0.230242 0.125551 0.124557
0.270338 0.129274 0.129567
0.314902 0.133369 0.134953
0.363495 0.137698 0.140762
0.415610 0.142365 0.146978
0.470785 0.147280 0.153611
0.528283 0.152547 0.160702
0.587587 0.158145 0.168255
0.647590 0.163976 0.176180
0.072499 0.126575 0.105898
0.090581 0.129663 0.108569
0.105366 0.133089 0.111842
0.123637 0.136873 0.115620
0.146911 0.140887 0.119805
0.174844 0.145255 0.124375
0.207703 0.149901 0.129379
0.245384 0.154855 0.134768
0.287730 0.160136 0.140551
0.334307 0.165693 0.146774
0.384661 0.171579 0.153412
0.438310 0.177778 0.160442
0.494709 0.184291 0.167974
0.553186 0.191073 0.175932
0.613001 0.198198 0.184354
0.673324 0.205586 0.193187
0.077843 0.152807 0.111744
0.094617 0.157456 0.115470
0.109779 0.162425 0.119629
0.130687 0.167666 0.124227
0.156180 0.173251 0.129185
0.186474 0.179135 0.134554
0.221712 0.185316 0.140349
0.261707 0.191805 0.146527
0.306100 0.198631 0.153145
0.354562 0.205733 0.160208
0.406618 0.213121 0.167702
0.461677 0.220826 0.175666
0.519166 0.228816 0.184055
0.578375 0.237074 0.192874
0.639279 0.246046 0.202414
0.705227 0.258737 0.214465
0.082713 0.186657 0.119496
0.097533 0.192835 0.124037
0.115633 0.199340 0.128992
0.138800 0.206165 0.134366
0.166562 0.213279 0.140135
0.199269 0.220662 0.146304
0.236829 0.228356 0.152880
0.278985 0.236325 0.159936
0.325451 0.244583 0.167420
0.375711 0.253118 0.175378
0.429283 0.261922 0.183737
0.485555 0.270972 0.192591
0.544485 0.280704 0.202012
0.609995 0.294560 0.214105
0.682959 0.313885 0.229655
0.755436 0.334264 0.246217
0.086861 0.228159 0.128804
0.101857 0.235845 0.134151
0.122623 0.243845 0.139877
0.147980 0.252098 0.146061
0.178109 0.260604 0.152648
0.213176 0.269425 0.159689
0.253002 0.278464 0.167142
0.297321 0.287805 0.175059
0.345649 0.297368 0.183435
0.397580 0.307204 0.192228
0.452917 0.317534 0.201634
0.515852 0.332397 0.213695
0.587219 0.352747 0.229088
0.660447 0.374417 0.245715
0.733463 0.396721 0.263248
0.804445 0.419610 0.281553
0.089680 0.276932 0.139678
0.107584 0.285989 0.145827
0.130655 0.295289 0.152408
0.158266 0.304887 0.159404
0.190804 0.314670 0.166858
0.228225 0.324714 0.174758
0.270254 0.335022 0.183113
0.316585 0.345509 0.191881
0.366902 0.356372 0.201202
0.425571 0.372131 0.213246
0.493291 0.393339 0.228509
0.564805 0.416008 0.245083
0.637869 0.439323 0.262615
0.711075 0.463108 0.280961
0.782915 0.487389 0.300186
0.851466 0.511926 0.320079
0.093953 0.332221 0.152159
0.114480 0.342493 0.159126
0.139749 0.353001 0.166568
0.169699 0.363708 0.174433
0.204662 0.374629 0.182797
0.244333 0.385721 0.191563
0.288575 0.397058 0.200779
0.341426 0.413462 0.212754
0.403810 0.435444 0.227902
0.471520 0.459027 0.244443
0.542476 0.483088 0.261939
0.615289 0.507545 0.280270
0.688612 0.532326 0.299455
0.760859 0.557358 0.319435
0.830538 0.582605 0.340128
0.895695 0.607769 0.361429
0.099608 0.393184 0.166288
0.122460 0.404439 0.174138
0.149967 0.415931 0.182465
0.182364 0.427600 0.191226
0.219647 0.439447 0.200421
0.265362 0.456247 0.212251
0.320924 0.478839 0.227285
0.383098 0.503131 0.243847
0.449915 0.527772 0.261270
0.520269 0.552725 0.279566
0.592796 0.577855 0.298736
0.666112 0.603105 0.318659
0.738760 0.628381 0.339317
0.809133 0.653634 0.360741
0.875643 0.678737 0.382743
0.936464 0.703471 0.405258
0.106417 0.458808 0.182137
0.131524 0.470900 0.190870
0.161348 0.483137 0.200086
0.198975 0.500080 0.211717
0.246594 0.523271 0.226706
0.301656 0.548066 0.243194
0.362639 0.573113 0.260601
0.428500 0.598333 0.278886
0.498150 0.623640 0.298023
0.570296 0.648912 0.317922
0.643566 0.674078 0.338575
0.716471 0.699068 0.359927
0.787504 0.723789 0.381937
0.855053 0.748091 0.404538
0.917496 0.771901 0.427684
0.973239 0.795106 0.451147
0.114289 0.527936 0.199716
0.143564 0.544724 0.211085
0.182316 0.568421 0.226111
0.229052 0.593562 0.242551
0.282707 0.618867 0.259915
0.342403 0.644156 0.278193
0.407272 0.669403 0.297272
0.476189 0.694502 0.317176
0.547867 0.719329 0.337789
0.621026 0.743865 0.359118
0.694155 0.767932 0.381102
0.765738 0.791520 0.403695
0.834210 0.814436 0.426802
0.897977 0.836677 0.450426
0.955449 0.858060 0.474391
1.006165 0.878442 0.498680
0.129232 0.614088 0.225455
0.166806 0.639364 0.241886
0.211857 0.664702 0.259249
0.264032 0.689842 0.277469
0.322426 0.714837 0.296523
0.386234 0.739558 0.316415
0.454331 0.763841 0.337000
0.525489 0.787716 0.358313
0.598444 0.810958 0.380298
0.671726 0.833515 0.402856
0.743800 0.855362 0.425955
0.813156 0.876285 0.449514
0.878131 0.896286 0.473544
0.937084 0.915253 0.497891
0.989437 0.933197 0.522523
1.035896 0.950101 0.547294
0.151663 0.710241 0.258572
0.195100 0.735159 0.276777
0.245634 0.759634 0.295762
0.302706 0.783723 0.315643
0.365380 0.807305 0.336208
0.432616 0.830240 0.357518
0.503260 0.852420 0.379460
0.575927 0.873841 0.401975
0.649230 0.894307 0.425047
0.721713 0.913747 0.448660
0.791817 0.932184 0.472631
0.857924 0.949579 0.496984
0.918422 0.966140 0.521601
0.972220 0.981770 0.546498
1.020037 0.996631 0.571505
1.062871 1.010672 0.596489
0.178507 0.803100 0.294887
0.227490 0.826353 0.314689
0.283149 0.848928 0.335245
0.344611 0.870742 0.356470
0.410864 0.891709 0.378414
0.480813 0.911691 0.400916
0.553151 0.930626 0.423981
0.626442 0.948556 0.447519
0.699305 0.965534 0.471511
0.770112 0.981577 0.495835
0.837240 0.996823 0.520443
0.899158 1.011284 0.545344
0.954477 1.025101 0.570346
1.003623 1.038259 0.595455
1.047617 1.050912 0.620622
1.087612 1.063046 0.645589
0.050017 0.043563 0.101597
0.070201 0.046861 0.104704
0.089425 0.050132 0.107437
0.107090 0.053336 0.109778
0.121797 0.056484 0.111777
0.140913 0.059650 0.113689
0.164951 0.062687 0.116501
0.193624 0.065749 0.119863
0.227243 0.068681 0.123647
0.265655 0.071612 0.127870
0.308706 0.074485 0.132495
0.355878 0.077233 0.137516
0.406829 0.079892 0.142969
0.460953 0.082457 0.148774
0.517713 0.084768 0.155079
0.576193 0.086850 0.161670
0.056240 0.067138 0.107351
0.075957 0.070224 0.109738
0.094584 0.073257 0.111714
0.110789 0.076239 0.113597
0.126715 0.079157 0.116421
0.148345 0.081986 0.119701
0.174557 0.084763 0.123487
0.205624 0.087434 0.127730
0.241613 0.089917 0.132318
0.282324 0.092258 0.137332
0.327402 0.094349 0.142751
0.376458 0.096082 0.148578
0.428982 0.097407 0.154821
0.484470 0.099456 0.161509
0.542262 0.102040 0.168611
0.601497 0.104928 0.176071
0.062274 0.089526 0.111640
0.081500 0.092298 0.113566
0.099270 0.094930 0.116311
0.113925 0.097467 0.119596
0.132948 0.099732 0.123376
0.156790 0.101835 0.127559
0.185336 0.103675 0.132175
0.218809 0.105071 0.137150
0.257117 0.107109 0.142582
0.299948 0.109607 0.148390
0.347044 0.112568 0.154633
0.397830 0.115775 0.161263
0.451881 0.119375 0.168347
0.508533 0.123231 0.175858
0.567237 0.127365 0.183867
0.626974 0.131842 0.192245
0.068031 0.109328 0.116161
0.086728 0.111249 0.119471
0.103054 0.112714 0.123211
0.118765 0.114689 0.127384
0.140228 0.117211 0.132007
0.166342 0.120102 0.136961
0.197252 0.123352 0.142349
0.233095 0.126933 0.148173
0.273658 0.130826 0.154374
0.318609 0.134959 0.161003
0.367550 0.139434 0.168081
0.419969 0.144187 0.175599
0.475364 0.149257 0.183589
0.533125 0.154673 0.192007
0.592514 0.160334 0.200830
0.652622 0.166322 0.210047
0.073593 0.127690 0.123097
0.091452 0.130935 0.127258
0.106103 0.134531 0.131828
0.124913 0.138352 0.136813
0.148633 0.142539 0.142160
0.177033 0.146989 0.147928
0.210331 0.151753 0.154165
0.248498 0.156850 0.160746
0.291217 0.162206 0.167834
0.338165 0.167911 0.175331
0.388851 0.173916 0.183255
0.442795 0.180228 0.191676
0.499409 0.186842 0.200533
0.558036 0.193769 0.209795
0.618000 0.201009 0.219458
0.678271 0.208477 0.229535
0.078817 0.154548 0.131650
0.095280 0.159330 0.136622
0.110842 0.164379 0.141967
0.132168 0.169773 0.147736
0.158112 0.175459 0.153919
0.188880 0.181457 0.160537
0.224538 0.187753 0.167562
0.264962 0.194390 0.175066
0.309801 0.201310 0.182983
0.358634 0.208522 0.191370
0.410964 0.216048 0.200183
0.466263 0.223836 0.209438
0.523922 0.231938 0.219107
0.583258 0.240281 0.229228
0.645791 0.250423 0.240746
0.715000 0.265541 0.255780
0.083591 0.188982 0.141763
0.098223 0.195299 0.147530
0.116894 0.201891 0.153690
0.140462 0.208824 0.160265
0.168710 0.216054 0.167288
0.201863 0.223555 0.174766
0.239890 0.231343 0.182685
0.282476 0.239438 0.191051
0.329303 0.247789 0.199868
0.379898 0.256424 0.209095
0.433744 0.265340 0.218776
0.490284 0.274516 0.228844
0.550923 0.285506 0.240332
0.619517 0.301674 0.255233
0.692846 0.321615 0.272908
0.765075 0.342279 0.291330
0.087500 0.231047 0.153416
0.102883 0.238873 0.160025
0.124073 0.246936 0.167010
0.149900 0.255316 0.174478
0.180465 0.263952 0.182394
0.216007 0.272850 0.190748
0.256292 0.282022 0.199531
0.301003 0.291435 0.208786
