example_ofxGpuLutCube/bin/data/ofxGpuLutCube/LUT/C36 (warm reddish fade).cube
LUT_3D_SIZE 16
-0.252910 -0.059809 -0.229976
-0.170023 -0.063657 -0.224606
-0.088356 -0.066757 -0.219575
-0.007727 -0.069827 -0.214117
0.071856 -0.072922 -0.208259
0.150468 -0.075433 -0.202707
0.228194 -0.077448 -0.197420
0.305225 -0.079130 -0.192376
0.381641 -0.080389 -0.187517
0.457489 -0.081368 -0.182841
0.532852 -0.082038 -0.178261
0.607705 -0.082430 -0.173860
0.682112 -0.082544 -0.169517
0.756100 -0.082484 -0.165296
0.829783 -0.082171 -0.161205
0.902616 -0.081688 -0.157069
-0.221835 -0.002271 -0.219433
-0.141605 -0.004634 -0.214821
-0.062081 -0.006681 -0.210521
0.016667 -0.009071 -0.205137
0.094607 -0.011215 -0.199725
0.171841 -0.012911 -0.194602
0.248492 -0.014288 -0.189600
0.324563 -0.015352 -0.184812
0.400121 -0.016090 -0.180208
0.475181 -0.016590 -0.175724
0.549764 -0.016902 -0.171323
0.623941 -0.016921 -0.167043
0.697768 -0.016719 -0.162910
0.771184 -0.016307 -0.158715
0.844214 -0.015762 -0.154747
0.916591 -0.014956 -0.150742
-0.189769 0.055697 -0.208172
-0.111389 0.054046 -0.203974
-0.033521 0.052734 -0.199898
0.043620 0.051057 -0.194769
0.120046 0.049719 -0.189855
0.196076 0.048736 -0.185018
0.271504 0.047968 -0.180433
0.346528 0.047481 -0.175921
0.421106 0.047259 -0.171521
0.495301 0.047233 -0.167264
0.569139 0.047387 -0.163086
0.642582 0.047743 -0.158977
0.715741 0.048357 -0.154907
0.788528 0.049065 -0.150862
0.861003 0.049976 -0.146902
0.932839 0.051040 -0.143029
-0.161657 0.115677 -0.198000
-0.084756 0.114686 -0.194113
-0.008327 0.113705 -0.190014
0.067632 0.112742 -0.185258
0.143022 0.112015 -0.180604
0.218038 0.111592 -0.176073
0.292596 0.111302 -0.171708
0.366783 0.111329 -0.167411
0.440636 0.111491 -0.163217
0.514077 0.111858 -0.159109
0.587259 0.112379 -0.155050
0.660115 0.113065 -0.151016
0.732671 0.113985 -0.147081
0.804880 0.114995 -0.143142
0.876807 0.116179 -0.139244
0.948106 0.117522 -0.135355
-0.136596 0.177159 -0.188541
-0.060778 0.176610 -0.184948
0.014590 0.176086 -0.180737
0.089533 0.175603 -0.176277
0.164080 0.175405 -0.171921
0.238264 0.175346 -0.167595
0.312115 0.175524 -0.163351
0.385632 0.175878 -0.159254
0.458798 0.176405 -0.155189
0.531673 0.177098 -0.151156
0.604256 0.177949 -0.147222
0.676510 0.178981 -0.143294
0.748523 0.180118 -0.139385
0.820281 0.181437 -0.135546
0.891684 0.182912 -0.131705
0.962458 0.184424 -0.127878
-0.113769 0.239839 -0.179643
-0.038956 0.239671 -0.176232
0.035584 0.239487 -0.172061
0.109770 0.239461 -0.167726
0.183603 0.239634 -0.163500
0.257142 0.239955 -0.159409
0.330336 0.240450 -0.155346
0.403272 0.241109 -0.151294
0.475874 0.241942 -0.147361
0.548186 0.242939 -0.143433
0.620262 0.244074 -0.139524
0.692052 0.245336 -0.135718
0.763566 0.246728 -0.131837
0.834858 0.248303 -0.128066
0.905841 0.249980 -0.124195
0.976188 0.251819 -0.120464
-0.092739 0.303422 -0.171246
-0.018743 0.303469 -0.167860
0.055091 0.303663 -0.163735
0.128626 0.304012 -0.159571
0.201880 0.304480 -0.155485
0.274857 0.305142 -0.151450
0.347504 0.305955 -0.147497
0.419897 0.306889 -0.143569
0.492029 0.308018 -0.139660
0.563872 0.309223 -0.135849
0.635484 0.310604 -0.131967
0.706849 0.312085 -0.128198
0.777907 0.313729 -0.124326
0.848699 0.315503 -0.120586
0.919243 0.317411 -0.116729
0.989266 0.319414 -0.113008
-0.073195 0.367751 -0.163175
0.000164 0.368055 -0.159710
0.073422 0.368541 -0.155624
0.146400 0.369153 -0.151577
0.219111 0.369981 -0.147631
0.291567 0.370874 -0.143704
0.363758 0.371947 -0.139834
0.435701 0.373124 -0.135980
0.507364 0.374480 -0.132098
0.578805 0.375921 -0.128328
0.649967 0.377507 -0.124472
0.720881 0.379221 -0.120716
0.791584 0.381078 -0.116872
0.861973 0.383052 -0.113120
0.932146 0.385131 -0.109273
1.001626 0.387348 -0.105595
-0.054802 0.432642 -0.155281
0.018008 0.433233 -0.151752
0.090723 0.433979 -0.147764
0.163252 0.434850 -0.143837
0.235485 0.435879 -0.139979
0.307487 0.437037 -0.136111
0.379279 0.438337 -0.132232
0.450788 0.439721 -0.128459
0.522018 0.441285 -0.124612
0.593094 0.442939 -0.120846
0.663845 0.444742 -0.117055
0.734398 0.446653 -0.113250
0.804751 0.448671 -0.109416
0.874746 0.450851 -0.105671
0.944528 0.453072 -0.101829
1.013638 0.455432 -0.098164
-0.037423 0.497990 -0.147579
0.034911 0.498805 -0.143969
0.107195 0.499838 -0.140124
0.179287 0.500948 -0.136242
0.251131 0.502195 -0.132363
0.322768 0.503587 -0.128588
0.394119 0.505078 -0.124753
0.465240 0.506669 -0.120976
0.536115 0.508396 -0.117195
0.606828 0.510233 -0.113380
0.677255 0.512196 -0.109596
0.747437 0.514287 -0.105801
0.817401 0.516514 -0.101962
0.887098 0.518852 -0.098136
0.956527 0.521260 -0.094237
1.025265 0.523697 -0.090659
-0.020902 0.563811 -0.140107
0.051100 0.564830 -0.136373
0.123032 0.566066 -0.132582
0.194704 0.567392 -0.128719
0.266157 0.568851 -0.124922
0.337410 0.570377 -0.121107
0.408424 0.572082 -0.117347
0.479219 0.573846 -0.113510
0.549757 0.575737 -0.109730
0.620119 0.577741 -0.105931
0.690223 0.579911 -0.102104
0.760084 0.582147 -0.098269
0.829659 0.584525 -0.094373
0.899032 0.587011 -0.090530
0.968128 0.589571 -0.086568
1.036571 0.592094 -0.082934
-0.005113 0.629956 -0.132714
0.066667 0.631192 -0.128851
0.138207 0.632627 -0.125083
0.209584 0.634117 -0.121237
0.280711 0.635742 -0.117482
0.351588 0.637461 -0.113640
0.422286 0.639274 -0.109911
0.492773 0.641255 -0.106060
0.563010 0.643278 -0.102236
0.633041 0.645461 -0.098401
0.702856 0.647749 -0.094508
0.772365 0.650099 -0.090667
0.841708 0.652634 -0.086724
0.910717 0.655250 -0.082701
0.979532 0.658032 -0.078732
1.047690 0.660587 -0.075055
0.010249 0.696415 -0.125227
0.081757 0.697888 -0.121366
0.152993 0.699407 -0.117612
0.223998 0.701046 -0.113771
0.294842 0.702821 -0.110040
0.365413 0.704689 -0.106191
0.435834 0.706691 -0.102371
0.506004 0.708774 -0.098530
0.575971 0.710932 -0.094689
0.645722 0.713276 -0.090802
0.715215 0.715660 -0.086861
0.784454 0.718197 -0.082901
0.853501 0.720817 -0.078859
0.922215 0.723616 -0.074722
0.990656 0.726506 -0.070552
1.058757 0.729036 -0.066950
0.025209 0.763055 -0.117747
0.096343 0.764690 -0.113983
0.167311 0.766426 -0.110169
0.238088 0.768182 -0.106320
0.308575 0.770104 -0.102563
0.378974 0.772115 -0.098721
0.449068 0.774193 -0.094817
0.519008 0.776366 -0.090939
0.588685 0.778707 -0.086998
0.658170 0.781121 -0.083042
0.727382 0.783660 -0.078992
0.796357 0.786291 -0.074923
0.865132 0.789082 -0.070769
0.933559 0.791909 -0.066479
1.001740 0.794921 -0.062178
1.069783 0.797479 -0.058406
0.039838 0.829951 -0.110299
0.110686 0.831719 -0.106449
0.181389 0.833502 -0.102706
0.251904 0.835415 -0.098868
0.322214 0.837446 -0.094953
0.392245 0.839518 -0.091077
0.462172 0.841787 -0.087135
0.531837 0.844087 -0.083178
0.601304 0.846502 -0.079124
0.670561 0.849001 -0.075051
0.739505 0.851631 -0.070916
0.808301 0.854359 -0.066655
0.876716 0.857213 -0.062333
0.944965 0.860166 -0.057904
1.012866 0.863226 -0.053252
1.080818 0.865808 -0.049455
0.054124 0.896587 -0.102884
0.124788 0.898476 -0.099044
0.195237 0.900385 -0.095112
0.265516 0.902426 -0.091247
0.335529 0.904496 -0.087307
0.405434 0.906686 -0.083348
0.475118 0.909023 -0.079355
0.544623 0.911399 -0.075270
0.613836 0.913883 -0.071091
0.682876 0.916510 -0.066838
0.751639 0.919194 -0.062514
0.820155 0.922016 -0.058085
0.888447 0.924923 -0.053530
0.956423 0.927883 -0.048763
1.024084 0.930984 -0.044068
1.092138 0.933565 -0.039860
-0.246648 -0.061372 -0.161356
-0.164319 -0.064903 -0.155986
-0.083078 -0.067788 -0.151045
-0.002796 -0.070806 -0.145556
0.076442 -0.073675 -0.139791
0.154813 -0.076092 -0.134254
0.232307 -0.077960 -0.129059
0.309114 -0.079517 -0.124099
0.385356 -0.080662 -0.119355
0.460991 -0.081527 -0.114748
0.536238 -0.082149 -0.110265
0.610980 -0.082462 -0.105891
0.685294 -0.082547 -0.101682
0.759155 -0.082382 -0.097529
0.832636 -0.082060 -0.093409
0.905454 -0.081474 -0.089428
-0.216691 -0.003166 -0.150868
-0.136782 -0.005498 -0.146263
-0.057551 -0.007357 -0.141937
0.020986 -0.009621 -0.136630
0.098701 -0.011652 -0.131283
0.175761 -0.013309 -0.126194
0.252229 -0.014617 -0.121325
0.328164 -0.015575 -0.116611
0.403553 -0.016250 -0.112071
0.478454 -0.016694 -0.107651
0.552929 -0.016845 -0.103378
0.626990 -0.016837 -0.099169
0.700634 -0.016588 -0.095040
0.773933 -0.016104 -0.091060
0.846939 -0.015449 -0.087067
0.919228 -0.014647 -0.083202
-0.185270 0.055021 -0.139828
-0.107102 0.053541 -0.135619
-0.029522 0.052227 -0.131469
0.047400 0.050674 -0.126426
0.123791 0.049470 -0.121518
0.199565 0.048531 -0.116827
0.274932 0.047861 -0.112326
0.349796 0.047427 -0.107850
0.424220 0.047263 -0.103605
0.498354 0.047329 -0.099364
0.572090 0.047552 -0.095284
0.645450 0.047948 -0.091238
0.718492 0.048573 -0.087215
0.791157 0.049364 -0.083310
0.863534 0.050304 -0.079421
0.935260 0.051372 -0.075597
-0.157678 0.115273 -0.129763
-0.080965 0.114332 -0.125855
-0.004647 0.113475 -0.121727
0.071166 0.112546 -0.116988
0.146448 0.111910 -0.112464
0.221285 0.111504 -0.108081
0.295752 0.111347 -0.103743
0.369826 0.111351 -0.099538
0.443562 0.111603 -0.095415
0.516939 0.111984 -0.091373
0.589987 0.112600 -0.087354
0.662757 0.113368 -0.083439
0.735209 0.114312 -0.079574
0.807329 0.115402 -0.075707
0.879216 0.116617 -0.071951
0.950432 0.117969 -0.068122
-0.132949 0.176982 -0.120408
-0.057310 0.176438 -0.116816
0.017949 0.175995 -0.112596
0.092780 0.175596 -0.108234
0.167206 0.175406 -0.103907
0.241304 0.175444 -0.099699
0.315051 0.175682 -0.095546
0.388476 0.176067 -0.091518
0.461569 0.176628 -0.087491
0.534348 0.177370 -0.083569
0.606822 0.178317 -0.079705
0.679028 0.179326 -0.075837
0.750951 0.180523 -0.072083
0.822614 0.181887 -0.068259
0.894004 0.183365 -0.064520
0.964683 0.185047 -0.060811
-0.110423 0.239741 -0.111713
-0.035722 0.239609 -0.108235
0.038723 0.239514 -0.104042
0.112798 0.239494 -0.099845
0.186529 0.239734 -0.095692
0.259966 0.240117 -0.091678
0.333113 0.240692 -0.087647
0.405939 0.241368 -0.083734
0.478482 0.242244 -0.079837
0.550747 0.243277 -0.075992
0.622739 0.244493 -0.072212
0.694437 0.245767 -0.068413
0.765859 0.247237 -0.064649
0.837076 0.248845 -0.060927
0.907965 0.250574 -0.057206
0.978300 0.252383 -0.053527
-0.089619 0.303424 -0.103354
-0.015721 0.303569 -0.099996
0.058046 0.303812 -0.095871
0.131528 0.304157 -0.091815
0.204677 0.304743 -0.087795
0.277543 0.305426 -0.083882
0.350104 0.306237 -0.079968
0.422418 0.307271 -0.076126
0.494508 0.308409 -0.072342
0.566276 0.309643 -0.068549
0.637782 0.311079 -0.064791
0.709073 0.312638 -0.061057
0.780136 0.314331 -0.057335
0.850880 0.316132 -0.053645
0.921353 0.318043 -0.049936
0.991273 0.320146 -0.046267
-0.070244 0.367854 -0.095384
0.003026 0.368217 -0.091952
0.076218 0.368748 -0.087930
0.149091 0.369426 -0.084015
0.221790 0.370254 -0.080136
0.294139 0.371205 -0.076289
0.366224 0.372313 -0.072482
0.438133 0.373543 -0.068712
0.509744 0.374948 -0.064952
0.581100 0.376394 -0.061187
0.652220 0.378035 -0.057465
0.723110 0.379785 -0.053775
0.793706 0.381703 -0.050063
0.864079 0.383691 -0.046378
0.934158 0.385864 -0.042673
1.003562 0.388074 -0.039067
-0.052024 0.432801 -0.087639
0.020704 0.433447 -0.084150
0.093402 0.434208 -0.080268
0.165839 0.435202 -0.076431
0.238006 0.436263 -0.072611
0.309948 0.437427 -0.068851
0.381636 0.438779 -0.065092
0.453087 0.440219 -0.061343
0.524338 0.441809 -0.057594
0.595283 0.443520 -0.053903
0.666005 0.445308 -0.050195
0.736472 0.447284 -0.046508
0.806768 0.449345 -0.042802
0.876755 0.451546 -0.039125
0.946525 0.453861 -0.035428
1.015471 0.456255 -0.031825
-0.034761 0.498260 -0.080128
0.037546 0.499126 -0.076575
0.109724 0.500169 -0.072742
0.181807 0.501357 -0.068987
0.253548 0.502630 -0.065228
0.325093 0.504012 -0.061503
0.396441 0.505562 -0.057781
0.467510 0.507198 -0.054089
0.538332 0.508958 -0.050382
0.608957 0.510840 -0.046637
0.679364 0.512868 -0.042939
0.749486 0.514994 -0.039253
0.819402 0.517213 -0.035557
0.889047 0.519600 -0.031785
0.958424 0.522062 -0.028038
1.027053 0.524527 -0.024517
-0.018356 0.564123 -0.072746
0.053632 0.565246 -0.069122
0.125451 0.566457 -0.065364
0.197110 0.567824 -0.061639
0.268481 0.569341 -0.057916
0.339720 0.570905 -0.054224
0.410661 0.572622 -0.050517
0.481399 0.574444 -0.046799
0.551902 0.576367 -0.043068
0.622183 0.578416 -0.039382
0.692252 0.580583 -0.035692
0.762041 0.582867 -0.031914
0.831659 0.585273 -0.028167
0.900936 0.587785 -0.024378
0.970022 0.590478 -0.020566
1.038367 0.592990 -0.017054
-0.002624 0.630345 -0.065500
0.069093 0.631682 -0.061773
0.140621 0.633076 -0.058066
0.211893 0.634619 -0.054359
0.283003 0.636271 -0.050655
0.353808 0.638016 -0.046964
0.424486 0.639894 -0.043209
0.494924 0.641887 -0.039510
0.565107 0.643951 -0.035821
0.635103 0.646195 -0.032069
0.704811 0.648486 -0.028299
0.774316 0.650928 -0.024509
0.843604 0.653450 -0.020719
0.912608 0.656094 -0.016843
0.981336 0.658886 -0.012978
1.049494 0.661531 -0.009583
0.012673 0.696835 -0.058201
0.084080 0.698321 -0.054494
0.155246 0.699934 -0.050791
0.226241 0.701649 -0.047099
0.297041 0.703415 -0.043394
0.367603 0.705320 -0.039639
0.437957 0.707323 -0.035957
0.508115 0.709463 -0.032221
0.578016 0.711662 -0.028474
0.647733 0.714009 -0.024643
0.717146 0.716438 -0.020859
0.786375 0.719038 -0.016968
0.855315 0.721682 -0.013103
0.924064 0.724480 -0.009249
0.992504 0.727407 -0.005280
1.060553 0.730099 -0.001804
0.027534 0.763577 -0.050931
0.098660 0.765218 -0.047234
0.169600 0.766956 -0.043537
0.240302 0.768741 -0.039768
0.310792 0.770735 -0.036083
0.381093 0.772747 -0.032363
0.451231 0.774889 -0.028604
0.521063 0.777105 -0.024820
0.590707 0.779486 -0.020996
0.660172 0.781950 -0.017144
0.729338 0.784503 -0.013258
0.798310 0.787145 -0.009374
0.867009 0.789964 -0.005407
0.935439 0.792881 -0.001356
1.003615 0.795924 0.002813
1.071608 0.798567 0.006313
0.042153 0.830482 -0.043684
0.112993 0.832250 -0.039896
0.183614 0.834127 -0.036211
0.254116 0.836047 -0.032510
0.324332 0.838103 -0.028743
0.394392 0.840247 -0.024952
0.464243 0.842519 -0.021129
0.533895 0.844825 -0.017313
0.603320 0.847298 -0.013449
0.672539 0.849857 -0.009500
0.741497 0.852497 -0.005548
0.810272 0.855303 -0.001501
0.878704 0.858206 0.002606
0.946872 0.861168 0.006890
1.014727 0.864325 0.011214
1.082776 0.866922 0.014842
0.056346 0.897212 -0.036374
0.127006 0.899014 -0.032687
0.197437 0.901017 -0.028907
0.267709 0.903059 -0.025111
0.337740 0.905205 -0.021299
0.407611 0.907427 -0.017489
0.477234 0.909765 -0.013623
0.546662 0.912198 -0.009667
0.615894 0.914747 -0.005752
0.684946 0.917385 -0.001671
0.753729 0.920086 0.002430
0.822196 0.922915 0.006642
0.890465 0.925943 0.011041
0.958476 0.929004 0.015514
1.026172 0.932110 0.020068
1.094165 0.934722 0.023999
-0.240519 -0.062821 -0.092632
-0.158734 -0.066049 -0.087366
-0.077852 -0.068806 -0.082335
0.002101 -0.071674 -0.076902
0.081014 -0.074417 -0.071228
0.159051 -0.076626 -0.065883
0.236353 -0.078405 -0.060761
0.312940 -0.079852 -0.055872
0.389011 -0.080935 -0.051199
0.464521 -0.081738 -0.046661
0.539590 -0.082201 -0.042241
0.614179 -0.082466 -0.037928
0.688354 -0.082538 -0.033803
0.762127 -0.082292 -0.029787
0.835520 -0.081868 -0.025828
0.908252 -0.081259 -0.022093
-0.211668 -0.004138 -0.082302
-0.132064 -0.006198 -0.077771
-0.053111 -0.007947 -0.073355
0.025197 -0.010230 -0.068043
0.102694 -0.012059 -0.062809
0.179566 -0.013641 -0.057816
0.255902 -0.014845 -0.053050
0.331623 -0.015699 -0.048416
0.406847 -0.016354 -0.043986
0.481672 -0.016707 -0.039672
0.556024 -0.016840 -0.035409
0.629978 -0.016736 -0.031341
0.703606 -0.016399 -0.027352
0.776838 -0.015894 -0.023565
0.849674 -0.015219 -0.019718
0.921889 -0.014333 -0.015981
-0.180867 0.054429 -0.071374
-0.102973 0.053054 -0.067174
-0.025530 0.051807 -0.063042
0.051200 0.050348 -0.058025
0.127387 0.049188 -0.053257
0.203091 0.048352 -0.048631
0.278260 0.047783 -0.044195
0.353012 0.047424 -0.039863
0.427369 0.047316 -0.035601
0.501347 0.047406 -0.031523
0.574993 0.047668 -0.027607
0.648262 0.048155 -0.023717
0.721235 0.048807 -0.019858
0.793908 0.049682 -0.016106
0.866199 0.050648 -0.012425
0.937863 0.051827 -0.008742
-0.153780 0.114888 -0.061423
-0.077197 0.114033 -0.057613
-0.001001 0.113207 -0.053456
0.074633 0.112373 -0.048793
0.149782 0.111820 -0.044337
0.224515 0.111489 -0.040029
0.298865 0.111391 -0.035774
0.372828 0.111456 -0.031650
0.446498 0.111761 -0.027732
0.519830 0.112202 -0.023850
0.592823 0.112880 -0.020043
0.665501 0.113686 -0.016297
0.737884 0.114645 -0.012570
0.809997 0.115829 -0.008863
0.881732 0.117055 -0.005228
0.952942 0.118516 -0.001623
-0.129380 0.176769 -0.052276
-0.053839 0.176329 -0.048680
0.021297 0.175892 -0.044485
0.096013 0.175535 -0.040167
0.170344 0.175446 -0.035936
0.244309 0.175500 -0.031782
0.317980 0.175797 -0.027868
0.391332 0.176261 -0.023994
0.464398 0.176934 -0.020169
0.537087 0.177700 -0.016422
0.609532 0.178657 -0.012697
0.681692 0.179736 -0.009004
0.753556 0.180969 -0.005363
0.825120 0.182408 -0.001738
0.896439 0.183931 0.001863
0.967118 0.185628 0.005384
-0.107080 0.239675 -0.043678
-0.032479 0.239609 -0.040207
0.041848 0.239517 -0.036119
0.115815 0.239603 -0.031907
0.189511 0.239883 -0.028004
0.262876 0.240332 -0.024134
0.335941 0.240938 -0.020316
0.408703 0.241686 -0.016547
0.481201 0.242585 -0.012825
0.553427 0.243702 -0.009142
0.625357 0.244917 -0.005495
0.696991 0.246282 -0.001874
0.768382 0.247776 0.001733
0.839537 0.249420 0.005282
0.910403 0.251187 0.008843
0.980650 0.253080 0.012418
-0.086497 0.303461 -0.035479
-0.012701 0.303668 -0.032126
0.060990 0.303917 -0.028168
0.134405 0.304362 -0.024268
0.207506 0.304952 -0.020450
0.280324 0.305688 -0.016692
0.352869 0.306579 -0.012955
0.425153 0.307605 -0.009303
0.497139 0.308844 -0.005627
0.568882 0.310172 -0.002007
0.640348 0.311588 0.001603
0.711581 0.313209 0.005161
0.782519 0.314929 0.008713
0.853263 0.316808 0.012304
0.923695 0.318757 0.015806
0.993563 0.320901 0.019370
-0.067266 0.367996 -0.027746
0.005939 0.368372 -0.024401
0.079097 0.368956 -0.020580
0.151907 0.369689 -0.016818
0.224513 0.370579 -0.013081
0.296825 0.371588 -0.009429
0.368899 0.372751 -0.005761
0.440739 0.374002 -0.002139
0.512312 0.375421 0.001473
0.583616 0.376983 0.005021
0.654705 0.378668 0.008584
0.725481 0.380477 0.012172
0.796062 0.382407 0.015675
0.866399 0.384494 0.019258
0.936469 0.386644 0.022773
1.005749 0.388913 0.026257
-0.049201 0.433006 -0.020374
0.023550 0.433706 -0.016943
0.096177 0.434575 -0.013205
0.168576 0.435549 -0.009561
0.240671 0.436655 -0.005893
0.312594 0.437882 -0.002271
0.384259 0.439291 0.001343
0.455663 0.440743 0.004874
0.526837 0.442384 0.008453
0.597765 0.444131 0.012040
0.668424 0.446004 0.015534
0.738898 0.448002 0.019127
0.809098 0.450151 0.022645
0.879073 0.452382 0.026214
0.948754 0.454761 0.029807
1.017656 0.457114 0.033170
-0.032000 0.498580 -0.013102
0.040283 0.499505 -0.009687
0.112482 0.500596 -0.006024
0.184462 0.501765 -0.002403
0.256195 0.503117 0.001213
0.327687 0.504558 0.004747
0.398987 0.506133 0.008323
0.470016 0.507825 0.011908
0.540809 0.509653 0.015402
0.611386 0.511539 0.018997
0.681730 0.513610 0.022521
0.751817 0.515797 0.026082
0.821659 0.518067 0.029675
0.891285 0.520511 0.033230
0.960621 0.523051 0.036830
1.029234 0.525526 0.040240
-0.015655 0.564517 -0.006093
0.056304 0.565664 -0.002535
0.128126 0.566918 0.001078
0.199713 0.568348 0.004627
0.271077 0.569866 0.008190
0.342245 0.571501 0.011776
0.413161 0.573273 0.015269
0.483875 0.575126 0.018866
0.554360 0.577076 0.022396
0.624612 0.579187 0.025950
0.694627 0.581395 0.029541
0.764397 0.583749 0.033099
0.833930 0.586220 0.036703
0.903189 0.588747 0.040377
0.972188 0.591486 0.044008
1.040543 0.594012 0.047341
0.000061 0.630787 0.000934
0.071760 0.632149 0.004508
0.143213 0.633606 0.008060
0.214490 0.635193 0.011644
0.285539 0.636855 0.015137
0.356337 0.638700 0.018736
0.426949 0.640614 0.022270
0.497384 0.642609 0.025818
0.567516 0.644741 0.029409
0.637456 0.647014 0.032973
0.707175 0.649348 0.036577
0.776649 0.651823 0.040193
0.845835 0.654431 0.043881
0.914820 0.657193 0.047580
0.983512 0.659998 0.051370
1.051686 0.662664 0.054641
0.015366 0.697370 0.007931
0.086693 0.698882 0.011512
0.157846 0.700501 0.015005
0.228834 0.702254 0.018607
0.299581 0.704111 0.022152
0.370100 0.706045 0.025684
0.440425 0.708095 0.029277
0.510538 0.710254 0.032847
0.580416 0.712525 0.036444
0.650076 0.714915 0.040061
0.719518 0.717399 0.043748
0.788691 0.720029 0.047453
0.857618 0.722732 0.051183
0.926312 0.725601 0.054986
0.994681 0.728621 0.058878
1.062727 0.731247 0.062232
0.030238 0.764151 0.014874
0.101290 0.765805 0.018465
0.172166 0.767568 0.022034
0.242867 0.769461 0.025551
0.313335 0.771466 0.029146
0.383579 0.773529 0.032721
0.453636 0.775693 0.036313
0.523522 0.777984 0.039922
0.593156 0.780367 0.043623
0.662536 0.782874 0.047294
0.731714 0.785497 0.051058
0.800659 0.788207 0.054846
0.869292 0.791076 0.058741
0.937696 0.794015 0.062628
1.005770 0.797089 0.066670
1.073784 0.799815 0.070059
0.044715 0.831095 0.021836
0.115572 0.832942 0.025420
0.186256 0.834765 0.029013
0.256640 0.836784 0.032593
0.326906 0.838918 0.036185
0.396978 0.841093 0.039796
0.466756 0.843350 0.043495
0.536380 0.845774 0.047156
0.605800 0.848221 0.050917
0.674962 0.850871 0.054708
0.743868 0.853525 0.058548
0.812555 0.856348 0.062499
0.880983 0.859284 0.066537
0.949147 0.862335 0.070636
1.016902 0.865496 0.074802
1.084970 0.868182 0.078398
0.059021 0.897832 0.028846
0.129617 0.899738 0.032432
0.200045 0.901763 0.036024
0.270248 0.903832 0.039635
0.340282 0.906015 0.043328
0.410156 0.908310 0.046987
0.479784 0.910667 0.050701
0.549196 0.913156 0.054530
0.618409 0.915724 0.058381
0.687372 0.918409 0.062329
0.756078 0.921221 0.066368
0.824588 0.924067 0.070449
0.892768 0.927090 0.074675
0.960752 0.930194 0.079073
1.028473 0.933282 0.083393
1.096398 0.936074 0.087215
-0.234323 -0.064170 -0.024694
-0.152874 -0.067299 -0.019573
-0.072347 -0.069813 -0.014845
0.007306 -0.072604 -0.009568
0.085992 -0.075190 -0.004111
0.163804 -0.077299 0.001008
0.240891 -0.078958 0.005946
0.317369 -0.080288 0.010612
0.393224 -0.081234 0.015159
0.468615 -0.081920 0.019488
0.543533 -0.082345 0.023706
0.618007 -0.082495 0.027830
0.692094 -0.082469 0.031871
0.765692 -0.082172 0.035846
0.839016 -0.081714 0.039702
0.911616 -0.081016 0.043461
-0.206227 -0.005070 -0.014841
-0.126861 -0.007058 -0.010478
-0.048093 -0.008715 -0.006286
0.030015 -0.010841 -0.001081
0.107361 -0.012632 0.003870
0.184088 -0.014081 0.008672
0.260231 -0.015175 0.013278
0.335790 -0.016009 0.017746
0.410902 -0.016501 0.022025
0.485562 -0.016795 0.026209
0.559757 -0.016786 0.030286
0.633646 -0.016650 0.034278
0.707094 -0.016219 0.038128
0.780176 -0.015678 0.041977
0.852969 -0.014899 0.045732
0.925135 -0.013969 0.049468
-0.175899 0.053740 -0.004336
-0.098181 0.052467 -0.000383
-0.020940 0.051329 0.003714
0.055642 0.049930 0.008499
0.131664 0.048881 0.013091
0.207182 0.048143 0.017509
0.282270 0.047608 0.021829
0.356891 0.047361 0.026012
0.431134 0.047297 0.030081
0.505048 0.047479 0.034047
0.578565 0.047852 0.037953
0.651717 0.048402 0.041823
0.724557 0.049127 0.045596
0.797073 0.050042 0.049341
0.869320 0.051110 0.052984
0.940864 0.052300 0.056587
-0.149190 0.114425 0.005157
-0.072725 0.113652 0.008882
0.003287 0.112888 0.012931
0.078730 0.112162 0.017373
0.153769 0.111672 0.021681
0.228410 0.111402 0.025876
0.302640 0.111399 0.029950
0.376522 0.111538 0.033912
0.450042 0.111884 0.037823
0.523254 0.112462 0.041686
0.596141 0.113156 0.045450
0.668750 0.114043 0.049181
0.741005 0.115081 0.052858
0.812990 0.116294 0.056477
0.884703 0.117638 0.060092
0.955700 0.119110 0.063670
-0.125096 0.176532 0.013992
-0.049700 0.176103 0.017454
0.025272 0.175739 0.021488
0.099874 0.175504 0.025719
0.174131 0.175482 0.029791
0.248011 0.175610 0.033786
0.321549 0.175970 0.037665
0.394805 0.176484 0.041543
0.467734 0.177163 0.045316
0.540339 0.178046 0.049044
0.612652 0.179032 0.052732
0.684719 0.180209 0.056349
0.756526 0.181532 0.059959
0.827995 0.182953 0.063558
0.899169 0.184549 0.067066
0.969799 0.186294 0.070557
-0.103095 0.239568 0.022307
-0.028612 0.239574 0.025628
0.045603 0.239511 0.029629
0.119506 0.239671 0.033659
0.193088 0.240026 0.037533
0.266334 0.240495 0.041411
0.339291 0.241189 0.045185
0.411952 0.242021 0.048882
0.484381 0.242994 0.052595
