example_ofxGpuLutCube/bin/data/ofxGpuLutCube/LUT/C36 (warm reddish fade).cube
LUT_3D_SIZE 6
-0.252910 -0.059809 -0.229976
-0.007727 -0.069827 -0.214117
0.228194 -0.077448 -0.197420
0.457489 -0.081368 -0.182841
0.682112 -0.082544 -0.169517
0.902616 -0.081688 -0.157069
-0.161657 0.115677 -0.198000
0.067632 0.112742 -0.185258
0.292596 0.111302 -0.171708
0.514077 0.111858 -0.159109
0.732671 0.113985 -0.147081
0.948106 0.117522 -0.135355
-0.092739 0.303422 -0.171246
0.128626 0.304012 -0.159571
0.347504 0.305955 -0.147497
0.563872 0.309223 -0.135849
0.777907 0.313729 -0.124326
0.989266 0.319414 -0.113008
-0.037423 0.497990 -0.147579
0.179287 0.500948 -0.136242
0.394119 0.505078 -0.124753
0.606828 0.510233 -0.113380
0.817401 0.516514 -0.101962
1.025265 0.523697 -0.090659
0.010249 0.696415 -0.125227
0.223998 0.701046 -0.113771
0.435834 0.706691 -0.102371
0.645722 0.713276 -0.090802
0.853501 0.720817 -0.078859
1.058757 0.729036 -0.066950
0.054124 0.896587 -0.102884
0.265516 0.902426 -0.091247
0.475118 0.909023 -0.079355
0.682876 0.916510 -0.066838
0.888447 0.924923 -0.053530
1.092138 0.933565 -0.039860
-0.234323 -0.064170 -0.024694
0.007306 -0.072604 -0.009568
0.240891 -0.078958 0.005946
0.468615 -0.081920 0.019488
0.692094 -0.082469 0.031871
0.911616 -0.081016 0.043461
-0.149190 0.114425 0.005157
0.078730 0.112162 0.017373
0.302640 0.111399 0.029950
0.523254 0.112462 0.041686
0.741005 0.115081 0.052858
0.955700 0.119110 0.063670
-0.082732 0.303539 0.030203
0.137901 0.304569 0.041283
0.356047 0.306964 0.052450
0.571796 0.310665 0.063295
0.785220 0.315595 0.073857
0.995981 0.321761 0.084315
-0.028798 0.498913 0.052260
0.187458 0.502265 0.062907
0.401759 0.506767 0.073470
0.614014 0.512330 0.083944
0.824073 0.518998 0.094392
1.031434 0.526567 0.104719
0.018241 0.697902 0.073099
0.231568 0.702917 0.083543
0.442999 0.708920 0.094001
0.652516 0.715875 0.104614
0.859914 0.723831 0.115459
1.064849 0.732467 0.126111
0.061815 0.898588 0.093564
0.272939 0.904690 0.104181
0.482330 0.911623 0.114975
0.689795 0.919433 0.126259
0.895147 0.928244 0.138223
1.098729 0.937334 0.150279
-0.213497 -0.068658 0.173049
0.024261 -0.075520 0.188054
0.255146 -0.080453 0.203220
0.480990 -0.082399 0.216530
0.702980 -0.082105 0.228643
0.921336 -0.080009 0.239815
-0.134872 0.113174 0.202344
0.091263 0.111643 0.214421
0.313831 0.111589 0.226688
0.533332 0.113282 0.238122
0.750136 0.116452 0.248916
0.964028 0.121020 0.259271
-0.071484 0.303743 0.226867
0.148095 0.305323 0.237705
0.365422 0.308248 0.248529
0.580380 0.312428 0.258902
0.793113 0.317821 0.268999
1.003053 0.324381 0.278764
-0.019258 0.500063 0.248251
0.196355 0.503827 0.258546
0.410029 0.508763 0.268620
0.621664 0.514725 0.278524
0.831212 0.521801 0.288291
1.038034 0.529791 0.297758
0.026909 0.699726 0.268242
0.239753 0.705121 0.278144
0.450770 0.711437 0.287931
0.659783 0.718787 0.297711
0.866699 0.727151 0.307616
1.071301 0.736172 0.317195
0.070058 0.900763 0.287503
0.280915 0.907190 0.297343
0.489980 0.914497 0.307210
0.697206 0.922674 0.317369
0.902275 0.931864 0.327977
1.105807 0.941342 0.338395
-0.194558 -0.072243 0.371047
0.039941 -0.077819 0.385798
0.268525 -0.081456 0.400537
0.492762 -0.082523 0.413467
0.713460 -0.081512 0.425191
0.930713 -0.078742 0.435967
-0.121338 0.112260 0.399557
0.103239 0.111376 0.411441
0.324558 0.112042 0.423359
0.543088 0.114323 0.434357
0.758999 0.118021 0.444734
0.972065 0.123119 0.454529
-0.060654 0.304186 0.423432
0.158005 0.306272 0.433957
0.374513 0.309713 0.444356
0.588793 0.314328 0.454227
0.800805 0.320213 0.463682
1.010064 0.327193 0.472779
-0.009925 0.501352 0.444010
0.205065 0.505583 0.453854
0.418187 0.510903 0.463349
0.629249 0.517321 0.472593
0.838225 0.524818 0.481570
1.044534 0.533194 0.490094
0.035449 0.701653 0.463034
0.247845 0.707405 0.472208
0.458363 0.714120 0.481227
0.667031 0.721822 0.490124
0.873486 0.730682 0.498907
1.077770 0.740098 0.507191
0.078368 0.903167 0.480893
0.288896 0.909891 0.489757
0.497714 0.917505 0.498574
0.704693 0.926062 0.507385
0.909600 0.935697 0.516350
1.113204 0.945541 0.524778
-0.177260 -0.075110 0.569090
0.054562 -0.079576 0.583525
0.281210 -0.082114 0.597792
0.504000 -0.082360 0.610327
0.723486 -0.080656 0.621546
0.939757 -0.077341 0.631884
-0.108461 0.111648 0.596651
0.114675 0.111439 0.608316
0.334959 0.112706 0.619807
0.552526 0.115589 0.630343
0.767585 0.119818 0.640194
0.979895 0.125401 0.649455
-0.050141 0.304846 0.619815
0.167610 0.307395 0.630005
0.383363 0.311296 0.639860
0.596950 0.316440 0.649131
0.808366 0.322744 0.657922
1.016980 0.330157 0.666242
-0.000814 0.502866 0.639494
0.213630 0.507482 0.648794
0.426180 0.513215 0.657618
0.636733 0.520050 0.666075
0.845179 0.528022 0.674188
1.051014 0.536775 0.681637
0.043935 0.703765 0.657323
0.255883 0.709833 0.665751
0.465998 0.716919 0.673874
0.674237 0.725069 0.681698
0.880342 0.734354 0.689232
1.084300 0.744201 0.695962
0.086670 0.905588 0.673542
0.296943 0.912713 0.681387
0.505574 0.920678 0.688934
0.712388 0.929590 0.696182
0.917151 0.939658 0.703123
1.121065 0.949919 0.708992
-0.161168 -0.077404 0.766814
0.068274 -0.080847 0.780930
0.293302 -0.082456 0.794630
0.514753 -0.081931 0.806611
0.733166 -0.079582 0.817391
0.948498 -0.075593 0.827194
-0.096188 0.111290 0.793385
0.125738 0.111701 0.804762
0.344964 0.113635 0.815756
0.561582 0.117009 0.825745
0.775908 0.121795 0.835003
0.987512 0.127882 0.843583
-0.040044 0.305670 0.815654
0.177013 0.308749 0.825371
0.392056 0.313141 0.834646
0.604959 0.318699 0.843279
0.815756 0.325507 0.851325
1.023747 0.333297 0.858764
0.008106 0.504483 0.834336
0.222030 0.509539 0.842952
0.434061 0.515658 0.851061
0.644123 0.522935 0.858658
0.852024 0.531366 0.865707
1.057414 0.540591 0.871996
0.052287 0.705912 0.850805
0.263837 0.712443 0.858403
0.473639 0.719883 0.865456
0.681494 0.728448 0.872062
0.887192 0.738185 0.878080
1.090986 0.748544 0.883021
0.094956 0.908236 0.865217
0.305056 0.915573 0.871791
0.513589 0.923947 0.877819
0.720299 0.933259 0.883197
0.925115 0.943836 0.887623
1.129439 0.954636 0.890158
