example_ofxGpuLutCube/bin/data/ofxGpuLutCube/LUT/C37 (warm high contrasty).cube
LUT_3D_SIZE 6
0.004199 0.011933 0.038157
0.096225 0.012139 0.023218
0.299879 -0.015616 -0.010858
0.589157 -0.060034 -0.059504
0.876682 -0.103583 -0.106161
1.080150 -0.130872 -0.135584
-0.002063 0.134220 0.013200
0.119093 0.153655 -0.008333
0.355052 0.112446 -0.033820
0.631627 0.077984 -0.069130
0.908300 0.043012 -0.112060
1.088390 0.027342 -0.135608
-0.031660 0.373880 -0.028478
0.099349 0.386591 -0.033781
0.446307 0.474775 -0.116995
0.758653 0.383140 -0.169472
0.999526 0.328230 -0.183282
1.152001 0.317611 -0.191895
-0.071820 0.664086 -0.074973
0.076189 0.675341 -0.076093
0.371749 0.779708 -0.169599
0.828734 0.851985 -0.235299
1.149710 0.776853 -0.316742
1.293282 0.738136 -0.323830
-0.110109 0.938263 -0.115177
0.052765 0.946566 -0.114417
0.331023 1.025134 -0.183085
0.745370 1.163827 -0.310546
1.151257 1.186444 -0.320416
1.325749 1.160402 -0.338681
-0.126690 1.095692 -0.129791
0.048616 1.096379 -0.124805
0.325992 1.156329 -0.176920
0.704480 1.281824 -0.290962
1.103734 1.325760 -0.317755
1.296200 1.314241 -0.279955
-0.023469 -0.014821 0.191897
0.086614 -0.006874 0.164663
0.309543 -0.016942 0.122717
0.598297 -0.061248 0.068829
0.883258 -0.104791 0.020103
1.081323 -0.131390 -0.008159
-0.026695 0.149533 0.166967
0.103378 0.133402 0.130902
0.340128 0.104942 0.091307
0.626190 0.067556 0.045986
0.900411 0.032723 0.005653
1.075945 0.017281 -0.012841
-0.032659 0.379222 0.098235
0.092018 0.376435 0.084520
0.421711 0.447519 0.019101
0.720448 0.360473 -0.017961
0.955972 0.318724 -0.022505
1.100173 0.312604 -0.017734
-0.072277 0.667695 0.054657
0.066019 0.666371 0.045772
0.349338 0.736748 -0.008705
0.790866 0.815892 -0.073546
1.094482 0.732868 -0.128454
1.223678 0.691850 -0.110200
-0.110761 0.940656 0.026621
0.039432 0.933734 0.022959
0.318543 0.966943 0.008646
0.689042 1.095383 -0.096192
1.086781 1.125760 -0.098268
1.249967 1.090267 -0.086754
-0.126515 1.095708 0.037173
0.031782 1.077464 0.041477
0.316151 1.077077 0.060626
0.637437 1.184432 -0.017695
1.016272 1.239734 -0.036619
1.195903 1.216921 0.032266
-0.077846 -0.068314 0.443239
0.038787 -0.061130 0.413333
0.309302 -0.028999 0.370011
0.606921 -0.062380 0.322661
0.889741 -0.105484 0.274439
1.083083 -0.131096 0.249305
-0.069333 0.090391 0.403176
0.059404 0.083942 0.370735
0.342621 0.102027 0.341055
0.628560 0.065463 0.298470
0.900023 0.030439 0.262029
1.071474 0.015450 0.249893
-0.099258 0.447624 0.407001
0.044271 0.427032 0.371920
0.344163 0.362821 0.304299
0.625433 0.326698 0.279263
0.885006 0.298183 0.254476
1.039377 0.289621 0.253471
-0.129757 0.729388 0.314022
0.037400 0.694433 0.303322
0.319718 0.645414 0.290624
0.698519 0.725798 0.230047
0.968848 0.641124 0.214620
1.091808 0.616658 0.244061
-0.149586 0.982814 0.290990
0.028456 0.943670 0.299370
0.293483 0.904719 0.292293
0.600887 0.963096 0.260672
0.979376 1.022457 0.235770
1.139218 0.985304 0.256661
-0.171260 1.141605 0.318644
0.014470 1.096043 0.336637
0.287997 1.039549 0.344466
0.576735 1.041570 0.358238
0.900802 1.124180 0.316584
1.078973 1.103727 0.387259
-0.140046 -0.129689 0.723251
-0.018970 -0.123937 0.697613
0.274351 -0.099982 0.664628
0.611674 -0.066752 0.625219
0.895740 -0.106043 0.582931
1.084577 -0.130729 0.560898
-0.126819 0.029962 0.685834
-0.000947 0.021323 0.659312
0.306596 0.038426 0.636797
0.633484 0.066441 0.608023
0.903705 0.032719 0.574702
1.071715 0.018701 0.565337
-0.162427 0.365267 0.721212
-0.011760 0.350615 0.687606
0.287422 0.304981 0.607488
0.619955 0.323073 0.587016
0.879816 0.295389 0.564191
1.032855 0.288634 0.566533
-0.201597 0.805501 0.736749
-0.041640 0.779745 0.711762
0.259042 0.702790 0.642908
0.596027 0.619684 0.579585
0.848063 0.590986 0.572649
0.989268 0.584535 0.585020
-0.264867 1.101474 0.672902
-0.084473 1.061472 0.658976
0.235531 0.964104 0.614273
0.565809 0.871752 0.601526
0.866672 0.913691 0.581965
1.022451 0.878174 0.607021
-0.288097 1.259593 0.699523
-0.100335 1.213084 0.701290
0.214704 1.114925 0.674111
0.545687 1.012178 0.667871
0.804757 0.984230 0.687780
0.973327 1.002539 0.711449
-0.199564 -0.188323 0.993303
-0.074702 -0.184782 0.974655
0.224122 -0.172654 0.956908
0.585515 -0.117903 0.900504
0.900784 -0.107128 0.885548
1.085953 -0.130303 0.865835
-0.187154 -0.030181 0.966867
-0.059990 -0.039787 0.943013
0.250724 -0.033472 0.933506
0.607043 0.022718 0.887115
0.906874 0.034978 0.878700
1.071884 0.022030 0.868998
-0.211129 0.292778 0.993365
-0.057543 0.284078 0.959700
0.228730 0.245508 0.893825
0.589819 0.273234 0.874817
0.881057 0.299445 0.864427
1.032283 0.293766 0.862844
-0.276576 0.733705 1.072351
-0.110229 0.706159 1.041781
0.203264 0.628974 0.954400
0.541562 0.568040 0.865644
0.842229 0.589604 0.855159
0.986754 0.588395 0.860546
-0.296294 1.136215 1.093014
-0.119379 1.100234 1.071050
0.184092 1.018303 1.006316
0.508265 0.926748 0.933938
0.797316 0.846091 0.870734
0.948834 0.836924 0.867608
-0.334361 1.307009 1.107141
-0.144321 1.259188 1.090234
0.162031 1.169536 1.031686
0.484467 1.074618 0.965119
0.770548 0.993822 0.906237
0.933640 0.957019 0.886911
-0.235242 -0.223163 1.176225
-0.107819 -0.222938 1.168800
0.192711 -0.218069 1.163262
0.568016 -0.165282 1.111163
0.883622 -0.129812 1.077830
1.087101 -0.129781 1.078162
-0.225972 -0.067916 1.167274
-0.097117 -0.078828 1.146147
0.215972 -0.074989 1.140100
0.586902 -0.021973 1.095086
0.890362 0.018076 1.064528
1.071865 0.025545 1.065692
-0.243332 0.255522 1.189156
-0.085231 0.250403 1.151201
0.194703 0.211345 1.088595
0.561658 0.234597 1.068081
0.864545 0.285917 1.030688
1.031537 0.298922 1.032106
-0.310132 0.676285 1.263702
-0.136421 0.653584 1.221496
0.180681 0.591457 1.122760
0.514523 0.544044 1.027274
0.828584 0.571799 0.998863
0.984369 0.592479 0.993347
-0.334871 1.101839 1.298378
-0.153474 1.067488 1.256525
0.152844 0.988179 1.169328
0.480700 0.900675 1.074206
0.782044 0.829501 0.987202
0.942584 0.831602 0.981384
-0.333689 1.307378 1.306255
-0.143050 1.258178 1.261533
0.159431 1.165553 1.181493
0.475212 1.066561 1.101410
0.753262 0.982394 1.037990
0.914402 0.946366 1.015613
