example_ofxGpuLutCube/bin/data/ofxGpuLutCube/LUT/C37 (warm high contrasty).cube
LUT_3D_SIZE 16
0.004199 0.011933 0.038157
0.023093 0.013485 0.034675
0.059500 0.014163 0.028748
0.096225 0.012139 0.023218
0.147178 0.006197 0.014816
0.215327 -0.003143 0.003462
0.299879 -0.015616 -0.010858
0.393349 -0.029853 -0.026626
0.490595 -0.044772 -0.043028
0.589157 -0.060034 -0.059504
0.687464 -0.075086 -0.075724
0.784022 -0.089695 -0.091345
0.876682 -0.103583 -0.106161
0.960718 -0.115796 -0.119209
1.029074 -0.125033 -0.129134
1.080150 -0.130872 -0.135584
0.002976 0.050437 0.034425
0.027967 0.049146 0.029094
0.062853 0.045451 0.021687
0.102325 0.041561 0.017134
0.157027 0.035316 0.009168
0.228989 0.025768 -0.002195
0.315804 0.013318 -0.016279
0.409764 -0.000454 -0.031657
0.506773 -0.014852 -0.047485
0.604816 -0.029397 -0.063415
0.702290 -0.043854 -0.079185
0.797640 -0.057825 -0.094412
0.888571 -0.070951 -0.108706
0.969947 -0.082217 -0.121072
1.035230 -0.090274 -0.130215
1.083566 -0.095012 -0.136029
0.001527 0.086259 0.021863
0.030895 0.082743 0.018793
0.063831 0.085359 0.014555
0.119061 0.089014 0.004071
0.174441 0.075974 -0.001026
0.243649 0.067139 -0.006924
0.330939 0.055421 -0.020199
0.424984 0.042291 -0.035392
0.521601 0.028730 -0.050949
0.618891 0.015064 -0.066565
0.715508 0.001558 -0.081971
0.809734 -0.011408 -0.096807
0.899041 -0.023422 -0.110637
0.977842 -0.033300 -0.122315
1.040374 -0.040010 -0.130824
1.086225 -0.043408 -0.136012
-0.002063 0.134220 0.013200
0.027121 0.133909 0.009633
0.062239 0.136578 0.007607
0.119093 0.153655 -0.008333
0.202600 0.149674 -0.021962
0.275332 0.126520 -0.029028
0.355052 0.112446 -0.033820
0.440893 0.102421 -0.040642
0.535272 0.090477 -0.054126
0.631627 0.077984 -0.069130
0.727359 0.065582 -0.084181
0.820461 0.053776 -0.098652
0.908300 0.043012 -0.112060
0.984618 0.034600 -0.123129
1.044708 0.029386 -0.130958
1.088390 0.027342 -0.135608
-0.011344 0.201132 0.001714
0.020469 0.201749 -0.001514
0.057731 0.204805 -0.002776
0.110493 0.221158 -0.017267
0.205776 0.244904 -0.039630
0.313211 0.231231 -0.057733
0.398394 0.200143 -0.067351
0.482715 0.179808 -0.072444
0.568503 0.166413 -0.077536
0.654474 0.156721 -0.082518
0.742018 0.148040 -0.089885
0.831668 0.138339 -0.101540
0.916443 0.129525 -0.112988
0.990385 0.122545 -0.123433
1.048279 0.118775 -0.130758
1.090113 0.118085 -0.134887
-0.020306 0.282973 -0.012817
0.010767 0.285121 -0.015060
0.050412 0.288447 -0.015945
0.104196 0.299989 -0.025011
0.188438 0.332386 -0.054798
0.319559 0.355301 -0.077533
0.440268 0.335681 -0.099831
0.533686 0.300104 -0.114043
0.619306 0.272779 -0.119119
0.705174 0.253676 -0.124326
0.789821 0.239824 -0.129325
0.871734 0.229470 -0.133930
0.948492 0.221952 -0.138391
1.014149 0.217572 -0.142126
1.066442 0.215760 -0.145321
1.104981 0.216524 -0.147364
-0.031660 0.373880 -0.028478
-0.000556 0.376942 -0.029902
0.041332 0.380524 -0.030707
0.099349 0.386591 -0.033781
0.175160 0.419187 -0.063440
0.298673 0.460020 -0.101152
0.446307 0.474775 -0.116995
0.572412 0.453365 -0.143868
0.672670 0.416369 -0.163818
0.758653 0.383140 -0.169472
0.842870 0.358882 -0.174490
0.923932 0.341025 -0.178924
0.999526 0.328230 -0.183282
1.063545 0.320599 -0.186791
1.114819 0.317217 -0.190231
1.152001 0.317611 -0.191895
-0.044644 0.469024 -0.044349
-0.012658 0.472675 -0.045150
0.031457 0.476439 -0.045828
0.092351 0.481037 -0.047229
0.166706 0.508596 -0.071512
0.276604 0.551869 -0.111444
0.425023 0.593016 -0.149151
0.575883 0.599180 -0.157220
0.702660 0.577007 -0.185614
0.810403 0.542229 -0.213416
0.896218 0.505499 -0.220473
0.976833 0.477499 -0.225100
1.051460 0.457625 -0.229429
1.113956 0.445531 -0.232711
1.163275 0.439845 -0.235297
1.199837 0.439389 -0.237076
-0.058080 0.566388 -0.059838
-0.025149 0.570162 -0.060444
0.021105 0.573961 -0.060933
0.084624 0.577763 -0.061382
0.160768 0.598840 -0.079016
0.260919 0.642500 -0.119157
0.395765 0.689880 -0.162906
0.553620 0.723084 -0.192438
0.704136 0.725758 -0.197003
0.829474 0.703703 -0.225063
0.940444 0.672292 -0.257683
1.029588 0.637470 -0.271430
1.102647 0.608568 -0.275067
1.163564 0.590794 -0.277833
1.211815 0.582153 -0.280200
1.247067 0.580375 -0.281259
-0.071820 0.664086 -0.074973
-0.037650 0.667801 -0.075427
0.010585 0.671574 -0.075788
0.076189 0.675341 -0.076093
0.156323 0.688635 -0.085862
0.249364 0.732694 -0.126256
0.371749 0.779708 -0.169599
0.522087 0.827478 -0.213507
0.680050 0.849792 -0.231878
0.828734 0.851985 -0.235299
0.950947 0.831263 -0.261504
1.059058 0.803434 -0.294643
1.149710 0.776853 -0.316742
1.212512 0.754215 -0.322164
1.259096 0.741586 -0.323489
1.293282 0.738136 -0.323830
-0.085423 0.760364 -0.089622
-0.049930 0.763993 -0.089877
0.000220 0.767647 -0.090123
0.067689 0.771325 -0.090231
0.151478 0.779079 -0.094441
0.240659 0.820571 -0.132231
0.353795 0.867557 -0.175452
0.491360 0.915715 -0.219697
0.649910 0.961078 -0.261052
0.802874 0.972682 -0.268487
0.947285 0.975129 -0.270682
1.063827 0.957025 -0.293206
1.159484 0.933440 -0.320949
1.236569 0.916710 -0.341311
1.292519 0.906737 -0.352343
1.329438 0.903447 -0.355434
-0.098476 0.853264 -0.103333
-0.061584 0.856600 -0.103377
-0.009669 0.860009 -0.103441
0.059558 0.863438 -0.103400
0.145535 0.868818 -0.105244
0.234072 0.904427 -0.137253
0.340310 0.950873 -0.179989
0.468051 0.998526 -0.223790
0.615767 1.046084 -0.267305
0.774354 1.082050 -0.299047
0.920485 1.087788 -0.300422
1.056704 1.090334 -0.300751
1.161158 1.076726 -0.316705
1.236479 1.059482 -0.335617
1.292296 1.049458 -0.346621
1.329918 1.046017 -0.350237
-0.110109 0.938263 -0.115177
-0.071789 0.941076 -0.115051
-0.018154 0.943828 -0.114777
0.052765 0.946566 -0.114417
0.140751 0.949509 -0.114177
0.229603 0.979676 -0.141038
0.331023 1.025134 -0.183085
0.451804 1.071383 -0.225787
0.590744 1.118198 -0.268844
0.745370 1.163827 -0.310546
0.895696 1.182407 -0.324912
1.031830 1.184705 -0.322702
1.151257 1.186444 -0.320416
1.234950 1.177760 -0.327535
1.289312 1.165861 -0.336878
1.325749 1.160402 -0.338681
-0.118841 1.007925 -0.123860
-0.079089 1.009817 -0.123340
-0.023812 1.011701 -0.122684
0.048617 1.013564 -0.121865
0.137808 1.015326 -0.120943
0.228040 1.039662 -0.142383
0.326196 1.084070 -0.183750
0.442423 1.129103 -0.225527
0.575572 1.174549 -0.267432
0.723086 1.218586 -0.307746
0.876621 1.251961 -0.337061
1.012289 1.254610 -0.335192
1.130380 1.254921 -0.330634
1.222941 1.254930 -0.325230
1.284563 1.249627 -0.323671
1.319965 1.241725 -0.323160
-0.124272 1.060090 -0.128711
-0.083109 1.061112 -0.127739
-0.026461 1.062120 -0.126666
0.047314 1.062991 -0.125315
0.137379 1.063841 -0.123779
0.228619 1.084024 -0.141396
0.324857 1.127204 -0.181766
0.438291 1.170939 -0.222385
0.567608 1.214660 -0.262720
0.710830 1.257225 -0.301550
0.863358 1.296165 -0.336321
0.999034 1.300794 -0.336261
1.115320 1.299289 -0.329461
1.206388 1.297281 -0.321503
1.271606 1.294784 -0.312243
1.312011 1.290544 -0.302559
-0.126690 1.095692 -0.129791
-0.084342 1.095999 -0.128413
-0.026369 1.096223 -0.126732
0.048616 1.096379 -0.124805
0.139187 1.096461 -0.122564
0.230785 1.114447 -0.137988
0.325992 1.156329 -0.176920
0.437606 1.198696 -0.215950
0.564436 1.240835 -0.254326
0.704480 1.281824 -0.290962
0.854351 1.321149 -0.325357
0.989647 1.328589 -0.327108
1.103734 1.325760 -0.317755
1.192771 1.322468 -0.306955
1.256329 1.318690 -0.294434
1.296200 1.314241 -0.279955
-0.001734 0.006301 0.077446
0.018071 0.008462 0.071792
0.056040 0.008856 0.065164
0.097488 0.011999 0.058561
0.149258 0.005951 0.048937
0.218169 -0.003474 0.036498
0.303152 -0.016032 0.021435
0.396733 -0.030309 0.005032
0.493831 -0.045228 -0.011734
0.592233 -0.060417 -0.028525
0.690309 -0.075587 -0.044960
0.786522 -0.090294 -0.060891
0.878642 -0.104256 -0.075814
0.962079 -0.116538 -0.088946
1.029713 -0.125701 -0.098862
1.080031 -0.131536 -0.105238
-0.001868 0.043684 0.070551
0.024711 0.043415 0.064058
0.059573 0.041486 0.055805
0.102339 0.040477 0.049666
0.157724 0.033796 0.040269
0.230027 0.023879 0.028012
0.316869 0.011166 0.013172
0.410694 -0.002857 -0.002715
0.507579 -0.017259 -0.018782
0.605438 -0.031754 -0.034844
0.702763 -0.046111 -0.050594
0.797950 -0.060105 -0.065853
0.888511 -0.073148 -0.080074
0.969413 -0.084289 -0.092292
1.034076 -0.092272 -0.101278
1.081860 -0.096937 -0.106871
-0.004829 0.092746 0.062272
0.026255 0.088174 0.053980
0.062559 0.082228 0.047488
0.113686 0.083271 0.038206
0.169247 0.074386 0.033026
0.243281 0.065106 0.022562
0.331442 0.053239 0.008460
0.425569 0.040153 -0.006847
0.522079 0.026661 -0.022474
0.619284 0.013027 -0.038092
0.715624 -0.000426 -0.053420
0.809657 -0.013339 -0.068196
0.898693 -0.025267 -0.081859
0.976980 -0.035076 -0.093377
1.039034 -0.041634 -0.101580
1.084414 -0.045023 -0.106510
-0.006098 0.138876 0.045208
0.027204 0.134585 0.041627
0.060858 0.134398 0.037833
0.115701 0.147633 0.025357
0.198370 0.144214 0.010782
0.270368 0.123725 0.004684
0.350366 0.112019 -0.000304
0.440220 0.101015 -0.011122
0.535191 0.088953 -0.025233
0.631729 0.076319 -0.040528
0.727268 0.064018 -0.055480
0.820182 0.052230 -0.069791
0.907671 0.041545 -0.082975
0.983514 0.033166 -0.093783
1.043072 0.028016 -0.101289
1.086359 0.026056 -0.105529
-0.011315 0.202163 0.033433
0.020028 0.201947 0.029195
0.056411 0.203319 0.026528
0.109275 0.215415 0.016219
0.202804 0.240255 -0.007502
0.309836 0.226430 -0.025801
0.393630 0.196724 -0.033879
0.477956 0.178181 -0.039026
0.563625 0.166047 -0.043954
0.649568 0.157254 -0.048909
0.740379 0.147314 -0.059543
0.829828 0.137711 -0.071099
0.915521 0.128428 -0.083392
0.989035 0.121475 -0.093514
1.046408 0.117693 -0.100364
1.087825 0.117049 -0.104021
-0.019877 0.284090 0.018256
0.009745 0.284954 0.014669
0.048972 0.287472 0.012823
0.104545 0.294823 0.008014
0.186095 0.327110 -0.021649
0.316847 0.351182 -0.045720
0.436772 0.331133 -0.067731
0.528731 0.296015 -0.080392
0.614303 0.270066 -0.085374
0.700019 0.252086 -0.090378
0.784376 0.239007 -0.094995
0.866144 0.229313 -0.099375
0.942178 0.222381 -0.103077
1.007412 0.218348 -0.106326
1.058782 0.216962 -0.108453
1.096956 0.217753 -0.109811
-0.031463 0.375102 0.002424
-0.002124 0.376361 -0.000838
0.039889 0.379686 -0.001942
0.098661 0.384695 -0.004014
0.174036 0.413879 -0.030112
0.295659 0.455101 -0.068122
0.443186 0.470699 -0.084809
0.568462 0.448861 -0.111156
0.667566 0.411968 -0.129763
0.752840 0.379495 -0.134576
0.836645 0.356121 -0.139013
0.917571 0.338951 -0.143129
0.992688 0.326744 -0.146753
1.056053 0.319551 -0.149459
1.106207 0.316446 -0.151400
1.143160 0.316770 -0.152346
-0.044563 0.470392 -0.013455
-0.014507 0.471997 -0.016306
0.029938 0.475614 -0.016947
0.091593 0.479557 -0.017577
0.166539 0.503119 -0.037796
0.274052 0.546274 -0.077423
0.421282 0.588114 -0.115642
0.572008 0.594915 -0.124115
0.698432 0.572496 -0.152104
0.804479 0.537164 -0.177880
0.889522 0.500860 -0.183849
0.969489 0.473468 -0.187421
1.043488 0.454143 -0.190811
1.105110 0.442349 -0.192786
1.153448 0.436829 -0.193844
1.189105 0.436341 -0.194055
-0.058345 0.567530 -0.029086
-0.027024 0.569414 -0.031422
0.019527 0.573155 -0.031839
0.083436 0.576920 -0.032108
0.161322 0.593099 -0.044698
0.259034 0.636569 -0.084368
0.391672 0.683674 -0.127554
0.548898 0.717925 -0.157734
0.699247 0.720874 -0.162188
0.824158 0.698622 -0.189360
0.934058 0.666795 -0.220483
1.021207 0.631471 -0.231651
1.093291 0.602852 -0.233770
1.153405 0.585292 -0.235096
1.200697 0.576592 -0.235720
1.235386 0.574625 -0.235272
-0.072306 0.664925 -0.044193
-0.039579 0.666963 -0.046153
0.008959 0.670661 -0.046308
0.074850 0.674371 -0.046308
0.156849 0.683518 -0.051581
0.248099 0.726163 -0.090273
0.368068 0.772977 -0.132893
0.516513 0.820678 -0.176263
0.674266 0.844279 -0.195348
0.822341 0.846143 -0.197639
0.944046 0.825162 -0.222430
1.051393 0.796924 -0.254121
1.140316 0.769572 -0.273709
1.200553 0.746004 -0.275716
1.246036 0.733198 -0.274895
1.279219 0.729321 -0.273042
-0.086111 0.761047 -0.058486
-0.051994 0.763062 -0.060074
-0.001606 0.766570 -0.059972
0.066151 0.770176 -0.059691
0.150681 0.776342 -0.061810
0.239862 0.813299 -0.094580
0.350481 0.859779 -0.136694
0.485667 0.907403 -0.179764
0.642352 0.952787 -0.220368
0.795244 0.965730 -0.228280
0.938918 0.967743 -0.228872
1.054743 0.949219 -0.249370
1.149433 0.925014 -0.275121
1.225372 0.907711 -0.293224
1.279258 0.896517 -0.300957
1.315080 0.892475 -0.301514
-0.099263 0.853716 -0.071514
-0.063780 0.855452 -0.072795
-0.011697 0.858733 -0.072361
0.057781 0.861977 -0.071694
0.144571 0.865623 -0.071236
0.233711 0.896030 -0.097355
0.337208 0.941977 -0.138847
0.462251 0.988633 -0.180731
0.607435 1.035613 -0.222716
0.764956 1.072824 -0.254648
0.910457 1.078738 -0.255021
1.045767 1.080512 -0.253195
1.149331 1.066479 -0.266478
1.223416 1.048434 -0.282827
1.277974 1.037376 -0.291050
1.314380 1.032917 -0.291672
-0.110846 0.938475 -0.082361
-0.074143 0.939439 -0.083313
-0.020384 0.942061 -0.082376
0.050674 0.944583 -0.081216
0.138804 0.947086 -0.079763
0.229638 0.969679 -0.098208
0.328067 1.014249 -0.138417
0.445945 1.059917 -0.179439
0.581879 1.105331 -0.219928
0.733729 1.150325 -0.259686
0.883975 1.171332 -0.275051
1.018921 1.172711 -0.270387
1.137021 1.173401 -0.265291
1.219641 1.163950 -0.269181
1.272613 1.150998 -0.275272
1.307709 1.144233 -0.273612
-0.119509 1.007823 -0.089339
-0.081661 1.007626 -0.090027
-0.026401 1.009297 -0.088475
0.046102 1.010883 -0.086633
0.135232 1.012439 -0.084514
0.228272 1.027910 -0.096034
0.323273 1.071103 -0.135070
0.436210 1.115134 -0.174515
0.565843 1.159074 -0.213574
0.710220 1.202245 -0.251433
0.862298 1.237146 -0.280618
0.997201 1.239989 -0.277187
1.113833 1.239080 -0.269451
1.204873 1.237772 -0.260618
1.265176 1.231370 -0.255106
1.298989 1.222058 -0.250613
-0.124788 1.059816 -0.092008
-0.086037 1.058262 -0.092413
-0.029398 1.058884 -0.090184
0.044360 1.059563 -0.087597
0.134251 1.060110 -0.084570
0.228949 1.070169 -0.090804
0.321696 1.112031 -0.128495
0.431404 1.154246 -0.166103
0.556854 1.196644 -0.203463
0.696198 1.237489 -0.238753
0.845980 1.276575 -0.271689
0.981418 1.283292 -0.271628
1.096014 1.280331 -0.261114
1.185409 1.276826 -0.249255
1.248830 1.272632 -0.235637
1.287595 1.266823 -0.221135
-0.126976 1.095401 -0.090271
-0.087552 1.092418 -0.090530
-0.029853 1.092263 -0.087556
0.044980 1.092089 -0.084096
0.135393 1.091847 -0.080102
0.231227 1.097946 -0.082065
0.322375 1.138262 -0.117800
0.429698 1.179202 -0.153629
0.552124 1.219513 -0.188212
0.687665 1.258793 -0.221052
0.833172 1.296055 -0.251104
0.969054 1.308074 -0.254991
1.081222 1.303685 -0.241420
1.168367 1.298665 -0.225994
1.229827 1.293015 -0.208425
1.267679 1.286635 -0.188678
-0.010828 -0.002485 0.128275
0.010770 -0.000155 0.120288
0.048987 0.000701 0.112594
0.094920 0.005841 0.104271
0.151370 0.005756 0.094901
0.220962 -0.003811 0.081125
0.306402 -0.016485 0.064959
0.400007 -0.030766 0.047710
0.497092 -0.045685 0.030280
0.595271 -0.060830 0.013017
0.693200 -0.075922 -0.003836
0.789142 -0.090648 -0.019976
0.880971 -0.104552 -0.035041
0.963854 -0.116700 -0.048114
1.030882 -0.125775 -0.057873
1.080711 -0.131462 -0.064011
-0.008222 0.035371 0.115987
0.019493 0.035734 0.107992
0.053392 0.034190 0.100229
0.102115 0.038227 0.093475
0.159652 0.033603 0.084058
0.232559 0.023560 0.070782
0.319724 0.010772 0.055197
0.413496 -0.003270 0.038679
0.510144 -0.017822 0.022007
0.607639 -0.032555 0.005456
0.704508 -0.047081 -0.010676
0.799258 -0.061186 -0.026107
0.889414 -0.074322 -0.040448
0.969587 -0.085520 -0.052598
1.033560 -0.093554 -0.061400
1.080732 -0.098269 -0.066725
-0.011791 0.086505 0.113077
0.019695 0.085107 0.104533
0.056268 0.081698 0.094605
0.106690 0.078076 0.083589
0.166137 0.071486 0.073717
0.241837 0.061616 0.060836
0.330425 0.049658 0.046046
0.424499 0.036598 0.030428
0.520983 0.023070 0.014616
0.618029 0.009503 -0.001067
0.714249 -0.003949 -0.016370
0.807992 -0.016875 -0.031050
0.896689 -0.028764 -0.044508
0.974431 -0.038519 -0.055647
1.035866 -0.045073 -0.063438
1.080763 -0.048396 -0.067816
-0.017299 0.150586 0.096062
0.018640 0.144103 0.086611
0.058065 0.136535 0.079405
0.110555 0.136498 0.071382
0.187832 0.135018 0.056797
0.260181 0.120552 0.050477
0.345091 0.109844 0.040577
0.437740 0.098164 0.026912
0.533744 0.085668 0.011700
0.630139 0.073108 -0.003440
0.725532 0.060756 -0.018159
0.818159 0.049021 -0.032209
0.905313 0.038331 -0.044937
0.980581 0.030010 -0.055195
1.039644 0.024884 -0.062161
1.082445 0.022949 -0.065687
-0.017134 0.209329 0.074639
0.019158 0.204007 0.070802
0.055136 0.202268 0.066027
0.107787 0.205382 0.060814
0.195647 0.231116 0.035900
0.300397 0.217040 0.018946
0.383496 0.190915 0.011656
0.467713 0.175543 0.006686
0.553464 0.165509 0.001725
0.644079 0.155585 -0.007708
0.736042 0.145352 -0.019376
0.827160 0.134908 -0.032340
0.912743 0.125479 -0.044417
0.985705 0.118527 -0.053820
1.042638 0.114690 -0.059908
1.083519 0.114005 -0.062650
-0.019730 0.285460 0.059631
0.009877 0.286071 0.055764
0.046833 0.285785 0.050932
0.102832 0.289360 0.048019
0.180937 0.316477 0.023618
0.309666 0.342591 -0.002573
0.428719 0.322442 -0.024185
0.518250 0.288430 -0.034231
0.603393 0.264852 -0.038584
0.688687 0.248790 -0.042881
0.772631 0.237310 -0.046785
0.853803 0.228863 -0.050246
0.929522 0.222846 -0.053273
0.995782 0.218449 -0.057199
1.049372 0.215933 -0.061087
1.087816 0.216247 -0.062233
-0.031305 0.376380 0.043393
-0.002037 0.377564 0.039944
0.037060 0.377527 0.035474
0.096570 0.380949 0.034538
0.171572 0.403025 0.015694
0.288402 0.444693 -0.022552
0.435604 0.462195 -0.041002
0.559554 0.439693 -0.066101
0.656263 0.402865 -0.081961
0.740975 0.372137 -0.085787
0.824031 0.350285 -0.089026
0.904395 0.334428 -0.092090
0.978504 0.323415 -0.094266
1.041307 0.316898 -0.095771
1.090121 0.314280 -0.095838
1.125881 0.314858 -0.094814
-0.044487 0.471724 0.027432
-0.014647 0.472938 0.024318
0.026978 0.473386 0.020600
0.088893 0.476888 0.020218
0.165966 0.491809 0.008922
0.268363 0.535021 -0.030356
0.412467 0.577587 -0.068843
0.563253 0.585828 -0.078337
0.689228 0.563044 -0.105456
0.791876 0.526656 -0.127332
0.876049 0.491422 -0.131828
0.955253 0.465183 -0.133989
1.027993 0.446753 -0.135471
1.088701 0.435741 -0.135746
1.135959 0.430535 -0.134967
1.170417 0.429908 -0.132992
-0.058335 0.568906 0.012121
-0.027537 0.570032 0.009298
0.016356 0.570714 0.006255
0.080496 0.574319 0.006299
0.161300 0.582853 0.001790
0.254821 0.624501 -0.035564
0.383164 0.671163 -0.077744
0.538833 0.707153 -0.109039
0.688950 0.710703 -0.113349
0.813268 0.688063 -0.139163
0.921185 0.655395 -0.167514
1.005076 0.619372 -0.174613
1.076318 0.591625 -0.175118
1.135336 0.574670 -0.174408
1.181437 0.566043 -0.172783
1.214712 0.563817 -0.169779
-0.072281 0.666325 -0.002285
-0.040451 0.667219 -0.004836
0.005539 0.668009 -0.007293
0.071653 0.671588 -0.006849
0.154999 0.677288 -0.008139
0.245236 0.712925 -0.039100
0.360612 0.759113 -0.080466
0.505288 0.806628 -0.122832
0.662737 0.833086 -0.143890
0.810061 0.834436 -0.144645
0.931090 0.813074 -0.167569
1.037271 0.784109 -0.197083
1.121921 0.755012 -0.211363
1.180289 0.731251 -0.210422
1.224352 0.718207 -0.206908
1.256250 0.713812 -0.202386
-0.086104 0.762417 -0.015483
-0.053095 0.763027 -0.017737
-0.005271 0.763714 -0.019750
0.062604 0.767071 -0.018755
0.148264 0.770692 -0.017656
0.238125 0.798922 -0.040890
0.343966 0.844655 -0.081405
0.474799 0.891553 -0.122780
0.628292 0.936812 -0.162211
0.781396 0.952628 -0.171853
0.924144 0.953958 -0.170439
1.039175 0.935041 -0.188519
1.132652 0.910047 -0.211811
1.207281 0.891832 -0.227235
1.258581 0.879314 -0.230894
1.292886 0.874250 -0.228289
-0.099212 0.855022 -0.026997
-0.065031 0.855165 -0.028892
-0.015680 0.855377 -0.030451
0.053809 0.858410 -0.028928
0.140836 0.861466 -0.027034
0.233000 0.880132 -0.040473
0.331666 0.924993 -0.079795
0.452025 0.971008 -0.119966
0.592967 1.016892 -0.159644
0.748823 1.056412 -0.192565
0.893791 1.063057 -0.192201
1.027931 1.064054 -0.187924
1.130534 1.049336 -0.198142
1.203254 1.030304 -0.211561
1.256468 1.018259 -0.216656
1.291535 1.012593 -0.213990
-0.110838 0.939569 -0.035842
-0.075366 0.938920 -0.037241
-0.024698 0.938140 -0.038433
0.046267 0.940314 -0.036176
0.134373 0.942593 -0.033462
0.229740 0.952037 -0.037679
0.323350 0.995212 -0.075271
0.436174 1.039704 -0.113828
0.567338 1.084028 -0.151814
0.714835 1.127558 -0.188603
0.865288 1.153208 -0.207018
0.998931 1.153607 -0.199645
1.115645 1.153265 -0.191453
1.197051 1.142956 -0.191704
1.248590 1.128711 -0.194296
1.282166 1.120572 -0.188895
-0.119422 1.008604 -0.040407
-0.082697 1.006932 -0.041163
-0.031055 1.004685 -0.042028
0.041182 1.005807 -0.038972
0.130207 1.007055 -0.035354
0.226797 1.012402 -0.035406
0.318992 1.049784 -0.067235
0.426566 1.092573 -0.103960
0.551078 1.134863 -0.139782
0.690621 1.176602 -0.174485
0.840598 1.214133 -0.204376
0.974842 1.218082 -0.200142
1.089781 1.215874 -0.188891
1.179193 1.213157 -0.176407
1.238154 1.205522 -0.166622
1.270379 1.194711 -0.158008
-0.124636 1.060209 -0.040167
-0.086777 1.057505 -0.040115
-0.034527 1.053563 -0.040702
0.038820 1.053548 -0.036797
0.128526 1.053721 -0.032064
0.225882 1.055969 -0.028973
0.317783 1.087700 -0.054882
0.421562 1.128463 -0.089284
0.541211 1.168969 -0.122901
0.675074 1.208270 -0.154674
0.819885 1.245790 -0.183929
0.956337 1.258272 -0.187357
1.069207 1.253806 -0.172981
1.156724 1.248760 -0.156948
1.218586 1.243017 -0.139330
1.255999 1.235920 -0.120781
-0.126745 1.095555 -0.035054
-0.087796 1.091925 -0.034057
-0.035330 1.086247 -0.034544
0.038769 1.085144 -0.029728
0.128881 1.084506 -0.023758
0.226707 1.084374 -0.017740
0.318687 1.110755 -0.037649
0.419364 1.150128 -0.069920
0.535322 1.188620 -0.100547
0.664681 1.226057 -0.129280
0.804361 1.261433 -0.155016
0.940655 1.279815 -0.162711
1.051110 1.274061 -0.145220
1.136560 1.267598 -0.125847
1.196562 1.260591 -0.104737
1.233185 1.253128 -0.081783
-0.023469 -0.014821 0.191897
0.000260 -0.012381 0.181694
0.038293 -0.010831 0.172769
0.086614 -0.006874 0.164663
0.150200 0.001712 0.152172
0.223715 -0.004204 0.139961
0.309543 -0.016942 0.122717
0.403192 -0.031188 0.104649
0.500205 -0.046135 0.086558
0.598297 -0.061248 0.068829
0.695994 -0.076294 0.051611
0.791750 -0.090977 0.035263
0.883258 -0.104791 0.020103
0.965642 -0.116852 0.007178
1.032032 -0.125780 -0.002354
1.081323 -0.131390 -0.008159
-0.018978 0.024277 0.175311
0.009116 0.024532 0.166459
0.043425 0.023456 0.157733
0.095375 0.026944 0.151356
0.160914 0.032660 0.141338
0.235131 0.023332 0.127846
0.322552 0.010478 0.111542
0.416343 -0.003525 0.094536
0.512917 -0.018107 0.077445
0.610310 -0.032735 0.060718
0.707031 -0.047264 0.044453
0.801502 -0.061263 0.029040
0.891396 -0.074374 0.014850
0.971060 -0.085437 0.003087
1.034543 -0.093327 -0.005309
1.081177 -0.097918 -0.010076
-0.020626 0.072733 0.168626
0.011896 0.072275 0.159137
0.048743 0.070965 0.148756
0.100454 0.069392 0.139402
0.167420 0.071128 0.129881
0.243759 0.061225 0.116250
0.332157 0.048828 0.100657
0.425872 0.035425 0.084447
0.521960 0.021629 0.068193
0.618583 0.007765 0.052170
0.714358 -0.005856 0.036746
0.807640 -0.018971 0.022115
0.895836 -0.030998 0.008822
0.972856 -0.040845 -0.001952
1.033692 -0.047472 -0.009256
1.077985 -0.050850 -0.013035
-0.026695 0.149533 0.166967
0.008577 0.147607 0.157172
0.047767 0.143708 0.146462
0.103378 0.133402 0.130902
0.173339 0.126560 0.117288
0.251340 0.116085 0.105308
0.340128 0.104942 0.091307
0.434106 0.092744 0.076163
0.530037 0.080166 0.060943
0.626190 0.067556 0.045986
0.721323 0.055184 0.031495
0.813686 0.043372 0.017881
0.900411 0.032723 0.005653
0.975168 0.024405 -0.003940
1.033676 0.019313 -0.010123
1.075945 0.017281 -0.012841
-0.032702 0.226464 0.139400
0.003926 0.220472 0.130143
0.047149 0.211625 0.121697
0.104281 0.200811 0.114103
0.182856 0.213588 0.097483
0.283205 0.203088 0.081207
0.365509 0.184025 0.074824
0.451169 0.172949 0.068546
0.543120 0.162268 0.057610
0.636848 0.151390 0.045207
0.731007 0.140203 0.031618
0.822319 0.129541 0.018780
0.907469 0.120068 0.007448
0.979872 0.113092 -0.001131
1.036211 0.109190 -0.006275
1.076669 0.108426 -0.008061
-0.030550 0.297745 0.113305
0.004517 0.292866 0.109798
0.046175 0.287661 0.105684
0.099084 0.284105 0.099076
0.174282 0.297907 0.086585
0.296295 0.327293 0.057114
0.412510 0.307203 0.037437
0.499553 0.276707 0.030132
