example_ofxGpuLutCube/bin/data/ofxGpuLutCube/LUT/C38 (deep violet).cube
LUT_3D_SIZE 6
0.009429 0.003536 0.039335
0.127782 0.003094 0.021273
0.354934 -0.019948 -0.005613
0.628360 -0.046171 -0.037376
0.887098 -0.071128 -0.065957
1.039341 -0.082642 -0.079472
0.012596 0.114508 0.018121
0.149724 0.121494 0.001585
0.376876 0.097873 -0.013371
0.651053 0.073968 -0.042464
0.903495 0.052641 -0.068214
1.041860 0.046208 -0.078195
-0.006350 0.337874 -0.007926
0.134046 0.356840 -0.019977
0.455394 0.381446 -0.069366
0.718916 0.322632 -0.086211
0.945697 0.298954 -0.092469
1.064690 0.296545 -0.093346
-0.030879 0.613053 -0.036875
0.129865 0.619909 -0.037397
0.441784 0.699829 -0.110828
0.808253 0.690062 -0.144778
1.042020 0.628236 -0.165857
1.147500 0.612496 -0.158479
-0.050650 0.870951 -0.060609
0.135172 0.873137 -0.057636
0.431521 0.943894 -0.121845
0.819921 0.998574 -0.167462
1.087949 0.970860 -0.176803
1.197933 0.948385 -0.168332
-0.052020 1.031442 -0.066671
0.164382 1.030369 -0.058301
0.465403 1.099412 -0.115749
0.843150 1.161687 -0.159575
1.089201 1.149925 -0.118432
1.187554 1.115965 -0.068824
-0.021863 -0.029273 0.206305
0.126984 -0.005666 0.165674
0.359191 -0.019491 0.128955
0.632774 -0.045773 0.092112
0.890371 -0.070895 0.061781
1.039948 -0.082112 0.049323
-0.009700 0.115239 0.167424
0.134748 0.110921 0.136227
0.374326 0.092558 0.107716
0.648384 0.067885 0.078383
0.898830 0.046195 0.055438
1.034017 0.039753 0.051183
-0.011105 0.345667 0.118265
0.131112 0.340163 0.110373
0.436893 0.360225 0.067229
0.692976 0.312284 0.062246
0.916206 0.296327 0.064563
1.033384 0.293623 0.072980
-0.030805 0.614585 0.093697
0.125627 0.610985 0.090922
0.424004 0.668979 0.046027
0.784954 0.659726 0.018050
0.999622 0.596855 0.026145
1.096285 0.580955 0.057002
-0.050031 0.870597 0.083573
0.130334 0.861749 0.088040
0.418651 0.901496 0.067261
0.790431 0.958018 0.035500
1.043870 0.922340 0.050431
1.144532 0.892365 0.086954
-0.050357 1.029366 0.104870
0.158510 1.013805 0.119345
0.451546 1.041445 0.121486
0.802015 1.104041 0.096791
1.031710 1.087276 0.161159
1.124458 1.046833 0.228263
-0.083326 -0.092077 0.477890
0.075918 -0.083034 0.449247
0.361065 -0.021179 0.375647
0.637181 -0.045523 0.339288
0.893659 -0.070695 0.308954
1.040482 -0.081655 0.298539
-0.068175 0.056908 0.430355
0.083342 0.049714 0.402421
0.378359 0.093177 0.354043
0.652788 0.068758 0.326512
0.901672 0.047252 0.307201
1.034190 0.041229 0.308408
-0.068223 0.388146 0.421436
0.091011 0.366412 0.390245
0.383263 0.320927 0.336474
0.656633 0.297933 0.318810
0.895064 0.279249 0.310635
1.013797 0.276704 0.324268
-0.092923 0.679619 0.353063
0.097122 0.637584 0.340467
0.391638 0.596011 0.334874
0.719648 0.595071 0.308773
0.919253 0.557393 0.334481
1.013659 0.553362 0.370862
-0.094702 0.917926 0.338254
0.122488 0.866716 0.348712
0.406539 0.835742 0.358337
0.735256 0.890086 0.333311
0.978445 0.853206 0.351990
1.060908 0.819388 0.408553
-0.095601 1.077980 0.371497
0.156144 1.015753 0.393430
0.443968 0.981694 0.414419
0.746243 1.021224 0.415002
0.965811 1.016506 0.466941
1.059850 0.975630 0.531922
-0.152038 -0.161997 0.774254
0.008052 -0.155179 0.751145
0.341902 -0.091945 0.680235
0.640921 -0.046047 0.625652
0.896845 -0.070518 0.597487
1.041015 -0.081199 0.588523
-0.139265 -0.012205 0.733478
0.014957 -0.020540 0.707022
0.361078 0.031812 0.657120
0.657531 0.069807 0.615778
0.904744 0.048549 0.597592
1.034574 0.042961 0.599900
-0.138301 0.314853 0.728436
0.026048 0.293400 0.696650
0.343806 0.255831 0.649187
0.661674 0.299176 0.609128
0.898086 0.281104 0.602005
1.014609 0.279033 0.615993
-0.143349 0.718074 0.743298
0.041054 0.681719 0.716896
0.350169 0.604973 0.657906
0.666639 0.562032 0.616945
0.888096 0.544314 0.622746
0.996566 0.541724 0.649260
-0.194614 1.020726 0.711158
0.029278 0.967254 0.691022
0.366703 0.872883 0.650385
0.685984 0.811029 0.647220
0.896461 0.790791 0.668426
0.987576 0.781458 0.710376
-0.194017 1.180195 0.730083
0.067850 1.113275 0.717656
0.410799 1.018107 0.697721
0.720866 0.948931 0.714464
0.908172 0.954203 0.741776
0.998120 0.927102 0.787839
-0.214459 -0.225537 1.048476
-0.054531 -0.219479 1.033493
0.293353 -0.178653 0.988203
0.626907 -0.079245 0.886994
0.899997 -0.070468 0.872678
1.041548 -0.080816 0.864086
-0.205893 -0.076947 1.021088
-0.049088 -0.086750 0.997313
0.310071 -0.055566 0.969655
0.645067 0.042806 0.877649
0.907841 0.049869 0.871290
1.034958 0.044764 0.870942
-0.203159 0.249011 1.017664
-0.035166 0.227584 0.985131
0.283164 0.186887 0.942933
0.653886 0.264283 0.878804
0.901264 0.283090 0.867806
1.015684 0.281408 0.874342
-0.211524 0.647161 1.038696
-0.019699 0.609255 1.005226
0.295606 0.535875 0.935777
0.650244 0.512260 0.890868
0.891402 0.545679 0.869934
0.998598 0.543389 0.880427
-0.208218 1.015764 1.062180
0.012651 0.961034 1.026550
0.332709 0.874886 0.962617
0.654467 0.788783 0.897617
0.884333 0.784465 0.878278
0.988431 0.779454 0.886978
-0.212151 1.202626 1.071926
0.053484 1.137588 1.033692
0.388877 1.051132 0.973746
0.706159 0.969582 0.915700
0.886347 0.930634 0.890276
0.996885 0.922848 0.899090
-0.243579 -0.255732 1.206398
-0.084388 -0.251546 1.202672
0.264583 -0.223280 1.175063
0.624766 -0.125087 1.077706
0.892907 -0.080693 1.034594
1.042080 -0.080361 1.034386
-0.240743 -0.109974 1.197845
-0.081383 -0.121413 1.177773
0.279291 -0.100898 1.161180
0.643737 -0.000785 1.065745
0.902489 0.042825 1.027548
1.035414 0.046558 1.028053
-0.237458 0.216208 1.197547
-0.065757 0.193799 1.162698
0.257320 0.155011 1.116133
0.647483 0.226167 1.052202
0.897709 0.278415 1.007556
1.017180 0.283815 1.008278
-0.243405 0.611649 1.211426
-0.042846 0.575240 1.167282
0.276933 0.506719 1.086707
0.637432 0.483701 1.036716
0.889591 0.541979 0.985900
1.000801 0.545122 0.992689
-0.236498 0.983924 1.218855
-0.004264 0.931121 1.167133
0.323258 0.848357 1.086863
0.648295 0.767721 1.010927
0.883713 0.775593 0.984348
0.991394 0.779451 0.993972
-0.210353 1.195184 1.217691
0.060537 1.124312 1.160467
0.393369 1.032839 1.087874
0.703200 0.946916 1.024510
0.872102 0.909163 1.012195
1.000082 0.919204 1.019773
