example_ofxGpuLutCube/bin/data/ofxGpuLutCube/LUT/C38 (deep violet).cube
LUT_3D_SIZE 16
0.009429 0.003536 0.039335
0.043989 0.008756 0.031566
0.079659 0.007140 0.027270
0.127782 0.003094 0.021273
0.190952 -0.002932 0.013686
0.268708 -0.010902 0.004444
0.354934 -0.019948 -0.005613
0.444917 -0.028704 -0.016181
0.536535 -0.037342 -0.026837
0.628360 -0.046171 -0.037376
0.718991 -0.054952 -0.047585
0.806568 -0.063467 -0.057289
0.887098 -0.071128 -0.065957
0.953656 -0.077011 -0.072680
1.004147 -0.080777 -0.077148
1.039341 -0.082642 -0.079472
0.011717 0.036686 0.031463
0.044445 0.037654 0.026084
0.080680 0.035833 0.022026
0.130264 0.032253 0.016419
0.195021 0.026625 0.009062
0.274144 0.019220 0.000149
0.360945 0.010796 -0.009640
0.451357 0.001908 -0.019746
0.543243 -0.007213 -0.029980
0.635213 -0.016401 -0.040089
0.725745 -0.025353 -0.049959
0.812838 -0.033874 -0.059274
0.892288 -0.041456 -0.067440
0.957206 -0.047089 -0.073682
1.006103 -0.050544 -0.077674
1.040038 -0.052086 -0.079606
0.013205 0.071909 0.024156
0.044476 0.070934 0.021219
0.085860 0.070718 0.016445
0.135054 0.066859 0.013373
0.201060 0.061770 0.006833
0.281333 0.054799 -0.001925
0.368723 0.046803 -0.011522
0.459340 0.038329 -0.021514
0.551238 0.029687 -0.031513
0.643056 0.021045 -0.041471
0.733291 0.012581 -0.051061
0.819862 0.004612 -0.060135
0.897913 -0.002228 -0.067982
0.961114 -0.007147 -0.073836
1.008295 -0.009950 -0.077439
1.040958 -0.010854 -0.079058
0.012596 0.114508 0.018121
0.042709 0.115909 0.016315
0.087104 0.124498 0.008608
0.149724 0.121494 0.001585
0.214621 0.111218 -0.002151
0.290865 0.104770 -0.005711
0.376876 0.097873 -0.013371
0.467425 0.090145 -0.022862
0.559356 0.082064 -0.032711
0.651053 0.073968 -0.042464
0.741001 0.066132 -0.051897
0.826832 0.058789 -0.060736
0.903495 0.052641 -0.068214
0.964938 0.048455 -0.073675
1.010388 0.046417 -0.076894
1.041860 0.046208 -0.078195
0.008073 0.174727 0.010779
0.039049 0.176872 0.009635
0.081299 0.183962 0.004184
0.150769 0.198149 -0.008609
0.236396 0.191952 -0.018708
0.315296 0.174740 -0.023847
0.397540 0.164073 -0.027178
0.482341 0.157083 -0.030590
0.569686 0.150982 -0.035582
0.659606 0.144094 -0.043523
0.748821 0.136906 -0.052419
0.833942 0.130151 -0.060982
0.909009 0.124649 -0.068146
0.968635 0.121204 -0.073161
1.012400 0.119851 -0.076012
1.042699 0.120307 -0.076944
0.001449 0.251053 0.001817
0.033439 0.253844 0.001062
0.077812 0.257590 -0.000503
0.139936 0.274669 -0.015405
0.238173 0.291060 -0.030481
0.341387 0.281230 -0.042994
0.428772 0.259637 -0.050861
0.513828 0.243954 -0.054186
0.599311 0.233219 -0.057271
0.684186 0.225478 -0.060118
0.767018 0.219649 -0.062768
0.845867 0.215072 -0.065641
0.917088 0.210829 -0.070239
0.973867 0.208200 -0.073963
1.015211 0.207501 -0.075708
1.044274 0.208325 -0.076043
-0.006350 0.337874 -0.007926
0.026742 0.340727 -0.008427
0.073232 0.343506 -0.008947
0.134046 0.356840 -0.019977
0.225585 0.380956 -0.041804
0.345257 0.394245 -0.054583
0.455394 0.381446 -0.069366
0.548640 0.357535 -0.080552
0.634430 0.337206 -0.083722
0.718916 0.322632 -0.086211
0.801389 0.311856 -0.088767
0.878537 0.304101 -0.090580
0.945697 0.298954 -0.092469
0.997698 0.296580 -0.092861
1.036531 0.295844 -0.093528
1.064690 0.296545 -0.093346
-0.014600 0.428809 -0.017777
0.019844 0.431432 -0.018084
0.068332 0.433907 -0.018273
0.131607 0.442429 -0.024539
0.216687 0.467198 -0.047005
0.334000 0.493953 -0.071463
0.461091 0.500278 -0.078414
0.573280 0.485098 -0.095990
0.669927 0.460267 -0.109909
0.754844 0.436764 -0.112784
0.836729 0.419312 -0.114971
0.913270 0.406642 -0.116915
0.977852 0.398416 -0.117808
1.028317 0.394064 -0.118148
1.064376 0.392644 -0.117316
1.091469 0.392964 -0.115980
-0.022820 0.521071 -0.027520
0.013099 0.523389 -0.027630
0.063809 0.525657 -0.027623
0.130758 0.529990 -0.029806
0.212794 0.554537 -0.052113
0.322297 0.583253 -0.078550
0.452851 0.605583 -0.098630
0.581270 0.606523 -0.101535
0.691460 0.588420 -0.121240
0.789952 0.564285 -0.137716
0.872808 0.539500 -0.141090
0.947438 0.520859 -0.141973
1.010151 0.508949 -0.142534
1.058643 0.502280 -0.142406
1.092785 0.499700 -0.140822
1.119628 0.498933 -0.138511
-0.030879 0.613053 -0.036875
0.006902 0.615046 -0.036782
0.059925 0.616999 -0.036579
0.129865 0.619909 -0.037397
0.212098 0.641475 -0.056843
0.315851 0.670057 -0.083282
0.441784 0.699829 -0.110828
0.575529 0.712462 -0.121163
0.701500 0.709756 -0.124573
0.808253 0.690062 -0.144778
0.905542 0.667759 -0.162841
0.981891 0.644427 -0.166414
1.042020 0.628236 -0.165857
1.087060 0.618913 -0.163768
1.119993 0.615094 -0.162054
1.147500 0.612496 -0.158479
-0.038451 0.703301 -0.045695
0.001409 0.704972 -0.045412
0.057015 0.706546 -0.045002
0.130017 0.708467 -0.044919
0.213776 0.726889 -0.061273
0.313846 0.755527 -0.087821
0.433271 0.785267 -0.115354
0.568209 0.811107 -0.138869
0.699437 0.814854 -0.140141
0.819698 0.808755 -0.145546
0.919809 0.788380 -0.164724
1.007389 0.769320 -0.180587
1.071669 0.752915 -0.185750
1.114869 0.741309 -0.183182
1.144590 0.735768 -0.178983
1.173990 0.730861 -0.174605
-0.045160 0.790220 -0.053748
-0.003024 0.791498 -0.053233
0.055469 0.792747 -0.052582
0.131666 0.793799 -0.051773
0.217251 0.809690 -0.065666
0.315082 0.838129 -0.091974
0.430014 0.867490 -0.119079
0.560780 0.897031 -0.146244
0.695214 0.911090 -0.157598
0.821884 0.911422 -0.155029
0.931313 0.901428 -0.162156
1.016917 0.882768 -0.177159
1.083807 0.868961 -0.186407
1.131516 0.860132 -0.189629
1.161962 0.854967 -0.186408
1.195878 0.848581 -0.183277
-0.050650 0.870951 -0.060609
-0.005807 0.871757 -0.059799
0.055731 0.872490 -0.058823
0.135172 0.873137 -0.057636
0.222949 0.886522 -0.068971
0.319451 0.914868 -0.095205
0.431521 0.943894 -0.121845
0.557598 0.972632 -0.147883
0.693175 0.996763 -0.169043
0.819921 0.998574 -0.167462
0.937030 0.997570 -0.163470
1.025027 0.984725 -0.170226
1.087949 0.970860 -0.176803
1.131786 0.961845 -0.177161
1.160885 0.956468 -0.172292
1.197933 0.948385 -0.168332
-0.053847 0.939376 -0.065377
-0.006025 0.939646 -0.064180
0.058816 0.939961 -0.062751
0.141516 0.940144 -0.061028
0.231225 0.952237 -0.070993
0.327416 0.980615 -0.096960
0.438064 1.008557 -0.122206
0.561531 1.037483 -0.148053
0.695288 1.064451 -0.171428
0.822652 1.070452 -0.173278
0.937524 1.068961 -0.166983
1.030977 1.065685 -0.161166
1.090880 1.053109 -0.162995
1.130392 1.043768 -0.159700
1.157817 1.037224 -0.151525
1.196475 1.026826 -0.144691
-0.054372 0.992700 -0.067435
-0.003261 0.992641 -0.065766
0.065341 0.992563 -0.063714
0.151324 0.992352 -0.061352
0.242176 1.004968 -0.071436
0.339084 1.033002 -0.096533
0.449528 1.060264 -0.120427
0.571708 1.088403 -0.144653
0.703329 1.115030 -0.166672
0.830611 1.124599 -0.170919
0.941860 1.122202 -0.162321
1.030925 1.119412 -0.152276
1.091966 1.112969 -0.143701
1.126978 1.103451 -0.135714
1.154629 1.094968 -0.123847
1.193240 1.082555 -0.112495
-0.052020 1.031442 -0.066671
0.002695 1.031207 -0.064308
0.075288 1.030825 -0.061547
0.164382 1.030369 -0.058301
0.255939 1.045187 -0.069813
0.354297 1.072638 -0.093447
0.465403 1.099412 -0.115749
0.587487 1.126730 -0.137849
0.718033 1.152568 -0.157566
0.843150 1.161687 -0.159575
0.949511 1.158352 -0.147898
1.031980 1.154439 -0.134265
1.089201 1.149925 -0.118432
1.120882 1.141505 -0.103005
1.150483 1.130381 -0.086377
1.187554 1.115965 -0.068824
0.002951 -0.003477 0.081252
0.040692 0.000610 0.073255
0.079821 0.006645 0.063699
0.128574 0.003015 0.056640
0.192059 -0.003084 0.047907
0.270053 -0.011079 0.037765
0.356381 -0.019991 0.026893
0.446363 -0.028433 0.015752
0.537984 -0.037116 0.004658
0.629808 -0.046019 -0.006158
0.720440 -0.054876 -0.016676
0.807884 -0.063392 -0.026470
0.888249 -0.071049 -0.035213
0.954387 -0.076873 -0.041887
1.004604 -0.080630 -0.046272
1.039568 -0.082417 -0.048444
0.006174 0.031124 0.069555
0.040769 0.031704 0.063681
0.081086 0.035979 0.056251
0.130996 0.032347 0.049750
0.196067 0.026634 0.041617
0.275300 0.019068 0.031931
0.362104 0.010487 0.021583
0.452378 0.001412 0.010970
0.544142 -0.007820 0.000422
0.635974 -0.017086 -0.009982
0.726354 -0.026130 -0.019998
0.813302 -0.034771 -0.029405
0.892386 -0.042302 -0.037616
0.956919 -0.047944 -0.043786
1.005438 -0.051451 -0.047625
1.039128 -0.052992 -0.049390
0.008574 0.072870 0.063119
0.041532 0.070558 0.056255
0.082311 0.069038 0.049906
0.133762 0.065621 0.044327
0.200566 0.060470 0.036892
0.281110 0.053442 0.027759
0.368611 0.045436 0.017918
0.459292 0.037016 0.007799
0.551246 0.028376 -0.002312
0.643063 0.019735 -0.012294
0.733249 0.011270 -0.021877
0.819627 0.003301 -0.030870
0.897439 -0.003531 -0.038555
0.960269 -0.008445 -0.044173
1.007121 -0.011192 -0.047533
1.039485 -0.012092 -0.048819
0.009368 0.118587 0.050592
0.041834 0.115594 0.047578
0.084064 0.120032 0.042098
0.145726 0.118341 0.034577
0.210875 0.110290 0.030685
0.289423 0.104124 0.024878
0.376549 0.096970 0.016151
0.467464 0.089040 0.006288
0.559414 0.080978 -0.003554
0.651078 0.072855 -0.013226
0.740927 0.064980 -0.022520
0.826602 0.057638 -0.031150
0.902950 0.051499 -0.038389
0.963964 0.047342 -0.043460
1.009119 0.045319 -0.046314
1.040235 0.045108 -0.047129
0.008095 0.175713 0.042398
0.037956 0.176423 0.039602
0.080791 0.180079 0.036924
0.148090 0.194979 0.023211
0.233193 0.188686 0.013452
0.311881 0.172829 0.008698
0.394379 0.163450 0.005279
0.479376 0.157213 0.001740
0.568888 0.150360 -0.005388
0.659284 0.143255 -0.013675
0.748750 0.135930 -0.022685
0.833665 0.129081 -0.030900
0.908399 0.123627 -0.037658
0.967572 0.120173 -0.042171
1.010916 0.118810 -0.044438
1.040920 0.119204 -0.044702
0.001503 0.252116 0.032877
0.032214 0.253346 0.030495
0.077078 0.256390 0.029438
0.138532 0.270943 0.016991
0.235993 0.288006 0.001117
0.339123 0.278201 -0.011486
0.425737 0.257016 -0.018423
0.510562 0.242320 -0.021311
0.596008 0.232343 -0.024121
0.680646 0.225218 -0.026551
0.763390 0.219853 -0.028904
0.843762 0.214701 -0.032994
0.915147 0.210188 -0.037598
0.971257 0.207744 -0.040321
1.012545 0.206848 -0.041700
1.041573 0.207513 -0.041400
-0.006448 0.338761 0.022713
0.025588 0.340208 0.020860
0.072459 0.342845 0.020437
0.133948 0.353131 0.012443
0.223975 0.377398 -0.009435
0.343451 0.391309 -0.022810
0.453095 0.378044 -0.037202
0.545313 0.354068 -0.047087
0.630590 0.334478 -0.049438
0.715126 0.320602 -0.051580
0.797095 0.310481 -0.053264
0.874244 0.303075 -0.054660
0.940067 0.298519 -0.054962
0.992423 0.295983 -0.055256
1.029780 0.295662 -0.053830
1.056922 0.296562 -0.051778
-0.014811 0.429396 0.012653
0.018738 0.430817 0.011228
0.067650 0.433267 0.011143
0.132404 0.438672 0.008120
0.215940 0.463475 -0.014211
0.332286 0.490326 -0.038577
0.459340 0.496843 -0.045580
0.570913 0.481105 -0.062681
0.666236 0.456014 -0.074808
0.750561 0.432971 -0.076598
0.832163 0.416144 -0.077942
0.907816 0.403911 -0.078403
0.971965 0.396088 -0.078369
1.021086 0.391951 -0.076694
1.057276 0.390408 -0.075193
1.083819 0.390617 -0.072138
-0.023223 0.521393 0.002923
0.012060 0.522704 0.001990
0.063191 0.524829 0.002202
0.130879 0.528209 0.001267
0.212820 0.550293 -0.018307
0.320941 0.578789 -0.044230
0.451049 0.601747 -0.064476
0.579127 0.602395 -0.066903
0.688872 0.583774 -0.085970
0.785635 0.558948 -0.099981
0.867215 0.534267 -0.101379
0.941505 0.516157 -0.101169
1.003035 0.504524 -0.099792
1.050268 0.497998 -0.097546
1.083252 0.495336 -0.093778
1.110080 0.494239 -0.089711
-0.031357 0.613092 -0.006159
0.005873 0.614160 -0.006677
0.059363 0.615970 -0.006127
0.130011 0.618189 -0.005864
0.212698 0.636847 -0.021955
0.314981 0.665475 -0.047901
0.439773 0.694708 -0.074268
0.573383 0.707857 -0.084397
0.698692 0.704457 -0.086986
0.804802 0.684183 -0.105972
0.900195 0.661072 -0.121147
0.974392 0.637326 -0.121607
1.033439 0.621385 -0.119047
1.078252 0.612341 -0.115639
1.108952 0.608085 -0.110282
1.135853 0.604997 -0.104012
-0.038957 0.703077 -0.014407
0.000412 0.703826 -0.014513
0.056531 0.705314 -0.013565
0.130209 0.706735 -0.012423
0.214804 0.721794 -0.024823
0.313328 0.750127 -0.050357
0.431374 0.779347 -0.076519
0.565389 0.805145 -0.099032
0.696358 0.809027 -0.099339
0.815697 0.801991 -0.103484
0.914866 0.781014 -0.120819
1.001008 0.761298 -0.134058
1.062346 0.743868 -0.135073
1.103499 0.731748 -0.129076
1.132550 0.726081 -0.122547
1.160280 0.719988 -0.113943
-0.045738 0.789685 -0.021616
-0.003952 0.790108 -0.021181
0.055011 0.791194 -0.019818
0.131692 0.792120 -0.018145
0.218851 0.803500 -0.026676
0.314917 0.831387 -0.051510
0.428203 0.860467 -0.077239
0.557462 0.889457 -0.102607
0.691522 0.904108 -0.113208
0.817469 0.903930 -0.108558
0.925373 0.892636 -0.114034
1.009713 0.873443 -0.126369
1.075190 0.859064 -0.132695
1.120674 0.849266 -0.131995
1.149989 0.843420 -0.125651
1.181627 0.835112 -0.117305
-0.051220 0.870047 -0.027102
-0.006738 0.869940 -0.026199
0.055293 0.870575 -0.024209
0.135171 0.871058 -0.021917
0.224733 0.879559 -0.027377
0.319447 0.907199 -0.051608
0.429625 0.935287 -0.075951
0.553980 0.963667 -0.100164
0.688365 0.987703 -0.119567
0.814506 0.989594 -0.116252
0.930429 0.987720 -0.109641
1.016348 0.973624 -0.113848
1.077666 0.959063 -0.117026
1.119872 0.949294 -0.113700
1.147666 0.942921 -0.105011
1.184116 0.933602 -0.097140
-0.054485 0.938084 -0.030013
-0.007030 0.937488 -0.028485
0.058357 0.937586 -0.025800
0.141565 0.937545 -0.022721
0.233226 0.944165 -0.025855
0.327622 0.971108 -0.048882
0.436020 0.998911 -0.072368
0.557336 1.026430 -0.094991
0.689167 1.052841 -0.115815
0.816077 1.059754 -0.116439
0.929570 1.057341 -0.106989
1.020733 1.052735 -0.098096
1.078589 1.039160 -0.096126
1.116301 1.028906 -0.088632
1.142565 1.021179 -0.076115
1.180401 1.009403 -0.064825
-0.055006 0.991089 -0.029637
-0.004332 0.990005 -0.027411
0.064816 0.989641 -0.023860
0.151235 0.989248 -0.019812
0.244398 0.995527 -0.021900
0.339253 1.021736 -0.043414
0.447065 1.049201 -0.065555
0.566642 1.075325 -0.085589
0.696078 1.101422 -0.104801
0.822604 1.112049 -0.107571
0.932095 1.108562 -0.095222
1.019062 1.104671 -0.081147
1.077459 1.096752 -0.068482
1.110418 1.086020 -0.055785
1.137472 1.076089 -0.039455
1.174905 1.062487 -0.023843
-0.052649 1.029597 -0.025816
0.001532 1.028041 -0.022803
0.074677 1.027415 -0.018142
0.164133 1.026704 -0.012845
0.258214 1.033689 -0.014630
0.354137 1.059515 -0.034516
0.462274 1.086278 -0.054456
0.581374 1.111361 -0.071816
0.709130 1.136167 -0.087792
0.833554 1.146986 -0.088622
0.937695 1.142427 -0.072667
1.017755 1.137292 -0.054420
1.072461 1.131423 -0.033939
1.101978 1.121659 -0.014382
1.131265 1.109236 0.005726
1.167588 1.094021 0.026162
-0.007327 -0.014281 0.136447
0.030551 -0.011955 0.128721
0.076947 -0.002723 0.115106
0.129200 0.002706 0.103890
0.193111 -0.003236 0.094056
0.271417 -0.011231 0.082805
0.357796 -0.019810 0.070925
0.447809 -0.028169 0.058995
0.539467 -0.036959 0.047306
0.631295 -0.045911 0.035917
0.721882 -0.054773 0.025118
0.809247 -0.063317 0.015025
0.889290 -0.070971 0.006223
0.955155 -0.076780 -0.000442
1.005007 -0.080547 -0.004749
1.039731 -0.082264 -0.006754
-0.003220 0.021725 0.120903
0.031860 0.022394 0.113841
0.079257 0.029835 0.103968
0.131773 0.032439 0.094824
0.197174 0.026715 0.085775
0.276618 0.019122 0.075282
0.363545 0.010495 0.064238
0.453894 0.001452 0.053119
0.545639 -0.007819 0.042181
0.637474 -0.017090 0.031504
0.727781 -0.026120 0.021350
0.814609 -0.034723 0.011895
0.893395 -0.042263 0.003798
0.957604 -0.047887 -0.002147
1.005854 -0.051334 -0.005665
1.039240 -0.052871 -0.007025
0.000593 0.064447 0.111596
0.033604 0.063212 0.103740
0.080300 0.064792 0.095399
0.133938 0.065467 0.087330
0.200908 0.059979 0.078845
0.281516 0.052679 0.068971
0.368894 0.044469 0.058511
0.459489 0.035858 0.047979
0.551282 0.027085 0.037550
0.642929 0.018308 0.027411
0.732945 0.009765 0.017761
0.819120 0.001715 0.008864
0.896549 -0.005188 0.001408
0.959006 -0.010106 -0.003880
1.005416 -0.012905 -0.006745
1.037518 -0.013815 -0.007471
0.001849 0.125720 0.103943
0.034419 0.122975 0.095855
0.080574 0.115827 0.086284
0.138263 0.114169 0.079579
0.206048 0.108540 0.072948
0.287183 0.102084 0.064493
0.375290 0.094601 0.054744
0.466254 0.086693 0.044837
0.558219 0.078594 0.035074
0.649861 0.070488 0.025534
0.739570 0.062568 0.016467
0.825101 0.055187 0.008187
0.901066 0.049053 0.001425
0.961729 0.044887 -0.003075
1.006381 0.042794 -0.005264
1.037235 0.042508 -0.005293
0.001021 0.183775 0.084788
0.035858 0.179474 0.081360
0.078986 0.176914 0.077600
0.142314 0.187442 0.067528
0.226079 0.182518 0.057719
0.304610 0.169826 0.053265
0.387353 0.162591 0.049678
0.475807 0.155787 0.042849
0.566602 0.148622 0.034660
0.658031 0.140995 0.025611
0.747372 0.133578 0.017062
0.832086 0.126711 0.009365
0.906408 0.121183 0.003263
0.965097 0.117718 -0.000460
1.007981 0.116302 -0.001849
1.037717 0.116581 -0.001145
0.001015 0.253744 0.074564
0.032196 0.254118 0.071802
0.075225 0.254357 0.068578
0.136216 0.263055 0.061652
0.230787 0.281669 0.044181
0.333129 0.271874 0.032015
0.418455 0.252028 0.026690
0.503071 0.239255 0.024273
0.588500 0.230812 0.021891
0.673050 0.224781 0.019986
0.757947 0.218919 0.015951
0.839748 0.213172 0.010843
0.911608 0.208321 0.006202
0.968365 0.205203 0.003296
1.009340 0.204145 0.002853
1.038074 0.204672 0.004333
-0.006331 0.339789 0.064131
0.025308 0.340568 0.061638
0.070479 0.341063 0.059206
0.133667 0.345969 0.056545
0.219735 0.369549 0.035493
0.338509 0.385083 0.020657
0.447406 0.371259 0.007033
0.537529 0.347540 -0.000307
0.622725 0.329509 -0.002045
0.706750 0.317030 -0.003111
0.788505 0.307930 -0.003911
0.864796 0.301496 -0.003835
0.930270 0.297477 -0.003193
0.980769 0.295769 -0.000974
1.018212 0.295298 0.001183
1.044991 0.296220 0.004750
-0.014698 0.430347 0.054068
0.018244 0.430838 0.051907
0.065666 0.431357 0.050204
0.131533 0.434514 0.049618
0.213545 0.455313 0.031601
0.327025 0.482230 0.007657
0.454194 0.490056 -0.000280
0.564732 0.473470 -0.016291
0.657969 0.448018 -0.025573
0.741527 0.426155 -0.025867
0.822566 0.410381 -0.025817
0.897571 0.399196 -0.024845
0.960703 0.392076 -0.023027
1.009295 0.388327 -0.020019
1.043559 0.387228 -0.015566
1.069606 0.387352 -0.010471
-0.023032 0.522230 0.044807
0.011392 0.522292 0.042991
0.061238 0.522737 0.041982
0.129851 0.524869 0.042677
0.211860 0.541628 0.028909
0.316678 0.569924 0.003834
0.445521 0.593735 -0.016614
0.573355 0.594533 -0.018813
0.682426 0.575287 -0.036796
0.776413 0.549540 -0.047084
0.856704 0.525475 -0.046157
0.930089 0.508281 -0.044092
0.990678 0.497319 -0.040841
1.036812 0.491149 -0.036436
1.068967 0.488533 -0.030556
1.094663 0.487327 -0.023513
-0.031084 0.613809 0.036501
0.005038 0.613348 0.035058
0.057467 0.613598 0.034754
0.128800 0.615226 0.036158
0.212780 0.627574 0.027087
0.311787 0.655466 0.002676
0.433931 0.684677 -0.022805
0.567343 0.699380 -0.033468
0.691807 0.695178 -0.034928
0.797297 0.674283 -0.052363
0.889566 0.649827 -0.063264
0.961747 0.626288 -0.060559
1.019516 0.610865 -0.055560
1.062631 0.601953 -0.049130
1.092868 0.597679 -0.041811
1.119180 0.594226 -0.032588
-0.038646 0.703681 0.029438
-0.000562 0.702657 0.028427
0.054638 0.702621 0.028785
0.128727 0.703867 0.030846
0.215644 0.711876 0.026409
0.310929 0.739467 0.002679
0.426003 0.768175 -0.021910
0.558368 0.794443 -0.043683
0.689282 0.799046 -0.043428
0.807486 0.791003 -0.045984
0.905711 0.769307 -0.061309
0.989368 0.748615 -0.070760
1.046462 0.729800 -0.066079
1.086751 0.717982 -0.057705
1.113613 0.711679 -0.047136
1.141515 0.705292 -0.036129
-0.045324 0.790208 0.023979
-0.005011 0.788488 0.023389
0.053035 0.788083 0.024510
0.130220 0.788906 0.027288
0.220152 0.793154 0.026974
0.313197 0.819914 0.004475
0.423360 0.847926 -0.018957
0.549853 0.876223 -0.042167
0.683604 0.892827 -0.053171
0.808796 0.891987 -0.046205
0.914995 0.879374 -0.049713
0.998022 0.859600 -0.059202
1.061919 0.844593 -0.062296
1.104930 0.833654 -0.057272
1.131769 0.826477 -0.046290
1.160536 0.816208 -0.032161
-0.050635 0.870293 0.020653
-0.007903 0.867968 0.020563
0.053318 0.867017 0.022472
0.133602 0.867336 0.026156
0.225699 0.869878 0.027970
0.318385 0.893966 0.008668
0.425129 0.921413 -0.013476
0.546385 0.949075 -0.035299
0.678966 0.973466 -0.053228
0.804757 0.976104 -0.048669
0.919326 0.973308 -0.039208
1.003068 0.957906 -0.040689
1.062700 0.942634 -0.040315
1.103271 0.932066 -0.033313
1.129880 0.924778 -0.021035
1.165937 0.914390 -0.009942
-0.053734 0.938173 0.020388
-0.008207 0.935030 0.020943
0.056332 0.933487 0.023765
0.139905 0.933258 0.028501
0.233762 0.934590 0.032138
0.326792 0.956580 0.015743
0.431587 0.983083 -0.004572
0.549376 1.009792 -0.024429
0.678435 1.035595 -0.042542
0.805027 1.044466 -0.042881
0.917009 1.041154 -0.030056
1.005838 1.035098 -0.018067
1.061723 1.020623 -0.012520
1.097798 1.009693 -0.001472
1.123348 1.000992 0.014125
1.160820 0.988409 0.027960
-0.054089 0.991085 0.023973
-0.005422 0.987222 0.025256
0.062696 0.985040 0.029041
0.149474 0.984348 0.035110
0.244876 0.984926 0.040484
0.338525 1.005382 0.026701
0.442307 1.031462 0.008070
0.558240 1.057004 -0.009140
0.683900 1.081052 -0.023872
0.810011 1.094715 -0.027170
0.917776 1.090374 -0.011353
1.002770 1.085510 0.006138
1.058845 1.076383 0.021472
1.090345 1.065080 0.037006
1.117381 1.054383 0.055399
1.154317 1.040152 0.072931
-0.051511 1.029455 0.031560
0.000542 1.025019 0.033840
0.072465 1.022210 0.038687
0.162154 1.021188 0.046287
0.258993 1.021357 0.053431
0.353289 1.041114 0.041909
0.456961 1.066284 0.025921
0.571901 1.090670 0.011803
0.695642 1.113794 0.000010
0.819314 1.127631 -0.001287
0.921790 1.122409 0.017607
0.999863 1.116516 0.038447
1.052757 1.110066 0.061252
1.080730 1.099477 0.082535
1.110353 1.086372 0.104184
1.146314 1.070759 0.126141
-0.021863 -0.029273 0.206305
0.016451 -0.026571 0.196813
0.065654 -0.020960 0.185600
0.126984 -0.005666 0.165674
0.194163 -0.003442 0.154044
0.272754 -0.011354 0.141802
0.359191 -0.019491 0.128955
0.449224 -0.027947 0.116241
0.540955 -0.036777 0.103934
0.632774 -0.045773 0.092112
0.723312 -0.054691 0.080938
0.810575 -0.063242 0.070660
0.890371 -0.070895 0.061781
0.955937 -0.076650 0.055171
1.005474 -0.080395 0.051090
1.039948 -0.082112 0.049323
-0.016886 0.008051 0.187110
0.018642 0.009149 0.178550
0.068403 0.013359 0.170974
0.130398 0.028220 0.153143
0.198282 0.026793 0.143868
0.277953 0.019132 0.132597
0.364989 0.010536 0.120941
0.455370 0.001459 0.109322
0.547179 -0.007812 0.098041
0.638935 -0.017077 0.087145
0.729228 -0.026115 0.076853
0.815925 -0.034714 0.067436
0.894491 -0.042187 0.059508
0.958372 -0.047745 0.053814
1.006244 -0.051177 0.050692
1.039394 -0.052640 0.049818
-0.012005 0.051886 0.174735
0.021159 0.050899 0.165950
0.069271 0.051152 0.158404
0.133447 0.063449 0.144185
0.202081 0.060219 0.135592
0.282868 0.052893 0.125191
0.370374 0.044685 0.114321
0.460935 0.035994 0.103546
0.552713 0.027184 0.092979
0.644351 0.018398 0.082847
0.734276 0.009837 0.073284
0.820295 0.001774 0.064658
0.897498 -0.005110 0.057540
0.959528 -0.009974 0.052804
1.005669 -0.012717 0.050527
1.037552 -0.013554 0.050535
-0.009700 0.115239 0.167424
0.023953 0.114553 0.159527
0.070104 0.110154 0.148374
0.134748 0.110921 0.136227
0.204518 0.107127 0.127529
0.286329 0.100264 0.117847
0.374326 0.092558 0.107716
0.465111 0.084430 0.097662
0.556908 0.076133 0.087808
0.648384 0.067885 0.078383
0.737938 0.059884 0.069549
0.823229 0.052388 0.061674
0.898830 0.046195 0.055438
0.959049 0.042045 0.051642
1.003412 0.039987 0.050312
1.034017 0.039753 0.051183
-0.012135 0.197037 0.155089
0.021449 0.194515 0.146967
0.071192 0.185159 0.135988
0.135791 0.176769 0.127346
0.214250 0.174740 0.117591
0.294067 0.166690 0.111962
0.381212 0.159707 0.104153
0.471841 0.152410 0.095406
0.563736 0.144728 0.086351
0.655107 0.137036 0.077700
0.744297 0.129573 0.069671
0.828794 0.122615 0.062596
0.902676 0.117054 0.057288
0.960902 0.113498 0.054410
1.003327 0.112015 0.054033
1.032676 0.112167 0.055806
-0.013151 0.268997 0.130454
0.023513 0.264052 0.126372
0.073452 0.255805 0.122940
0.133636 0.254335 0.118387
0.221676 0.270678 0.102822
0.321428 0.261372 0.092254
0.405719 0.245127 0.088284
0.490332 0.235770 0.086244
0.576518 0.229245 0.083577
0.664833 0.222563 0.078390
0.752212 0.215872 0.072420
0.835667 0.209243 0.066262
0.907655 0.204019 0.061924
0.963873 0.200837 0.060164
1.004359 0.199669 0.060869
