example_ofxGpuLutCube/bin/data/ofxGpuLutCube/LUT/C39 (warmer green brown).cube
LUT_3D_SIZE 16
-0.005009 -0.105115 -0.287354
0.046361 -0.099620 -0.276408
0.097986 -0.093423 -0.265727
0.149527 -0.086685 -0.255017
0.201108 -0.079550 -0.244282
0.252477 -0.072090 -0.233434
0.303886 -0.064321 -0.222606
0.354917 -0.056263 -0.211399
0.407151 -0.048371 -0.201435
0.458157 -0.039910 -0.190239
0.509767 -0.031576 -0.179685
0.561520 -0.023248 -0.169275
0.612590 -0.014467 -0.158240
0.664789 -0.006256 -0.148364
0.717740 0.001660 -0.139152
0.770447 0.009465 -0.130057
0.009512 -0.038994 -0.278588
0.061762 -0.034821 -0.268591
0.113299 -0.030089 -0.257827
0.164620 -0.024595 -0.246910
0.216006 -0.018510 -0.236042
0.267519 -0.011932 -0.225341
0.318966 -0.005058 -0.214592
0.370527 0.002125 -0.203948
0.421884 0.009576 -0.193144
0.473555 0.017106 -0.182726
0.524675 0.024951 -0.171681
0.576266 0.032715 -0.161185
0.627296 0.040670 -0.150112
0.678898 0.048767 -0.139702
0.730501 0.057006 -0.129225
0.781774 0.065337 -0.118701
0.019024 0.024290 -0.264961
0.074337 0.029387 -0.257972
0.128222 0.033807 -0.249621
0.179586 0.037558 -0.238745
0.230729 0.042240 -0.227663
0.282168 0.047773 -0.216996
0.333530 0.053829 -0.206175
0.385144 0.060365 -0.195622
0.436433 0.067293 -0.184787
0.487936 0.074495 -0.174238
0.539252 0.081996 -0.163432
0.591176 0.089559 -0.153268
0.642384 0.097518 -0.142460
0.694153 0.105404 -0.132205
0.745350 0.113655 -0.121400
0.796232 0.122065 -0.110560
0.028537 0.086325 -0.251275
0.083849 0.091595 -0.244350
0.139162 0.096864 -0.237500
0.194016 0.101980 -0.230143
0.245888 0.106029 -0.219840
0.297372 0.110737 -0.209224
0.348643 0.116049 -0.198356
0.400232 0.121923 -0.187808
0.451511 0.128248 -0.177002
0.503191 0.134904 -0.166635
0.554843 0.141881 -0.156246
0.606199 0.149162 -0.145591
0.657373 0.156705 -0.134765
0.709348 0.164243 -0.124783
0.760272 0.172261 -0.113787
0.812041 0.180117 -0.103780
0.038049 0.150502 -0.237726
0.093362 0.155855 -0.230875
0.148675 0.161262 -0.223971
0.203988 0.166684 -0.217178
0.259214 0.172052 -0.210257
0.312291 0.176554 -0.201244
0.363858 0.180946 -0.190750
0.415481 0.185985 -0.180260
0.466796 0.191512 -0.169574
0.518483 0.197535 -0.159234
0.569676 0.203900 -0.148433
0.621177 0.210660 -0.137974
0.672623 0.217655 -0.127430
0.724762 0.224822 -0.117679
0.775719 0.232339 -0.106774
0.827095 0.239930 -0.096474
0.047561 0.215499 -0.224251
0.102874 0.220929 -0.217425
0.158187 0.226386 -0.210577
0.213500 0.231872 -0.203802
0.268800 0.237359 -0.196991
0.324077 0.242803 -0.190252
0.378830 0.248038 -0.182941
0.430901 0.252324 -0.172984
0.482178 0.256879 -0.162285
0.533700 0.262073 -0.151836
0.585164 0.267758 -0.141365
0.636707 0.273844 -0.130961
0.688403 0.280282 -0.120746
0.739897 0.287000 -0.110381
0.791137 0.293991 -0.099789
0.842783 0.301084 -0.089862
0.055497 0.276808 -0.206650
0.112386 0.286502 -0.204030
0.167699 0.291983 -0.197255
0.223012 0.297537 -0.190510
0.278313 0.303025 -0.183747
0.333594 0.308542 -0.177048
0.388907 0.314081 -0.170379
0.444219 0.319596 -0.163681
0.497459 0.324232 -0.154955
0.549138 0.328619 -0.144725
0.600700 0.333503 -0.134383
0.652313 0.338834 -0.124138
0.703524 0.344565 -0.113530
0.754971 0.350631 -0.103132
0.806432 0.357108 -0.092856
0.857859 0.363755 -0.082740
0.064046 0.336619 -0.187302
0.120516 0.348861 -0.187179
0.177211 0.357942 -0.184007
0.232524 0.363496 -0.177309
0.287798 0.369059 -0.170610
0.343111 0.374616 -0.163923
0.398424 0.380172 -0.157301
0.453737 0.385708 -0.150679
0.509050 0.391283 -0.144091
0.563679 0.396549 -0.136843
0.616187 0.401023 -0.127515
0.667564 0.405439 -0.117107
0.719141 0.410499 -0.106910
0.770534 0.415888 -0.096541
0.821850 0.421683 -0.086151
0.873152 0.427817 -0.075994
0.073902 0.397064 -0.168268
0.128745 0.408854 -0.167800
0.185355 0.420761 -0.167391
0.242029 0.429777 -0.164157
0.297315 0.435344 -0.157529
0.352628 0.440903 -0.150907
0.407941 0.446522 -0.144338
0.463254 0.452094 -0.137757
0.518567 0.457693 -0.131211
0.573856 0.463265 -0.124739
0.629153 0.468884 -0.118255
0.682856 0.473746 -0.110229
0.734690 0.478102 -0.100330
0.786243 0.482768 -0.090211
0.837564 0.487869 -0.079870
0.888633 0.493255 -0.069553
0.084667 0.457096 -0.148738
0.138240 0.469142 -0.148498
0.193501 0.481343 -0.148450
0.250234 0.493102 -0.148016
0.306832 0.501880 -0.144563
0.362145 0.507447 -0.138008
0.417458 0.513079 -0.131471
0.472771 0.518682 -0.124969
0.528084 0.524315 -0.118507
0.583370 0.529948 -0.112039
0.638665 0.535507 -0.105646
0.693978 0.541139 -0.099296
0.748891 0.546584 -0.092560
0.801351 0.550988 -0.083399
0.853309 0.555577 -0.073810
0.904097 0.560143 -0.063330
0.096325 0.517870 -0.129792
0.148759 0.529923 -0.129636
0.202708 0.541931 -0.129397
0.258222 0.553940 -0.129227
0.315174 0.565811 -0.128932
0.371662 0.574197 -0.125200
0.426975 0.579829 -0.118733
0.482288 0.585462 -0.112265
0.537601 0.591095 -0.105871
0.592865 0.596727 -0.099527
0.648178 0.602360 -0.093166
0.703491 0.607993 -0.086898
0.758803 0.613675 -0.080650
0.814116 0.619307 -0.074408
0.868552 0.624558 -0.067407
0.920574 0.628906 -0.058190
0.108587 0.579110 -0.111229
0.160093 0.590679 -0.110599
0.212957 0.602735 -0.110531
0.267235 0.614634 -0.110255
0.322921 0.626543 -0.110055
0.380061 0.638493 -0.109900
0.436492 0.646766 -0.106097
0.491805 0.652399 -0.099758
0.547089 0.658071 -0.093393
0.602377 0.663738 -0.087142
0.657690 0.669370 -0.080881
0.713003 0.675043 -0.074639
0.768316 0.680705 -0.068510
0.823629 0.686342 -0.062401
0.878923 0.692029 -0.056312
0.934052 0.697634 -0.050379
0.121512 0.639359 -0.091635
0.172021 0.651983 -0.092155
0.223970 0.663793 -0.091793
0.277236 0.675724 -0.091612
0.331804 0.687468 -0.091318
0.387760 0.699624 -0.091444
0.444875 0.711335 -0.091134
0.501322 0.719500 -0.087368
0.556604 0.725199 -0.081111
0.611889 0.730832 -0.074870
0.667202 0.736538 -0.068736
0.722515 0.742171 -0.062632
0.777828 0.747874 -0.056543
0.833141 0.753561 -0.050576
0.888440 0.759215 -0.044624
0.943569 0.764880 -0.038789
0.134609 0.701031 -0.073485
0.184572 0.712499 -0.072788
0.235608 0.724830 -0.073082
0.287963 0.736517 -0.072683
0.341517 0.748457 -0.072638
0.396425 0.760753 -0.072932
0.452489 0.772590 -0.072895
0.509945 0.784771 -0.073128
0.566088 0.792420 -0.068962
0.621401 0.798089 -0.062837
0.676714 0.803789 -0.056773
0.732027 0.809495 -0.050802
0.787340 0.815187 -0.044855
0.842653 0.820834 -0.038973
0.897956 0.826541 -0.033187
0.953086 0.832220 -0.027557
0.148428 0.761579 -0.054136
0.197480 0.774090 -0.054612
0.247904 0.785479 -0.053979
0.299337 0.797816 -0.054303
0.352079 0.809612 -0.054134
0.405967 0.821831 -0.054464
0.461047 0.833869 -0.054655
0.517334 0.845957 -0.054938
0.574924 0.858213 -0.055428
0.630913 0.865494 -0.050987
0.686226 0.871197 -0.045063
0.741539 0.876885 -0.039199
0.796852 0.882596 -0.033409
0.852165 0.888306 -0.027756
0.907473 0.894018 -0.022118
0.962603 0.899701 -0.016722
0.162209 0.822999 -0.035962
0.210841 0.834759 -0.035769
0.260383 0.847315 -0.036371
0.311215 0.858820 -0.035938
0.363158 0.870949 -0.036192
0.416201 0.883109 -0.036575
0.470272 0.894689 -0.036331
0.525697 0.907219 -0.037128
0.582125 0.919188 -0.037487
0.639913 0.931633 -0.038371
0.695693 0.938447 -0.033694
0.751006 0.944153 -0.027962
0.806319 0.949860 -0.022387
0.861631 0.955566 -0.016906
0.916944 0.961341 -0.011635
0.972074 0.967024 -0.006555
-0.004921 -0.102586 -0.218144
0.046700 -0.096290 -0.207533
0.097931 -0.089320 -0.196532
0.149600 -0.081862 -0.186101
0.201083 -0.074111 -0.175439
0.252266 -0.065952 -0.164489
0.303816 -0.057729 -0.153930
0.355134 -0.049213 -0.143196
0.407195 -0.040957 -0.133177
0.458761 -0.032362 -0.122737
0.511638 -0.024400 -0.113608
0.564516 -0.016461 -0.104482
0.617393 -0.008545 -0.095422
0.670270 -0.000629 -0.086358
0.723143 0.007214 -0.077312
0.775849 0.015019 -0.068374
0.010377 -0.037381 -0.210390
0.061850 -0.032976 -0.199705
0.113061 -0.027551 -0.188772
0.164708 -0.021299 -0.178269
0.216077 -0.014567 -0.167600
0.267576 -0.007383 -0.156973
0.318800 0.000102 -0.146148
0.370447 0.007754 -0.135766
0.421855 0.015664 -0.125163
0.473127 0.023792 -0.114433
0.524822 0.031791 -0.104194
0.576231 0.039873 -0.093659
0.627576 0.048155 -0.083076
0.680169 0.055987 -0.073752
0.732962 0.063856 -0.064691
0.785661 0.071599 -0.055763
0.020861 0.026259 -0.197966
0.076057 0.031297 -0.191005
0.128009 0.035095 -0.180821
0.179566 0.039546 -0.170354
0.230743 0.044946 -0.159466
0.282233 0.051100 -0.148888
0.333639 0.057755 -0.138288
0.385272 0.064842 -0.127921
0.436575 0.072231 -0.117265
0.488041 0.079912 -0.106805
0.539342 0.087826 -0.096181
0.591305 0.095733 -0.086286
0.642286 0.104112 -0.075411
0.693895 0.112426 -0.065191
0.745527 0.120820 -0.054984
0.797011 0.129240 -0.044966
0.030378 0.088309 -0.184581
0.085691 0.093578 -0.177810
0.140994 0.098894 -0.171046
0.194336 0.103407 -0.162346
0.245987 0.107866 -0.151977
0.297374 0.113116 -0.141373
0.348877 0.118979 -0.130876
0.400228 0.125376 -0.120306
0.451858 0.132172 -0.110043
0.503222 0.139330 -0.099512
0.554589 0.146746 -0.089031
0.606323 0.154332 -0.078947
0.657904 0.162164 -0.068752
0.708960 0.170291 -0.058037
0.760737 0.178364 -0.048057
0.812355 0.186469 -0.038189
0.039895 0.152556 -0.171291
0.095208 0.157912 -0.164544
0.150503 0.163319 -0.157851
0.205815 0.168740 -0.151158
0.260657 0.173942 -0.144029
0.312680 0.178211 -0.134158
0.364123 0.183018 -0.123679
0.415528 0.188493 -0.113181
0.467060 0.194518 -0.102855
0.518707 0.200954 -0.092654
0.569940 0.207783 -0.082079
0.621511 0.214878 -0.071859
0.672869 0.222278 -0.061530
0.724510 0.229854 -0.051427
0.775834 0.237637 -0.041166
0.827696 0.245361 -0.031592
0.049049 0.216671 -0.157199
0.104725 0.223034 -0.151390
0.160015 0.228469 -0.144769
0.215328 0.233949 -0.138113
0.270640 0.239429 -0.131505
0.325938 0.244902 -0.124902
0.379327 0.249610 -0.116437
0.430865 0.254006 -0.106153
0.482425 0.259097 -0.095909
0.533842 0.264691 -0.085559
0.585443 0.270791 -0.075436
0.636897 0.277233 -0.065170
0.688239 0.284009 -0.054868
0.739819 0.291118 -0.044827
0.791351 0.298383 -0.034757
0.843007 0.305818 -0.025083
0.056993 0.276581 -0.138504
0.113874 0.287805 -0.137546
0.169528 0.294114 -0.131731
0.224839 0.299600 -0.125182
0.280152 0.305146 -0.118609
0.335465 0.310658 -0.112070
0.390778 0.316168 -0.105604
0.445564 0.321468 -0.098603
0.497747 0.325850 -0.089059
0.549298 0.330495 -0.078921
0.600809 0.335728 -0.068773
0.652310 0.341438 -0.058651
0.703877 0.347550 -0.048629
0.755387 0.353998 -0.038590
0.807143 0.360749 -0.028833
0.858289 0.367718 -0.018753
0.066484 0.336637 -0.119695
0.121834 0.348519 -0.119415
0.178756 0.359412 -0.118207
0.234351 0.365627 -0.112314
0.289664 0.371153 -0.105844
0.344977 0.376720 -0.099355
0.400290 0.382280 -0.092953
0.455586 0.387839 -0.086545
0.510861 0.393389 -0.080163
0.564507 0.398242 -0.072173
0.616300 0.402643 -0.062382
0.667712 0.407455 -0.052252
0.719451 0.412830 -0.042506
0.770896 0.418592 -0.032483
0.822093 0.424659 -0.022295
0.873560 0.431103 -0.012589
0.077171 0.396720 -0.100626
0.130905 0.408629 -0.100442
0.186607 0.420531 -0.100289
0.243601 0.431277 -0.099014
0.299176 0.437475 -0.093186
0.354489 0.443034 -0.086776
0.409802 0.448653 -0.080408
0.465083 0.454226 -0.074100
0.520395 0.459824 -0.067811
0.575706 0.465397 -0.061585
0.630657 0.470846 -0.055019
0.683307 0.475375 -0.046207
0.735048 0.479889 -0.036544
0.786395 0.484820 -0.026553
0.838226 0.490307 -0.017143
0.889340 0.496034 -0.007240
0.088866 0.457125 -0.081858
0.141234 0.469015 -0.081668
0.195441 0.481072 -0.081668
0.251476 0.493038 -0.081680
0.308515 0.503598 -0.080223
0.364001 0.509608 -0.074327
0.419303 0.515211 -0.068046
0.474600 0.520814 -0.061816
0.529911 0.526446 -0.055609
0.585223 0.532079 -0.049459
0.640536 0.537693 -0.043371
0.695849 0.543315 -0.037342
0.750238 0.548512 -0.030481
0.801997 0.552760 -0.020996
0.853212 0.557262 -0.011052
0.905052 0.562475 -0.002047
0.101262 0.517538 -0.062945
0.152501 0.529955 -0.063363
0.205428 0.541608 -0.063006
0.259995 0.553562 -0.062998
0.316341 0.565750 -0.063293
0.373398 0.576117 -0.061808
0.428817 0.581962 -0.055836
0.484116 0.587594 -0.049686
0.539428 0.593226 -0.043585
0.594741 0.598862 -0.037543
0.650054 0.604525 -0.031583
0.705366 0.610173 -0.025657
0.760634 0.615807 -0.019850
0.815785 0.621369 -0.013928
0.869166 0.626150 -0.006347
0.920455 0.630393 0.003007
0.114239 0.578633 -0.044723
0.164494 0.590759 -0.044855
0.216390 0.602751 -0.044917
0.269782 0.614698 -0.044973
0.324711 0.626678 -0.045094
0.381247 0.638723 -0.045357
0.438303 0.648862 -0.043779
0.493632 0.654577 -0.037764
0.548945 0.660236 -0.031785
0.604258 0.665869 -0.025886
0.659571 0.671504 -0.020040
0.714884 0.677203 -0.014300
0.770146 0.682841 -0.008661
0.825456 0.688521 -0.003102
0.880768 0.694161 0.002249
0.935362 0.699582 0.008003
0.127672 0.639658 -0.026346
0.177122 0.651592 -0.026415
0.228054 0.663545 -0.026491
0.280355 0.675563 -0.026651
0.334116 0.687429 -0.026808
0.389427 0.699657 -0.027313
0.446009 0.711377 -0.027365
0.503135 0.721637 -0.026057
0.558462 0.727330 -0.020237
0.613775 0.733009 -0.014505
0.669088 0.738669 -0.008818
0.724360 0.744372 -0.003325
0.779659 0.750011 0.002043
0.834968 0.755713 0.007282
0.890281 0.761403 0.012338
0.945411 0.767026 0.016969
0.141577 0.700344 -0.007692
0.190294 0.712274 -0.007762
0.240250 0.724916 -0.008624
0.291709 0.736662 -0.008658
0.344494 0.748651 -0.009001
0.398552 0.760429 -0.009171
0.454122 0.772784 -0.010037
0.511084 0.785004 -0.010812
0.567975 0.794574 -0.009031
0.623292 0.800288 -0.003510
0.678605 0.805971 0.001865
0.733874 0.811630 0.007122
0.789171 0.817333 0.012136
0.844480 0.823038 0.016837
0.899793 0.828732 0.021036
0.954923 0.834414 0.025818
0.155601 0.761853 0.010141
0.203621 0.774022 0.009623
0.253038 0.785903 0.009496
0.303596 0.798178 0.008844
0.355525 0.809979 0.008527
0.408623 0.821715 0.008264
0.463145 0.834135 0.007186
0.518824 0.845952 0.006596
0.575928 0.858331 0.005303
0.632809 0.867668 0.006901
0.688122 0.873378 0.011981
0.743371 0.879042 0.016681
0.798680 0.884749 0.020865
0.853992 0.890452 0.025614
0.909305 0.896158 0.030781
0.964435 0.901838 0.036093
0.169989 0.822764 0.028115
0.217439 0.834968 0.027534
0.266112 0.846792 0.027256
0.315942 0.859200 0.026309
0.367041 0.871388 0.025507
0.419371 0.883049 0.025100
0.472885 0.895211 0.024051
0.527610 0.907245 0.022955
0.583669 0.919631 0.021334
0.640696 0.931370 0.020044
0.697547 0.940629 0.020659
0.752837 0.946340 0.025408
0.808146 0.952051 0.030506
0.863458 0.957771 0.035843
0.918771 0.963482 0.041338
0.973902 0.969161 0.046889
-0.004651 -0.099075 -0.149984
0.046650 -0.091751 -0.139229
0.098190 -0.083893 -0.128695
0.149781 -0.075734 -0.118299
0.201306 -0.067330 -0.107890
0.253106 -0.058902 -0.097683
0.305600 -0.050705 -0.088250
0.358477 -0.042719 -0.079234
0.411291 -0.034729 -0.070194
0.464158 -0.026813 -0.061228
0.517035 -0.018897 -0.052256
0.569912 -0.010980 -0.043359
0.622790 -0.003064 -0.034456
0.675657 0.004842 -0.025582
0.728470 0.012685 -0.016754
0.781167 0.020489 -0.007987
0.010486 -0.035786 -0.142394
0.061792 -0.030437 -0.131700
0.113419 -0.024073 -0.121335
0.164790 -0.017030 -0.110770
0.216197 -0.009552 -0.100211
0.267613 -0.001747 -0.089708
0.319273 0.006183 -0.079521
0.370581 0.014482 -0.068921
0.422325 0.022622 -0.058888
0.474089 0.030870 -0.048859
0.526829 0.038558 -0.039878
0.579655 0.046052 -0.030968
0.632525 0.053717 -0.022156
0.685400 0.061481 -0.013341
0.738208 0.069250 -0.004602
0.790910 0.076996 0.004087
0.022696 0.028228 -0.132007
0.076681 0.032691 -0.123949
0.128226 0.036915 -0.113579
0.179633 0.042193 -0.103110
0.230964 0.048436 -0.092550
0.282630 0.055218 -0.082378
0.333769 0.062562 -0.071669
0.385461 0.070131 -0.061570
0.436828 0.078039 -0.051165
0.488350 0.086151 -0.040995
0.539878 0.094430 -0.030841
0.591498 0.102741 -0.020782
0.642772 0.111375 -0.010434
0.695339 0.119435 -0.001410
0.747956 0.127446 0.007443
0.800643 0.135392 0.016058
0.032213 0.090357 -0.118958
0.087525 0.095623 -0.112350
0.142562 0.100789 -0.105487
0.194417 0.105017 -0.095485
0.246044 0.110147 -0.085288
0.297424 0.116000 -0.074895
0.349118 0.122495 -0.064833
0.400377 0.129444 -0.054336
0.451975 0.136761 -0.044247
0.503262 0.144406 -0.033872
0.554741 0.152271 -0.023756
0.606555 0.160210 -0.013972
0.657893 0.168435 -0.003820
0.709535 0.176734 0.006043
0.760678 0.185310 0.016333
0.812201 0.193725 0.025968
0.041729 0.154610 -0.105993
0.097035 0.159970 -0.099460
0.152348 0.165391 -0.092930
0.207642 0.170793 -0.086451
0.261115 0.175478 -0.078125
0.312792 0.180119 -0.068112
0.364169 0.185427 -0.057792
0.415794 0.191466 -0.047750
0.467348 0.197966 -0.037681
0.518599 0.204907 -0.027348
0.570376 0.212145 -0.017610
0.621929 0.219624 -0.007696
0.673225 0.227373 0.002445
0.724607 0.235367 0.012447
0.776299 0.243356 0.022086
0.828039 0.251373 0.031373
0.050170 0.216621 -0.090161
0.106552 0.225095 -0.086698
0.161865 0.230569 -0.080248
0.217178 0.236011 -0.073827
0.272491 0.241508 -0.067406
0.327359 0.246816 -0.060676
0.379688 0.251250 -0.051353
0.431156 0.256101 -0.041245
0.482635 0.261606 -0.031186
0.534169 0.267673 -0.021233
0.585763 0.274182 -0.011379
0.637148 0.281050 -0.001392
0.688700 0.288190 0.008351
0.740182 0.295598 0.018123
0.791482 0.303251 0.028042
0.843094 0.310923 0.037318
0.059146 0.276484 -0.071778
0.115151 0.288317 -0.071683
0.171382 0.296180 -0.067674
0.226695 0.301726 -0.061330
0.282001 0.307235 -0.055005
0.337295 0.312766 -0.048714
0.392586 0.318271 -0.042482
0.446295 0.323138 -0.034699
0.498059 0.327616 -0.025008
0.549487 0.332661 -0.015110
0.601052 0.338291 -0.005315
0.652644 0.344370 0.004350
0.704109 0.350866 0.014075
0.755547 0.357639 0.023740
0.807205 0.364718 0.033100
0.858679 0.371943 0.042335
0.069638 0.336334 -0.053138
0.123648 0.348262 -0.053200
0.180012 0.359953 -0.053018
0.236212 0.367727 -0.048941
0.291517 0.373284 -0.042728
0.346808 0.378841 -0.036546
0.402117 0.384411 -0.030409
0.457429 0.389970 -0.024342
0.512258 0.395299 -0.017835
0.565114 0.399955 -0.009449
0.616589 0.404503 0.000278
0.668132 0.409722 0.009851
0.719447 0.415367 0.019580
0.771114 0.421462 0.028783
0.822727 0.427891 0.037968
0.874076 0.434577 0.046997
0.081343 0.396718 -0.034884
0.133733 0.408581 -0.034929
0.188299 0.420422 -0.034954
0.245041 0.432315 -0.035056
0.301008 0.439606 -0.030634
0.356319 0.445165 -0.024561
0.411629 0.450784 -0.018545
0.466942 0.456357 -0.012584
0.522255 0.461955 -0.006692
0.577568 0.467544 -0.000882
0.631728 0.472651 0.005974
0.683812 0.477089 0.014811
0.735149 0.481774 0.024226
0.786825 0.487119 0.033155
0.838389 0.492812 0.042054
0.890074 0.498863 0.050511
0.093871 0.457209 -0.016659
0.144929 0.468964 -0.016669
0.197982 0.481072 -0.016983
0.253016 0.492933 -0.017199
0.309894 0.504610 -0.017234
0.365832 0.511753 -0.012775
0.421141 0.517345 -0.006920
0.476454 0.522961 -0.001105
0.531767 0.528578 0.004627
0.587080 0.534210 0.010224
0.642367 0.539843 0.015740
0.697452 0.545336 0.021235
0.750814 0.550149 0.028335
0.802487 0.554569 0.036983
0.854008 0.559407 0.045365
0.905518 0.564731 0.053429
0.107050 0.517873 0.001438
0.157009 0.529766 0.001216
0.208723 0.541701 0.000944
0.262342 0.553770 0.000450
0.317784 0.565755 -0.000015
0.374821 0.577259 -0.000071
0.430653 0.584123 0.004422
0.485966 0.589756 0.010054
0.541279 0.595431 0.015519
0.596579 0.601064 0.020786
0.651884 0.606696 0.025997
0.707193 0.612329 0.030998
0.762506 0.617962 0.035643
0.817158 0.623281 0.040741
0.869818 0.627876 0.048186
0.920969 0.632229 0.057302
0.120655 0.578701 0.019271
0.169708 0.590572 0.019020
0.220362 0.602533 0.018588
0.272720 0.614475 0.018131
0.326759 0.626470 0.017512
0.382554 0.638580 0.016691
0.439774 0.650173 0.016228
0.495478 0.656735 0.020628
0.550791 0.662368 0.025778
0.606094 0.668006 0.030828
0.661400 0.673701 0.035488
0.716710 0.679339 0.039877
0.772023 0.685017 0.044704
0.827336 0.690661 0.049861
0.882649 0.696318 0.055245
0.936895 0.701604 0.061550
0.134751 0.639517 0.037133
0.182885 0.651592 0.036516
0.232616 0.663717 0.035818
0.283964 0.675696 0.035091
0.336843 0.687652 0.034296
0.391311 0.699682 0.033251
0.447403 0.711715 0.032042
0.504573 0.722915 0.031531
0.560303 0.729505 0.035372
0.615604 0.735168 0.039710
0.670915 0.740853 0.044495
0.726227 0.746507 0.049650
0.781540 0.752210 0.055028
0.836853 0.757853 0.060529
0.892166 0.763551 0.066177
0.947245 0.769216 0.071874
0.149138 0.700407 0.054763
0.196493 0.712717 0.053734
0.245368 0.724948 0.052638
0.295803 0.736873 0.051734
0.347698 0.748830 0.050611
0.401080 0.760977 0.049178
0.455889 0.772937 0.047669
0.512287 0.785174 0.045435
0.569553 0.796232 0.044867
0.625120 0.802430 0.049479
0.680432 0.808125 0.054816
0.735745 0.813817 0.060351
0.791057 0.819525 0.065949
0.846370 0.825178 0.071724
0.901632 0.830885 0.077537
0.956758 0.836556 0.083388
0.163636 0.761580 0.071702
0.210270 0.774192 0.070188
0.258580 0.786102 0.069108
0.308174 0.797996 0.067977
0.359151 0.810413 0.066019
0.411542 0.822230 0.064125
0.465375 0.834340 0.062520
0.520521 0.846423 0.061319
0.577159 0.858620 0.060136
0.634394 0.869335 0.060639
0.689949 0.875534 0.065779
0.745262 0.881240 0.071493
0.800575 0.886934 0.077310
0.855887 0.892645 0.083187
0.911141 0.898355 0.089152
0.966271 0.904037 0.095151
0.178146 0.822756 0.088020
0.224301 0.835217 0.086262
0.272000 0.847026 0.084982
0.320757 0.859608 0.082353
0.371053 0.871633 0.080834
0.422648 0.883305 0.079943
0.475557 0.895765 0.078567
0.529730 0.907611 0.077952
0.585259 0.919966 0.076935
0.641997 0.931835 0.076456
0.699296 0.942558 0.077260
0.754732 0.948543 0.082917
0.810045 0.954255 0.088865
0.865358 0.959967 0.094896
0.920608 0.965678 0.100996
0.975729 0.971360 0.107086
-0.004552 -0.093698 -0.082802
0.047166 -0.085379 -0.072676
0.099493 -0.077114 -0.063161
0.152367 -0.069124 -0.054195
0.205174 -0.061134 -0.045259
0.258051 -0.053144 -0.036385
0.310922 -0.045169 -0.027538
0.363791 -0.037238 -0.018697
0.416609 -0.029263 -0.009890
0.469472 -0.021347 -0.001164
0.522349 -0.013431 0.007561
0.575152 -0.005573 0.016233
0.628018 0.002316 0.024868
0.680833 0.010157 0.033440
0.733696 0.017998 0.041943
0.786328 0.025729 0.050382
0.010518 -0.033367 -0.075528
0.062004 -0.026753 -0.065242
0.113425 -0.019315 -0.054847
0.164927 -0.011435 -0.044599
0.216531 -0.003225 -0.034455
0.268241 0.005024 -0.024538
0.320726 0.012989 -0.015365
0.373537 0.020825 -0.006531
0.426337 0.028555 0.002184
0.479214 0.036238 0.010845
0.532036 0.043764 0.019474
0.584884 0.051280 0.028064
0.637698 0.058972 0.036614
0.690557 0.066717 0.045089
0.743364 0.074489 0.053494
0.795983 0.082221 0.061767
0.024578 0.030143 -0.067337
0.076944 0.034378 -0.057935
0.128331 0.039489 -0.047592
0.179683 0.045786 -0.037319
0.231227 0.052869 -0.027192
0.282622 0.060449 -0.016993
0.334158 0.068351 -0.006912
0.385659 0.076508 0.003053
0.437288 0.084801 0.012933
0.489125 0.093092 0.022479
0.541871 0.101009 0.031090
0.594567 0.108991 0.039700
0.647407 0.116856 0.048144
0.700209 0.124762 0.056479
0.753011 0.132674 0.064770
0.805641 0.140551 0.072878
0.034091 0.092351 -0.054684
0.089397 0.097618 -0.048326
0.143059 0.102331 -0.040322
0.194833 0.107200 -0.030537
0.246237 0.113036 -0.020343
0.297640 0.119624 -0.010215
0.349330 0.126761 -0.000422
0.400597 0.134343 0.009671
0.452248 0.142122 0.019430
0.503945 0.150090 0.029013
0.555396 0.158355 0.038816
0.606615 0.166847 0.048745
0.658530 0.175162 0.057933
0.710246 0.183586 0.067199
0.762858 0.191642 0.075484
0.815276 0.199666 0.083560
0.043450 0.156295 -0.041849
0.098916 0.162027 -0.035919
0.154223 0.167449 -0.029651
0.209215 0.172731 -0.023169
0.261375 0.177216 -0.013834
0.313062 0.182432 -0.004095
0.364468 0.188381 0.005873
0.415937 0.194970 0.015713
0.467640 0.202019 0.025265
0.519007 0.209413 0.035038
0.570632 0.217069 0.044499
0.622130 0.224932 0.053989
0.673594 0.233011 0.063410
0.725191 0.241155 0.072522
0.776610 0.249487 0.081596
0.827923 0.257865 0.090527
0.051838 0.216486 -0.024658
0.108313 0.226888 -0.023394
0.163736 0.232657 -0.017490
0.219015 0.238138 -0.011380
0.274302 0.243601 -0.005287
0.328143 0.248485 0.002200
0.379872 0.253134 0.011706
0.431268 0.258483 0.021469
0.482971 0.264539 0.030853
0.534527 0.271057 0.040314
0.585889 0.277986 0.049802
0.637635 0.285217 0.058750
0.689269 0.292656 0.067651
