example_ofxGpuLutCube/bin/data/ofxGpuLutCube/LUT/C39 (warmer green brown).cube
LUT_3D_SIZE 6
-0.005009 -0.105115 -0.287354
0.149527 -0.086685 -0.255017
0.303886 -0.064321 -0.222606
0.458157 -0.039910 -0.190239
0.612590 -0.014467 -0.158240
0.770447 0.009465 -0.130057
0.028537 0.086325 -0.251275
0.194016 0.101980 -0.230143
0.348643 0.116049 -0.198356
0.503191 0.134904 -0.166635
0.657373 0.156705 -0.134765
0.812041 0.180117 -0.103780
0.055497 0.276808 -0.206650
0.223012 0.297537 -0.190510
0.388907 0.314081 -0.170379
0.549138 0.328619 -0.144725
0.703524 0.344565 -0.113530
0.857859 0.363755 -0.082740
0.084667 0.457096 -0.148738
0.250234 0.493102 -0.148016
0.417458 0.513079 -0.131471
0.583370 0.529948 -0.112039
0.748891 0.546584 -0.092560
0.904097 0.560143 -0.063330
0.121512 0.639359 -0.091635
0.277236 0.675724 -0.091612
0.444875 0.711335 -0.091134
0.611889 0.730832 -0.074870
0.777828 0.747874 -0.056543
0.943569 0.764880 -0.038789
0.162209 0.822999 -0.035962
0.311215 0.858820 -0.035938
0.470272 0.894689 -0.036331
0.639913 0.931633 -0.038371
0.806319 0.949860 -0.022387
0.972074 0.967024 -0.006555
-0.004552 -0.093698 -0.082802
0.152367 -0.069124 -0.054195
0.310922 -0.045169 -0.027538
0.469472 -0.021347 -0.001164
0.628018 0.002316 0.024868
0.786328 0.025729 0.050382
0.034091 0.092351 -0.054684
0.194833 0.107200 -0.030537
0.349330 0.126761 -0.000422
0.503945 0.150090 0.029013
0.658530 0.175162 0.057933
0.815276 0.199666 0.083560
0.062067 0.276225 -0.006692
0.228531 0.303820 0.000471
0.394118 0.320249 0.018423
0.549895 0.335118 0.045218
0.704464 0.354423 0.071897
0.859239 0.376200 0.096855
0.099997 0.456943 0.046371
0.254989 0.493040 0.043778
0.423012 0.519517 0.049509
0.588907 0.536342 0.063559
0.751661 0.551929 0.082887
0.905970 0.567219 0.111563
0.142238 0.639892 0.095430
0.287759 0.676180 0.090175
0.448977 0.712228 0.087192
0.617443 0.737336 0.096324
0.783370 0.754345 0.114267
0.949123 0.771362 0.132664
0.183454 0.828278 0.138039
0.326406 0.859590 0.141024
0.478738 0.895644 0.140033
0.643251 0.931836 0.139377
0.811872 0.956413 0.150805
0.977628 0.973565 0.169943
0.007455 -0.087643 0.089442
0.164053 -0.062162 0.109281
0.320331 -0.036451 0.132004
0.478063 -0.012334 0.156262
0.636368 0.011049 0.181080
0.794476 0.034157 0.206405
0.039651 0.098017 0.120498
0.196672 0.118915 0.145475
0.354462 0.142876 0.171031
0.512973 0.166773 0.196532
0.671466 0.190785 0.222511
0.829877 0.214818 0.248757
0.078108 0.279607 0.167341
0.234048 0.310057 0.171510
0.396673 0.325879 0.193335
0.551235 0.345170 0.223619
0.705779 0.368925 0.254275
0.860585 0.394319 0.284756
0.119093 0.467306 0.214228
0.264920 0.493511 0.223778
0.428532 0.525911 0.227502
0.594461 0.542780 0.247066
0.752118 0.557795 0.275128
0.906485 0.576913 0.306511
0.160034 0.656534 0.262347
0.306570 0.676199 0.279945
0.456101 0.712035 0.280925
0.622997 0.743837 0.286187
0.788921 0.760864 0.306423
0.953270 0.777265 0.328202
0.201133 0.846723 0.311511
0.348956 0.864916 0.332009
0.493200 0.895392 0.338887
0.648927 0.931378 0.340456
0.817426 0.962965 0.346662
0.983139 0.980106 0.367400
0.016412 -0.081779 0.263013
0.176084 -0.062235 0.279368
0.337152 -0.041645 0.301396
0.493827 -0.016533 0.324464
0.650635 0.008303 0.349795
0.806619 0.033358 0.376437
0.045140 0.104470 0.304575
0.208411 0.123828 0.321257
0.367556 0.146013 0.343812
0.524120 0.171572 0.369639
0.680943 0.196960 0.397082
0.837670 0.222244 0.425110
0.073691 0.299909 0.343805
0.240440 0.315594 0.364492
0.399480 0.338194 0.389840
0.557908 0.362576 0.417644
0.716408 0.386896 0.445509
0.874690 0.411181 0.473360
0.113548 0.487354 0.383647
0.281756 0.501928 0.412220
0.433949 0.528653 0.429004
0.597925 0.548737 0.448321
0.752446 0.568915 0.480840
0.906977 0.593982 0.513245
0.157730 0.672324 0.431197
0.322756 0.690244 0.462861
0.474023 0.712568 0.487337
0.627604 0.747061 0.491066
0.794475 0.767346 0.509197
0.953379 0.782805 0.537458
0.201970 0.858263 0.482044
0.363257 0.880004 0.513815
0.516082 0.903173 0.540370
0.661468 0.930588 0.551579
0.821870 0.966623 0.554278
0.988663 0.986647 0.573098
0.022467 -0.078170 0.462217
0.186741 -0.055482 0.476490
0.345711 -0.035564 0.493532
0.506898 -0.018003 0.516070
0.668414 0.001971 0.539703
0.825517 0.025584 0.563050
0.050694 0.110548 0.504101
0.217041 0.128403 0.523436
0.378411 0.150635 0.538635
0.539038 0.168423 0.560684
0.699807 0.189875 0.584471
0.856261 0.215518 0.608842
0.079245 0.306193 0.545714
0.245155 0.322779 0.567105
0.410976 0.341616 0.586421
0.571390 0.361642 0.605960
0.730445 0.385222 0.630072
0.886962 0.411108 0.656457
0.107797 0.505080 0.587860
0.273691 0.521932 0.609467
0.439628 0.538772 0.631208
0.603761 0.557609 0.651869
0.761415 0.582595 0.678343
0.918572 0.608028 0.707234
0.136678 0.705445 0.630266
0.303966 0.721023 0.651609
0.473241 0.734715 0.673419
0.640658 0.749816 0.701025
0.798870 0.773690 0.719513
0.953584 0.796046 0.752723
0.177911 0.894403 0.670243
0.347501 0.907870 0.694131
0.516854 0.921539 0.721612
0.681587 0.939843 0.753844
0.830538 0.965280 0.772750
0.994218 0.993188 0.784394
0.027688 -0.072788 0.667977
0.194480 -0.051820 0.684841
0.357289 -0.029971 0.700751
0.515817 -0.008636 0.717173
0.675514 0.007000 0.739025
0.837538 0.024565 0.763560
0.056239 0.116650 0.710832
0.222164 0.132741 0.732827
0.388370 0.154486 0.749327
0.549072 0.177002 0.765196
0.708171 0.195035 0.785764
0.869816 0.213689 0.809995
0.084790 0.312494 0.754083
0.250700 0.329113 0.776231
0.416692 0.345873 0.798345
0.581825 0.368209 0.814987
0.741077 0.389285 0.833047
0.902241 0.407751 0.856930
0.113298 0.511507 0.797659
0.279236 0.528332 0.819963
0.445146 0.545200 0.842397
0.611156 0.562295 0.864695
0.774369 0.585049 0.881373
0.934741 0.603906 0.904204
0.141834 0.712244 0.841574
0.307773 0.729230 0.864084
0.473697 0.746261 0.886633
0.639635 0.763300 0.909276
0.805552 0.780482 0.931853
0.967232 0.801395 0.951829
0.170325 0.914006 0.885713
0.336264 0.931125 0.908384
0.502202 0.948273 0.931086
0.668140 0.965407 0.953847
0.834022 0.982539 0.976748
0.999756 0.999726 0.999621
