example_ofxGpuLutCube/bin/data/ofxGpuLutCube/LUT/C4 (smooth faded).cube
LUT_3D_SIZE 16
0.283700 0.283821 0.275211
0.308885 0.283241 0.276810
0.334211 0.285271 0.280619
0.356114 0.284643 0.281794
0.377770 0.284277 0.283230
0.403043 0.287969 0.288509
0.425070 0.290103 0.292111
0.447688 0.292173 0.295756
0.469967 0.294079 0.299242
0.494222 0.299051 0.305614
0.518294 0.303765 0.311767
0.546746 0.315139 0.324173
0.573174 0.324538 0.334619
0.608604 0.341861 0.353028
0.638675 0.355505 0.367704
0.675772 0.375003 0.388255
0.284502 0.308282 0.273577
0.310002 0.307564 0.275473
0.335344 0.310938 0.279438
0.357173 0.310246 0.280643
0.381436 0.313477 0.285895
0.403021 0.313396 0.286339
0.426040 0.315209 0.291028
0.448729 0.317587 0.294856
0.473361 0.322344 0.301282
0.498030 0.327421 0.308056
0.524005 0.335560 0.315783
0.552698 0.344420 0.327392
0.581664 0.357047 0.342504
0.616139 0.372919 0.360104
0.649085 0.388766 0.377448
0.690488 0.412306 0.402622
0.288445 0.333519 0.275707
0.314859 0.332769 0.277334
0.339742 0.334817 0.282917
0.359409 0.332764 0.281592
0.382503 0.334333 0.285557
0.405224 0.338118 0.288335
0.429610 0.339982 0.293208
0.451934 0.342006 0.296658
0.475963 0.345953 0.302387
0.502805 0.353521 0.311865
0.529620 0.361133 0.321300
0.557768 0.369813 0.332997
0.590575 0.386772 0.349469
0.626272 0.403310 0.369239
0.659684 0.419195 0.387410
0.699749 0.440674 0.411137
0.288817 0.354850 0.274435
0.315820 0.354038 0.275737
0.339282 0.354636 0.278678
0.363421 0.356705 0.282928
0.383561 0.355210 0.283154
0.408666 0.359108 0.288022
0.430409 0.360652 0.291986
0.456316 0.366545 0.299765
0.479219 0.369343 0.304140
0.507245 0.378167 0.315182
0.536063 0.387775 0.326057
0.565276 0.399032 0.340384
0.598950 0.412844 0.357188
0.634099 0.430906 0.376227
0.669900 0.448677 0.397035
0.712186 0.471908 0.422882
0.289117 0.375653 0.273203
0.319964 0.377885 0.277860
0.342507 0.376672 0.279782
0.363593 0.376365 0.280830
0.388570 0.379606 0.286346
0.409368 0.379207 0.288205
0.433905 0.383675 0.293891
0.457973 0.387561 0.299557
0.484209 0.393897 0.308120
0.510561 0.400716 0.317046
0.541454 0.413040 0.331783
0.571714 0.424813 0.345312
0.608830 0.442673 0.367458
0.644801 0.459961 0.387409
0.681514 0.479090 0.407865
0.724993 0.503052 0.434852
0.292810 0.398818 0.275285
0.320161 0.397981 0.276147
0.346456 0.399745 0.280167
0.368134 0.400367 0.282815
0.391260 0.399926 0.287424
0.411508 0.400093 0.287580
0.436769 0.405265 0.295003
0.462527 0.410955 0.302769
0.489631 0.418313 0.312341
0.518299 0.427563 0.324016
0.549944 0.439402 0.339172
0.581267 0.452294 0.354223
0.614717 0.467774 0.372257
0.655186 0.487992 0.396657
0.693165 0.508872 0.418633
0.735872 0.531913 0.444828
0.296278 0.421454 0.277175
0.323630 0.420656 0.278040
0.349963 0.422255 0.281729
0.371614 0.421396 0.284278
0.394385 0.422875 0.287417
0.418577 0.425628 0.292857
0.439917 0.426813 0.296395
0.465668 0.432550 0.304185
0.492926 0.440048 0.313973
0.524007 0.451732 0.328664
0.555073 0.464184 0.342513
0.588610 0.478281 0.361843
0.625135 0.497283 0.382733
0.668360 0.521219 0.408501
0.704017 0.537591 0.428546
0.752138 0.565961 0.460359
0.299458 0.443612 0.278840
0.326840 0.442837 0.279627
0.352767 0.445488 0.284010
0.378684 0.445741 0.287875
0.401576 0.448321 0.292990
0.423615 0.448902 0.296631
0.447219 0.452130 0.301789
0.470892 0.455878 0.308153
0.498376 0.463623 0.318103
0.531861 0.477732 0.335610
0.563644 0.490974 0.351212
0.598123 0.505998 0.369243
0.639636 0.527997 0.394899
0.679153 0.549419 0.419313
0.719281 0.570521 0.442906
0.764148 0.595210 0.471005
0.302288 0.465255 0.280168
0.332534 0.467008 0.283957
0.357913 0.468001 0.287342
0.385354 0.470611 0.292629
0.409467 0.474242 0.298204
0.432661 0.477369 0.304571
0.455822 0.478778 0.308918
0.482448 0.485297 0.318546
0.505753 0.488806 0.324508
0.539210 0.502989 0.341783
0.574775 0.518796 0.360204
0.610094 0.535901 0.380212
0.649957 0.557133 0.403799
0.690644 0.578317 0.428136
0.731509 0.600418 0.454146
0.776463 0.625059 0.482215
0.308207 0.488992 0.284496
0.337844 0.490472 0.287855
0.364527 0.493907 0.293340
0.391624 0.496194 0.298163
0.416707 0.499457 0.304960
0.440891 0.502173 0.310484
0.468880 0.509679 0.321271
0.492682 0.513395 0.327507
0.518615 0.519411 0.336374
0.548487 0.529874 0.350055
0.581388 0.543180 0.367431
0.620697 0.564206 0.389966
0.660172 0.583421 0.413986
0.705947 0.609455 0.441942
0.745092 0.631329 0.466490
0.792450 0.658169 0.496944
0.314008 0.512482 0.288843
0.346320 0.516398 0.295163
0.373757 0.519513 0.302162
0.399299 0.524289 0.308249
0.425784 0.526560 0.313531
0.455813 0.535019 0.326548
0.481244 0.539776 0.332697
0.509572 0.547840 0.343993
0.535888 0.554364 0.353215
0.563317 0.562123 0.363757
0.594445 0.574718 0.377301
0.632320 0.593276 0.400852
0.673337 0.615136 0.425442
0.716790 0.638806 0.452539
0.758759 0.662551 0.479010
0.808200 0.691017 0.511234
0.325538 0.540187 0.298788
0.357183 0.544341 0.305112
0.386095 0.549352 0.312649
0.415113 0.553897 0.319961
0.441631 0.558946 0.328086
0.470643 0.566264 0.338384
0.497817 0.574045 0.348970
0.526390 0.582297 0.360258
0.555294 0.591284 0.372325
0.584461 0.600925 0.384602
0.615484 0.611961 0.399738
0.645404 0.623730 0.414011
0.687256 0.646044 0.437614
0.730487 0.670556 0.465517
0.775414 0.696081 0.494050
0.823882 0.723783 0.525636
0.339132 0.569773 0.310786
0.369989 0.573863 0.316896
0.400165 0.579432 0.326461
0.428217 0.586313 0.332890
0.460044 0.596605 0.347671
0.490073 0.603488 0.359126
0.515823 0.609355 0.366386
0.546565 0.619859 0.380081
0.576628 0.630054 0.393091
0.606381 0.640096 0.405827
0.637969 0.651693 0.420493
0.668105 0.663621 0.434997
0.702273 0.677998 0.450700
0.744261 0.701455 0.477556
0.790211 0.728047 0.507435
0.835657 0.752714 0.535794
0.351411 0.598192 0.321532
0.385051 0.605194 0.330951
0.417108 0.614970 0.342600
0.447613 0.622076 0.353792
0.479110 0.630435 0.364477
0.507211 0.638016 0.374705
0.540828 0.651427 0.391206
0.570863 0.661461 0.404070
0.600151 0.670935 0.416131
0.632586 0.683772 0.431711
0.663872 0.696039 0.445866
0.697135 0.709803 0.462409
0.727950 0.720940 0.475803
0.759214 0.733369 0.491839
0.805125 0.760108 0.520675
0.849679 0.783745 0.548231
0.368755 0.630688 0.337332
0.403518 0.639423 0.348424
0.435036 0.648002 0.360213
0.466810 0.656701 0.371551
0.498275 0.667019 0.383300
0.528605 0.678363 0.397072
0.562141 0.689908 0.411927
0.593278 0.700938 0.425719
0.625886 0.713771 0.441424
0.655543 0.724093 0.453940
0.688950 0.738577 0.472051
0.722318 0.750998 0.487332
0.754574 0.764783 0.500444
0.788292 0.779283 0.518944
0.818344 0.790394 0.532073
0.864003 0.814999 0.560659
0.401037 0.693525 0.364625
0.434798 0.702465 0.375697
0.467802 0.712607 0.389639
0.501648 0.725371 0.403741
0.533987 0.737351 0.417622
0.565377 0.745735 0.429859
0.599225 0.759608 0.446050
0.631336 0.771495 0.460665
0.665287 0.785712 0.477517
0.698679 0.799475 0.493890
0.733400 0.813356 0.510432
0.764862 0.825628 0.526627
0.797033 0.840039 0.540726
0.829503 0.853112 0.556005
0.859721 0.864497 0.569911
0.893524 0.877283 0.584843
0.266887 0.171937 0.289786
0.294653 0.173822 0.293313
0.314836 0.163910 0.293702
0.335667 0.155533 0.293773
0.358131 0.155042 0.297101
0.379544 0.149782 0.298620
0.402568 0.147416 0.301820
0.423691 0.141974 0.303942
0.447557 0.145186 0.309070
0.470646 0.147051 0.313747
0.498362 0.163024 0.324311
0.528042 0.184595 0.337366
0.559955 0.203550 0.348966
0.596848 0.236807 0.370317
0.632303 0.264870 0.389941
0.672917 0.296437 0.413057
0.282521 0.308554 0.296478
0.311525 0.311433 0.300156
0.333328 0.309971 0.300610
0.358588 0.314008 0.306228
0.379632 0.312816 0.306822
0.404389 0.314728 0.310562
0.426535 0.317046 0.314401
0.449709 0.319669 0.318560
0.475879 0.326113 0.326420
0.501866 0.332768 0.334467
0.531715 0.343056 0.346118
0.560438 0.354711 0.358911
0.590136 0.367718 0.373102
0.628366 0.386952 0.393541
0.664992 0.406806 0.414563
0.706470 0.430107 0.439155
0.286294 0.333998 0.299118
0.312339 0.333325 0.298634
0.335318 0.332484 0.299555
0.359432 0.335804 0.305256
0.381806 0.335799 0.307617
0.407201 0.339839 0.312055
0.429878 0.342413 0.316278
0.453577 0.345684 0.321064
0.480577 0.353098 0.330041
0.507161 0.360102 0.338758
0.536809 0.371952 0.351353
0.567481 0.384057 0.364927
0.601782 0.400753 0.383839
0.638980 0.418445 0.403357
0.677111 0.439358 0.425973
0.718937 0.462501 0.450952
0.286410 0.355200 0.297940
0.313650 0.355452 0.298141
0.340024 0.357634 0.302233
0.361330 0.356318 0.303687
0.384255 0.358215 0.306832
0.407480 0.360328 0.312104
0.432043 0.364656 0.316594
0.456010 0.368422 0.322024
0.483331 0.375965 0.331247
0.513729 0.387096 0.344339
0.543944 0.399402 0.356903
0.578113 0.412929 0.374756
0.609958 0.427916 0.391094
0.649915 0.449185 0.413283
0.688655 0.469907 0.436633
0.731986 0.494029 0.462936
0.289869 0.378669 0.299740
0.316023 0.378100 0.298903
0.342408 0.379561 0.301128
0.364269 0.380336 0.304108
0.387688 0.380895 0.308303
0.411217 0.384734 0.312979
0.433890 0.385829 0.316641
0.461712 0.393758 0.326424
0.489278 0.401443 0.336110
0.519312 0.412198 0.348789
0.550183 0.422859 0.362214
0.586570 0.441081 0.382091
0.623278 0.458082 0.402083
0.661936 0.479298 0.424098
0.699727 0.499522 0.446784
0.745831 0.526140 0.475872
0.292923 0.401326 0.301152
0.319368 0.401157 0.300596
0.346691 0.402032 0.303457
0.368837 0.401791 0.306691
0.390824 0.404310 0.309802
0.414589 0.405531 0.313493
0.439620 0.410454 0.320863
0.466095 0.416934 0.329170
0.494651 0.425691 0.339913
0.524529 0.436271 0.352524
0.559851 0.451693 0.371773
0.594745 0.468301 0.390266
0.631931 0.487493 0.410963
0.672532 0.508904 0.434886
0.715561 0.533528 0.461716
0.761167 0.559238 0.490251
0.293587 0.421630 0.300375
0.322363 0.423494 0.302037
0.349509 0.424703 0.306001
0.374453 0.426453 0.309989
0.397148 0.427975 0.313376
0.420594 0.428770 0.317918
0.444824 0.433992 0.324358
0.470827 0.440081 0.332259
0.501931 0.451503 0.346121
0.532954 0.463166 0.359936
0.568899 0.479262 0.379743
0.605066 0.495694 0.397061
0.644382 0.517495 0.421925
0.684993 0.538767 0.445927
0.725776 0.561545 0.470712
0.774461 0.590098 0.502354
0.297941 0.444579 0.303000
0.328267 0.448007 0.306364
0.354819 0.448529 0.308022
0.378598 0.449104 0.312074
0.404012 0.453104 0.318117
0.428724 0.456572 0.324701
0.451450 0.458736 0.328883
0.477790 0.465084 0.337940
0.506891 0.474391 0.349352
0.542314 0.490617 0.368165
0.577159 0.505582 0.386465
0.615995 0.524936 0.408437
0.655635 0.547589 0.433116
0.700232 0.572513 0.459548
0.741707 0.595168 0.485679
0.788029 0.621068 0.514701
0.302634 0.467812 0.305979
0.332721 0.471003 0.309203
0.359993 0.473817 0.314209
0.389026 0.476788 0.320571
0.413069 0.479088 0.326030
0.438024 0.483636 0.331007
0.462874 0.488017 0.338808
0.489494 0.494669 0.347891
0.516418 0.501758 0.357735
0.549281 0.515351 0.373592
0.586672 0.532964 0.395039
0.627633 0.555779 0.419949
0.667429 0.575340 0.442180
0.711084 0.600714 0.470253
0.755682 0.626468 0.498246
0.801326 0.651638 0.526632
0.308770 0.491688 0.310372
0.341456 0.497504 0.316423
0.369357 0.500936 0.321563
0.396863 0.503614 0.327903
0.425358 0.510377 0.335904
0.452280 0.516891 0.344163
0.476890 0.519742 0.351574
0.505845 0.528576 0.363045
0.531872 0.534771 0.371834
0.560529 0.544129 0.383797
0.599057 0.562762 0.405012
0.639285 0.584899 0.429342
0.683383 0.608411 0.456253
0.724679 0.632596 0.482160
0.769618 0.657722 0.510826
0.817002 0.684475 0.541018
0.316682 0.516751 0.316403
0.352224 0.525454 0.325725
0.381896 0.528882 0.330567
0.409634 0.535887 0.338591
0.437499 0.539135 0.347598
0.467138 0.548400 0.358294
0.493820 0.554315 0.367411
0.522629 0.562995 0.378741
0.552575 0.573101 0.391788
0.579628 0.580602 0.401726
0.611657 0.592675 0.415580
0.651790 0.613631 0.441170
0.693216 0.637084 0.467296
0.739046 0.662831 0.495149
0.785974 0.691335 0.525884
0.832645 0.717242 0.555474
0.328149 0.544577 0.325787
0.365004 0.555052 0.337029
0.394653 0.561017 0.345216
0.426475 0.568295 0.355106
0.455519 0.576579 0.365126
0.484120 0.581847 0.373519
0.512690 0.590679 0.385426
0.544278 0.602162 0.399738
0.574153 0.612075 0.412336
0.605053 0.623554 0.426327
0.636421 0.634821 0.440880
0.665593 0.644611 0.453076
0.709801 0.670615 0.480450
0.755780 0.697798 0.509764
0.800089 0.722694 0.538386
0.844256 0.745860 0.565236
0.341104 0.573653 0.336720
0.379846 0.586371 0.350290
0.412254 0.594481 0.360412
0.444319 0.603893 0.372307
0.475077 0.611192 0.383045
0.503973 0.619546 0.393858
0.535724 0.631085 0.407632
0.564930 0.640142 0.419312
0.596195 0.651696 0.433490
0.629071 0.664991 0.449359
0.659671 0.675473 0.463416
0.690704 0.688143 0.477328
0.723051 0.700912 0.493213
0.770632 0.728459 0.523001
0.812597 0.752178 0.549137
0.859794 0.778605 0.579294
0.358959 0.606789 0.352404
0.398789 0.621373 0.367735
0.429191 0.628070 0.376359
0.463846 0.639362 0.391573
0.495153 0.650320 0.402484
0.527114 0.658852 0.415096
0.556407 0.669174 0.427386
0.591431 0.683960 0.444997
0.622818 0.695661 0.459201
0.654698 0.707913 0.474075
0.687319 0.720306 0.490264
0.719202 0.732339 0.503727
0.753202 0.749467 0.521253
0.780840 0.756765 0.532365
0.827957 0.784702 0.562843
0.871760 0.807562 0.589520
0.375607 0.638819 0.366980
0.420181 0.658435 0.387728
0.451773 0.665876 0.398034
0.486170 0.677004 0.412244
0.516393 0.687634 0.423343
0.549101 0.699765 0.437740
0.582625 0.712361 0.452843
0.615874 0.725487 0.468561
0.648695 0.738646 0.484208
0.680199 0.750602 0.498590
0.714411 0.764244 0.515339
0.747240 0.778808 0.530927
0.777407 0.789985 0.546647
0.810808 0.803658 0.560348
0.843332 0.817307 0.576578
0.884217 0.837098 0.600347
0.408896 0.702661 0.394674
0.454599 0.724102 0.417713
0.488177 0.734911 0.430613
0.521622 0.747368 0.444639
0.556863 0.759601 0.459630
0.589246 0.772864 0.474849
0.623020 0.785150 0.489913
0.656143 0.797883 0.505381
0.690323 0.812110 0.522134
0.723448 0.825999 0.538450
0.755623 0.839520 0.552573
0.787252 0.850847 0.568566
0.821453 0.865177 0.584284
0.848838 0.874606 0.595476
0.880557 0.887123 0.609852
0.912013 0.897639 0.622206
0.263982 0.163168 0.309780
0.291742 0.161263 0.312491
0.310319 0.146383 0.310964
0.333066 0.146861 0.314709
0.354318 0.139405 0.316655
0.378474 0.133186 0.318660
0.399152 0.129122 0.321997
0.423100 0.132183 0.326980
0.449083 0.141980 0.334014
0.475126 0.152359 0.341542
0.504984 0.174395 0.352653
0.537237 0.202043 0.368446
0.571507 0.227961 0.384276
0.614586 0.264468 0.408607
0.650022 0.291751 0.429270
0.693886 0.326485 0.455284
0.285842 0.312268 0.321615
0.310174 0.311418 0.321344
0.335128 0.314114 0.324617
0.356408 0.313920 0.326541
0.380345 0.315193 0.331308
0.404367 0.318299 0.335927
0.429392 0.322731 0.340795
0.454256 0.327383 0.346909
0.480462 0.333901 0.354782
0.509582 0.344006 0.366085
0.540012 0.356967 0.379480
0.572993 0.370640 0.394311
0.607464 0.387419 0.413762
0.646030 0.407924 0.433846
0.685001 0.430209 0.456873
0.728391 0.455141 0.482814
0.285637 0.333732 0.321356
0.310064 0.333476 0.320877
0.335705 0.335313 0.323597
0.361170 0.338406 0.328478
0.384056 0.339294 0.331056
0.407556 0.340483 0.333995
0.430170 0.343878 0.338876
0.458268 0.351992 0.348372
0.485073 0.358883 0.356776
0.514209 0.368759 0.367930
0.549027 0.384001 0.384631
0.580593 0.398828 0.400632
0.616559 0.415978 0.418915
0.653972 0.436535 0.440695
0.698414 0.462277 0.468003
0.739616 0.484617 0.491939
0.285303 0.355254 0.320909
0.313576 0.357961 0.323073
0.337709 0.357761 0.322538
0.361156 0.358516 0.326746
0.384976 0.362378 0.330460
0.410704 0.365699 0.336975
0.435973 0.370677 0.343299
0.462217 0.376669 0.350894
0.490394 0.385221 0.360915
0.522456 0.398029 0.375340
0.554654 0.410883 0.390383
0.590628 0.428635 0.408301
0.628404 0.447094 0.431094
0.669165 0.470445 0.454893
0.709735 0.492925 0.478244
0.755485 0.519532 0.506929
0.288073 0.378688 0.322408
0.315430 0.380148 0.323539
0.340625 0.382130 0.325163
0.366109 0.381858 0.328371
0.388366 0.383952 0.332014
0.412985 0.388707 0.337390
0.439128 0.393293 0.344786
0.466253 0.400524 0.353593
0.497308 0.411734 0.366474
0.530239 0.425469 0.382072
0.564521 0.440667 0.399073
0.599970 0.457917 0.417978
0.641068 0.479278 0.442512
0.679768 0.500285 0.464253
0.722882 0.524578 0.490451
0.768334 0.550337 0.518598
0.291752 0.401937 0.324457
0.319152 0.403453 0.325732
0.345465 0.405100 0.328401
0.371243 0.407381 0.331160
0.393857 0.408488 0.335431
0.416732 0.410137 0.339525
0.442169 0.415324 0.345888
0.472461 0.425552 0.358143
0.504503 0.438039 0.372493
0.535522 0.449515 0.385880
0.573421 0.468530 0.406689
0.610890 0.487669 0.427526
0.649272 0.506752 0.450760
0.696753 0.534755 0.478533
0.736911 0.556925 0.503689
0.784495 0.584442 0.533787
0.294793 0.424320 0.325877
0.322513 0.426142 0.327572
0.350850 0.429590 0.330791
0.378150 0.432131 0.334919
0.400173 0.433455 0.340054
0.426073 0.436531 0.345717
0.447228 0.438734 0.349232
0.477760 0.449202 0.361765
0.510592 0.462447 0.377003
0.546227 0.478566 0.395446
0.585056 0.497349 0.416984
0.623040 0.517086 0.438760
0.665289 0.541558 0.464002
0.706508 0.562169 0.488523
0.750963 0.588630 0.516470
0.798127 0.615598 0.546286
0.297591 0.446210 0.327141
0.328174 0.450413 0.331643
0.355510 0.453371 0.335263
0.384264 0.456847 0.340445
0.408430 0.459936 0.346568
0.433339 0.463370 0.352782
0.460593 0.470092 0.360642
0.486695 0.476115 0.369082
0.519601 0.489375 0.384514
0.555049 0.505489 0.402832
0.594724 0.526412 0.425306
0.634935 0.547171 0.449557
0.679640 0.572071 0.475800
0.722366 0.596531 0.502795
0.766229 0.621542 0.530525
0.813566 0.648577 0.560565
0.302718 0.469699 0.330302
0.334011 0.474659 0.335758
0.365061 0.481152 0.342754
0.394329 0.486570 0.349701
0.420555 0.491390 0.357138
0.446778 0.494700 0.363192
0.474810 0.502115 0.373127
0.501316 0.508579 0.382083
0.528733 0.516276 0.392107
0.566709 0.534920 0.413120
0.606597 0.554919 0.435999
0.648956 0.577644 0.461141
0.689833 0.602234 0.486795
0.735329 0.627941 0.515442
0.781299 0.653972 0.544336
0.826645 0.678693 0.572155
0.309706 0.494341 0.335239
0.343799 0.501915 0.343712
0.375024 0.510028 0.351775
0.406683 0.516665 0.361641
0.436131 0.523590 0.368887
0.463131 0.528890 0.378293
0.490957 0.536002 0.387736
0.518682 0.543595 0.397894
0.548783 0.553758 0.410605
0.577696 0.563336 0.422546
0.619860 0.586900 0.448023
0.660483 0.608067 0.472662
0.705347 0.633827 0.500668
0.753360 0.661880 0.530613
0.795314 0.685183 0.556736
0.842030 0.711331 0.586200
0.319871 0.521340 0.343148
0.355210 0.530432 0.353315
0.387899 0.541048 0.363763
0.421119 0.547953 0.372556
0.451053 0.555201 0.383331
0.481876 0.565318 0.394597
0.510563 0.573204 0.406122
0.540674 0.583078 0.418662
0.569644 0.592237 0.430213
0.599369 0.602429 0.442866
0.631706 0.614723 0.457435
0.674512 0.639374 0.484187
0.718091 0.663632 0.511717
0.768549 0.692880 0.544203
0.809187 0.716546 0.569354
0.855915 0.742307 0.598606
0.331649 0.549591 0.352468
0.369746 0.561685 0.366054
0.406450 0.574606 0.379655
0.439583 0.583227 0.391876
0.469663 0.593214 0.402482
0.500910 0.602184 0.412617
0.532879 0.612829 0.427194
0.561770 0.621613 0.438384
0.594264 0.634245 0.453543
0.625480 0.646009 0.467714
0.655790 0.656137 0.480450
0.689106 0.671352 0.497836
0.732917 0.696683 0.524483
0.781826 0.724431 0.556858
0.824531 0.748854 0.582930
0.869257 0.772955 0.610390
0.346603 0.580303 0.364948
0.388696 0.596650 0.382816
0.426751 0.610405 0.397435
0.460166 0.622222 0.410153
0.492699 0.632556 0.423325
0.521655 0.639424 0.432595
0.553970 0.651415 0.446987
0.586107 0.663343 0.461568
0.618393 0.675864 0.476590
0.652294 0.690145 0.493364
0.684029 0.701587 0.507571
0.718526 0.717671 0.523575
0.748277 0.727947 0.538350
0.795915 0.755348 0.567814
0.837974 0.779687 0.595006
0.882753 0.803566 0.622383
0.363956 0.613147 0.379767
0.408166 0.632250 0.400525
0.448367 0.649889 0.419090
0.480084 0.659445 0.429424
0.514633 0.670729 0.443375
0.549318 0.685867 0.459347
0.580709 0.695394 0.472827
0.616124 0.710480 0.490462
0.644941 0.719738 0.502004
0.675828 0.731148 0.515588
0.711807 0.748117 0.534307
0.745035 0.761413 0.550350
0.777884 0.774445 0.564551
0.807590 0.785696 0.579111
0.849541 0.808121 0.604477
0.891573 0.829444 0.629422
0.384174 0.648543 0.397599
0.430710 0.670410 0.421166
0.470250 0.689351 0.439721
0.505691 0.701777 0.454290
0.539609 0.712172 0.467793
0.574752 0.728073 0.484288
0.604066 0.736176 0.495156
0.638773 0.750753 0.512195
0.673800 0.765921 0.529803
0.705898 0.778362 0.544652
0.738033 0.789852 0.559554
0.771474 0.805245 0.575858
0.805586 0.819867 0.593432
0.834101 0.829002 0.603549
0.864703 0.840375 0.617730
0.903893 0.858366 0.639684
0.418866 0.713867 0.426300
0.464775 0.735831 0.450479
0.510939 0.761145 0.476390
0.547701 0.773069 0.490525
0.580591 0.785673 0.505867
0.612809 0.798807 0.520755
0.651689 0.815668 0.539537
0.683627 0.827374 0.553537
0.715095 0.838776 0.567407
0.749991 0.854239 0.585054
0.784032 0.868687 0.601574
0.812335 0.877948 0.612795
0.841884 0.888748 0.625907
0.872706 0.900409 0.637976
0.901295 0.910208 0.650819
0.928623 0.916469 0.658746
0.261488 0.154865 0.329740
0.288751 0.148818 0.331393
0.309679 0.135565 0.332702
0.331688 0.131320 0.334290
0.352926 0.121210 0.335039
0.374741 0.112176 0.337695
0.396475 0.105976 0.342167
0.424296 0.124712 0.350312
0.450951 0.138097 0.358030
0.481388 0.162104 0.369663
0.512508 0.184824 0.383552
0.549419 0.219309 0.401386
0.588331 0.254031 0.421253
0.631934 0.291919 0.448828
0.671271 0.322016 0.471196
0.719475 0.361154 0.501208
0.285566 0.312517 0.342743
0.309604 0.311303 0.342365
0.335328 0.314337 0.346194
0.358694 0.316285 0.349178
0.381483 0.318656 0.352884
0.406071 0.322395 0.357887
0.432379 0.328000 0.365359
0.458667 0.334361 0.373006
0.488005 0.344506 0.384224
0.518807 0.356486 0.397080
0.553633 0.373515 0.413793
0.588259 0.391819 0.432805
0.626086 0.410202 0.451416
0.667772 0.433709 0.477108
0.709799 0.458297 0.502706
0.751770 0.481227 0.526704
0.285231 0.334051 0.342421
0.312985 0.336855 0.345156
0.334229 0.334707 0.345527
0.359704 0.339271 0.348670
0.384709 0.342755 0.354366
0.409266 0.346399 0.360622
0.436443 0.352903 0.367654
0.462658 0.359122 0.375247
0.494426 0.371458 0.388885
0.525889 0.383847 0.402562
0.563074 0.401159 0.421542
0.598468 0.418567 0.440185
0.634392 0.437903 0.460352
0.681196 0.465095 0.488655
0.718756 0.485306 0.509835
0.768512 0.516003 0.541833
0.288447 0.357935 0.345141
0.312857 0.357784 0.344980
0.337530 0.359732 0.346436
0.361716 0.361309 0.349048
0.386728 0.364726 0.354290
0.411876 0.368716 0.359926
0.439308 0.375722 0.368461
0.468538 0.384830 0.379149
0.499882 0.396527 0.392185
0.533196 0.410629 0.407534
0.569058 0.428312 0.426507
0.606194 0.447266 0.446930
0.647564 0.468974 0.470169
0.689236 0.492228 0.494890
0.733702 0.518622 0.522992
0.779813 0.545386 0.551597
0.288489 0.379234 0.345327
0.315431 0.381308 0.346961
0.338972 0.383133 0.348399
0.367413 0.385424 0.352935
0.390599 0.388403 0.356401
0.416479 0.394484 0.363084
0.444230 0.400625 0.371970
0.474926 0.411298 0.384280
0.508488 0.425219 0.399624
0.541699 0.439071 0.415053
0.580542 0.457483 0.437239
0.619161 0.479126 0.458979
0.657729 0.498745 0.480271
0.703613 0.525982 0.509325
0.747388 0.550745 0.535422
0.795148 0.579012 0.565909
0.290766 0.401824 0.346699
0.318026 0.404104 0.348373
0.345164 0.407575 0.351804
0.372463 0.411422 0.356252
0.398359 0.413741 0.360776
0.421087 0.416782 0.365939
0.449168 0.424455 0.375067
0.481894 0.437222 0.389529
0.515786 0.451413 0.405556
0.551543 0.467821 0.423619
0.592335 0.488234 0.445084
0.630636 0.508295 0.468239
0.673573 0.532568 0.493686
0.719240 0.559223 0.523649
0.762638 0.584238 0.549761
0.809217 0.610838 0.578828
0.293462 0.424258 0.348089
0.323546 0.428714 0.352388
0.351604 0.433002 0.355202
0.378684 0.437787 0.360686
0.404694 0.440124 0.366697
0.429951 0.445276 0.372919
0.457222 0.450749 0.381308
0.489597 0.463257 0.395571
0.525105 0.479125 0.413324
0.562795 0.497250 0.433476
0.601955 0.517668 0.455935
0.643665 0.540959 0.479824
0.686727 0.564643 0.506639
0.731348 0.589992 0.534320
0.776812 0.616109 0.562629
0.823638 0.642911 0.592136
0.297732 0.447506 0.350610
0.329385 0.453260 0.356421
0.356317 0.458001 0.361031
0.389970 0.466321 0.370314
0.418915 0.471179 0.376484
0.444412 0.476578 0.384408
0.470007 0.481663 0.391954
0.497948 0.489527 0.402242
