example_ofxGpuLutCube/bin/data/ofxGpuLutCube/LUT/C4 (smooth faded).cube
LUT_3D_SIZE 6
0.283700 0.283821 0.275211
0.356114 0.284643 0.281794
0.425070 0.290103 0.292111
0.494222 0.299051 0.305614
0.573174 0.324538 0.334619
0.675772 0.375003 0.388255
0.288817 0.354850 0.274435
0.363421 0.356705 0.282928
0.430409 0.360652 0.291986
0.507245 0.378167 0.315182
0.598950 0.412844 0.357188
0.712186 0.471908 0.422882
0.296278 0.421454 0.277175
0.371614 0.421396 0.284278
0.439917 0.426813 0.296395
0.524007 0.451732 0.328664
0.625135 0.497283 0.382733
0.752138 0.565961 0.460359
0.308207 0.488992 0.284496
0.391624 0.496194 0.298163
0.468880 0.509679 0.321271
0.548487 0.529874 0.350055
0.660172 0.583421 0.413986
0.792450 0.658169 0.496944
0.339132 0.569773 0.310786
0.428217 0.586313 0.332890
0.515823 0.609355 0.366386
0.606381 0.640096 0.405827
0.702273 0.677998 0.450700
0.835657 0.752714 0.535794
0.401037 0.693525 0.364625
0.501648 0.725371 0.403741
0.599225 0.759608 0.446050
0.698679 0.799475 0.493890
0.797033 0.840039 0.540726
0.893524 0.877283 0.584843
0.261488 0.154865 0.329740
0.331688 0.131320 0.334290
0.396475 0.105976 0.342167
0.481388 0.162104 0.369663
0.588331 0.254031 0.421253
0.719475 0.361154 0.501208
0.288447 0.357935 0.345141
0.361716 0.361309 0.349048
0.439308 0.375722 0.368461
0.533196 0.410629 0.407534
0.647564 0.468974 0.470169
0.779813 0.545386 0.551597
0.293462 0.424258 0.348089
0.378684 0.437787 0.360686
0.457222 0.450749 0.381308
0.562795 0.497250 0.433476
0.686727 0.564643 0.506639
0.823638 0.642911 0.592136
0.311960 0.497587 0.360537
0.414982 0.528280 0.392654
0.507790 0.555103 0.426233
0.596653 0.584362 0.462791
0.730804 0.661063 0.546218
0.864141 0.735153 0.628483
0.353196 0.587681 0.393544
0.476668 0.641633 0.449948
0.577651 0.677472 0.491884
0.676216 0.716032 0.537959
0.773508 0.754942 0.583345
0.900408 0.822607 0.660041
0.429060 0.724825 0.457756
0.570852 0.800211 0.537955
0.675061 0.841456 0.584323
0.773867 0.880311 0.629565
0.861241 0.910268 0.665220
0.942357 0.932744 0.692886
0.256415 0.130118 0.389643
0.322352 0.001466 0.390590
0.407024 0.103842 0.413317
0.520088 0.234150 0.468036
0.653726 0.350211 0.548578
0.801496 0.465024 0.642422
0.290531 0.361520 0.408419
0.364927 0.367593 0.414649
0.469883 0.412704 0.460669
0.587540 0.472801 0.524470
0.718963 0.548942 0.605744
0.855167 0.626465 0.687954
0.300677 0.430394 0.416801
0.390280 0.452697 0.439088
0.497554 0.497546 0.484822
0.623786 0.564391 0.557037
0.763687 0.645889 0.644528
0.892130 0.716783 0.722248
0.327994 0.512742 0.440025
0.436938 0.555022 0.481696
0.566617 0.621081 0.549111
0.670414 0.664314 0.599152
0.805033 0.742170 0.684555
0.917809 0.794727 0.744058
0.378980 0.613734 0.482567
0.509609 0.679675 0.549298
0.648264 0.756182 0.628117
0.749859 0.796218 0.674321
0.840345 0.827558 0.712091
0.939028 0.867621 0.760656
0.465845 0.763119 0.557963
0.609482 0.845777 0.643117
0.741503 0.915591 0.717121
0.826167 0.939900 0.745067
0.899161 0.955637 0.765386
0.965410 0.963947 0.777329
0.249168 0.081965 0.446900
0.320808 0.001697 0.448773
0.429217 0.157293 0.491073
0.592104 0.346364 0.596133
0.741513 0.464116 0.693716
0.873820 0.550695 0.773295
0.291869 0.364280 0.469445
0.374786 0.377664 0.484227
0.494858 0.439240 0.543114
0.659216 0.549136 0.655129
0.797735 0.630340 0.742992
0.909638 0.685059 0.802115
0.310766 0.440584 0.484635
0.411604 0.472496 0.516759
0.525286 0.527463 0.572269
0.699508 0.644904 0.693784
0.830955 0.718690 0.773626
0.929126 0.758559 0.818871
0.350492 0.531971 0.518712
0.471343 0.588372 0.575985
0.604793 0.662901 0.652297
0.742956 0.742850 0.735126
0.859290 0.800258 0.798903
0.945838 0.829231 0.833669
0.411246 0.643506 0.574506
0.548464 0.719474 0.651720
0.686925 0.800486 0.734360
0.799742 0.853433 0.789029
0.876982 0.872039 0.814241
0.956109 0.890939 0.839695
0.506583 0.804148 0.661556
0.646038 0.885156 0.745786
0.763133 0.944158 0.805671
0.849258 0.971131 0.832998
0.911222 0.976184 0.838582
0.974528 0.981081 0.848637
0.239220 0.001854 0.501316
0.325377 0.001924 0.512455
0.457821 0.220605 0.575224
0.637459 0.406438 0.698579
0.817604 0.552941 0.828463
0.917724 0.601619 0.875326
0.299255 0.371787 0.533490
0.385717 0.390320 0.552514
0.525639 0.471932 0.631763
0.699855 0.591450 0.754275
0.850397 0.686538 0.855908
0.937947 0.716738 0.889127
0.326659 0.455101 0.555595
0.438108 0.500670 0.600583
0.563212 0.566350 0.668755
0.740418 0.687212 0.793924
0.870173 0.761105 0.873689
0.948739 0.781822 0.896838
0.379167 0.558284 0.602063
0.507441 0.622495 0.669122
0.646731 0.704963 0.753051
0.777343 0.779047 0.829672
0.884384 0.829269 0.884213
0.958227 0.846087 0.904247
0.451035 0.680752 0.670466
0.591189 0.760419 0.752815
0.717197 0.830896 0.825977
0.818402 0.875035 0.871609
0.895332 0.894457 0.892133
0.966037 0.907833 0.910345
0.548353 0.844489 0.764785
0.679830 0.919858 0.843642
0.777360 0.960978 0.884358
0.853537 0.982030 0.902494
0.918353 0.990396 0.907337
0.977467 0.990979 0.912882
0.233504 0.002054 0.554262
0.337778 0.002154 0.578950
0.490450 0.280211 0.662503
0.677641 0.458479 0.795755
0.840056 0.580017 0.907082
0.940654 0.627910 0.955498
0.307818 0.379866 0.595853
0.404282 0.409472 0.626553
0.560527 0.509149 0.723476
0.733344 0.627505 0.845991
0.864817 0.703078 0.926844
0.952319 0.732966 0.960893
0.347641 0.473613 0.629043
0.467285 0.527872 0.684827
0.601678 0.605828 0.764123
0.768463 0.717286 0.880058
0.880518 0.773703 0.940298
0.958956 0.794154 0.964780
0.408647 0.584738 0.684701
0.543036 0.656806 0.760352
0.681289 0.739261 0.845002
0.797706 0.800312 0.906811
0.891675 0.838909 0.949171
0.966307 0.856849 0.969282
0.485381 0.712422 0.759764
0.623420 0.792788 0.843099
0.739227 0.851685 0.904680
0.828278 0.884270 0.937724
0.901339 0.901673 0.955456
0.971337 0.916668 0.971998
0.571706 0.853738 0.847287
0.683580 0.909986 0.905773
0.771620 0.940934 0.937922
0.846235 0.958788 0.955902
0.913197 0.968378 0.966172
0.976653 0.976412 0.974444
