example_ofxGpuLutCube/bin/data/ofxGpuLutCube/LUT/C40 (contrasty cold).cube
LUT_3D_SIZE 16
0.012600 0.012600 0.012600
0.012600 0.012600 0.012600
0.024107 0.014127 0.014127
0.053860 0.018100 0.018100
0.093813 0.027227 0.024880
0.147967 0.039033 0.037033
0.213020 0.052200 0.050400
0.273853 0.065987 0.063133
0.324947 0.076567 0.072273
0.369540 0.084960 0.082160
0.410200 0.093967 0.090333
0.446687 0.101267 0.096513
0.484720 0.110200 0.104780
0.517880 0.115273 0.109873
0.555700 0.124147 0.118840
0.587645 0.131052 0.123178
0.012727 0.013553 0.012753
0.012727 0.013553 0.012753
0.024457 0.015135 0.013970
0.054100 0.018993 0.018041
0.094625 0.028051 0.025243
0.150729 0.039909 0.037440
0.213047 0.052813 0.050433
0.273877 0.066497 0.063160
0.323710 0.077005 0.072248
0.370019 0.085775 0.082313
0.410367 0.094589 0.090469
0.446968 0.101876 0.096581
0.485421 0.110899 0.104964
0.520380 0.116442 0.110508
0.555900 0.124733 0.118893
0.587909 0.131718 0.123489
0.017267 0.046507 0.018093
0.017320 0.043267 0.017593
0.030561 0.047188 0.012889
0.068793 0.048895 0.012617
0.100819 0.052568 0.027360
0.153336 0.064018 0.041847
0.217520 0.076221 0.054673
0.277127 0.089312 0.066844
0.326761 0.098075 0.075881
0.374741 0.110773 0.086652
0.414540 0.118304 0.093353
0.451426 0.125099 0.101248
0.489155 0.129917 0.107084
0.522573 0.140081 0.115056
0.557444 0.145271 0.120586
0.592470 0.151257 0.128426
0.027500 0.084220 0.025560
0.027559 0.084460 0.025832
0.041279 0.089523 0.028741
0.082160 0.103640 0.012000
0.135437 0.102641 0.015760
0.175487 0.096047 0.034580
0.226296 0.106752 0.056400
0.282531 0.119668 0.070977
0.334340 0.129047 0.082457
0.377816 0.138992 0.090268
0.419653 0.147593 0.098293
0.456197 0.154869 0.104979
0.494520 0.162856 0.113172
0.527733 0.168291 0.118299
0.564673 0.176448 0.126963
0.597697 0.181571 0.134309
0.045160 0.145033 0.043887
0.045149 0.144966 0.043874
0.057760 0.148380 0.044606
0.089379 0.160925 0.029297
0.154382 0.178436 0.014688
0.222649 0.169238 0.016220
0.269685 0.158705 0.040016
0.315051 0.163106 0.061234
0.356223 0.171032 0.079150
0.391907 0.179900 0.093947
0.429422 0.187489 0.103318
0.466024 0.195803 0.112023
0.502285 0.203136 0.120725
0.538039 0.211550 0.128182
0.571599 0.216448 0.133931
0.605999 0.224062 0.141201
0.064933 0.220200 0.062467
0.064778 0.219080 0.062280
0.078258 0.222687 0.063196
0.107207 0.228533 0.060967
0.153093 0.252527 0.033633
0.245844 0.272022 0.017267
0.329087 0.261260 0.016527
0.377878 0.247478 0.036380
0.412373 0.238958 0.058484
0.445447 0.239427 0.071813
0.478267 0.245100 0.087889
0.507716 0.250080 0.101391
0.535000 0.255500 0.112320
0.563800 0.263409 0.126804
0.592084 0.271289 0.138453
0.620914 0.277574 0.146317
0.085420 0.298820 0.082820
0.085796 0.301073 0.083196
0.099384 0.302736 0.085344
0.129000 0.303972 0.084760
0.167839 0.325159 0.064168
0.245227 0.356293 0.028233
0.351892 0.371084 0.020328
0.435953 0.366067 0.014911
0.483940 0.348884 0.025328
0.515804 0.335484 0.045780
0.542687 0.328167 0.062207
0.570277 0.325188 0.074980
0.599160 0.328276 0.088368
0.625531 0.329080 0.099127
0.649544 0.330471 0.114812
0.677096 0.335957 0.128235
0.105507 0.375453 0.101940
0.105289 0.373929 0.101679
0.119920 0.372854 0.101873
0.148092 0.375489 0.103800
0.187821 0.391367 0.090596
0.251569 0.423311 0.055273
0.352351 0.456763 0.022140
0.451489 0.463977 0.024668
0.528080 0.460320 0.017960
0.578775 0.448412 0.017476
0.609042 0.431133 0.032880
0.635333 0.419491 0.050303
0.658993 0.410204 0.062685
0.686353 0.408171 0.080434
0.715198 0.409349 0.094811
0.740615 0.410850 0.114657
0.122793 0.435980 0.116607
0.122793 0.435980 0.116607
0.137806 0.438128 0.117611
0.166051 0.439376 0.122017
0.207303 0.451527 0.114753
0.259620 0.481840 0.081153
0.350667 0.517725 0.039699
0.454568 0.539610 0.024132
0.537485 0.542335 0.027641
0.604004 0.538056 0.021695
0.658167 0.530482 0.015462
0.694689 0.520377 0.024430
0.721860 0.506499 0.048765
0.747447 0.498687 0.067340
0.777592 0.498944 0.085956
0.802550 0.494878 0.105046
0.139680 0.493720 0.132280
0.139680 0.493720 0.132280
0.151491 0.494065 0.132943
0.182160 0.495192 0.135832
0.223237 0.502436 0.136173
0.274173 0.532273 0.103527
0.354356 0.570144 0.061892
0.450975 0.598200 0.026429
0.540225 0.610841 0.028515
0.614136 0.613836 0.034264
0.674580 0.614053 0.034387
0.732181 0.614159 0.033773
0.778112 0.609780 0.038068
0.806004 0.597111 0.055969
0.831055 0.583080 0.078024
0.858004 0.577915 0.098149
0.154833 0.542467 0.144633
0.154833 0.542467 0.144633
0.166222 0.542893 0.145329
0.196720 0.545533 0.148860
0.237691 0.551380 0.150676
0.287144 0.580000 0.121400
0.360840 0.614987 0.079600
0.451696 0.647033 0.042638
0.544253 0.670373 0.030969
0.619733 0.679787 0.044007
0.687722 0.687778 0.054011
0.744213 0.686767 0.055222
0.799467 0.684787 0.055640
0.849840 0.682391 0.058393
0.886998 0.675102 0.068924
0.909968 0.660215 0.088633
0.166307 0.588167 0.156307
0.166896 0.591408 0.156896
0.178632 0.589860 0.157275
0.208981 0.593292 0.161047
0.252719 0.597647 0.163970
0.299684 0.621724 0.140469
0.368375 0.658945 0.100117
0.455237 0.696212 0.072137
0.543095 0.725896 0.047491
0.624440 0.742705 0.052869
0.696167 0.749280 0.065487
0.758111 0.755417 0.073965
0.813115 0.753253 0.074760
0.867140 0.756683 0.075740
0.914568 0.751278 0.073481
0.961991 0.751672 0.077651
0.178840 0.636400 0.168420
0.178720 0.635760 0.168300
0.193340 0.639265 0.169701
0.222764 0.638316 0.172680
0.263817 0.641761 0.175787
0.314340 0.663360 0.158553
0.382796 0.704520 0.126476
0.463257 0.743045 0.100528
0.547039 0.773777 0.074859
0.625960 0.797588 0.062792
0.698113 0.807560 0.072800
0.765353 0.818668 0.084273
0.826416 0.820308 0.092796
0.875759 0.822163 0.095023
0.929504 0.824401 0.095889
0.981118 0.818612 0.092450
0.192533 0.680113 0.179747
0.192467 0.679687 0.179667
0.204017 0.680143 0.180458
0.235031 0.684685 0.184668
0.276059 0.686836 0.187352
0.332476 0.707216 0.187596
0.396288 0.748881 0.156004
0.474109 0.789010 0.128231
0.554917 0.820788 0.101835
0.627116 0.847608 0.083695
0.702680 0.867882 0.079802
0.768187 0.873953 0.091740
0.831409 0.879595 0.102899
0.892368 0.886861 0.111985
0.942687 0.888529 0.109954
0.992266 0.885256 0.110656
0.203780 0.723520 0.190973
0.203780 0.723520 0.190973
0.218037 0.724395 0.191936
0.249567 0.731388 0.200000
0.296696 0.737474 0.209171
0.352011 0.752082 0.213371
0.412399 0.791872 0.182451
0.484247 0.832873 0.156449
0.560008 0.865964 0.129888
0.634004 0.892731 0.108759
0.705476 0.916873 0.092096
0.769729 0.931504 0.098707
0.836939 0.937705 0.110516
0.892750 0.942676 0.117681
0.956149 0.952848 0.130916
0.999723 0.950922 0.128116
0.222123 0.770470 0.209790
0.222131 0.770503 0.209827
0.236731 0.774282 0.214225
0.267969 0.779258 0.219311
0.309376 0.784193 0.225605
0.370231 0.799449 0.235387
0.428199 0.835792 0.210798
0.496830 0.874779 0.183118
0.568811 0.908118 0.155915
0.639147 0.936892 0.134841
0.705708 0.962057 0.118871
0.775281 0.983786 0.108109
0.835359 0.990565 0.117710
0.897691 0.998599 0.128848
0.959854 0.999821 0.135457
0.999876 0.999824 0.145395
0.012453 0.012420 0.013613
0.012453 0.012420 0.013613
0.024399 0.014083 0.015082
0.054011 0.018081 0.018955
0.094024 0.027326 0.025749
0.150827 0.039496 0.038093
0.214188 0.053683 0.051311
0.273933 0.066080 0.063797
0.325054 0.076701 0.072971
0.370169 0.085177 0.082931
0.411920 0.094336 0.091184
0.446962 0.101506 0.097250
0.485040 0.110393 0.105551
0.519956 0.115750 0.110890
0.556020 0.124340 0.119735
0.588032 0.131327 0.123978
0.012548 0.013106 0.013709
0.012582 0.013371 0.013756
0.025358 0.015124 0.014890
0.054132 0.019002 0.018722
0.094663 0.028144 0.026110
0.150878 0.040143 0.038157
0.213215 0.052974 0.051143
0.273970 0.066689 0.063841
0.325129 0.077354 0.073248
0.370048 0.085758 0.082957
0.410641 0.094683 0.091164
0.447129 0.102102 0.097444
0.485669 0.111086 0.105727
0.520531 0.116615 0.111220
0.556191 0.124926 0.119621
0.588283 0.131992 0.124287
0.017217 0.046377 0.018868
0.017750 0.046893 0.018964
0.034347 0.051954 0.013557
0.071188 0.054227 0.012663
0.101358 0.053038 0.028609
0.153400 0.062522 0.042437
0.218820 0.076831 0.055665
0.277349 0.089531 0.067738
0.327866 0.100011 0.078485
0.374513 0.108543 0.087304
0.414656 0.116808 0.094048
0.451717 0.124440 0.102065
0.489583 0.132433 0.108387
0.523020 0.138299 0.115783
0.560050 0.147998 0.121992
0.592698 0.151710 0.129221
0.028392 0.087832 0.030460
0.028359 0.087615 0.030386
0.041091 0.087554 0.029506
0.081594 0.103020 0.013267
0.132384 0.100715 0.017935
0.176265 0.097568 0.035454
0.227610 0.108167 0.056711
0.282791 0.119933 0.071836
0.333822 0.129464 0.083179
0.380296 0.138206 0.091357
0.419408 0.146237 0.099140
0.456362 0.153578 0.105662
0.494245 0.161723 0.113809
0.529875 0.169427 0.121965
0.563493 0.176513 0.127782
0.597910 0.181797 0.135081
0.045080 0.144312 0.044519
0.045230 0.145258 0.044693
0.058017 0.148356 0.045664
0.089481 0.160804 0.030798
0.150544 0.177995 0.016207
0.222527 0.170114 0.017720
0.269503 0.158848 0.041318
0.314478 0.162871 0.062653
0.355811 0.171703 0.079883
0.391534 0.179846 0.095132
0.430972 0.188189 0.104467
0.464915 0.196059 0.112540
0.502642 0.204119 0.121572
0.538509 0.211787 0.129020
0.571137 0.216625 0.134557
0.606237 0.224273 0.142041
0.064840 0.219138 0.063044
0.065020 0.220402 0.063332
0.079297 0.220833 0.063732
0.107424 0.228610 0.062064
0.155412 0.252614 0.032600
0.245962 0.271706 0.017946
0.329806 0.262610 0.017267
0.376188 0.246227 0.037690
0.412528 0.239770 0.057227
0.447911 0.242480 0.073969
0.478433 0.244985 0.089076
0.506868 0.250792 0.102774
0.533416 0.255105 0.113718
0.562189 0.262922 0.128076
0.591036 0.271396 0.138874
0.620947 0.276092 0.147086
0.085491 0.298888 0.083668
0.085866 0.301131 0.084043
0.099873 0.301428 0.085915
0.130279 0.304910 0.085866
0.168014 0.324763 0.065009
0.246790 0.358367 0.029269
0.351062 0.371676 0.021842
0.434912 0.364071 0.016866
0.483194 0.347553 0.028639
0.514044 0.333767 0.047626
0.541622 0.327651 0.063479
0.570063 0.325778 0.075728
0.598331 0.326925 0.090593
0.623135 0.327869 0.100928
0.650123 0.330995 0.115830
0.676997 0.336214 0.129233
0.105255 0.373558 0.102358
0.105453 0.373878 0.102416
0.118824 0.374278 0.102850
0.148584 0.376892 0.104581
0.188075 0.391276 0.091911
0.251951 0.425971 0.057002
0.352239 0.456618 0.023810
0.451303 0.465930 0.027126
0.527059 0.459399 0.019202
0.579586 0.447117 0.018655
0.608422 0.430147 0.034639
0.635145 0.418715 0.049251
0.659298 0.409979 0.064303
0.689106 0.412030 0.079733
0.714443 0.409752 0.095747
0.741692 0.412751 0.115206
0.122976 0.436056 0.117360
0.122976 0.436056 0.117360
0.138035 0.438184 0.119863
0.167629 0.440642 0.123010
0.207559 0.450733 0.119855
0.260463 0.482062 0.081818
0.351633 0.519291 0.041016
0.453405 0.539442 0.025297
0.536593 0.544668 0.029064
0.603184 0.538098 0.023042
0.658716 0.532976 0.015440
0.695336 0.522321 0.025337
0.721842 0.506732 0.049803
0.749119 0.500180 0.068892
0.775589 0.497167 0.085106
0.802353 0.494861 0.106097
0.139763 0.493793 0.133020
0.139763 0.493793 0.133020
0.151320 0.494055 0.133657
0.182457 0.496851 0.136874
0.224360 0.501124 0.136730
0.274391 0.532978 0.104889
0.354390 0.570445 0.063421
0.449421 0.599918 0.028005
0.537973 0.610719 0.029632
0.614167 0.614485 0.035480
0.673492 0.612996 0.035714
0.731980 0.613683 0.034896
0.777279 0.606604 0.037920
0.807381 0.595441 0.057454
0.833563 0.585546 0.078273
0.856769 0.576277 0.099865
0.154927 0.542613 0.145373
0.155100 0.543507 0.145615
0.166330 0.543048 0.146231
0.197181 0.546537 0.149763
0.239007 0.552539 0.151211
0.287327 0.579850 0.122581
0.360853 0.614875 0.080892
0.451360 0.648407 0.044411
0.543419 0.670942 0.031986
0.619676 0.680456 0.046053
0.689344 0.687899 0.054988
0.745264 0.687704 0.056250
0.798468 0.686236 0.057020
0.849963 0.682422 0.059396
0.883078 0.671321 0.069528
0.910891 0.661943 0.089050
0.166397 0.588299 0.157044
0.166537 0.589065 0.157183
0.178760 0.589991 0.158165
0.209269 0.594829 0.162034
0.252825 0.597715 0.164844
0.299957 0.621616 0.141761
0.366855 0.658132 0.102414
0.453844 0.696737 0.073913
0.545122 0.726646 0.047675
0.625931 0.741865 0.054231
0.692226 0.748733 0.066611
0.758157 0.756304 0.076237
0.810971 0.753678 0.076179
0.866817 0.754360 0.076608
0.915548 0.751527 0.074587
0.959106 0.746989 0.080904
0.178813 0.635881 0.169076
0.178814 0.635877 0.169072
0.193083 0.638937 0.170223
0.222856 0.638429 0.173453
0.264077 0.643021 0.176702
0.314765 0.664553 0.160238
0.382410 0.703839 0.127852
0.463383 0.742713 0.101431
0.546980 0.774001 0.076874
0.625314 0.798086 0.063359
0.698201 0.807815 0.074076
0.762342 0.815748 0.085624
0.824684 0.820887 0.094357
0.878453 0.821681 0.095504
0.929297 0.824214 0.096639
0.981323 0.821861 0.093651
0.192570 0.679783 0.180588
0.192574 0.679933 0.180414
0.204076 0.680203 0.181170
0.234744 0.684407 0.185323
0.276412 0.687904 0.189188
0.332823 0.707902 0.187860
0.396425 0.748714 0.157231
0.474147 0.787977 0.128909
0.552746 0.819814 0.104436
0.629885 0.848120 0.083837
0.700408 0.865372 0.081372
0.767994 0.873946 0.092348
0.828325 0.879496 0.103827
0.891864 0.886434 0.113108
0.942783 0.887866 0.111096
0.992229 0.885218 0.111620
0.203858 0.723579 0.191678
0.204075 0.723785 0.191721
0.218346 0.724663 0.192858
0.249403 0.729895 0.201168
0.293729 0.736606 0.207502
0.354825 0.754643 0.213776
0.412920 0.793549 0.184185
0.484277 0.832601 0.157547
0.558172 0.864287 0.130955
0.632430 0.890989 0.110498
0.705744 0.916997 0.093239
0.772775 0.931505 0.100118
0.833339 0.937324 0.111123
0.893127 0.942816 0.118882
0.956125 0.950014 0.128003
0.999728 0.947040 0.129095
0.222236 0.770748 0.210532
0.222270 0.770807 0.210785
0.236847 0.774411 0.214940
0.268057 0.779333 0.220060
0.309655 0.784443 0.226561
0.369386 0.799424 0.236025
0.429699 0.836323 0.211237
0.497002 0.874677 0.184111
0.566911 0.907833 0.157538
0.638958 0.936762 0.136230
0.708032 0.961740 0.120122
0.775194 0.983683 0.109333
0.838440 0.993561 0.118675
0.901361 0.998622 0.129966
0.959999 0.999787 0.136699
0.999878 0.999867 0.146622
0.007447 0.006567 0.044427
0.007447 0.006567 0.044427
0.030876 0.010437 0.049084
0.063955 0.016377 0.047824
0.098453 0.027846 0.051351
0.151953 0.040833 0.060093
0.214557 0.055075 0.073791
0.275167 0.067513 0.083333
0.328181 0.079228 0.095667
0.372053 0.089061 0.105177
0.412738 0.096013 0.112613
0.452840 0.105270 0.120210
0.489215 0.113271 0.128483
0.525740 0.122073 0.134522
0.560613 0.127160 0.141761
0.593534 0.135290 0.147274
0.007581 0.007867 0.044792
0.007582 0.007570 0.044216
0.027796 0.011095 0.045828
0.062343 0.017903 0.044115
0.098836 0.028937 0.051694
0.152222 0.041600 0.061290
0.214941 0.055951 0.074028
0.275400 0.068282 0.084972
0.327208 0.079747 0.095772
0.371921 0.087850 0.103483
0.414549 0.097200 0.111744
0.452771 0.106077 0.120458
0.488426 0.114654 0.128798
0.523843 0.122657 0.134637
0.560880 0.128163 0.141929
0.593769 0.136091 0.147568
0.015503 0.046784 0.050418
0.014822 0.045630 0.046508
0.034912 0.051613 0.051183
0.068916 0.054177 0.054225
0.107844 0.062810 0.062532
0.163788 0.073976 0.073460
0.225394 0.085352 0.083759
0.286439 0.100138 0.097400
0.338727 0.110333 0.106715
0.382589 0.118974 0.115896
0.422529 0.127611 0.122804
0.461064 0.133651 0.130832
0.497525 0.141795 0.136930
0.531892 0.146574 0.142078
0.567663 0.156700 0.149787
0.602834 0.165713 0.157955
0.026863 0.091419 0.058209
0.026696 0.090754 0.058055
0.046778 0.094063 0.060825
0.083240 0.100286 0.055955
0.128259 0.102111 0.060721
0.173787 0.106244 0.075415
0.232345 0.117672 0.089937
0.291815 0.129479 0.101884
0.343160 0.139698 0.112585
0.387922 0.147920 0.120194
0.428964 0.156551 0.128859
0.466092 0.164687 0.134210
0.503794 0.172547 0.142772
0.537595 0.176096 0.148118
0.572981 0.185470 0.156028
0.607637 0.190870 0.163155
0.046073 0.147757 0.070840
0.046162 0.148781 0.071379
0.059976 0.150251 0.073671
0.093366 0.156317 0.072811
0.148947 0.174520 0.054394
0.217107 0.167567 0.059089
0.263109 0.163261 0.082159
0.309428 0.171906 0.101925
0.354470 0.182347 0.117079
0.396271 0.190550 0.126254
0.435815 0.197847 0.134923
0.473775 0.204749 0.141143
0.510236 0.212843 0.149477
0.546551 0.220013 0.156866
0.579066 0.225995 0.162758
0.614019 0.232890 0.170019
0.065993 0.221193 0.089798
0.065997 0.221215 0.089734
0.081400 0.223321 0.089230
0.113102 0.230441 0.096011
0.154580 0.248051 0.074549
0.240968 0.269519 0.058437
0.324869 0.260211 0.061242
0.369390 0.245083 0.081188
0.406880 0.244130 0.098522
0.442356 0.247401 0.111728
0.472073 0.252143 0.126234
0.503286 0.259876 0.138395
0.530143 0.265884 0.150123
0.560571 0.273510 0.159725
0.593105 0.279354 0.168165
0.625214 0.287508 0.177679
0.088343 0.301647 0.108011
0.087314 0.302166 0.109766
0.102259 0.303855 0.110375
0.135646 0.308676 0.113934
0.174252 0.320177 0.105861
0.246742 0.352637 0.070528
0.350002 0.370594 0.060726
0.432673 0.362078 0.057383
0.477311 0.345546 0.069896
0.508100 0.333731 0.088714
0.537478 0.330230 0.103172
0.564892 0.329628 0.114849
0.592269 0.330889 0.129699
0.619996 0.334915 0.140654
0.646622 0.339287 0.151915
0.673284 0.344721 0.166386
0.110349 0.375549 0.127111
0.110608 0.377062 0.128895
0.124734 0.378623 0.130778
0.154884 0.380450 0.133964
0.195252 0.386860 0.130303
0.253805 0.420965 0.097943
0.350397 0.452439 0.064099
0.449568 0.462089 0.064861
0.526670 0.456790 0.058960
0.574834 0.446022 0.061003
0.603678 0.430208 0.074781
0.629349 0.418806 0.092028
0.654237 0.411367 0.103733
0.681570 0.413072 0.118931
0.708077 0.412689 0.139474
0.736962 0.417693 0.155050
0.126791 0.440892 0.145037
0.126574 0.438017 0.143400
0.140966 0.440959 0.146873
0.171840 0.443880 0.148494
0.212900 0.449831 0.150329
0.265190 0.477352 0.121134
0.350024 0.513223 0.082356
0.451918 0.536103 0.064644
0.536473 0.541588 0.068406
0.602119 0.538514 0.062604
0.655140 0.531114 0.057677
0.690654 0.518589 0.070959
0.715535 0.505023 0.090552
0.743910 0.500548 0.110194
0.769011 0.496048 0.130266
0.795851 0.495245 0.144699
0.141831 0.495236 0.158759
0.141659 0.494409 0.157570
0.154770 0.495944 0.160252
0.188148 0.501002 0.163669
0.229441 0.503096 0.165668
0.280560 0.530028 0.143369
0.355116 0.565834 0.101133
0.452309 0.597844 0.068365
0.537559 0.608962 0.068552
0.614412 0.613539 0.073901
0.674003 0.614727 0.074081
0.731124 0.611842 0.074074
0.773782 0.604291 0.083629
0.799723 0.591623 0.100983
0.827086 0.583267 0.121158
0.851502 0.576031 0.138546
0.157418 0.545680 0.171440
0.157283 0.544790 0.171278
0.169353 0.546585 0.172666
0.200390 0.548631 0.175699
0.243994 0.553371 0.179644
0.294244 0.574560 0.162588
0.361819 0.611313 0.123754
0.448837 0.645460 0.087841
0.539737 0.671346 0.070950
0.618926 0.680936 0.086089
0.687256 0.686312 0.093562
0.743501 0.685968 0.093463
0.798956 0.685132 0.093868
0.847082 0.680452 0.097625
0.879772 0.672256 0.112377
0.905727 0.661360 0.129080
0.170552 0.593749 0.183502
0.170508 0.593754 0.182789
0.184927 0.597051 0.186383
0.212861 0.595774 0.188086
0.255962 0.600465 0.191294
0.308368 0.618282 0.180916
0.371944 0.654521 0.138389
0.456495 0.692772 0.111684
0.544144 0.725959 0.092261
0.624431 0.740266 0.093628
0.691531 0.748471 0.106029
0.757081 0.756156 0.113437
0.812215 0.754264 0.113378
0.865353 0.754380 0.112936
0.915144 0.753995 0.113136
0.953998 0.746036 0.119066
0.184140 0.638848 0.194776
0.184133 0.638811 0.194792
0.195647 0.639442 0.196025
0.226331 0.641406 0.199652
0.267648 0.647635 0.204898
0.322923 0.658358 0.198260
0.385064 0.699842 0.167153
0.464486 0.739415 0.141204
0.546429 0.772268 0.116386
0.626594 0.798216 0.104895
0.696601 0.809027 0.113160
0.761165 0.814929 0.122357
0.825147 0.823680 0.133170
0.878587 0.821683 0.131218
0.926620 0.819497 0.131955
0.979164 0.819196 0.132947
0.195300 0.682312 0.206211
0.195304 0.682337 0.205871
0.208082 0.683847 0.209624
0.240274 0.689001 0.210892
0.283418 0.692616 0.217594
0.343092 0.705892 0.223225
0.402289 0.746121 0.194429
0.475272 0.784238 0.168219
0.551982 0.817441 0.147811
0.628047 0.845827 0.128106
0.701422 0.866661 0.118485
0.765541 0.871909 0.129552
0.828175 0.880413 0.138502
0.887554 0.886198 0.145350
0.940701 0.885686 0.149554
0.993153 0.886528 0.146822
0.210017 0.728743 0.217971
0.210071 0.729122 0.218205
0.221687 0.727998 0.221433
0.255001 0.734832 0.227319
0.298582 0.742911 0.236760
0.359776 0.752727 0.245076
0.419273 0.788501 0.223290
0.487785 0.829763 0.195238
0.559145 0.862689 0.174751
0.633441 0.889805 0.153184
0.700814 0.917014 0.138969
0.770774 0.929087 0.139158
0.832090 0.935461 0.146873
0.896374 0.943790 0.156721
0.953824 0.947792 0.166337
0.999772 0.948548 0.167797
0.225441 0.776191 0.236480
0.225437 0.776164 0.236475
0.240157 0.777751 0.240588
0.271155 0.782412 0.246316
0.316139 0.790392 0.255699
0.378578 0.800428 0.265749
0.436900 0.833558 0.247756
0.501052 0.871997 0.221002
0.568798 0.905349 0.198657
0.636866 0.933994 0.179964
0.708084 0.960970 0.161978
0.775173 0.980940 0.147256
0.836569 0.991261 0.152410
0.899348 0.997193 0.163810
0.957438 0.999798 0.174972
0.999886 0.999837 0.183990
0.000000 0.000000 0.086360
0.000523 0.000000 0.083149
0.020901 0.000725 0.086605
0.070288 0.016040 0.088312
0.117319 0.025661 0.090116
0.165073 0.040393 0.091627
0.217840 0.055696 0.097684
0.277559 0.070333 0.110780
0.328893 0.081236 0.122143
0.372896 0.089744 0.129040
0.414100 0.099107 0.136847
0.452109 0.105981 0.145021
0.488000 0.114036 0.151556
0.526109 0.122931 0.159727
0.560028 0.130993 0.165488
0.594004 0.136392 0.172338
0.000027 0.000848 0.086404
0.000081 0.000919 0.086176
0.021199 0.002146 0.087170
0.070360 0.016989 0.088597
0.117945 0.026734 0.090184
0.164070 0.041544 0.089948
0.219095 0.056534 0.100620
0.277883 0.071171 0.112317
0.328102 0.081794 0.122220
0.372876 0.090107 0.128920
0.413778 0.099771 0.136741
0.452367 0.106951 0.143543
0.488774 0.114915 0.151619
0.524219 0.123261 0.159542
0.562287 0.131857 0.167986
0.594324 0.137351 0.170772
0.012357 0.048337 0.089867
0.012182 0.047860 0.089828
0.027033 0.046036 0.092825
0.076055 0.052745 0.091376
0.119669 0.065325 0.095265
0.167224 0.075798 0.100260
0.228680 0.089020 0.111998
0.288195 0.102051 0.124008
0.340099 0.111536 0.132830
0.385174 0.122724 0.142521
0.425421 0.131164 0.150383
0.463906 0.138811 0.157285
0.500374 0.147074 0.164616
0.537010 0.153226 0.172149
0.572769 0.160847 0.178159
0.606434 0.169679 0.186244
0.026868 0.097832 0.091796
0.026820 0.098024 0.095220
0.045812 0.099660 0.096742
0.082613 0.100177 0.098174
0.127273 0.108472 0.104483
0.180223 0.118004 0.115452
0.242670 0.129070 0.127319
0.301677 0.141269 0.137121
0.353748 0.149771 0.146968
0.397716 0.159662 0.155133
0.438700 0.167611 0.161948
0.475994 0.175114 0.168317
0.513526 0.181889 0.177684
0.548662 0.190210 0.183314
0.582112 0.193806 0.187791
0.617287 0.203692 0.196442
0.041259 0.154599 0.103141
0.041130 0.154665 0.103780
0.059835 0.154685 0.105528
0.097118 0.158524 0.109949
0.150975 0.172409 0.103293
0.208420 0.168555 0.111375
0.259274 0.172933 0.126951
0.312712 0.183866 0.143256
0.362119 0.193890 0.154201
0.406705 0.202719 0.162804
0.446764 0.209886 0.170076
0.484686 0.217667 0.177804
0.521310 0.224083 0.185023
0.556575 0.231394 0.191181
0.590122 0.240138 0.197786
0.623425 0.243225 0.201274
0.065327 0.223947 0.119953
0.065200 0.224093 0.120633
0.083538 0.226764 0.124254
0.117372 0.231327 0.129409
0.163425 0.244007 0.124912
0.240671 0.266160 0.104424
0.316801 0.256167 0.109691
0.363274 0.248962 0.128552
0.400400 0.250061 0.144777
0.435232 0.255755 0.159371
0.466991 0.263318 0.172529
0.500524 0.270657 0.182500
0.534532 0.279500 0.191696
0.565757 0.283390 0.198060
0.600100 0.291118 0.206031
0.634415 0.299806 0.213309
0.090664 0.301240 0.139676
0.091054 0.304067 0.140390
0.104672 0.306433 0.140406
0.139570 0.311552 0.148967
0.181695 0.317225 0.149581
0.246195 0.348808 0.120408
0.347390 0.366702 0.106774
0.426939 0.358572 0.105631
0.469198 0.343169 0.121702
0.500491 0.335085 0.134097
0.530407 0.332728 0.150231
0.558811 0.334277 0.161772
0.585933 0.337099 0.174066
0.613332 0.343082 0.186258
0.641555 0.348697 0.198087
0.669475 0.357064 0.209694
0.110627 0.375623 0.158423
0.110652 0.375765 0.158444
0.124333 0.380349 0.160643
0.158395 0.384801 0.165388
0.202511 0.390361 0.169496
0.256699 0.414824 0.148082
0.348201 0.448599 0.113075
0.447673 0.460062 0.108710
