example_ofxGpuLutCube/bin/data/ofxGpuLutCube/LUT/C40 (contrasty cold).cube
LUT_3D_SIZE 6
0.012600 0.012600 0.012600
0.053860 0.018100 0.018100
0.213020 0.052200 0.050400
0.369540 0.084960 0.082160
0.484720 0.110200 0.104780
0.587645 0.131052 0.123178
0.027500 0.084220 0.025560
0.082160 0.103640 0.012000
0.226296 0.106752 0.056400
0.377816 0.138992 0.090268
0.494520 0.162856 0.113172
0.597697 0.181571 0.134309
0.085420 0.298820 0.082820
0.129000 0.303972 0.084760
0.351892 0.371084 0.020328
0.515804 0.335484 0.045780
0.599160 0.328276 0.088368
0.677096 0.335957 0.128235
0.139680 0.493720 0.132280
0.182160 0.495192 0.135832
0.354356 0.570144 0.061892
0.614136 0.613836 0.034264
0.778112 0.609780 0.038068
0.858004 0.577915 0.098149
0.178840 0.636400 0.168420
0.222764 0.638316 0.172680
0.382796 0.704520 0.126476
0.625960 0.797588 0.062792
0.826416 0.820308 0.092796
0.981118 0.818612 0.092450
0.222123 0.770470 0.209790
0.267969 0.779258 0.219311
0.428199 0.835792 0.210798
0.639147 0.936892 0.134841
0.835359 0.990565 0.117710
0.999876 0.999824 0.145395
0.000000 0.000000 0.086360
0.070288 0.016040 0.088312
0.217840 0.055696 0.097684
0.372896 0.089744 0.129040
0.488000 0.114036 0.151556
0.594004 0.136392 0.172338
0.026868 0.097832 0.091796
0.082613 0.100177 0.098174
0.242670 0.129070 0.127319
0.397716 0.159662 0.155133
0.513526 0.181889 0.177684
0.617287 0.203692 0.196442
0.090664 0.301240 0.139676
0.139570 0.311552 0.148967
0.347390 0.366702 0.106774
0.500491 0.335085 0.134097
0.585933 0.337099 0.174066
0.669475 0.357064 0.209694
0.143560 0.494300 0.186548
0.191822 0.504478 0.196216
0.356910 0.559821 0.148900
0.612188 0.610674 0.121714
0.766118 0.601132 0.133990
0.846242 0.578030 0.186392
0.184544 0.639772 0.224444
0.230515 0.646386 0.231196
0.393344 0.696724 0.216617
0.625614 0.793994 0.152298
0.825048 0.822197 0.174999
0.979260 0.820854 0.177130
0.229287 0.777448 0.264430
0.277514 0.788256 0.277621
0.447759 0.828359 0.297544
0.638801 0.929071 0.227482
0.837721 0.989368 0.197752
0.999865 0.999806 0.227412
0.000000 0.000000 0.287260
0.043816 0.000000 0.290592
0.292792 0.051512 0.303676
0.454508 0.083868 0.298144
0.546976 0.114780 0.298892
0.634046 0.140427 0.311174
0.000000 0.071000 0.297016
0.056371 0.073542 0.298389
0.304208 0.129462 0.312076
0.454066 0.162250 0.306596
0.548572 0.188254 0.314801
0.637274 0.213232 0.330152
0.076488 0.334068 0.321404
0.131181 0.339430 0.324677
0.337050 0.353742 0.337829
0.486661 0.376402 0.363857
0.599218 0.396560 0.383837
0.709710 0.423861 0.412005
0.132104 0.523100 0.345376
0.186982 0.525958 0.352272
0.386114 0.542933 0.381963
0.606099 0.608832 0.358176
0.729406 0.592728 0.389822
0.810793 0.595198 0.435832
0.181212 0.659700 0.376464
0.235602 0.661176 0.386153
0.436944 0.699895 0.435074
0.620436 0.776272 0.408415
0.818230 0.815974 0.406716
0.956730 0.807552 0.420001
0.238476 0.799993 0.426582
0.289383 0.805142 0.440674
0.486915 0.846864 0.489986
0.654658 0.909053 0.479220
0.830748 0.982985 0.432434
0.999869 0.999758 0.453544
0.000000 0.000000 0.479340
0.015124 0.000000 0.484200
0.291212 0.019028 0.496648
0.509492 0.081712 0.506976
0.658232 0.096892 0.516076
0.740153 0.127481 0.497935
0.000000 0.041972 0.487896
0.027897 0.044351 0.491560
0.296611 0.096695 0.505369
0.521054 0.158489 0.516242
0.658107 0.175194 0.517890
0.741899 0.202435 0.505687
0.058928 0.335868 0.514572
0.109150 0.333602 0.517555
0.316926 0.334046 0.528567
0.553832 0.380504 0.540962
0.664439 0.409352 0.542382
0.760728 0.441063 0.561777
0.123568 0.549732 0.534632
0.176454 0.552938 0.537910
0.383707 0.573302 0.556757
0.597194 0.603810 0.586506
0.714561 0.630670 0.623190
0.825249 0.659706 0.652555
0.159584 0.704476 0.560428
0.217502 0.711239 0.566975
0.438704 0.732245 0.600247
0.649686 0.762453 0.646530
0.813664 0.812334 0.632538
0.918938 0.800486 0.662672
0.218244 0.847486 0.599583
0.274185 0.850784 0.605484
0.491360 0.872664 0.647271
0.696394 0.907735 0.698385
0.825817 0.960095 0.680614
0.999789 0.999708 0.676506
0.000000 0.000000 0.621720
0.003248 0.000000 0.626724
0.270860 0.000000 0.641996
0.517156 0.087244 0.649796
0.670244 0.104532 0.661004
0.806751 0.118791 0.671006
0.000000 0.014100 0.632684
0.006142 0.018073 0.633532
0.275145 0.059611 0.648602
0.527315 0.160942 0.657762
0.678622 0.180005 0.667308
0.817264 0.191400 0.677602
0.022008 0.317516 0.659152
0.075521 0.314450 0.661524
0.298490 0.313388 0.670768
0.556298 0.370707 0.685768
0.721375 0.411180 0.706451
0.849717 0.437341 0.720624
0.130748 0.557060 0.676068
0.180066 0.559020 0.679672
0.378490 0.581357 0.708010
0.590264 0.594172 0.737698
0.770477 0.639160 0.760428
0.874878 0.669873 0.769688
0.169548 0.723520 0.710728
0.221885 0.727372 0.716518
0.435962 0.757078 0.748481
0.650357 0.787288 0.780213
0.808119 0.809265 0.801827
0.913812 0.835540 0.833064
0.207545 0.879590 0.750878
0.261906 0.885575 0.756889
0.476792 0.909911 0.784594
0.697346 0.932080 0.819756
0.854583 0.954936 0.855721
0.999686 0.999563 0.845698
0.000000 0.000000 0.752230
0.000000 0.000000 0.757110
0.248307 0.000000 0.771080
0.513740 0.050348 0.783242
0.677218 0.110938 0.788761
0.815256 0.124991 0.796894
0.000000 0.003530 0.760137
0.001286 0.004792 0.763253
0.250881 0.022325 0.777779
0.520392 0.122983 0.791032
0.685595 0.187213 0.795598
0.826213 0.201469 0.807691
0.000605 0.294579 0.787735
0.045758 0.293264 0.791742
0.279756 0.296184 0.799046
0.541846 0.343503 0.820909
0.729942 0.420131 0.840349
0.875705 0.443132 0.862690
0.099981 0.549943 0.808771
0.153246 0.555484 0.814303
0.353247 0.566658 0.844512
0.576289 0.582124 0.872853
0.771104 0.630764 0.896879
0.925134 0.674365 0.917467
0.179552 0.730880 0.842903
0.234517 0.739023 0.851515
0.445625 0.769385 0.881498
0.639499 0.790075 0.915577
0.796790 0.801090 0.937614
0.962616 0.840270 0.957848
0.221302 0.892188 0.882550
0.275302 0.897620 0.891068
0.484177 0.925089 0.920575
0.696467 0.953475 0.950248
0.853486 0.978396 0.975209
0.999630 0.999703 0.999586
