example_ofxGpuLutCube/bin/data/ofxGpuLutCube/LUT/C42 (deep soft violet fade).cube
LUT_3D_SIZE 6
0.101961 0.094118 0.137255
0.100392 0.092549 0.135686
0.198431 0.084706 0.145098
0.415686 0.000000 0.163137
0.711373 0.000000 0.164706
0.999961 0.003883 0.145098
0.099608 0.106667 0.140392
0.107294 0.110588 0.136784
0.266667 0.098196 0.147922
0.504471 0.017726 0.149020
0.788235 0.000000 0.138196
1.000000 0.054722 0.108267
0.000000 0.294118 0.128628
0.081569 0.299608 0.130980
0.298981 0.300549 0.124863
0.577725 0.333020 0.094431
0.889882 0.382275 0.031216
0.999969 0.426604 0.046964
0.000000 0.571765 0.054118
0.108706 0.578039 0.053333
0.384784 0.574902 0.045804
0.608627 0.560784 0.058039
0.858039 0.608471 0.000314
0.996894 0.679177 0.003145
0.254117 0.825882 0.003137
0.359059 0.823373 0.012706
0.533177 0.825098 0.044863
0.713412 0.813804 0.074039
0.876549 0.802980 0.098353
0.997670 0.822682 0.194392
0.635020 0.952823 0.415255
0.666494 0.948918 0.423059
0.745741 0.948934 0.450517
0.840706 0.951208 0.477960
0.920839 0.950455 0.510941
1.000000 0.956745 0.572000
0.098039 0.095686 0.152157
0.091608 0.097569 0.149804
0.216784 0.075921 0.162824
0.424470 0.003608 0.182902
0.710588 0.000000 0.193568
0.996000 0.000000 0.200745
0.086118 0.104314 0.162353
0.104659 0.108078 0.160721
0.267796 0.104188 0.173020
0.505067 0.041976 0.175623
0.780643 0.000000 0.180894
0.997016 0.004838 0.189151
0.001883 0.295686 0.179922
0.079937 0.304314 0.181867
0.313976 0.305192 0.182369
0.605114 0.331765 0.164204
0.880784 0.361757 0.145945
1.000000 0.403871 0.166226
0.003138 0.573961 0.158274
0.082321 0.581145 0.165051
0.388079 0.581835 0.159310
0.615216 0.566839 0.160439
0.866635 0.609663 0.129317
1.000000 0.675111 0.167279
0.230902 0.828235 0.161726
0.341867 0.827043 0.170604
0.529726 0.827451 0.189772
0.718306 0.815592 0.199780
0.876643 0.807686 0.201098
0.999343 0.824745 0.267669
0.637381 0.952823 0.457741
0.668784 0.947053 0.464667
0.742920 0.949851 0.484438
0.835712 0.944690 0.518984
0.924002 0.949519 0.545322
1.000000 0.956707 0.592509
0.000000 0.093334 0.284706
0.001569 0.093804 0.296784
0.254274 0.043765 0.307451
0.521098 0.000628 0.322196
0.738353 0.001255 0.328627
0.973192 0.000000 0.348196
0.000000 0.107137 0.299608
0.055184 0.108235 0.307043
0.285522 0.086306 0.320377
0.530949 0.008282 0.325177
0.744565 0.000000 0.329004
0.979893 0.001258 0.342212
0.002510 0.297412 0.329882
0.051357 0.304879 0.329223
0.339451 0.317678 0.338761
0.593851 0.307169 0.331765
0.849318 0.301082 0.326024
0.999994 0.329341 0.327503
0.005176 0.577569 0.336000
0.001883 0.586698 0.335624
0.384251 0.597616 0.340455
0.631373 0.583655 0.334714
0.897004 0.620769 0.329380
1.000000 0.661774 0.367639
0.080000 0.826510 0.361098
0.276392 0.828235 0.368627
0.505882 0.827796 0.384910
0.713129 0.819764 0.390212
0.881475 0.808031 0.384910
0.997592 0.828522 0.424585
0.624839 0.949718 0.558212
0.656424 0.950494 0.561854
0.736447 0.948747 0.580944
0.832224 0.947200 0.606480
0.918408 0.954187 0.622080
0.998446 0.957522 0.659970
0.000784 0.087059 0.509019
0.002039 0.069490 0.511843
0.291608 0.000000 0.523608
0.570981 0.000000 0.550118
0.859294 0.001255 0.582118
0.996862 0.000000 0.589788
0.001726 0.097882 0.515294
0.001632 0.091420 0.520000
0.310839 0.038494 0.536000
0.592471 0.000377 0.558965
0.866918 0.001318 0.584784
0.998757 0.000013 0.587283
0.002510 0.299451 0.530039
0.002008 0.302494 0.539451
0.344815 0.302996 0.560910
0.631373 0.313443 0.583592
0.881318 0.291357 0.583310
0.999352 0.301125 0.561436
0.003138 0.573177 0.559373
0.004267 0.579326 0.571326
0.364831 0.596957 0.576094
0.672282 0.614902 0.595137
0.893176 0.593663 0.580737
0.999994 0.591994 0.566789
0.001255 0.828235 0.596235
0.209412 0.825130 0.590745
0.480502 0.826353 0.602353
0.711310 0.827827 0.618133
0.876988 0.813521 0.602008
0.995700 0.834332 0.638232
0.598212 0.948910 0.686980
0.626802 0.949280 0.687286
0.711854 0.952027 0.695096
0.812402 0.951548 0.712842
0.903530 0.952839 0.731637
0.999890 0.960588 0.747239
0.000000 0.000000 0.768627
0.005804 0.001412 0.772549
0.390274 0.000314 0.778510
0.669961 0.000000 0.795294
0.902588 0.000628 0.801412
1.000000 0.000000 0.805467
0.000941 0.044863 0.773804
0.000000 0.008345 0.777631
0.390494 0.002039 0.782651
0.678306 0.000753 0.801506
0.913725 0.000000 0.806588
0.999059 0.000941 0.805804
0.003608 0.284863 0.774902
0.001631 0.276643 0.784565
0.362761 0.273976 0.789804
0.675922 0.277020 0.801098
0.914980 0.299012 0.805082
0.998739 0.353302 0.798286
0.001255 0.583686 0.774902
0.004392 0.578698 0.777443
0.317992 0.571200 0.783875
0.666541 0.592784 0.794196
0.900455 0.626699 0.804047
1.000000 0.640767 0.801106
0.019137 0.819137 0.776470
0.231373 0.823749 0.780518
0.485365 0.821835 0.787294
0.710588 0.825694 0.792565
0.885678 0.832816 0.807028
0.976105 0.826332 0.799537
0.595764 0.948879 0.809365
0.629989 0.947340 0.813275
0.708816 0.947026 0.815608
0.809307 0.950134 0.826624
0.895614 0.958133 0.838348
0.999898 0.958376 0.836078
0.231020 0.000000 0.933294
0.334745 0.000016 0.935647
0.540275 0.000000 0.940290
0.759890 0.000000 0.939474
0.959121 0.000000 0.939521
0.999961 0.000000 0.941098
0.183914 0.000000 0.934863
0.311042 0.002339 0.941722
0.523486 0.004196 0.939385
0.756318 0.000000 0.937503
0.951363 0.001559 0.934400
0.998377 0.027806 0.942597
0.003914 0.247914 0.932517
0.185031 0.243526 0.932861
0.481452 0.236888 0.934718
0.736762 0.241456 0.933485
0.939619 0.306475 0.937967
0.996893 0.424126 0.930988
0.000008 0.561568 0.919176
0.000042 0.555593 0.927744
0.357760 0.532737 0.929123
0.705810 0.560013 0.928686
0.907784 0.617437 0.918897
0.999169 0.683890 0.919137
0.251436 0.825859 0.913568
0.342394 0.822612 0.910048
0.516296 0.814122 0.911175
0.704949 0.810218 0.907578
0.882510 0.822751 0.909747
0.988926 0.851695 0.917545
0.662393 0.960666 0.909726
0.680564 0.962934 0.908180
0.736259 0.960658 0.906673
0.813262 0.964487 0.912808
0.908948 0.960690 0.908196
0.999999 0.968625 0.917569
