example_ofxGpuLutCube/bin/data/ofxGpuLutCube/LUT/C42 (deep soft violet fade).cube
LUT_3D_SIZE 16
0.101961 0.094118 0.137255
0.101961 0.094118 0.137255
0.094118 0.094118 0.133333
0.100392 0.092549 0.135686
0.116078 0.094902 0.133333
0.141176 0.094118 0.141176
0.198431 0.084706 0.145098
0.265098 0.061961 0.152941
0.337255 0.018823 0.156863
0.415686 0.000000 0.163137
0.505882 0.000000 0.168627
0.603137 0.000000 0.171765
0.711373 0.000000 0.164706
0.821961 0.000000 0.160784
0.922353 0.000000 0.160000
0.999961 0.003883 0.145098
0.098823 0.092549 0.133333
0.101804 0.101177 0.139137
0.098039 0.094274 0.133804
0.102588 0.094745 0.137882
0.116078 0.095530 0.141804
0.145882 0.090980 0.141960
0.206275 0.082353 0.145882
0.264784 0.059608 0.151059
0.341490 0.016471 0.157647
0.428863 0.000000 0.156392
0.519216 0.000000 0.156863
0.617098 0.000628 0.163294
0.725019 0.000000 0.158745
0.834824 0.000000 0.159529
0.932863 0.000157 0.156549
0.999961 0.000000 0.142768
0.103529 0.095686 0.138823
0.099608 0.096471 0.137255
0.102588 0.094745 0.137882
0.103686 0.097098 0.139608
0.124235 0.094432 0.141490
0.160784 0.090196 0.146667
0.218510 0.080627 0.148549
0.294745 0.055373 0.154667
0.376314 0.015530 0.152314
0.459137 0.002353 0.157177
0.549804 0.000000 0.159216
0.642981 0.003608 0.160784
0.754510 0.000000 0.156549
0.852863 0.000941 0.144628
0.945569 0.000471 0.131451
0.995302 0.003883 0.140321
0.099608 0.106667 0.140392
0.093647 0.108235 0.142117
0.093647 0.110118 0.138353
0.107294 0.110588 0.136784
0.145098 0.105725 0.139137
0.190588 0.103530 0.140392
0.266667 0.098196 0.147922
0.338824 0.079059 0.144627
0.422745 0.057098 0.145255
0.504471 0.017726 0.149020
0.592941 0.002353 0.142745
0.688785 0.000000 0.144784
0.788235 0.000000 0.138196
0.882510 0.002981 0.124706
0.970353 0.000000 0.123608
1.000000 0.054722 0.108267
0.065098 0.146667 0.140392
0.055529 0.146510 0.137098
0.064627 0.149019 0.131451
0.097569 0.153726 0.141333
0.148549 0.152000 0.144314
0.200000 0.154510 0.141176
0.290040 0.155137 0.138824
0.378039 0.152157 0.142588
0.458510 0.146353 0.139294
0.549333 0.139608 0.135059
0.629020 0.134117 0.132549
0.724392 0.126274 0.136314
0.821961 0.131922 0.121255
0.906353 0.145568 0.107294
0.983059 0.175059 0.103373
1.000000 0.212471 0.091788
0.003922 0.211765 0.141176
0.000000 0.215686 0.133333
0.023529 0.219608 0.136470
0.089412 0.219608 0.138823
0.151372 0.219608 0.144314
0.219608 0.215686 0.137255
0.286275 0.223529 0.138823
0.381961 0.231373 0.130980
0.481569 0.239216 0.123137
0.594510 0.247059 0.110588
0.674510 0.250980 0.109804
0.765490 0.262745 0.094118
0.852549 0.270588 0.083137
0.930981 0.280784 0.078431
0.991373 0.301177 0.071372
1.000000 0.325412 0.082314
0.000000 0.294118 0.128628
0.000157 0.297412 0.125647
0.000000 0.296314 0.123765
0.081569 0.299608 0.130980
0.165490 0.301961 0.127216
0.236078 0.298824 0.125490
0.298981 0.300549 0.124863
0.376784 0.298980 0.125961
0.471373 0.312157 0.115921
0.577725 0.333020 0.094431
0.703529 0.352941 0.073726
0.809883 0.377255 0.028863
0.889882 0.382275 0.031216
0.957961 0.388235 0.028393
0.994980 0.407843 0.029647
0.999969 0.426604 0.046964
0.000000 0.380392 0.110588
0.001255 0.386353 0.109490
0.002823 0.384627 0.107451
0.078902 0.386824 0.101647
0.172235 0.391059 0.107294
0.254902 0.384314 0.108235
0.329412 0.385725 0.116392
0.398902 0.381804 0.111216
0.468706 0.377098 0.114353
0.567843 0.394980 0.098823
0.678431 0.421961 0.071373
0.799059 0.452863 0.018980
0.896941 0.479059 0.000941
0.976627 0.498039 0.000000
0.998117 0.506667 0.000000
0.997647 0.518384 0.006251
0.000000 0.475295 0.087843
0.000000 0.478902 0.082039
0.001412 0.475451 0.089412
0.075294 0.482353 0.083294
0.186667 0.482353 0.087843
0.279216 0.480000 0.093333
0.349961 0.473255 0.087686
0.426667 0.473412 0.095529
0.497255 0.469647 0.097569
0.568314 0.463216 0.093804
0.660392 0.483922 0.076863
0.779922 0.520314 0.011294
0.879216 0.547451 0.000000
0.962980 0.575530 0.000000
1.000000 0.593255 0.005804
0.998447 0.609396 0.002353
0.000000 0.571765 0.054118
0.000000 0.575686 0.047373
0.001255 0.573177 0.046275
0.108706 0.578039 0.053333
0.218823 0.581490 0.043294
0.311372 0.575686 0.039216
0.384784 0.574902 0.045804
0.461647 0.573647 0.052392
0.536157 0.568157 0.058824
0.608627 0.560784 0.058039
0.671373 0.560000 0.070588
0.754824 0.578667 0.030588
0.858039 0.608471 0.000314
0.945255 0.633726 0.003765
0.997333 0.658353 0.001412
0.996894 0.679177 0.003145
0.003922 0.670588 0.007843
0.000000 0.670588 0.000000
0.050980 0.670588 0.000000
0.172549 0.672941 0.000000
0.263530 0.674510 0.000000
0.352941 0.674510 0.000000
0.431373 0.671372 0.000000
0.509804 0.672941 0.002353
0.574118 0.666667 0.001569
0.650980 0.659608 0.008627
0.709804 0.658824 0.007843
0.768628 0.650980 0.017255
0.840785 0.659608 0.010196
0.925490 0.694902 0.006275
0.990588 0.716078 0.000000
1.000000 0.737216 0.082157
0.080784 0.756078 0.000000
0.130039 0.753098 0.000157
0.187922 0.756078 0.000314
0.254274 0.755294 0.000471
0.333333 0.756863 0.000000
0.403137 0.759216 0.000000
0.474039 0.756863 0.003138
0.544784 0.754353 0.001255
0.610824 0.749961 0.000000
0.681255 0.744157 0.000628
0.742745 0.741961 0.000784
0.803451 0.736470 0.011294
0.851137 0.732863 0.015843
0.908706 0.737098 0.022588
0.975843 0.758275 0.058824
0.996109 0.781921 0.134000
0.254117 0.825882 0.003137
0.282667 0.821961 0.008157
0.312471 0.821333 0.010353
0.359059 0.823373 0.012706
0.409883 0.825255 0.017569
0.473725 0.825882 0.035294
0.533177 0.825098 0.044863
0.594824 0.821804 0.056471
0.656628 0.820392 0.069804
0.713412 0.813804 0.074039
0.775686 0.812549 0.085490
0.824628 0.810510 0.095843
0.876549 0.802980 0.098353
0.920941 0.800000 0.107137
0.967058 0.802353 0.127215
0.997670 0.822682 0.194392
0.393725 0.875294 0.134902
0.405961 0.877490 0.131294
0.423059 0.874824 0.137883
0.456784 0.877647 0.139137
0.497255 0.874823 0.146039
0.550588 0.870588 0.165491
0.598275 0.872471 0.167373
0.650980 0.871373 0.176941
0.705725 0.870432 0.182118
0.757647 0.863530 0.187451
0.803922 0.863530 0.191373
0.854902 0.863216 0.205333
0.897569 0.855059 0.206745
0.937725 0.858039 0.226040
0.966745 0.853334 0.229647
0.999976 0.858000 0.257169
0.527059 0.909020 0.268235
0.533490 0.914196 0.272784
0.547137 0.910274 0.267608
0.574588 0.910431 0.277020
0.602667 0.914039 0.279059
0.636079 0.912156 0.289412
0.683451 0.907765 0.297882
0.720000 0.908235 0.309804
0.763921 0.905882 0.321569
0.804706 0.903529 0.325490
0.845490 0.901177 0.327843
0.888941 0.898981 0.340549
0.918117 0.899137 0.348392
0.952000 0.898824 0.365961
0.973177 0.896314 0.377098
0.999992 0.901169 0.389011
0.635020 0.952823 0.415255
0.639757 0.955153 0.418400
0.648431 0.950471 0.409020
0.666494 0.948918 0.423059
0.686095 0.952039 0.424698
0.709686 0.952863 0.431020
0.745741 0.948934 0.450517
0.777098 0.946573 0.459922
0.809302 0.950471 0.464722
0.840706 0.951208 0.477960
0.870588 0.944980 0.489725
0.900384 0.948910 0.502259
0.920839 0.950455 0.510941
0.957561 0.951231 0.523498
0.980392 0.952823 0.538416
1.000000 0.956745 0.572000
0.098823 0.097255 0.137255
0.096314 0.093490 0.134117
0.099921 0.096784 0.137569
0.101961 0.094745 0.137569
0.108863 0.097882 0.141019
0.145882 0.090980 0.148236
0.199215 0.082196 0.150118
0.272628 0.056157 0.158902
0.339294 0.016784 0.161569
0.424314 0.000628 0.161255
0.510588 0.000000 0.160000
0.606902 0.003138 0.157647
0.713726 0.000784 0.159216
0.828079 0.000471 0.160470
0.921568 0.000784 0.149961
0.999969 0.000000 0.150620
0.103843 0.098510 0.137882
0.098792 0.097537 0.136126
0.099043 0.095310 0.133208
0.103937 0.095373 0.137882
0.111781 0.097380 0.140266
0.154196 0.091451 0.142431
0.205208 0.080816 0.148768
0.273098 0.058573 0.153443
0.350494 0.014306 0.157710
0.435734 0.000251 0.158024
0.529883 0.000000 0.159372
0.622588 0.003640 0.161192
0.726682 0.000000 0.156141
0.838777 0.000000 0.154008
0.930447 0.000502 0.146604
0.999961 0.000777 0.141992
0.104314 0.096471 0.139608
0.099765 0.096314 0.137255
0.099294 0.097788 0.137129
0.104031 0.095310 0.137788
0.122667 0.092863 0.142117
0.161098 0.090510 0.142902
0.226541 0.080941 0.151718
0.302055 0.057977 0.149961
0.383874 0.018667 0.153224
0.469427 0.000439 0.153004
0.559372 0.001883 0.154981
0.650730 0.001506 0.155890
0.758055 0.000282 0.149616
0.859828 0.000000 0.145004
0.953161 0.000000 0.140109
0.997821 0.003572 0.131314
0.097726 0.105255 0.139608
0.096596 0.104878 0.141490
0.095467 0.107608 0.135498
0.107106 0.110117 0.135278
0.145977 0.106729 0.139011
0.191059 0.108706 0.139294
0.264628 0.101051 0.141553
0.343561 0.087435 0.143561
0.423655 0.066667 0.144941
0.506918 0.034259 0.147890
0.592470 0.007216 0.144941
0.689349 0.000000 0.140737
0.789710 0.001318 0.135090
0.879906 0.000753 0.129192
0.969004 0.001506 0.118212
0.999987 0.051608 0.116881
0.057882 0.149176 0.139764
0.065600 0.146165 0.139890
0.079027 0.148047 0.142023
0.109364 0.150745 0.150086
0.150086 0.153098 0.137788
0.210196 0.155294 0.145098
0.288816 0.159404 0.141521
0.379890 0.160596 0.140925
0.461082 0.152125 0.137192
0.547576 0.147733 0.133678
0.633098 0.141020 0.131608
0.727341 0.136941 0.126557
0.818824 0.145506 0.120188
0.908235 0.156078 0.112941
0.979702 0.178353 0.112627
0.997490 0.208254 0.110402
0.000784 0.211765 0.136471
0.002353 0.214902 0.134117
0.044392 0.217412 0.139765
0.102118 0.220079 0.135372
0.158431 0.218824 0.143059
0.223529 0.219608 0.141176
0.290353 0.219765 0.140549
0.381961 0.231373 0.131922
0.480471 0.240000 0.128627
0.595294 0.253647 0.107294
0.681569 0.251764 0.107451
0.767686 0.261333 0.102902
0.852549 0.266196 0.100863
0.929098 0.274981 0.093490
0.997333 0.293334 0.101804
0.993788 0.323819 0.097216
0.000628 0.296000 0.126118
0.000659 0.297914 0.126274
0.005020 0.300016 0.128847
0.094117 0.302682 0.123106
0.169569 0.303812 0.133678
0.238117 0.299294 0.126745
0.310526 0.300016 0.134212
0.385663 0.296408 0.133710
0.471373 0.311623 0.121475
0.582870 0.330761 0.105098
0.700706 0.356863 0.093020
0.810416 0.376094 0.062118
0.889318 0.379828 0.061647
0.952627 0.387200 0.064878
0.998996 0.400659 0.068298
1.000000 0.420980 0.075872
0.001569 0.382902 0.118275
0.001255 0.388706 0.118902
0.000188 0.387200 0.122165
0.073819 0.389302 0.117396
0.176157 0.392314 0.123169
0.256784 0.388549 0.119529
0.326588 0.388612 0.125616
0.401349 0.382212 0.129380
0.473976 0.378259 0.131106
0.566808 0.395200 0.109929
0.687216 0.425412 0.095059
0.806463 0.450510 0.046180
0.902369 0.479404 0.005773
0.976062 0.495875 0.004079
1.000000 0.505631 0.012392
0.999995 0.514173 0.046709
0.001883 0.471059 0.103686
0.000000 0.477585 0.102588
0.000188 0.477930 0.103027
0.067984 0.483043 0.105035
0.188267 0.482416 0.105098
0.277333 0.481255 0.106666
0.353192 0.476330 0.105224
0.428455 0.475890 0.107984
0.499232 0.468486 0.113098
0.566902 0.467043 0.115325
0.666353 0.486902 0.095843
0.780424 0.518902 0.050666
0.881506 0.547263 0.004925
0.962227 0.575655 0.000941
1.000000 0.596863 0.000063
1.000000 0.609063 0.022149
0.000000 0.571765 0.072314
0.000000 0.576690 0.075796
0.001004 0.576188 0.071090
0.103498 0.578604 0.077804
0.219231 0.577098 0.071216
0.308863 0.579451 0.071216
0.389961 0.576533 0.081819
0.466510 0.572989 0.077459
0.537977 0.568314 0.082196
0.605773 0.564423 0.085271
0.670745 0.560000 0.084706
0.757584 0.579733 0.060455
0.861961 0.607278 0.009161
0.944000 0.634730 0.001945
0.998588 0.657224 0.000628
0.994254 0.680394 0.038786
0.000000 0.670588 0.022745
0.000000 0.670745 0.022588
0.044236 0.674196 0.013176
0.172549 0.674824 0.021020
0.260392 0.677647 0.015686
0.352941 0.677647 0.029020
0.424941 0.677960 0.024941
0.505098 0.671216 0.029804
0.574902 0.666981 0.036863
0.644079 0.661490 0.048000
0.707451 0.656471 0.046274
0.772392 0.654745 0.056941
0.843137 0.664314 0.037020
0.924392 0.691295 0.010353
0.990588 0.715294 0.038588
0.993757 0.732517 0.111184
0.070746 0.756235 0.000157
0.129067 0.755200 0.001694
0.187859 0.756455 0.000627
0.256847 0.754102 0.002133
0.328439 0.759341 0.003043
0.405647 0.760000 0.005020
0.477082 0.759969 0.012768
0.545380 0.754321 0.018792
0.611639 0.749239 0.024031
0.683138 0.744878 0.029521
0.743372 0.741020 0.039059
0.798996 0.738259 0.052768
0.853239 0.733459 0.053208
0.910682 0.737694 0.056000
0.977129 0.761945 0.091420
0.997509 0.781735 0.151884
0.253647 0.827137 0.042510
0.280502 0.825004 0.049443
0.307043 0.825694 0.053647
0.356236 0.824941 0.058573
0.408879 0.824973 0.071216
0.469490 0.826039 0.079530
0.535121 0.826573 0.091388
0.600251 0.822432 0.092926
0.659200 0.817286 0.100078
0.715388 0.817098 0.106196
0.774117 0.812549 0.108392
0.828267 0.807498 0.113537
0.878337 0.804549 0.123451
0.926745 0.803765 0.134683
0.968408 0.804298 0.150400
0.998268 0.823001 0.210300
0.394981 0.875451 0.152471
0.405396 0.876925 0.156926
0.426133 0.877522 0.159435
0.454588 0.879843 0.162384
0.498134 0.877020 0.168157
0.545882 0.874039 0.180549
0.603294 0.872094 0.188863
0.654432 0.873537 0.195357
0.706572 0.869616 0.197835
0.761819 0.864157 0.207310
0.807059 0.864000 0.209726
0.858165 0.858698 0.215906
0.899608 0.855435 0.225757
0.937851 0.858008 0.234698
0.968282 0.854243 0.246055
0.999349 0.852069 0.273940
0.532392 0.914353 0.286118
0.533929 0.913945 0.282730
0.553443 0.914729 0.288596
0.570008 0.911843 0.291043
0.604675 0.912251 0.296973
0.634353 0.908863 0.302902
0.678337 0.908612 0.310023
0.721004 0.909082 0.323326
0.761568 0.904564 0.326557
0.804424 0.904219 0.335686
0.849255 0.901020 0.340235
0.885553 0.899200 0.351812
0.918651 0.897474 0.359372
0.951122 0.899734 0.368879
0.972643 0.901365 0.387262
1.000000 0.896502 0.406665
0.634259 0.949718 0.419161
0.644138 0.950217 0.420530
0.650642 0.948798 0.423034
0.668198 0.946709 0.428807
0.687655 0.952792 0.437221
0.710416 0.949687 0.439616
0.746199 0.948909 0.454960
0.774143 0.950452 0.465762
0.809597 0.949197 0.474454
0.834500 0.944405 0.478880
0.870549 0.952823 0.493687
0.900190 0.945570 0.505459
0.923652 0.947048 0.515396
0.953411 0.954016 0.534011
0.983476 0.952028 0.553798
0.996117 0.956784 0.572001
0.101961 0.096471 0.132549
0.100078 0.096941 0.133020
0.102588 0.094745 0.137882
0.099451 0.098039 0.130667
0.115608 0.094432 0.136000
0.149804 0.091765 0.147451
0.205804 0.081882 0.145412
0.270588 0.055686 0.153726
0.350431 0.013490 0.155608
0.434196 0.001569 0.162667
0.529412 0.000000 0.160784
0.624627 0.000000 0.159529
0.728471 0.000000 0.159059
0.831843 0.000941 0.161412
0.925177 0.000000 0.167216
0.999898 0.000000 0.172479
0.101177 0.094902 0.137255
0.100863 0.095592 0.136502
0.099482 0.097537 0.131922
0.107200 0.096502 0.139263
0.115106 0.094181 0.140455
0.157177 0.092863 0.144627
0.206745 0.079027 0.144565
0.280345 0.055655 0.153506
0.363200 0.014745 0.154071
0.453365 0.000690 0.154165
0.541960 0.000000 0.156079
0.631372 0.001098 0.160282
0.734181 0.002636 0.157835
0.839592 0.000188 0.160784
0.929757 0.000000 0.162008
0.999947 0.000000 0.166268
0.098980 0.094274 0.135843
0.101804 0.095216 0.137725
0.101773 0.098761 0.139482
0.103153 0.094369 0.137506
0.129537 0.094714 0.141396
0.174118 0.094432 0.142117
0.237177 0.078274 0.144377
0.315859 0.060988 0.147043
0.392000 0.027545 0.150463
0.478808 0.001130 0.152753
0.563765 0.001412 0.145255
0.658039 0.001224 0.151216
0.757710 0.000377 0.155796
0.858824 0.001412 0.155702
0.948110 0.000282 0.156392
0.999986 0.001553 0.155619
0.092549 0.105255 0.135529
0.097474 0.106980 0.138008
0.098384 0.109019 0.140204
0.111310 0.110400 0.136219
0.146918 0.108235 0.139012
0.198902 0.112470 0.145098
0.269051 0.106228 0.143874
0.347514 0.095906 0.143404
0.429992 0.080000 0.149051
0.513726 0.052894 0.143843
0.596706 0.014588 0.145568
0.692455 0.000753 0.148361
0.789428 0.000000 0.146070
0.878369 0.001506 0.145914
0.968031 0.000000 0.142933
0.999976 0.029186 0.142260
0.067294 0.149804 0.141647
0.072439 0.147043 0.142180
0.082604 0.147232 0.135184
0.113694 0.150023 0.145255
0.153129 0.151121 0.144345
0.212235 0.155765 0.146667
0.291639 0.158368 0.144690
0.380549 0.161130 0.144659
0.466573 0.154416 0.142557
0.549490 0.150055 0.142996
0.629647 0.140549 0.141176
0.726337 0.135529 0.142557
0.815780 0.137098 0.137976
0.903686 0.144565 0.142368
0.979922 0.163827 0.136596
0.999379 0.198973 0.138490
0.001569 0.210196 0.152157
0.005961 0.219137 0.141176
0.053020 0.215059 0.144627
0.105098 0.219137 0.145255
0.163451 0.218824 0.149020
0.223529 0.219608 0.144314
0.292863 0.217725 0.152157
0.383529 0.237647 0.143059
0.486432 0.242510 0.138039
0.593726 0.249725 0.136157
0.676863 0.249412 0.130980
0.768314 0.253333 0.130980
0.850353 0.259765 0.130980
0.928000 0.269804 0.126589
0.995137 0.285333 0.124549
0.995341 0.317522 0.130941
0.001569 0.295843 0.146980
0.000000 0.297725 0.147294
0.003514 0.298228 0.148675
0.092204 0.303059 0.148768
0.168533 0.302400 0.152282
0.241569 0.301490 0.149961
0.310965 0.301584 0.151906
0.383121 0.297569 0.149961
0.478808 0.314823 0.142463
0.588298 0.332769 0.127059
0.709647 0.351216 0.118431
0.810918 0.369412 0.105474
0.887624 0.372298 0.103467
0.954792 0.382275 0.104596
0.995670 0.397020 0.104220
0.999526 0.410789 0.118867
0.001569 0.385255 0.137569
0.002479 0.387420 0.143812
0.001318 0.389051 0.147075
0.068047 0.390494 0.145349
0.174149 0.389522 0.147577
0.258353 0.388706 0.145255
0.331482 0.389584 0.150431
0.404737 0.382055 0.149271
0.476549 0.380016 0.149490
0.573365 0.398024 0.138133
0.681412 0.425882 0.114039
0.806557 0.452329 0.088659
0.905725 0.476643 0.064502
0.976502 0.488031 0.061145
0.997741 0.499953 0.077051
1.000000 0.511807 0.098775
0.000941 0.476706 0.133176
0.000188 0.479279 0.131357
0.000847 0.480502 0.136533
0.063592 0.482824 0.133239
0.189333 0.482698 0.135372
0.278745 0.479373 0.130510
0.355922 0.480816 0.135655
0.430086 0.474824 0.139451
0.501333 0.471812 0.138698
0.571169 0.466510 0.139106
0.670745 0.487529 0.121569
0.781647 0.522416 0.088502
0.886494 0.548988 0.062149
0.963545 0.573584 0.041192
1.000000 0.593475 0.047780
1.000000 0.607793 0.085592
0.000000 0.573961 0.114039
0.000000 0.575404 0.114039
0.000000 0.580612 0.109521
0.097004 0.580361 0.112219
0.214494 0.583216 0.110620
0.310902 0.581804 0.113255
0.386510 0.579545 0.115326
0.466259 0.575498 0.116455
0.537161 0.571169 0.117521
0.608188 0.565584 0.118619
0.674039 0.559686 0.115608
0.764172 0.580455 0.102651
0.865004 0.610510 0.072753
0.946008 0.637177 0.056471
0.999749 0.656941 0.065663
0.999987 0.677258 0.105112
0.002353 0.670588 0.083137
0.000000 0.674824 0.080314
0.023529 0.674980 0.080471
0.161412 0.677020 0.085020
0.262745 0.679215 0.087059
0.349020 0.676078 0.078431
0.429019 0.677647 0.088157
0.505882 0.673882 0.088314
0.575686 0.669020 0.090196
0.645333 0.664157 0.093490
0.707451 0.658824 0.094118
0.776628 0.652549 0.093176
0.843137 0.664314 0.088000
0.928627 0.694902 0.081412
0.989961 0.715137 0.099294
0.992173 0.735639 0.141137
0.049412 0.751686 0.068235
0.114008 0.754855 0.068361
0.180518 0.754918 0.068330
0.249945 0.759341 0.070839
0.327153 0.756612 0.074730
0.403922 0.760000 0.078902
0.476172 0.758463 0.084674
0.547231 0.751153 0.088063
0.614055 0.753537 0.092518
0.683985 0.743969 0.090447
0.735686 0.741177 0.093804
0.800377 0.737600 0.096973
0.856847 0.733459 0.102776
0.907702 0.738416 0.110400
0.975686 0.760502 0.131577
0.999956 0.784719 0.184974
0.246902 0.824000 0.104000
0.270149 0.823875 0.108235
0.302306 0.824471 0.108957
0.350651 0.829020 0.112659
0.405521 0.825694 0.122259
0.469804 0.827451 0.126588
0.534494 0.826698 0.133773
0.597177 0.822714 0.138604
0.660486 0.820737 0.142055
0.716706 0.815843 0.145725
0.776000 0.814117 0.148863
0.826322 0.807592 0.153694
0.877239 0.805678 0.158871
0.923922 0.801412 0.165898
0.964486 0.805773 0.175090
0.999372 0.825360 0.231895
0.383686 0.877647 0.187137
0.402008 0.877773 0.186761
0.421082 0.877271 0.190620
0.452424 0.879247 0.195263
0.497600 0.876706 0.194384
0.543529 0.873725 0.209569
0.601569 0.873224 0.221396
0.652580 0.873537 0.226604
0.704533 0.870557 0.229333
0.759247 0.864659 0.234259
0.807059 0.864941 0.234510
0.854306 0.860141 0.243733
0.900078 0.855686 0.250447
0.941647 0.853930 0.254651
0.964706 0.854683 0.265286
0.999324 0.858618 0.294521
0.523764 0.912627 0.302745
0.533020 0.916392 0.303561
0.550212 0.913098 0.304627
0.572580 0.911592 0.309051
0.598745 0.912031 0.312376
0.634824 0.912470 0.322823
0.678055 0.908925 0.332047
0.719498 0.908204 0.342181
0.764925 0.906070 0.348518
0.804047 0.905757 0.356957
0.844235 0.903059 0.360157
0.886463 0.898604 0.368282
0.917804 0.900675 0.373428
0.949678 0.898353 0.386259
0.971765 0.899608 0.399874
0.998102 0.900690 0.413449
0.633506 0.951271 0.437286
0.639796 0.952668 0.439018
0.651374 0.949878 0.435729
0.669740 0.949873 0.447591
0.686850 0.948129 0.452919
0.709647 0.950471 0.455333
0.738736 0.950477 0.465680
0.774963 0.950629 0.478256
0.807897 0.949213 0.486598
0.838389 0.945478 0.496877
0.870486 0.948887 0.505482
0.896929 0.950145 0.515360
0.925467 0.950479 0.529769
0.948369 0.954191 0.537253
0.983898 0.952525 0.559271
0.996156 0.956761 0.576870
0.098039 0.095686 0.152157
0.087843 0.095686 0.145098
0.096157 0.096628 0.147451
0.091608 0.097569 0.149804
0.119687 0.095843 0.154981
0.156863 0.090196 0.157647
0.216784 0.075921 0.162824
0.280784 0.050039 0.173961
0.350117 0.018980 0.175843
0.424470 0.003608 0.182902
0.513725 0.002353 0.187451
0.607373 0.000000 0.191216
0.710588 0.000000 0.193568
0.816314 0.000941 0.193882
0.909333 0.002353 0.195608
0.996000 0.000000 0.200745
0.097255 0.094589 0.151686
0.090353 0.094683 0.150808
0.096721 0.095906 0.152220
0.099357 0.092988 0.153726
0.119687 0.095843 0.156173
0.161255 0.088314 0.160471
0.218353 0.075765 0.168784
0.284706 0.055592 0.176596
0.355294 0.029051 0.180486
0.439090 0.000345 0.184063
0.529568 0.000000 0.190431
0.618353 0.000063 0.190839
0.721694 0.000753 0.194541
0.825349 0.000188 0.194227
0.918337 0.000565 0.190839
0.996473 0.000781 0.200595
0.087373 0.096627 0.155137
0.093459 0.096314 0.154416
0.092831 0.096251 0.159561
0.105631 0.096753 0.157867
0.127090 0.094777 0.164894
0.172235 0.091765 0.164392
0.227576 0.084581 0.173490
0.300392 0.068392 0.179357
0.380957 0.038808 0.179169
0.465129 0.001129 0.183624
0.553569 0.001412 0.188863
0.642227 0.000816 0.189992
0.745569 0.000000 0.189333
0.844894 0.000000 0.192094
0.938541 0.000000 0.190526
0.997774 0.002951 0.197175
0.086118 0.104314 0.162353
0.080439 0.105129 0.160094
0.088283 0.106478 0.165270
0.104659 0.108078 0.160721
0.144408 0.108518 0.163859
0.196863 0.107608 0.169412
0.267796 0.104188 0.173020
0.345129 0.091232 0.174149
0.423843 0.074635 0.174745
0.505067 0.041976 0.175623
0.592000 0.005647 0.180236
0.680628 0.000000 0.182432
0.780643 0.000000 0.180894
0.869114 0.000251 0.179796
0.956047 0.000000 0.186008
0.997016 0.004838 0.189151
0.045490 0.147137 0.170510
0.054149 0.148016 0.173176
0.070243 0.151404 0.168627
0.107106 0.151373 0.177161
0.154039 0.151341 0.174181
0.216470 0.154039 0.173333
0.299639 0.155671 0.169820
0.379200 0.152471 0.174525
0.459263 0.148173 0.173992
0.540173 0.138886 0.174212
0.627137 0.129882 0.175530
0.721067 0.117145 0.177412
0.812737 0.112753 0.172581
0.900769 0.118714 0.177694
0.980957 0.139639 0.175028
0.996273 0.173558 0.177380
0.003922 0.213333 0.169412
0.002824 0.217569 0.177412
0.030745 0.218667 0.174275
0.098824 0.219294 0.182274
0.160784 0.222274 0.182902
0.229804 0.219608 0.179608
0.298824 0.223529 0.176471
0.396235 0.232314 0.170980
0.498196 0.239216 0.170824
0.589804 0.237176 0.165177
0.672157 0.234510 0.170196
0.763921 0.240471 0.172392
0.847059 0.242353 0.164862
0.925333 0.254902 0.167059
0.990588 0.270902 0.166431
1.000000 0.295600 0.175623
0.001883 0.295686 0.179922
0.003012 0.299357 0.181804
0.001443 0.302086 0.182714
0.079937 0.304314 0.181867
0.167529 0.305412 0.183498
0.242667 0.304784 0.179137
0.313976 0.305192 0.182369
0.390306 0.301992 0.178855
0.490478 0.316549 0.175937
0.605114 0.331765 0.164204
0.719530 0.351216 0.158118
0.808063 0.356298 0.148455
0.880784 0.361757 0.145945
0.949553 0.369788 0.152878
0.997302 0.384973 0.155985
1.000000 0.403871 0.166226
0.002824 0.386667 0.177882
0.000628 0.389553 0.178384
0.003639 0.388612 0.179326
0.056565 0.392439 0.179451
0.172361 0.393412 0.178604
0.258510 0.393098 0.178823
0.335122 0.390400 0.182306
0.411200 0.385977 0.181490
