example_ofxGpuLutCube/bin/data/ofxGpuLutCube/LUT/C43 (dusty soft violet fade).cube
LUT_3D_SIZE 6
0.254902 0.192157 0.231373
0.249412 0.198431 0.235294
0.283137 0.196078 0.241568
0.392941 0.172549 0.238432
0.564706 0.150588 0.240784
0.752902 0.168666 0.243176
0.252549 0.196863 0.233726
0.256471 0.193725 0.234510
0.298510 0.196549 0.238745
0.397176 0.194823 0.242666
0.570980 0.205961 0.237804
0.765404 0.236816 0.237679
0.267451 0.232157 0.242353
0.278588 0.232157 0.245961
0.320000 0.231373 0.242510
0.423372 0.275294 0.233255
0.588863 0.311843 0.227451
0.785772 0.361506 0.245436
0.327059 0.341176 0.245490
0.345412 0.340078 0.242353
0.405177 0.344314 0.234196
0.496157 0.334745 0.240941
0.637177 0.402667 0.234510
0.802989 0.516024 0.251678
0.432941 0.523921 0.276078
0.452235 0.521568 0.275294
0.510902 0.521568 0.270588
0.612079 0.529726 0.266040
0.710431 0.504314 0.275137
0.835992 0.576385 0.330110
0.595921 0.721491 0.427333
0.611616 0.719898 0.434361
0.655530 0.722220 0.443600
0.728526 0.729255 0.454580
0.825035 0.733137 0.463146
0.878509 0.705647 0.513333
0.256471 0.193725 0.234510
0.254902 0.192157 0.231373
0.287687 0.196078 0.235765
0.398118 0.177255 0.236863
0.570039 0.177883 0.239843
0.768486 0.189765 0.252470
0.257883 0.195137 0.234980
0.258824 0.196078 0.235294
0.299639 0.201443 0.242133
0.406118 0.208314 0.242008
0.577820 0.220706 0.240596
0.772916 0.241539 0.247042
0.273255 0.230118 0.245804
0.278902 0.229584 0.239184
0.324298 0.232659 0.243294
0.429553 0.280408 0.241224
0.589929 0.314165 0.238337
0.784974 0.355244 0.252068
0.328157 0.337098 0.257098
0.341459 0.334086 0.253678
0.404988 0.341678 0.245114
0.494808 0.334933 0.257977
0.630337 0.406557 0.253176
0.802523 0.508977 0.277109
0.432000 0.519059 0.295373
0.444863 0.514353 0.293333
0.505380 0.517396 0.293114
0.610729 0.524925 0.294620
0.707576 0.501522 0.297474
0.835829 0.577015 0.344858
0.595921 0.722266 0.445239
0.603756 0.721403 0.446814
0.648496 0.724536 0.451541
0.725804 0.723482 0.467608
0.825019 0.731570 0.470240
0.882298 0.709514 0.529702
0.250980 0.196078 0.248628
0.254431 0.199529 0.252078
0.292392 0.195921 0.259451
0.405490 0.174588 0.272627
0.569883 0.139608 0.285334
0.771631 0.113655 0.298816
0.254588 0.199686 0.252235
0.266322 0.203263 0.255184
0.301428 0.198494 0.256314
0.412643 0.189113 0.273820
0.577223 0.173898 0.282447
0.774646 0.188817 0.298513
0.275451 0.230432 0.266824
0.283294 0.232314 0.266165
0.323294 0.240941 0.261804
0.425632 0.264282 0.272910
0.584690 0.288847 0.283859
0.787303 0.320790 0.315305
0.327216 0.334902 0.287216
0.343874 0.334118 0.289788
0.397741 0.339482 0.290980
0.490698 0.338071 0.296377
0.620988 0.416627 0.308518
0.805479 0.498759 0.346115
0.428078 0.515765 0.340549
0.443294 0.511592 0.337600
0.494212 0.514824 0.339984
0.600157 0.524486 0.340204
0.702871 0.502337 0.346384
0.831608 0.590980 0.393220
0.588816 0.726149 0.475051
0.603109 0.721447 0.477848
0.647504 0.724693 0.493864
0.718452 0.724758 0.491380
0.814805 0.732715 0.503997
0.879929 0.713490 0.557240
0.236078 0.199216 0.320000
0.256471 0.197647 0.323922
0.320471 0.187451 0.331137
0.410039 0.173490 0.336471
0.579765 0.148549 0.371451
0.770117 0.112917 0.394478
0.262745 0.203295 0.324235
0.280345 0.200627 0.319467
0.330416 0.200000 0.324957
0.414180 0.192000 0.331984
0.585788 0.178071 0.367717
0.784698 0.174299 0.405471
0.275294 0.246275 0.317333
0.293961 0.245553 0.322384
0.346133 0.247718 0.329882
0.442824 0.254933 0.341427
0.597553 0.259483 0.370102
0.793896 0.272786 0.399409
0.323921 0.344000 0.353569
0.342368 0.346761 0.352408
0.408188 0.357522 0.359874
0.490196 0.368408 0.363639
0.630996 0.412392 0.388549
0.815131 0.459732 0.427105
0.426196 0.519529 0.411608
0.439310 0.513443 0.406651
0.485396 0.519780 0.409914
0.578479 0.525428 0.416879
0.693930 0.514918 0.417412
0.825609 0.611686 0.463784
0.575530 0.726180 0.524588
0.583826 0.727573 0.527247
0.628656 0.729694 0.539228
0.697098 0.725379 0.549059
0.802980 0.733507 0.561481
0.876682 0.726031 0.609743
0.256471 0.193725 0.478431
0.294745 0.186823 0.480784
0.380706 0.168627 0.479216
0.487844 0.151686 0.477333
0.616314 0.134745 0.482196
0.793631 0.146635 0.510596
0.280000 0.201569 0.475922
0.306196 0.198745 0.476047
0.381522 0.193349 0.476047
0.492392 0.184188 0.475075
0.626416 0.178761 0.483263
0.794102 0.203920 0.515925
0.285334 0.272470 0.471843
0.316329 0.269208 0.469804
0.388455 0.269867 0.467545
0.496157 0.267765 0.469333
0.629490 0.274102 0.481255
0.805061 0.304458 0.519050
0.340235 0.391059 0.480784
0.360596 0.386071 0.476078
0.420957 0.386384 0.480251
0.520157 0.386824 0.483608
0.660455 0.405396 0.504941
0.824354 0.438562 0.538031
0.407373 0.538667 0.503372
0.421647 0.535373 0.499765
0.481851 0.538667 0.502369
0.577851 0.543623 0.515890
0.691388 0.561914 0.527749
0.820020 0.615462 0.568127
0.586455 0.726925 0.603027
0.595245 0.725990 0.605651
0.636030 0.724897 0.613172
0.697537 0.731429 0.631336
0.776999 0.737112 0.639042
0.859420 0.740980 0.665655
0.321451 0.180314 0.697882
0.359137 0.174079 0.701726
0.459514 0.156902 0.696321
0.590541 0.145820 0.695585
0.735577 0.147271 0.696267
0.874314 0.160666 0.693922
0.320729 0.214102 0.701011
0.362632 0.212506 0.701663
0.458940 0.208876 0.700083
0.597719 0.206491 0.702874
0.734991 0.210063 0.691614
0.872831 0.225796 0.691632
0.322275 0.316815 0.693953
0.365722 0.316012 0.696753
0.461732 0.316633 0.692254
0.593647 0.317104 0.699558
0.735389 0.321125 0.699384
0.872730 0.331678 0.693044
0.352957 0.463459 0.695545
0.381895 0.461900 0.693958
0.457199 0.452316 0.697357
0.589117 0.455572 0.698290
0.729981 0.457920 0.697388
0.862619 0.479114 0.693883
0.437514 0.621827 0.697043
0.459465 0.620290 0.700202
0.518471 0.617934 0.696745
0.606211 0.608999 0.696607
0.724759 0.607763 0.698665
0.839114 0.634362 0.708031
0.615254 0.756745 0.717411
0.630848 0.760572 0.717350
0.660039 0.759710 0.717404
0.711921 0.756667 0.724517
0.779483 0.756690 0.733083
0.847134 0.776468 0.760859
