example_ofxGpuLutCube/bin/data/ofxGpuLutCube/LUT/C43 (dusty soft violet fade).cube
LUT_3D_SIZE 16
0.254902 0.192157 0.231373
0.254902 0.192157 0.231373
0.254902 0.192157 0.231373
0.249412 0.198431 0.235294
0.254118 0.191373 0.230589
0.262745 0.196078 0.235294
0.283137 0.196078 0.241568
0.306667 0.193725 0.240784
0.340392 0.187451 0.239216
0.392941 0.172549 0.238432
0.443137 0.160784 0.239216
0.503530 0.157647 0.243921
0.564706 0.150588 0.240784
0.629020 0.156863 0.248627
0.698824 0.164706 0.243921
0.752902 0.168666 0.243176
0.254902 0.192157 0.232157
0.255530 0.192784 0.233412
0.254902 0.192157 0.232157
0.257098 0.194353 0.234353
0.261961 0.194823 0.235451
0.271372 0.192941 0.236078
0.286902 0.193412 0.242510
0.313882 0.193098 0.241726
0.347294 0.187921 0.241569
0.392470 0.172078 0.237961
0.445490 0.168627 0.239216
0.508078 0.160941 0.244392
0.570510 0.160314 0.243451
0.635137 0.168314 0.241412
0.705882 0.179608 0.245490
0.761482 0.185090 0.247859
0.256471 0.193725 0.232941
0.254902 0.192157 0.231373
0.258824 0.196078 0.236235
0.257255 0.194510 0.236079
0.262745 0.196078 0.235294
0.276078 0.194510 0.239216
0.295059 0.195607 0.246588
0.313882 0.191686 0.244549
0.348549 0.188235 0.243451
0.392941 0.178510 0.235294
0.451765 0.176471 0.247059
0.506353 0.175216 0.242510
0.565647 0.179922 0.242196
0.635451 0.185412 0.242196
0.704627 0.193255 0.242666
0.756008 0.204706 0.237687
0.252549 0.196863 0.233726
0.255373 0.192628 0.232157
0.257255 0.194510 0.235294
0.256471 0.193725 0.234510
0.264628 0.198118 0.237961
0.276863 0.198431 0.241569
0.298510 0.196549 0.238745
0.318275 0.197490 0.240157
0.355922 0.198431 0.238275
0.397176 0.194823 0.242666
0.457255 0.198431 0.245490
0.509961 0.200784 0.237647
0.570980 0.205961 0.237804
0.637334 0.214902 0.239216
0.707137 0.223843 0.241569
0.765404 0.236816 0.237679
0.255686 0.202353 0.238432
0.252392 0.199059 0.235137
0.254745 0.202824 0.239216
0.260392 0.200000 0.238432
0.266510 0.203138 0.242353
0.282353 0.203922 0.239216
0.295530 0.210353 0.238902
0.322039 0.212706 0.237961
0.362196 0.214431 0.237647
0.402824 0.218824 0.242823
0.454902 0.221960 0.238432
0.517333 0.231216 0.238117
0.572549 0.235294 0.236078
0.643294 0.247059 0.235608
0.708549 0.259608 0.237490
0.771623 0.272126 0.239153
0.258824 0.215686 0.247059
0.259608 0.208627 0.243921
0.262745 0.211765 0.239216
0.267451 0.211765 0.239216
0.274510 0.215686 0.243137
0.290196 0.215686 0.239216
0.302745 0.221177 0.238432
0.328627 0.229020 0.237647
0.371765 0.243137 0.237647
0.414117 0.243921 0.239216
0.462745 0.254902 0.231373
0.527843 0.263529 0.239216
0.582745 0.273725 0.232941
0.642353 0.286275 0.229020
0.711372 0.298039 0.236078
0.772471 0.313725 0.243098
0.267451 0.232157 0.242353
0.266667 0.225098 0.240000
0.267451 0.224313 0.240000
0.278588 0.232157 0.245961
0.287059 0.228863 0.238745
0.306666 0.232942 0.239216
0.320000 0.231373 0.242510
0.352157 0.236863 0.244078
0.380863 0.254588 0.236549
0.423372 0.275294 0.233255
0.478431 0.291765 0.235294
0.528471 0.304941 0.235294
0.588863 0.311843 0.227451
0.647373 0.331294 0.226980
0.721569 0.344000 0.234353
0.785772 0.361506 0.245436
0.282353 0.255686 0.241569
0.283922 0.252549 0.243137
0.285804 0.249726 0.242667
0.294118 0.255059 0.242510
0.303686 0.258039 0.239843
0.323922 0.258039 0.240784
0.345882 0.262745 0.237647
0.367843 0.256471 0.240941
0.403294 0.271529 0.237177
0.450196 0.287059 0.233726
0.493333 0.313725 0.237647
0.538980 0.344000 0.230902
0.595608 0.359843 0.224314
0.661961 0.377726 0.230432
0.725960 0.397961 0.223529
0.789710 0.412549 0.231381
0.301176 0.293333 0.243922
0.298510 0.287529 0.239687
0.301961 0.286275 0.240784
0.315922 0.292392 0.240628
0.329412 0.293490 0.242039
0.349804 0.297255 0.239216
0.375686 0.299294 0.241412
0.402196 0.298039 0.235138
0.426510 0.288471 0.239843
0.476706 0.302745 0.240000
0.512941 0.330196 0.231373
0.567843 0.356078 0.226667
0.611608 0.382588 0.225725
0.666824 0.418667 0.226510
0.731451 0.446431 0.224784
0.788125 0.461945 0.234502
0.327059 0.341176 0.245490
0.324549 0.332392 0.239843
0.329412 0.338039 0.236863
0.345412 0.340078 0.242353
0.359059 0.342118 0.238432
0.382745 0.343529 0.239216
0.405177 0.344314 0.234196
0.436079 0.347765 0.234039
0.470902 0.345098 0.234823
0.496157 0.334745 0.240941
0.543529 0.347451 0.241568
0.589804 0.376471 0.234824
0.637177 0.402667 0.234510
0.692392 0.439843 0.233098
0.748235 0.483138 0.244706
0.802989 0.516024 0.251678
0.356863 0.396078 0.250980
0.357647 0.389019 0.243921
0.364706 0.388235 0.247059
0.372549 0.388235 0.243137
0.388235 0.389804 0.240000
0.415686 0.396078 0.247059
0.433726 0.396078 0.242353
0.470588 0.401569 0.240000
0.505098 0.400000 0.241569
0.535686 0.400000 0.242353
0.564706 0.384314 0.243137
0.606275 0.393726 0.243921
0.657255 0.422745 0.248627
0.703530 0.459608 0.250196
0.764706 0.499608 0.261176
0.815568 0.541019 0.270549
0.389804 0.454117 0.259608
0.389333 0.451608 0.257098
0.402353 0.457255 0.261961
0.413961 0.458039 0.259608
0.426510 0.458667 0.258353
0.449412 0.458039 0.259608
0.474667 0.460706 0.256785
0.506196 0.459608 0.253019
0.544000 0.465098 0.253961
0.583686 0.471686 0.250980
0.614118 0.460392 0.251764
0.645333 0.443608 0.256157
0.684393 0.453804 0.260863
0.735216 0.483451 0.271686
0.788392 0.523294 0.284236
0.828157 0.565404 0.298761
0.432941 0.523921 0.276078
0.433725 0.520000 0.273725
0.440627 0.519059 0.276706
0.452235 0.521568 0.275294
0.464628 0.520470 0.276863
0.487059 0.525490 0.273725
0.510902 0.521568 0.270588
0.536314 0.523137 0.268863
0.571922 0.526745 0.270588
0.612079 0.529726 0.266040
0.658039 0.533333 0.265882
0.682510 0.520314 0.274510
0.710431 0.504314 0.275137
0.754823 0.506510 0.290040
0.799059 0.541176 0.303530
0.835992 0.576385 0.330110
0.485490 0.598431 0.312941
0.490039 0.597961 0.312470
0.496628 0.598589 0.312314
0.510745 0.602353 0.315294
0.519216 0.597647 0.315608
0.537255 0.600000 0.316863
0.559529 0.602353 0.315294
0.585255 0.600627 0.308863
0.621020 0.605333 0.314823
0.654118 0.605961 0.309333
0.694902 0.607059 0.309019
0.738823 0.612549 0.309020
0.764549 0.592941 0.306196
0.788392 0.575059 0.323137
0.822117 0.576470 0.341961
0.855584 0.602251 0.370094
0.530196 0.658823 0.351372
0.529725 0.651922 0.352628
0.531765 0.653333 0.355294
0.546824 0.656157 0.354196
0.558431 0.661961 0.360784
0.577255 0.659608 0.357647
0.598588 0.661020 0.356236
0.626039 0.663216 0.358117
0.656784 0.663843 0.358902
0.686118 0.666823 0.352627
0.720785 0.667451 0.358431
0.754353 0.669490 0.351059
0.794196 0.671059 0.358745
0.818353 0.654432 0.365176
0.843922 0.633569 0.381020
0.865867 0.625867 0.400769
0.595921 0.721491 0.427333
0.596706 0.722196 0.428039
0.601412 0.719059 0.436628
0.611616 0.719898 0.434361
0.619483 0.721444 0.436690
0.635176 0.721451 0.439059
0.655530 0.722220 0.443600
0.677451 0.726886 0.449090
0.702564 0.729255 0.445184
0.728526 0.729255 0.454580
0.760627 0.725372 0.454628
0.792863 0.726157 0.451553
0.825035 0.733137 0.463146
0.859467 0.726149 0.474894
0.869765 0.710439 0.489851
0.878509 0.705647 0.513333
0.254902 0.192157 0.231373
0.255059 0.192314 0.231530
0.256471 0.193725 0.232941
0.254902 0.192157 0.231844
0.258040 0.195294 0.234510
0.274510 0.196078 0.239216
0.283765 0.195451 0.241568
0.310745 0.193725 0.242353
0.345882 0.187451 0.243294
0.394353 0.173961 0.241098
0.450196 0.165490 0.239216
0.511530 0.161568 0.239686
0.571451 0.161255 0.242039
0.635294 0.165177 0.243451
0.705098 0.172549 0.248156
0.771616 0.181882 0.254055
0.253647 0.192784 0.232157
0.256659 0.193914 0.236424
0.255153 0.192408 0.231969
0.256847 0.194102 0.236455
0.261678 0.195294 0.234510
0.277019 0.198588 0.241725
0.287342 0.193161 0.242070
0.315513 0.193600 0.242792
0.350400 0.186510 0.242416
0.400565 0.174118 0.240125
0.451608 0.173177 0.237176
0.510777 0.168282 0.240627
0.574588 0.171231 0.243263
0.636424 0.173365 0.244894
0.708078 0.181804 0.241098
0.769637 0.191821 0.244212
0.258510 0.195764 0.238589
0.256220 0.193474 0.236298
0.251326 0.194227 0.235012
0.254400 0.193914 0.236110
0.262745 0.196110 0.235451
0.274510 0.196078 0.239216
0.289788 0.195357 0.241945
0.317710 0.192031 0.242792
0.351373 0.186729 0.242008
0.399686 0.179859 0.238024
0.452236 0.180863 0.240627
0.512345 0.182274 0.244925
0.570478 0.186165 0.241067
0.639059 0.191090 0.239937
0.708706 0.201537 0.242290
0.770855 0.208937 0.239994
0.254902 0.194510 0.234823
0.258134 0.195388 0.235859
0.255655 0.192910 0.232596
0.257255 0.194510 0.234196
0.265004 0.198431 0.237647
0.278588 0.199686 0.241882
0.293992 0.199937 0.244455
0.322196 0.202165 0.240690
0.358431 0.198431 0.238400
0.402636 0.200439 0.241977
0.454118 0.202353 0.242353
0.519592 0.205459 0.241945
0.577067 0.211420 0.240188
0.641820 0.217506 0.238871
0.712878 0.228926 0.239090
0.771523 0.238734 0.240435
0.253490 0.202510 0.237804
0.252549 0.199216 0.235294
0.253867 0.201004 0.237553
0.263027 0.200282 0.239498
0.267796 0.203640 0.242855
0.281098 0.210196 0.242980
0.297569 0.213647 0.241882
0.324863 0.215278 0.238275
0.365490 0.217820 0.237929
0.404392 0.220580 0.240721
0.459608 0.226667 0.238118
0.517835 0.231718 0.236674
0.578698 0.241443 0.235639
0.640063 0.250039 0.232439
0.709960 0.261804 0.236078
0.772427 0.272929 0.240011
0.259608 0.214902 0.245490
0.261490 0.210510 0.244235
0.264000 0.213020 0.242980
0.272941 0.214118 0.241569
0.278902 0.213804 0.244392
0.293334 0.211765 0.240785
0.309804 0.221020 0.240314
0.337255 0.230589 0.241412
0.369882 0.241255 0.233412
0.418510 0.248314 0.237333
0.474510 0.258824 0.237647
0.520784 0.267451 0.232157
0.585412 0.278745 0.237961
0.641882 0.290353 0.226980
0.720157 0.304314 0.235765
0.781820 0.316800 0.238361
0.270431 0.228863 0.242196
0.268079 0.225568 0.239373
0.269333 0.226980 0.240314
0.275671 0.228612 0.238463
0.290698 0.228894 0.238934
0.309176 0.235451 0.241725
0.318494 0.232502 0.241757
0.355451 0.242416 0.240345
0.384063 0.257412 0.240753
0.428832 0.275922 0.229773
0.482353 0.296941 0.237334
0.531043 0.305098 0.230055
0.589459 0.319090 0.231812
0.650730 0.332078 0.232471
0.716079 0.347922 0.228863
0.783387 0.361233 0.240922
0.280627 0.259608 0.246118
0.283545 0.252486 0.242133
0.286557 0.255184 0.245898
0.294839 0.254776 0.246368
0.307262 0.255843 0.238902
0.326745 0.258353 0.237961
0.348487 0.259702 0.240377
0.370353 0.259922 0.241286
0.409286 0.270714 0.238902
0.452267 0.289381 0.227765
0.496941 0.314196 0.231059
0.541114 0.340800 0.229271
0.601537 0.365302 0.226321
0.662902 0.378855 0.230996
0.729255 0.400032 0.227074
0.792816 0.411901 0.237964
0.301176 0.293333 0.243922
0.300173 0.287498 0.240502
0.303215 0.287529 0.242039
0.316141 0.290228 0.240408
0.327969 0.290730 0.240376
0.349804 0.292549 0.239216
0.373396 0.297004 0.239122
0.402981 0.297318 0.236549
0.430494 0.290385 0.240094
0.478494 0.304596 0.240471
0.514353 0.326118 0.235922
0.563545 0.354228 0.229679
0.615529 0.387200 0.230714
0.665287 0.418008 0.231059
0.730510 0.442479 0.231749
0.792199 0.459755 0.244192
0.324078 0.339451 0.244549
0.323765 0.331608 0.241098
0.333647 0.332863 0.241098
0.342274 0.334933 0.239969
0.358463 0.336314 0.242886
0.378823 0.339607 0.241568
0.407561 0.345757 0.235325
0.438588 0.347482 0.243200
0.466510 0.347043 0.235765
0.497789 0.335498 0.241820
0.542588 0.348863 0.242196
0.589521 0.376502 0.234949
0.636486 0.406588 0.238306
0.690918 0.439906 0.238275
0.749867 0.483263 0.245302
0.795362 0.517734 0.255955
0.353725 0.390588 0.254118
0.356863 0.384314 0.250980
0.362823 0.386353 0.246118
0.371294 0.386980 0.249725
0.384314 0.392157 0.247059
0.407843 0.392157 0.247059
0.434510 0.396862 0.244706
0.468549 0.397804 0.241412
0.502118 0.399059 0.240157
0.528471 0.398588 0.241255
0.559215 0.380392 0.246275
0.606902 0.393569 0.251608
0.654431 0.423687 0.248314
0.703373 0.460078 0.251137
0.754510 0.497255 0.258040
0.807765 0.530965 0.271325
0.387608 0.451608 0.263843
0.385568 0.447059 0.259922
0.399310 0.448690 0.257726
0.409537 0.449820 0.257255
0.424815 0.451922 0.259200
0.445333 0.454274 0.258824
0.470933 0.458039 0.257412
0.505035 0.458353 0.251827
0.541239 0.465349 0.256785
0.581270 0.468800 0.249537
0.613961 0.460078 0.255059
0.641726 0.443012 0.262463
0.684706 0.453333 0.268580
0.731451 0.485585 0.274886
0.786917 0.520314 0.284832
0.828958 0.558229 0.303809
0.430118 0.518431 0.278588
0.431247 0.514698 0.278619
0.437836 0.516267 0.277741
0.445145 0.516141 0.277365
0.463874 0.514886 0.276047
0.483294 0.517804 0.278275
0.512565 0.518337 0.276832
0.539890 0.522322 0.277647
0.570635 0.525522 0.273820
0.613020 0.529475 0.268769
0.655216 0.531608 0.266196
0.680157 0.519592 0.273067
0.709992 0.502683 0.282730
0.753412 0.505380 0.293710
0.798055 0.539294 0.305067
0.835997 0.571694 0.326366
0.488314 0.596079 0.314509
0.484580 0.592157 0.309710
0.491765 0.592157 0.314102
0.504471 0.592784 0.315514
0.514855 0.594228 0.315451
0.533647 0.596393 0.317961
0.556266 0.598306 0.317364
0.584941 0.601443 0.312251
0.620235 0.603608 0.316926
0.654651 0.606494 0.311310
0.693804 0.608314 0.311686
0.736188 0.607686 0.312565
0.763231 0.593036 0.312533
0.789302 0.576659 0.325490
0.824408 0.572486 0.343247
0.854524 0.598066 0.368434
0.529568 0.656314 0.357647
0.524423 0.648972 0.351247
0.531639 0.653208 0.355169
0.544345 0.653961 0.355671
0.561381 0.655593 0.357521
0.570196 0.658823 0.354039
0.596172 0.657788 0.355231
0.622055 0.659859 0.356424
0.651326 0.663404 0.357961
0.685553 0.663655 0.357333
0.722196 0.669333 0.363294
0.758368 0.672878 0.362917
0.797459 0.669741 0.360815
0.812079 0.651545 0.368565
0.843231 0.632941 0.380894
0.865679 0.625729 0.403429
0.592808 0.724588 0.433537
0.592000 0.717490 0.428342
0.595354 0.720813 0.427277
0.607520 0.721409 0.432711
0.618668 0.722027 0.436652
0.632032 0.718306 0.432808
0.655374 0.721444 0.442839
0.674643 0.724074 0.446298
0.698684 0.723798 0.449115
0.724645 0.725365 0.450726
0.761435 0.726118 0.455404
0.791117 0.729412 0.457914
0.828580 0.727443 0.464424
0.854777 0.721436 0.470282
0.875658 0.709779 0.498726
0.890762 0.710259 0.517946
0.254902 0.192157 0.233726
0.257255 0.194510 0.233726
0.255843 0.193098 0.236235
0.258824 0.196078 0.239216
0.257255 0.194510 0.233726
0.274510 0.196078 0.239216
0.285334 0.190588 0.240627
0.312941 0.190275 0.239843
0.350745 0.184784 0.241098
0.400785 0.173333 0.242353
0.448627 0.170196 0.240784
0.508392 0.169412 0.235608
0.573333 0.170980 0.240000
0.633255 0.169726 0.243608
0.705882 0.179608 0.239216
0.762274 0.187436 0.245482
0.254902 0.192157 0.234039
0.256785 0.194039 0.235859
0.256063 0.193318 0.234416
0.257349 0.196109 0.238432
0.259075 0.194102 0.234573
0.275451 0.197019 0.240157
0.287592 0.191906 0.242573
0.316392 0.189459 0.240690
0.350118 0.186604 0.242071
0.402792 0.180361 0.239969
0.453019 0.174588 0.237333
0.512000 0.174902 0.239655
0.575184 0.178949 0.241851
0.639686 0.182306 0.244424
0.713192 0.188517 0.242886
0.771184 0.201205 0.243142
0.255843 0.193098 0.235608
0.255843 0.193098 0.235608
0.256220 0.193474 0.235671
0.255718 0.192973 0.234541
0.264722 0.196078 0.236047
0.277019 0.194196 0.237961
0.289945 0.193882 0.240910
0.317490 0.193569 0.243765
0.350996 0.190682 0.242761
0.397835 0.189333 0.237898
0.454431 0.187765 0.238745
0.512910 0.189208 0.244831
0.572643 0.191780 0.241475
0.638306 0.199216 0.239435
0.708549 0.204643 0.244016
0.768830 0.214088 0.246074
0.256314 0.193569 0.232785
0.256314 0.193569 0.233412
0.257036 0.194290 0.234447
0.256785 0.194039 0.233255
0.267796 0.199624 0.239341
0.279529 0.197019 0.240314
0.297820 0.198118 0.240502
0.323859 0.200816 0.241318
0.359059 0.201443 0.237773
0.408596 0.206369 0.245679
0.453333 0.206275 0.239216
0.514698 0.211482 0.239843
0.578196 0.215059 0.239812
0.644329 0.223780 0.241004
0.716424 0.233600 0.242259
0.771819 0.243271 0.236232
0.257569 0.204235 0.240784
0.253364 0.199278 0.235608
0.254619 0.201757 0.237679
0.264000 0.201255 0.240471
0.270212 0.204863 0.244078
0.285334 0.207843 0.242823
0.297882 0.213208 0.241945
0.327184 0.216659 0.236706
0.364612 0.221019 0.237930
0.408753 0.222745 0.242228
0.462745 0.230118 0.239373
0.520502 0.238525 0.236831
0.575373 0.244769 0.234761
0.649067 0.253710 0.235388
0.710745 0.266573 0.238651
0.771026 0.278714 0.241589
0.264314 0.213333 0.240784
0.262745 0.211765 0.239216
0.263373 0.212392 0.239843
0.272470 0.213647 0.241098
0.279686 0.213020 0.240627
0.296471 0.217255 0.243137
0.306666 0.224157 0.234039
0.336157 0.232314 0.242823
0.373177 0.244549 0.236706
0.420862 0.251294 0.238432
0.472157 0.261177 0.236079
0.528941 0.269490 0.232942
0.586196 0.278588 0.237804
0.648628 0.294902 0.227451
0.722039 0.305568 0.236392
0.786525 0.318384 0.244643
0.270588 0.228549 0.241882
0.267765 0.225035 0.239498
0.270431 0.228078 0.241412
0.281161 0.230714 0.239310
0.293490 0.230996 0.241726
0.306666 0.232942 0.239216
0.321318 0.232753 0.241192
0.354510 0.240439 0.241475
0.384533 0.258071 0.240000
0.428957 0.276172 0.232408
0.480784 0.295687 0.235765
0.530855 0.308706 0.232314
0.590934 0.320439 0.231780
0.652674 0.334337 0.233663
0.719028 0.349741 0.231687
0.782141 0.361074 0.244957
0.283608 0.255686 0.243451
0.282855 0.250730 0.240126
0.288659 0.253396 0.243577
0.296879 0.254871 0.243514
0.309490 0.256533 0.240439
0.328627 0.259608 0.239216
0.349177 0.262086 0.245867
0.370259 0.257851 0.237898
0.406024 0.273882 0.240408
0.454024 0.291200 0.232157
0.495686 0.312000 0.231687
0.541208 0.341772 0.232126
0.598651 0.363263 0.230620
0.661145 0.377098 0.231938
0.725302 0.395075 0.237428
0.791098 0.412967 0.247966
0.301333 0.291608 0.245961
0.300392 0.288471 0.243922
0.305380 0.286118 0.242572
0.318839 0.289977 0.244267
0.330980 0.291326 0.244173
0.352000 0.295373 0.240157
0.373961 0.295843 0.243137
0.401412 0.297255 0.237490
0.427702 0.289663 0.241035
0.473004 0.305161 0.240032
0.514510 0.329412 0.239216
0.565176 0.355796 0.233757
0.614368 0.387796 0.235075
0.665380 0.420988 0.236047
0.730070 0.441380 0.239655
0.789084 0.458158 0.248293
0.324706 0.338823 0.250196
0.323545 0.332455 0.247780
0.332675 0.332141 0.249443
0.343404 0.335561 0.247937
0.358776 0.335937 0.244643
0.380078 0.340078 0.244392
0.406369 0.342682 0.241663
0.434824 0.346667 0.242384
0.466573 0.344534 0.241914
0.494808 0.333804 0.247874
0.538980 0.350902 0.250196
0.583969 0.376847 0.237428
0.633412 0.404769 0.245772
0.689067 0.443388 0.243577
0.751216 0.482981 0.252392
0.802245 0.512152 0.258848
0.356078 0.388235 0.253333
0.356863 0.384314 0.250980
0.363765 0.387294 0.253961
0.371921 0.387608 0.251608
0.385569 0.388549 0.251137
0.407843 0.392157 0.247059
0.434824 0.393255 0.254118
0.465412 0.395451 0.253020
0.498196 0.403294 0.244863
0.528628 0.396862 0.249098
0.556863 0.380392 0.250980
0.606275 0.392941 0.255686
0.652392 0.426667 0.251765
0.702745 0.459608 0.259608
0.755765 0.497725 0.267137
0.806212 0.535623 0.280721
0.389804 0.454117 0.267451
0.392753 0.446839 0.263843
0.397961 0.448973 0.266228
0.409286 0.451075 0.265098
0.424094 0.452455 0.263624
0.445176 0.454588 0.263373
0.470745 0.455215 0.265443
0.504784 0.456345 0.260612
0.539325 0.465600 0.262463
0.579514 0.467043 0.256722
0.609412 0.457412 0.262118
0.640094 0.440816 0.267984
0.681506 0.451231 0.270337
0.731075 0.486808 0.281255
0.783937 0.524862 0.296910
0.827645 0.561073 0.313989
0.429176 0.516235 0.283294
0.430682 0.513694 0.281380
0.437553 0.515796 0.283734
0.445428 0.517271 0.286055
0.461836 0.518651 0.283326
0.482039 0.517490 0.282510
0.511278 0.519937 0.281569
0.536314 0.521568 0.278086
0.571357 0.524863 0.280125
0.611420 0.528031 0.278525
0.650824 0.533333 0.279216
0.683043 0.518933 0.277522
0.708078 0.502180 0.287122
0.751843 0.507169 0.300204
0.798400 0.539514 0.312878
0.831487 0.570757 0.329707
0.488314 0.594196 0.324863
0.487247 0.590996 0.322165
0.492612 0.591592 0.322855
0.501930 0.593820 0.320753
0.514008 0.593224 0.322635
0.533020 0.593255 0.319843
0.556110 0.595138 0.319780
0.586573 0.598839 0.317459
0.619984 0.602416 0.322102
0.654871 0.606525 0.319310
0.694432 0.609725 0.316549
0.734651 0.607875 0.316204
0.760000 0.594918 0.319278
0.787577 0.573177 0.326651
0.822212 0.576251 0.345663
0.853703 0.601667 0.375144
0.527686 0.655687 0.357176
0.526808 0.651231 0.354510
0.532863 0.653647 0.357176
0.544879 0.655624 0.361788
0.554824 0.655342 0.365145
0.572235 0.657726 0.363608
0.597302 0.657726 0.363608
0.619859 0.660549 0.361820
0.649820 0.663153 0.362573
0.679780 0.666698 0.365553
0.720000 0.666666 0.361098
0.754008 0.666886 0.365521
0.792690 0.667043 0.363796
0.814682 0.652424 0.370855
0.843294 0.632659 0.387702
0.865064 0.625126 0.409082
0.593592 0.723820 0.435098
0.594350 0.719840 0.433487
0.597940 0.717529 0.434127
0.607029 0.717669 0.437567
0.617398 0.720188 0.441652
0.632745 0.721428 0.438996
0.653492 0.720151 0.444819
0.674524 0.722383 0.450260
0.700235 0.725349 0.450716
0.725909 0.725377 0.456055
0.758298 0.730808 0.456204
0.790657 0.727089 0.456694
0.828874 0.729867 0.470833
0.853707 0.725024 0.472971
0.870208 0.710844 0.496608
0.886903 0.707185 0.524911
0.256471 0.193725 0.234510
0.256628 0.193882 0.234667
0.254431 0.195922 0.233726
0.254902 0.192157 0.231373
0.260706 0.196078 0.235294
0.274510 0.196078 0.239216
0.287687 0.196078 0.235765
0.316706 0.191216 0.242196
0.354667 0.185255 0.242510
0.398118 0.177255 0.236863
0.450196 0.178824 0.242353
0.511373 0.178510 0.240000
0.570039 0.177883 0.239843
0.638588 0.173177 0.246118
0.706196 0.179921 0.239530
0.768486 0.189765 0.252470
0.256785 0.194039 0.235294
0.255843 0.193098 0.232785
0.257067 0.194321 0.236204
0.255090 0.192345 0.232063
0.262776 0.195733 0.235702
0.277960 0.199529 0.242666
0.288816 0.193129 0.242541
0.317333 0.188706 0.241255
0.353130 0.189239 0.243859
0.405459 0.183969 0.240847
0.456157 0.184314 0.240784
0.511624 0.185694 0.242227
0.574902 0.186071 0.242855
0.636518 0.187420 0.245082
0.713380 0.189333 0.245647
0.776047 0.197325 0.248306
0.256471 0.193725 0.234353
0.256722 0.193976 0.236047
0.256659 0.193914 0.235859
0.255467 0.192722 0.235231
0.270463 0.193349 0.237961
0.278431 0.192157 0.240628
0.297380 0.194478 0.241600
0.319843 0.191843 0.240627
0.350933 0.194196 0.239969
0.400251 0.192376 0.239718
0.458196 0.192784 0.239373
0.512973 0.196423 0.244235
0.570823 0.200094 0.242855
0.634855 0.201694 0.239937
0.708863 0.205961 0.243200
0.767743 0.214878 0.244560
0.257883 0.195137 0.234980
0.257098 0.194353 0.234510
0.256126 0.193380 0.233537
0.258824 0.196078 0.235294
0.267577 0.200910 0.240126
0.284706 0.201412 0.239530
0.299639 0.201443 0.242133
0.325490 0.201318 0.240502
0.364737 0.204675 0.239310
0.406118 0.208314 0.242008
0.456785 0.212549 0.242510
0.519969 0.212549 0.238745
0.577820 0.220706 0.240596
0.644424 0.225788 0.243043
0.713694 0.232157 0.242949
0.772916 0.241539 0.247042
0.258510 0.203765 0.240627
0.257506 0.199937 0.237741
0.259608 0.199969 0.238463
0.265569 0.202824 0.242039
0.269867 0.204393 0.237176
0.281569 0.209726 0.242823
0.301647 0.211765 0.240063
0.327216 0.218196 0.241004
0.366651 0.220831 0.239843
0.414777 0.224502 0.240816
0.463686 0.231373 0.241255
0.520659 0.237553 0.238243
0.580926 0.244298 0.238181
0.647530 0.253804 0.240627
0.712000 0.265381 0.246494
0.772119 0.273230 0.246725
0.265098 0.214118 0.241569
0.262745 0.211765 0.239216
0.264314 0.213333 0.240784
0.274510 0.215686 0.243137
0.282353 0.215686 0.242353
0.295686 0.213333 0.240784
0.309804 0.223529 0.235294
0.339608 0.232941 0.243137
0.373333 0.244706 0.236863
0.416157 0.252078 0.238589
0.472157 0.261177 0.239216
0.525647 0.271373 0.235765
0.583686 0.277019 0.240000
0.649569 0.292549 0.235294
0.720314 0.301490 0.246118
0.777161 0.313701 0.247083
0.273255 0.230118 0.245804
0.271372 0.228235 0.243921
0.273757 0.230149 0.243482
0.278902 0.229584 0.239184
0.294432 0.232063 0.242196
0.307137 0.233412 0.239687
0.324298 0.232659 0.243294
0.355922 0.242228 0.243075
0.385632 0.259357 0.241318
0.429553 0.280408 0.241224
0.478588 0.291922 0.239687
0.533396 0.305725 0.241820
0.589929 0.314165 0.238337
0.648565 0.329569 0.239969
0.717490 0.343686 0.244957
0.784974 0.355244 0.252068
0.287843 0.256471 0.247059
0.286275 0.250196 0.243137
0.289789 0.250573 0.245082
0.296847 0.254777 0.244298
0.309898 0.257286 0.247874
0.328000 0.258039 0.243294
0.348141 0.260047 0.248565
0.369224 0.257851 0.243576
