example_ofxGpuLutCube/bin/data/ofxGpuLutCube/LUT/C44 (hard brown gold contrasty).cube
LUT_3D_SIZE 6
0.000000 0.000000 0.000000
0.000000 0.000000 0.000000
0.243138 0.003138 0.010981
0.614902 0.000000 0.058824
0.829020 0.164706 0.196863
0.921608 0.411726 0.411647
0.002353 0.002353 0.002353
0.056157 0.025098 0.000000
0.301177 0.094902 0.032941
0.656941 0.159686 0.076862
0.831216 0.281569 0.235294
0.931725 0.467412 0.451694
0.219608 0.237647 0.101961
0.252235 0.240471 0.087216
0.448784 0.314667 0.065882
0.695529 0.389961 0.170039
0.812549 0.457255 0.357333
0.932470 0.573263 0.530039
0.534902 0.533333 0.356863
0.552000 0.528471 0.348235
0.611294 0.542902 0.357961
0.726275 0.562981 0.395137
0.813177 0.602353 0.499922
0.922275 0.653255 0.577898
0.703529 0.659608 0.568627
0.712314 0.665255 0.577098
0.737255 0.674510 0.575686
0.784000 0.692706 0.576941
0.861177 0.718117 0.593569
0.950510 0.767765 0.665804
0.858667 0.839059 0.764549
0.861059 0.837569 0.774667
0.873616 0.843059 0.768549
0.894032 0.850831 0.780196
0.930902 0.864157 0.801373
0.956863 0.870548 0.819528
0.000000 0.000000 0.000000
0.000000 0.001412 0.000000
0.265412 0.000000 0.045177
0.632941 0.003138 0.127843
0.820392 0.269020 0.287843
0.921451 0.468902 0.477529
0.003294 0.008000 0.000941
0.092110 0.037365 0.013271
0.309929 0.117208 0.087216
0.661271 0.196455 0.158212
0.819012 0.346698 0.327937
0.919633 0.503633 0.499555
0.242039 0.241569 0.141804
0.268110 0.244925 0.127781
0.448032 0.314541 0.139263
0.689569 0.398808 0.253177
0.802478 0.479373 0.416596
0.925722 0.577961 0.545490
0.549334 0.530510 0.390431
0.555451 0.525867 0.380298
0.620706 0.541333 0.392722
0.719530 0.568000 0.436173
0.809443 0.604675 0.518431
0.923652 0.655922 0.590971
0.712784 0.665882 0.583843
0.716957 0.667169 0.582934
0.737004 0.674259 0.584063
0.784878 0.691137 0.587106
0.861835 0.719623 0.605522
0.948948 0.770437 0.675379
0.862604 0.839114 0.776251
0.864224 0.839756 0.776917
0.872063 0.844612 0.773985
0.891236 0.852757 0.780579
0.926053 0.862676 0.799839
0.952165 0.870549 0.827333
0.000000 0.008627 0.100392
0.090510 0.000000 0.115294
0.287059 0.002510 0.163765
0.638902 0.027294 0.271372
0.789333 0.357490 0.411451
0.899475 0.509765 0.540321
0.120314 0.095059 0.124235
0.160376 0.092863 0.130165
0.339984 0.129318 0.188612
0.650071 0.241819 0.301208
0.781773 0.422714 0.451451
0.905898 0.534827 0.551589
0.306510 0.289255 0.240941
0.344314 0.297569 0.249537
0.494494 0.348078 0.284612
0.677992 0.430714 0.392847
0.781302 0.513663 0.493020
0.914858 0.586030 0.578005
0.583843 0.534432 0.465725
0.590275 0.530635 0.458102
0.635451 0.549710 0.468267
0.715294 0.570510 0.497255
0.799404 0.608377 0.553726
0.924739 0.664361 0.618394
0.716863 0.665882 0.601255
0.719937 0.666698 0.604706
0.739388 0.674290 0.610604
0.779483 0.693208 0.607843
0.859357 0.723326 0.623874
0.946149 0.772816 0.698306
0.853192 0.839098 0.780988
0.860788 0.841917 0.785384
0.871292 0.841194 0.789498
0.889377 0.853853 0.795454
0.926980 0.864204 0.813161
0.948949 0.878282 0.839028
0.141961 0.024313 0.324706
0.233883 0.003138 0.343530
0.417726 0.000157 0.381020
0.655059 0.106666 0.429647
0.789176 0.389020 0.502902
0.894016 0.525419 0.596039
0.236706 0.173961 0.332549
0.287153 0.166777 0.336157
0.444047 0.172235 0.387388
0.657349 0.273569 0.438871
0.779483 0.458761 0.526588
0.899567 0.550774 0.613815
0.421804 0.366745 0.389804
0.461082 0.382023 0.404643
0.564957 0.415624 0.452643
0.681694 0.476988 0.505223
0.774306 0.543686 0.565647
0.908405 0.597437 0.629726
0.630902 0.555138 0.532235
0.640220 0.559121 0.539388
0.671843 0.571451 0.553255
0.723137 0.585380 0.568000
0.793788 0.610761 0.592314
0.918813 0.659694 0.654499
0.723922 0.669647 0.632471
0.734023 0.672910 0.639059
0.747608 0.678902 0.638620
0.783216 0.693177 0.643827
0.858636 0.721788 0.657600
0.946253 0.779709 0.738240
0.847796 0.838322 0.792079
0.854824 0.839138 0.795960
0.870484 0.843032 0.803797
0.889333 0.853379 0.817424
0.921861 0.866849 0.829007
0.949687 0.875169 0.847702
0.338824 0.196863 0.596078
0.401255 0.212392 0.598118
0.526902 0.237490 0.604863
0.687686 0.293647 0.610196
0.797333 0.428392 0.607216
0.901843 0.535569 0.661844
0.451765 0.350745 0.592157
0.480000 0.345098 0.588078
0.566902 0.360847 0.596580
0.694118 0.396267 0.603671
0.781114 0.466071 0.604455
0.896659 0.551931 0.663442
0.593255 0.501804 0.581177
0.600282 0.502243 0.583027
0.636236 0.507576 0.592502
0.706165 0.514980 0.604580
0.789176 0.549522 0.624628
0.909349 0.600850 0.684283
0.661020 0.583059 0.596392
0.674259 0.591153 0.611137
0.699796 0.601757 0.621522
0.730165 0.601255 0.632533
0.800376 0.619357 0.653678
0.918821 0.674591 0.721177
0.730196 0.675294 0.669490
0.741082 0.680533 0.677082
0.765804 0.695216 0.689255
0.797365 0.714573 0.712910
0.857443 0.735122 0.727467
0.941121 0.782063 0.787396
0.862674 0.842996 0.828886
0.869716 0.845374 0.831266
0.882726 0.850381 0.841432
0.894344 0.855134 0.847235
0.919895 0.865006 0.853172
0.948133 0.880737 0.875883
0.623372 0.505647 0.788039
0.643004 0.501828 0.784181
0.690094 0.502651 0.791224
0.770863 0.505749 0.799012
0.867333 0.521467 0.798227
0.964550 0.568509 0.795960
0.640737 0.537898 0.770023
0.658551 0.536361 0.776290
0.697291 0.531994 0.778938
0.770401 0.535045 0.785978
0.861539 0.538104 0.789598
0.960588 0.580298 0.792093
0.682345 0.599992 0.766909
0.690176 0.599962 0.770781
0.722251 0.599426 0.772516
0.779528 0.592886 0.786478
0.867650 0.594085 0.801175
0.956777 0.632079 0.812307
0.717631 0.668910 0.763765
0.720764 0.665823 0.764522
0.735308 0.659357 0.769060
0.779118 0.658736 0.780390
0.858311 0.657172 0.804497
0.950534 0.712745 0.823419
0.792847 0.769334 0.808502
0.796157 0.772588 0.811725
0.814785 0.775506 0.815466
0.841024 0.778242 0.821382
0.880592 0.776593 0.834416
0.941082 0.813216 0.856454
0.886117 0.862666 0.870392
0.883773 0.860321 0.868048
0.890117 0.866471 0.874352
0.909640 0.866589 0.882056
0.925396 0.878337 0.889256
0.937410 0.890233 0.898193
