example_ofxGpuLutCube/bin/data/ofxGpuLutCube/LUT/C44 (hard brown gold contrasty).cube
LUT_3D_SIZE 16
0.000000 0.000000 0.000000
0.000000 0.000000 0.000000
0.000000 0.000000 0.000000
0.000000 0.000000 0.000000
0.018823 0.000000 0.000000
0.156863 0.000000 0.000000
0.243138 0.003138 0.010981
0.352941 0.001569 0.030588
0.486275 0.001569 0.046274
0.614902 0.000000 0.058824
0.717647 0.000000 0.090196
0.784314 0.043137 0.135686
0.829020 0.164706 0.196863
0.867451 0.262745 0.269019
0.901177 0.356862 0.349804
0.921608 0.411726 0.411647
0.000000 0.000000 0.000000
0.000000 0.000000 0.000000
0.001883 0.001883 0.001883
0.000000 0.000000 0.006902
0.070745 0.003138 0.000000
0.180392 0.000000 0.000000
0.265883 0.000000 0.017725
0.380392 0.000000 0.039216
0.512157 0.001255 0.049882
0.635138 0.000000 0.071059
0.724706 0.007059 0.098823
0.793098 0.108079 0.148235
0.831843 0.195608 0.205961
0.865882 0.283921 0.285176
0.901020 0.372863 0.368000
0.927765 0.428157 0.423451
0.000000 0.000000 0.000000
0.001569 0.000000 0.000000
0.000000 0.000000 0.003137
0.000941 0.000000 0.000000
0.085177 0.000000 0.000000
0.182745 0.002353 0.009412
0.265882 0.007843 0.023843
0.381333 0.014745 0.035294
0.509647 0.023373 0.052549
0.634039 0.047843 0.067608
0.733333 0.101961 0.099608
0.792784 0.165961 0.152000
0.832157 0.230902 0.217412
0.864941 0.310588 0.292078
0.899137 0.384314 0.371608
0.925466 0.442275 0.432879
0.002353 0.002353 0.002353
0.000314 0.000000 0.000000
0.002824 0.003294 0.003137
0.056157 0.025098 0.000000
0.146196 0.055216 0.003451
0.216471 0.072157 0.014118
0.301177 0.094902 0.032941
0.414275 0.111373 0.039686
0.538667 0.136627 0.057882
0.656941 0.159686 0.076862
0.733333 0.192157 0.113725
0.786667 0.234824 0.165961
0.831216 0.281569 0.235294
0.860549 0.349804 0.309804
0.900392 0.421490 0.391843
0.931725 0.467412 0.451694
0.025098 0.066667 0.006274
0.021961 0.055530 0.000000
0.056942 0.066980 0.001883
0.102118 0.085961 0.004392
0.166902 0.109804 0.019137
0.240000 0.133333 0.029804
0.331922 0.157804 0.036235
0.447687 0.185412 0.047373
0.561098 0.211608 0.055059
0.666353 0.237804 0.086588
0.733333 0.260392 0.129412
0.798118 0.295843 0.198902
0.821176 0.340078 0.262431
0.854902 0.393255 0.338196
0.890510 0.453490 0.418666
0.921491 0.500314 0.476000
0.149020 0.156863 0.070588
0.133333 0.141176 0.054902
0.149804 0.146667 0.054118
0.181177 0.163137 0.052549
0.228236 0.178823 0.054902
0.294118 0.203922 0.043137
0.392157 0.240000 0.053333
0.493333 0.268235 0.050196
0.603922 0.292549 0.072941
0.689412 0.316863 0.115294
0.752941 0.337255 0.180392
0.790588 0.363137 0.243138
0.818039 0.402353 0.311373
0.847843 0.448628 0.379608
0.886275 0.499608 0.455687
0.921530 0.537216 0.501922
0.219608 0.237647 0.101961
0.201255 0.212549 0.086275
0.216157 0.220549 0.082980
0.252235 0.240471 0.087216
0.298039 0.259451 0.079372
0.356863 0.279216 0.069020
0.448784 0.314667 0.065882
0.544784 0.348235 0.083137
0.630902 0.369725 0.114039
0.695529 0.389961 0.170039
0.744314 0.403922 0.222745
0.789961 0.424471 0.299451
0.812549 0.457255 0.357333
0.848627 0.491765 0.420706
0.889098 0.531608 0.478117
0.932470 0.573263 0.530039
0.320784 0.350588 0.153726
0.298981 0.326431 0.124235
0.320314 0.335687 0.131922
0.351372 0.348706 0.130353
0.388235 0.362353 0.133490
0.440000 0.380392 0.135686
0.505255 0.397333 0.129098
0.585412 0.426666 0.147451
0.656628 0.446588 0.194353
0.705412 0.458823 0.245020
0.749020 0.470588 0.298824
0.778196 0.488628 0.356235
0.810980 0.512157 0.410823
0.845961 0.543529 0.464157
0.886588 0.573020 0.508863
0.925396 0.599922 0.545020
0.437647 0.457255 0.237647
0.416000 0.439373 0.222275
0.435137 0.440784 0.223373
0.453177 0.452392 0.227922
0.485804 0.465882 0.233726
0.519216 0.473725 0.235294
0.565647 0.482510 0.234667
0.614431 0.493020 0.240157
0.669019 0.506823 0.267451
0.713883 0.516706 0.316863
0.749804 0.520784 0.365491
0.776628 0.543372 0.415686
0.809412 0.555294 0.452235
0.846274 0.584314 0.497726
0.888000 0.607059 0.537098
0.933215 0.631279 0.568533
0.534902 0.533333 0.356863
0.525020 0.521098 0.344157
0.532235 0.521569 0.341177
0.552000 0.528471 0.348235
0.565490 0.534118 0.351373
0.585098 0.539607 0.350588
0.611294 0.542902 0.357961
0.648941 0.548863 0.363608
0.687844 0.556392 0.371294
0.726275 0.562981 0.395137
0.749804 0.574118 0.436079
0.785255 0.583216 0.468549
0.813177 0.602353 0.499922
0.850667 0.617882 0.523765
0.888000 0.631843 0.547451
0.922275 0.653255 0.577898
0.615686 0.580392 0.458824
0.600784 0.577255 0.451764
0.611765 0.576471 0.451765
0.619608 0.576471 0.450980
0.629804 0.581176 0.447059
0.643137 0.584314 0.454902
0.653333 0.588235 0.455686
0.673725 0.590588 0.454902
0.703530 0.594510 0.459608
0.730196 0.603138 0.472941
0.756863 0.615686 0.482353
0.792941 0.624313 0.498823
0.825882 0.636863 0.536470
0.859608 0.659608 0.553726
0.896470 0.670588 0.575687
0.937177 0.694040 0.603844
0.671372 0.612549 0.522353
0.668236 0.621177 0.525804
0.666039 0.622745 0.526745
0.676078 0.622745 0.520784
0.680627 0.625568 0.524079
0.687844 0.625098 0.526274
0.696314 0.629647 0.527686
0.713726 0.633726 0.531608
0.728157 0.638745 0.530510
0.748236 0.642667 0.528784
0.769411 0.647843 0.534117
0.800941 0.657255 0.541176
0.837490 0.667294 0.553725
0.871215 0.681882 0.573647
0.898980 0.701490 0.593568
0.937169 0.721482 0.621875
0.703529 0.659608 0.568627
0.708235 0.663059 0.575843
0.711686 0.662589 0.573961
0.712314 0.665255 0.577098
0.716706 0.665882 0.573019
0.728627 0.673725 0.571765
0.737255 0.674510 0.575686
0.750745 0.684078 0.580863
0.766902 0.686118 0.580235
0.784000 0.692706 0.576941
0.805490 0.702745 0.587451
0.832628 0.703529 0.592157
0.861177 0.718117 0.593569
0.890196 0.730667 0.604549
0.918118 0.743216 0.629490
0.950510 0.767765 0.665804
0.734902 0.707451 0.605490
0.739137 0.711686 0.609725
0.740078 0.709804 0.611294
0.747294 0.708078 0.610039
0.752941 0.710588 0.607843
0.761569 0.719216 0.614902
0.772549 0.724706 0.616471
0.780549 0.729255 0.620706
0.793725 0.734902 0.616471
0.815216 0.741647 0.624000
0.833726 0.748235 0.626667
0.856471 0.758902 0.635922
0.881412 0.767059 0.636549
0.905726 0.777255 0.650667
0.926902 0.783059 0.667922
0.944235 0.794447 0.690086
0.805490 0.789804 0.691765
0.808784 0.791529 0.692706
0.808000 0.787921 0.695216
0.813804 0.790275 0.695529
0.817255 0.792784 0.692549
0.824314 0.793725 0.701176
0.828079 0.798275 0.695529
0.841882 0.802039 0.703686
0.849098 0.802824 0.701804
0.863059 0.809412 0.706667
0.873726 0.811765 0.707451
0.888157 0.817255 0.715137
0.909333 0.824627 0.717961
0.929098 0.829177 0.728314
0.942902 0.832784 0.735215
0.946674 0.837647 0.755239
0.858667 0.839059 0.764549
0.862596 0.842988 0.768478
0.858722 0.839083 0.764549
0.861059 0.837569 0.774667
0.866542 0.839169 0.768541
0.866589 0.839138 0.768509
0.873616 0.843059 0.768549
0.879882 0.846180 0.776330
0.882337 0.846965 0.780180
0.894032 0.850831 0.780196
0.901922 0.850941 0.784196
0.910588 0.859530 0.792784
0.930902 0.864157 0.801373
0.939576 0.868126 0.807671
0.945090 0.870502 0.811522
0.956863 0.870548 0.819528
0.000000 0.000000 0.000000
0.000000 0.000000 0.000000
0.000000 0.000000 0.000000
0.000314 0.001569 0.000314
0.045333 0.003138 0.003138
0.172549 0.000000 0.000784
0.257098 0.000000 0.014745
0.372549 0.000000 0.033726
0.506981 0.003451 0.051294
0.641569 0.000628 0.072314
0.727059 0.007059 0.099608
0.799059 0.112157 0.152314
0.840000 0.202353 0.214117
0.866353 0.289098 0.292235
0.902902 0.376470 0.379608
0.930126 0.437561 0.440706
0.001255 0.000000 0.000000
0.000502 0.000000 0.000000
0.000063 0.000000 0.000000
0.000847 0.001004 0.003012
0.092988 0.002008 0.002636
0.192941 0.003138 0.003922
0.277992 0.000000 0.020141
0.395921 0.000816 0.037773
0.526808 0.000941 0.053741
0.654651 0.004549 0.071247
0.741804 0.072785 0.113882
0.800816 0.153224 0.164455
0.840471 0.229020 0.224627
0.871749 0.314259 0.307922
0.899263 0.397177 0.394572
0.933862 0.456987 0.453376
0.000000 0.001255 0.004706
0.000000 0.000000 0.002008
0.000502 0.000502 0.000502
0.001224 0.000125 0.000000
0.099545 0.002761 0.000377
0.188078 0.005490 0.005804
0.272376 0.030494 0.028455
0.397867 0.048188 0.038180
0.526933 0.063216 0.052047
0.655875 0.090980 0.072439
0.740863 0.136784 0.114509
0.793820 0.192565 0.167310
0.836706 0.254087 0.232314
0.864408 0.328910 0.311875
0.896972 0.406745 0.394667
0.928224 0.458264 0.454028
0.001255 0.003451 0.001255
0.000000 0.000000 0.000000
0.004988 0.004800 0.005584
0.065851 0.029773 0.001161
0.153757 0.054808 0.005114
0.224784 0.080941 0.021490
0.310337 0.105380 0.034761
0.432722 0.127624 0.041882
0.558369 0.156863 0.058855
0.671059 0.180078 0.084173
0.751843 0.211765 0.128941
0.796141 0.252675 0.186604
0.833632 0.305882 0.262902
0.861898 0.369443 0.339577
0.899451 0.438149 0.417694
0.929986 0.487294 0.469111
0.039530 0.064157 0.012549
0.035012 0.053835 0.001130
0.063216 0.072376 0.003137
0.112376 0.089067 0.007906
0.174525 0.113819 0.018228
0.246275 0.138039 0.026667
0.340894 0.165804 0.043890
0.459482 0.194321 0.047718
0.572173 0.224063 0.061679
0.673757 0.250729 0.100706
0.745569 0.276706 0.153569
0.791216 0.309647 0.218478
0.823686 0.355012 0.289977
0.853585 0.409600 0.366024
0.888659 0.466667 0.434761
0.922093 0.509073 0.491756
0.142745 0.156863 0.067451
0.136313 0.140706 0.053490
0.156235 0.152157 0.052235
0.184784 0.166745 0.053020
0.221333 0.180392 0.053490
0.302745 0.210981 0.050980
0.402667 0.241412 0.058353
0.508235 0.275922 0.062432
0.610196 0.303059 0.094432
0.694117 0.324706 0.143529
0.747451 0.349020 0.201569
0.786667 0.370980 0.269334
0.818981 0.411765 0.332078
0.852549 0.459765 0.401255
0.887843 0.504470 0.462431
0.925412 0.545020 0.509726
0.220862 0.235922 0.103686
0.202102 0.215310 0.085992
0.221082 0.223906 0.088784
0.256408 0.239247 0.089412
0.298227 0.259325 0.083451
0.359373 0.280941 0.082824
0.443639 0.315012 0.080533
0.545380 0.350839 0.100078
0.632471 0.372360 0.138824
0.699483 0.391372 0.191121
0.749177 0.408000 0.249883
0.784471 0.432000 0.310902
0.814776 0.465161 0.371765
0.846620 0.500298 0.430369
0.888753 0.540831 0.485773
0.929334 0.570117 0.526980
0.322823 0.347608 0.160314
0.303560 0.322729 0.131764
0.320188 0.330667 0.137757
0.349427 0.343968 0.141459
0.391435 0.361976 0.143435
0.439686 0.380078 0.140706
0.508110 0.397019 0.144690
0.588423 0.431027 0.165333
0.656314 0.450322 0.210886
0.710024 0.460361 0.271341
0.750745 0.477804 0.314980
0.782651 0.490855 0.372298
0.808941 0.517647 0.426008
0.846619 0.546855 0.477522
0.881851 0.569663 0.505819
0.925412 0.601177 0.548712
0.437176 0.456471 0.245647
0.413333 0.435012 0.225067
0.428581 0.435639 0.222839
0.447529 0.445929 0.227075
0.482102 0.457537 0.235953
0.514040 0.471216 0.239686
0.561945 0.478683 0.244894
0.612580 0.489788 0.252612
0.667451 0.504565 0.275702
0.711153 0.517898 0.332549
0.745569 0.528471 0.373647
0.774369 0.540141 0.425004
0.810385 0.559341 0.464816
0.847216 0.584565 0.503498
0.887623 0.608094 0.538290
0.931383 0.631779 0.569033
0.535686 0.534118 0.359216
0.524455 0.514635 0.336941
0.527153 0.522290 0.346667
0.545945 0.522416 0.341459
0.562792 0.526714 0.345381
0.585098 0.534902 0.360471
0.614651 0.542745 0.360973
0.646745 0.548047 0.366651
0.684581 0.555639 0.377067
0.721255 0.566870 0.403859
0.750745 0.573491 0.443294
0.781678 0.587451 0.472157
0.816627 0.603483 0.504722
0.849286 0.615215 0.530478
0.884330 0.629679 0.545098
0.927435 0.656557 0.583439
0.612549 0.577255 0.455686
0.603922 0.568627 0.447059
0.609098 0.567529 0.441255
0.611451 0.576157 0.446745
0.621333 0.576471 0.451451
0.635294 0.576471 0.453333
0.655059 0.582431 0.455530
0.673255 0.590118 0.455373
0.701176 0.592157 0.465098
0.728314 0.599373 0.463529
0.753725 0.612549 0.487059
0.792941 0.620392 0.506666
0.822431 0.638117 0.536157
0.859922 0.656000 0.561883
0.896470 0.670588 0.575687
0.934847 0.698000 0.604659
0.664470 0.617411 0.524863
0.665129 0.618070 0.524204
0.669647 0.618447 0.526024
0.670463 0.622275 0.522259
0.682416 0.624690 0.527341
0.688471 0.626039 0.524079
0.695467 0.629427 0.529976
0.716078 0.635639 0.532957
0.728533 0.640251 0.535592
0.748141 0.642635 0.529349
0.770666 0.647216 0.534745
0.796926 0.657098 0.541741
0.832659 0.667733 0.557177
0.865663 0.681976 0.569851
0.899639 0.700549 0.595921
0.941719 0.723680 0.632323
0.708549 0.665412 0.579138
0.706572 0.665412 0.573208
0.710776 0.665287 0.575247
0.716894 0.666635 0.574588
0.719906 0.667200 0.576533
0.728785 0.672941 0.571451
0.739451 0.675890 0.577945
0.747608 0.679686 0.578102
0.765020 0.687718 0.581584
0.784941 0.692863 0.579890
0.803451 0.700079 0.585098
0.826102 0.707482 0.584345
0.859859 0.721380 0.598149
0.888408 0.729631 0.609349
0.921318 0.746886 0.633161
0.949117 0.768254 0.666293
0.741961 0.714510 0.612549
0.745757 0.718306 0.616345
0.749553 0.715483 0.617067
0.753600 0.715796 0.612016
0.755231 0.723074 0.620173
0.764078 0.724235 0.618667
0.776282 0.729035 0.625412
0.788549 0.732518 0.625380
0.798902 0.738196 0.622902
0.817914 0.742526 0.626259
0.835765 0.750274 0.633412
0.855843 0.759059 0.632157
0.880063 0.769569 0.642918
0.904502 0.780455 0.652831
0.923545 0.782212 0.667545
0.946623 0.796819 0.692505
0.808157 0.790902 0.693647
0.804957 0.787702 0.689443
0.809537 0.792470 0.695121
0.812298 0.793161 0.695718
0.819231 0.795702 0.700329
0.827451 0.796863 0.704314
0.829710 0.801287 0.699733
0.843545 0.804329 0.705663
0.850039 0.803639 0.701114
0.862714 0.810071 0.707326
0.876862 0.814588 0.710431
0.894431 0.817757 0.717522
0.910463 0.825004 0.723608
0.925427 0.829020 0.729286
0.941239 0.830589 0.734620
0.949635 0.838112 0.755746
0.854047 0.842204 0.769247
0.860760 0.837269 0.774406
0.862468 0.844413 0.770795
0.863438 0.842234 0.770044
0.864047 0.844423 0.769292
0.870470 0.843019 0.778604
0.871292 0.843841 0.773214
0.878166 0.847570 0.778496
0.881805 0.847002 0.779252
0.894038 0.850900 0.780234
0.905757 0.854792 0.788039
0.919621 0.858712 0.795198
0.927377 0.863009 0.801986
0.935250 0.868452 0.805668
0.944477 0.869888 0.810924
0.949051 0.874423 0.819521
0.002353 0.000000 0.000000
0.000000 0.000000 0.000000
0.000000 0.000000 0.000000
0.000000 0.003294 0.000000
0.059765 0.000000 0.000000
0.176471 0.002353 0.004706
0.264785 0.001255 0.017568
0.377255 0.000000 0.034510
0.514353 0.001569 0.053647
0.644706 0.000314 0.088628
0.733333 0.058039 0.130980
0.789804 0.149490 0.175372
0.829020 0.231529 0.243137
0.859137 0.319843 0.319843
0.892392 0.398902 0.402039
0.930094 0.455553 0.460275
0.000000 0.000000 0.000000
0.000000 0.000000 0.000502
0.000000 0.000188 0.000000
0.002353 0.000000 0.000000
0.098227 0.000377 0.001506
0.196392 0.000314 0.004236
0.281192 0.003169 0.019294
0.399561 0.010259 0.043074
0.530667 0.016565 0.061741
0.657726 0.049569 0.093239
0.740078 0.105569 0.131921
0.792157 0.178133 0.189239
0.832000 0.254745 0.256314
0.860455 0.336534 0.332392
0.894400 0.416784 0.415529
0.928216 0.466726 0.472056
0.000000 0.000941 0.000000
0.000000 0.000000 0.001882
0.000941 0.000941 0.005647
0.005741 0.001318 0.000000
0.106259 0.002698 0.003796
0.197804 0.021647 0.006118
0.285208 0.048314 0.027922
0.401098 0.069898 0.045553
0.529851 0.088627 0.067169
0.653145 0.114384 0.093051
0.736784 0.155922 0.139608
0.791561 0.212047 0.202196
0.826322 0.278180 0.265977
0.859043 0.349804 0.339702
0.890761 0.421176 0.416282
0.921962 0.470179 0.468620
0.000941 0.003765 0.001412
0.000188 0.000188 0.000188
0.011200 0.008941 0.002918
0.078431 0.036392 0.000816
0.155231 0.063341 0.005396
0.227294 0.087529 0.020392
0.309898 0.110274 0.048910
0.431122 0.137098 0.060549
0.557553 0.162196 0.084706
0.664439 0.189898 0.115074
0.741176 0.221804 0.160627
0.789615 0.268517 0.221490
0.827325 0.322102 0.290949
0.855686 0.386384 0.364800
0.892894 0.451765 0.434385
0.927288 0.495150 0.484929
0.059137 0.074824 0.012549
0.052267 0.065569 0.002259
0.075357 0.077522 0.008157
0.124581 0.091639 0.016878
0.179765 0.117585 0.017161
0.250823 0.140078 0.046588
0.346321 0.164800 0.065192
0.453522 0.196110 0.073851
0.569726 0.225600 0.094682
0.672533 0.252486 0.134024
0.738980 0.283138 0.182274
0.788674 0.322008 0.248910
0.815906 0.370353 0.316580
0.849820 0.422808 0.383749
0.883765 0.477710 0.452110
0.922259 0.517082 0.499985
0.157647 0.160784 0.077647
0.145882 0.141960 0.061177
0.161725 0.153882 0.065569
0.187451 0.166431 0.072628
0.229647 0.181490 0.073255
0.304314 0.205490 0.074510
0.396863 0.240785 0.081725
0.503686 0.271686 0.093961
0.609411 0.301804 0.126275
0.690981 0.328157 0.170980
0.740392 0.352157 0.228235
0.782431 0.385568 0.294118
0.813490 0.424628 0.349177
0.846274 0.469804 0.414902
0.880784 0.512156 0.475451
0.926149 0.550533 0.521491
0.231059 0.233255 0.119843
0.215781 0.216377 0.103530
0.233412 0.226447 0.104721
0.260737 0.241412 0.105380
0.303310 0.258667 0.109270
0.361569 0.279216 0.103686
0.444988 0.316172 0.107671
0.543372 0.348235 0.122824
0.626416 0.373333 0.165522
0.693930 0.393694 0.216878
0.744000 0.416784 0.277333
0.776941 0.440690 0.331576
0.808188 0.470526 0.389271
0.844110 0.506667 0.444831
0.885428 0.542870 0.494620
0.927278 0.575906 0.539818
0.331137 0.349019 0.180235
0.309427 0.324015 0.151310
0.324612 0.334055 0.151247
0.355262 0.347796 0.158243
0.392784 0.361098 0.168345
0.443137 0.379607 0.161569
0.510023 0.399027 0.167372
0.589020 0.428267 0.190902
0.656533 0.451388 0.236298
0.706760 0.462682 0.290980
0.745569 0.478275 0.337725
0.780988 0.496502 0.388549
0.807530 0.522133 0.437208
0.842981 0.549083 0.484769
0.877051 0.570196 0.513349
0.922254 0.601170 0.550642
0.441098 0.454275 0.262902
0.418353 0.432157 0.238526
0.435514 0.436110 0.243984
0.454745 0.449851 0.249977
0.485177 0.457820 0.250698
0.516863 0.469647 0.259451
0.563231 0.479342 0.261647
0.614526 0.488188 0.271969
0.666855 0.504565 0.295247
0.713129 0.515890 0.347231
0.744784 0.528000 0.391216
0.771262 0.542588 0.434008
0.807875 0.560031 0.471404
0.845647 0.584784 0.509333
0.886369 0.609851 0.543310
0.930701 0.631490 0.570597
0.542432 0.531608 0.372863
0.523263 0.513318 0.353004
0.530133 0.521004 0.354133
0.544282 0.526275 0.359655
0.571608 0.527310 0.359592
0.586667 0.535686 0.368628
0.614432 0.542494 0.371482
0.647216 0.550525 0.380612
0.685302 0.557427 0.388988
0.718839 0.566965 0.417035
0.748706 0.578039 0.451765
0.775749 0.587137 0.479247
0.813647 0.604706 0.510494
0.846023 0.618102 0.531733
0.881945 0.631435 0.552251
0.926789 0.658424 0.585321
0.613333 0.578039 0.459608
0.606275 0.570980 0.452549
0.611765 0.576471 0.454902
0.619451 0.574432 0.454902
0.627451 0.573804 0.456314
0.640784 0.578824 0.458824
0.653019 0.586667 0.461804
0.677647 0.587451 0.461961
0.697412 0.595451 0.466039
0.729726 0.602353 0.475608
0.754510 0.609412 0.495686
0.791059 0.618510 0.512627
0.824157 0.635922 0.545726
0.861177 0.657255 0.569098
0.897412 0.671529 0.584471
0.935600 0.694055 0.611702
0.666981 0.618980 0.529255
0.664094 0.617035 0.523545
0.675294 0.616565 0.529537
0.678274 0.622839 0.529067
0.682918 0.623216 0.530949
0.689883 0.624627 0.533176
0.700015 0.629804 0.534933
0.712816 0.634385 0.536941
0.733428 0.639874 0.537725
0.748863 0.643137 0.532988
0.767529 0.646431 0.536627
0.798431 0.659608 0.550588
0.834384 0.666071 0.562980
0.865286 0.682039 0.578290
0.901051 0.701584 0.595702
0.944235 0.726196 0.634274
0.711372 0.665255 0.578981
0.711529 0.664973 0.576816
0.712533 0.665475 0.579200
0.719404 0.669365 0.582620
0.720721 0.671216 0.578290
0.726902 0.670902 0.579765
0.737882 0.675326 0.578886
0.748392 0.679373 0.580988
0.766086 0.684831 0.585569
0.787294 0.690918 0.585694
0.801569 0.701961 0.585098
0.828392 0.707263 0.589835
0.861020 0.720000 0.598745
0.888408 0.731137 0.610227
0.920628 0.745820 0.635859
0.950527 0.767325 0.674558
0.744941 0.709804 0.618353
0.749835 0.714698 0.623247
0.748141 0.717427 0.620361
0.755890 0.717804 0.620894
0.759435 0.724455 0.620612
0.765020 0.721725 0.622902
0.773992 0.726840 0.624314
0.787702 0.732800 0.626416
0.797396 0.739388 0.625663
0.811012 0.744345 0.633286
0.836235 0.750745 0.629176
0.856847 0.758870 0.636800
0.881255 0.769883 0.643922
0.903718 0.779012 0.654306
0.922259 0.782306 0.669302
0.946925 0.799004 0.695004
0.808941 0.790117 0.693647
0.808627 0.788988 0.692926
0.810478 0.787137 0.695435
0.813804 0.792910 0.702808
0.817631 0.793255 0.700267
0.826981 0.796392 0.703843
0.830024 0.801632 0.699043
0.837961 0.803263 0.706353
0.848533 0.808126 0.706855
0.862087 0.807812 0.711373
0.876549 0.813019 0.714196
0.889569 0.820925 0.718996
0.909176 0.821333 0.724643
0.926212 0.827796 0.729945
0.940235 0.833600 0.736125
0.952886 0.837624 0.764899
0.854032 0.837561 0.766133
0.864515 0.843354 0.773487
0.862630 0.839141 0.776239
0.862802 0.842554 0.774887
0.866082 0.839920 0.777073
0.870463 0.843012 0.777043
0.871752 0.844301 0.773208
0.881294 0.846039 0.779294
0.883275 0.847903 0.781150
0.895776 0.852607 0.781956
0.905764 0.854784 0.788039
0.912141 0.860135 0.795261
0.927950 0.864187 0.801387
0.935365 0.868601 0.805817
0.945079 0.870491 0.811574
0.949020 0.872855 0.822581
0.000000 0.000000 0.000000
0.000000 0.000000 0.000000
0.000000 0.002353 0.000000
0.000000 0.001412 0.000000
0.079687 0.001255 0.006745
0.182745 0.000000 0.018823
0.265412 0.000000 0.045177
0.373019 0.001412 0.071059
0.505569 0.002981 0.093333
0.632941 0.003138 0.127843
0.728627 0.098824 0.175686
0.784000 0.190431 0.228549
0.820392 0.269020 0.287843
0.850980 0.344941 0.354823
0.880000 0.418667 0.424314
0.921451 0.468902 0.477529
0.000000 0.000314 0.000000
0.000000 0.000000 0.000000
0.001883 0.001130 0.001130
0.002447 0.001067 0.000000
0.113255 0.001757 0.013647
0.198117 0.000000 0.032157
0.277365 0.008878 0.054934
0.390620 0.019953 0.081475
0.518996 0.029302 0.105976
0.646839 0.069239 0.136564
0.731608 0.141961 0.185255
0.784094 0.212141 0.237114
0.820768 0.288251 0.297569
0.851106 0.366023 0.372580
0.883545 0.432345 0.434228
0.922585 0.477743 0.486664
0.000000 0.000000 0.000000
0.000000 0.000000 0.000000
0.002981 0.000251 0.000251
0.010165 0.001506 0.000000
0.115859 0.002698 0.007216
0.197647 0.028392 0.034196
0.277616 0.061145 0.062275
0.392314 0.079090 0.086494
0.521694 0.096565 0.107733
0.642133 0.124769 0.138478
0.730980 0.178196 0.187451
0.785820 0.240502 0.241882
0.818165 0.308361 0.304282
0.848471 0.374180 0.374086
0.881443 0.440659 0.437961
0.916157 0.481961 0.486824
0.003294 0.008000 0.000941
0.002259 0.005083 0.000000
0.020925 0.015341 0.001380
0.092110 0.037365 0.013271
0.156769 0.067263 0.038870
0.223686 0.092706 0.058353
0.309929 0.117208 0.087216
0.421898 0.137474 0.098541
0.555357 0.161349 0.125490
0.661271 0.196455 0.158212
0.741647 0.241098 0.211137
0.783027 0.289381 0.262369
0.819012 0.346698 0.327937
0.848408 0.408910 0.394886
0.880878 0.465976 0.455090
0.919633 0.503633 0.499555
0.074040 0.078432 0.034667
0.067828 0.069647 0.022871
0.093177 0.083043 0.033600
0.132141 0.098259 0.040596
0.184188 0.118934 0.061177
0.250510 0.140862 0.076078
0.337098 0.165020 0.094933
0.448785 0.196455 0.109427
0.570604 0.224910 0.134902
0.666510 0.261835 0.176879
0.733647 0.297726 0.226980
0.782306 0.338510 0.286463
0.807090 0.386228 0.344973
0.841726 0.438808 0.410479
0.876016 0.490604 0.467859
0.914144 0.521674 0.508497
0.169412 0.160784 0.097255
0.159843 0.149333 0.089883
0.166902 0.159843 0.087686
0.199216 0.170353 0.093019
0.241255 0.179294 0.087529
0.308235 0.207843 0.097255
0.399059 0.242667 0.115922
0.502745 0.272784 0.132392
0.601882 0.307294 0.165490
0.678118 0.335686 0.214118
0.735686 0.367059 0.267451
0.777255 0.393726 0.321412
0.805020 0.436549 0.379608
0.840000 0.483922 0.444235
0.872941 0.515294 0.485177
0.921467 0.555192 0.526173
0.242039 0.241569 0.141804
0.225882 0.219325 0.118055
0.240094 0.230243 0.123482
0.268110 0.244925 0.127781
0.310118 0.261490 0.126588
0.367059 0.280784 0.128470
0.448032 0.314541 0.139263
0.542745 0.348988 0.163231
0.624722 0.379169 0.203639
0.689569 0.398808 0.253177
0.737882 0.422745 0.306667
0.768721 0.449663 0.362698
0.802478 0.479373 0.416596
0.837741 0.513129 0.464784
0.879718 0.551373 0.507702
0.925722 0.577961 0.545490
0.346039 0.352000 0.202196
0.321286 0.326682 0.177255
0.340674 0.335843 0.181929
0.362102 0.347137 0.182243
0.399561 0.366212 0.189773
0.448471 0.381019 0.189961
0.510494 0.400627 0.198369
0.591184 0.431153 0.226918
