example_ofxGpuLutCube/bin/data/ofxGpuLutCube/LUT/C45 (lavender hard contrasty).cube
LUT_3D_SIZE 16
0.004100 0.009400 0.013900
0.029100 0.008547 0.011267
0.070487 0.008120 0.007747
0.124220 0.011400 0.005480
0.195447 0.018973 0.003507
0.298133 0.033200 0.006033
0.433600 0.055440 0.011020
0.565600 0.077680 0.019300
0.671947 0.093147 0.027833
0.742320 0.097760 0.031640
0.790933 0.098267 0.032667
0.831187 0.099040 0.034027
0.864440 0.098560 0.034640
0.893193 0.097880 0.034873
0.916953 0.097333 0.034900
0.940180 0.096607 0.034900
0.003900 0.029007 0.036967
0.028929 0.028239 0.034132
0.070902 0.027533 0.029377
0.124197 0.030259 0.027095
0.196613 0.037583 0.024737
0.300918 0.052016 0.026658
0.436404 0.074129 0.031512
0.566793 0.096026 0.039467
0.672909 0.111429 0.047826
0.743371 0.116085 0.051597
0.792173 0.116831 0.052733
0.832097 0.117497 0.053965
0.865204 0.116783 0.054595
0.893872 0.116043 0.054766
0.917433 0.115394 0.054873
0.940647 0.114568 0.054880
0.003967 0.058087 0.073447
0.028712 0.057299 0.070340
0.070737 0.056218 0.063654
0.123712 0.058048 0.060233
0.198492 0.064327 0.057200
0.306900 0.078513 0.057000
0.441364 0.100295 0.061104
0.569772 0.121739 0.068441
0.675597 0.136978 0.076559
0.745992 0.141888 0.080304
0.794693 0.143000 0.081467
0.833580 0.143264 0.082470
0.866140 0.142225 0.082947
0.894845 0.141188 0.083180
0.918445 0.140388 0.083312
0.941673 0.139634 0.083320
0.004220 0.088880 0.113480
0.028781 0.088192 0.110436
0.068397 0.087056 0.102545
0.119928 0.088328 0.096292
0.196440 0.093261 0.091817
0.310647 0.106193 0.088813
0.444684 0.127340 0.090920
0.572835 0.148503 0.097373
0.678104 0.163575 0.105096
0.747652 0.168644 0.108880
0.795407 0.169807 0.109973
0.833905 0.169900 0.110792
0.866460 0.168668 0.111240
0.895223 0.167496 0.111473
0.919012 0.166539 0.111687
0.942359 0.165668 0.111720
0.003233 0.123707 0.165240
0.027926 0.123483 0.161684
0.065885 0.122738 0.152268
0.114067 0.122963 0.140543
0.191034 0.126701 0.131880
0.308718 0.137660 0.125693
0.447676 0.156801 0.123469
0.576675 0.177393 0.127588
0.679896 0.192024 0.134444
0.748468 0.197119 0.138171
0.796073 0.198349 0.139342
0.834295 0.198288 0.139962
0.866807 0.196913 0.140339
0.895523 0.195548 0.140567
0.919355 0.194615 0.140755
0.942785 0.193669 0.140866
0.002600 0.169267 0.226867
0.027176 0.169164 0.223991
0.064131 0.169107 0.214756
0.105820 0.169107 0.200653
0.179402 0.171569 0.183711
0.301411 0.180656 0.170778
0.449420 0.195367 0.160933
0.580344 0.212949 0.159700
0.680665 0.225998 0.163949
0.749340 0.230633 0.167060
0.797100 0.231678 0.168367
0.834849 0.231293 0.168722
0.867267 0.229853 0.168873
0.896047 0.228291 0.169073
0.919882 0.227229 0.169193
0.943278 0.226243 0.169299
0.001680 0.238640 0.305200
0.024164 0.238576 0.304000
0.060556 0.238435 0.299776
0.097388 0.237864 0.291552
0.152471 0.239064 0.276117
0.264727 0.249500 0.254720
0.427500 0.267148 0.230952
0.572116 0.276884 0.213684
0.675017 0.283839 0.206676
0.746860 0.285108 0.204300
0.795820 0.282967 0.203313
0.833208 0.280947 0.202801
0.865256 0.279048 0.202572
0.893876 0.277380 0.202471
0.917895 0.276135 0.202404
0.941358 0.275030 0.202380
0.000000 0.342180 0.412347
0.011250 0.342176 0.412367
0.044588 0.342091 0.412629
0.079484 0.341920 0.412048
0.120855 0.341929 0.407301
0.189951 0.351878 0.391204
0.335251 0.382759 0.361115
0.520108 0.401391 0.328100
0.652382 0.402155 0.301871
0.735660 0.398012 0.281591
0.792038 0.390322 0.267287
0.831736 0.383916 0.259905
0.863859 0.379555 0.256572
0.892152 0.376883 0.254811
0.916277 0.375243 0.253817
0.940068 0.373827 0.253054
0.000000 0.458927 0.521147
0.006425 0.458933 0.521156
0.039464 0.459033 0.521354
0.074684 0.459104 0.521851
0.114789 0.458900 0.521726
0.161560 0.461389 0.517569
0.246579 0.485713 0.495131
0.426991 0.528765 0.459631
0.606995 0.545430 0.432833
0.711617 0.541788 0.405868
0.782473 0.533842 0.380265
0.830079 0.525082 0.362128
0.864733 0.519128 0.352081
0.893741 0.516012 0.346399
0.918279 0.514436 0.342923
0.942939 0.513080 0.339638
0.005280 0.564400 0.618520
0.023689 0.564400 0.618520
0.058345 0.564358 0.618496
0.093392 0.563892 0.618188
0.133237 0.562596 0.617212
0.178253 0.560053 0.615333
0.232848 0.564720 0.602256
0.348575 0.606295 0.563176
0.537322 0.657143 0.530813
0.676376 0.667944 0.514864
0.755787 0.662947 0.496227
0.813545 0.657577 0.478920
0.855556 0.653236 0.465544
0.887664 0.650227 0.457101
0.913488 0.648574 0.452277
0.939295 0.647490 0.447882
0.003533 0.636533 0.690200
0.027238 0.636533 0.690200
0.061807 0.636507 0.690169
0.096213 0.636060 0.689660
0.136738 0.634487 0.687909
0.182822 0.632556 0.685800
0.233867 0.632067 0.681773
0.311393 0.658211 0.655147
0.481438 0.724078 0.609707
0.647960 0.762947 0.584813
0.734756 0.764822 0.570445
0.791251 0.761687 0.560969
0.836433 0.759180 0.553413
0.874244 0.756827 0.545756
0.903533 0.755413 0.540693
0.930710 0.754673 0.536902
0.001047 0.680373 0.731967
0.024788 0.680373 0.731967
0.059303 0.680373 0.731967
0.093607 0.680251 0.731833
0.134321 0.679531 0.731028
0.181167 0.678767 0.729933
0.232383 0.679159 0.728936
0.297287 0.690989 0.722808
0.424160 0.742680 0.690375
0.609074 0.807823 0.647999
0.725980 0.828633 0.625247
0.783867 0.828278 0.615533
0.827339 0.827107 0.612772
0.864463 0.825976 0.610632
0.895873 0.825386 0.607621
0.924866 0.824858 0.604351
0.001660 0.714640 0.762420
0.025432 0.714640 0.762420
0.059989 0.714640 0.762420
0.094252 0.714656 0.762404
0.134967 0.714576 0.762196
0.181753 0.714233 0.761667
0.232596 0.715116 0.761416
0.293580 0.721908 0.763297
0.382721 0.755935 0.752353
0.560572 0.819668 0.719428
0.711260 0.864180 0.681700
0.779973 0.873299 0.662916
0.825280 0.873336 0.659380
0.861759 0.873149 0.659348
0.891527 0.873139 0.658876
0.921020 0.873279 0.657929
0.003880 0.748100 0.793120
0.027648 0.748100 0.793120
0.062152 0.748100 0.793120
0.096463 0.748192 0.793085
0.137256 0.748612 0.792883
0.184389 0.748998 0.792751
0.235545 0.750633 0.793261
0.296957 0.757897 0.796986
0.368765 0.776034 0.803404
0.509998 0.822836 0.789831
0.678533 0.879251 0.752878
0.773422 0.907640 0.718378
0.823175 0.912644 0.708013
0.860695 0.912912 0.707263
0.890855 0.913188 0.707153
0.919720 0.913590 0.707351
0.005787 0.776753 0.819960
0.029466 0.776753 0.819960
0.064034 0.776753 0.819960
0.098273 0.776853 0.819957
0.139098 0.777433 0.819844
0.186447 0.778411 0.819720
0.238033 0.780953 0.820744
0.300064 0.788913 0.825583
0.370891 0.805073 0.836054
0.481445 0.835105 0.835929
0.644787 0.885211 0.813656
0.758945 0.926019 0.778007
0.819895 0.942828 0.751739
0.860312 0.945605 0.746665
0.891202 0.945987 0.746259
0.919909 0.946403 0.746629
0.008573 0.802656 0.844667
0.032339 0.802656 0.844667
0.066833 0.802656 0.844667
0.101172 0.802796 0.844746
0.142104 0.803593 0.845009
0.189636 0.804917 0.845028
0.241764 0.808203 0.846319
0.304768 0.817154 0.852090
0.377126 0.833947 0.863390
0.468040 0.851622 0.874121
0.618445 0.890318 0.864061
0.739381 0.932531 0.836929
0.813126 0.962935 0.801544
0.859409 0.972396 0.784073
0.891293 0.973509 0.781904
0.920224 0.973840 0.781868
0.004087 0.012687 0.024327
0.029086 0.011854 0.021730
0.070465 0.011431 0.018169
0.124201 0.014713 0.015920
0.195533 0.022368 0.013940
0.298500 0.036613 0.016456
0.434143 0.058819 0.021447
0.565863 0.081010 0.029654
0.672103 0.096459 0.038123
0.742479 0.101033 0.041991
0.791104 0.101558 0.043064
0.831262 0.102314 0.044344
0.864549 0.101741 0.045001
0.893216 0.101109 0.045172
0.916941 0.100468 0.045274
0.940167 0.099720 0.045273
0.003801 0.033326 0.048969
0.028745 0.032459 0.045733
0.070988 0.031813 0.040585
0.124155 0.034337 0.038331
0.197334 0.041571 0.035873
0.302857 0.056099 0.037472
0.438533 0.078203 0.042217
0.567971 0.099792 0.049870
0.673734 0.115127 0.058208
0.744193 0.119856 0.062027
0.793000 0.120685 0.063161
0.832658 0.121193 0.064308
0.865591 0.120341 0.064832
0.894157 0.119467 0.065066
0.917625 0.118701 0.065104
0.940727 0.117867 0.065112
0.003940 0.062350 0.087630
0.028638 0.061573 0.084805
0.069891 0.060433 0.077689
0.123097 0.062200 0.073661
0.198738 0.068385 0.070614
0.308930 0.082446 0.069875
0.443234 0.104164 0.073659
0.571109 0.125413 0.080668
0.676497 0.140519 0.088616
0.746606 0.145445 0.092437
0.794804 0.146513 0.093562
0.833464 0.146646 0.094458
0.866010 0.145549 0.094900
0.894701 0.144351 0.095142
0.918385 0.143354 0.095264
0.941546 0.142562 0.095370
0.003916 0.093016 0.131776
0.028508 0.092419 0.128378
0.067482 0.091082 0.119520
0.118533 0.092364 0.112043
0.195172 0.097120 0.107259
0.311047 0.109888 0.103837
0.446411 0.130892 0.105076
0.574388 0.151875 0.110830
0.678825 0.166701 0.118310
0.747804 0.171730 0.122199
0.795356 0.172915 0.123274
0.833731 0.172959 0.124018
0.866252 0.171577 0.124376
0.894940 0.170319 0.124657
0.918700 0.169248 0.124788
0.942119 0.168285 0.124895
0.002791 0.129818 0.188700
0.027351 0.129666 0.184759
0.065020 0.129196 0.174484
0.112075 0.129056 0.161096
0.188794 0.132887 0.150335
0.307481 0.143627 0.143361
0.449212 0.162117 0.139613
0.578550 0.182362 0.142464
0.680268 0.196624 0.148617
0.748560 0.201677 0.152291
0.796111 0.202902 0.153560
0.834149 0.202742 0.154062
0.866632 0.201277 0.154338
0.895316 0.199747 0.154529
0.919075 0.198606 0.154646
0.942498 0.197620 0.154783
0.002571 0.179907 0.254124
0.026876 0.179665 0.251756
0.063305 0.179429 0.243719
0.104083 0.179535 0.228807
0.175672 0.182414 0.208526
0.298075 0.191334 0.193312
0.449314 0.205108 0.181274
0.581199 0.221382 0.177212
0.680626 0.233446 0.179689
0.749447 0.237357 0.182284
0.797242 0.238104 0.183533
0.834815 0.237611 0.183685
0.867135 0.236117 0.183682
0.895840 0.234516 0.183765
0.919665 0.233356 0.183898
0.943091 0.232332 0.184074
0.003185 0.253677 0.329181
0.027285 0.253436 0.328363
0.063059 0.253032 0.325238
0.099781 0.252798 0.317239
0.153811 0.254415 0.300506
0.265833 0.263567 0.277959
0.431518 0.278557 0.253924
0.575681 0.286602 0.234123
0.678490 0.291759 0.224732
0.749638 0.291421 0.220817
0.798094 0.288571 0.219215
0.835346 0.286460 0.218440
0.867207 0.284577 0.217989
0.895713 0.282832 0.217785
0.919602 0.281597 0.217768
0.943078 0.280518 0.217797
0.001884 0.360094 0.428455
0.017187 0.360032 0.428524
0.052521 0.359871 0.428716
0.087641 0.359536 0.428042
0.128884 0.359483 0.423704
0.198554 0.364769 0.410217
0.347080 0.387548 0.382900
0.532352 0.407716 0.350096
0.662110 0.407134 0.323885
0.743475 0.401487 0.302716
0.798014 0.392816 0.287300
0.837073 0.386233 0.279290
0.869228 0.382001 0.275658
0.897457 0.379447 0.273935
0.921420 0.377696 0.273000
0.945150 0.376080 0.272198
0.000665 0.477847 0.538507
0.015840 0.477855 0.538518
0.050910 0.477955 0.538715
0.086209 0.477789 0.538948
0.126275 0.477364 0.538660
0.172682 0.476427 0.535177
0.256282 0.491363 0.517061
0.435692 0.533411 0.484154
0.615299 0.553322 0.456066
0.719334 0.549011 0.430242
0.788376 0.540512 0.405137
0.834977 0.531851 0.387407
0.869457 0.526125 0.377786
0.898420 0.523082 0.372555
0.922969 0.521277 0.369331
0.947637 0.519643 0.366123
0.009783 0.579864 0.633332
0.033500 0.579863 0.633332
0.068230 0.579759 0.633281
0.103415 0.578942 0.632800
0.143392 0.577647 0.631745
0.188752 0.575290 0.629541
0.240691 0.575385 0.620056
0.349358 0.609176 0.588216
0.539789 0.663259 0.554279
0.682471 0.678022 0.536973
0.760601 0.673254 0.519731
0.817412 0.668045 0.503874
0.859117 0.664060 0.491563
0.891467 0.661439 0.483743
0.917474 0.659685 0.478999
0.943038 0.658265 0.474725
0.012940 0.646044 0.699425
0.036620 0.646044 0.699425
0.071285 0.645985 0.699361
0.106187 0.645369 0.698679
0.146884 0.644003 0.697065
0.193350 0.642410 0.695049
0.244785 0.641994 0.692350
0.317087 0.660326 0.676256
0.484882 0.720839 0.639842
0.656792 0.765044 0.611332
0.743463 0.768872 0.596222
0.798851 0.765312 0.587278
0.844015 0.763173 0.579792
0.881148 0.761423 0.573029
0.909871 0.760134 0.568567
0.936258 0.759325 0.565022
0.011219 0.687157 0.738101
0.034962 0.687157 0.738101
0.069516 0.687150 0.738081
0.104128 0.686991 0.737830
0.145164 0.686320 0.737041
0.192219 0.685762 0.736004
0.244225 0.686990 0.735510
0.308160 0.695828 0.735085
0.428166 0.739561 0.715101
0.613160 0.802838 0.677118
0.734793 0.827678 0.651630
0.792281 0.828537 0.642447
0.835186 0.827163 0.639703
0.871936 0.826050 0.636888
0.903595 0.825763 0.633941
0.931725 0.825507 0.631460
0.011517 0.720999 0.768193
0.035284 0.720999 0.768193
0.069787 0.720999 0.768191
0.104288 0.721035 0.768158
0.145499 0.720998 0.767938
0.192472 0.720844 0.767496
0.244189 0.722726 0.767783
0.306856 0.730511 0.771337
0.390693 0.756873 0.770364
0.562847 0.813608 0.747056
0.718811 0.862108 0.707204
0.788917 0.873658 0.688550
0.832730 0.873415 0.685615
0.868834 0.872984 0.684847
0.898967 0.873100 0.684109
0.927997 0.873144 0.682880
0.013708 0.754009 0.798579
0.037475 0.754009 0.798579
0.071977 0.754009 0.798578
0.106463 0.754122 0.798522
0.147814 0.754597 0.798255
0.195098 0.755191 0.798231
0.247334 0.758048 0.799444
0.310804 0.766972 0.804508
0.383681 0.784183 0.813713
0.520948 0.822334 0.809455
0.685562 0.874180 0.778777
0.781786 0.905961 0.742709
0.831681 0.911991 0.731785
0.868803 0.912343 0.730769
0.898867 0.912651 0.730662
0.927212 0.913019 0.730787
0.014506 0.782475 0.825354
0.038278 0.782475 0.825354
0.072844 0.782475 0.825354
0.107232 0.782596 0.825350
0.148582 0.783286 0.825256
0.196110 0.784519 0.825308
0.248813 0.788073 0.827057
0.312849 0.797697 0.833127
0.385959 0.814764 0.844400
0.493691 0.836726 0.852069
0.650381 0.880235 0.836255
0.763688 0.920764 0.802224
0.826953 0.941706 0.773282
0.867384 0.945350 0.767277
0.898004 0.945709 0.766744
0.926156 0.945854 0.766830
0.016929 0.807406 0.849196
0.040702 0.807406 0.849196
0.075273 0.807407 0.849196
0.109694 0.807613 0.849296
0.151211 0.808632 0.849619
0.198859 0.810001 0.849675
0.252147 0.814189 0.851695
0.317270 0.824982 0.858648
0.392098 0.842355 0.870395
0.494814 0.860262 0.881159
0.632618 0.889743 0.879159
0.743360 0.927001 0.857283
0.818216 0.957962 0.823891
0.865990 0.971220 0.803131
0.897559 0.973170 0.800383
0.925921 0.973622 0.800350
0.003873 0.017247 0.039007
0.028868 0.016700 0.036897
0.070153 0.016325 0.032727
0.123913 0.019348 0.030723
0.196493 0.027010 0.028632
0.301140 0.041529 0.030944
0.437588 0.063811 0.035991
0.567562 0.085480 0.043794
0.673006 0.100652 0.052100
0.743415 0.105337 0.055988
0.792220 0.106127 0.057158
0.831998 0.106611 0.058317
0.864955 0.105832 0.058847
0.893345 0.104922 0.059080
0.916773 0.104054 0.059107
0.939980 0.103109 0.059008
0.003720 0.039827 0.066071
0.028486 0.038785 0.062492
0.070712 0.038112 0.056832
0.123892 0.040418 0.054203
0.198346 0.047453 0.051730
0.305718 0.062119 0.052627
0.441339 0.084121 0.057225
0.569559 0.105464 0.064600
0.674879 0.120621 0.072770
0.745275 0.125400 0.076607
0.794032 0.126394 0.077725
0.833028 0.126708 0.078729
0.865585 0.125684 0.079208
0.894112 0.124483 0.079441
0.917596 0.123647 0.079561
0.940628 0.122786 0.079574
0.003936 0.069183 0.107602
0.028517 0.068418 0.104549
0.068690 0.067245 0.097167
0.121418 0.068928 0.092107
0.198037 0.074798 0.088796
0.311173 0.088673 0.087211
0.445392 0.110238 0.090254
0.572851 0.131245 0.096797
0.677655 0.146146 0.104592
0.747170 0.151112 0.108524
0.794855 0.152187 0.109543
0.833367 0.152240 0.110337
0.865757 0.150921 0.110769
0.894407 0.149634 0.111007
0.918156 0.148641 0.111131
0.941334 0.147666 0.111236
0.003231 0.101877 0.157637
0.027949 0.101368 0.153837
0.066232 0.100007 0.144014
0.116011 0.101039 0.134129
0.192553 0.105561 0.128301
0.310569 0.117940 0.124192
0.448654 0.138553 0.123814
0.576656 0.159312 0.128404
0.679557 0.173784 0.135395
0.747922 0.178850 0.139306
0.795396 0.180116 0.140411
0.833706 0.180035 0.141033
0.866119 0.178555 0.141312
0.894736 0.177055 0.141571
0.918487 0.176006 0.141712
0.941843 0.174974 0.141839
0.002059 0.141090 0.220798
0.026633 0.140995 0.216790
0.063838 0.140799 0.205260
0.108645 0.140652 0.190082
0.184758 0.144323 0.175500
0.304702 0.154739 0.166728
0.450528 0.171861 0.160476
0.580843 0.191467 0.161418
0.680629 0.205209 0.166335
0.748651 0.210094 0.169767
0.796268 0.211307 0.171125
0.834146 0.210952 0.171378
0.866588 0.209434 0.171509
0.895156 0.207659 0.171705
0.918887 0.206475 0.171837
0.942285 0.205492 0.172042
0.002638 0.194622 0.289511
0.026857 0.194498 0.287571
0.062870 0.194367 0.281256
0.101872 0.194127 0.267424
0.169694 0.197076 0.243231
0.292221 0.206718 0.224107
0.447358 0.219464 0.209373
0.580983 0.233607 0.201507
0.680407 0.244139 0.200959
0.749449 0.247058 0.202240
0.797385 0.247190 0.203272
0.834792 0.246459 0.203226
0.866954 0.244816 0.202897
0.895605 0.243156 0.202812
0.919391 0.241991 0.202871
0.942781 0.241007 0.203074
0.005732 0.279696 0.365181
0.029811 0.279529 0.364918
0.065216 0.279175 0.363687
0.100799 0.278776 0.358457
0.151869 0.280204 0.342282
0.260926 0.289074 0.317366
0.429093 0.302405 0.293878
0.577079 0.307960 0.269742
0.680896 0.309753 0.254639
0.751954 0.306935 0.247195
0.800112 0.302449 0.243988
0.837188 0.299537 0.242547
0.868949 0.297284 0.241548
0.897375 0.295485 0.241079
0.921166 0.294305 0.241052
0.944651 0.293296 0.241217
0.004619 0.392299 0.458322
0.023506 0.392246 0.458398
0.059026 0.392122 0.458580
0.094289 0.391802 0.458023
0.135010 0.391417 0.454750
0.202545 0.395029 0.443625
0.348786 0.413239 0.419648
0.535291 0.430441 0.388345
0.667776 0.428313 0.360456
0.748951 0.420502 0.337509
0.802966 0.410419 0.320229
0.841757 0.403077 0.310587
0.873938 0.398884 0.305992
0.902337 0.396546 0.304114
0.926324 0.394989 0.303159
0.950110 0.393405 0.302313
0.010987 0.507229 0.566482
0.029743 0.507220 0.566482
0.065005 0.506988 0.566412
0.099997 0.506097 0.565791
0.139616 0.504860 0.564657
0.185525 0.503112 0.560720
0.263381 0.510082 0.546259
0.436947 0.546573 0.518571
0.619385 0.572652 0.491015
0.724113 0.568474 0.467353
0.792868 0.559640 0.443191
0.839323 0.551596 0.425750
0.873702 0.546380 0.416270
0.902863 0.543438 0.411209
0.927685 0.541660 0.408007
0.952469 0.539765 0.404764
0.022900 0.600301 0.653633
0.046673 0.600290 0.653630
0.081415 0.599941 0.653439
0.116649 0.598412 0.652233
0.156555 0.596515 0.650432
0.202182 0.593930 0.647434
0.252489 0.590817 0.640222
0.353051 0.616464 0.617022
0.543443 0.671623 0.585670
0.690603 0.690737 0.566956
0.767424 0.686065 0.551132
0.822891 0.681439 0.536752
0.863895 0.677653 0.525905
0.896090 0.675246 0.518992
0.922453 0.673822 0.514510
0.947790 0.672293 0.510284
0.021291 0.656756 0.709793
0.045059 0.656756 0.709793
0.079729 0.656673 0.709714
0.115180 0.655938 0.708943
0.156082 0.654752 0.707397
0.202968 0.653498 0.705477
0.255484 0.654239 0.703482
0.323089 0.665645 0.696581
0.485463 0.718827 0.670042
0.662473 0.768548 0.638390
0.751219 0.775189 0.621893
0.805629 0.771781 0.613467
0.849891 0.769666 0.606642
0.886670 0.768499 0.601109
0.914961 0.767626 0.597309
0.940818 0.766748 0.594082
0.020861 0.697030 0.746782
0.044633 0.697030 0.746782
0.079312 0.697020 0.746769
0.114455 0.696855 0.746573
0.155512 0.696278 0.745865
0.202728 0.696056 0.745136
0.255637 0.698430 0.745382
0.320161 0.707170 0.748224
0.431103 0.741479 0.741608
0.613063 0.799383 0.711864
0.741610 0.830528 0.682633
0.800413 0.833802 0.671979
0.842882 0.832321 0.668893
0.879520 0.831392 0.666166
0.910414 0.831118 0.663561
0.937435 0.830934 0.661788
0.021427 0.731220 0.777436
0.045185 0.731220 0.777436
0.079799 0.731234 0.777434
0.114860 0.731342 0.777389
0.156162 0.731330 0.777155
0.203348 0.731590 0.776974
0.256257 0.734714 0.778033
0.321102 0.744434 0.783045
0.400479 0.763410 0.790905
0.561682 0.809797 0.779604
0.721070 0.860226 0.743179
0.796563 0.877167 0.720359
0.840843 0.878404 0.715546
0.877072 0.878282 0.714607
0.907328 0.878426 0.714047
0.934945 0.878345 0.713249
0.022367 0.761430 0.805441
0.046126 0.761430 0.805441
0.080770 0.761435 0.805430
0.115689 0.761582 0.805313
0.157135 0.762096 0.805103
0.204608 0.763001 0.805215
0.258097 0.767007 0.807129
0.323598 0.777644 0.813576
0.399332 0.794665 0.824548
0.531254 0.823723 0.828800
0.688713 0.869902 0.805855
0.787269 0.905344 0.768296
0.838798 0.913660 0.755127
0.875866 0.914205 0.753458
0.905626 0.914454 0.753173
0.933184 0.914701 0.753356
0.023123 0.789088 0.831648
0.046889 0.789088 0.831648
0.081440 0.789094 0.831650
0.116276 0.789269 0.831663
0.157855 0.790071 0.831577
0.205538 0.791592 0.831737
0.259480 0.796142 0.834212
0.325688 0.807560 0.841609
0.402608 0.825471 0.853470
0.516504 0.844555 0.864142
0.660820 0.878615 0.856537
0.766530 0.915396 0.827605
0.833379 0.941022 0.795328
0.874108 0.946093 0.788130
0.904318 0.946501 0.787303
0.931701 0.946713 0.787371
0.025529 0.815708 0.857205
0.049296 0.815708 0.857205
0.083842 0.815727 0.857210
0.118745 0.816069 0.857361
0.160619 0.817230 0.857776
0.208515 0.818862 0.857985
0.263070 0.824022 0.860790
0.330487 0.836924 0.869105
0.410767 0.854947 0.881104
0.523525 0.872787 0.892140
0.645698 0.891837 0.899620
0.745508 0.922756 0.884019
0.820893 0.953685 0.853446
0.872625 0.973035 0.826922
0.904283 0.975897 0.823027
0.931936 0.976428 0.823099
0.003680 0.021880 0.052840
0.028651 0.021315 0.050473
0.070096 0.020941 0.045961
0.123696 0.023812 0.043948
0.197499 0.031332 0.041777
0.303600 0.045987 0.043613
0.440160 0.068256 0.048592
0.568901 0.089684 0.056119
0.673968 0.104649 0.064311
0.744344 0.109384 0.068248
0.793160 0.110293 0.069387
0.832371 0.110557 0.070439
0.864904 0.109544 0.070940
0.893331 0.108485 0.071173
0.916773 0.107520 0.071219
0.939980 0.106549 0.071121
0.003716 0.044805 0.081305
0.028418 0.043799 0.078084
0.069925 0.043084 0.072040
0.123289 0.045291 0.068821
0.199006 0.052194 0.066350
0.308120 0.066767 0.066608
0.443412 0.088676 0.070848
0.570952 0.109841 0.077974
0.675898 0.124766 0.085973
0.746061 0.129633 0.089884
0.794318 0.130650 0.090937
0.832951 0.130759 0.091856
0.865375 0.129584 0.092327
0.893896 0.128337 0.092561
0.917453 0.127345 0.092681
0.940598 0.126388 0.092713
0.003801 0.075427 0.126532
0.028423 0.074668 0.123273
0.067756 0.073369 0.115106
0.119603 0.075094 0.109248
0.196430 0.080619 0.105832
0.312129 0.094280 0.103564
0.447328 0.115799 0.105625
0.574465 0.136641 0.111518
0.678457 0.151248 0.119081
0.747374 0.156216 0.123091
0.794827 0.157343 0.124055
0.833262 0.157302 0.124755
0.865576 0.155866 0.125158
0.894195 0.154454 0.125396
0.917872 0.153419 0.125534
0.941186 0.152370 0.125643
0.002700 0.108168 0.181124
0.027371 0.107798 0.176549
0.065391 0.106606 0.165972
0.113718 0.107314 0.154317
0.190016 0.111912 0.147219
0.309541 0.123968 0.142487
0.450496 0.144200 0.140706
0.578735 0.164817 0.144116
0.680043 0.178911 0.150401
0.747982 0.183972 0.154355
0.795464 0.185247 0.155587
0.833617 0.185090 0.155968
0.866006 0.183531 0.156209
0.894555 0.181792 0.156417
0.918279 0.180628 0.156646
0.941682 0.179606 0.156799
0.001777 0.149155 0.248452
0.026163 0.149174 0.244971
0.062888 0.149280 0.233801
0.106032 0.149457 0.216602
0.180159 0.153117 0.199499
0.301161 0.163269 0.188643
0.450647 0.179523 0.180366
0.581852 0.198282 0.179233
0.680608 0.211373 0.182639
0.748659 0.215879 0.185725
0.796346 0.216950 0.187126
0.834069 0.216475 0.187188
0.866413 0.214874 0.187119
0.894995 0.213067 0.187244
0.918682 0.211852 0.187462
0.942061 0.210901 0.187704
0.002660 0.207527 0.320307
0.026824 0.207492 0.318810
0.062759 0.207683 0.313275
0.100929 0.208020 0.300333
0.163928 0.210678 0.275914
0.285427 0.220509 0.253224
0.444864 0.233009 0.236079
0.580240 0.245202 0.224729
0.680236 0.254205 0.221220
0.749433 0.255853 0.220687
0.797469 0.255071 0.221002
0.834842 0.254068 0.220785
0.866835 0.252296 0.220163
0.895413 0.250597 0.219825
0.919185 0.249448 0.219880
0.942539 0.248542 0.220124
0.007124 0.301244 0.394776
0.031204 0.301187 0.394976
0.066608 0.301131 0.394832
0.102086 0.301164 0.391877
0.150257 0.302249 0.378661
0.253787 0.310649 0.353692
0.424251 0.323564 0.330513
0.576892 0.328489 0.305169
0.682556 0.327913 0.285851
0.753918 0.322362 0.273958
0.801839 0.315915 0.267940
0.838682 0.312050 0.265456
0.870392 0.309350 0.263920
0.898740 0.307343 0.263013
0.922506 0.306025 0.262789
0.945978 0.305049 0.262962
0.007453 0.420668 0.487235
0.031482 0.420683 0.487390
0.067296 0.420710 0.487773
0.102626 0.420318 0.487293
0.143180 0.419704 0.484301
0.208837 0.422007 0.474423
0.349528 0.435346 0.454243
0.535386 0.450560 0.426695
