example_ofxGpuLutCube/bin/data/ofxGpuLutCube/LUT/C45 (lavender hard contrasty).cube
LUT_3D_SIZE 6
0.004100 0.009400 0.013900
0.124220 0.011400 0.005480
0.433600 0.055440 0.011020
0.742320 0.097760 0.031640
0.864440 0.098560 0.034640
0.940180 0.096607 0.034900
0.004220 0.088880 0.113480
0.119928 0.088328 0.096292
0.444684 0.127340 0.090920
0.747652 0.168644 0.108880
0.866460 0.168668 0.111240
0.942359 0.165668 0.111720
0.001680 0.238640 0.305200
0.097388 0.237864 0.291552
0.427500 0.267148 0.230952
0.746860 0.285108 0.204300
0.865256 0.279048 0.202572
0.941358 0.275030 0.202380
0.005280 0.564400 0.618520
0.093392 0.563892 0.618188
0.232848 0.564720 0.602256
0.676376 0.667944 0.514864
0.855556 0.653236 0.465544
0.939295 0.647490 0.447882
0.001660 0.714640 0.762420
0.094252 0.714656 0.762404
0.232596 0.715116 0.761416
0.560572 0.819668 0.719428
0.825280 0.873336 0.659380
0.921020 0.873279 0.657929
0.008573 0.802656 0.844667
0.101172 0.802796 0.844746
0.241764 0.808203 0.846319
0.468040 0.851622 0.874121
0.813126 0.962935 0.801544
0.920224 0.973840 0.781868
0.003680 0.021880 0.052840
0.123696 0.023812 0.043948
0.440160 0.068256 0.048592
0.744344 0.109384 0.068248
0.864904 0.109544 0.070940
0.939980 0.106549 0.071121
0.002700 0.108168 0.181124
0.113718 0.107314 0.154317
0.450496 0.144200 0.140706
0.747982 0.183972 0.154355
0.866006 0.183531 0.156209
0.941682 0.179606 0.156799
0.007124 0.301244 0.394776
0.102086 0.301164 0.391877
0.424251 0.323564 0.330513
0.753918 0.322362 0.273958
0.870392 0.309350 0.263920
0.945978 0.305049 0.262962
0.033316 0.615176 0.668756
0.127543 0.612998 0.666721
0.266261 0.607294 0.654860
0.700033 0.699529 0.594565
0.869447 0.687043 0.557494
0.952219 0.681999 0.543163
0.029636 0.738680 0.784396
0.123657 0.738985 0.784235
0.266655 0.743820 0.785762
0.569494 0.810658 0.800754
0.847599 0.880734 0.737579
0.940003 0.880358 0.735388
0.032472 0.821436 0.862824
0.126451 0.822130 0.863238
0.272211 0.831349 0.867598
0.547520 0.882167 0.900259
0.823250 0.949493 0.875082
0.936850 0.977671 0.840687
0.003400 0.035740 0.097420
0.121940 0.037112 0.086520
0.446304 0.081008 0.088292
0.746376 0.121048 0.107024
0.864276 0.120588 0.109172
0.939599 0.117049 0.109660
0.001556 0.129100 0.256376
0.107821 0.129334 0.224793
0.451439 0.163506 0.198564
0.747797 0.199771 0.202693
0.865432 0.198512 0.203598
0.940939 0.194837 0.204797
0.010400 0.371312 0.484416
0.105257 0.370402 0.484210
0.388021 0.390338 0.442742
0.757274 0.382033 0.371396
0.874444 0.358392 0.345051
0.950441 0.351604 0.341780
0.059852 0.650848 0.703936
0.156124 0.648618 0.701362
0.303704 0.650268 0.693456
0.719299 0.715379 0.675388
0.885450 0.711285 0.645106
0.965659 0.706889 0.634865
0.054524 0.757848 0.802140
0.150424 0.758502 0.801854
0.300026 0.768941 0.806974
0.633973 0.827998 0.841046
0.867390 0.881960 0.798366
0.954769 0.881118 0.795889
0.054835 0.834886 0.876030
0.151088 0.836585 0.876768
0.302972 0.850461 0.884625
0.620339 0.906157 0.921139
0.836791 0.938451 0.926259
0.952581 0.976212 0.888689
0.003340 0.049240 0.145940
0.117552 0.050636 0.134888
0.452204 0.093268 0.133424
0.746528 0.132084 0.149068
0.863688 0.131280 0.150828
0.938798 0.127210 0.151638
0.001104 0.153376 0.332680
0.104453 0.155262 0.305057
0.439276 0.186090 0.268974
0.746546 0.217113 0.258504
0.863693 0.214014 0.255614
0.939021 0.209823 0.257385
0.018160 0.439320 0.569828
0.113376 0.439030 0.570987
0.354588 0.452699 0.541617
0.757098 0.450209 0.480861
0.877814 0.418970 0.444454
0.953728 0.409580 0.438390
0.079724 0.676116 0.731072
0.177742 0.674154 0.728641
0.335182 0.686236 0.728478
0.742850 0.736585 0.736610
0.897167 0.730228 0.720178
0.975541 0.727428 0.714497
0.075108 0.776012 0.819240
0.172680 0.777244 0.819006
0.330558 0.794870 0.829278
0.689317 0.854161 0.864999
0.881662 0.884001 0.851487
0.967523 0.885975 0.849462
0.072491 0.848470 0.889572
0.170847 0.851212 0.890760
0.330058 0.871401 0.903145
0.669444 0.927188 0.939820
0.857892 0.946371 0.952807
0.965199 0.977257 0.924578
0.002720 0.060460 0.195120
0.115408 0.063264 0.186032
0.456552 0.104532 0.183256
0.746288 0.141388 0.192076
0.863264 0.140468 0.193704
0.937939 0.135811 0.194598
0.000876 0.181660 0.407604
0.104108 0.183694 0.386300
0.422027 0.213273 0.348431
0.746881 0.236428 0.321362
0.862372 0.231116 0.313885
0.935797 0.223035 0.313385
0.030024 0.496496 0.647496
0.125383 0.495094 0.647817
0.328791 0.501448 0.625014
0.754842 0.516318 0.583910
0.880118 0.482974 0.545742
0.955716 0.472025 0.538878
0.083912 0.697272 0.769108
0.182134 0.695870 0.767322
0.342112 0.710560 0.773081
0.739931 0.766314 0.794626
0.896701 0.763139 0.787684
0.975305 0.760549 0.784913
0.093864 0.790788 0.834036
0.193245 0.792789 0.833992
0.360402 0.817337 0.849406
0.731165 0.874589 0.884930
0.896885 0.886607 0.892207
0.979465 0.887623 0.892044
0.087964 0.861295 0.902396
0.188201 0.864985 0.904067
0.354611 0.890511 0.920418
0.707155 0.945532 0.956488
0.881766 0.963109 0.967711
0.976341 0.979082 0.954890
0.005784 0.074158 0.250913
0.115138 0.078018 0.243974
0.447961 0.117130 0.241950
0.745126 0.150713 0.242015
0.861645 0.148880 0.241507
0.936984 0.144594 0.243539
0.003073 0.218609 0.479264
0.106146 0.218794 0.468356
0.408983 0.249464 0.433848
0.744235 0.258529 0.391607
0.859585 0.247250 0.379431
0.933813 0.239526 0.378909
0.048766 0.549617 0.711896
0.144270 0.547594 0.711304
0.319228 0.547078 0.694726
0.750493 0.577090 0.672195
0.883426 0.550309 0.641891
0.959958 0.540596 0.634747
0.086033 0.716064 0.805787
0.184408 0.715290 0.804713
0.345805 0.731765 0.813256
0.736106 0.791745 0.843983
0.895714 0.792700 0.843269
0.974909 0.790717 0.842034
0.097136 0.805393 0.862903
0.196668 0.807361 0.863469
0.366232 0.833578 0.880075
0.734424 0.890331 0.916330
0.899143 0.903072 0.924687
0.981046 0.903007 0.925240
0.102742 0.873065 0.914114
0.204968 0.877755 0.916329
0.380460 0.908508 0.936587
0.738371 0.962552 0.971455
0.903082 0.977773 0.980817
0.987011 0.980754 0.982542
