example_ofxGpuLutCube/bin/data/ofxGpuLutCube/LUT/C47 (green gray soft fade).cube
LUT_3D_SIZE 16
0.000000 0.000000 0.004900
0.016773 0.000027 0.004900
0.034653 0.000680 0.004927
0.057800 0.003120 0.005040
0.085347 0.006133 0.004293
0.129600 0.007900 0.002067
0.205320 0.008740 0.000240
0.312047 0.010827 0.000000
0.417487 0.013547 0.000000
0.499020 0.014920 0.000000
0.563100 0.016400 0.000000
0.616587 0.017927 0.000000
0.665760 0.018380 0.000000
0.707833 0.018573 0.000000
0.745473 0.018787 0.000000
0.783935 0.018899 0.000000
0.000427 0.030087 0.005220
0.018432 0.029236 0.005212
0.038240 0.028526 0.005092
0.060704 0.029405 0.004983
0.088174 0.031254 0.004784
0.133124 0.033493 0.003182
0.210411 0.034923 0.000416
0.317132 0.035905 0.000000
0.422881 0.037501 0.000000
0.504919 0.038820 0.000000
0.570180 0.040327 0.000000
0.624013 0.042134 0.000000
0.672605 0.042287 0.000000
0.714249 0.042582 0.000000
0.754591 0.043418 0.000000
0.791539 0.044958 0.000000
0.000787 0.063540 0.005700
0.018622 0.062732 0.005588
0.039406 0.061030 0.005296
0.063256 0.059717 0.005068
0.092006 0.059927 0.005047
0.139200 0.061444 0.003413
0.221741 0.063069 0.000352
0.332872 0.065171 0.000000
0.438742 0.067699 0.000000
0.521708 0.068985 0.000000
0.588633 0.070353 0.000000
0.642095 0.071950 0.000000
0.691928 0.071996 0.000000
0.737124 0.070498 0.000000
0.776159 0.071506 0.000000
0.812187 0.075520 0.000000
0.000600 0.098100 0.007460
0.017965 0.097464 0.006936
0.036851 0.095955 0.006773
0.060696 0.094500 0.005940
0.092973 0.092916 0.005284
0.147160 0.093033 0.003500
0.237616 0.094356 0.000276
0.355005 0.097579 0.000000
0.463144 0.101621 0.000000
0.545496 0.104420 0.000000
0.612133 0.106100 0.000000
0.666441 0.107331 0.000000
0.716292 0.107688 0.000000
0.759383 0.108203 0.000000
0.800588 0.109773 0.000000
0.834682 0.111999 0.000000
0.000147 0.136127 0.009567
0.017101 0.136319 0.009775
0.034892 0.136061 0.009804
0.057272 0.135481 0.008697
0.090111 0.134132 0.006136
0.151204 0.132136 0.003349
0.254293 0.132516 0.000132
0.382220 0.136494 0.000000
0.492790 0.140523 0.000000
0.574093 0.142985 0.000000
0.637858 0.145113 0.000000
0.692868 0.146072 0.000000
0.741908 0.147816 0.000000
0.783527 0.150539 0.000000
0.825656 0.153382 0.000000
0.862732 0.157527 0.000000
0.000000 0.179167 0.011733
0.016731 0.179996 0.011911
0.034060 0.180578 0.012040
0.054053 0.181920 0.011493
0.082658 0.182453 0.008347
0.147244 0.180389 0.002533
0.265627 0.178940 0.000000
0.404624 0.183300 0.000000
0.518047 0.187851 0.000000
0.599233 0.191973 0.000000
0.662700 0.195756 0.000000
0.717585 0.198098 0.000000
0.767193 0.199893 0.000000
0.811540 0.203007 0.000000
0.850816 0.206856 0.000000
0.888477 0.212380 0.000000
0.000000 0.232380 0.015160
0.016415 0.234131 0.015493
0.033607 0.235328 0.015981
0.053472 0.237128 0.015584
0.078048 0.240563 0.010773
0.134960 0.243900 0.002293
0.264640 0.240716 0.000000
0.417983 0.242532 0.000000
0.537108 0.248761 0.000000
0.620348 0.253632 0.000000
0.684833 0.258413 0.000000
0.741681 0.262107 0.000000
0.791756 0.265232 0.000000
0.836663 0.268801 0.000000
0.876153 0.273180 0.000000
0.915487 0.278212 0.000000
0.000000 0.294220 0.018473
0.016331 0.297102 0.019172
0.033193 0.299881 0.019922
0.053047 0.302925 0.019625
0.076048 0.309788 0.014856
0.123124 0.319682 0.004689
0.251059 0.318332 0.000000
0.423876 0.316089 0.000000
0.551197 0.322383 0.000000
0.637157 0.328200 0.000000
0.703285 0.334022 0.000000
0.761955 0.339156 0.000000
0.815267 0.343496 0.000000
0.859552 0.346747 0.000000
0.900004 0.350306 0.000000
0.941031 0.354322 0.000000
0.000000 0.364727 0.023380
0.016303 0.368601 0.023772
0.032760 0.372845 0.023982
0.052556 0.378477 0.023881
0.075344 0.388995 0.019197
0.117204 0.402402 0.006644
0.242259 0.407388 0.000000
0.432388 0.403225 0.000000
0.569863 0.405394 0.000000
0.657349 0.412467 0.000000
0.723747 0.419071 0.000000
0.782698 0.423075 0.000000
0.837176 0.425651 0.000000
0.881693 0.426573 0.000000
0.921141 0.428034 0.000000
0.960461 0.430496 0.000000
0.000000 0.438260 0.027960
0.016273 0.442795 0.028000
0.032321 0.450515 0.028011
0.052168 0.457400 0.027440
0.075176 0.469352 0.020853
0.120140 0.487880 0.006520
0.254788 0.495344 0.000000
0.452215 0.490112 0.000000
0.593036 0.487840 0.000000
0.680132 0.492368 0.000000
0.744580 0.497040 0.000000
0.802831 0.499053 0.000000
0.856308 0.499576 0.000000
0.900472 0.498719 0.000000
0.941115 0.498916 0.000000
0.979498 0.500306 0.000000
0.000000 0.507300 0.030267
0.016260 0.511765 0.030400
0.032127 0.520293 0.030338
0.052040 0.529200 0.028920
0.075258 0.541813 0.020147
0.124389 0.561689 0.004778
0.269113 0.569053 0.000000
0.467856 0.562831 0.000000
0.607056 0.559827 0.000000
0.695713 0.560160 0.000000
0.759989 0.562356 0.000000
0.817113 0.563942 0.000000
0.871860 0.564387 0.000000
0.917596 0.564202 0.000000
0.960960 0.564851 0.000000
0.995380 0.567309 0.000000
0.000000 0.565580 0.031820
0.016260 0.569800 0.031600
0.032117 0.576521 0.030776
0.051967 0.584419 0.029275
0.075200 0.599114 0.020334
0.122320 0.618005 0.004831
0.264184 0.625059 0.000000
0.465960 0.620071 0.000000
0.607336 0.618446 0.000000
0.698876 0.618696 0.000000
0.767447 0.619249 0.000000
0.828334 0.621034 0.000000
0.883697 0.622717 0.000000
0.932964 0.623802 0.000000
0.978261 0.625339 0.000000
0.999811 0.628192 0.000000
0.000000 0.612220 0.034380
0.016260 0.616319 0.033740
0.032113 0.622287 0.032113
0.051940 0.628744 0.029568
0.075145 0.642067 0.020741
0.118133 0.660680 0.005507
0.251496 0.670312 0.000000
0.455753 0.668581 0.000000
0.602036 0.669061 0.000000
0.697196 0.670312 0.000000
0.771740 0.671480 0.000000
0.838471 0.671752 0.000000
0.896060 0.673080 0.000000
0.945365 0.675153 0.000000
0.991307 0.677231 0.000000
0.999942 0.678607 0.000000
0.000000 0.649620 0.035073
0.016260 0.653630 0.034956
0.032113 0.659880 0.033982
0.051940 0.666620 0.029984
0.075232 0.680602 0.020395
0.116153 0.700431 0.003809
0.245524 0.710507 0.000000
0.451765 0.709888 0.000000
0.600636 0.712273 0.000000
0.698033 0.715028 0.000000
0.775505 0.717216 0.000000
0.846398 0.717049 0.000000
0.906592 0.716740 0.000000
0.957688 0.718565 0.000000
0.997145 0.720794 0.000000
0.999995 0.721395 0.000000
0.000000 0.683500 0.035100
0.016260 0.688608 0.034999
0.032113 0.696457 0.034332
0.051959 0.706145 0.029517
0.075440 0.721102 0.018243
0.116744 0.740027 0.000360
0.246753 0.748163 0.000000
0.454024 0.748051 0.000000
0.603742 0.750216 0.000000
0.700889 0.751671 0.000000
0.779047 0.753256 0.000000
0.850880 0.753841 0.000000
0.915493 0.751740 0.000000
0.971971 0.753033 0.000000
0.998590 0.755273 0.000000
1.000000 0.756087 0.000000
0.000000 0.725794 0.039555
0.016260 0.732452 0.037501
0.032127 0.744808 0.034432
0.052158 0.757487 0.027975
0.075889 0.771972 0.014265
0.123664 0.787050 0.000001
0.265017 0.789506 0.000000
0.466720 0.785968 0.000000
0.612098 0.787731 0.000000
0.708149 0.789837 0.000000
0.786164 0.791238 0.000000
0.858539 0.791858 0.000000
0.924633 0.789698 0.000000
0.985123 0.786668 0.000000
0.999505 0.787416 0.000000
1.000000 0.788974 0.000000
0.000000 0.001107 0.021467
0.016669 0.001360 0.021468
0.034788 0.002080 0.021504
0.058071 0.003629 0.021577
0.085505 0.006316 0.021202
0.129782 0.008556 0.019371
0.207616 0.009704 0.016716
0.314101 0.012017 0.016320
0.418045 0.015651 0.016320
0.500065 0.017577 0.016320
0.564487 0.018944 0.016320
0.618444 0.019692 0.016320
0.666675 0.019939 0.016320
0.708513 0.020164 0.016320
0.747423 0.020392 0.016320
0.785289 0.020512 0.016320
0.000437 0.030688 0.021786
0.017298 0.031067 0.021725
0.036842 0.030979 0.021725
0.060152 0.031975 0.021635
0.087459 0.033291 0.021496
0.132539 0.035383 0.020048
0.212488 0.036754 0.017160
0.319475 0.037652 0.016320
0.423583 0.039397 0.016320
0.505876 0.041007 0.016320
0.571197 0.042741 0.016320
0.626269 0.043544 0.016320
0.673081 0.043707 0.016320
0.715799 0.044141 0.016320
0.756633 0.044864 0.016320
0.793869 0.046093 0.016320
0.001080 0.063509 0.023022
0.017560 0.063935 0.023118
0.037492 0.063623 0.023014
0.061587 0.062558 0.022569
0.090822 0.062090 0.021824
0.138654 0.063359 0.020077
0.223460 0.065059 0.017059
0.335036 0.067218 0.016320
0.441430 0.069206 0.016320
0.523409 0.070900 0.016320
0.589033 0.072639 0.016320
0.644726 0.073704 0.016320
0.693628 0.073273 0.016320
0.738025 0.072268 0.016320
0.779455 0.073335 0.016320
0.816944 0.075989 0.016320
0.000568 0.098145 0.024743
0.016948 0.098820 0.024834
0.034802 0.098830 0.024894
0.058623 0.097568 0.024554
0.091826 0.095383 0.023192
0.146260 0.094978 0.020248
0.239496 0.096510 0.017004
0.358801 0.099734 0.016320
0.466861 0.103613 0.016320
0.549480 0.106529 0.016320
0.616104 0.108331 0.016320
0.671373 0.109727 0.016320
0.719928 0.109868 0.016320
0.764598 0.110394 0.016320
0.806310 0.111945 0.016320
0.841788 0.113281 0.016320
0.000068 0.136382 0.026883
0.016373 0.137492 0.026862
0.033046 0.138652 0.026856
0.055211 0.138456 0.026366
0.088633 0.136892 0.024231
0.151785 0.134827 0.019949
0.257917 0.135499 0.016537
0.387858 0.139431 0.016320
0.498495 0.143234 0.016320
0.579975 0.145723 0.016320
0.644479 0.147859 0.016320
0.700144 0.149207 0.016320
0.747830 0.150647 0.016320
0.791242 0.153109 0.016320
0.833581 0.155947 0.016320
0.872252 0.159575 0.016320
0.000000 0.179760 0.029909
0.016268 0.181585 0.029835
0.032245 0.184152 0.029776
0.052235 0.184793 0.029050
0.081563 0.185606 0.025791
0.148710 0.183854 0.019387
0.270477 0.182328 0.016371
0.411770 0.186767 0.016320
0.525565 0.191372 0.016320
0.606179 0.195597 0.016320
0.669447 0.199182 0.016320
0.726171 0.201801 0.016320
0.776068 0.203411 0.016320
0.820867 0.205929 0.016320
0.860650 0.210057 0.016320
0.901087 0.215543 0.016320
0.000000 0.232685 0.032785
0.016260 0.235163 0.033153
0.032087 0.238724 0.033348
0.051655 0.240933 0.032949
0.076612 0.244941 0.028511
0.136417 0.247892 0.019151
0.269754 0.244581 0.016320
0.423627 0.246798 0.016320
0.542873 0.252407 0.016320
0.627205 0.257665 0.016320
0.692599 0.263359 0.016320
0.750289 0.267551 0.016320
0.801600 0.270018 0.016320
0.846936 0.272857 0.016320
0.886384 0.277352 0.016320
0.927682 0.283533 0.016320
0.000000 0.295089 0.036832
0.016260 0.298502 0.037647
0.032020 0.304052 0.038113
0.051184 0.309009 0.037478
0.074267 0.315696 0.031795
0.123139 0.325712 0.021236
0.255680 0.324313 0.016320
0.430833 0.322123 0.016320
0.557918 0.327177 0.016320
0.643971 0.333768 0.016320
0.711237 0.341002 0.016320
0.770261 0.346332 0.016320
0.824818 0.349329 0.016320
0.869696 0.351834 0.016320
0.910296 0.355102 0.016320
0.950830 0.359374 0.016320
0.000000 0.367452 0.041390
0.016260 0.371916 0.042185
0.031961 0.378991 0.042628
0.050728 0.386764 0.042142
0.073535 0.396758 0.036186
0.115712 0.411285 0.023511
0.244743 0.414503 0.016320
0.440586 0.409863 0.016320
0.577657 0.412138 0.016320
0.664216 0.419456 0.016320
0.731367 0.426190 0.016320
0.791633 0.430180 0.016320
0.846632 0.432244 0.016320
0.891146 0.432898 0.016320
0.933134 0.433997 0.016320
0.969645 0.435859 0.016320
0.000000 0.442897 0.045904
0.016260 0.449589 0.046735
0.031915 0.456726 0.047446
0.050371 0.465564 0.046052
0.073215 0.478181 0.039133
0.118177 0.496814 0.023618
0.256656 0.502821 0.016320
0.460306 0.496645 0.016320
0.600800 0.495126 0.016320
0.686979 0.499379 0.016320
0.752037 0.504125 0.016320
0.811103 0.506069 0.016320
0.864474 0.506586 0.016320
0.909783 0.505974 0.016320
0.952402 0.505752 0.016320
0.987135 0.506170 0.016320
0.000000 0.512878 0.050004
0.016260 0.518956 0.050445
0.031900 0.527964 0.050761
0.050251 0.536868 0.049150
0.073129 0.550430 0.040367
0.122165 0.570440 0.023215
0.270239 0.576868 0.016320
0.474477 0.570172 0.016320
0.612814 0.566969 0.016320
0.701588 0.567261 0.016320
0.767825 0.570184 0.016320
0.826870 0.571687 0.016320
0.880007 0.571682 0.016320
0.927365 0.572011 0.016320
0.970342 0.572112 0.016320
0.997790 0.573495 0.016320
0.000000 0.570930 0.053920
0.016260 0.574798 0.054412
0.031900 0.582262 0.053744
0.050237 0.592883 0.051201
0.073088 0.607294 0.041133
0.120449 0.626622 0.023189
0.265947 0.632992 0.016320
0.472254 0.627701 0.016320
0.612690 0.625541 0.016320
0.704791 0.625653 0.016320
0.776686 0.626911 0.016320
0.838966 0.628662 0.016320
0.893678 0.630009 0.016320
0.943381 0.631627 0.016320
0.987154 0.632582 0.016320
0.999898 0.634551 0.016320
0.000000 0.617588 0.056139
0.016260 0.620690 0.056269
0.031900 0.625996 0.055786
0.050217 0.635292 0.052946
0.072970 0.649979 0.042173
0.115338 0.669457 0.024261
0.251959 0.678600 0.016320
0.463708 0.675632 0.016320
0.610512 0.675578 0.016320
0.704897 0.676953 0.016320
0.780926 0.677836 0.016320
0.848905 0.678281 0.016320
0.906250 0.680000 0.016320
0.958254 0.682389 0.016320
0.996495 0.683922 0.016320
0.999988 0.685325 0.016320
0.000000 0.653720 0.057470
0.016260 0.657288 0.057455
0.031900 0.663589 0.056749
0.050181 0.672449 0.054672
0.072824 0.687089 0.043867
0.112633 0.707841 0.024536
0.243845 0.718818 0.016320
0.458087 0.717702 0.016320
0.609310 0.719377 0.016320
0.705604 0.721577 0.016320
0.783702 0.723051 0.016320
0.856152 0.722696 0.016320
0.916790 0.723114 0.016320
0.970073 0.725119 0.016320
0.998441 0.726212 0.016320
1.000000 0.726579 0.016320
0.000000 0.688209 0.059226
0.016260 0.693400 0.059654
0.031900 0.701791 0.059491
0.050141 0.712567 0.055815
0.072717 0.727622 0.044588
0.111934 0.749147 0.023372
0.241945 0.757972 0.016320
0.457239 0.755908 0.016320
0.609146 0.756537 0.016320
0.707717 0.757945 0.016320
0.786501 0.759916 0.016320
0.860252 0.760080 0.016320
0.925476 0.757981 0.016320
0.980874 0.759706 0.016320
0.999173 0.761804 0.016320
1.000000 0.762680 0.016320
0.000000 0.729604 0.065782
0.016260 0.736530 0.066360
0.031900 0.750168 0.065517
0.050139 0.764628 0.061404
0.072767 0.781177 0.045094
0.112839 0.798477 0.022193
0.246019 0.801211 0.016320
0.462671 0.795436 0.016320
0.612196 0.795547 0.016320
0.711407 0.797612 0.016320
0.790301 0.799047 0.016320
0.866467 0.797297 0.016320
0.934129 0.794108 0.016320
0.991848 0.793440 0.016320
0.999924 0.794663 0.016320
1.000000 0.795523 0.016320
0.000000 0.005747 0.039413
0.016327 0.006128 0.039723
0.033406 0.006590 0.040358
0.056095 0.006507 0.041791
0.085741 0.007127 0.041739
0.131200 0.008391 0.040198
0.212648 0.009147 0.035911
0.323573 0.011108 0.033082
0.428711 0.014522 0.033053
0.509105 0.017311 0.033053
0.574176 0.017513 0.033053
0.630272 0.017196 0.033053
0.676704 0.017941 0.033053
0.718731 0.018507 0.033053
0.759735 0.018890 0.033053
0.798191 0.019270 0.033053
0.000267 0.033030 0.041845
0.016995 0.033368 0.042164
0.035122 0.034217 0.042481
0.057707 0.034709 0.042711
0.086509 0.035646 0.042318
0.132822 0.037227 0.040129
0.215691 0.038472 0.035937
0.327789 0.038659 0.033082
0.433799 0.040122 0.033053
0.514507 0.042261 0.033053
0.579954 0.043132 0.033053
0.634814 0.042912 0.033053
0.683316 0.043542 0.033053
0.726278 0.044079 0.033053
0.764619 0.044316 0.033053
0.805210 0.044978 0.033053
0.001440 0.064413 0.042805
0.017427 0.065083 0.042915
0.035855 0.065960 0.043044
0.059385 0.065321 0.043038
0.089675 0.065167 0.042400
0.138798 0.066125 0.040152
0.227433 0.067228 0.035925
0.344634 0.068666 0.033082
0.452057 0.070339 0.033053
0.533298 0.071803 0.033053
0.598363 0.073222 0.033053
0.654803 0.073629 0.033053
0.704458 0.073104 0.033053
0.748370 0.073514 0.033053
0.789608 0.074291 0.033053
0.827455 0.075240 0.033053
0.000424 0.098857 0.043527
0.016814 0.099669 0.043731
0.033728 0.100674 0.043974
0.056351 0.100601 0.044063
0.090030 0.098911 0.043172
0.146146 0.098272 0.040755
0.243475 0.099420 0.035951
0.369167 0.101901 0.033086
0.478606 0.105080 0.033055
0.560105 0.107728 0.033053
0.625223 0.109610 0.033053
0.680868 0.110664 0.033053
0.731812 0.110518 0.033053
0.776466 0.110962 0.033053
0.819022 0.112181 0.033053
0.857748 0.113241 0.033053
0.000010 0.138207 0.045845
0.016275 0.139262 0.046362
0.032218 0.140739 0.046785
0.053239 0.141857 0.046715
0.087084 0.141097 0.044808
0.152293 0.138971 0.041044
0.263669 0.138969 0.035607
0.398294 0.142269 0.033098
0.509401 0.145679 0.033060
0.591022 0.148051 0.033053
0.655466 0.150081 0.033053
0.711341 0.151016 0.033053
0.763071 0.151012 0.033053
0.809196 0.152552 0.033053
0.849693 0.154958 0.033053
0.891000 0.158530 0.033053
0.000000 0.181858 0.049496
0.016260 0.183362 0.049931
0.031917 0.185608 0.050020
0.050730 0.188429 0.049893
0.080852 0.189977 0.047705
0.150230 0.188610 0.040347
0.277759 0.186640 0.034371
0.422412 0.190349 0.033079
0.536265 0.194947 0.033057
0.618294 0.199028 0.033053
0.683661 0.202056 0.033053
0.740782 0.203916 0.033053
0.791909 0.204998 0.033053
0.838882 0.206647 0.033053
0.880536 0.210370 0.033053
0.921805 0.216289 0.033053
0.000000 0.234637 0.053748
0.016260 0.237135 0.054495
0.031900 0.240884 0.054994
0.050171 0.245199 0.054960
0.075413 0.250210 0.051136
0.138085 0.253348 0.039706
0.276782 0.250427 0.033311
0.435403 0.252099 0.033058
0.554614 0.257249 0.033053
0.638876 0.262437 0.033053
0.705920 0.268074 0.033053
0.765651 0.271632 0.033053
0.818226 0.273805 0.033053
0.864102 0.276272 0.033053
0.907054 0.280294 0.033053
0.946775 0.286965 0.033053
0.000000 0.298006 0.057842
0.016260 0.301906 0.059237
0.031900 0.308976 0.060390
0.050005 0.314814 0.060585
0.072168 0.322609 0.055793
0.122497 0.332794 0.041805
0.261144 0.332739 0.033094
0.442323 0.329555 0.033053
0.569454 0.334179 0.033053
0.655839 0.340966 0.033053
0.724356 0.348524 0.033053
0.785196 0.352917 0.033053
0.840373 0.355185 0.033053
0.887178 0.357637 0.033053
0.930683 0.361367 0.033053
0.967506 0.366360 0.033053
0.000000 0.372537 0.063737
0.016260 0.377767 0.064990
0.031900 0.387603 0.066689
0.049898 0.394790 0.066748
0.071312 0.404447 0.061340
0.114359 0.420901 0.045325
0.249000 0.425494 0.033090
0.451874 0.419402 0.033053
0.589271 0.422043 0.033053
0.675617 0.429022 0.033053
0.743576 0.435383 0.033053
0.804584 0.438886 0.033053
0.859937 0.440075 0.033053
0.906796 0.440528 0.033053
0.950336 0.441891 0.033053
0.984718 0.443614 0.033053
0.000000 0.450972 0.070677
0.016260 0.457025 0.072030
0.031900 0.465933 0.074159
0.049847 0.474039 0.073531
0.071009 0.487923 0.066201
0.116005 0.507912 0.047220
0.258335 0.514656 0.033137
0.468641 0.507112 0.033053
0.610137 0.505543 0.033053
0.697043 0.510313 0.033053
0.763478 0.515535 0.033053
0.824354 0.517411 0.033053
0.878331 0.517379 0.033053
0.924919 0.516698 0.033053
0.967712 0.515893 0.033053
0.996615 0.516116 0.033053
0.000000 0.522096 0.078262
0.016260 0.528573 0.079222
0.031900 0.536330 0.080845
0.049840 0.544466 0.079740
0.070868 0.560503 0.070177
0.117955 0.583484 0.047575
0.267520 0.589333 0.033128
0.479460 0.580988 0.033053
0.620235 0.576712 0.033053
0.710862 0.577443 0.033053
0.778653 0.581139 0.033053
0.839737 0.582908 0.033053
0.894217 0.582644 0.033053
0.944642 0.583057 0.033053
0.985366 0.582901 0.033053
0.999878 0.584167 0.033053
0.000000 0.579874 0.085866
0.016260 0.585656 0.087025
0.031900 0.592856 0.087793
0.049840 0.600728 0.085427
0.070826 0.616920 0.073346
0.111803 0.639805 0.047896
0.254009 0.647206 0.033080
0.474807 0.638830 0.033053
0.618649 0.635647 0.033053
0.713242 0.635348 0.033053
0.786229 0.636626 0.033053
0.850789 0.638938 0.033053
0.906743 0.640307 0.033053
0.960827 0.642110 0.033053
0.996158 0.642857 0.033053
0.999982 0.644353 0.033053
0.000000 0.624633 0.090147
0.016260 0.628618 0.090863
0.031900 0.634860 0.091058
0.049840 0.643361 0.088609
0.070769 0.659666 0.075572
0.104473 0.683527 0.049489
0.235464 0.694345 0.033057
0.465109 0.687046 0.033053
0.615391 0.685475 0.033053
0.712743 0.686219 0.033053
0.789444 0.687057 0.033053
0.859514 0.688091 0.033053
0.918357 0.689936 0.033053
0.971420 0.692457 0.033053
0.998532 0.693992 0.033053
1.000000 0.695009 0.033053
0.000000 0.661437 0.092769
0.016260 0.664620 0.093227
0.031900 0.671003 0.093574
0.049840 0.680953 0.091080
0.070716 0.697473 0.079254
0.101428 0.722456 0.051264
0.224441 0.736729 0.033060
0.456235 0.731149 0.033053
0.614976 0.730376 0.033053
0.714027 0.732108 0.033053
0.793472 0.732531 0.033053
0.868768 0.730726 0.033053
0.929270 0.730451 0.033053
0.981197 0.732045 0.033053
0.999172 0.734130 0.033053
1.000000 0.735442 0.033053
0.000000 0.695878 0.097280
0.016260 0.700836 0.098457
0.031900 0.709334 0.099034
0.049840 0.721147 0.097272
0.070623 0.738252 0.083941
0.100542 0.764227 0.054255
0.219664 0.778281 0.033136
0.450323 0.771013 0.033053
0.614076 0.768445 0.033053
0.715550 0.770334 0.033053
0.797152 0.771395 0.033053
0.874012 0.770497 0.033053
0.939704 0.768350 0.033053
0.991041 0.769888 0.033053
0.999810 0.771553 0.033053
1.000000 0.772447 0.033053
0.000000 0.737772 0.109104
0.016260 0.744487 0.111605
0.031900 0.757295 0.112442
0.049840 0.772620 0.109614
0.070388 0.791612 0.094208
0.098905 0.815146 0.061445
0.213816 0.825175 0.033886
0.444258 0.815071 0.033053
0.613743 0.810792 0.033053
0.717765 0.811267 0.033053
0.801272 0.810177 0.033053
0.880947 0.807368 0.033053
0.949030 0.804513 0.033053
0.994792 0.803818 0.033053
0.999999 0.805116 0.033053
1.000000 0.805643 0.033053
0.000000 0.008020 0.065320
0.016291 0.008021 0.067232
0.032811 0.008035 0.068531
0.055020 0.007988 0.068572
0.084833 0.007999 0.068065
0.133040 0.008473 0.065393
0.217376 0.008956 0.059460
0.335527 0.008628 0.054695
0.444977 0.009268 0.053447
0.523372 0.012436 0.052860
0.587020 0.011727 0.052767
0.644773 0.008487 0.052760
0.693008 0.006988 0.052744
0.736663 0.006869 0.052740
0.777583 0.006880 0.052740
0.817780 0.007989 0.052760
0.000044 0.035613 0.067901
0.016643 0.035786 0.068189
0.033912 0.036731 0.068700
0.055777 0.036841 0.068920
0.086165 0.036765 0.068545
0.134340 0.038190 0.065735
0.220072 0.038717 0.059359
0.339433 0.038039 0.054670
0.448825 0.038093 0.053391
0.527277 0.039840 0.052878
0.591726 0.039624 0.052782
0.649143 0.037868 0.052746
0.697686 0.036927 0.052739
0.742018 0.036207 0.052738
0.783918 0.036005 0.052737
0.822428 0.036153 0.052737
0.000660 0.065675 0.068541
0.017120 0.066286 0.068732
0.034771 0.067533 0.069144
0.056892 0.068284 0.069458
0.087125 0.068733 0.068926
0.138076 0.069451 0.066243
0.229892 0.069579 0.059684
0.354686 0.069333 0.054647
0.465822 0.071068 0.053408
0.546502 0.072693 0.053015
0.610804 0.073033 0.052877
0.667182 0.072632 0.052785
0.716100 0.071290 0.052731
0.763155 0.069621 0.052703
0.805252 0.068826 0.052700
0.844712 0.068964 0.052700
0.000564 0.099692 0.069408
0.016895 0.100568 0.069786
0.033901 0.102043 0.070364
0.055780 0.103226 0.071337
0.088075 0.102986 0.070459
0.145120 0.102663 0.067323
0.245896 0.103158 0.060707
0.377232 0.104369 0.055390
0.488613 0.107125 0.054336
0.570236 0.109365 0.053847
0.635564 0.110784 0.053463
0.692788 0.109931 0.053049
0.746289 0.106606 0.052773
0.795307 0.104245 0.052704
0.836765 0.103671 0.052700
0.879739 0.104345 0.052700
0.000132 0.139372 0.072016
0.016431 0.140569 0.073089
0.032928 0.142287 0.074081
0.054221 0.144305 0.074667
0.086779 0.145284 0.073687
0.151657 0.144083 0.069358
0.266179 0.143852 0.061982
0.405389 0.146175 0.056061
0.517473 0.148872 0.055067
0.598159 0.150763 0.054555
0.663692 0.151710 0.053996
0.723829 0.150164 0.053109
0.781619 0.146829 0.052733
0.831651 0.145010 0.052700
0.874890 0.145474 0.052700
0.917673 0.147907 0.052700
0.000000 0.184453 0.075953
0.016260 0.186121 0.077430
0.031990 0.188572 0.078826
0.051949 0.190964 0.079572
0.083940 0.193634 0.077762
0.151311 0.194524 0.070791
0.281019 0.192888 0.061147
0.428892 0.195408 0.056154
0.543598 0.199674 0.055432
0.625700 0.203056 0.054705
0.693585 0.204440 0.053567
0.755106 0.203591 0.052824
0.812612 0.201756 0.052703
0.862478 0.201006 0.052700
0.907521 0.203734 0.052700
0.946448 0.209530 0.052700
0.000000 0.238496 0.080980
0.016260 0.241146 0.082923
0.031902 0.245380 0.084544
0.050629 0.249762 0.085623
0.078350 0.254044 0.082829
0.141720 0.259120 0.070968
0.279795 0.258728 0.058443
0.441908 0.258427 0.055603
0.562811 0.263530 0.054893
0.647305 0.269189 0.054394
0.715740 0.272976 0.053441
0.778655 0.274498 0.052798
0.835644 0.275127 0.052700
0.886791 0.275965 0.052700
0.932749 0.279365 0.052700
0.970432 0.285231 0.052700
0.000000 0.302323 0.086215
0.016260 0.307284 0.088035
0.031900 0.314536 0.090567
0.049997 0.321066 0.092354
0.073453 0.328011 0.088992
0.126210 0.338886 0.073668
0.264166 0.341686 0.056712
0.449506 0.337625 0.054714
