example_ofxGpuLutCube/bin/data/ofxGpuLutCube/LUT/C47 (green gray soft fade).cube
LUT_3D_SIZE 6
0.000000 0.000000 0.004900
0.057800 0.003120 0.005040
0.205320 0.008740 0.000240
0.499020 0.014920 0.000000
0.665760 0.018380 0.000000
0.783935 0.018899 0.000000
0.000600 0.098100 0.007460
0.060696 0.094500 0.005940
0.237616 0.094356 0.000276
0.545496 0.104420 0.000000
0.716292 0.107688 0.000000
0.834682 0.111999 0.000000
0.000000 0.232380 0.015160
0.053472 0.237128 0.015584
0.264640 0.240716 0.000000
0.620348 0.253632 0.000000
0.791756 0.265232 0.000000
0.915487 0.278212 0.000000
0.000000 0.438260 0.027960
0.052168 0.457400 0.027440
0.254788 0.495344 0.000000
0.680132 0.492368 0.000000
0.856308 0.499576 0.000000
0.979498 0.500306 0.000000
0.000000 0.612220 0.034380
0.051940 0.628744 0.029568
0.251496 0.670312 0.000000
0.697196 0.670312 0.000000
0.896060 0.673080 0.000000
0.999942 0.678607 0.000000
0.000000 0.725794 0.039555
0.052158 0.757487 0.027975
0.265017 0.789506 0.000000
0.708149 0.789837 0.000000
0.924633 0.789698 0.000000
1.000000 0.788974 0.000000
0.000000 0.008020 0.065320
0.055020 0.007988 0.068572
0.217376 0.008956 0.059460
0.523372 0.012436 0.052860
0.693008 0.006988 0.052744
0.817780 0.007989 0.052760
0.000564 0.099692 0.069408
0.055780 0.103226 0.071337
0.245896 0.103158 0.060707
0.570236 0.109365 0.053847
0.746289 0.106606 0.052773
0.879739 0.104345 0.052700
0.000000 0.238496 0.080980
0.050629 0.249762 0.085623
0.279795 0.258728 0.058443
0.647305 0.269189 0.054394
0.835644 0.275127 0.052700
0.970432 0.285231 0.052700
0.000000 0.458136 0.104440
0.049847 0.483617 0.110518
0.260284 0.527454 0.057548
0.703057 0.521022 0.053194
0.889414 0.526912 0.052700
0.999852 0.524619 0.052700
0.000000 0.632988 0.135912
0.049840 0.650769 0.136570
0.220023 0.709570 0.055498
0.715986 0.696902 0.052710
0.925538 0.700110 0.052701
1.000000 0.705495 0.052700
0.000000 0.746854 0.162800
0.049840 0.779744 0.170157
0.190720 0.843522 0.066322
0.720190 0.823635 0.052700
0.954268 0.816969 0.052700
1.000000 0.814875 0.054428
0.000000 0.022140 0.199240
0.050700 0.019768 0.215796
0.225736 0.008060 0.229056
0.552736 0.000000 0.215992
0.720892 0.000000 0.216196
0.844082 0.000000 0.217148
0.000000 0.115880 0.218840
0.051498 0.119502 0.230818
0.244996 0.114682 0.250650
0.586510 0.118182 0.238101
0.782177 0.089686 0.246257
0.925109 0.077546 0.262114
0.000000 0.261528 0.255704
0.051210 0.276363 0.276310
0.272499 0.295220 0.288700
0.660615 0.296985 0.272167
0.866613 0.287062 0.266492
0.976164 0.301627 0.272995
0.000000 0.495784 0.323372
0.050226 0.519755 0.348034
0.261442 0.574983 0.326404
0.686508 0.574665 0.286104
0.910027 0.563122 0.199501
0.999847 0.558025 0.175004
0.000000 0.666856 0.387372
0.049840 0.682619 0.398426
0.144583 0.759637 0.330516
0.700863 0.757240 0.209503
0.930178 0.747944 0.218190
0.999973 0.748685 0.215854
0.000000 0.778265 0.422257
0.049840 0.809928 0.447026
0.127130 0.880340 0.402323
0.669658 0.884177 0.299445
0.928334 0.869239 0.278061
0.999976 0.867745 0.345303
0.000000 0.050640 0.420520
0.049840 0.050664 0.435336
0.228876 0.003240 0.516996
0.564500 0.000912 0.515988
0.734464 0.000000 0.516260
0.863011 0.000000 0.521371
0.000000 0.151448 0.459448
0.049874 0.155952 0.470804
0.233984 0.125246 0.550466
0.597819 0.126726 0.551416
0.787951 0.104527 0.570249
0.939048 0.077430 0.601104
0.000000 0.307576 0.514516
0.049886 0.323368 0.536500
0.235483 0.323501 0.614237
0.652423 0.327554 0.625256
0.858817 0.307934 0.642948
0.969692 0.323126 0.647879
0.000000 0.544684 0.581608
0.049890 0.568818 0.602949
0.281922 0.612583 0.624105
0.645132 0.639207 0.630565
0.864162 0.628754 0.613714
0.974007 0.624421 0.602923
0.000000 0.707544 0.622712
0.049840 0.723750 0.639266
0.133065 0.787855 0.659261
0.615945 0.835321 0.630334
0.873470 0.821559 0.624242
0.993538 0.821815 0.623325
0.000000 0.814161 0.639842
0.049840 0.842485 0.668535
0.119422 0.908683 0.698099
0.592709 0.945638 0.669696
0.859574 0.938062 0.659568
0.998483 0.927255 0.671880
0.000000 0.069620 0.573660
0.049840 0.070052 0.580872
0.223776 0.007848 0.687296
0.568676 0.000684 0.697656
0.745404 0.000000 0.701848
0.876541 0.000000 0.711408
0.000000 0.175812 0.611552
0.049840 0.181078 0.626734
0.229954 0.120442 0.753628
0.614162 0.118174 0.758631
0.798890 0.110918 0.768908
0.948589 0.078505 0.804418
0.000000 0.337340 0.670424
0.049840 0.353846 0.690525
0.194128 0.338006 0.818768
0.661095 0.320080 0.847445
0.857554 0.314636 0.851487
0.969692 0.333190 0.853433
0.000000 0.573044 0.736104
0.049840 0.595930 0.756363
0.187686 0.638881 0.810727
0.620716 0.654716 0.849934
0.846192 0.644271 0.841414
0.969692 0.639687 0.835959
0.000000 0.726480 0.766860
0.049840 0.740620 0.781673
0.139453 0.802033 0.828711
0.585002 0.852674 0.847457
0.837233 0.859165 0.837749
0.972873 0.857643 0.834984
0.000000 0.828897 0.777437
0.049840 0.857370 0.805540
0.119420 0.918908 0.857066
0.570835 0.958904 0.859681
0.825138 0.968800 0.850208
0.978533 0.958385 0.850639
0.000000 0.084024 0.691220
0.049840 0.084928 0.699159
0.221681 0.007273 0.835490
0.584359 0.000000 0.856129
0.759598 0.000059 0.852245
0.893861 0.000000 0.861456
0.000000 0.195908 0.734491
0.049840 0.201871 0.747882
0.229816 0.114752 0.917518
0.639943 0.089606 0.946088
0.827668 0.096739 0.943356
0.964269 0.084239 0.960955
0.000000 0.354685 0.785505
0.049840 0.373103 0.807163
0.180454 0.364111 0.943328
0.657186 0.343893 0.970910
0.855901 0.339545 0.970911
0.969692 0.350392 0.970911
0.000000 0.582504 0.847546
0.049840 0.604279 0.868553
0.120570 0.652183 0.948735
0.604693 0.656488 0.970911
0.837057 0.646658 0.970911
0.969687 0.642777 0.970909
0.000000 0.730303 0.872143
0.049840 0.745241 0.887859
0.119428 0.811135 0.953614
0.570721 0.855492 0.970911
0.826982 0.863194 0.970881
0.966072 0.863761 0.970309
0.000000 0.833380 0.883234
0.049840 0.861952 0.910627
0.119420 0.922514 0.964467
0.552754 0.961816 0.970911
0.817037 0.972595 0.970814
0.962887 0.973866 0.970386
