example_ofxGpuLutCube/bin/data/ofxGpuLutCube/LUT/C48 (blue gray soft fade).cube
LUT_3D_SIZE 16
0.023500 0.023600 0.023600
0.043593 0.026307 0.025847
0.073220 0.028440 0.026633
0.111320 0.033720 0.027660
0.159720 0.039987 0.028300
0.216267 0.046533 0.028600
0.282680 0.051600 0.030680
0.357380 0.056867 0.035467
0.427940 0.062680 0.041173
0.487100 0.069760 0.046480
0.541500 0.084533 0.053267
0.594580 0.108000 0.061053
0.643380 0.131600 0.068760
0.688873 0.154533 0.076353
0.729593 0.176720 0.084207
0.763582 0.198791 0.091234
0.020713 0.045493 0.029600
0.043572 0.048018 0.028151
0.073779 0.050522 0.027105
0.113513 0.056537 0.028163
0.165387 0.065615 0.029681
0.223571 0.073978 0.030433
0.290111 0.079443 0.032327
0.364967 0.085944 0.037516
0.438218 0.094648 0.044421
0.501009 0.105123 0.051401
0.556922 0.121844 0.058856
0.609113 0.144921 0.066870
0.657376 0.168260 0.074825
0.702937 0.191268 0.082431
0.743499 0.214338 0.090579
0.776842 0.237019 0.098103
0.018047 0.074933 0.039320
0.039825 0.077499 0.036844
0.072528 0.081020 0.032270
0.116887 0.087895 0.031032
0.171456 0.098935 0.032493
0.231993 0.109596 0.033384
0.301121 0.118797 0.036476
0.378416 0.128192 0.042367
0.454271 0.139448 0.050751
0.520388 0.152104 0.059428
0.577309 0.169151 0.067398
0.628309 0.190702 0.075440
0.675051 0.213116 0.083367
0.720220 0.236558 0.091623
0.759397 0.259873 0.100009
0.791850 0.280493 0.107265
0.018160 0.110800 0.051040
0.037725 0.113972 0.049413
0.068600 0.119159 0.044467
0.121328 0.128172 0.039652
0.180261 0.138903 0.037641
0.243947 0.152133 0.039013
0.315360 0.165832 0.042680
0.396192 0.182307 0.051111
0.478187 0.201827 0.063036
0.548276 0.218164 0.073896
0.605007 0.233100 0.082707
0.653156 0.248889 0.089784
0.696724 0.265524 0.096248
0.738367 0.283604 0.102920
0.774844 0.303577 0.109976
0.805156 0.322818 0.116776
0.020373 0.152427 0.068133
0.039503 0.156790 0.066980
0.068436 0.166737 0.063341
0.121141 0.178689 0.057311
0.190407 0.190451 0.051517
0.260827 0.203262 0.049218
0.335600 0.219784 0.052611
0.420348 0.244582 0.064311
0.508103 0.275153 0.081541
0.582580 0.300548 0.097197
0.638891 0.314887 0.106733
0.683348 0.324201 0.111912
0.722927 0.333497 0.116221
0.760182 0.345106 0.120714
0.792289 0.359668 0.125729
0.819716 0.372797 0.130158
0.022533 0.197433 0.087300
0.042798 0.203778 0.087822
0.070811 0.217702 0.085791
0.118073 0.234947 0.081807
0.194304 0.252991 0.076136
0.278556 0.266511 0.068600
0.358480 0.281213 0.067920
0.446956 0.308818 0.080849
0.538085 0.344942 0.102342
0.614447 0.375907 0.121980
0.670922 0.394133 0.133900
0.713796 0.403491 0.139096
0.751467 0.411340 0.142527
0.785267 0.420171 0.145593
0.813511 0.431007 0.148767
0.837871 0.437376 0.150551
0.026880 0.248660 0.109740
0.047660 0.256085 0.111451
0.075519 0.271949 0.111891
0.115716 0.292152 0.109868
0.190415 0.319800 0.107788
0.294600 0.346107 0.102000
0.386848 0.358544 0.094936
0.473763 0.376901 0.101696
0.564728 0.410651 0.123787
0.641468 0.441480 0.144852
0.697727 0.461067 0.157513
0.739816 0.471999 0.163473
0.775912 0.480228 0.166716
0.807237 0.489609 0.169340
0.833347 0.499220 0.171751
0.856364 0.503622 0.172494
0.034480 0.307287 0.136740
0.055660 0.315708 0.139268
0.083835 0.333156 0.142526
0.120489 0.353484 0.142037
0.184859 0.383230 0.141422
0.299667 0.424191 0.141980
0.417923 0.449256 0.136105
0.504952 0.456602 0.131210
0.588493 0.474671 0.144429
0.662855 0.499236 0.163640
0.717745 0.516993 0.175898
0.759905 0.529212 0.182500
0.795217 0.538816 0.186005
0.824553 0.548776 0.188795
0.849398 0.556798 0.190832
0.871532 0.560012 0.190854
0.044293 0.371553 0.170767
0.065712 0.380096 0.173384
0.094292 0.397714 0.178071
0.130687 0.417687 0.178805
0.186879 0.445626 0.177991
0.291738 0.488653 0.180273
0.433112 0.530579 0.180820
0.537890 0.543542 0.171615
0.615117 0.546195 0.170157
0.681884 0.556868 0.181187
0.734313 0.569953 0.191596
0.776115 0.581451 0.198251
0.809948 0.591424 0.202069
0.837467 0.601008 0.204856
0.861245 0.607514 0.206288
0.882896 0.608672 0.205370
0.053920 0.438460 0.211700
0.074439 0.445908 0.214373
0.102097 0.461620 0.219549
0.137656 0.479936 0.220592
0.188173 0.505269 0.218011
0.277993 0.544013 0.216520
0.425300 0.591376 0.218184
0.555999 0.618775 0.213180
0.640500 0.621409 0.202599
0.700728 0.618768 0.200660
0.748493 0.622627 0.206047
0.788581 0.630653 0.211787
0.820656 0.639288 0.215472
0.846387 0.647799 0.217845
0.869752 0.653377 0.218923
0.890881 0.653482 0.217950
0.060200 0.501433 0.257433
0.079353 0.507344 0.259618
0.103753 0.520029 0.264325
0.134613 0.535373 0.264933
0.178720 0.557133 0.258551
0.256611 0.590578 0.250311
0.400700 0.636680 0.246480
0.552616 0.674393 0.245776
0.653451 0.687567 0.236176
0.716187 0.683640 0.224420
0.760578 0.678089 0.220856
0.798293 0.679622 0.223916
0.828480 0.684840 0.226840
0.852627 0.691505 0.228542
0.875631 0.696411 0.229573
0.896603 0.696139 0.228841
0.062453 0.557453 0.303707
0.080537 0.562216 0.304925
0.101928 0.572345 0.307900
0.127104 0.584440 0.306960
0.163634 0.601988 0.296775
0.230242 0.630289 0.281500
0.363151 0.672117 0.270257
0.531824 0.714685 0.268872
0.651380 0.737761 0.264751
0.721049 0.741376 0.251295
0.767727 0.735036 0.239656
0.804101 0.729362 0.235507
0.833276 0.729305 0.236067
0.856669 0.732948 0.237296
0.879173 0.736248 0.238218
0.900109 0.735972 0.238089
0.063600 0.608440 0.343840
0.081087 0.612052 0.344627
0.100892 0.620436 0.346667
0.122960 0.630536 0.344544
0.154171 0.644515 0.331835
0.211727 0.668413 0.312860
0.329844 0.704688 0.293724
0.504357 0.747620 0.287481
0.638917 0.775545 0.288196
0.715620 0.786016 0.278516
0.766767 0.786093 0.264687
0.805847 0.779471 0.251736
0.835484 0.774116 0.244808
0.858575 0.773904 0.243961
0.880865 0.774317 0.244204
0.901842 0.773231 0.244062
0.067613 0.656193 0.378733
0.084270 0.659165 0.379941
0.102896 0.666080 0.382348
0.124116 0.674856 0.379876
0.154004 0.686806 0.365970
0.207731 0.707229 0.345551
0.311583 0.737959 0.322739
0.473635 0.776483 0.308515
0.616394 0.806179 0.308120
0.700004 0.820127 0.303811
0.756580 0.826558 0.294396
0.801328 0.826060 0.280016
0.835228 0.819740 0.262389
0.859539 0.814064 0.251082
0.881401 0.811683 0.248908
0.902877 0.809158 0.248642
0.072400 0.701580 0.411280
0.089108 0.704169 0.413132
0.107103 0.710168 0.417118
0.126620 0.717021 0.414631
0.155363 0.726614 0.399932
0.205420 0.743833 0.378911
0.294372 0.769729 0.355789
0.434247 0.802232 0.334579
0.575236 0.830606 0.327564
0.670585 0.848073 0.327920
0.735344 0.858060 0.323929
0.787571 0.862941 0.313683
0.829671 0.861599 0.294296
0.859192 0.854900 0.271332
0.881279 0.849032 0.256679
0.902255 0.845644 0.253332
0.077155 0.744396 0.443297
0.093895 0.746217 0.445652
0.112092 0.751292 0.450564
0.130760 0.756805 0.447094
0.156417 0.763948 0.431450
0.198139 0.777186 0.411723
0.269401 0.798113 0.390887
0.392034 0.826366 0.367768
0.528874 0.852573 0.351748
0.634010 0.869481 0.348111
0.709810 0.879932 0.344907
0.770272 0.886498 0.337178
0.819538 0.889286 0.324338
0.855108 0.886830 0.302888
0.880857 0.882835 0.285455
0.902690 0.880590 0.274980
0.023433 0.026680 0.045453
0.043173 0.027049 0.045498
0.071473 0.028611 0.046292
0.109943 0.032239 0.047729
0.157761 0.037686 0.048807
0.214791 0.042916 0.048382
0.282683 0.047203 0.050083
0.356597 0.051731 0.054570
0.424433 0.055752 0.059448
0.483684 0.063555 0.064369
0.538505 0.078853 0.070727
0.591552 0.099922 0.077466
0.639532 0.122239 0.084659
0.683537 0.143186 0.092234
0.723419 0.164104 0.099826
0.756405 0.185128 0.107771
0.022094 0.046218 0.047940
0.044127 0.048563 0.048904
0.074052 0.051300 0.048675
0.113673 0.055847 0.049490
0.165413 0.062710 0.050097
0.225459 0.069410 0.049663
0.294516 0.074248 0.050958
0.368311 0.079180 0.055848
0.436158 0.085017 0.061621
0.495806 0.094253 0.067460
0.552007 0.111320 0.074500
0.605312 0.134557 0.082295
0.652744 0.157461 0.089802
0.697417 0.179547 0.097725
0.737551 0.202084 0.106117
0.770809 0.224084 0.114128
0.018929 0.074905 0.056181
0.040465 0.077391 0.055987
0.073446 0.081864 0.054002
0.119526 0.088635 0.052659
0.174077 0.097943 0.053380
0.237182 0.108543 0.054009
0.307377 0.116702 0.055748
0.382585 0.123347 0.060839
0.453529 0.130969 0.067751
0.516065 0.140870 0.075086
0.572257 0.156432 0.082418
0.623468 0.177810 0.089752
0.669852 0.200687 0.097491
0.714921 0.223928 0.106049
0.754186 0.246884 0.114477
0.786761 0.268692 0.122718
0.017785 0.109200 0.069289
0.037555 0.112191 0.068922
0.068381 0.119801 0.066473
0.123359 0.129820 0.061351
0.184752 0.139464 0.058594
0.250188 0.151476 0.059401
0.323925 0.165080 0.062882
0.403757 0.179510 0.070333
0.479591 0.192987 0.079693
0.545176 0.205322 0.088687
0.600291 0.218411 0.096341
0.647939 0.233182 0.102325
0.691327 0.250178 0.108719
0.733246 0.269827 0.116234
0.770388 0.290788 0.123936
0.801006 0.311156 0.131611
0.018511 0.151090 0.087035
0.037451 0.154784 0.087097
0.065558 0.164307 0.084953
0.118322 0.178407 0.078922
0.193868 0.193028 0.073133
0.268868 0.206135 0.070552
0.346379 0.223537 0.074055
0.431436 0.246787 0.084870
0.513560 0.271163 0.099539
0.583055 0.290677 0.112580
0.636060 0.301391 0.119921
0.679054 0.308834 0.123896
0.718181 0.318008 0.127718
0.755377 0.330533 0.132675
0.788440 0.346232 0.138323
0.816630 0.360489 0.143743
0.020480 0.195636 0.107144
0.039961 0.201149 0.107900
0.065593 0.213120 0.107430
0.109436 0.230130 0.103874
0.189895 0.253016 0.097659
0.285267 0.272600 0.091281
0.371693 0.290164 0.091391
0.461110 0.316161 0.103684
0.547212 0.346677 0.122514
0.618982 0.371651 0.139244
0.671616 0.385363 0.148434
0.711845 0.391820 0.151759
0.748286 0.398463 0.154332
0.781930 0.407453 0.157466
0.810756 0.418806 0.161019
0.835957 0.426734 0.163752
0.024512 0.246205 0.130436
0.043909 0.253080 0.131716
0.069003 0.267384 0.133067
0.105375 0.285487 0.131599
0.176874 0.313989 0.127960
0.291723 0.347327 0.123172
0.398294 0.368845 0.119487
0.489828 0.388803 0.127309
0.577254 0.417054 0.146271
0.649627 0.442388 0.164327
0.701786 0.457434 0.174320
0.741116 0.465538 0.178370
0.775610 0.472651 0.180657
0.806177 0.481298 0.182959
0.832521 0.491595 0.185695
0.855841 0.496972 0.187018
0.031163 0.304310 0.159078
0.050755 0.312059 0.161160
0.075782 0.328181 0.164495
0.108154 0.346536 0.164544
0.166819 0.374658 0.161958
0.284583 0.418714 0.160399
0.421831 0.455682 0.158922
0.519902 0.469293 0.158009
0.603249 0.484278 0.169594
0.673584 0.503717 0.185537
0.724301 0.517440 0.195049
0.763481 0.526770 0.199690
0.796972 0.535168 0.202228
0.825357 0.544389 0.204583
0.849926 0.553073 0.206715
0.872263 0.556958 0.207396
0.039839 0.368790 0.194410
0.059815 0.376765 0.197244
0.085029 0.393293 0.202499
0.116078 0.411321 0.204228
0.164714 0.436853 0.201434
0.267187 0.479879 0.198719
0.424231 0.529339 0.199796
0.545877 0.550987 0.195565
0.628771 0.555555 0.195617
0.693439 0.562754 0.204328
0.742127 0.572695 0.212296
0.781073 0.582238 0.217342
0.813249 0.591149 0.220433
0.839568 0.599997 0.222563
0.862898 0.606586 0.224227
0.884402 0.608363 0.223879
0.048575 0.435665 0.237227
0.068111 0.442797 0.240113
0.092484 0.457676 0.246176
0.121972 0.474393 0.249407
0.164640 0.497753 0.245859
0.248404 0.534958 0.238936
0.404103 0.584872 0.235966
0.553955 0.620077 0.233380
0.648695 0.627349 0.225685
0.710709 0.625035 0.223910
0.756345 0.627177 0.227832
0.793967 0.633768 0.232155
0.824770 0.641234 0.235225
0.849206 0.648777 0.237068
0.871938 0.654086 0.237998
0.892806 0.654343 0.237549
0.054176 0.498869 0.284889
0.072769 0.504730 0.287254
0.095387 0.517058 0.292552
0.121361 0.531278 0.295409
0.157203 0.551143 0.289294
0.225623 0.582019 0.276590
0.369692 0.628068 0.266297
0.540272 0.671205 0.263614
0.654253 0.689303 0.256526
0.721476 0.687998 0.246458
0.766647 0.682888 0.242998
0.803018 0.683590 0.245020
0.832236 0.688002 0.247388
0.855661 0.693952 0.248784
0.877571 0.697802 0.249438
0.898355 0.697378 0.249247
0.057612 0.556439 0.330898
0.075475 0.561052 0.332546
0.096158 0.571193 0.336324
0.118844 0.582772 0.337543
0.148278 0.598096 0.328624
0.202452 0.622842 0.311094
0.328710 0.663035 0.292592
0.512081 0.709365 0.285990
0.646511 0.736964 0.283931
0.722378 0.743741 0.272575
0.771266 0.738591 0.261200
0.808131 0.733343 0.256582
0.836629 0.733197 0.256905
0.859423 0.735881 0.257773
0.880822 0.738234 0.258583
0.902113 0.737946 0.258611
0.062525 0.609573 0.370356
0.079659 0.613153 0.371675
0.098880 0.621445 0.374765
0.119213 0.631006 0.375220
0.143688 0.642586 0.364369
0.187321 0.661821 0.344088
0.294083 0.695281 0.320000
0.476520 0.740323 0.306922
0.628259 0.772822 0.306397
0.713088 0.786398 0.298943
0.767814 0.788086 0.286062
0.808136 0.782408 0.272973
0.838010 0.777361 0.265475
0.861000 0.776390 0.264437
0.882325 0.776525 0.264600
0.903550 0.775055 0.264885
0.068833 0.658902 0.405072
0.085412 0.661788 0.406412
0.103326 0.668548 0.409833
0.122341 0.676656 0.410675
0.145207 0.686102 0.398978
0.183837 0.701203 0.377126
0.273375 0.728417 0.352111
0.439466 0.768015 0.331389
0.598917 0.801571 0.325672
0.694531 0.819100 0.323828
0.754781 0.827032 0.316317
0.801007 0.827549 0.302124
0.836151 0.821863 0.283825
0.861183 0.816444 0.271995
0.882914 0.813850 0.269660
0.903686 0.811145 0.269857
0.075253 0.706072 0.437986
0.092132 0.708528 0.440327
0.110148 0.714270 0.445164
0.127716 0.720338 0.445828
0.147717 0.726476 0.432893
0.181933 0.737983 0.410212
0.256749 0.759898 0.385845
0.399182 0.793641 0.360565
0.553114 0.825280 0.347444
0.660022 0.845385 0.347812
0.730108 0.857119 0.346564
0.784618 0.863659 0.338602
0.828842 0.862888 0.319766
0.859998 0.856775 0.293798
0.882316 0.850788 0.278332
0.903265 0.847569 0.274738
0.082867 0.750435 0.471812
0.099477 0.752027 0.473973
0.117350 0.756844 0.479346
0.134639 0.761613 0.478798
0.152530 0.765090 0.464023
0.180779 0.772976 0.442050
0.238798 0.790418 0.420527
0.354210 0.818355 0.397646
0.500097 0.847069 0.378386
0.618049 0.866983 0.370819
0.701816 0.879356 0.369382
0.765632 0.887402 0.364894
0.817272 0.891405 0.353486
0.854864 0.889612 0.330973
0.881168 0.884939 0.309803
0.904324 0.882544 0.297113
0.022393 0.029600 0.072187
0.042595 0.029765 0.072262
0.068922 0.030386 0.072549
0.104420 0.033097 0.073951
0.150653 0.038121 0.075529
0.205942 0.042942 0.075796
0.273213 0.047107 0.075560
0.347729 0.051690 0.078180
0.419257 0.056764 0.083030
0.482431 0.064368 0.087697
0.539180 0.077649 0.093242
0.591530 0.095243 0.099221
0.636396 0.112671 0.105163
0.677297 0.129369 0.111861
0.714068 0.147481 0.119434
0.745789 0.166823 0.126619
0.022228 0.048819 0.073091
0.043525 0.050848 0.075038
0.071440 0.052331 0.075648
0.109515 0.056180 0.076366
0.159405 0.061573 0.077022
0.219368 0.066637 0.076272
0.290267 0.070463 0.075633
0.365065 0.074925 0.078395
0.432612 0.079854 0.083024
0.492364 0.088418 0.088181
0.548598 0.103950 0.094260
0.601067 0.124321 0.101259
0.646954 0.143546 0.108083
0.689282 0.162794 0.115809
0.727851 0.184149 0.124279
0.761371 0.206153 0.132904
0.020539 0.075237 0.077231
0.041782 0.077569 0.079568
0.072164 0.081150 0.080637
0.115378 0.086790 0.080295
0.169293 0.093777 0.079816
0.233065 0.102158 0.078615
0.305643 0.109301 0.078394
0.380830 0.115401 0.082147
0.449161 0.120926 0.087603
0.509488 0.128824 0.093353
0.565765 0.143373 0.100054
0.617125 0.162786 0.106986
0.662480 0.183560 0.114275
0.706433 0.206442 0.123278
0.745957 0.229628 0.132092
0.779003 0.252068 0.140807
0.017633 0.108083 0.089980
0.038260 0.110945 0.091291
0.067823 0.116968 0.091831
0.117977 0.125330 0.088577
0.180465 0.135442 0.085391
0.248372 0.146818 0.084252
0.324287 0.159791 0.085655
0.403395 0.171744 0.091219
0.475814 0.181075 0.098559
0.537740 0.189324 0.104945
0.591632 0.199788 0.110996
0.639354 0.213308 0.117147
0.682572 0.230334 0.123711
0.725156 0.251274 0.132078
0.763126 0.273854 0.140634
0.795208 0.295356 0.148928
0.017061 0.150093 0.108284
0.036240 0.153495 0.109301
0.063252 0.160647 0.109768
0.110577 0.171315 0.106082
0.186353 0.187115 0.099390
0.266905 0.201836 0.095073
0.348064 0.219067 0.097055
0.433149 0.240098 0.105731
0.511117 0.258135 0.116962
0.575868 0.270862 0.125838
0.626608 0.277934 0.130841
0.669353 0.284966 0.135076
0.708795 0.295248 0.139536
0.747309 0.309576 0.145811
0.781869 0.326851 0.152850
0.811388 0.343345 0.159071
0.019200 0.194298 0.130211
0.037739 0.199121 0.131037
0.061340 0.208774 0.132212
0.100868 0.221883 0.130382
0.176298 0.242952 0.123171
0.278842 0.266993 0.115810
0.373603 0.288076 0.114914
0.464560 0.313018 0.125223
0.547385 0.338160 0.140550
0.614238 0.356786 0.152841
0.664249 0.366363 0.159237
0.703915 0.371341 0.162128
0.740152 0.377750 0.164687
0.774968 0.387029 0.168563
0.805352 0.399080 0.173456
0.831930 0.409465 0.177588
0.022821 0.244208 0.154591
0.041254 0.250521 0.155920
0.063503 0.262672 0.158282
0.094795 0.276594 0.158382
0.158638 0.301257 0.153452
0.274520 0.336752 0.145692
0.394815 0.365469 0.142093
0.493614 0.388288 0.149486
0.579774 0.412825 0.165775
0.647823 0.432225 0.179498
0.697431 0.443828 0.186812
0.736240 0.451114 0.190527
0.770614 0.457781 0.192839
0.802206 0.466783 0.195443
0.829603 0.477740 0.199453
0.854352 0.485355 0.202389
0.028584 0.302420 0.184044
0.047248 0.309559 0.186409
0.069660 0.323886 0.190580
0.096960 0.338629 0.192316
0.146378 0.361805 0.188913
0.256270 0.403099 0.182417
0.406082 0.446881 0.179033
0.521416 0.469265 0.180365
0.607476 0.483492 0.190564
0.674800 0.498550 0.203306
0.723826 0.510110 0.211037
0.762542 0.519159 0.215304
0.795856 0.527191 0.217968
0.824923 0.536678 0.220671
0.849851 0.546077 0.223491
0.872628 0.551434 0.225695
0.036136 0.366843 0.220663
0.055070 0.373983 0.223620
0.077900 0.389158 0.229538
0.104158 0.404924 0.233662
0.143901 0.426119 0.231899
0.234944 0.464757 0.224618
0.396760 0.516508 0.219060
0.541605 0.549499 0.217298
0.633223 0.557189 0.217936
0.696922 0.561876 0.224513
0.744160 0.570077 0.231231
0.782462 0.579152 0.235967
0.814598 0.587656 0.238925
0.841337 0.596274 0.241395
0.864513 0.603674 0.243463
0.886001 0.606724 0.244680
0.043785 0.433265 0.265363
0.062334 0.439823 0.268150
0.084665 0.453933 0.274613
0.109948 0.469094 0.280647
0.144319 0.488941 0.279784
0.215480 0.522292 0.269561
0.367797 0.571476 0.258474
0.538330 0.614312 0.253920
0.648558 0.628469 0.248490
0.714680 0.627322 0.246345
0.759660 0.628116 0.249135
0.796774 0.634174 0.253234
0.827634 0.641664 0.255933
0.852226 0.648408 0.257734
0.873796 0.653630 0.258792
0.894487 0.654487 0.259806
0.049802 0.497180 0.313765
0.067775 0.502535 0.316058
0.088834 0.514444 0.321671
0.112037 0.527736 0.327051
0.141356 0.544724 0.324807
0.196419 0.572073 0.311324
0.329248 0.615094 0.293105
0.513782 0.662167 0.284133
0.646390 0.687208 0.278687
0.722370 0.689964 0.269741
0.769726 0.685739 0.266004
0.805818 0.686000 0.267402
0.835254 0.690257 0.269460
0.858737 0.695338 0.270762
0.879763 0.698691 0.271133
0.900233 0.698610 0.272282
0.055885 0.556917 0.358719
0.073361 0.561427 0.360653
0.093241 0.571393 0.365255
0.114605 0.582295 0.369129
0.139299 0.595099 0.364628
0.179240 0.615226 0.347906
0.286236 0.650280 0.323677
0.475154 0.698515 0.308777
0.631665 0.732421 0.305373
0.718543 0.743286 0.296270
0.771732 0.741150 0.285068
0.810023 0.736745 0.280055
0.839295 0.736057 0.279856
0.862140 0.738376 0.280600
0.883072 0.740060 0.281343
0.903552 0.739707 0.282457
0.063032 0.612000 0.398009
0.080189 0.615763 0.399379
0.099307 0.623965 0.403059
0.118933 0.632823 0.406502
0.139756 0.642387 0.400737
0.169232 0.656202 0.381958
0.251338 0.682841 0.355291
0.430621 0.727939 0.333335
0.605329 0.766106 0.327100
0.705108 0.784190 0.322578
0.765227 0.788613 0.311047
0.808076 0.784721 0.297314
0.839721 0.780263 0.289118
0.863390 0.778922 0.287981
0.884564 0.778382 0.288290
0.904918 0.776908 0.289423
0.071191 0.663442 0.432964
0.088038 0.666467 0.434668
0.106401 0.673099 0.438517
0.124819 0.680392 0.442171
0.143270 0.687392 0.436204
0.168529 0.697008 0.415802
0.234075 0.717260 0.388405
0.389891 0.755244 0.360009
0.568168 0.793358 0.347111
0.682353 0.815470 0.346527
0.749817 0.826206 0.341608
0.798781 0.828389 0.328170
0.836494 0.823442 0.308605
0.862955 0.818427 0.296312
0.884830 0.815942 0.293835
0.904999 0.813083 0.295228
0.080888 0.712727 0.467574
0.097442 0.714867 0.469717
0.115285 0.720061 0.474544
0.133157 0.725907 0.478756
0.149622 0.730101 0.471497
0.171022 0.735794 0.449334
0.222348 0.750488 0.422166
0.347804 0.780932 0.393463
0.515301 0.816324 0.373750
0.641253 0.840569 0.370959
0.721483 0.855059 0.372036
0.779492 0.863688 0.367681
0.826620 0.864939 0.349588
0.860397 0.858864 0.321200
0.883873 0.852614 0.303964
0.905165 0.849391 0.300724
0.091651 0.759228 0.502971
0.108169 0.760640 0.505076
0.126172 0.764813 0.510486
0.143666 0.769397 0.513763
0.157996 0.771261 0.503737
0.174447 0.772881 0.480423
0.211494 0.782851 0.455194
0.305401 0.806268 0.432641
0.457439 0.837877 0.411682
0.592518 0.862143 0.399378
0.686565 0.877544 0.398175
0.756862 0.887743 0.396449
0.812903 0.893412 0.387651
0.854068 0.892157 0.364211
0.881566 0.887370 0.340937
0.905158 0.883736 0.327698
0.021720 0.033400 0.101760
0.041112 0.033687 0.102036
0.065829 0.033985 0.101929
0.098228 0.035896 0.103660
0.140271 0.039533 0.105095
0.191940 0.044967 0.106713
0.256460 0.050500 0.107092
0.332208 0.056169 0.106991
0.410053 0.061471 0.108889
0.480024 0.067484 0.112824
0.539680 0.077607 0.117653
0.591052 0.091601 0.122872
0.634204 0.105948 0.128568
0.672981 0.119919 0.135432
0.707589 0.135473 0.142480
0.738291 0.152399 0.149533
0.021807 0.053344 0.102875
0.042174 0.054756 0.104385
0.068323 0.055724 0.104820
0.102431 0.057762 0.106617
0.147923 0.061953 0.107660
0.203637 0.067186 0.108216
0.272180 0.072462 0.107643
0.349710 0.078333 0.107676
0.424287 0.083806 0.109233
0.490297 0.090753 0.112877
0.548638 0.102964 0.118205
0.599619 0.118979 0.124060
0.643145 0.134091 0.129875
0.682249 0.149573 0.136789
0.718698 0.167189 0.144603
0.752030 0.188236 0.153543
0.021740 0.077763 0.105973
0.042249 0.080572 0.108804
0.070187 0.083007 0.110185
0.107246 0.085875 0.111202
0.157139 0.091355 0.111264
0.217535 0.097909 0.110244
0.289039 0.104636 0.108564
0.367603 0.111051 0.108616
0.441230 0.116654 0.111117
0.504389 0.123257 0.114998
0.561066 0.136144 0.120727
0.611813 0.152889 0.126896
0.655438 0.169722 0.133380
0.696931 0.188742 0.141483
0.735814 0.210578 0.150743
0.770208 0.233970 0.160781
0.020164 0.108620 0.114864
0.040343 0.111319 0.117138
0.068391 0.115019 0.119825
0.109499 0.120380 0.118622
0.166193 0.127869 0.116938
0.233653 0.137973 0.114264
0.310109 0.149339 0.112646
0.392025 0.160398 0.114614
0.467306 0.168722 0.119006
0.529597 0.175476 0.123618
0.583307 0.184521 0.128857
0.630937 0.196927 0.134141
0.673194 0.212183 0.140647
0.714616 0.231906 0.148715
0.753400 0.254629 0.158552
0.787421 0.277591 0.168526
0.018127 0.148401 0.132133
0.037534 0.152368 0.134445
0.063825 0.158483 0.137085
0.105462 0.165307 0.135717
0.172013 0.176767 0.129720
0.252656 0.191376 0.124028
0.335759 0.207448 0.122462
0.422924 0.226280 0.126916
0.502071 0.241067 0.134639
0.565516 0.249609 0.140950
0.615374 0.254288 0.144676
0.658195 0.260701 0.148155
0.697692 0.271110 0.153016
0.736606 0.286253 0.159727
0.772864 0.304801 0.168897
0.804758 0.324427 0.177499
0.018987 0.194253 0.156360
0.037012 0.198797 0.157901
0.059466 0.206884 0.160083
0.094924 0.215811 0.159804
0.160069 0.230492 0.153287
0.260551 0.253451 0.143647
0.361227 0.275476 0.138809
0.454888 0.299114 0.144586
0.539187 0.321933 0.156711
0.604811 0.335563 0.165615
0.653738 0.341938 0.169860
0.693029 0.345662 0.171838
0.729195 0.351953 0.174736
0.764958 0.361916 0.179584
0.797458 0.375411 0.186568
0.826269 0.389665 0.194023
0.021656 0.245888 0.182832
0.039525 0.251100 0.184898
0.060229 0.260770 0.187456
0.087994 0.270515 0.188025
0.140974 0.287550 0.184259
0.246336 0.318175 0.172948
0.376330 0.351534 0.165153
0.485009 0.377616 0.168751
0.574104 0.401676 0.182331
0.641146 0.417283 0.193223
0.689581 0.425829 0.198537
0.727886 0.431709 0.201137
0.762264 0.437858 0.203240
0.795162 0.446905 0.206687
0.824534 0.458983 0.212554
0.851082 0.469890 0.219011
0.026629 0.304387 0.214111
0.044683 0.310429 0.216585
0.065430 0.322051 0.220663
0.089350 0.333079 0.223017
0.128840 0.349546 0.221216
0.221600 0.383291 0.211404
0.374068 0.428289 0.201055
0.509591 0.459488 0.200014
