example_ofxGpuLutCube/bin/data/ofxGpuLutCube/LUT/C48 (blue gray soft fade).cube
LUT_3D_SIZE 6
0.023500 0.023600 0.023600
0.111320 0.033720 0.027660
0.282680 0.051600 0.030680
0.487100 0.069760 0.046480
0.643380 0.131600 0.068760
0.763582 0.198791 0.091234
0.018160 0.110800 0.051040
0.121328 0.128172 0.039652
0.315360 0.165832 0.042680
0.548276 0.218164 0.073896
0.696724 0.265524 0.096248
0.805156 0.322818 0.116776
0.026880 0.248660 0.109740
0.115716 0.292152 0.109868
0.386848 0.358544 0.094936
0.641468 0.441480 0.144852
0.775912 0.480228 0.166716
0.856364 0.503622 0.172494
0.053920 0.438460 0.211700
0.137656 0.479936 0.220592
0.425300 0.591376 0.218184
0.700728 0.618768 0.200660
0.820656 0.639288 0.215472
0.890881 0.653482 0.217950
0.063600 0.608440 0.343840
0.122960 0.630536 0.344544
0.329844 0.704688 0.293724
0.715620 0.786016 0.278516
0.835484 0.774116 0.244808
0.901842 0.773231 0.244062
0.077155 0.744396 0.443297
0.130760 0.756805 0.447094
0.269401 0.798113 0.390887
0.634010 0.869481 0.348111
0.819538 0.889286 0.324338
0.902690 0.880590 0.274980
0.021720 0.033400 0.101760
0.098228 0.035896 0.103660
0.256460 0.050500 0.107092
0.480024 0.067484 0.112824
0.634204 0.105948 0.128568
0.738291 0.152399 0.149533
0.020164 0.108620 0.114864
0.109499 0.120380 0.118622
0.310109 0.149339 0.112646
0.529597 0.175476 0.123618
0.673194 0.212183 0.140647
0.787421 0.277591 0.168526
0.021656 0.245888 0.182832
0.087994 0.270515 0.188025
0.376330 0.351534 0.165153
0.641146 0.417283 0.193223
0.762264 0.437858 0.203240
0.851082 0.469890 0.219011
0.040176 0.434624 0.298020
0.102186 0.465311 0.312044
0.323919 0.555362 0.288730
0.712670 0.626501 0.267528
0.827693 0.639372 0.275616
0.896272 0.655251 0.285166
0.064388 0.616952 0.427516
0.120917 0.636810 0.436977
0.219246 0.674085 0.395382
0.691113 0.780239 0.347642
0.839165 0.782242 0.314001
0.905628 0.778425 0.317231
0.101174 0.767644 0.535343
0.155117 0.777784 0.548027
0.199754 0.781310 0.494674
0.559510 0.856067 0.432606
0.806577 0.895081 0.423889
0.905600 0.886841 0.358354
0.022340 0.055680 0.213160
0.085504 0.053248 0.205180
0.203744 0.060028 0.204808
0.428184 0.085296 0.219204
0.615160 0.111340 0.222736
0.730172 0.139192 0.235860
0.023672 0.130812 0.233048
0.087630 0.128492 0.233526
0.229117 0.139945 0.228924
0.481705 0.171303 0.233141
0.652337 0.196678 0.228435
0.770702 0.243235 0.247412
0.027052 0.238528 0.264628
0.095550 0.264563 0.288813
0.263817 0.291460 0.287832
0.580862 0.337798 0.269022
0.727244 0.362085 0.255361
0.833917 0.410139 0.282592
0.040884 0.451024 0.402272
0.099994 0.484194 0.426210
0.196868 0.513923 0.426078
0.662486 0.608736 0.366221
0.819262 0.630665 0.353089
0.898883 0.655517 0.371277
0.071592 0.642620 0.526660
0.133146 0.663416 0.541925
0.196774 0.679429 0.544164
0.571043 0.752409 0.457727
0.831930 0.786049 0.413502
0.906467 0.785040 0.415816
0.117369 0.787278 0.623895
0.177225 0.796967 0.637045
0.226458 0.803861 0.637245
0.410678 0.827543 0.558460
0.776132 0.895647 0.542463
0.905396 0.893139 0.469055
0.029500 0.089420 0.351420
0.088188 0.083628 0.337104
0.165960 0.085452 0.317468
0.357064 0.101676 0.312172
0.582340 0.120276 0.313840
0.727133 0.161364 0.381211
0.032372 0.166792 0.375984
0.091619 0.159793 0.374510
0.166822 0.158419 0.349704
0.387058 0.184809 0.343897
0.618639 0.198110 0.335499
0.774679 0.258719 0.413744
0.037884 0.271028 0.410484
0.100699 0.284322 0.430049
0.178470 0.294025 0.436058
0.456327 0.328285 0.426128
0.689761 0.339294 0.415510
0.839815 0.412996 0.469214
0.052936 0.423336 0.469984
0.127238 0.476911 0.511264
0.212194 0.511689 0.533446
0.522786 0.568281 0.557883
0.778382 0.593389 0.550216
0.891449 0.617037 0.545201
0.087712 0.643820 0.595388
0.159590 0.680512 0.632263
0.218116 0.691912 0.643599
0.389952 0.715307 0.637560
0.806158 0.785634 0.600838
0.909851 0.789830 0.585086
0.110896 0.787996 0.690010
0.168213 0.796083 0.700784
0.219367 0.800223 0.706497
0.335950 0.812194 0.696001
0.720923 0.884740 0.674305
0.906388 0.901865 0.607436
0.040600 0.129360 0.480100
0.099092 0.122520 0.464928
0.160352 0.117876 0.442528
0.251660 0.120000 0.433560
0.535400 0.141748 0.446424
0.714969 0.167305 0.476380
0.043948 0.218524 0.517240
0.102022 0.207546 0.509949
0.162311 0.193800 0.480943
0.255398 0.195934 0.471391
0.572015 0.221366 0.481863
0.754023 0.255034 0.510764
0.051464 0.337504 0.564148
0.110235 0.336789 0.571541
0.170786 0.322775 0.563763
0.273425 0.314847 0.547851
0.639197 0.353704 0.566300
0.822087 0.414068 0.598545
0.066940 0.478288 0.613572
0.131846 0.497696 0.633439
0.196901 0.503241 0.639433
0.334752 0.517471 0.655283
0.719705 0.580559 0.689889
0.882807 0.625615 0.714303
0.093348 0.621740 0.662632
0.164873 0.648806 0.685730
0.234047 0.663256 0.695298
0.378267 0.698172 0.718330
0.763982 0.770048 0.759141
0.911265 0.786882 0.767848
0.125455 0.766269 0.728173
0.188275 0.780989 0.744302
0.248344 0.792941 0.754727
0.341999 0.810899 0.766632
0.689883 0.874887 0.799938
0.910397 0.901672 0.766127
0.050576 0.175748 0.594248
0.109484 0.168397 0.585815
0.170257 0.159592 0.575380
0.232077 0.155359 0.575598
0.424423 0.166127 0.600462
0.703740 0.189762 0.625203
0.055585 0.276998 0.638701
0.113566 0.268758 0.634337
0.172931 0.251821 0.618755
0.234982 0.236434 0.610213
0.453433 0.255805 0.648336
0.744525 0.291458 0.674309
0.064299 0.399248 0.685222
0.121430 0.390120 0.684265
0.179939 0.371981 0.676759
0.241575 0.351130 0.665335
0.500055 0.385406 0.710955
0.803768 0.436979 0.744606
0.080043 0.525342 0.724657
0.137822 0.521787 0.727279
0.198697 0.516923 0.728412
0.274159 0.518908 0.737070
0.565290 0.561639 0.778954
0.858262 0.610988 0.812675
0.098959 0.638382 0.756646
0.160121 0.642704 0.762353
0.225385 0.649902 0.768501
0.323163 0.677818 0.788669
0.673298 0.741139 0.838836
0.896347 0.776931 0.863957
0.119352 0.744613 0.785412
0.185693 0.756052 0.794787
0.257631 0.770678 0.803201
0.367728 0.798156 0.819607
0.715187 0.865827 0.869225
0.912308 0.894864 0.886162
