example_ofxGpuLutCube/bin/data/ofxGpuLutCube/LUT/C49 (teal reddish soft fade).cube
LUT_3D_SIZE 6
0.029000 0.038000 0.041900
0.130940 0.056800 0.049060
0.310320 0.081520 0.046900
0.555500 0.116700 0.078340
0.747860 0.169540 0.103820
0.883369 0.235190 0.109505
0.130820 0.003520 0.000000
0.183816 0.085844 0.060808
0.241372 0.100256 0.063260
0.483308 0.163224 0.075868
0.709728 0.227104 0.104812
0.861887 0.304541 0.109995
0.308760 0.000000 0.000000
0.395112 0.068592 0.042336
0.523592 0.214772 0.095600
0.508008 0.170244 0.117000
0.644884 0.233760 0.129084
0.835704 0.372431 0.128378
0.029000 0.038000 0.041900
0.629680 0.070972 0.052372
0.709532 0.184868 0.124164
0.855616 0.547608 0.151056
0.820576 0.417532 0.198828
0.818896 0.403137 0.275592
0.162779 0.030400 0.033520
0.799128 0.084616 0.045948
0.855160 0.221252 0.137020
0.935264 0.514448 0.154136
0.952056 0.930172 0.399812
0.970902 0.813974 0.445447
0.859115 0.000380 0.000419
0.902481 0.086504 0.022488
0.943523 0.223869 0.134892
0.989171 0.438624 0.167964
0.999998 0.950581 0.522715
0.912539 1.000000 0.533483
0.029400 0.080020 0.135440
0.114684 0.070648 0.135996
0.295728 0.090252 0.134216
0.554880 0.120376 0.139236
0.748056 0.164256 0.163904
0.880713 0.227060 0.167547
0.041156 0.147000 0.099740
0.122830 0.136136 0.138974
0.312665 0.163584 0.120579
0.573407 0.192865 0.127636
0.759631 0.236053 0.148245
0.892518 0.314684 0.143645
0.315836 0.100128 0.049684
0.314650 0.088726 0.055086
0.418014 0.200954 0.126359
0.519745 0.232257 0.134211
0.736067 0.340865 0.135855
0.885722 0.430708 0.133862
0.552252 0.062932 0.046280
0.556395 0.067918 0.036127
0.641778 0.169246 0.130750
0.767254 0.408726 0.158253
0.748823 0.349700 0.240787
0.849934 0.454083 0.214689
0.739180 0.055940 0.032880
0.742211 0.061994 0.017618
0.807406 0.181899 0.123263
0.876464 0.340115 0.164924
0.945762 0.735082 0.298036
0.946262 0.633007 0.470661
0.867194 0.053235 0.005918
0.868970 0.059732 0.003404
0.908202 0.182450 0.101229
0.962968 0.337622 0.172712
0.998925 0.663583 0.346044
0.999451 0.999612 0.584762
0.030900 0.148560 0.265320
0.077656 0.127680 0.261100
0.229840 0.128560 0.250840
0.521784 0.159984 0.246244
0.758556 0.200400 0.248992
0.893344 0.233804 0.247413
0.030928 0.234224 0.272952
0.082867 0.211521 0.279902
0.228652 0.202725 0.271072
0.544585 0.230346 0.257412
0.769720 0.267717 0.248405
0.908678 0.320775 0.236534
0.038056 0.293884 0.170548
0.131622 0.311968 0.236010
0.267591 0.305131 0.302064
0.601892 0.345003 0.275750
0.793742 0.388617 0.239190
0.916086 0.440516 0.212225
0.584956 0.403892 0.105672
0.595750 0.236965 0.127635
0.589193 0.205338 0.143790
0.691374 0.417242 0.310108
0.755228 0.462147 0.333695
0.907128 0.565101 0.281641
0.756512 0.193772 0.104780
0.748229 0.168879 0.124464
0.754394 0.179667 0.116003
0.836195 0.331763 0.201178
0.919256 0.647199 0.398172
0.907805 0.594814 0.537689
0.871625 0.163587 0.096431
0.871552 0.163459 0.095799
0.875651 0.174431 0.082810
0.927458 0.312701 0.160377
0.978553 0.518565 0.335001
0.999845 0.949070 0.610344
0.041700 0.249320 0.430820
0.074332 0.217020 0.426648
0.155884 0.213000 0.400556
0.403528 0.208760 0.350664
0.737744 0.226956 0.329912
0.916226 0.314757 0.456809
0.041328 0.334260 0.445148
0.091676 0.315100 0.455364
0.139722 0.284954 0.428299
0.425869 0.286617 0.376178
0.741831 0.303297 0.360641
0.919404 0.394338 0.487894
0.043056 0.441228 0.460812
0.095365 0.425378 0.479735
0.147826 0.409217 0.502028
0.488836 0.402666 0.461405
0.768833 0.439298 0.475396
0.923534 0.483095 0.511526
0.052392 0.490112 0.297912
0.114490 0.517243 0.358248
0.260466 0.554454 0.463349
0.559873 0.568469 0.570068
0.801199 0.616597 0.575942
0.932799 0.627026 0.528812
0.561632 0.684784 0.156868
0.787367 0.636586 0.187887
0.807714 0.437904 0.253218
0.801076 0.410818 0.296858
0.866847 0.677679 0.599061
0.905676 0.694118 0.617475
0.931653 0.531710 0.123171
0.901264 0.351945 0.137231
0.896472 0.315248 0.165590
0.898256 0.326558 0.152983
0.957331 0.527738 0.417661
0.989891 0.823833 0.632206
0.054040 0.356760 0.595160
0.077752 0.305488 0.579748
0.137448 0.303652 0.569884
0.256172 0.295736 0.548908
0.682516 0.304756 0.508972
0.903214 0.351864 0.584729
0.053260 0.441648 0.618240
0.103021 0.418568 0.623468
0.138070 0.378020 0.602047
0.245126 0.372630 0.586135
0.694970 0.387043 0.562926
0.906129 0.430996 0.621188
0.053064 0.541220 0.649664
0.105952 0.519680 0.654440
0.155125 0.496218 0.663516
0.263807 0.468482 0.654656
0.728739 0.480498 0.640868
0.917045 0.529684 0.682248
0.057632 0.645064 0.642700
0.109368 0.643375 0.680814
0.161793 0.627371 0.705258
0.341942 0.613025 0.732617
0.770166 0.619032 0.727901
0.929608 0.656047 0.745899
0.065128 0.673036 0.460384
0.118581 0.699147 0.535558
0.209209 0.723593 0.598001
0.409979 0.757527 0.701711
0.793776 0.772577 0.765481
0.939062 0.787736 0.763948
0.424844 0.834417 0.154684
0.734703 0.896321 0.312632
0.934727 0.832692 0.397884
0.938243 0.650401 0.521265
0.935632 0.635252 0.560604
0.973276 0.848199 0.777207
0.064571 0.453216 0.745042
0.079159 0.388304 0.721554
0.140036 0.387730 0.722080
0.204710 0.390827 0.740351
0.492327 0.378831 0.759565
0.888272 0.394730 0.784735
0.063611 0.539433 0.775390
0.113144 0.514447 0.777997
0.140274 0.468144 0.762371
0.199811 0.458727 0.755677
0.500403 0.454361 0.796539
0.899345 0.463913 0.814749
0.062931 0.632095 0.804429
0.115254 0.607967 0.806997
0.163655 0.578937 0.807330
0.199868 0.538849 0.797460
0.536579 0.537654 0.833573
0.912140 0.543221 0.844173
0.063561 0.742308 0.840252
0.115748 0.711814 0.836705
0.168517 0.684271 0.836518
0.217497 0.654492 0.838457
0.588295 0.641707 0.868774
0.923945 0.645306 0.870690
0.067800 0.802616 0.784502
0.119485 0.802327 0.821728
0.171275 0.801720 0.859233
0.224674 0.774740 0.868767
0.702836 0.779795 0.890998
0.934310 0.773724 0.891819
0.072544 0.864240 0.628335
0.125044 0.879808 0.701314
0.178017 0.883440 0.754201
0.248812 0.893745 0.802462
0.682904 0.922410 0.846505
0.934262 0.923784 0.894232
