example_ofxGpuLutCube/bin/data/ofxGpuLutCube/LUT/C49 (teal reddish soft fade).cube
LUT_3D_SIZE 16
0.029000 0.038000 0.041900
0.051460 0.041880 0.043867
0.087033 0.048253 0.046547
0.130940 0.056800 0.049060
0.181767 0.065653 0.049167
0.240400 0.073467 0.046367
0.310320 0.081520 0.046900
0.388980 0.092793 0.052693
0.472607 0.104740 0.064533
0.555500 0.116700 0.078340
0.627900 0.132433 0.089967
0.690313 0.151247 0.097820
0.747860 0.169540 0.103820
0.804867 0.190667 0.108540
0.848027 0.213000 0.109940
0.883369 0.235190 0.109505
0.051553 0.023473 0.025593
0.063065 0.046618 0.045360
0.076036 0.052142 0.047749
0.114560 0.067063 0.050999
0.162647 0.079827 0.052376
0.219371 0.089658 0.050251
0.286444 0.097781 0.049188
0.363198 0.108755 0.053243
0.446682 0.121782 0.063280
0.531625 0.135220 0.076596
0.608638 0.152349 0.088042
0.675123 0.171697 0.096310
0.734536 0.192887 0.101908
0.791793 0.215316 0.106284
0.841673 0.240198 0.108101
0.877628 0.265032 0.106735
0.087020 0.012113 0.011180
0.102225 0.035713 0.036767
0.116190 0.062810 0.053108
0.122488 0.063977 0.058428
0.149352 0.074694 0.057957
0.197976 0.091622 0.056913
0.261084 0.105424 0.053980
0.337699 0.118989 0.055526
0.422243 0.135999 0.062996
0.509532 0.152089 0.075647
0.591362 0.167504 0.088211
0.661264 0.186431 0.097159
0.722085 0.208399 0.102817
0.779481 0.232911 0.106810
0.833510 0.260916 0.108406
0.870329 0.288605 0.106117
0.130820 0.003520 0.000000
0.148719 0.028884 0.024859
0.167327 0.054953 0.045899
0.183816 0.085844 0.060808
0.187443 0.085375 0.067843
0.197993 0.086773 0.066553
0.241372 0.100256 0.063260
0.308135 0.117308 0.061537
0.392828 0.139953 0.065324
0.483308 0.163224 0.075868
0.570820 0.184120 0.088953
0.646197 0.205307 0.098583
0.709728 0.227104 0.104812
0.767423 0.250475 0.109032
0.823409 0.277240 0.111387
0.861887 0.304541 0.109995
0.130713 0.010133 0.011173
0.201659 0.022859 0.010500
0.223108 0.048399 0.033292
0.246904 0.076927 0.049613
0.269304 0.112546 0.063133
0.274633 0.112249 0.071558
0.273841 0.106123 0.074807
0.300369 0.113555 0.072922
0.365479 0.132929 0.073210
0.450225 0.159117 0.079911
0.542633 0.187658 0.092224
0.625095 0.216887 0.101950
0.693547 0.245184 0.108193
0.753677 0.273280 0.112234
0.811857 0.303313 0.114734
0.856202 0.331811 0.114068
0.112733 0.025333 0.027933
0.263624 0.014873 0.001244
0.289242 0.042069 0.021658
0.316547 0.068733 0.043667
0.349302 0.106342 0.058120
0.383556 0.154456 0.072756
0.390773 0.150620 0.082587
0.384000 0.137256 0.089118
0.393209 0.138056 0.089793
0.436960 0.152700 0.091653
0.511533 0.178033 0.099867
0.596389 0.210778 0.109962
0.671233 0.247747 0.115980
0.735296 0.283978 0.119438
0.795273 0.320947 0.120922
0.849226 0.357026 0.120142
0.308760 0.000000 0.000000
0.336100 0.008428 0.000664
0.365007 0.039097 0.013707
0.395112 0.068592 0.042336
0.427939 0.099573 0.063531
0.473533 0.151420 0.080560
0.523592 0.214772 0.095600
0.524427 0.208585 0.103769
0.510496 0.177919 0.111535
0.508008 0.170244 0.117000
0.528773 0.179913 0.120333
0.577236 0.197712 0.125185
0.644884 0.233760 0.129084
0.712039 0.279549 0.130569
0.774825 0.326952 0.130159
0.835704 0.372431 0.128378
0.386693 0.000000 0.000000
0.416280 0.005313 0.000468
0.446988 0.037983 0.011433
0.478569 0.068431 0.045661
0.510959 0.098457 0.072851
0.547196 0.135202 0.091782
0.604568 0.214815 0.106792
0.657138 0.303979 0.115998
0.652153 0.289539 0.123831
0.630993 0.241053 0.135623
0.623002 0.218293 0.145967
0.624729 0.217983 0.149830
0.652969 0.234536 0.150941
0.691576 0.262639 0.147550
0.753674 0.317932 0.145488
0.814923 0.375384 0.139084
0.214639 0.020267 0.022347
0.501041 0.002743 0.000550
0.530889 0.034864 0.013001
0.559711 0.068036 0.050131
0.588047 0.100907 0.081231
0.617436 0.135611 0.102769
0.655736 0.189695 0.115581
0.719733 0.310844 0.122664
0.770073 0.418774 0.130896
0.761735 0.400958 0.139815
0.739145 0.339342 0.147122
0.725444 0.294744 0.164831
0.722025 0.285853 0.181629
0.725091 0.293331 0.192301
0.753724 0.320797 0.185573
0.794469 0.363303 0.171213
0.029000 0.038000 0.041900
0.579699 0.002008 0.000573
0.605416 0.034691 0.013555
0.629680 0.070972 0.052372
0.653595 0.106343 0.085828
0.679673 0.143007 0.110420
0.709532 0.184868 0.124164
0.754285 0.277047 0.128997
0.819864 0.437100 0.136069
0.855616 0.547608 0.151056
0.849320 0.529840 0.157160
0.832624 0.462167 0.166812
0.820576 0.417532 0.198828
0.809231 0.378524 0.224160
0.808583 0.386105 0.267859
0.818896 0.403137 0.275592
0.029000 0.038000 0.041900
0.646373 0.002124 0.000440
0.668231 0.036720 0.011747
0.689293 0.075167 0.052127
0.711160 0.112304 0.087353
0.736167 0.151411 0.114589
0.763673 0.194140 0.130927
0.796698 0.260962 0.136809
0.848573 0.402527 0.139316
0.894880 0.569213 0.156227
0.909711 0.681822 0.177600
0.907613 0.660029 0.185136
0.903640 0.599540 0.208540
0.894069 0.544478 0.258747
0.886136 0.519247 0.337436
0.880651 0.489520 0.367350
0.519527 0.010133 0.011173
0.704030 0.002233 0.000160
0.724687 0.038584 0.007731
0.744776 0.079037 0.049649
0.766101 0.118973 0.086810
0.791142 0.161491 0.116584
0.816701 0.208079 0.136076
0.839433 0.260636 0.143340
0.875341 0.376750 0.140865
0.916928 0.542576 0.155176
0.933364 0.694831 0.186582
0.939327 0.818622 0.284187
0.941752 0.792428 0.286868
0.941328 0.726637 0.307058
0.941625 0.678772 0.362284
0.939997 0.638861 0.418548
0.162779 0.030400 0.033520
0.759376 0.002415 0.000016
0.779496 0.041620 0.005325
0.799128 0.084616 0.045948
0.816093 0.127091 0.084503
0.834600 0.171873 0.115313
0.855160 0.221252 0.137020
0.875147 0.275133 0.145779
0.900928 0.364637 0.140744
0.935264 0.514448 0.154136
0.951267 0.664040 0.192813
0.963597 0.849842 0.352303
0.952056 0.930172 0.399812
0.962980 0.921695 0.434159
0.974388 0.901716 0.486327
0.970902 0.813974 0.445447
0.698067 0.005067 0.005587
0.811630 0.002650 0.000000
0.824951 0.045260 0.004216
0.837897 0.089212 0.039431
0.851872 0.133505 0.079383
0.868929 0.181456 0.111953
0.887899 0.231215 0.136252
0.907239 0.284084 0.148940
0.927754 0.350307 0.147482
0.954509 0.483702 0.157043
0.969231 0.639094 0.196084
0.980652 0.821348 0.330030
0.979949 0.953568 0.445009
0.952325 0.984770 0.456587
0.966284 0.978847 0.501297
0.984879 0.967648 0.543097
0.080466 0.035467 0.039107
0.846888 0.002792 0.000000
0.858858 0.047599 0.003148
0.870879 0.092671 0.031708
0.883986 0.135311 0.073360
0.900009 0.180424 0.108420
0.918205 0.228927 0.136121
0.937370 0.282707 0.152983
0.953534 0.337558 0.155216
0.973256 0.456486 0.162112
0.987364 0.615751 0.204551
0.995888 0.787767 0.313443
0.998752 0.956411 0.483996
0.978396 0.997273 0.501464
0.941590 0.998876 0.489695
0.960808 0.999085 0.539391
0.859115 0.000380 0.000419
0.879029 0.002483 0.000000
0.890765 0.042757 0.001852
0.902481 0.086504 0.022488
0.914782 0.129565 0.066783
0.929191 0.175416 0.104504
0.943523 0.223869 0.134892
0.957892 0.277267 0.155194
0.971937 0.335414 0.161185
0.989171 0.438624 0.167964
0.998895 0.593840 0.224504
0.999968 0.764151 0.337443
0.999998 0.950581 0.522715
0.999804 0.998184 0.558015
0.970294 1.000000 0.537913
0.912539 1.000000 0.533483
0.029007 0.047753 0.067987
0.050322 0.045258 0.068863
0.085633 0.049543 0.072099
0.131699 0.054963 0.071535
0.181953 0.064230 0.070246
0.241089 0.073571 0.066760
0.311197 0.082348 0.065576
0.390030 0.093717 0.069826
0.472846 0.105852 0.081044
0.554397 0.119781 0.095197
0.627005 0.134733 0.107738
0.690063 0.150712 0.116332
0.747805 0.168495 0.122439
0.804711 0.189362 0.127228
0.846964 0.211031 0.128640
0.882123 0.233493 0.128119
0.032921 0.064596 0.058256
0.051876 0.064451 0.068891
0.084717 0.071095 0.072042
0.127538 0.079399 0.074057
0.178857 0.088990 0.073489
0.238395 0.096855 0.068806
0.309400 0.104509 0.066323
0.389429 0.115445 0.070059
0.474114 0.127011 0.080974
0.558052 0.136937 0.094976
0.631458 0.151934 0.106033
0.694141 0.171401 0.113332
0.751555 0.192226 0.118386
0.808711 0.215043 0.122397
0.851616 0.238924 0.122889
0.886950 0.263169 0.121331
0.084041 0.050151 0.046925
0.085884 0.050859 0.048927
0.099037 0.076521 0.072715
0.117859 0.085736 0.076532
0.162481 0.100618 0.077661
0.218511 0.113187 0.073555
0.287672 0.123418 0.068983
0.368240 0.135312 0.069914
0.454316 0.148986 0.078606
0.540209 0.161084 0.092032
0.617244 0.173953 0.103634
0.682640 0.192576 0.111147
0.740994 0.214281 0.116093
0.797654 0.238568 0.119467
0.845247 0.265062 0.119852
0.881247 0.292017 0.117213
0.130631 0.040701 0.037017
0.131770 0.039882 0.033054
0.148572 0.065765 0.059605
0.162602 0.095126 0.079449
0.172570 0.099781 0.084894
0.204813 0.110024 0.081339
0.262726 0.126296 0.075643
0.341281 0.144566 0.073142
0.430196 0.165111 0.077609
0.519564 0.183625 0.089262
0.601547 0.200705 0.101340
0.670541 0.218350 0.109618
0.730025 0.237259 0.115166
0.786343 0.259174 0.118865
0.836826 0.284875 0.119827
0.873382 0.311573 0.117649
0.181445 0.030236 0.021279
0.182648 0.031678 0.016635
0.201800 0.055916 0.041807
0.223878 0.085864 0.065315
0.243930 0.118207 0.080632
0.250144 0.120487 0.087700
0.265522 0.121227 0.085994
0.317995 0.137116 0.081930
0.397541 0.160998 0.081976
0.490974 0.188498 0.090390
0.579046 0.214580 0.101964
0.653992 0.239740 0.110112
0.717025 0.264135 0.115332
0.774409 0.289172 0.118813
0.829804 0.316419 0.120427
0.868287 0.341157 0.118921
0.239538 0.020742 0.006069
0.240938 0.022329 0.003469
0.263778 0.047865 0.025111
0.290124 0.074985 0.051342
0.320464 0.110151 0.069454
0.351041 0.149866 0.082270
0.359172 0.151032 0.091562
0.358567 0.142230 0.094787
0.393794 0.152595 0.094462
0.462766 0.176494 0.097668
0.547810 0.207055 0.107180
0.630104 0.241506 0.115545
0.698584 0.275068 0.120362
0.758957 0.308052 0.122809
0.817357 0.341376 0.123680
0.864397 0.372399 0.121931
0.308760 0.010997 0.001428
0.310349 0.012776 0.001641
0.336194 0.041308 0.012677
0.365747 0.070647 0.043234
0.398774 0.101073 0.067045
0.439663 0.145375 0.083293
0.483931 0.199046 0.097425
0.490815 0.195552 0.107854
0.483401 0.175224 0.115206
0.493075 0.178085 0.117185
0.536974 0.194316 0.121568
0.603551 0.225264 0.126532
0.674415 0.267519 0.129519
0.739163 0.311538 0.130446
0.800668 0.354124 0.130151
0.856427 0.393882 0.127587
0.386693 0.005227 0.000793
0.388415 0.007162 0.000483
0.416339 0.038148 0.006034
0.447305 0.069053 0.041373
0.480430 0.099240 0.071617
0.516394 0.132405 0.093573
0.568347 0.194846 0.109223
0.618112 0.268589 0.120063
0.617511 0.261899 0.128345
0.601743 0.222822 0.138970
0.600302 0.213442 0.145856
0.621560 0.226548 0.148052
0.658971 0.250666 0.146362
0.718080 0.296649 0.144739
0.780640 0.351340 0.141029
0.840637 0.401954 0.136057
0.469840 0.002620 0.000516
0.471665 0.004400 0.000076
0.500970 0.033387 0.004893
0.530924 0.065843 0.043099
0.560520 0.098384 0.077069
0.591398 0.132350 0.103076
0.627580 0.172816 0.119520
0.683471 0.269942 0.127003
0.731601 0.371898 0.132652
0.727363 0.353459 0.141065
0.708660 0.301419 0.155512
0.702035 0.275213 0.171519
0.701781 0.278834 0.182750
0.725570 0.300897 0.180549
0.760457 0.332471 0.170130
0.820738 0.395415 0.160530
0.552200 0.001587 0.000380
0.553810 0.003188 0.000002
0.579606 0.030081 0.004898
0.605352 0.065649 0.043760
0.630371 0.100669 0.079788
0.657200 0.136966 0.108703
0.686177 0.173955 0.127227
0.723052 0.238707 0.135279
0.785098 0.378085 0.137593
0.828984 0.491183 0.147060
0.822463 0.471750 0.158975
0.805898 0.411815 0.173458
0.790306 0.368717 0.201164
0.786706 0.361633 0.237924
0.791785 0.371943 0.255287
0.817479 0.399689 0.238083
0.623400 0.001373 0.000131
0.624744 0.002943 0.000000
0.646316 0.029700 0.004634
0.668197 0.067683 0.042075
0.690071 0.104765 0.079616
0.714902 0.142702 0.110401
0.742042 0.183068 0.132206
0.770779 0.228451 0.143358
0.816911 0.339406 0.140924
0.870956 0.505948 0.151210
0.894322 0.614123 0.173226
0.892571 0.594064 0.180975
0.880631 0.534317 0.217126
0.872228 0.495955 0.281518
0.864398 0.458764 0.314671
0.865093 0.467363 0.359012
0.683553 0.001260 0.000009
0.684747 0.002828 0.000000
0.704046 0.029778 0.004069
0.724655 0.069546 0.038120
0.745489 0.108691 0.077212
0.769658 0.149559 0.109921
0.796636 0.193522 0.134771
0.821884 0.239754 0.148273
0.849702 0.318490 0.146917
0.892313 0.470122 0.152653
0.923124 0.625779 0.177202
0.932981 0.739515 0.224559
0.932091 0.713299 0.254013
0.933167 0.659976 0.303512
0.930275 0.613026 0.356450
0.924886 0.590295 0.434706
0.739180 0.001121 0.000000
0.740359 0.002699 0.000000
0.759370 0.030127 0.003287
0.779506 0.072570 0.032630
0.799584 0.114338 0.073533
0.819246 0.157879 0.107483
0.839799 0.204427 0.133709
0.860428 0.255205 0.149408
0.880586 0.312564 0.151560
0.914626 0.439946 0.153678
0.942396 0.596277 0.175430
0.951173 0.742718 0.250913
0.958483 0.880824 0.376444
0.966376 0.865966 0.431007
0.962942 0.782714 0.398748
0.964563 0.731190 0.448995
0.794133 0.001099 0.000000
0.795170 0.002809 0.000000
0.811392 0.032280 0.002263
0.824926 0.076174 0.025121
0.838497 0.119053 0.067027
0.854981 0.164980 0.102259
0.873936 0.214708 0.130291
0.893368 0.266523 0.148920
0.912033 0.318747 0.154613
0.937369 0.417448 0.153719
0.960338 0.564500 0.174694
0.969817 0.711408 0.257249
0.983175 0.908174 0.435126
0.969553 0.963038 0.470332
0.982843 0.955242 0.504631
0.993541 0.937127 0.557163
0.834507 0.001044 0.000000
0.835231 0.002745 0.000000
0.846865 0.032378 0.001001
0.858856 0.078474 0.015929
0.871432 0.122373 0.059293
0.886849 0.166592 0.096427
0.904694 0.213277 0.127377
0.923546 0.263882 0.149801
0.942225 0.318898 0.159691
0.961027 0.393306 0.157275
0.978288 0.531689 0.183838
0.989799 0.685607 0.276489
0.997487 0.892441 0.454071
0.997885 0.984666 0.515983
0.967238 0.997603 0.506234
0.984626 0.997493 0.559981
0.867194 0.000941 0.000000
0.867885 0.002523 0.000000
0.879024 0.030146 0.000009
0.890765 0.073694 0.008052
0.902892 0.116129 0.050461
0.917095 0.160161 0.090496
0.933152 0.207350 0.124051
0.948533 0.257869 0.149643
0.962993 0.314023 0.163236
0.978892 0.373507 0.167420
0.994613 0.502875 0.198727
0.999749 0.664352 0.298659
0.999983 0.863169 0.463485
0.999999 0.985257 0.567228
0.995089 0.999855 0.560267
0.958833 0.999998 0.541109
0.029140 0.061913 0.098893
0.045575 0.055218 0.098878
0.079679 0.056294 0.100311
0.126656 0.061579 0.104420
0.177724 0.069726 0.106121
0.236849 0.075118 0.098484
0.306760 0.082652 0.088632
0.385367 0.092755 0.090758
0.468965 0.106575 0.101528
0.553379 0.119773 0.116093
0.627769 0.133520 0.128378
0.691177 0.149186 0.136563
0.748592 0.166863 0.142257
0.805083 0.188148 0.146661
0.846587 0.209150 0.147927
0.881380 0.230385 0.147584
0.029489 0.087318 0.099548
0.049296 0.079668 0.100166
0.079465 0.077325 0.101815
0.124291 0.082847 0.105525
0.176707 0.090602 0.104051
0.237983 0.098157 0.096302
0.310980 0.104625 0.088041
0.391321 0.115235 0.088685
0.475976 0.126593 0.098441
0.558334 0.140340 0.112686
0.631724 0.155092 0.124578
0.695247 0.171706 0.132386
0.752778 0.190634 0.137630
0.809314 0.213378 0.141511
0.851115 0.235783 0.142062
0.886254 0.259781 0.140591
0.040673 0.103290 0.079178
0.057856 0.096893 0.090052
0.084632 0.096689 0.100543
0.124187 0.106125 0.105442
0.174952 0.115334 0.104994
0.237015 0.123865 0.097433
0.310040 0.132272 0.088562
0.393022 0.143270 0.088147
0.479665 0.153964 0.097255
0.563716 0.163091 0.111222
0.637022 0.173990 0.122232
0.699236 0.191965 0.128875
0.756006 0.214292 0.133056
0.812444 0.239207 0.135983
0.854873 0.264362 0.135347
0.890141 0.290622 0.132384
0.116769 0.114832 0.069967
0.121798 0.083718 0.073810
0.126070 0.085476 0.078261
0.142015 0.112215 0.104407
0.168399 0.124347 0.108881
0.220840 0.137559 0.103838
0.290382 0.150344 0.092459
0.376051 0.164991 0.088788
0.465757 0.180025 0.094622
0.550960 0.193424 0.106788
0.626397 0.206632 0.117607
0.690154 0.221467 0.124815
0.747205 0.239070 0.129706
0.802830 0.261698 0.132661
0.848415 0.288703 0.131754
0.884144 0.315757 0.128253
0.174602 0.075893 0.050626
0.181952 0.072128 0.057275
0.183250 0.070863 0.055619
0.200887 0.099498 0.083641
0.219038 0.131112 0.105940
0.235251 0.138631 0.109810
0.275213 0.147628 0.102217
0.346810 0.167683 0.094857
0.438708 0.191800 0.095448
0.530081 0.214712 0.104040
0.610696 0.236272 0.114087
0.678199 0.256565 0.121030
0.736692 0.276852 0.125559
0.792401 0.299408 0.128368
0.843093 0.323857 0.128863
0.878848 0.346166 0.126689
0.240244 0.059844 0.037442
0.239650 0.056377 0.036387
0.242354 0.059254 0.034141
0.264776 0.084494 0.059939
0.292800 0.119986 0.084361
0.321307 0.155417 0.099798
0.331634 0.159859 0.107136
0.353385 0.161299 0.106149
0.414803 0.181116 0.104051
0.499457 0.209316 0.107750
0.586947 0.241484 0.116063
0.661049 0.272401 0.122500
0.723869 0.301219 0.126357
0.781265 0.329546 0.128332
0.837088 0.359446 0.128077
0.876578 0.385139 0.125129
0.308891 0.046091 0.024465
0.308901 0.046049 0.021170
0.311867 0.049145 0.017781
0.337062 0.075482 0.045167
0.369259 0.107793 0.072590
0.408804 0.148750 0.092218
0.449197 0.194283 0.106361
0.459409 0.195051 0.116350
0.459333 0.184095 0.120653
0.497949 0.197115 0.122501
0.562367 0.224898 0.125342
0.636252 0.263829 0.129146
0.705131 0.305226 0.131466
0.767010 0.343640 0.132435
0.825186 0.380444 0.131635
0.872632 0.413755 0.128708
0.386708 0.040021 0.015800
0.386721 0.040041 0.010638
0.389904 0.043417 0.009078
0.416848 0.071288 0.038086
0.450366 0.102283 0.070287
0.487081 0.134226 0.095392
0.535794 0.186759 0.112768
0.582919 0.249353 0.124233
0.587923 0.247256 0.134584
0.579535 0.221518 0.144118
0.591252 0.225839 0.147737
0.629228 0.247587 0.147293
0.684069 0.286135 0.145612
0.747005 0.336883 0.143340
0.807733 0.385328 0.138800
0.862756 0.428559 0.137719
0.469840 0.034507 0.012159
0.469840 0.034507 0.006112
0.473229 0.037972 0.007795
0.501040 0.066323 0.036647
0.532112 0.098172 0.072732
0.564902 0.131902 0.102487
0.601562 0.167373 0.123625
0.651867 0.244597 0.132820
0.698225 0.333691 0.137750
0.698367 0.326114 0.147899
0.684205 0.280578 0.164410
0.682418 0.273561 0.179982
0.699345 0.290589 0.183725
0.730818 0.318241 0.173545
0.785839 0.371946 0.163510
0.846763 0.428994 0.155200
0.552200 0.028147 0.010407
0.552200 0.028147 0.004955
0.555191 0.031942 0.007355
0.579543 0.062975 0.035791
0.606046 0.097393 0.073673
0.634030 0.133536 0.105899
0.663936 0.169249 0.129725
0.697141 0.216067 0.141854
0.751737 0.333087 0.141469
0.797704 0.445394 0.148785
0.793950 0.425197 0.162899
0.776109 0.374747 0.188990
0.767158 0.349088 0.218556
0.768775 0.354970 0.244189
0.789774 0.378185 0.236486
0.824006 0.411240 0.208873
0.623400 0.024956 0.006860
0.623400 0.024956 0.004443
0.625896 0.029062 0.006436
0.646267 0.062576 0.032740
0.668849 0.099171 0.071973
0.693722 0.136760 0.105577
0.720990 0.175614 0.131822
0.748716 0.214809 0.148207
0.785680 0.295183 0.149211
0.842689 0.449586 0.153193
0.875832 0.561455 0.169236
0.870714 0.541098 0.188711
0.859582 0.489562 0.237990
0.849860 0.449473 0.286141
0.847256 0.443702 0.326779
0.852623 0.456072 0.338351
0.683553 0.023250 0.004591
0.683553 0.023250 0.003648
0.685770 0.027557 0.004995
0.704059 0.062695 0.027530
0.725175 0.101065 0.067935
0.748654 0.140878 0.102895
0.775447 0.183003 0.131489
0.802799 0.227340 0.150945
0.828248 0.279995 0.156760
0.868035 0.407549 0.154654
0.909331 0.568995 0.171088
0.922416 0.675509 0.200688
0.924290 0.655308 0.250317
0.921418 0.604269 0.310343
0.913684 0.570652 0.380771
0.907899 0.536922 0.417034
0.739180 0.021167 0.003459
0.739180 0.021167 0.002551
0.741369 0.025736 0.003022
0.759365 0.063089 0.020402
0.780005 0.104133 0.062538
0.802301 0.146619 0.099087
0.824398 0.191839 0.128891
0.845530 0.239787 0.150025
0.865470 0.289452 0.158878
0.893094 0.381927 0.154615
0.928940 0.532402 0.169283
0.945353 0.674895 0.220437
0.956271 0.810579 0.341523
0.955359 0.768505 0.352684
0.956452 0.713106 0.394509
0.955735 0.673747 0.450764
0.794133 0.020833 0.002248
0.794133 0.020833 0.001312
0.796059 0.025676 0.000891
0.811191 0.065120 0.012769
0.825384 0.107709 0.055000
0.841292 0.151569 0.092492
0.860064 0.199451 0.123513
0.879655 0.251047 0.146591
0.898893 0.304590 0.158283
0.921140 0.366646 0.157100
0.949131 0.496050 0.174906
0.964868 0.643423 0.235361
0.973233 0.800844 0.333651
0.978584 0.929087 0.456825
0.985637 0.919835 0.507720
0.984777 0.846310 0.487434
0.834507 0.020007 0.000675
0.834507 0.020007 0.000077
0.835851 0.024926 0.000042
0.846845 0.065284 0.007252
0.859293 0.109992 0.045535
0.874004 0.154924 0.084813
0.891525 0.200924 0.117978
0.910214 0.249468 0.144252
0.929205 0.302672 0.160324
0.950749 0.357290 0.165683
0.970242 0.465263 0.180992
0.982849 0.612506 0.244185
0.989863 0.764446 0.343079
0.997769 0.944889 0.512188
0.985554 0.989406 0.525546
0.999047 0.986733 0.576370
0.867194 0.018462 0.000006
0.867194 0.018462 0.000000
0.868477 0.023339 0.000000
0.879019 0.062955 0.004821
0.890996 0.105030 0.035035
0.904545 0.147633 0.076840
0.920906 0.193493 0.112542
0.938234 0.242513 0.141843
0.953978 0.295528 0.161638
0.971662 0.352671 0.174535
0.986065 0.438500 0.190802
0.996866 0.582932 0.260298
0.999843 0.735105 0.360405
0.999989 0.929607 0.522828
0.999853 0.996383 0.579882
0.982409 0.999946 0.561438
0.029400 0.080020 0.135440
0.041124 0.070428 0.136139
0.070945 0.069724 0.134616
0.114684 0.070648 0.135996
0.169911 0.076515 0.138359
0.227200 0.086007 0.141280
0.295728 0.090252 0.134216
0.374913 0.096539 0.124199
0.465505 0.108304 0.127388
0.554880 0.120376 0.139236
0.629093 0.133800 0.149967
0.691437 0.147952 0.158101
0.748056 0.164256 0.163904
0.804433 0.184756 0.167743
0.845884 0.205900 0.168199
0.880713 0.227060 0.167547
0.029507 0.104887 0.136492
0.047934 0.097366 0.136828
0.071521 0.091110 0.137401
0.114446 0.091891 0.137838
0.169262 0.097731 0.140052
0.227737 0.106076 0.140275
0.297516 0.110967 0.129382
0.381408 0.120874 0.119446
0.472963 0.131114 0.123105
0.558385 0.140493 0.136251
0.632697 0.153736 0.146990
0.695899 0.169700 0.153828
0.753006 0.188145 0.158466
0.809115 0.209732 0.162037
0.850237 0.232007 0.162239
0.885255 0.255352 0.160776
0.029803 0.132481 0.133457
0.048534 0.124521 0.136395
0.076071 0.117198 0.138511
0.114346 0.115467 0.140681
0.169569 0.121852 0.142530
0.232660 0.130509 0.137093
0.306930 0.138767 0.123539
0.394085 0.146372 0.114549
0.483759 0.155248 0.118672
0.566496 0.165129 0.131139
0.638957 0.177975 0.141955
0.700692 0.193683 0.148770
0.757073 0.212180 0.153339
0.813109 0.235886 0.156155
0.854815 0.260388 0.155238
0.890032 0.286063 0.152344
0.041156 0.147000 0.099740
0.068397 0.144217 0.115778
0.089943 0.135281 0.127391
0.122830 0.136136 0.138974
0.171922 0.147255 0.143958
0.234743 0.155043 0.136016
0.312665 0.163584 0.120579
0.402079 0.174277 0.112732
0.492170 0.184079 0.116416
0.573407 0.192865 0.127636
0.643736 0.203183 0.137735
0.704024 0.216550 0.144325
0.759631 0.236053 0.148245
0.815127 0.261321 0.149936
0.857300 0.287649 0.147875
0.892518 0.314684 0.143645
0.111711 0.167880 0.080129
0.159651 0.149311 0.098045
0.165016 0.122530 0.104007
0.172484 0.125458 0.111423
0.195561 0.153027 0.139111
0.232259 0.167286 0.141815
0.296694 0.178864 0.128078
0.382874 0.195753 0.115038
0.479069 0.213571 0.114848
0.565188 0.229641 0.121947
0.637164 0.245152 0.130195
0.698113 0.260637 0.136428
0.753339 0.278383 0.140269
0.807843 0.300181 0.141943
0.853481 0.323596 0.140811
0.888364 0.346030 0.137593
0.226833 0.136467 0.062727
0.229983 0.112356 0.071255
0.241120 0.105714 0.078189
0.243689 0.104412 0.078429
0.266738 0.135808 0.106408
0.293036 0.171160 0.131313
0.316723 0.182509 0.135156
0.366032 0.193312 0.126394
0.449087 0.217686 0.121146
0.542809 0.246009 0.122640
0.623233 0.273780 0.126809
0.689197 0.298631 0.131265
0.746581 0.321692 0.134380
0.800840 0.345374 0.135725
0.851490 0.370797 0.134584
0.887085 0.392900 0.131523
0.315836 0.100128 0.049684
0.311857 0.089684 0.056141
0.310185 0.084463 0.055356
0.314650 0.088726 0.055086
0.341860 0.117707 0.080200
0.381528 0.158379 0.106529
0.418014 0.200954 0.126359
0.431623 0.207021 0.135587
0.458198 0.208550 0.136287
0.519745 0.232257 0.134211
0.598295 0.267087 0.133803
0.672943 0.305902 0.134927
0.736067 0.340865 0.135855
0.793177 0.372951 0.136137
0.846920 0.404591 0.134532
0.885722 0.430708 0.133862
0.388712 0.080492 0.044979
0.387583 0.076133 0.047100
0.387528 0.075935 0.044001
0.392429 0.080583 0.043006
0.421758 0.107587 0.070331
0.461239 0.141415 0.099125
0.508903 0.189317 0.121408
0.552614 0.244315 0.136212
