example_ofxGpuLutCube/bin/data/ofxGpuLutCube/LUT/C5 (goden warm).cube
LUT_3D_SIZE 6
0.000000 0.000000 0.000000
0.330732 0.094284 0.111456
0.564403 0.209299 0.164674
0.740747 0.227507 0.217821
0.843069 0.261010 0.252942
0.912200 0.267839 0.275608
0.045171 0.342661 0.217051
0.345292 0.284174 0.164563
0.631925 0.288031 0.194342
0.787890 0.276344 0.249611
0.874351 0.286011 0.267679
0.936587 0.295227 0.291962
0.069485 0.568117 0.343939
0.242695 0.574233 0.370123
0.592421 0.520133 0.277119
0.805752 0.526711 0.292349
0.870027 0.480123 0.254350
0.929646 0.416769 0.267935
0.116502 0.738351 0.506011
0.147457 0.735902 0.509055
0.608940 0.727540 0.424747
0.785933 0.696824 0.363036
0.881891 0.716070 0.357235
0.923915 0.706233 0.301629
0.132276 0.865231 0.694133
0.198693 0.861471 0.706138
0.580009 0.874182 0.643907
0.819561 0.838586 0.530105
0.914012 0.839822 0.499803
0.963152 0.845903 0.472914
0.520127 0.987461 0.885292
0.611901 0.994137 0.869264
0.724611 0.994557 0.812497
0.863680 1.001676 0.751028
0.957488 0.988061 0.728967
1.007644 0.992385 0.714329
0.000000 0.000000 0.000000
0.309887 0.000000 0.020459
0.540968 0.000000 0.035674
0.724807 0.000000 0.047799
0.829803 0.000000 0.054726
0.912938 0.000000 0.060216
0.000000 0.290284 0.276117
0.311776 0.303351 0.278257
0.562365 0.308547 0.288074
0.736892 0.276572 0.269715
0.835397 0.267006 0.275457
0.933291 0.275346 0.289448
0.047172 0.548770 0.402732
0.267534 0.550142 0.418833
0.586259 0.523957 0.356719
0.792332 0.513347 0.322708
0.859041 0.449713 0.273837
0.937449 0.380678 0.283054
0.041452 0.719728 0.551617
0.092582 0.724200 0.550790
0.583878 0.735721 0.503252
0.782101 0.697898 0.424528
0.887064 0.716975 0.385258
0.926195 0.712166 0.323298
0.000000 0.853362 0.735089
0.197232 0.847143 0.736943
0.563743 0.874596 0.693349
0.823988 0.842812 0.570988
0.911985 0.842527 0.544723
0.968617 0.848045 0.521585
0.507173 0.992156 0.901618
0.602167 0.997932 0.885891
0.718162 0.991339 0.834455
0.854698 1.000043 0.771811
0.959514 0.991440 0.752205
1.006006 0.992930 0.740079
0.000000 0.001195 0.264797
0.000000 0.001233 0.274629
0.551664 0.000000 0.325657
0.733968 0.000000 0.271394
0.789279 0.000000 0.267639
0.877180 0.000000 0.231345
0.121520 0.281621 0.451212
0.253137 0.298724 0.418228
0.570129 0.319643 0.455752
0.736118 0.267838 0.409929
0.819128 0.254003 0.367868
0.916666 0.252205 0.333063
0.081036 0.479745 0.487675
0.239655 0.483775 0.472780
0.548726 0.522884 0.475389
0.736883 0.501736 0.438795
0.831358 0.454735 0.402391
0.933079 0.393356 0.395495
0.011644 0.691690 0.629798
0.105454 0.693843 0.629685
0.512509 0.720892 0.619620
0.772898 0.704633 0.535141
0.903241 0.698159 0.500031
0.949251 0.676235 0.399905
0.013204 0.838770 0.776043
0.089929 0.838546 0.776091
0.515902 0.860331 0.749123
0.804785 0.865016 0.643608
0.904357 0.851520 0.617801
0.977502 0.859486 0.603724
0.361877 0.987274 0.939021
0.474300 0.989822 0.916882
0.702344 0.994953 0.863316
0.828637 1.000361 0.812947
0.952461 0.991742 0.782635
1.004009 0.997507 0.772341
0.084247 0.002006 0.501302
0.047032 0.001987 0.476360
0.429880 0.001929 0.514214
0.748829 0.000000 0.548342
0.861927 0.000000 0.546302
0.916550 0.000000 0.528288
0.072848 0.320226 0.601792
0.140690 0.320062 0.573642
0.448990 0.333746 0.560979
0.756607 0.287737 0.598649
0.878281 0.262129 0.599592
0.955692 0.277945 0.602471
0.045553 0.484645 0.624316
0.174057 0.494665 0.603088
0.487038 0.531324 0.596354
0.759684 0.522123 0.612459
0.864263 0.459460 0.599777
0.944555 0.382003 0.587916
0.000000 0.646893 0.690142
0.079870 0.647301 0.683443
0.475522 0.678534 0.668907
0.765812 0.711279 0.650725
0.865482 0.676618 0.615883
0.948704 0.630723 0.560098
0.000000 0.814910 0.837008
0.000000 0.819204 0.839911
0.364988 0.834926 0.827467
0.749246 0.861041 0.735409
0.898271 0.859131 0.711977
0.990145 0.861408 0.699170
0.177335 0.985432 0.977407
0.182448 0.989083 0.982916
0.412116 0.995870 0.957023
0.809602 0.990122 0.853062
0.934615 1.000019 0.823768
1.003684 1.002892 0.821042
0.081700 0.002997 0.729080
0.064420 0.002986 0.716826
0.349469 0.002495 0.673448
0.704036 0.002418 0.706662
0.883368 0.001400 0.745886
0.954235 0.000649 0.749463
0.074407 0.367873 0.766313
0.080585 0.361814 0.759219
0.357813 0.353286 0.704782
0.720298 0.342055 0.720728
0.891872 0.292676 0.761331
0.968574 0.265681 0.767970
0.031700 0.518088 0.776998
0.059027 0.522192 0.772326
0.394465 0.551381 0.742288
0.724034 0.547157 0.738091
0.896974 0.515599 0.778336
0.980544 0.469004 0.800108
0.017405 0.644077 0.802117
0.000000 0.648037 0.800831
0.347900 0.675237 0.780238
0.728105 0.722382 0.757395
0.883119 0.708923 0.778296
0.984408 0.657293 0.778719
0.014749 0.780504 0.885005
0.000000 0.783685 0.889089
0.285519 0.800976 0.878305
0.714885 0.843862 0.820391
0.884698 0.862752 0.811358
0.981453 0.835031 0.784021
0.131213 0.970724 0.977586
0.135357 0.971052 0.976317
0.107406 0.977367 0.984250
0.669138 0.987640 0.927699
0.895245 1.002993 0.888894
1.001820 1.007033 0.879873
0.000000 0.398333 0.901960
0.033206 0.379890 0.903877
0.211338 0.350833 0.872230
0.693227 0.003204 0.850222
0.887186 0.003054 0.891105
0.962627 0.002708 0.904753
0.000000 0.498736 0.903230
0.043825 0.486150 0.909871
0.215923 0.471916 0.884134
0.683297 0.369409 0.860667
0.895416 0.333884 0.892226
0.972346 0.270775 0.915181
0.000000 0.546678 0.899461
0.000000 0.553538 0.899439
0.225140 0.582004 0.894936
0.670646 0.556186 0.881701
0.902803 0.538440 0.906232
0.978578 0.442207 0.924850
0.000000 0.655613 0.903357
0.000000 0.651285 0.899276
0.000000 0.675699 0.914582
0.681956 0.740710 0.901444
0.881302 0.721438 0.911956
0.990549 0.693882 0.931608
0.000000 0.771217 0.937553
0.000000 0.772068 0.938863
0.000000 0.780035 0.946233
0.564312 0.833554 0.924421
0.857437 0.876504 0.932546
0.996533 0.856845 0.944338
0.065966 0.904633 0.960905
0.033872 0.907927 0.960620
0.031261 0.911441 0.967041
0.441692 0.917819 0.957174
0.837159 0.968193 0.966321
1.003991 0.994950 0.976253
