example_ofxGpuLutCube/bin/data/ofxGpuLutCube/LUT/C5 (goden warm).cube
LUT_3D_SIZE 16
0.000000 0.000000 0.000000
0.189097 0.033521 0.037103
0.264344 0.067204 0.089052
0.330732 0.094284 0.111456
0.412585 0.147542 0.136170
0.494350 0.189083 0.170015
0.564403 0.209299 0.164674
0.631296 0.223600 0.185135
0.692663 0.226486 0.194819
0.740747 0.227507 0.217821
0.781845 0.239753 0.225926
0.823165 0.249568 0.249911
0.843069 0.261010 0.252942
0.873013 0.259684 0.260138
0.895276 0.263118 0.270003
0.912200 0.267839 0.275608
0.029750 0.172574 0.103874
0.181609 0.153563 0.087495
0.278877 0.147904 0.114685
0.365222 0.161472 0.142648
0.434808 0.167705 0.146738
0.514602 0.201314 0.177356
0.587268 0.219754 0.175997
0.651456 0.237734 0.199591
0.713370 0.232928 0.215755
0.757738 0.231847 0.234607
0.790565 0.244385 0.239311
0.830895 0.250940 0.254577
0.856943 0.258548 0.261269
0.884833 0.264186 0.272146
0.904362 0.267191 0.275570
0.925783 0.272007 0.281654
0.000000 0.263502 0.175855
0.146361 0.252570 0.154132
0.252233 0.216939 0.125209
0.369407 0.220421 0.151008
0.457074 0.222895 0.175735
0.543701 0.234518 0.185151
0.608205 0.239178 0.189598
0.672735 0.248063 0.211251
0.727592 0.245306 0.229009
0.771333 0.250484 0.241672
0.813313 0.255559 0.252891
0.842815 0.260637 0.263137
0.865484 0.268630 0.272838
0.889773 0.265726 0.275196
0.916113 0.273438 0.281241
0.932384 0.275075 0.288551
0.045171 0.342661 0.217051
0.103283 0.342102 0.214665
0.196783 0.341321 0.212705
0.345292 0.284174 0.164563
0.468738 0.283751 0.194990
0.563256 0.293546 0.196923
0.631925 0.288031 0.194342
0.693417 0.277885 0.216670
0.745183 0.274773 0.234099
0.787890 0.276344 0.249611
0.817471 0.276061 0.252001
0.852988 0.285154 0.267375
0.874351 0.286011 0.267679
0.903808 0.284654 0.275148
0.923178 0.291301 0.283798
0.936587 0.295227 0.291962
0.067590 0.415133 0.248502
0.071532 0.415482 0.260647
0.182194 0.420672 0.271220
0.272249 0.419620 0.249649
0.421106 0.360940 0.198005
0.552361 0.370228 0.221611
0.634130 0.375164 0.233135
0.701154 0.364371 0.226609
0.753805 0.347927 0.236030
0.790531 0.330049 0.241802
0.821233 0.324933 0.256414
0.846266 0.318668 0.266181
0.875994 0.318228 0.269497
0.897048 0.313234 0.268714
0.919407 0.316718 0.280034
0.943440 0.313429 0.294307
0.069746 0.497462 0.297810
0.053733 0.497688 0.301928
0.151970 0.492704 0.313442
0.261741 0.501737 0.314518
0.388278 0.477321 0.265523
0.511442 0.438693 0.237776
0.626466 0.459228 0.270429
0.703274 0.455100 0.274636
0.755841 0.448610 0.260766
0.793505 0.431819 0.252131
0.819082 0.417623 0.244282
0.843266 0.395285 0.250673
0.870377 0.376226 0.261723
0.890657 0.362981 0.269295
0.913194 0.356740 0.277723
0.936360 0.348122 0.284807
0.069485 0.568117 0.343939
0.063476 0.568532 0.348542
0.123288 0.566248 0.353528
0.242695 0.574233 0.370123
0.376846 0.566544 0.342272
0.502248 0.527760 0.273590
0.592421 0.520133 0.277119
0.690334 0.526260 0.300281
0.760779 0.530609 0.304333
0.805752 0.526711 0.292349
0.828650 0.516136 0.282183
0.847307 0.495599 0.258973
0.870027 0.480123 0.254350
0.883140 0.457937 0.253819
0.906688 0.436039 0.267964
0.929646 0.416769 0.267935
0.089771 0.628108 0.397919
0.085235 0.632799 0.397982
0.107673 0.628758 0.400191
0.222253 0.630285 0.418587
0.356354 0.632879 0.408312
0.507031 0.625252 0.347562
0.593503 0.583108 0.298139
0.666133 0.586134 0.295308
0.745242 0.592572 0.319814
0.803475 0.593302 0.325122
0.835867 0.592877 0.329022
0.859221 0.584265 0.315670
0.881807 0.576820 0.290313
0.894493 0.568928 0.261962
0.910608 0.549762 0.247335
0.936624 0.528391 0.249356
0.066906 0.683964 0.444642
0.081233 0.686090 0.450732
0.060387 0.688650 0.444369
0.178980 0.687769 0.461573
0.326382 0.687228 0.465755
0.492371 0.685004 0.421002
0.612656 0.661204 0.369352
0.674511 0.639080 0.341782
0.730660 0.640166 0.329980
0.785419 0.648398 0.345540
0.830668 0.652954 0.351993
0.869246 0.653377 0.345638
0.886883 0.652229 0.334182
0.898960 0.648600 0.310954
0.915398 0.650767 0.282102
0.925611 0.634392 0.264133
0.116502 0.738351 0.506011
0.117481 0.734014 0.501596
0.098149 0.740672 0.499344
0.147457 0.735902 0.509055
0.297870 0.740761 0.529731
0.458534 0.742550 0.494769
0.608940 0.727540 0.424747
0.688294 0.698010 0.392348
0.737749 0.690197 0.367251
0.785933 0.696824 0.363036
0.817586 0.698776 0.358145
0.861037 0.710613 0.362299
0.881891 0.716070 0.357235
0.902293 0.715187 0.336639
0.915378 0.716438 0.316755
0.923915 0.706233 0.301629
0.120535 0.784654 0.560579
0.108599 0.781610 0.560633
0.106139 0.782968 0.560593
0.139085 0.786170 0.563738
0.266632 0.783823 0.582581
0.443648 0.787202 0.559620
0.597656 0.784673 0.492947
0.698449 0.762008 0.449567
0.753518 0.739951 0.422606
0.792519 0.740907 0.404797
0.830059 0.742896 0.398347
0.857361 0.748629 0.387844
0.879503 0.755737 0.388366
0.907916 0.764128 0.380328
0.931523 0.770524 0.373850
0.931814 0.762528 0.351327
0.131258 0.821120 0.624507
0.136781 0.823321 0.624692
0.132570 0.826119 0.622037
0.145622 0.825565 0.624261
0.279056 0.826577 0.645113
0.432420 0.832734 0.633803
0.585344 0.831553 0.569338
0.698718 0.820282 0.519605
0.768288 0.795401 0.489314
0.804564 0.788989 0.470395
0.840809 0.788885 0.455475
0.869226 0.791773 0.443257
0.893003 0.800202 0.428846
0.921703 0.799738 0.420182
0.940847 0.809147 0.418559
0.946190 0.808009 0.403067
0.132276 0.865231 0.694133
0.123166 0.862244 0.690587
0.117126 0.862327 0.697963
0.198693 0.861471 0.706138
0.314445 0.862209 0.726066
0.453040 0.872599 0.707499
0.580009 0.874182 0.643907
0.693850 0.872722 0.590336
0.773847 0.849657 0.552320
0.819561 0.838586 0.530105
0.855048 0.825654 0.515204
0.883195 0.834254 0.509645
0.914012 0.839822 0.499803
0.936323 0.838760 0.485450
0.953599 0.847737 0.477003
0.963152 0.845903 0.472914
0.165799 0.893307 0.780562
0.200914 0.890542 0.777798
0.242669 0.893068 0.781624
0.301343 0.897964 0.774426
0.382120 0.900339 0.772775
0.508358 0.896622 0.744142
0.600595 0.908747 0.713868
0.692174 0.913678 0.671459
0.783763 0.894804 0.625679
0.840607 0.887364 0.603913
0.879069 0.879709 0.590337
0.898380 0.873861 0.575703
0.924848 0.878841 0.567668
0.953552 0.883698 0.558958
0.973570 0.885063 0.550354
0.973707 0.880879 0.543499
0.336668 0.923730 0.831708
0.363895 0.923779 0.825033
0.385325 0.925698 0.823157
0.429269 0.924047 0.809495
0.511455 0.930731 0.796383
0.591878 0.931465 0.775930
0.654500 0.931762 0.756182
0.721684 0.934115 0.727591
0.788913 0.935959 0.698357
0.845342 0.930293 0.672173
0.879933 0.922266 0.666671
0.916757 0.914167 0.649906
0.935942 0.913251 0.637246
0.972611 0.916407 0.632911
0.985320 0.919879 0.626756
0.986255 0.913622 0.617506
0.520127 0.987461 0.885292
0.560571 0.993599 0.875531
0.580897 0.995455 0.876321
0.611901 0.994137 0.869264
0.650665 0.995785 0.844551
0.687930 0.996423 0.834417
0.724611 0.994557 0.812497
0.769156 0.994480 0.796468
0.812838 0.999989 0.779111
0.863680 1.001676 0.751028
0.908186 0.995991 0.744005
0.946327 0.989810 0.735415
0.957488 0.988061 0.728967
0.985790 0.982461 0.723365
1.006322 0.995946 0.722952
1.007644 0.992385 0.714329
0.000000 0.000000 0.000000
0.000000 0.000000 0.000000
0.200303 0.000000 0.013226
0.286891 0.000000 0.018941
0.368388 0.000000 0.024295
0.454349 0.000000 0.029974
0.540286 0.000000 0.035633
0.610942 0.000000 0.040291
0.673978 0.000000 0.044448
0.728229 0.000000 0.048033
0.765671 0.000000 0.050496
0.807679 0.000000 0.053265
0.829675 0.000000 0.054716
0.859838 0.000000 0.056708
0.882709 0.000000 0.058210
0.909168 0.000000 0.059958
0.000000 0.166236 0.151380
0.171797 0.163567 0.143688
0.265395 0.166006 0.162001
0.341511 0.156919 0.168437
0.414597 0.166305 0.165014
0.484873 0.191566 0.166091
0.568346 0.222881 0.186519
0.637664 0.235494 0.192902
0.699283 0.230702 0.209825
0.746918 0.226774 0.222885
0.778537 0.237755 0.230203
0.814244 0.244046 0.250795
0.832967 0.256240 0.250579
0.864173 0.259931 0.264875
0.882324 0.264555 0.265295
0.900717 0.262854 0.270244
0.000000 0.248657 0.177856
0.155045 0.242350 0.177229
0.248495 0.240343 0.182594
0.356029 0.223198 0.186478
0.437236 0.226102 0.192176
0.520332 0.233636 0.204026
0.591010 0.250037 0.204359
0.656960 0.252004 0.211911
0.717575 0.245122 0.227762
0.765394 0.243931 0.242665
0.794485 0.253013 0.249515
0.824075 0.251261 0.257691
0.855910 0.258271 0.263285
0.872281 0.266304 0.268186
0.896515 0.265622 0.271160
0.919388 0.272091 0.283229
0.064051 0.337534 0.228149
0.111844 0.338067 0.227689
0.231945 0.328493 0.232088
0.331094 0.297526 0.200195
0.446824 0.293852 0.217126
0.539392 0.297579 0.226905
0.618105 0.296535 0.224017
0.678531 0.284157 0.222152
0.736935 0.272748 0.235132
0.780528 0.269522 0.247070
0.812594 0.275692 0.254480
0.834663 0.272622 0.261665
0.861435 0.280454 0.267125
0.878886 0.280790 0.274253
0.904294 0.284093 0.278087
0.926831 0.285966 0.290318
0.071443 0.413075 0.263217
0.098992 0.413318 0.264306
0.205313 0.415152 0.280847
0.299089 0.407915 0.272622
0.418483 0.363191 0.218888
0.545478 0.364642 0.234600
0.625944 0.374009 0.243293
0.692706 0.364304 0.234024
0.744492 0.342418 0.238468
0.783895 0.322408 0.245585
0.810319 0.315336 0.256347
0.840489 0.315041 0.264663
0.869467 0.306025 0.267424
0.887295 0.306565 0.269287
0.910677 0.307391 0.278317
0.933441 0.307833 0.284432
0.058743 0.493593 0.312703
0.083342 0.493503 0.315613
0.167530 0.490695 0.322662
0.289002 0.493736 0.331233
0.391696 0.481710 0.290279
0.512659 0.439136 0.253646
0.620972 0.459837 0.276139
0.697229 0.455272 0.281523
0.751232 0.445200 0.268807
0.784415 0.429195 0.254078
0.815580 0.411846 0.252735
0.843213 0.381587 0.249008
0.865751 0.366837 0.262080
0.883110 0.349792 0.267120
0.913598 0.343716 0.279073
0.930437 0.334895 0.281551
0.085324 0.564258 0.357310
0.089036 0.559780 0.368161
0.119116 0.562993 0.363953
0.267587 0.563345 0.383583
0.387904 0.563554 0.370099
0.504959 0.531575 0.298608
0.595709 0.515758 0.293875
0.688672 0.530360 0.313155
0.761010 0.531728 0.311856
0.802692 0.522270 0.302647
0.826692 0.510201 0.287298
0.846751 0.490596 0.259989
0.863263 0.466255 0.253351
0.887955 0.448430 0.258198
0.911101 0.420557 0.264610
0.929720 0.407539 0.262472
0.098237 0.628780 0.411255
0.070773 0.626881 0.409274
0.076537 0.630242 0.410494
0.234617 0.622318 0.430724
0.368382 0.628882 0.428220
0.498205 0.623015 0.372860
0.597725 0.584945 0.324340
0.668328 0.589248 0.316606
0.739693 0.596119 0.328506
0.794703 0.595688 0.337804
0.838839 0.599395 0.341311
0.864832 0.585942 0.316996
0.882128 0.582522 0.290857
0.897579 0.563811 0.258869
0.919021 0.544964 0.250022
0.935021 0.522149 0.249491
0.079978 0.679841 0.464064
0.072971 0.684837 0.460675
0.092671 0.684871 0.463656
0.186220 0.680333 0.467760
0.335615 0.684543 0.491894
0.480895 0.688400 0.444153
0.609847 0.658732 0.378595
0.677184 0.639404 0.357854
0.732155 0.642244 0.344047
0.783158 0.645047 0.349571
0.833425 0.650951 0.356693
0.875224 0.657468 0.354296
0.894870 0.655265 0.334183
0.901778 0.661078 0.305258
0.918974 0.649331 0.278360
0.935044 0.632093 0.257439
0.090652 0.733551 0.525770
0.072255 0.734524 0.516477
0.049130 0.734595 0.521085
0.129963 0.735265 0.520333
0.297570 0.734256 0.543253
0.456409 0.739094 0.516255
0.603303 0.731181 0.444807
0.692988 0.702835 0.414546
0.740102 0.691659 0.386460
0.780563 0.693493 0.373962
0.819397 0.700605 0.374259
0.854437 0.709636 0.368063
0.887655 0.716452 0.363272
0.899181 0.717226 0.335238
0.918556 0.719246 0.316962
0.929440 0.708491 0.299584
0.076974 0.778134 0.576641
0.094954 0.778038 0.575532
0.076468 0.777914 0.573731
0.124567 0.781200 0.576894
0.270645 0.784408 0.602541
0.441568 0.785487 0.584219
0.588862 0.786360 0.514578
0.698822 0.766977 0.469277
0.755508 0.745872 0.443479
0.797392 0.741898 0.420451
0.828660 0.746457 0.412457
0.856763 0.749841 0.404030
0.883701 0.758263 0.397219
0.909594 0.765447 0.391453
0.932898 0.773785 0.384535
0.937254 0.769615 0.367390
0.084296 0.823904 0.636579
0.102921 0.821410 0.634091
0.080224 0.822422 0.636084
0.113859 0.824371 0.640504
0.272852 0.826663 0.663137
0.426516 0.828664 0.641762
0.577586 0.832986 0.594852
0.694484 0.824718 0.535975
0.768832 0.801035 0.507303
0.809749 0.788293 0.482369
0.843595 0.793467 0.471936
0.874441 0.794178 0.459733
0.894401 0.796854 0.447447
0.926705 0.802754 0.436494
0.943253 0.810613 0.426952
0.948507 0.811977 0.419251
0.106092 0.857728 0.709335
0.107607 0.857967 0.708271
0.098504 0.856116 0.713025
0.198217 0.864531 0.724382
0.311103 0.858971 0.731479
0.435478 0.867342 0.717478
0.574429 0.876477 0.664560
0.681952 0.871459 0.608472
0.768537 0.858165 0.573100
0.817310 0.842062 0.550220
0.850692 0.829160 0.531858
0.881024 0.835367 0.521592
0.907484 0.841775 0.512909
0.939956 0.845304 0.503815
0.955786 0.848625 0.492387
0.961419 0.844559 0.486305
0.161912 0.890387 0.785962
0.193797 0.882397 0.783120
0.240024 0.887218 0.786505
0.294637 0.894423 0.778044
0.367873 0.895218 0.784412
0.498379 0.903273 0.756188
0.589332 0.899786 0.727174
0.691372 0.909343 0.687739
0.777181 0.905992 0.645990
0.835388 0.892003 0.622033
0.871477 0.880372 0.607872
0.896798 0.880000 0.591873
0.927650 0.880903 0.582087
0.955969 0.883775 0.573110
0.973979 0.884376 0.563177
0.978994 0.884753 0.557759
0.337312 0.920057 0.838466
0.362752 0.927630 0.839887
0.382802 0.920758 0.833638
0.427545 0.926619 0.822881
0.509120 0.928233 0.814318
0.585672 0.936573 0.785713
0.651975 0.930963 0.761665
0.717521 0.938200 0.737138
0.778735 0.936528 0.707914
0.844913 0.930392 0.676568
0.888366 0.921185 0.670396
0.917980 0.914256 0.659478
0.932069 0.912180 0.651233
0.970262 0.917141 0.647447
0.986977 0.924422 0.644267
0.987668 0.918940 0.631395
0.500907 0.994018 0.893720
0.539995 0.996131 0.886371
0.564728 0.996076 0.884825
0.598577 0.994634 0.874971
0.638544 0.996496 0.860936
0.675924 0.995874 0.846367
0.724084 0.991659 0.825294
0.763498 0.993035 0.808687
0.807798 0.996395 0.789763
0.861238 1.002123 0.757773
0.910508 0.995759 0.752405
0.941238 0.992484 0.742765
0.958790 0.990598 0.743548
0.988710 0.983927 0.734459
1.004474 0.989771 0.732461
1.009552 0.996112 0.734492
0.000000 0.000000 0.000000
0.000000 0.000000 0.000000
0.221433 0.000000 0.014619
0.307005 0.000000 0.020268
0.381072 0.000000 0.025131
0.455910 0.000000 0.030071
0.539041 0.000000 0.035549
0.610987 0.000000 0.040295
0.671347 0.000000 0.044284
0.727717 0.000000 0.047996
0.767906 0.000000 0.050638
0.805501 0.000000 0.053130
0.830577 0.000000 0.054777
0.859582 0.000000 0.056690
0.881447 0.000000 0.058131
0.906737 0.000000 0.059804
0.086184 0.163010 0.204414
0.173555 0.165669 0.192922
0.261033 0.159339 0.206549
0.340070 0.158776 0.214084
0.409521 0.158878 0.193010
0.478548 0.192270 0.185481
0.561038 0.216266 0.193562
0.628338 0.232930 0.201188
0.687528 0.231623 0.213116
0.736288 0.226403 0.225521
0.770667 0.234776 0.240284
0.800791 0.243483 0.246702
0.825956 0.251547 0.252771
0.855399 0.257267 0.258413
0.876638 0.264259 0.266154
0.903413 0.265833 0.270767
0.000000 0.226678 0.209236
0.158568 0.232545 0.217148
0.246482 0.226561 0.218100
0.330349 0.239935 0.232212
0.416992 0.235121 0.229104
0.480443 0.241554 0.222637
0.561076 0.240728 0.216411
0.631521 0.252724 0.219472
0.691740 0.253574 0.230297
0.743607 0.243567 0.245889
0.776639 0.246472 0.243916
0.810571 0.242995 0.255810
0.834100 0.255792 0.257083
0.861426 0.259749 0.263630
0.882007 0.263864 0.269455
0.916819 0.271088 0.280170
0.054018 0.318861 0.244342
0.146484 0.318244 0.246552
0.239139 0.313615 0.247298
0.326132 0.298283 0.237082
0.421148 0.300808 0.246799
0.510847 0.302115 0.253173
0.590662 0.305586 0.244551
0.650812 0.295855 0.242034
0.712620 0.278729 0.246732
0.760939 0.266485 0.253413
0.789193 0.264339 0.253636
0.822967 0.267759 0.263294
0.853007 0.269448 0.270500
0.873255 0.271786 0.274653
0.894255 0.270077 0.277738
0.927348 0.278637 0.288562
0.075259 0.404419 0.276361
0.115549 0.406978 0.288510
0.207216 0.411593 0.297820
0.322946 0.400451 0.299283
0.410912 0.366823 0.263185
0.526987 0.373927 0.264096
0.603606 0.381426 0.269111
0.675475 0.361947 0.252762
0.725403 0.343992 0.251842
0.771993 0.321663 0.258540
0.798824 0.308824 0.256784
0.830682 0.304144 0.263527
0.857262 0.295384 0.266371
0.879928 0.297316 0.275804
0.904224 0.297177 0.276496
0.932544 0.301492 0.292233
0.090362 0.489961 0.327719
0.090697 0.487946 0.333007
0.172434 0.482372 0.330402
0.310721 0.485619 0.350113
0.397825 0.476819 0.316428
0.510909 0.441917 0.284926
0.606929 0.458080 0.300434
0.690334 0.454500 0.291669
0.743604 0.436678 0.277940
0.782523 0.418961 0.263618
0.810816 0.390761 0.258270
0.836940 0.362873 0.261222
0.863467 0.347781 0.265258
0.880871 0.340027 0.272619
0.909596 0.332177 0.278545
0.937064 0.328323 0.289103
0.092549 0.558346 0.379606
0.000000 0.560930 0.372813
0.139977 0.552010 0.378695
0.264611 0.561487 0.397616
0.397066 0.562128 0.392637
0.507956 0.534971 0.331100
0.589207 0.520449 0.323345
0.683742 0.529857 0.326650
0.756137 0.529577 0.323003
0.796123 0.519885 0.309794
0.825622 0.505159 0.287878
0.847801 0.478984 0.270326
0.872694 0.457509 0.264769
0.889334 0.433786 0.257356
0.917646 0.406451 0.271643
0.938773 0.393522 0.274646
0.076998 0.622243 0.431187
0.072558 0.624463 0.425523
0.092335 0.620658 0.430374
0.224651 0.622438 0.443132
0.368729 0.623390 0.451627
0.501279 0.623276 0.396013
0.598111 0.589328 0.350972
0.669426 0.586610 0.339283
0.739338 0.595155 0.343453
0.797158 0.594987 0.346756
0.837353 0.595948 0.349864
0.866869 0.586240 0.322510
0.884275 0.573341 0.290739
0.899130 0.564058 0.260261
0.921287 0.537681 0.243348
0.938823 0.511515 0.243647
0.049192 0.675691 0.479601
0.000000 0.681047 0.476825
0.054557 0.681534 0.480334
0.177955 0.678694 0.485769
0.331172 0.680104 0.507578
0.474137 0.688415 0.471897
0.607538 0.664170 0.405328
0.674339 0.643698 0.377933
0.729853 0.641642 0.364649
0.785220 0.649373 0.362165
0.833521 0.657859 0.367641
0.872193 0.652922 0.359006
0.894484 0.658523 0.342050
0.902173 0.659677 0.306558
0.924282 0.648482 0.277421
0.935166 0.625356 0.260803
0.069378 0.725117 0.535846
0.043001 0.728135 0.529589
0.000000 0.731043 0.528858
0.131511 0.729929 0.533828
0.293235 0.730538 0.549928
0.448956 0.733930 0.535920
0.599200 0.733369 0.467190
0.688953 0.703583 0.429115
0.740479 0.695246 0.412387
0.781949 0.697228 0.394410
0.823996 0.706460 0.392324
0.857535 0.711136 0.382942
0.887639 0.715102 0.368041
0.904524 0.726256 0.349776
0.921489 0.721763 0.323133
0.929643 0.712387 0.311498
0.081487 0.776713 0.589778
0.085346 0.775723 0.586372
0.066422 0.777755 0.588362
0.119268 0.776281 0.588273
0.272725 0.777652 0.610208
0.431590 0.784693 0.599549
0.585173 0.787056 0.536390
0.696331 0.768032 0.488113
0.753205 0.747058 0.458210
0.793949 0.745683 0.437721
0.829428 0.745486 0.429201
0.856022 0.752502 0.419697
0.885296 0.757297 0.408493
0.909848 0.765743 0.396466
0.934876 0.769859 0.385681
0.933634 0.770313 0.374216
0.062500 0.819385 0.649987
0.071470 0.817648 0.643134
0.048222 0.816777 0.643511
0.106148 0.821101 0.653359
0.270430 0.820273 0.672575
0.415607 0.826873 0.660566
0.570221 0.832935 0.610153
0.687792 0.827756 0.551292
0.767129 0.805577 0.517697
0.804738 0.789708 0.497927
0.843323 0.788085 0.485529
0.865500 0.794642 0.470614
0.895015 0.797835 0.467513
0.926246 0.804173 0.454542
0.947670 0.809818 0.440210
0.946986 0.811489 0.429036
0.062192 0.856713 0.717894
0.090290 0.856030 0.726525
0.073660 0.853920 0.728705
0.189559 0.857952 0.733913
0.302103 0.858865 0.733387
0.424316 0.867025 0.725456
0.568109 0.873064 0.678565
0.678946 0.872380 0.625919
0.772500 0.859031 0.579955
0.821658 0.839335 0.564295
0.855026 0.833064 0.540812
0.883650 0.835433 0.539525
0.911957 0.839887 0.525440
0.935715 0.844080 0.515095
0.959572 0.850631 0.511373
0.968390 0.847188 0.498826
0.165928 0.884539 0.791941
0.207015 0.885303 0.793880
0.247535 0.882816 0.789999
0.291541 0.889553 0.784510
0.369511 0.894549 0.787967
0.499011 0.898600 0.764001
0.597044 0.906555 0.733578
0.688481 0.906294 0.693391
0.772258 0.903730 0.651068
0.832345 0.888728 0.624263
0.875366 0.881250 0.617106
0.895488 0.878188 0.599823
0.931277 0.882263 0.595877
0.951090 0.888614 0.585622
0.976197 0.885607 0.577681
0.979986 0.881688 0.568335
0.341105 0.920572 0.841839
0.367414 0.922227 0.840271
0.377654 0.923979 0.833545
0.428452 0.921588 0.823769
0.506237 0.928229 0.815357
0.583027 0.931913 0.791555
0.650280 0.932011 0.766869
0.712979 0.929930 0.740269
0.775950 0.937458 0.715964
0.841305 0.934331 0.676882
0.887472 0.925361 0.676551
0.914437 0.914598 0.663871
0.936040 0.911874 0.655717
0.966755 0.916890 0.652276
0.989053 0.923953 0.649576
0.984125 0.920657 0.641638
0.513764 0.993081 0.897215
0.552023 0.991831 0.887886
0.562417 0.999035 0.885922
0.607490 0.991751 0.878958
0.634782 0.995187 0.864307
0.673107 0.996042 0.852726
0.722580 0.991543 0.824965
0.765074 0.993376 0.813802
0.807121 0.996505 0.793031
0.856510 0.998592 0.768539
0.904124 0.994473 0.750061
0.938156 0.989196 0.748545
0.959567 0.988896 0.747355
0.987906 0.985671 0.742380
1.007527 0.989145 0.738789
1.005531 0.992793 0.732949
0.000000 0.000000 0.000000
0.000000 0.000000 0.000000
0.123650 0.000000 0.008165
0.309887 0.000000 0.020459
0.402651 0.000000 0.026557
0.471032 0.000000 0.031065
0.540968 0.000000 0.035674
0.604527 0.000000 0.039868
0.670434 0.000000 0.044225
0.724807 0.000000 0.047799
0.763214 0.000000 0.050339
0.802194 0.000000 0.052902
0.829803 0.000000 0.054726
0.857886 0.000000 0.056575
0.883143 0.000000 0.058240
0.912938 0.000000 0.060216
0.097548 0.163958 0.251684
0.159685 0.175198 0.241050
0.223403 0.167712 0.240267
0.345303 0.164011 0.258627
0.421803 0.157556 0.254715
0.490047 0.183602 0.241750
0.555179 0.205809 0.228417
0.619333 0.231918 0.226384
0.681167 0.236432 0.229100
0.731644 0.231486 0.236795
0.763572 0.233057 0.242278
0.797114 0.240610 0.249201
0.827749 0.248684 0.253723
0.852503 0.255766 0.259700
0.875616 0.264929 0.268431
0.899418 0.265592 0.272059
0.104733 0.213160 0.266079
0.155427 0.227667 0.258390
0.238388 0.232692 0.256808
0.331795 0.237451 0.271126
0.420397 0.240229 0.277343
0.486084 0.238016 0.270022
0.553859 0.248838 0.259954
0.619319 0.255077 0.248506
0.672323 0.255197 0.238376
0.727468 0.246337 0.248197
0.759834 0.234323 0.257154
0.794713 0.242642 0.254101
0.823255 0.249024 0.261781
0.848250 0.257721 0.265794
0.870133 0.259545 0.269374
0.900465 0.265111 0.280456
0.000000 0.290284 0.276117
0.130553 0.294015 0.273711
0.231595 0.302699 0.283233
0.311776 0.303351 0.278257
0.412498 0.310901 0.292913
0.489639 0.312655 0.293456
0.562365 0.308547 0.288074
0.631662 0.306520 0.275499
0.686578 0.292319 0.264379
0.736892 0.276572 0.269715
0.774403 0.265877 0.279212
0.806724 0.262827 0.271525
0.835397 0.267006 0.275457
0.867206 0.268517 0.278640
0.901591 0.267450 0.284476
0.933291 0.275346 0.289448
0.066107 0.383553 0.305830
0.119365 0.386861 0.309272
0.210449 0.387697 0.317546
0.312146 0.383058 0.312475
0.405815 0.376706 0.300964
0.504265 0.376221 0.305674
0.579898 0.381050 0.308349
0.648334 0.373228 0.296095
0.703864 0.356914 0.283298
0.752243 0.328715 0.279649
0.783957 0.311892 0.280227
0.817346 0.301981 0.283016
0.842327 0.295641 0.276531
0.880254 0.292896 0.282963
0.909274 0.294880 0.283456
0.934751 0.297210 0.293156
0.081638 0.471163 0.355530
0.096119 0.473199 0.354505
0.184327 0.473205 0.357651
0.307295 0.473860 0.368429
0.402482 0.471175 0.361486
0.495343 0.447734 0.324512
0.595254 0.453378 0.331131
0.674830 0.449436 0.317044
0.725569 0.436939 0.299313
0.769555 0.418706 0.283433
0.797738 0.396722 0.277496
0.825745 0.367246 0.274166
0.849556 0.346548 0.272453
0.886085 0.337165 0.278448
0.912280 0.328675 0.284641
0.943169 0.324475 0.294661
0.047172 0.548770 0.402732
0.082041 0.548619 0.398016
0.142015 0.547889 0.405818
0.267534 0.550142 0.418833
0.398545 0.553403 0.411328
0.505879 0.540443 0.375609
0.586259 0.523957 0.356719
0.678573 0.525780 0.354331
0.748601 0.525724 0.343635
0.792332 0.513347 0.322708
0.818548 0.493543 0.298350
0.841117 0.471257 0.281136
0.859041 0.449713 0.273837
0.885615 0.421670 0.267716
0.915558 0.399368 0.277615
0.937449 0.380678 0.283054
0.057915 0.608626 0.450582
0.031110 0.615740 0.447134
0.070002 0.613335 0.450354
0.226549 0.615597 0.464448
0.367806 0.620874 0.478179
0.501583 0.619903 0.437073
0.592290 0.592369 0.384970
0.666053 0.586416 0.372226
