example_ofxGpuLutCube/bin/data/ofxGpuLutCube/LUT/C50 (dusty olive soft fade).cube
LUT_3D_SIZE 16
0.010773 0.011871 0.009094
0.042431 0.013741 0.010511
0.081378 0.013237 0.011432
0.144763 0.009405 0.011731
0.226758 0.000626 0.011638
0.321127 0.000000 0.011067
0.415570 0.000000 0.010413
0.503384 0.000000 0.009817
0.582656 0.000000 0.009474
0.653937 0.000000 0.009094
0.716736 0.000000 0.009135
0.772555 0.000000 0.009305
0.823371 0.000000 0.009961
0.871559 0.000000 0.011361
0.924160 0.000000 0.014795
0.971606 0.000000 0.021264
0.012962 0.058708 0.017709
0.036160 0.051415 0.018932
0.092738 0.046189 0.015964
0.159415 0.041651 0.016343
0.234642 0.040160 0.016761
0.319932 0.033603 0.017243
0.411991 0.007370 0.016643
0.499296 0.000802 0.015724
0.578626 0.000000 0.015034
0.650225 0.000000 0.014421
0.713879 0.000000 0.014040
0.770842 0.000000 0.013511
0.823135 0.000000 0.013284
0.873340 0.000000 0.013237
0.923648 0.000000 0.015858
0.970107 0.000000 0.021562
0.002671 0.126552 0.023224
0.048539 0.105221 0.032839
0.072270 0.106305 0.026552
0.157895 0.103069 0.019055
0.257964 0.074683 0.020089
0.338865 0.067394 0.021473
0.417618 0.061095 0.023472
0.492173 0.054967 0.026686
0.563290 0.040345 0.030154
0.634649 0.009434 0.030044
0.699573 0.002669 0.029492
0.760265 0.000000 0.029714
0.815028 0.000000 0.029903
0.869938 0.000000 0.030848
0.921028 0.000000 0.031730
0.969255 0.000000 0.032486
0.000000 0.222534 0.036835
0.061632 0.203429 0.050570
0.117153 0.185335 0.063281
0.146442 0.189113 0.043974
0.246791 0.188942 0.026230
0.368030 0.139398 0.028823
0.449877 0.118848 0.033282
0.517737 0.114582 0.037888
0.580710 0.112737 0.044102
0.639038 0.115005 0.052330
0.693001 0.123641 0.064042
0.750829 0.108262 0.073561
0.810394 0.066268 0.079635
0.864571 0.027909 0.082719
0.914348 0.018111 0.085704
0.961091 0.008627 0.089245
0.003743 0.311611 0.064709
0.086438 0.297375 0.080740
0.157026 0.280690 0.099792
0.198843 0.267221 0.107065
0.228139 0.270304 0.075150
0.323113 0.273632 0.043280
0.443784 0.225705 0.044771
0.531912 0.182639 0.053457
0.592814 0.177297 0.061919
0.649044 0.180277 0.072790
0.701582 0.188928 0.087890
0.750864 0.203771 0.106843
0.795530 0.223068 0.127789
0.835972 0.244794 0.150032
0.882334 0.233943 0.159873
0.928698 0.215049 0.167160
0.058360 0.395518 0.112966
0.137204 0.385285 0.126930
0.200075 0.373640 0.143683
0.259135 0.357672 0.165483
0.286664 0.351200 0.162218
0.314911 0.354089 0.126390
0.401519 0.360941 0.088721
0.516203 0.328513 0.082293
0.610934 0.268522 0.095000
0.668020 0.253851 0.107355
0.714091 0.258535 0.121545
0.757482 0.267965 0.138355
0.797872 0.281203 0.156834
0.835535 0.298260 0.177523
0.871345 0.320193 0.201500
0.905425 0.347768 0.229907
0.165308 0.487048 0.182678
0.216018 0.478875 0.193202
0.262833 0.468759 0.205780
0.313761 0.455050 0.223081
0.361076 0.439946 0.243763
0.377415 0.438538 0.229525
0.404652 0.441090 0.193414
0.471306 0.440162 0.149588
0.574066 0.419366 0.134897
0.663091 0.359814 0.145812
0.723682 0.329396 0.159263
0.764313 0.332324 0.174393
0.801517 0.341614 0.191629
0.836836 0.354567 0.210804
0.870744 0.372453 0.233594
0.903176 0.396051 0.261017
0.244389 0.547544 0.241481
0.278379 0.541797 0.249604
0.312762 0.534173 0.259239
0.353734 0.524047 0.273143
0.397843 0.512294 0.292136
0.435812 0.501314 0.310692
0.444073 0.502639 0.287206
0.466591 0.502220 0.250100
0.520275 0.500060 0.204254
0.607988 0.486164 0.184533
0.690403 0.441466 0.194206
0.758257 0.397897 0.207746
0.799779 0.394433 0.223696
0.834102 0.405501 0.242963
0.867460 0.421461 0.265949
0.899256 0.443241 0.293960
0.316510 0.597388 0.301023
0.349094 0.599099 0.315820
0.374701 0.593929 0.324166
0.406428 0.586950 0.335878
0.442187 0.578494 0.351684
0.478535 0.568633 0.371299
0.502046 0.560874 0.379671
0.505532 0.560441 0.350878
0.522862 0.557773 0.312773
0.565197 0.554152 0.267985
0.642287 0.548969 0.243486
0.717588 0.516797 0.251770
0.786088 0.474265 0.264752
0.832990 0.459998 0.281740
0.865248 0.472955 0.304275
0.895608 0.492295 0.332068
0.388806 0.645685 0.368042
0.407115 0.644125 0.375121
0.427583 0.641505 0.383659
0.452072 0.636644 0.393573
0.480131 0.630358 0.406285
0.510151 0.622967 0.422129
0.539145 0.614192 0.440261
0.552096 0.609051 0.438590
0.554909 0.608359 0.409254
0.570472 0.605972 0.374087
0.605166 0.602417 0.332855
0.672792 0.604603 0.304223
0.741201 0.582424 0.312146
0.804625 0.550904 0.325826
0.858503 0.527048 0.344306
0.890925 0.538254 0.370736
0.447327 0.688151 0.431132
0.460251 0.686872 0.436367
0.475119 0.684674 0.442900
0.493666 0.680894 0.450777
0.515753 0.676081 0.461074
0.540385 0.670569 0.474182
0.565428 0.663940 0.489319
0.588389 0.656548 0.504939
0.595101 0.654316 0.495631
0.600061 0.654543 0.469879
0.615631 0.653697 0.439565
0.645271 0.650923 0.403351
0.702586 0.656266 0.374266
0.766775 0.645433 0.382676
0.825231 0.625400 0.400214
0.879121 0.604791 0.422129
0.500869 0.728831 0.496025
0.510022 0.727686 0.499844
0.520722 0.725549 0.504346
0.534528 0.722288 0.510069
0.551595 0.718280 0.517894
0.571201 0.713706 0.528089
0.592149 0.708412 0.540264
0.613027 0.702312 0.554074
0.631134 0.696395 0.566656
0.634321 0.696406 0.552365
0.640530 0.697302 0.529895
0.655035 0.696824 0.502571
0.680167 0.693972 0.468541
0.728820 0.699246 0.440459
0.789003 0.697926 0.448743
0.842307 0.686415 0.471042
0.545538 0.762945 0.554461
0.552466 0.762153 0.557478
0.561000 0.760657 0.561435
0.572313 0.758401 0.566680
0.586385 0.755652 0.573692
0.602761 0.752476 0.582699
0.620630 0.748731 0.593346
0.638825 0.744212 0.605090
0.656738 0.739179 0.618167
0.669821 0.735729 0.625881
0.672402 0.737056 0.611353
0.679038 0.738259 0.591852
0.692562 0.738411 0.568040
0.715184 0.737069 0.538951
0.756834 0.742552 0.514291
0.812856 0.749298 0.525035
0.595139 0.797782 0.620573
0.600046 0.797044 0.622531
0.606548 0.795885 0.625595
0.615700 0.794392 0.630321
0.627354 0.792741 0.636861
0.641163 0.790874 0.645166
0.656237 0.788587 0.654753
0.671736 0.785664 0.664986
0.687245 0.782244 0.676137
0.702617 0.778809 0.688771
0.711625 0.777748 0.692246
0.714022 0.779785 0.679187
0.720515 0.781218 0.663103
0.732746 0.782020 0.643649
0.752673 0.782096 0.620296
0.786732 0.786943 0.600997
0.638399 0.825293 0.677789
0.641506 0.824510 0.678555
0.646129 0.823406 0.680524
0.653024 0.822165 0.683978
0.662550 0.821008 0.689552
0.673973 0.819851 0.696815
0.686179 0.818088 0.704479
0.698194 0.815393 0.711679
0.711227 0.812812 0.720578
0.724808 0.810450 0.731239
0.738266 0.808475 0.743365
0.744289 0.809741 0.743495
0.748167 0.812774 0.735065
0.755463 0.815489 0.724656
0.767538 0.818072 0.712348
0.785455 0.820286 0.697583
0.692607 0.852235 0.744950
0.695128 0.851851 0.745980
0.698771 0.851239 0.747766
0.703895 0.850419 0.750532
0.710885 0.849668 0.754765
0.719677 0.848901 0.760473
0.729312 0.847956 0.766873
0.739425 0.846714 0.773629
0.750017 0.845400 0.781139
0.760962 0.844156 0.789630
0.772022 0.843107 0.799045
0.782621 0.842244 0.808938
0.786494 0.845020 0.808014
0.791458 0.848553 0.805607
0.799486 0.852578 0.804119
0.810848 0.857007 0.804083
0.014529 0.011712 0.025749
0.048061 0.008060 0.027350
0.095054 0.003216 0.031557
0.159123 0.000000 0.037086
0.237054 0.000000 0.040450
0.326950 0.000000 0.042859
0.416988 0.000000 0.043672
0.501945 0.000000 0.042747
0.579582 0.000000 0.041286
0.649641 0.000000 0.039512
0.711997 0.000000 0.037541
0.768061 0.000000 0.033522
0.819928 0.000000 0.028111
0.869439 0.000000 0.022655
0.918812 0.000000 0.018379
0.963381 0.000000 0.021661
0.007450 0.061884 0.030052
0.047154 0.053939 0.031916
0.096572 0.047867 0.032059
0.163469 0.038289 0.031974
0.243899 0.022298 0.031855
0.332632 0.002752 0.031598
0.420312 0.000563 0.030916
0.503253 0.000000 0.030294
0.579376 0.000000 0.029422
0.648333 0.000000 0.028744
0.709975 0.000000 0.028143
0.766542 0.000000 0.027338
0.819200 0.000000 0.026405
0.870400 0.000000 0.025455
0.919922 0.000000 0.024272
0.964703 0.000000 0.022729
0.000000 0.129701 0.036551
0.054242 0.116216 0.043199
0.091453 0.108762 0.044941
0.172881 0.098416 0.040995
0.252940 0.097405 0.043623
0.332343 0.096618 0.046453
0.412849 0.086133 0.048802
0.495068 0.046595 0.047485
0.570954 0.012483 0.045668
0.640422 0.004148 0.043846
0.703068 0.000000 0.042314
0.760433 0.000000 0.041064
0.815010 0.000000 0.040220
0.867498 0.000000 0.039386
0.917126 0.000000 0.038347
0.964624 0.000000 0.037023
0.000000 0.216773 0.053690
0.065765 0.204410 0.063639
0.128997 0.187470 0.077965
0.161511 0.185746 0.067660
0.256895 0.177349 0.053973
0.357430 0.149320 0.057416
0.431504 0.144834 0.062160
0.499753 0.144836 0.067946
0.563338 0.146882 0.075591
0.623223 0.145606 0.083416
0.685106 0.113123 0.084789
0.745742 0.066133 0.085657
0.802751 0.026647 0.085745
0.855622 0.015531 0.085743
0.905394 0.004986 0.086072
0.953028 0.000000 0.086435
0.012479 0.305613 0.084344
0.092983 0.295253 0.095626
0.161914 0.280864 0.111302
0.214934 0.264157 0.127792
0.240000 0.266455 0.101930
0.331149 0.265003 0.075345
0.442571 0.221717 0.078663
0.518692 0.201265 0.086866
0.578177 0.202326 0.095315
0.633131 0.205913 0.105209
0.683751 0.212952 0.117289
0.731197 0.224008 0.131590
0.776699 0.235142 0.146732
0.826762 0.219924 0.153256
0.876536 0.195796 0.157077
0.926346 0.168192 0.161690
0.085218 0.395406 0.135743
0.147771 0.387485 0.143166
0.206712 0.376450 0.156692
0.266067 0.360745 0.176414
0.301703 0.349666 0.183069
0.325490 0.352114 0.150818
0.405291 0.353735 0.115090
0.513885 0.316686 0.114867
0.598569 0.274150 0.124754
0.651633 0.269942 0.134916
0.698513 0.275241 0.147397
0.742789 0.284354 0.162039
0.783996 0.296558 0.178381
0.822665 0.312131 0.196775
0.859482 0.331920 0.218166
0.896365 0.350823 0.240604
0.177088 0.475482 0.194185
0.211043 0.468511 0.196802
0.256488 0.459839 0.207774
0.308336 0.447531 0.224357
0.357463 0.432326 0.244989
0.377591 0.426573 0.238082
0.399404 0.426763 0.202947
0.463988 0.425010 0.163591
0.563515 0.401927 0.154640
0.648668 0.350914 0.164191
0.704979 0.331898 0.176024
0.746376 0.337774 0.189931
0.785611 0.347572 0.206060
0.823043 0.361002 0.224548
0.858815 0.378651 0.246176
0.892845 0.401175 0.271813
0.251720 0.539183 0.250440
0.274289 0.534385 0.252360
0.307338 0.527563 0.260565
0.349064 0.518032 0.273907
0.392796 0.506184 0.291378
0.431475 0.493093 0.309732
0.440814 0.490752 0.290912
0.460539 0.489296 0.254944
0.513594 0.486800 0.213291
0.601396 0.473123 0.198355
0.685758 0.433040 0.212183
0.749290 0.398753 0.224658
0.788460 0.401518 0.239760
0.823908 0.412168 0.257341
0.858150 0.427647 0.278937
0.890903 0.447970 0.304676
0.325509 0.594347 0.311583
0.342626 0.591329 0.314351
0.367116 0.586934 0.321705
0.399933 0.580558 0.333612
0.436556 0.572461 0.349098
0.473660 0.562893 0.368250
0.500963 0.554336 0.381165
0.505189 0.553842 0.355893
0.521936 0.551698 0.319945
0.564501 0.549113 0.277766
0.640897 0.542743 0.258054
0.715180 0.511040 0.266632
0.780890 0.473562 0.278920
0.825137 0.465097 0.295393
0.857629 0.478136 0.316385
0.888787 0.496373 0.342252
0.388977 0.639747 0.370527
0.401083 0.637400 0.372615
0.418589 0.634042 0.378238
0.443392 0.629127 0.387735
0.472164 0.622939 0.400223
0.502776 0.615743 0.415774
0.532812 0.607422 0.434026
0.549761 0.601831 0.438065
0.552871 0.601861 0.410999
0.568410 0.600139 0.377854
0.603498 0.597324 0.338390
0.670798 0.598578 0.314047
0.739152 0.577086 0.322843
0.802797 0.546824 0.336822
0.854902 0.526785 0.354781
0.885450 0.541440 0.379801
0.446179 0.683405 0.431970
0.454983 0.681509 0.433560
0.467572 0.678849 0.437673
0.486462 0.675017 0.445292
0.508946 0.670282 0.455455
0.538568 0.668775 0.474499
0.563800 0.662167 0.489254
0.587376 0.654645 0.505163
0.595996 0.651575 0.499432
0.600387 0.651831 0.474221
0.615478 0.650950 0.444536
0.644978 0.648236 0.408896
0.702478 0.653602 0.381444
0.765690 0.641494 0.390888
0.824045 0.621209 0.407235
0.876683 0.602178 0.427945
0.500667 0.726358 0.497942
0.507851 0.725340 0.500003
0.517593 0.723702 0.503735
0.532250 0.720921 0.510235
0.550063 0.717372 0.518733
0.570365 0.713251 0.529422
0.591843 0.708369 0.542020
0.613097 0.702471 0.555851
0.632376 0.696609 0.569999
0.636266 0.695949 0.557627
0.641535 0.696306 0.534675
0.655531 0.695647 0.507531
0.681098 0.693404 0.475029
0.730681 0.699626 0.449065
0.790134 0.697368 0.458807
0.843040 0.685536 0.479831
0.544841 0.761282 0.555687
0.550474 0.760541 0.557426
0.558057 0.759363 0.560576
0.569897 0.757392 0.566244
0.584486 0.754884 0.573707
0.601344 0.751910 0.582951
0.619546 0.748318 0.593733
0.638255 0.744143 0.605907
0.656720 0.739471 0.619428
0.670966 0.735655 0.628932
0.673449 0.736471 0.614878
0.679469 0.737373 0.595024
0.692577 0.737276 0.571043
0.715146 0.735882 0.542149
0.757651 0.742029 0.518743
0.813235 0.747895 0.530479
0.596396 0.798134 0.624184
0.600191 0.797277 0.624990
0.605386 0.796087 0.626685
0.614301 0.794444 0.630989
0.625994 0.792702 0.637285
0.639894 0.790769 0.645493
0.655140 0.788461 0.654970
0.670751 0.785510 0.665091
0.686464 0.782047 0.676100
0.701972 0.778573 0.688607
0.711894 0.777077 0.693647
0.714205 0.778951 0.680871
0.720463 0.780337 0.664730
0.732465 0.781012 0.645140
0.752263 0.780914 0.621527
0.787165 0.786233 0.602413
0.641791 0.827077 0.683784
0.645015 0.826568 0.684884
0.649073 0.825828 0.686372
0.656291 0.824812 0.690253
0.665522 0.823557 0.695438
0.676365 0.822050 0.701807
0.688572 0.820322 0.709347
0.701576 0.818320 0.717846
0.715004 0.816097 0.727282
0.728413 0.813754 0.737648
0.741387 0.811384 0.748824
0.747513 0.811844 0.749491
0.750864 0.814512 0.740629
0.757819 0.817145 0.730208
0.769534 0.819577 0.717805
0.787195 0.821617 0.702877
0.693931 0.852932 0.747764
0.696524 0.852667 0.748892
0.699574 0.852237 0.750256
0.704933 0.851566 0.753233
0.711977 0.850769 0.757381
0.720445 0.849883 0.762645
0.730052 0.848878 0.768877
0.740307 0.847701 0.775757
0.751021 0.846423 0.783313
0.762069 0.845194 0.791737
0.773080 0.844100 0.800976
0.783522 0.843106 0.810538
0.787608 0.845473 0.810147
0.792202 0.848851 0.807411
0.799790 0.852658 0.805304
0.811096 0.857042 0.805221
0.018980 0.010927 0.044322
0.055471 0.006634 0.046641
0.097276 0.002500 0.049508
0.167919 0.000000 0.061249
0.252524 0.000000 0.073363
0.342658 0.000000 0.079066
0.430411 0.000000 0.079611
0.512334 0.000000 0.078092
0.587196 0.000000 0.075563
0.655334 0.000000 0.072145
0.716100 0.000000 0.068133
0.771876 0.000000 0.064085
0.823955 0.000000 0.059324
0.873174 0.000000 0.050807
0.921575 0.000000 0.042217
0.966856 0.000000 0.035443
0.011566 0.062358 0.053511
0.053531 0.051465 0.057196
0.110188 0.043022 0.060078
0.185008 0.029962 0.066667
0.268228 0.011876 0.069852
0.354005 0.000817 0.069791
0.438285 0.000000 0.068846
0.518069 0.000000 0.067017
0.590941 0.000000 0.064433
0.656855 0.000000 0.061569
0.716206 0.000000 0.058869
0.771272 0.000000 0.056051
0.823321 0.000000 0.053081
0.872272 0.000000 0.049870
0.921543 0.000000 0.046502
0.967463 0.000000 0.041212
0.000000 0.132324 0.059437
0.040727 0.123435 0.061821
0.107385 0.112734 0.065322
0.181880 0.100756 0.065121
0.263538 0.083616 0.064838
0.347882 0.059686 0.064273
0.431080 0.027553 0.063042
0.509914 0.008128 0.061562
0.582762 0.002443 0.059959
0.649344 0.000000 0.058650
0.709515 0.000000 0.057389
0.765273 0.000000 0.055944
0.818754 0.000000 0.054642
0.869300 0.000000 0.052946
0.917734 0.000000 0.050608
0.964981 0.000000 0.047768
0.000000 0.224010 0.071565
0.046434 0.212538 0.079504
0.131005 0.198887 0.091772
0.181846 0.188470 0.093915
0.273216 0.175210 0.086000
0.353051 0.169929 0.090802
0.424969 0.170532 0.095767
0.494470 0.168007 0.100841
0.565436 0.144268 0.100896
0.632357 0.107447 0.099705
0.695505 0.060301 0.097923
0.755263 0.025421 0.097109
0.810287 0.014792 0.096053
0.861527 0.003972 0.094520
0.910229 0.000000 0.092533
0.957152 0.000000 0.090095
0.000973 0.312130 0.100247
0.084885 0.302296 0.113368
0.164028 0.290735 0.126019
0.227678 0.272484 0.143610
0.257556 0.269310 0.128574
0.347332 0.260344 0.110413
0.444812 0.230571 0.114667
0.511810 0.226055 0.121637
0.570505 0.228530 0.129150
0.625605 0.233622 0.138432
0.677016 0.240518 0.149200
0.728678 0.238860 0.157859
0.782021 0.219873 0.161182
0.834217 0.192320 0.162164
0.884549 0.158605 0.162512
0.932705 0.120250 0.163519
0.053396 0.394363 0.143397
0.147353 0.386830 0.157433
0.205538 0.377762 0.167257
0.267348 0.363477 0.184840
0.313408 0.349396 0.200028
0.335686 0.350690 0.173055
0.415751 0.349782 0.144877
0.517762 0.311402 0.146864
0.589264 0.288084 0.154781
0.639606 0.288118 0.163109
0.686188 0.293206 0.173697
0.730144 0.301216 0.186047
0.771807 0.312457 0.200454
0.811420 0.327209 0.217345
0.852182 0.338005 0.233452
0.897116 0.334545 0.243883
0.157123 0.474555 0.199668
0.219962 0.468092 0.212560
0.257807 0.460581 0.218216
0.308805 0.448863 0.232385
0.360420 0.434075 0.252516
0.388185 0.425054 0.255343
0.407334 0.425506 0.222387
0.472549 0.424417 0.187423
0.567637 0.396520 0.183153
0.645754 0.354193 0.191433
0.695012 0.346656 0.201364
0.736139 0.352233 0.213300
0.775504 0.361043 0.227325
0.813101 0.373101 0.243571
0.849397 0.389161 0.262964
0.884355 0.410310 0.286792
0.245069 0.538147 0.257233
0.286052 0.533390 0.267630
0.309803 0.527628 0.270166
0.351131 0.519788 0.282572
0.396142 0.508589 0.299639
0.437155 0.495924 0.319293
0.451107 0.491760 0.308404
0.468870 0.490441 0.273986
0.521116 0.487353 0.235850
0.607115 0.471979 0.225548
0.686048 0.429550 0.234786
0.742336 0.408542 0.246729
0.780793 0.413839 0.260825
0.816795 0.424466 0.277475
0.851709 0.439267 0.297534
0.885046 0.458654 0.321809
0.324874 0.592001 0.318162
0.350350 0.589105 0.325365
0.367918 0.585356 0.328085
0.398215 0.578833 0.337499
0.434518 0.570273 0.351630
0.471255 0.560260 0.369087
0.500999 0.549757 0.384369
0.505649 0.547795 0.362277
0.521189 0.545629 0.327739
0.564313 0.543860 0.288022
0.639938 0.536354 0.272969
0.713421 0.505042 0.282357
0.776452 0.473408 0.294638
0.817226 0.471762 0.310387
0.850493 0.484677 0.330273
0.882486 0.502232 0.354697
0.391742 0.637128 0.377251
0.405497 0.634910 0.380287
0.418137 0.632049 0.382309
0.440870 0.627068 0.389725
0.469391 0.620581 0.401188
0.499825 0.612963 0.415540
0.529581 0.604043 0.432386
0.548657 0.596832 0.439348
0.551429 0.595774 0.413923
0.565807 0.593615 0.381131
0.601190 0.591373 0.343251
0.668874 0.591941 0.323705
0.736897 0.570760 0.333224
0.800494 0.541027 0.346748
0.849759 0.532292 0.368378
0.880616 0.546848 0.392018
0.452060 0.683816 0.441577
0.461173 0.682210 0.443420
0.470672 0.680072 0.445152
0.487978 0.676599 0.451469
0.510866 0.672110 0.461654
0.536165 0.666901 0.474438
0.562113 0.660732 0.489417
0.586807 0.653513 0.506158
0.598089 0.649804 0.504990
0.602048 0.650253 0.480665
0.616705 0.649462 0.451845
0.646126 0.646958 0.417050
0.704543 0.652295 0.392164
0.765780 0.638631 0.401493
0.823731 0.618011 0.416516
0.874939 0.600663 0.435882
0.500442 0.723922 0.500447
0.506835 0.722431 0.501416
0.513769 0.720519 0.502328
0.526911 0.717724 0.507182
0.545279 0.714346 0.515812
0.566233 0.710400 0.526729
0.588435 0.705789 0.539559
0.610453 0.700291 0.553874
0.630495 0.694327 0.568482
0.636241 0.693200 0.559851
0.641318 0.693847 0.537631
0.655095 0.693216 0.510974
0.680465 0.690845 0.478651
0.730638 0.697336 0.453531
0.789335 0.693384 0.463930
0.842321 0.680991 0.483422
0.541406 0.758000 0.554089
0.546411 0.756803 0.554860
0.551855 0.755284 0.555589
0.561971 0.753003 0.559266
0.576660 0.750227 0.566214
0.594341 0.747404 0.575852
0.613851 0.744427 0.587809
0.633714 0.740774 0.600933
0.652847 0.736283 0.614841
0.671987 0.735362 0.631834
0.674813 0.736034 0.619058
0.680458 0.736907 0.599348
0.693246 0.736728 0.575482
0.715651 0.735175 0.546641
0.758795 0.741663 0.523925
0.813764 0.746140 0.536296
0.594463 0.796734 0.624141
0.598854 0.796219 0.625630
0.603559 0.795443 0.627030
0.611767 0.794114 0.630635
0.623870 0.792484 0.637217
0.638218 0.790731 0.645671
0.653773 0.788459 0.655220
0.669676 0.785490 0.665270
0.685529 0.781975 0.676165
0.701031 0.778237 0.688211
0.711673 0.776032 0.694332
0.713602 0.777298 0.681339
0.719438 0.778428 0.664779
0.731128 0.778887 0.644667
0.750918 0.778579 0.620630
0.786984 0.784610 0.602318
0.638790 0.825807 0.682261
0.642419 0.825416 0.683626
0.646103 0.824901 0.684915
0.652431 0.823932 0.687747
0.661919 0.822717 0.693033
0.673340 0.821378 0.699875
0.686020 0.819711 0.707677
0.699231 0.817644 0.716131
0.712828 0.815311 0.725389
0.726430 0.812808 0.735614
0.739607 0.810308 0.746763
0.746476 0.810157 0.748649
0.749218 0.812462 0.738933
0.755548 0.814591 0.727273
0.766772 0.816516 0.713436
0.784441 0.818200 0.697304
0.686346 0.850582 0.740786
0.690104 0.850700 0.743077
0.693977 0.850696 0.745364
0.699140 0.850241 0.748173
0.711036 0.851246 0.757876
0.719727 0.850374 0.763265
0.729499 0.849359 0.769507
0.739923 0.848195 0.776377
0.750775 0.846902 0.783948
0.761924 0.845663 0.792343
0.773063 0.844537 0.801521
0.783684 0.843517 0.811127
0.788315 0.845626 0.811764
0.792844 0.849023 0.809102
0.800379 0.852844 0.807031
0.811599 0.857214 0.806837
0.025549 0.009473 0.082074
0.070250 0.004173 0.085817
0.119620 0.000000 0.089258
0.174496 0.000000 0.094275
0.262534 0.000000 0.111614
0.357056 0.000000 0.125199
0.448264 0.000000 0.133013
0.527915 0.000000 0.129919
0.600219 0.000000 0.124114
0.665653 0.000000 0.118153
0.724180 0.000000 0.112168
0.778480 0.000000 0.106408
0.829694 0.000000 0.099769
0.880393 0.000000 0.091868
0.928762 0.000000 0.078228
0.973377 0.000000 0.065858
0.015241 0.060253 0.096923
0.062272 0.046967 0.101150
0.124929 0.037788 0.104142
0.193330 0.024766 0.108768
0.280070 0.004884 0.118274
0.370315 0.000000 0.125400
0.453975 0.000000 0.124473
0.530430 0.000000 0.119474
0.600445 0.000000 0.114368
0.663855 0.000000 0.109761
0.720983 0.000000 0.104872
0.774687 0.000000 0.099312
0.826676 0.000000 0.093548
0.877255 0.000000 0.087266
0.925201 0.000000 0.080119
0.970664 0.000000 0.071074
0.000000 0.134592 0.108478
0.050581 0.125607 0.111079
0.118961 0.109283 0.114561
0.201275 0.091173 0.117854
0.289035 0.065764 0.122590
0.373284 0.037742 0.121900
0.452656 0.011070 0.118327
0.527412 0.002602 0.114836
0.596857 0.000000 0.111372
0.660469 0.000000 0.107757
0.718260 0.000000 0.103976
0.773319 0.000000 0.100123
0.826780 0.000000 0.096205
0.876861 0.000000 0.091316
0.924601 0.000000 0.085139
0.971090 0.000000 0.077632
0.000000 0.226061 0.115966
0.019337 0.217467 0.118502
0.107869 0.207350 0.121807
0.200333 0.191956 0.126689
0.284018 0.177023 0.125555
0.365587 0.160822 0.124915
0.443752 0.140534 0.124158
0.518731 0.110595 0.122300
0.588365 0.072452 0.120024
0.652347 0.032940 0.118133
0.712557 0.017026 0.117148
0.769178 0.007630 0.116071
0.821965 0.000515 0.114381
0.871728 0.000000 0.111531
0.919473 0.000000 0.107582
0.966145 0.000000 0.102708
0.000000 0.318933 0.126636
0.030154 0.309678 0.133726
0.135808 0.298631 0.143196
0.227876 0.282588 0.158297
0.278576 0.271185 0.159824
0.363125 0.258909 0.150839
0.438804 0.251983 0.156152
0.502756 0.254216 0.162029
0.563724 0.254634 0.167782
0.623777 0.244657 0.170459
0.682767 0.224633 0.170755
0.739431 0.198974 0.170209
0.793537 0.166096 0.168365
0.844561 0.126514 0.166381
0.893542 0.079562 0.164159
0.941017 0.043377 0.161752
0.011676 0.401819 0.161216
0.108656 0.393948 0.172065
0.194164 0.385319 0.184753
0.267824 0.373093 0.199902
0.326256 0.356878 0.218764
0.353353 0.353859 0.202844
0.433405 0.345997 0.184175
0.523206 0.319403 0.188346
0.583072 0.313700 0.195133
0.632187 0.316684 0.202585
0.678809 0.322483 0.212043
0.723350 0.331163 0.223632
0.766922 0.338662 0.235443
0.813866 0.332695 0.241533
0.861098 0.321257 0.245808
0.909291 0.303182 0.247302
0.123303 0.477852 0.211498
0.195830 0.471851 0.222494
0.256402 0.464878 0.235095
0.310460 0.454936 0.246697
0.364498 0.440805 0.264312
0.402621 0.428036 0.276992
0.420365 0.427019 0.248745
0.486987 0.425001 0.219780
0.576791 0.392716 0.220123
0.641723 0.368936 0.227351
0.686947 0.369815 0.236602
0.728816 0.376450 0.247978
0.766024 0.381595 0.257316
0.804387 0.393222 0.272196
0.841430 0.408364 0.290008
0.877677 0.426773 0.311203
0.223592 0.538556 0.263799
0.270648 0.534290 0.274378
0.314002 0.528860 0.285712
0.351760 0.521231 0.293745
0.396157 0.510401 0.307978
0.439908 0.497326 0.327567
0.460774 0.489919 0.326896
0.475526 0.488190 0.293825
