example_ofxGpuLutCube/bin/data/ofxGpuLutCube/LUT/C50 (dusty olive soft fade).cube
LUT_3D_SIZE 6
0.010773 0.011871 0.009094
0.144763 0.009405 0.011731
0.415570 0.000000 0.010413
0.653937 0.000000 0.009094
0.823371 0.000000 0.009961
0.971606 0.000000 0.021264
0.000000 0.222534 0.036835
0.146442 0.189113 0.043974
0.449877 0.118848 0.033282
0.639038 0.115005 0.052330
0.810394 0.066268 0.079635
0.961091 0.008627 0.089245
0.165308 0.487048 0.182678
0.313761 0.455050 0.223081
0.404652 0.441090 0.193414
0.663091 0.359814 0.145812
0.801517 0.341614 0.191629
0.903176 0.396051 0.261017
0.388806 0.645685 0.368042
0.452072 0.636644 0.393573
0.539145 0.614192 0.440261
0.570472 0.605972 0.374087
0.741201 0.582424 0.312146
0.890925 0.538254 0.370736
0.545538 0.762945 0.554461
0.572313 0.758401 0.566680
0.620630 0.748731 0.593346
0.669821 0.735729 0.625881
0.692562 0.738411 0.568040
0.812856 0.749298 0.525035
0.692607 0.852235 0.744950
0.703895 0.850419 0.750532
0.729312 0.847956 0.766873
0.760962 0.844156 0.789630
0.786494 0.845020 0.808014
0.810848 0.857007 0.804083
0.025549 0.009473 0.082074
0.174496 0.000000 0.094275
0.448264 0.000000 0.133013
0.665653 0.000000 0.118153
0.829694 0.000000 0.099769
0.973377 0.000000 0.065858
0.000000 0.226061 0.115966
0.200333 0.191956 0.126689
0.443752 0.140534 0.124158
0.652347 0.032940 0.118133
0.821965 0.000515 0.114381
0.966145 0.000000 0.102708
0.123303 0.477852 0.211498
0.310460 0.454936 0.246697
0.420365 0.427019 0.248745
0.641723 0.368936 0.227351
0.766024 0.381595 0.257316
0.877677 0.426773 0.311203
0.382114 0.638187 0.380915
0.443403 0.628418 0.399179
0.532496 0.607146 0.439907
0.570668 0.593486 0.396527
0.739397 0.569260 0.355657
0.874235 0.552731 0.406310
0.543242 0.759101 0.561289
0.562324 0.754296 0.564554
0.613917 0.746092 0.591730
0.671008 0.733358 0.631992
0.691649 0.733316 0.576714
0.812537 0.740621 0.537712
0.687525 0.851613 0.744573
0.699289 0.851241 0.750700
0.724449 0.848313 0.765234
0.757508 0.843958 0.787494
0.785493 0.843078 0.808263
0.809409 0.855311 0.802579
0.047040 0.000000 0.273010
0.229945 0.000000 0.277752
0.453535 0.000000 0.286583
0.681589 0.000000 0.289642
0.844203 0.000000 0.261266
0.980592 0.000000 0.199167
0.017188 0.211533 0.301633
0.223168 0.166515 0.304399
0.473486 0.075590 0.308841
0.684338 0.001865 0.297735
0.840581 0.000000 0.260529
0.983094 0.000000 0.206299
0.000000 0.481259 0.318709
0.223937 0.463490 0.326169
0.455942 0.425633 0.338602
0.627457 0.396471 0.334570
0.782643 0.351204 0.324775
0.928856 0.278845 0.307111
0.304650 0.644410 0.402032
0.402227 0.634311 0.422726
0.526832 0.615569 0.461533
0.591115 0.596009 0.458476
0.749558 0.566211 0.440696
0.857552 0.587695 0.479251
0.497927 0.767083 0.561436
0.543265 0.762571 0.579629
0.607756 0.754188 0.607072
0.673332 0.740788 0.645535
0.701272 0.736812 0.612019
0.825505 0.737923 0.586882
0.667387 0.857861 0.743562
0.689486 0.855451 0.755152
0.720205 0.853175 0.771478
0.757639 0.849080 0.794453
0.792488 0.846171 0.821719
0.813273 0.857136 0.814413
0.028980 0.000000 0.470825
0.220079 0.000000 0.471140
0.442239 0.000000 0.470468
0.667729 0.000000 0.475225
0.843587 0.000000 0.442649
0.985665 0.000000 0.396708
0.026191 0.160847 0.484876
0.219504 0.130181 0.484127
0.443694 0.038392 0.483447
0.676470 0.000000 0.489344
0.847193 0.000000 0.448621
0.993809 0.000000 0.401000
0.148483 0.454046 0.499688
0.304700 0.446859 0.498873
0.460070 0.403428 0.498203
0.648916 0.343732 0.500182
0.815015 0.251516 0.480436
0.974090 0.021407 0.416211
0.178084 0.643415 0.499550
0.300227 0.635279 0.505228
0.450176 0.619544 0.514879
0.604426 0.589006 0.523292
0.742743 0.564873 0.516918
0.887016 0.526102 0.502951
0.402286 0.773882 0.579215
0.456098 0.770109 0.589842
0.547162 0.762158 0.611846
0.656757 0.748174 0.651998
0.709177 0.735101 0.650711
0.844229 0.719627 0.641026
0.601645 0.866692 0.730728
0.626153 0.865023 0.739130
0.683624 0.860978 0.764944
0.748459 0.855513 0.799023
0.793652 0.850345 0.828363
0.817094 0.858159 0.827442
0.000000 0.000000 0.662188
0.138038 0.000000 0.661855
0.380317 0.000000 0.659082
0.610835 0.000000 0.656193
0.827375 0.000000 0.657733
0.970290 0.000000 0.593903
0.000000 0.097102 0.669352
0.152656 0.058710 0.667745
0.382243 0.002339 0.665192
0.614492 0.000000 0.662690
0.837273 0.000000 0.668192
0.979606 0.000000 0.602385
0.243238 0.438192 0.667909
0.302898 0.404413 0.667039
0.436705 0.355671 0.667991
0.620815 0.264777 0.666409
0.819992 0.097983 0.671263
0.979226 0.000000 0.612814
0.238659 0.636143 0.675568
0.333451 0.629522 0.675572
0.467324 0.615032 0.674944
0.596170 0.563765 0.671360
0.763182 0.504391 0.672332
0.928189 0.391177 0.650458
0.273866 0.777221 0.671279
0.341034 0.772931 0.674444
0.448883 0.764368 0.681232
0.577257 0.750853 0.691565
0.714300 0.725299 0.699979
0.849731 0.701898 0.693005
0.503766 0.875996 0.746504
0.537772 0.874260 0.753105
0.602991 0.871092 0.768247
0.689407 0.865993 0.792619
0.784659 0.858501 0.833209
0.823167 0.859737 0.846537
0.000000 0.000000 0.821724
0.000000 0.000000 0.821559
0.256807 0.000000 0.821223
0.515181 0.000000 0.819172
0.746935 0.000000 0.818126
0.955435 0.000000 0.819131
0.000000 0.000036 0.826593
0.000008 0.000000 0.826444
0.267059 0.000000 0.825282
0.519440 0.000000 0.822550
0.749821 0.000000 0.820985
0.959626 0.000000 0.821950
0.000247 0.290442 0.827110
0.063734 0.257255 0.827662
0.288354 0.170069 0.828263
0.506159 0.004398 0.828488
0.747873 0.000000 0.830129
0.971669 0.000000 0.832182
0.237609 0.613767 0.823726
0.315605 0.602153 0.822966
0.413664 0.557505 0.823958
0.534874 0.459455 0.828587
0.740031 0.295853 0.834808
0.971753 0.001330 0.847501
0.254630 0.795258 0.841609
0.325025 0.789569 0.841788
0.438201 0.777527 0.842395
0.574748 0.757123 0.843311
0.702307 0.693800 0.846142
0.894211 0.602492 0.853821
0.441768 0.893671 0.838834
0.477554 0.891963 0.841485
0.541805 0.888259 0.846521
0.630127 0.881991 0.855203
0.737733 0.874038 0.867843
0.837936 0.866267 0.880367
