example_ofxGpuLutCube/bin/data/ofxGpuLutCube/LUT/C6 (contrasty warm).cube
LUT_3D_SIZE 16
0.003325 0.000000 0.000000
0.019895 0.003325 0.000000
0.044445 0.006649 0.000000
0.080298 0.020749 0.001995
0.160359 0.033399 0.002660
0.293239 0.060184 0.006649
0.453500 0.097590 0.002660
0.587659 0.123692 0.003990
0.695801 0.139070 0.000000
0.775198 0.161115 0.002660
0.833777 0.170492 0.003325
0.873705 0.177141 0.000000
0.909643 0.186535 0.000000
0.942223 0.189195 0.000000
0.966056 0.193934 0.002660
0.989908 0.197259 0.000000
0.003325 0.033944 0.014049
0.011033 0.031894 0.008010
0.036380 0.034609 0.003990
0.079633 0.045257 0.000000
0.164898 0.058631 0.002660
0.296564 0.087393 0.006649
0.444771 0.121477 0.002128
0.564268 0.149571 0.002394
0.667465 0.169355 0.001064
0.748164 0.188338 0.000000
0.812414 0.197701 0.003325
0.856345 0.207760 0.000665
0.889201 0.214682 0.001330
0.928202 0.219786 0.000000
0.955551 0.221676 0.002128
0.983259 0.225126 0.003318
0.001330 0.073820 0.036110
0.013161 0.070223 0.029427
0.028367 0.072490 0.014713
0.063590 0.079037 0.005340
0.161024 0.091899 0.003724
0.296564 0.120620 0.010059
0.437457 0.151643 0.003724
0.544767 0.182001 0.006035
0.644858 0.198862 0.000532
0.720343 0.218926 0.000000
0.785647 0.226274 0.001330
0.826649 0.236964 0.001064
0.873567 0.240967 0.001330
0.911978 0.247002 0.001995
0.948284 0.252741 0.000000
0.976578 0.253041 0.000000
0.006649 0.124438 0.062843
0.014225 0.122443 0.060576
0.030928 0.123095 0.045590
0.049561 0.125120 0.022212
0.141605 0.144771 0.011239
0.293239 0.167879 0.006649
0.429035 0.193583 0.005319
0.528723 0.224871 0.003990
0.628252 0.244120 0.002128
0.700972 0.257497 0.000266
0.768274 0.266219 0.003325
0.808874 0.278631 0.001330
0.856163 0.280902 0.001330
0.902106 0.286917 0.001995
0.942965 0.290668 0.001596
0.977888 0.292902 0.004608
0.010059 0.193776 0.108296
0.019895 0.196435 0.100982
0.029997 0.193776 0.091189
0.041163 0.195372 0.063092
0.086144 0.209816 0.025403
0.267154 0.243917 0.012719
0.431439 0.266132 0.006970
0.523486 0.294768 0.001995
0.622268 0.308772 0.003990
0.695046 0.315486 0.000665
0.755555 0.326180 0.002660
0.799677 0.336303 0.003325
0.854141 0.338874 0.003990
0.898110 0.341309 0.001596
0.936578 0.344767 0.002660
0.973200 0.345525 0.003291
0.016708 0.283180 0.163843
0.026544 0.285840 0.157108
0.035050 0.279856 0.145719
0.045551 0.281186 0.118372
0.068771 0.288568 0.072902
0.186256 0.319921 0.023443
0.418072 0.354088 0.008047
0.538199 0.383515 0.001995
0.632940 0.396182 0.000000
0.711689 0.404877 0.000665
0.773679 0.410197 0.000000
0.814271 0.414271 0.000665
0.863508 0.413607 0.000000
0.905431 0.413607 0.001995
0.942699 0.416266 0.002660
0.979900 0.416898 0.000000
0.017373 0.373915 0.217309
0.033279 0.376043 0.216644
0.039705 0.373915 0.200335
0.047812 0.373516 0.178754
0.054590 0.378467 0.127033
0.117411 0.389958 0.055461
0.357987 0.435162 0.011239
0.549295 0.471429 0.003990
0.654364 0.483831 0.000266
0.733853 0.495083 0.000000
0.799048 0.497607 0.003325
0.844974 0.502159 0.000532
0.882893 0.508330 0.002394
0.921218 0.505644 0.000000
0.951227 0.506455 0.000000
0.977239 0.506973 0.000000
0.023443 0.458000 0.271440
0.033279 0.456670 0.267716
0.042296 0.459197 0.252737
0.052951 0.458798 0.230658
0.062095 0.457335 0.175180
0.091326 0.465314 0.094265
0.259041 0.504633 0.024073
0.538864 0.552098 0.008030
0.676269 0.570170 0.002527
0.756454 0.577225 0.001596
0.823138 0.580362 0.003325
0.865460 0.586346 0.000000
0.907117 0.590336 0.000798
0.942769 0.591001 0.001197
0.964062 0.593422 0.000000
0.989908 0.597036 0.005266
0.025437 0.529997 0.312222
0.041258 0.531593 0.312222
0.046439 0.527952 0.294051
0.058802 0.530543 0.274250
0.064782 0.529991 0.219297
0.080602 0.531361 0.138371
0.189692 0.561794 0.048802
0.455954 0.605559 0.014066
0.661832 0.637342 0.002128
0.775180 0.649393 0.000266
0.831782 0.657048 0.000000
0.885759 0.657314 0.003990
0.915679 0.663697 0.001330
0.948906 0.667022 0.002527
0.971727 0.673091 0.000000
0.989941 0.671761 0.000000
0.030092 0.597988 0.353020
0.040061 0.592004 0.346982
0.048035 0.593999 0.332988
0.059600 0.593999 0.312222
0.066244 0.597456 0.256096
0.079272 0.593999 0.172487
0.152221 0.611372 0.067532
0.366378 0.647857 0.016193
0.575867 0.686269 0.009882
0.751342 0.711771 0.001064
0.839847 0.721015 0.000000
0.885094 0.724340 0.007863
0.920633 0.727947 0.008422
0.946911 0.731074 0.005585
0.970131 0.737590 0.003325
0.989941 0.735064 0.000665
0.033416 0.653311 0.384459
0.039928 0.649987 0.381134
0.049764 0.649987 0.367751
0.062925 0.649987 0.342313
0.069436 0.653311 0.294184
0.075948 0.649987 0.197259
0.129225 0.659961 0.092287
0.286144 0.686728 0.021414
0.475866 0.719479 0.016742
0.672238 0.750901 0.003342
0.820479 0.783652 0.000000
0.884429 0.780993 0.003325
0.921697 0.781658 0.006649
0.953561 0.786977 0.006649
0.970131 0.790387 0.000000
0.993351 0.793711 0.000000
0.036741 0.701235 0.409163
0.046577 0.697894 0.407966
0.056413 0.696298 0.392455
0.066931 0.696298 0.369081
0.073562 0.695902 0.319034
0.079272 0.701900 0.228681
0.109704 0.702033 0.112320
0.219543 0.725991 0.033734
0.403772 0.754845 0.020210
0.579152 0.784712 0.012453
0.735506 0.815584 0.005984
0.851677 0.844977 0.008661
0.909643 0.846982 0.006250
0.949172 0.837230 0.004920
0.972791 0.838839 0.002793
0.990616 0.842294 0.003298
0.038105 0.739151 0.432589
0.048350 0.735827 0.427628
0.057777 0.737157 0.413886
0.067613 0.737157 0.390989
0.072767 0.737828 0.338723
0.080602 0.740515 0.256727
0.094445 0.739823 0.125710
0.174503 0.757203 0.044260
0.336796 0.787295 0.029560
0.503730 0.812320 0.019392
0.648623 0.828097 0.008013
0.756730 0.853865 0.006001
0.860848 0.885570 0.014049
0.927663 0.902943 0.008163
0.960471 0.900948 0.005053
0.985287 0.897624 0.000000
0.036741 0.771731 0.449962
0.049987 0.770401 0.446637
0.058459 0.770401 0.431924
0.070457 0.770401 0.411857
0.080160 0.769736 0.359032
0.081267 0.772396 0.268081
0.097796 0.769031 0.152444
0.151081 0.788439 0.064722
0.291309 0.816485 0.036110
0.448501 0.838199 0.022709
0.588422 0.855306 0.018703
0.687214 0.870695 0.010298
0.776472 0.887938 0.010673
0.858498 0.913328 0.012705
0.916225 0.930861 0.010973
0.962523 0.946193 0.006629
0.036741 0.801617 0.461351
0.047259 0.802299 0.458026
0.062084 0.803895 0.446238
0.069659 0.798957 0.420535
0.076099 0.802285 0.371075
0.082597 0.801617 0.280135
0.099818 0.801753 0.166451
0.138413 0.812341 0.073550
0.257211 0.839040 0.036775
0.410771 0.863148 0.030109
0.538281 0.879191 0.023443
0.633738 0.894569 0.017523
0.718420 0.905242 0.018730
0.787086 0.914203 0.009094
0.851639 0.935368 0.014710
0.909702 0.950628 0.013344
0.043475 0.826184 0.471359
0.053311 0.826150 0.471291
0.065122 0.828125 0.457992
0.072997 0.826150 0.432576
0.080818 0.826815 0.385091
0.085921 0.829442 0.297442
0.103822 0.826815 0.181131
0.122383 0.838150 0.085520
0.225208 0.862905 0.045436
0.370117 0.882931 0.036060
0.502886 0.899717 0.030059
0.595017 0.911736 0.022045
0.677060 0.925768 0.019402
0.743110 0.931803 0.015378
0.799057 0.942476 0.013410
0.849642 0.953200 0.013350
0.000665 0.000665 0.032546
0.021092 0.002660 0.035273
0.049764 0.001729 0.022265
0.085941 0.001995 0.011848
0.161826 0.013367 0.012496
0.290580 0.039469 0.013161
0.450029 0.065779 0.017338
0.582074 0.085338 0.010235
0.689233 0.107897 0.013028
0.767399 0.121680 0.009836
0.825798 0.131739 0.013161
0.870513 0.139721 0.010634
0.906973 0.150442 0.011166
0.936852 0.158438 0.011432
0.960604 0.164623 0.009836
0.985951 0.169162 0.010494
0.000000 0.035140 0.036337
0.017713 0.037933 0.036498
0.046082 0.036656 0.038126
0.085755 0.042330 0.032188
0.170977 0.056995 0.034060
0.303213 0.083390 0.033811
0.465170 0.109008 0.022883
0.608627 0.133475 0.013826
0.714937 0.151385 0.011352
0.796959 0.168128 0.012070
0.852698 0.179782 0.013161
0.900605 0.186603 0.010634
0.931487 0.197116 0.010953
0.965348 0.198646 0.009836
0.986733 0.205991 0.013267
1.000000 0.213219 0.021081
0.002926 0.072092 0.053577
0.020023 0.071560 0.058153
0.048301 0.074778 0.058136
0.076441 0.078319 0.044736
0.167238 0.094559 0.036935
0.296963 0.122615 0.042594
0.462959 0.151856 0.025948
0.594914 0.174413 0.013969
0.702457 0.195008 0.012028
0.780933 0.213023 0.012129
0.844245 0.220655 0.012513
0.884511 0.230192 0.010770
0.922123 0.238358 0.014360
0.960783 0.241103 0.011145
0.985988 0.244259 0.012061
1.000000 0.249946 0.021488
0.003325 0.120813 0.092497
0.024496 0.122895 0.094776
0.048408 0.124868 0.087264
0.069829 0.133293 0.069334
0.148393 0.146287 0.045875
0.297894 0.171238 0.042605
0.450354 0.197707 0.030721
0.570133 0.223382 0.014315
0.676127 0.242255 0.013298
0.756001 0.259352 0.012185
0.821103 0.266884 0.013178
0.859435 0.279347 0.011834
0.901876 0.281540 0.012662
0.947177 0.284284 0.012762
0.978569 0.288592 0.014720
0.999582 0.293314 0.019577
0.007062 0.197421 0.135523
0.028172 0.195914 0.139005
0.047849 0.199965 0.132530
0.068069 0.202004 0.112494
0.105263 0.213208 0.074298
0.274216 0.240044 0.050638
0.442218 0.266040 0.034019
0.552096 0.291938 0.016802
0.655737 0.303797 0.011899
0.738944 0.317069 0.015691
0.799048 0.324321 0.011302
0.849018 0.332182 0.011834
0.890994 0.339122 0.012775
0.937714 0.340218 0.013389
0.970118 0.343091 0.012137
0.997871 0.346758 0.015698
0.013384 0.283180 0.194376
0.033811 0.281053 0.192914
0.056014 0.286505 0.184999
0.073649 0.286778 0.165631
0.093608 0.290447 0.116820
0.197576 0.322649 0.066644
0.430740 0.354088 0.034977
0.556104 0.379450 0.015964
0.658354 0.394818 0.014774
0.741181 0.401021 0.013563
0.803770 0.406207 0.013826
0.852346 0.407537 0.014494
0.892669 0.412625 0.013178
0.939522 0.414930 0.015305
0.967935 0.414271 0.015837
0.997334 0.416931 0.024523
0.019368 0.374051 0.251184
0.039369 0.371923 0.251291
0.061481 0.379517 0.243986
0.078569 0.378985 0.220481
0.085589 0.381798 0.169423
0.143459 0.397357 0.104783
0.371863 0.440094 0.048729
0.568530 0.477833 0.026022
0.673245 0.486645 0.017306
0.753769 0.492926 0.013949
0.821676 0.497607 0.018630
0.866896 0.503448 0.019126
0.907250 0.504486 0.022830
0.943906 0.501587 0.025763
0.970118 0.504709 0.028450
0.991849 0.502833 0.030406
0.025437 0.461591 0.306021
0.042295 0.456079 0.302105
0.063972 0.461989 0.294670
0.082044 0.463984 0.277137
0.093906 0.461458 0.221375
0.120347 0.468240 0.139955
0.268037 0.509134 0.062890
0.542458 0.555217 0.037274
0.685776 0.569073 0.025706
0.768864 0.577689 0.025551
0.838251 0.583022 0.032972
0.879562 0.587064 0.033698
0.915402 0.591570 0.034557
0.948427 0.591187 0.035273
0.973243 0.594873 0.034728
0.993364 0.593715 0.032171
0.027698 0.526888 0.344808
0.049660 0.534234 0.350622
0.069371 0.537186 0.340493
0.085395 0.537372 0.320216
0.093750 0.537878 0.267305
0.102647 0.536016 0.180072
0.201010 0.559693 0.085346
0.459066 0.604247 0.048390
0.666906 0.636575 0.041307
0.776843 0.648921 0.035917
0.840511 0.655179 0.038608
0.889813 0.658830 0.044865
0.919995 0.665027 0.044227
0.950396 0.669177 0.043402
0.971727 0.670644 0.039348
0.992946 0.673357 0.041530
0.032751 0.596126 0.383718
0.050534 0.597004 0.387255
0.073542 0.600542 0.378637
0.090038 0.599371 0.359665
0.100208 0.600920 0.304259
0.112157 0.600252 0.219265
0.173392 0.613742 0.113727
0.369496 0.647963 0.060356
0.585172 0.685790 0.051017
0.760787 0.711106 0.042110
0.838384 0.721547 0.041926
0.890451 0.721042 0.050209
0.921032 0.727299 0.048882
0.950103 0.730249 0.047480
0.970891 0.735250 0.042472
0.993464 0.737722 0.043124
0.033416 0.649987 0.417005
0.057168 0.651184 0.418880
0.076531 0.653311 0.411542
0.096341 0.656636 0.391635
0.106992 0.653976 0.341576
0.110029 0.656636 0.249837
0.145002 0.664100 0.133149
0.282421 0.689122 0.059050
0.487330 0.721873 0.057448
0.680633 0.751566 0.042485
0.823138 0.780328 0.044599
0.887620 0.780993 0.053311
0.922096 0.783253 0.048855
0.949704 0.786312 0.045264
0.973456 0.790387 0.041803
0.993330 0.796345 0.042578
0.038102 0.698576 0.446844
0.056636 0.698030 0.445324
0.076877 0.704560 0.438802
0.094576 0.702645 0.416012
0.104226 0.704270 0.366470
0.113490 0.702033 0.274743
0.126332 0.705824 0.153129
0.218258 0.729325 0.071146
0.403641 0.756802 0.063727
0.584642 0.784272 0.055323
0.741296 0.811557 0.042472
0.856680 0.842956 0.048686
0.911159 0.845625 0.048682
0.946911 0.837762 0.045264
0.965142 0.840409 0.044706
0.992783 0.839634 0.042578
0.036741 0.738088 0.466758
0.057168 0.739151 0.465880
0.079031 0.742233 0.456752
0.098274 0.743016 0.437490
0.104332 0.743576 0.387631
0.112041 0.742510 0.297596
0.122893 0.744239 0.178507
0.189313 0.759857 0.094965
0.343738 0.790633 0.072995
0.510642 0.812852 0.062734
0.650618 0.831422 0.049281
0.769623 0.860373 0.050061
0.865114 0.886619 0.052066
0.928168 0.902251 0.048204
0.959673 0.897570 0.046541
0.982373 0.894261 0.043948
0.041065 0.770667 0.483479
0.061184 0.771279 0.484948
0.078393 0.775877 0.475739
0.099910 0.777085 0.457644
0.108242 0.776047 0.403754
0.112839 0.775489 0.313080
0.129071 0.775542 0.199246
0.170340 0.790304 0.113203
0.298136 0.815921 0.076749
0.453662 0.838412 0.064657
0.586826 0.855306 0.056503
0.690200 0.871627 0.049533
0.782853 0.888468 0.049257
0.861719 0.913874 0.048712
0.919426 0.933980 0.050217
0.972664 0.946558 0.050571
0.042279 0.803758 0.497351
0.062887 0.801764 0.498016
0.083765 0.805836 0.489145
0.100221 0.805624 0.468647
0.105981 0.806956 0.411009
0.117360 0.805757 0.329389
0.126438 0.808815 0.216866
0.158502 0.818130 0.121847
0.258487 0.840205 0.079985
0.410850 0.865382 0.068626
0.541605 0.879191 0.061972
0.638273 0.894543 0.058847
0.723125 0.903460 0.057973
0.796071 0.916863 0.054854
0.855872 0.934287 0.056397
0.916338 0.953894 0.057234
0.043449 0.826150 0.509241
0.063420 0.828943 0.509269
0.082259 0.832800 0.502180
0.099456 0.832800 0.480894
0.110922 0.833991 0.426485
0.117367 0.835459 0.342766
0.129599 0.836124 0.230457
0.144029 0.843111 0.136819
0.226773 0.862375 0.084817
0.376480 0.886340 0.071905
0.503585 0.901040 0.068690
0.595557 0.914915 0.059988
0.680367 0.927487 0.063292
0.749079 0.935523 0.060751
0.802290 0.941811 0.058762
0.858982 0.956465 0.055232
0.001330 0.005319 0.078475
0.015565 0.001729 0.082515
0.055615 0.002527 0.086539
0.105602 0.005319 0.068501
0.170643 0.006956 0.030079
0.298559 0.015378 0.026321
0.448938 0.026750 0.024991
0.579414 0.036905 0.021667
0.682697 0.054165 0.020204
0.759154 0.072469 0.020337
0.820479 0.083592 0.019672
0.862002 0.092246 0.020337
0.900270 0.108845 0.020204
0.932996 0.119801 0.019672
0.959141 0.128131 0.021268
0.983245 0.138338 0.021647
0.000000 0.035938 0.076214
0.013161 0.037933 0.083607
0.045103 0.038093 0.086273
0.099208 0.039928 0.080793
0.172626 0.042867 0.051432
0.302149 0.050625 0.041052
0.467393 0.073482 0.032973
0.606266 0.083572 0.021538
0.713344 0.102754 0.023562
0.791826 0.119250 0.020956
0.853230 0.129521 0.021667
0.894447 0.140019 0.021616
0.929288 0.152225 0.021561
0.963886 0.162273 0.021667
0.984304 0.168848 0.023449
1.000000 0.181638 0.031027
0.000000 0.075017 0.080637
0.012070 0.079281 0.087337
0.040045 0.081239 0.089884
0.085801 0.080467 0.090142
0.170620 0.090758 0.080586
0.297894 0.114602 0.073820
0.463837 0.139430 0.065577
0.606526 0.160125 0.053753
0.717384 0.177590 0.050615
0.799503 0.190669 0.043657
0.862969 0.201133 0.043493
0.906977 0.209968 0.040152
0.941038 0.218048 0.042738
0.974221 0.224139 0.043000
0.990004 0.232156 0.050801
1.000000 0.241626 0.062469
0.000532 0.122955 0.099111
0.017986 0.125240 0.106725
0.043733 0.128460 0.110733
0.085222 0.133984 0.111656
0.155441 0.146899 0.098709
0.297761 0.173263 0.090426
0.456588 0.198466 0.078929
0.593868 0.224206 0.062616
0.701700 0.243370 0.056447
0.784103 0.257197 0.050941
0.846530 0.266219 0.052424
0.892898 0.274202 0.051260
0.927955 0.281683 0.052424
0.963673 0.285268 0.052184
0.987212 0.287927 0.057538
1.000000 0.297609 0.071022
0.004654 0.191116 0.158725
0.025135 0.193590 0.164062
0.049870 0.198141 0.161893
0.088492 0.204234 0.157369
0.140001 0.219462 0.124847
0.280538 0.240576 0.100189
0.447589 0.264745 0.085112
0.571530 0.287801 0.059307
0.681664 0.306378 0.053788
0.768065 0.319469 0.050627
0.829123 0.327527 0.051394
0.875885 0.333917 0.051652
0.913777 0.341763 0.053123
0.952922 0.343703 0.057511
0.983877 0.349607 0.063004
0.999997 0.353969 0.070216
0.006649 0.276531 0.221586
0.029869 0.278526 0.223314
0.053089 0.284510 0.218926
0.093016 0.291910 0.214220
0.128280 0.297628 0.174121
0.210977 0.319290 0.118626
0.433427 0.353116 0.087852
0.568956 0.379471 0.064211
0.674540 0.391494 0.057777
0.758356 0.399251 0.055782
0.821809 0.401553 0.057777
0.869715 0.408601 0.060437
0.907649 0.412359 0.063117
0.945582 0.415601 0.067158
0.977445 0.418527 0.070097
0.998650 0.424877 0.073800
0.014979 0.368861 0.286042
0.035885 0.371842 0.285696
0.059127 0.375927 0.279239
0.098141 0.382377 0.270477
0.124728 0.388364 0.233605
0.174096 0.401214 0.153389
0.379493 0.443290 0.103414
0.570738 0.474113 0.078047
0.678877 0.484124 0.066778
0.766096 0.491835 0.067996
0.828857 0.491622 0.071161
0.875417 0.498122 0.074007
0.912675 0.501108 0.077315
0.948188 0.498654 0.079539
0.974227 0.500866 0.081283
0.997336 0.506288 0.083609
0.019235 0.453260 0.338325
0.042348 0.458037 0.341164
0.065621 0.462521 0.337708
0.101267 0.466325 0.323876
0.128153 0.471050 0.281140
0.152123 0.471353 0.193935
0.282928 0.510275 0.117864
0.548530 0.551414 0.086198
0.687372 0.567199 0.080250
0.772378 0.576161 0.079832
0.840511 0.580362 0.085209
0.885519 0.584351 0.086965
0.919170 0.585814 0.089066
0.952550 0.588687 0.088720
0.973296 0.591591 0.085635
0.994162 0.596511 0.085209
0.022897 0.527154 0.381937
0.044662 0.531303 0.386472
0.069983 0.537133 0.381139
0.106134 0.541024 0.369359
0.132832 0.544553 0.324422
0.144809 0.543497 0.240422
0.221372 0.564501 0.141890
0.465557 0.601678 0.095920
0.669074 0.633717 0.089438
0.781474 0.647601 0.091326
0.846363 0.652339 0.093086
0.892452 0.653706 0.101252
0.923027 0.662713 0.099125
0.952231 0.665692 0.093884
0.975025 0.671070 0.092104
0.995483 0.673756 0.091756
0.027831 0.592403 0.422851
0.048077 0.595993 0.425112
0.071792 0.599724 0.418278
0.108129 0.603001 0.406777
0.132944 0.608366 0.361739
0.143718 0.608579 0.274404
0.199265 0.619581 0.168902
0.364107 0.649583 0.105930
0.588292 0.686960 0.101459
0.762891 0.707268 0.089349
0.845565 0.717690 0.098593
0.895339 0.721042 0.102609
0.924809 0.726081 0.100987
0.953162 0.731616 0.097686
0.973775 0.734718 0.093516
0.995592 0.739697 0.094295
0.035411 0.650618 0.455586
0.050386 0.651982 0.457314
0.073142 0.655439 0.450798
0.111054 0.659961 0.439576
0.142021 0.661689 0.396367
0.150129 0.661955 0.309866
0.173624 0.671881 0.192435
0.286277 0.691781 0.113405
0.488401 0.724035 0.104857
0.689611 0.753567 0.094801
0.828458 0.777003 0.093188
0.888691 0.778599 0.101252
0.925022 0.784184 0.103247
0.955555 0.784184 0.095234
0.973456 0.790387 0.095234
0.993351 0.793711 0.098593
0.036086 0.697894 0.482752
0.052647 0.698248 0.484700
0.076238 0.701661 0.476328
0.113868 0.707410 0.465231
0.138245 0.711971 0.421484
0.150527 0.709283 0.333923
0.161783 0.710347 0.216007
0.237512 0.731908 0.139476
0.411343 0.762495 0.114841
0.587494 0.783892 0.105121
0.751549 0.811544 0.091193
0.866923 0.842099 0.101256
0.915956 0.840439 0.098173
0.950502 0.836193 0.097119
0.973137 0.838976 0.094569
0.989941 0.841901 0.095633
0.037559 0.736625 0.506529
0.056636 0.738513 0.503862
0.079856 0.741833 0.500205
0.116938 0.746326 0.484840
0.141862 0.752136 0.440614
0.150660 0.749210 0.356503
0.162532 0.753439 0.239331
0.209486 0.762377 0.156486
0.342177 0.790640 0.121393
0.510523 0.816017 0.111008
0.660789 0.830624 0.100721
0.774515 0.858967 0.097768
0.874752 0.882757 0.100256
0.932057 0.899938 0.096599
0.966615 0.891339 0.095398
0.987793 0.889582 0.094694
0.040802 0.771199 0.524478
0.058232 0.772210 0.521634
0.079537 0.774891 0.517917
0.118534 0.778680 0.503417
0.144418 0.784372 0.459077
0.150660 0.785084 0.373906
0.167762 0.785387 0.257717
0.193617 0.794366 0.174557
0.298529 0.820026 0.130489
0.454889 0.839263 0.113774
0.596354 0.856503 0.108035
0.697076 0.875197 0.102033
0.794244 0.891005 0.103652
0.867329 0.916267 0.101239
0.931181 0.932171 0.102979
0.972527 0.949512 0.100554
0.040417 0.800962 0.536767
0.059748 0.801549 0.535137
0.081718 0.805624 0.530487
0.119544 0.810718 0.518642
0.144566 0.815143 0.472983
0.153453 0.813678 0.385776
0.165141 0.815408 0.274849
0.185971 0.824620 0.187520
0.265342 0.843180 0.139357
0.413563 0.863945 0.122898
0.543361 0.882515 0.111676
0.646224 0.895793 0.113218
0.733133 0.907022 0.108157
0.800060 0.918244 0.102183
0.865548 0.936352 0.102449
0.922396 0.957348 0.101864
0.040151 0.828125 0.548521
0.061672 0.829448 0.547823
0.085050 0.833984 0.543935
0.119923 0.838162 0.528483
0.144951 0.839946 0.490080
0.154158 0.840863 0.396088
0.169616 0.844708 0.288538
0.186371 0.848856 0.211403
0.251737 0.866762 0.157737
0.376744 0.888609 0.126606
0.506244 0.903062 0.113937
0.603982 0.918700 0.118220
0.689905 0.926552 0.112840
0.757102 0.935134 0.105229
0.808843 0.942623 0.104311
0.863012 0.954530 0.107197
0.000000 0.008013 0.139151
0.012097 0.000266 0.146783
0.047104 0.001330 0.151171
0.106799 0.005749 0.146384
0.192589 0.008845 0.101173
0.303213 0.010059 0.040198
0.458431 0.008552 0.032168
0.585531 0.010438 0.030705
0.685643 0.013230 0.029508
0.760617 0.018437 0.029774
0.820479 0.020033 0.031503
0.859581 0.026368 0.030040
0.896925 0.042810 0.030040
0.931400 0.061513 0.031503
0.959141 0.074208 0.031902
0.981290 0.086228 0.030825
0.001064 0.042056 0.140659
0.013639 0.038731 0.147953
0.040250 0.037109 0.151942
0.089821 0.036108 0.149176
0.186559 0.041989 0.118688
0.303929 0.043263 0.062270
0.467805 0.034779 0.044832
0.606286 0.031629 0.034193
0.711931 0.032868 0.033112
0.789144 0.045191 0.031823
0.853230 0.059569 0.033498
0.892031 0.068475 0.032701
0.927160 0.086205 0.031157
0.960545 0.100343 0.030891
0.982085 0.112291 0.034780
0.999981 0.130522 0.042180
0.000000 0.079170 0.135261
0.013400 0.081722 0.144522
0.037710 0.081545 0.147049
0.081476 0.083552 0.145897
0.177745 0.087200 0.134080
0.301085 0.087337 0.097957
0.464369 0.091028 0.078559
0.608289 0.094266 0.068203
0.719432 0.108766 0.060872
0.804132 0.125335 0.054137
0.864564 0.131061 0.051570
0.910744 0.141317 0.052128
0.943092 0.153712 0.054082
0.974988 0.161890 0.053565
0.990164 0.179823 0.062343
1.000000 0.195349 0.075517
0.000000 0.131670 0.139833
0.014517 0.136032 0.147554
0.038256 0.138270 0.150793
0.078915 0.142168 0.154668
0.165935 0.147171 0.157211
0.296431 0.163890 0.136359
0.462028 0.184349 0.124693
0.604521 0.201680 0.113499
0.718998 0.219660 0.112495
0.801094 0.231302 0.105479
0.860432 0.238105 0.101347
0.904772 0.249730 0.101293
0.938086 0.258308 0.099930
0.973241 0.264971 0.099870
0.989206 0.273647 0.106400
1.000000 0.288110 0.121628
0.001064 0.196169 0.167364
0.013826 0.204445 0.173426
0.040160 0.202750 0.180775
0.085003 0.206601 0.186896
0.163754 0.217600 0.187896
0.278376 0.242581 0.163890
0.454247 0.267689 0.152496
0.586230 0.293748 0.131145
0.698321 0.308623 0.126052
0.781875 0.320809 0.124019
0.846097 0.330851 0.128734
0.891475 0.339026 0.124446
0.928500 0.345325 0.125110
0.963779 0.349315 0.124312
0.988435 0.353825 0.128415
1.000000 0.362786 0.139006
0.002660 0.274485 0.237440
0.021225 0.280920 0.243475
0.048980 0.281851 0.248662
0.090070 0.289748 0.247465
0.150982 0.303213 0.234797
0.237761 0.323331 0.189992
0.437068 0.354214 0.155621
0.575523 0.372924 0.136887
0.683501 0.388169 0.132601
0.770366 0.399258 0.133133
0.835823 0.405542 0.135128
0.881370 0.414271 0.133798
0.919835 0.420256 0.136478
0.954226 0.422251 0.137153
0.982151 0.424644 0.137522
1.000000 0.430926 0.143192
0.006001 0.362004 0.317384
0.025853 0.367372 0.316873
0.054904 0.371228 0.316708
0.096791 0.380863 0.315501
0.158594 0.392926 0.296509
0.219812 0.407474 0.230740
0.389810 0.438541 0.167525
0.579199 0.471409 0.148900
0.688329 0.480876 0.144651
0.774200 0.486852 0.142101
0.838916 0.487964 0.143857
0.885307 0.492819 0.148325
0.918106 0.498115 0.150670
0.950077 0.498564 0.151018
0.974679 0.502650 0.149389
0.999309 0.506305 0.152083
0.013384 0.446611 0.375433
0.030485 0.449563 0.376936
0.060298 0.452718 0.378167
0.101451 0.464391 0.373111
0.162823 0.477847 0.351303
0.194552 0.482022 0.271538
0.309296 0.510492 0.190620
0.556352 0.550369 0.157667
