example_ofxGpuLutCube/bin/data/ofxGpuLutCube/LUT/C6 (contrasty warm).cube
LUT_3D_SIZE 6
0.003325 0.000000 0.000000
0.080298 0.020749 0.001995
0.453500 0.097590 0.002660
0.775198 0.161115 0.002660
0.909643 0.186535 0.000000
0.989908 0.197259 0.000000
0.006649 0.124438 0.062843
0.049561 0.125120 0.022212
0.429035 0.193583 0.005319
0.700972 0.257497 0.000266
0.856163 0.280902 0.001330
0.977888 0.292902 0.004608
0.017373 0.373915 0.217309
0.047812 0.373516 0.178754
0.357987 0.435162 0.011239
0.733853 0.495083 0.000000
0.882893 0.508330 0.002394
0.977239 0.506973 0.000000
0.030092 0.597988 0.353020
0.059600 0.593999 0.312222
0.152221 0.611372 0.067532
0.751342 0.711771 0.001064
0.920633 0.727947 0.008422
0.989941 0.735064 0.000665
0.038105 0.739151 0.432589
0.067613 0.737157 0.390989
0.094445 0.739823 0.125710
0.503730 0.812320 0.019392
0.860848 0.885570 0.014049
0.985287 0.897624 0.000000
0.043475 0.826184 0.471359
0.072997 0.826150 0.432576
0.103822 0.826815 0.181131
0.370117 0.882931 0.036060
0.677060 0.925768 0.019402
0.849642 0.953200 0.013350
0.000000 0.008013 0.139151
0.106799 0.005749 0.146384
0.458431 0.008552 0.032168
0.760617 0.018437 0.029774
0.896925 0.042810 0.030040
0.981290 0.086228 0.030825
0.000000 0.131670 0.139833
0.078915 0.142168 0.154668
0.462028 0.184349 0.124693
0.801094 0.231302 0.105479
0.938086 0.258308 0.099930
1.000000 0.288110 0.121628
0.006001 0.362004 0.317384
0.096791 0.380863 0.315501
0.389810 0.438541 0.167525
0.774200 0.486852 0.142101
0.918106 0.498115 0.150670
0.999309 0.506305 0.152083
0.020306 0.583275 0.464750
0.109303 0.603052 0.457388
0.231302 0.623692 0.243681
0.763995 0.704769 0.159501
0.928107 0.725840 0.172384
0.993351 0.739290 0.165220
0.028629 0.730456 0.546855
0.121778 0.744509 0.540982
0.218782 0.761618 0.322994
0.518384 0.816157 0.178328
0.886333 0.886441 0.171903
0.990467 0.884893 0.161883
0.038733 0.824122 0.594417
0.125110 0.836144 0.582957
0.228694 0.852506 0.372485
0.382663 0.890718 0.195594
0.697777 0.930298 0.181243
0.873748 0.957841 0.169841
0.002660 0.022761 0.395346
0.074573 0.003990 0.403618
0.494262 0.018703 0.229225
0.811938 0.007597 0.072284
0.958438 0.005746 0.061410
1.000000 0.038088 0.087778
0.000000 0.150506 0.373516
0.065875 0.145612 0.406683
0.492338 0.155708 0.296159
0.816344 0.140896 0.167490
0.951416 0.138322 0.156843
1.000000 0.162553 0.179373
0.000000 0.381659 0.358669
0.063536 0.408894 0.387559
0.451173 0.447099 0.442797
0.788677 0.485144 0.408907
0.933342 0.508721 0.404912
1.000000 0.520103 0.408530
0.000000 0.589460 0.481597
0.070827 0.610100 0.514550
0.432878 0.658996 0.564378
0.779852 0.710175 0.446418
0.929809 0.723888 0.453603
0.996122 0.739160 0.444685
0.000000 0.727364 0.608590
0.086440 0.737635 0.635829
0.438853 0.803331 0.647075
0.579240 0.827379 0.460315
0.910441 0.877783 0.448553
0.989945 0.885543 0.443066
0.003325 0.812739 0.673435
0.090087 0.823440 0.700577
0.443329 0.896281 0.690947
0.513332 0.910486 0.502813
0.747005 0.940901 0.459495
0.926441 0.969829 0.457400
0.000665 0.033416 0.608712
0.057605 0.003990 0.618471
0.664508 0.029427 0.612323
0.826652 0.021380 0.260227
0.968497 0.028762 0.167401
1.000000 0.076200 0.190145
0.001729 0.164555 0.583282
0.056103 0.150613 0.632870
0.613269 0.157906 0.658748
0.817831 0.161124 0.316087
0.967300 0.162932 0.235748
0.999605 0.204932 0.265285
0.000000 0.416858 0.582743
0.051239 0.435037 0.623074
0.457070 0.449022 0.676277
0.797358 0.446581 0.493834
0.938831 0.444894 0.470453
1.000000 0.456808 0.485648
0.000000 0.606172 0.543860
0.048097 0.651486 0.585416
0.432855 0.683994 0.656393
0.775320 0.711130 0.673819
0.921245 0.731678 0.674021
0.997731 0.741315 0.667683
0.000000 0.735152 0.554796
0.046190 0.782447 0.601090
0.446012 0.815869 0.742013
0.701529 0.847864 0.714523
0.912489 0.876652 0.687625
0.992253 0.884243 0.687991
0.000000 0.816783 0.614707
0.053559 0.864603 0.666807
0.453222 0.900871 0.809447
0.703510 0.939097 0.761746
0.807138 0.950806 0.695192
0.962577 0.979839 0.700216
0.000000 0.040151 0.757854
0.047430 0.003325 0.768578
0.714489 0.021397 0.834098
0.876800 0.033682 0.487495
0.968497 0.028097 0.364087
1.000000 0.078208 0.356043
0.001995 0.173263 0.735029
0.044700 0.150320 0.782197
0.629005 0.152352 0.885058
0.875464 0.174215 0.569972
0.960453 0.167879 0.426909
1.000000 0.210005 0.421457
0.000000 0.425547 0.721512
0.043739 0.437141 0.774031
0.430961 0.446601 0.836512
0.853581 0.466132 0.734923
0.944762 0.456037 0.589269
0.999997 0.482840 0.577977
0.000000 0.647182 0.718812
0.040511 0.689328 0.771238
0.429995 0.702295 0.818737
0.803889 0.710225 0.839211
0.920474 0.708802 0.745896
0.998404 0.710956 0.740198
0.000000 0.741146 0.671787
0.039618 0.796029 0.717130
0.426325 0.838487 0.785001
0.769819 0.863675 0.854884
0.911957 0.874445 0.850803
0.991143 0.886215 0.849440
0.000000 0.830792 0.665618
0.038868 0.888295 0.704405
0.428716 0.926416 0.801447
0.774110 0.945140 0.905640
0.863417 0.958387 0.870053
0.981283 0.982540 0.858776
0.000033 0.043442 0.852883
0.038203 0.002008 0.863550
0.740249 0.025360 0.992498
0.940319 0.060815 0.678291
0.970459 0.052066 0.507161
1.000000 0.076892 0.475041
0.001317 0.177918 0.827446
0.043702 0.149841 0.886853
0.608236 0.138785 0.995972
0.940582 0.198640 0.761086
0.970439 0.184546 0.578034
1.000000 0.209939 0.544551
0.000000 0.428134 0.812128
0.039135 0.439401 0.873555
0.416910 0.444267 0.928530
0.920037 0.470468 0.929008
0.962144 0.463913 0.744445
0.999993 0.474901 0.691712
0.000000 0.654182 0.816058
0.040165 0.688293 0.873548
0.430315 0.701755 0.917360
0.797224 0.702319 0.963303
0.945903 0.715676 0.879799
1.000000 0.717684 0.828132
0.000000 0.783259 0.801365
0.034868 0.840083 0.857675
0.423475 0.863509 0.919005
0.767798 0.867575 0.948475
0.930328 0.873434 0.955760
0.989961 0.874857 0.910968
0.000000 0.829508 0.755941
0.038136 0.888315 0.804722
0.423372 0.931747 0.874932
0.762472 0.960498 0.927144
0.911625 0.967880 0.967867
0.983325 0.983158 0.963191
