example_ofxGpuLutCube/bin/data/ofxGpuLutCube/LUT/C7 (clear warm).cube
LUT_3D_SIZE 6
0.025148 0.024397 0.024411
0.160204 0.063106 0.052527
0.452855 0.137489 0.118209
0.585292 0.172793 0.147979
0.654499 0.197745 0.164302
0.705339 0.212963 0.177988
0.053054 0.126175 0.081871
0.218719 0.128008 0.052098
0.476250 0.210781 0.114462
0.605487 0.247635 0.142700
0.670035 0.273434 0.161355
0.721509 0.289118 0.171476
0.132993 0.392982 0.227396
0.239125 0.409466 0.187234
0.573160 0.384852 0.086023
0.687793 0.393800 0.118860
0.743158 0.413896 0.135296
0.781416 0.432371 0.148093
0.183261 0.535850 0.322487
0.238724 0.536901 0.274305
0.665386 0.594755 0.118376
0.718492 0.522922 0.109954
0.771828 0.523168 0.119509
0.818802 0.529175 0.133558
0.211752 0.607815 0.367868
0.254807 0.610910 0.323448
0.650839 0.679001 0.170465
0.786841 0.662262 0.113649
0.785440 0.604128 0.118070
0.822977 0.600667 0.125720
0.235311 0.657002 0.394328
0.274749 0.664854 0.349492
0.636857 0.733250 0.210030
0.820319 0.748012 0.127344
0.836464 0.703493 0.124183
0.830035 0.652381 0.121763
0.044538 0.050148 0.087579
0.183285 0.077351 0.106376
0.458269 0.138948 0.167164
0.591894 0.167664 0.193707
0.660914 0.184154 0.206814
0.710851 0.199362 0.224235
0.040670 0.149866 0.115743
0.195784 0.151862 0.119081
0.473749 0.232586 0.181970
0.609432 0.267567 0.215348
0.677530 0.291075 0.232084
0.729614 0.309375 0.249096
0.134697 0.394786 0.264335
0.248736 0.418939 0.259926
0.566570 0.407957 0.162241
0.682149 0.420050 0.192091
0.742981 0.447699 0.213717
0.783551 0.462484 0.225210
0.182018 0.538699 0.350924
0.273314 0.558894 0.340729
0.639385 0.604544 0.202586
0.714685 0.545220 0.182112
0.770726 0.544824 0.194310
0.819633 0.548941 0.206717
0.208376 0.612175 0.391994
0.305664 0.627887 0.390490
0.626263 0.688301 0.256893
0.786298 0.680368 0.190374
0.784099 0.622943 0.193319
0.824864 0.623081 0.205419
0.230789 0.661983 0.428627
0.321686 0.678849 0.416566
0.617146 0.742095 0.298918
0.809588 0.756360 0.205662
0.833439 0.724215 0.197959
0.832640 0.675087 0.198437
0.140168 0.153638 0.339238
0.306564 0.187337 0.385633
0.520436 0.211722 0.368505
0.640297 0.237047 0.391556
0.701640 0.255072 0.409804
0.750350 0.270765 0.426784
0.133814 0.208825 0.329113
0.275599 0.255283 0.378286
0.519291 0.291788 0.399763
0.645706 0.322821 0.428038
0.706566 0.343198 0.447895
0.752915 0.352986 0.460206
0.031807 0.521781 0.440602
0.198030 0.519518 0.449120
0.541994 0.502748 0.456846
0.670286 0.532318 0.490263
0.738598 0.555399 0.510524
0.784541 0.571077 0.520402
0.022158 0.699332 0.513511
0.240153 0.654899 0.514948
0.566135 0.645871 0.525335
0.709131 0.631908 0.477746
0.770588 0.640354 0.496504
0.816198 0.654104 0.510552
0.051207 0.747217 0.532342
0.294624 0.708399 0.547642
0.573176 0.709198 0.565734
0.753638 0.737083 0.494553
0.788003 0.708173 0.493250
0.830294 0.707453 0.503170
0.075196 0.784029 0.552156
0.333690 0.745641 0.574230
0.582790 0.755094 0.591896
0.747795 0.789462 0.528501
0.835268 0.802150 0.504638
0.836166 0.760183 0.501499
0.210411 0.227130 0.510904
0.339067 0.258992 0.535420
0.651674 0.320538 0.612536
0.675135 0.296067 0.538523
0.729340 0.306133 0.543286
0.770787 0.317360 0.546545
0.208124 0.292890 0.510061
0.342894 0.336970 0.551523
0.630865 0.382259 0.624766
0.677160 0.370300 0.568315
0.737677 0.387629 0.570485
0.781064 0.398555 0.578238
0.191376 0.449139 0.511564
0.341174 0.490999 0.553780
0.579100 0.559354 0.633472
0.693279 0.565251 0.633162
0.757526 0.585004 0.646868
0.801260 0.595328 0.657622
0.060839 0.653049 0.610440
0.228474 0.669096 0.632501
0.550334 0.688771 0.659868
0.704152 0.683732 0.671496
0.771495 0.705026 0.685405
0.819112 0.720643 0.700443
0.013352 0.796938 0.675472
0.156555 0.804073 0.683915
0.567999 0.765654 0.693669
0.715028 0.755732 0.699993
0.791975 0.757563 0.681732
0.835479 0.765108 0.692512
0.004544 0.878619 0.701656
0.157224 0.862539 0.697489
0.592077 0.802342 0.711498
0.725262 0.802562 0.725026
0.810677 0.824452 0.700140
0.849553 0.808158 0.690910
0.250488 0.269063 0.599802
0.365304 0.299545 0.615933
0.671851 0.357751 0.703538
0.744692 0.356239 0.668382
0.741477 0.338027 0.620035
0.784368 0.347459 0.621060
0.242783 0.331822 0.596128
0.378414 0.373121 0.631689
0.645159 0.415674 0.705391
0.750329 0.423895 0.695712
0.748037 0.409920 0.645695
0.793198 0.422586 0.651798
0.237488 0.472560 0.581426
0.384535 0.522523 0.634819
0.601354 0.594698 0.709711
0.747751 0.602089 0.746115
0.770032 0.599026 0.716869
0.816249 0.608796 0.719249
0.158594 0.602623 0.633810
0.346988 0.621056 0.653316
0.607521 0.678260 0.715268
0.723904 0.712761 0.753647
0.780488 0.716095 0.756123
0.828060 0.727273 0.764920
0.076941 0.724715 0.696480
0.252671 0.740025 0.717487
0.562463 0.771360 0.755626
0.711343 0.778727 0.771340
0.788559 0.782347 0.776700
0.837748 0.795012 0.789412
0.035239 0.821687 0.745073
0.201571 0.839608 0.762070
0.528954 0.862824 0.785607
0.719144 0.832666 0.788418
0.798522 0.831390 0.795729
0.849023 0.831350 0.782501
0.270180 0.294647 0.652225
0.395286 0.323516 0.670066
0.678440 0.377258 0.746555
0.804012 0.405031 0.764195
0.794348 0.383257 0.710508
0.792286 0.364625 0.672627
0.269747 0.354787 0.648654
0.401126 0.398541 0.685001
0.647791 0.435444 0.751649
0.801687 0.462844 0.781913
0.802723 0.451591 0.739449
0.796893 0.438283 0.699938
0.263486 0.496391 0.638343
0.408116 0.545074 0.689550
0.624180 0.615984 0.763617
0.751375 0.620224 0.798453
0.824034 0.626374 0.807195
0.821143 0.618836 0.769137
0.239555 0.588826 0.653386
0.401225 0.622789 0.688492
0.628947 0.700989 0.769169
0.741781 0.733930 0.805922
0.813228 0.738205 0.827483
0.835138 0.734384 0.808369
0.146511 0.688954 0.709789
0.330186 0.709129 0.732890
0.619696 0.747891 0.770884
0.746855 0.780993 0.809631
0.805703 0.802214 0.832464
0.848976 0.800885 0.834395
0.089526 0.770543 0.755385
0.274379 0.792124 0.774580
0.579374 0.820673 0.815648
0.722093 0.835408 0.834585
0.791585 0.843474 0.841792
0.847578 0.849657 0.849069
