example_ofxGpuLutCube/bin/data/ofxGpuLutCube/LUT/C7 (clear warm).cube
LUT_3D_SIZE 16
0.025148 0.024397 0.024411
0.036754 0.031454 0.024976
0.081378 0.038252 0.035668
0.160204 0.063106 0.052527
0.278569 0.094934 0.078413
0.373263 0.120140 0.103584
0.452855 0.137489 0.118209
0.507752 0.152691 0.132726
0.550645 0.166652 0.141580
0.585292 0.172793 0.147979
0.614408 0.183008 0.154410
0.635107 0.188677 0.162648
0.654499 0.197745 0.164302
0.673823 0.199859 0.170384
0.691518 0.207750 0.173889
0.705339 0.212963 0.177988
0.029948 0.038265 0.028173
0.041344 0.039039 0.025634
0.088542 0.046097 0.034183
0.170258 0.074909 0.058457
0.285005 0.102460 0.078548
0.378806 0.131248 0.106335
0.450524 0.145366 0.118298
0.508220 0.160743 0.130995
0.550998 0.174438 0.141158
0.587933 0.180746 0.148107
0.620606 0.191703 0.157542
0.641761 0.197243 0.164012
0.657052 0.204952 0.166820
0.676625 0.210930 0.172742
0.693731 0.216633 0.176834
0.709095 0.218475 0.181745
0.035364 0.065445 0.049272
0.050938 0.063861 0.042296
0.091165 0.066073 0.033456
0.183258 0.088395 0.050921
0.292824 0.118269 0.075952
0.381530 0.147820 0.103066
0.460575 0.166401 0.120131
0.512260 0.182288 0.128445
0.556101 0.193224 0.137387
0.596648 0.204857 0.145087
0.621882 0.211690 0.152768
0.642724 0.218662 0.156690
0.662844 0.227851 0.163867
0.681233 0.234073 0.167496
0.696478 0.239019 0.173517
0.713912 0.244244 0.182090
0.053054 0.126175 0.081871
0.057840 0.126030 0.073679
0.106764 0.127946 0.059635
0.218719 0.128008 0.052098
0.323175 0.159159 0.074593
0.403801 0.189829 0.100101
0.476250 0.210781 0.114462
0.525999 0.227594 0.126903
0.570286 0.239087 0.136209
0.605487 0.247635 0.142700
0.632818 0.258886 0.154395
0.657036 0.267854 0.159194
0.670035 0.273434 0.161355
0.688156 0.279391 0.163848
0.706624 0.286751 0.169243
0.721509 0.289118 0.171476
0.076943 0.218630 0.133413
0.080660 0.218387 0.125638
0.113639 0.217158 0.112083
0.253735 0.231188 0.073031
0.371109 0.225288 0.071093
0.443614 0.237234 0.090859
0.509626 0.255623 0.107392
0.558487 0.273270 0.120786
0.596051 0.290756 0.129403
0.628821 0.298467 0.133681
0.658051 0.310966 0.145658
0.676898 0.322423 0.149574
0.692026 0.328349 0.155062
0.710162 0.336401 0.161190
0.723019 0.343393 0.164513
0.736450 0.348003 0.169379
0.112001 0.316088 0.197009
0.112181 0.312351 0.185984
0.120757 0.314678 0.170816
0.254388 0.337065 0.126218
0.423116 0.333993 0.079372
0.489177 0.309378 0.082274
0.541695 0.314161 0.097681
0.592395 0.325041 0.109025
0.630016 0.333419 0.120094
0.659165 0.346537 0.123862
0.684609 0.357721 0.133939
0.698581 0.362415 0.137329
0.717458 0.374191 0.141922
0.737527 0.380385 0.149565
0.750976 0.388609 0.152081
0.764988 0.393842 0.156510
0.132993 0.392982 0.227396
0.138887 0.393252 0.230512
0.143414 0.397704 0.211817
0.239125 0.409466 0.187234
0.432443 0.426021 0.117184
0.543528 0.413286 0.085197
0.573160 0.384852 0.086023
0.616925 0.378307 0.101129
0.652691 0.385927 0.109915
0.687793 0.393800 0.118860
0.707571 0.401269 0.122384
0.730294 0.408195 0.133475
0.743158 0.413896 0.135296
0.757572 0.419530 0.140558
0.770028 0.427229 0.143685
0.781416 0.432371 0.148093
0.159858 0.449853 0.270808
0.154192 0.454505 0.266806
0.164399 0.454541 0.249463
0.228265 0.463884 0.228589
0.425936 0.497856 0.156014
0.571007 0.496579 0.107793
0.618360 0.469992 0.087320
0.638377 0.440867 0.096521
0.666653 0.435227 0.103360
0.703007 0.437785 0.111325
0.727492 0.442981 0.115204
0.745472 0.447757 0.123777
0.757135 0.449944 0.123833
0.776803 0.457719 0.132458
0.788837 0.462329 0.133482
0.802769 0.465469 0.139692
0.175612 0.499897 0.303171
0.174219 0.499318 0.295643
0.175792 0.496353 0.278095
0.237809 0.506035 0.249045
0.419428 0.544879 0.187819
0.567424 0.548527 0.138683
0.653034 0.546521 0.103302
0.674668 0.515858 0.100255
0.681929 0.487038 0.105745
0.709170 0.479399 0.110862
0.733001 0.483467 0.112702
0.750573 0.484310 0.120208
0.768789 0.488508 0.122033
0.786487 0.490799 0.126614
0.798204 0.491122 0.128853
0.810832 0.495408 0.134662
0.183261 0.535850 0.322487
0.187216 0.535631 0.314660
0.187351 0.532468 0.299106
0.238724 0.536901 0.274305
0.406881 0.574095 0.219216
0.553859 0.589279 0.161021
0.665386 0.594755 0.118376
0.706204 0.577476 0.102144
0.708332 0.546021 0.105699
0.718492 0.522922 0.109954
0.737092 0.518055 0.112281
0.757764 0.522066 0.118756
0.771828 0.523168 0.119509
0.789307 0.523844 0.125519
0.803289 0.525980 0.129288
0.818802 0.529175 0.133558
0.194963 0.564382 0.343063
0.191521 0.566098 0.335161
0.199081 0.563540 0.316705
0.247957 0.567632 0.296372
0.395003 0.600000 0.247855
0.552291 0.624147 0.188604
0.659211 0.626950 0.135803
0.725121 0.626931 0.114204
0.739983 0.604348 0.110458
0.742172 0.569308 0.110596
0.746782 0.552248 0.114730
0.761770 0.553143 0.118402
0.777801 0.550168 0.119585
0.795070 0.551301 0.124020
0.808575 0.552998 0.128295
0.819239 0.552739 0.129053
0.204600 0.584455 0.352340
0.202235 0.586454 0.345379
0.206968 0.587418 0.329198
0.249199 0.589301 0.308349
0.392589 0.624645 0.262267
0.541255 0.649251 0.206805
0.654380 0.655256 0.156108
0.732884 0.658813 0.124463
0.763484 0.647336 0.114433
0.768609 0.617929 0.114329
0.766665 0.594071 0.115356
0.769001 0.575569 0.117131
0.782202 0.576703 0.118911
0.800110 0.576543 0.123714
0.813134 0.577848 0.126138
0.823553 0.579394 0.129934
0.211752 0.607815 0.367868
0.210525 0.609437 0.360405
0.214210 0.607742 0.343281
0.254807 0.610910 0.323448
0.388025 0.642267 0.278011
0.538618 0.668915 0.207790
0.650839 0.679001 0.170465
0.727791 0.681686 0.131818
0.773904 0.678822 0.118037
0.786841 0.662262 0.113649
0.789027 0.635461 0.118065
0.787447 0.618344 0.120243
0.785440 0.604128 0.118070
0.797494 0.599743 0.119803
0.810595 0.601853 0.125184
0.822977 0.600667 0.125720
0.216307 0.627893 0.380283
0.215929 0.626528 0.368890
0.222370 0.624517 0.353669
0.264918 0.631242 0.335811
0.384763 0.659472 0.292147
0.532957 0.691753 0.226738
0.646101 0.699509 0.184330
0.729587 0.704097 0.146278
0.782380 0.706717 0.126297
0.803210 0.696462 0.117049
0.804886 0.672798 0.118165
0.804488 0.655094 0.119823
0.800226 0.636736 0.117111
0.802773 0.619910 0.120065
0.813351 0.618649 0.125184
0.824969 0.619074 0.125608
0.220312 0.642777 0.381435
0.224068 0.642700 0.381653
0.224059 0.641350 0.367635
0.269614 0.649719 0.340758
0.381846 0.676439 0.301286
0.531508 0.704184 0.249391
0.642066 0.719585 0.193721
0.727354 0.723629 0.158780
0.781765 0.729851 0.132700
0.816915 0.725650 0.124786
0.826947 0.713144 0.121900
0.822673 0.688524 0.121205
0.818427 0.673269 0.120598
0.817688 0.652172 0.121716
0.816932 0.637780 0.121942
0.830168 0.637555 0.125509
0.235311 0.657002 0.394328
0.230517 0.657071 0.386604
0.231144 0.658908 0.369643
0.274749 0.664854 0.349492
0.381482 0.686836 0.310611
0.526457 0.718594 0.261833
0.636857 0.733250 0.210030
0.726434 0.740619 0.174530
0.780510 0.747912 0.140558
0.820319 0.748012 0.127344
0.838150 0.739338 0.121684
0.837831 0.724864 0.121243
0.836464 0.703493 0.124183
0.831955 0.683736 0.123541
0.830787 0.667149 0.126097
0.830035 0.652381 0.121763
0.025901 0.027742 0.028211
0.040867 0.031563 0.029633
0.079286 0.037825 0.036646
0.160916 0.059802 0.052242
0.274538 0.088246 0.081096
0.369416 0.115546 0.105701
0.446347 0.133597 0.118738
0.505026 0.148300 0.131286
0.549480 0.158232 0.138272
0.588076 0.167832 0.147330
0.617198 0.175204 0.154783
0.634230 0.180220 0.160945
0.654862 0.187907 0.166074
0.676655 0.195120 0.173235
0.691146 0.199704 0.174438
0.702282 0.201983 0.177990
0.025525 0.038649 0.034725
0.040991 0.040066 0.032294
0.086836 0.047040 0.040346
0.166213 0.073083 0.060901
0.284625 0.103223 0.087093
0.376985 0.131222 0.114733
0.449617 0.148447 0.125110
0.507771 0.164152 0.139193
0.552539 0.175163 0.148557
0.590920 0.183083 0.156936
0.618320 0.191009 0.161898
0.641233 0.197590 0.169319
0.659283 0.205445 0.174875
0.678360 0.208908 0.177613
0.694533 0.216573 0.181385
0.709096 0.217852 0.188304
0.032463 0.064234 0.049373
0.051154 0.062232 0.046926
0.090226 0.069845 0.044063
0.184932 0.091672 0.058295
0.296999 0.123505 0.087886
0.383848 0.150972 0.111930
0.459813 0.171339 0.128024
0.510682 0.184207 0.136961
0.559430 0.197545 0.150449
0.596721 0.205300 0.157607
0.623595 0.213387 0.161820
0.643535 0.224885 0.170738
0.664517 0.230169 0.175166
0.685015 0.234267 0.176861
0.699017 0.240171 0.180537
0.714328 0.247200 0.189906
0.056282 0.125349 0.086593
0.065376 0.125857 0.082999
0.100331 0.125686 0.064866
0.217153 0.133071 0.061783
0.320871 0.160942 0.084640
0.403261 0.193756 0.108630
0.475344 0.212454 0.124333
0.526560 0.227781 0.135200
0.570618 0.239980 0.143007
0.607746 0.250151 0.151707
0.635710 0.263225 0.159548
0.652638 0.271954 0.165555
0.674732 0.275464 0.171411
0.694639 0.280303 0.175040
0.711267 0.290750 0.180944
0.722693 0.292432 0.183266
0.083262 0.216064 0.139501
0.089990 0.219488 0.130530
0.111645 0.217047 0.117832
0.256133 0.229226 0.082725
0.371320 0.226345 0.079336
0.441391 0.238438 0.101427
0.506500 0.259824 0.115995
0.557700 0.277639 0.127764
0.595541 0.291897 0.137170
0.630333 0.304213 0.145234
0.654288 0.315204 0.150411
0.677111 0.326813 0.158926
0.692800 0.333530 0.164215
0.708166 0.337309 0.166496
0.723582 0.344868 0.170748
0.737888 0.352002 0.177913
0.111807 0.314990 0.189813
0.119334 0.316180 0.191749
0.129091 0.319256 0.176727
0.247657 0.337024 0.130404
0.422304 0.334731 0.093023
0.489570 0.314097 0.090589
0.541672 0.317560 0.107847
0.588193 0.330692 0.115903
0.631210 0.341809 0.128601
0.664526 0.351363 0.137099
0.685839 0.358628 0.137602
0.704835 0.367869 0.145720
0.719979 0.376063 0.152458
0.737944 0.382513 0.157521
0.748546 0.389941 0.160376
0.765001 0.398109 0.167529
0.136550 0.392879 0.239848
0.146063 0.391718 0.239135
0.145777 0.396910 0.220830
0.240813 0.410541 0.189154
0.429374 0.429193 0.128418
0.543364 0.415634 0.092907
0.573507 0.387183 0.097249
0.617131 0.383015 0.110769
0.652717 0.389237 0.116656
0.685465 0.391621 0.126316
0.707298 0.402472 0.133817
0.726701 0.409819 0.140521
0.740905 0.416727 0.144792
0.758801 0.423052 0.147172
0.770646 0.431620 0.149949
0.785107 0.434072 0.156209
0.157652 0.454858 0.279176
0.161171 0.454210 0.270537
0.167143 0.455112 0.256002
0.237465 0.465537 0.228584
0.422736 0.496965 0.173100
0.561713 0.493459 0.110322
0.616510 0.471361 0.098031
0.635959 0.445524 0.103844
0.665614 0.437963 0.109264
0.697918 0.438473 0.116846
0.723806 0.445357 0.123817
0.743990 0.450055 0.129976
0.759429 0.456353 0.136560
0.773507 0.457923 0.140783
0.786687 0.465226 0.143484
0.800671 0.470611 0.148432
0.173747 0.498165 0.305357
0.179848 0.502357 0.301763
0.183356 0.502248 0.289209
0.240740 0.506634 0.261656
0.409803 0.545075 0.198586
0.555516 0.556518 0.152004
0.649408 0.544423 0.109049
0.670755 0.515773 0.108149
0.680762 0.489168 0.110427
0.709515 0.483930 0.120843
0.731945 0.486233 0.121710
0.751352 0.486858 0.128143
0.770012 0.491521 0.130702
0.786131 0.491244 0.134263
0.800945 0.495912 0.138993
0.812425 0.497625 0.143229
0.186465 0.536538 0.329874
0.192831 0.536079 0.322405
0.196608 0.537472 0.308122
0.244554 0.540100 0.282322
0.398678 0.578717 0.230646
0.550384 0.596045 0.176719
0.656858 0.593995 0.126313
0.704928 0.579653 0.109720
0.708313 0.547480 0.110972
0.719520 0.524299 0.117816
0.737241 0.521015 0.121675
0.760069 0.522240 0.128380
0.773377 0.525715 0.127839
0.793317 0.525415 0.133491
0.806857 0.526679 0.137333
0.818219 0.527116 0.141129
0.194117 0.565174 0.347482
0.205022 0.564363 0.342854
0.207300 0.565340 0.324646
0.249296 0.567550 0.300790
0.388660 0.602589 0.247894
0.547638 0.627980 0.198137
0.656248 0.627876 0.149284
0.720800 0.628598 0.123631
0.739930 0.603349 0.116601
0.742410 0.571816 0.121172
0.746994 0.553239 0.123129
0.761822 0.553194 0.124760
0.777376 0.554079 0.125867
0.797641 0.556556 0.131664
0.808596 0.554386 0.133882
0.821885 0.559244 0.139911
0.201705 0.588110 0.357867
0.213599 0.590842 0.354021
0.215302 0.591975 0.339231
0.253568 0.593040 0.318999
0.389387 0.624983 0.264449
0.541242 0.652411 0.213930
0.651976 0.656236 0.164696
0.728100 0.658365 0.130910
0.761768 0.647543 0.121588
0.767958 0.619262 0.122313
0.765536 0.597285 0.125551
0.767640 0.581543 0.124641
0.781441 0.579075 0.125949
0.801099 0.579619 0.132450
0.812696 0.579595 0.134031
0.825243 0.582445 0.139747
0.211242 0.607843 0.368433
0.220283 0.612252 0.367961
0.219829 0.610713 0.353566
0.263061 0.614461 0.330882
0.387945 0.640373 0.281824
0.534540 0.669583 0.229367
0.648784 0.679722 0.179306
0.728831 0.684438 0.143776
0.772858 0.682583 0.127171
0.786077 0.665243 0.121907
0.788621 0.637870 0.125833
0.786105 0.615723 0.123475
0.788381 0.602389 0.123873
0.802328 0.600435 0.129822
0.814750 0.600691 0.132502
0.826811 0.603108 0.137544
0.219872 0.630697 0.382875
0.228360 0.629699 0.380260
0.225627 0.629259 0.366748
0.260681 0.630758 0.339769
0.382626 0.658631 0.300765
0.531368 0.688674 0.238704
0.642700 0.697266 0.197135
0.728912 0.706323 0.152810
0.779858 0.705596 0.135313
0.805222 0.700000 0.127968
0.808465 0.676850 0.128888
0.804429 0.654960 0.126508
0.802101 0.635886 0.126792
0.807300 0.621045 0.130258
0.817689 0.621201 0.133521
0.830044 0.622629 0.135226
0.228120 0.643819 0.393097
0.239170 0.645364 0.393467
0.238573 0.643950 0.371524
0.268576 0.648067 0.353727
0.384948 0.672662 0.311834
0.527578 0.704301 0.258283
0.639866 0.716740 0.205795
0.723312 0.726764 0.171906
0.781585 0.727578 0.142605
0.813539 0.725697 0.129352
0.826917 0.713327 0.129333
0.825153 0.692437 0.128489
0.819316 0.673742 0.128992
0.818127 0.653327 0.132239
0.817927 0.641853 0.132668
0.829151 0.641726 0.137436
0.224582 0.656916 0.401387
0.243581 0.659222 0.399186
0.246761 0.658929 0.379152
0.272558 0.663843 0.362372
0.384645 0.687924 0.322163
0.525502 0.721679 0.271997
0.635924 0.736817 0.216484
0.719316 0.741278 0.182898
0.782961 0.747808 0.148963
0.818353 0.744625 0.135403
0.836077 0.740410 0.133282
0.837366 0.725187 0.128931
0.834209 0.705764 0.132874
0.834658 0.686516 0.139257
0.830887 0.669027 0.135990
0.830035 0.656071 0.128898
0.035355 0.031387 0.050071
0.048922 0.038895 0.053729
0.092395 0.045080 0.062412
0.171652 0.064812 0.074659
0.277762 0.090579 0.091816
0.372921 0.113174 0.112599
0.449718 0.129419 0.125515
0.497949 0.138718 0.134404
0.547547 0.149736 0.143561
0.582951 0.153880 0.150954
0.614078 0.162071 0.155091
0.636458 0.171243 0.163029
0.651403 0.181333 0.171583
0.673245 0.183775 0.176273
0.689505 0.188938 0.178384
0.704792 0.193519 0.182296
0.031999 0.042396 0.050638
0.044652 0.046180 0.051610
0.089114 0.051614 0.061598
0.165604 0.071854 0.074638
0.278716 0.101424 0.095202
0.373739 0.124920 0.116347
0.452855 0.143234 0.132945
0.506644 0.155987 0.144287
0.552694 0.166694 0.153777
0.588787 0.175697 0.162675
0.618792 0.185055 0.168782
0.640509 0.191353 0.178040
0.658716 0.199405 0.179650
0.676053 0.204306 0.184715
0.692448 0.208881 0.187356
0.706737 0.212716 0.193750
0.031146 0.073216 0.060798
0.049523 0.069374 0.061494
0.088942 0.074774 0.062348
0.181969 0.094626 0.076232
0.297207 0.128794 0.105928
0.386167 0.156846 0.128527
0.460326 0.173321 0.143439
0.515418 0.188452 0.154837
0.558171 0.199864 0.165186
0.595701 0.207562 0.172204
0.621000 0.215153 0.175426
0.647518 0.223020 0.185845
0.664277 0.233033 0.190500
0.684634 0.239071 0.195653
0.700375 0.244034 0.199094
0.717421 0.249999 0.204950
0.056966 0.126915 0.092808
0.065309 0.128224 0.095603
0.100370 0.129668 0.084902
0.209652 0.138252 0.081396
0.315239 0.168572 0.102192
0.404391 0.196635 0.127900
0.476899 0.217470 0.144853
0.528724 0.235953 0.158103
0.571492 0.249822 0.166295
0.608483 0.260586 0.174838
0.632862 0.265784 0.176562
0.660221 0.276611 0.186598
0.675459 0.284714 0.190397
0.694727 0.288104 0.195019
0.710518 0.294912 0.199397
0.725081 0.301660 0.205552
0.079210 0.218192 0.149610
0.098841 0.221004 0.147891
0.124166 0.224616 0.135008
0.241544 0.233359 0.102178
0.368091 0.231923 0.098837
0.437350 0.248146 0.114614
0.505256 0.268658 0.133232
0.556488 0.288582 0.145105
0.595259 0.303559 0.156378
0.631932 0.315465 0.166600
0.656534 0.323843 0.171041
0.676448 0.333410 0.182349
0.693843 0.343049 0.186686
0.710131 0.347659 0.190661
0.727572 0.357240 0.193180
0.739318 0.360278 0.197312
0.113157 0.313671 0.196042
0.128436 0.317500 0.205129
0.140520 0.325050 0.193589
0.247336 0.337079 0.154589
0.414019 0.341038 0.108007
0.484702 0.321110 0.108458
0.540208 0.324246 0.122471
0.588715 0.337379 0.137322
0.628170 0.348143 0.147637
0.659415 0.358960 0.156395
0.684843 0.367449 0.160212
0.702678 0.378541 0.170120
0.719428 0.386398 0.173694
0.737713 0.393177 0.179500
0.751470 0.398901 0.185035
0.761774 0.401320 0.186514
0.138709 0.393246 0.246867
0.155513 0.397945 0.251959
0.166776 0.403209 0.242787
0.237666 0.410010 0.214791
0.419049 0.435394 0.148767
0.535737 0.420408 0.117416
0.569551 0.393485 0.115840
0.612397 0.388208 0.127753
0.653240 0.396015 0.139615
0.682365 0.402003 0.145854
0.706391 0.411367 0.153785
0.726669 0.418629 0.161664
0.741460 0.427965 0.164790
0.756362 0.432947 0.170435
0.770859 0.440085 0.174111
0.785127 0.442351 0.177144
0.156079 0.451017 0.282564
0.174525 0.458235 0.285991
0.185270 0.463599 0.278995
0.234949 0.466272 0.253718
0.413321 0.503652 0.194981
0.553720 0.499466 0.136409
0.613207 0.478168 0.118315
0.634962 0.449736 0.126549
0.667527 0.444730 0.131637
0.698716 0.448901 0.140052
0.725765 0.450337 0.146287
0.744050 0.455253 0.156012
0.757125 0.462260 0.157215
0.775125 0.468746 0.164136
0.787308 0.473695 0.165221
0.800853 0.478881 0.167324
0.173115 0.497601 0.310276
0.187559 0.505532 0.317419
0.204644 0.508112 0.307397
0.247241 0.512134 0.278820
0.403203 0.545060 0.226165
0.550183 0.555779 0.170835
0.648091 0.551227 0.131886
0.669996 0.522570 0.127502
0.680390 0.494518 0.132595
0.708084 0.490512 0.139833
0.732730 0.491066 0.141769
0.752673 0.492875 0.150042
0.766302 0.498017 0.151774
0.784221 0.501256 0.157811
0.796776 0.506425 0.159596
0.810882 0.507336 0.164555
0.183827 0.534200 0.334259
0.202108 0.538723 0.335665
0.214747 0.541796 0.326337
0.253109 0.545898 0.303522
0.393132 0.576423 0.252493
0.546238 0.595560 0.200034
0.651186 0.598032 0.152031
0.702039 0.584653 0.131957
0.708936 0.552474 0.134092
0.718041 0.531993 0.139860
0.738693 0.529273 0.142763
0.761474 0.531559 0.148484
0.772990 0.533159 0.149566
0.790800 0.532479 0.154807
0.802719 0.534300 0.158221
0.818977 0.535801 0.162600
0.193126 0.566118 0.352821
0.207805 0.569685 0.354490
0.224790 0.574230 0.346376
0.262633 0.574676 0.320742
0.387208 0.602754 0.271289
0.539847 0.626366 0.216798
0.651020 0.630854 0.173519
0.719229 0.630367 0.145185
0.741276 0.611851 0.140595
0.742178 0.579487 0.140515
0.746402 0.561281 0.142453
0.763488 0.560278 0.145928
0.776731 0.561252 0.147636
0.795920 0.560660 0.150383
0.808380 0.563719 0.154144
0.823079 0.564695 0.159698
0.200661 0.587910 0.365639
0.215187 0.593945 0.368694
0.233542 0.596254 0.359129
0.268810 0.598451 0.334628
0.386433 0.623736 0.287031
0.533391 0.652749 0.239063
0.644978 0.657549 0.190985
0.724822 0.663165 0.156014
0.761343 0.653675 0.142415
0.766012 0.627990 0.141976
0.765547 0.602633 0.145046
0.768874 0.586602 0.145102
0.780235 0.585802 0.148557
0.798383 0.587733 0.152173
0.812589 0.586527 0.153942
0.826048 0.588463 0.161681
0.208447 0.610435 0.376884
0.226892 0.614840 0.384221
0.247452 0.615767 0.373590
0.275156 0.618227 0.345983
0.385158 0.641061 0.315613
0.529431 0.670196 0.248955
0.642115 0.679767 0.200680
0.722979 0.687630 0.169940
0.771131 0.687751 0.148047
0.788672 0.669819 0.144237
0.788941 0.643065 0.148983
0.785460 0.622667 0.148814
0.783737 0.607947 0.144980
0.801419 0.607384 0.152733
0.814862 0.608057 0.154067
0.826679 0.609995 0.159389
0.215305 0.630248 0.388390
0.236644 0.630969 0.394284
0.250942 0.631903 0.382581
0.278634 0.634588 0.356113
0.383886 0.658176 0.324221
0.526373 0.690019 0.264476
0.637775 0.700845 0.215184
0.720465 0.708341 0.180014
0.777061 0.710154 0.155970
0.805253 0.702665 0.149847
0.808381 0.682856 0.152182
0.804118 0.662472 0.150261
0.800239 0.644003 0.147117
0.803874 0.627833 0.148839
0.816038 0.627119 0.154535
0.827200 0.628525 0.157945
0.223270 0.647450 0.396387
0.245160 0.646533 0.405783
0.258028 0.651260 0.395822
0.282842 0.652429 0.367184
0.383791 0.673139 0.333558
0.519791 0.707797 0.285509
0.635247 0.719018 0.230588
0.715990 0.726226 0.192763
0.776655 0.732468 0.167304
0.811555 0.729219 0.155302
0.826353 0.717656 0.148583
0.824339 0.697641 0.153052
0.818836 0.679817 0.152763
0.817620 0.660680 0.154291
0.817650 0.646942 0.149713
0.826290 0.647282 0.159233
0.232774 0.662585 0.410665
0.249086 0.662873 0.415625
0.262455 0.666242 0.403652
0.287183 0.666213 0.374730
0.384800 0.688110 0.347932
0.515873 0.721104 0.299743
0.632720 0.737163 0.243657
0.715111 0.744793 0.203422
0.777362 0.748742 0.173641
0.816425 0.750531 0.160316
0.837892 0.745263 0.156419
0.840589 0.729380 0.160947
0.834922 0.712883 0.155139
0.835645 0.692572 0.155810
0.833162 0.678982 0.156850
0.827538 0.664434 0.157343
0.044538 0.050148 0.087579
0.060205 0.053780 0.089166
0.112568 0.061151 0.101100
0.183285 0.077351 0.106376
0.295135 0.101196 0.134094
0.385964 0.121497 0.152779
0.458269 0.138948 0.167164
0.512064 0.148199 0.172531
0.555719 0.158826 0.185832
0.591894 0.167664 0.193707
0.617640 0.169724 0.194913
0.639511 0.177754 0.202241
0.660914 0.184154 0.206814
0.681962 0.192269 0.210973
0.694260 0.193687 0.212917
0.710851 0.199362 0.224235
0.044519 0.054055 0.088193
0.058422 0.059427 0.089643
0.107031 0.068329 0.102216
0.182672 0.083270 0.109744
0.295357 0.109182 0.134471
0.386778 0.131049 0.155302
0.458263 0.147688 0.169218
0.511222 0.160402 0.178962
0.555632 0.166741 0.183503
0.591601 0.175443 0.190851
0.621065 0.183060 0.198251
0.641626 0.187415 0.205455
0.661742 0.195487 0.208745
0.680199 0.197573 0.212065
0.696016 0.203700 0.214591
0.709831 0.205066 0.218632
0.041327 0.076194 0.087576
0.060223 0.078986 0.091076
0.100277 0.086934 0.100152
0.180603 0.105682 0.112308
0.295442 0.132838 0.134214
0.386270 0.154741 0.158950
0.459494 0.172300 0.171936
0.513947 0.182851 0.181065
0.557163 0.196455 0.191273
0.597682 0.203083 0.200254
0.622045 0.210735 0.203321
0.642010 0.218240 0.209736
0.667251 0.226966 0.219579
0.683653 0.230858 0.221306
0.699766 0.234899 0.222686
0.717690 0.240745 0.232227
0.040670 0.149866 0.115743
0.055818 0.145336 0.117642
0.109606 0.137942 0.118554
0.195784 0.151862 0.119081
0.310450 0.183564 0.144351
0.403457 0.211961 0.166631
0.473749 0.232586 0.181970
0.530448 0.248935 0.195718
0.573132 0.258493 0.206137
0.609432 0.267567 0.215348
0.635412 0.278997 0.220925
0.657642 0.286916 0.230484
0.677530 0.291075 0.232084
0.700216 0.297971 0.238625
0.712902 0.301880 0.240277
0.729614 0.309375 0.249096
0.070621 0.238870 0.168113
0.089748 0.232915 0.176263
0.131908 0.239576 0.165646
0.225254 0.240468 0.153930
0.354190 0.246558 0.143831
0.433273 0.266810 0.161787
0.504546 0.288289 0.183616
0.555390 0.309505 0.193861
0.594851 0.322871 0.203339
0.628384 0.333192 0.214211
0.652854 0.343548 0.219242
0.675888 0.351421 0.226932
0.694947 0.358788 0.231173
0.712529 0.364489 0.234872
0.730459 0.371683 0.243137
0.742438 0.377204 0.249148
0.106064 0.322682 0.223791
0.121250 0.323523 0.222815
0.160434 0.331027 0.230950
0.237419 0.341106 0.201424
0.398974 0.350776 0.153839
0.478016 0.335399 0.154544
0.533502 0.341862 0.168128
0.585661 0.355638 0.180323
0.624337 0.369412 0.191386
0.655336 0.380535 0.202467
0.682406 0.392524 0.210213
0.700903 0.399259 0.216692
0.716758 0.405814 0.219442
0.736528 0.414445 0.227682
0.748579 0.420033 0.230498
0.762285 0.424951 0.236579
0.134697 0.394786 0.264335
0.148632 0.403708 0.274665
0.189223 0.409063 0.274507
0.248736 0.418939 0.259926
0.404848 0.441982 0.197858
0.529878 0.432211 0.166067
0.566570 0.407957 0.162241
0.611426 0.404675 0.174388
0.648850 0.412967 0.183133
0.682149 0.420050 0.192091
0.705967 0.430059 0.199394
0.724235 0.438488 0.208767
0.742981 0.447699 0.213717
0.757507 0.451627 0.219660
0.769447 0.459566 0.222184
0.783551 0.462484 0.225210
0.150970 0.457350 0.302765
0.171441 0.460365 0.306427
0.210097 0.469143 0.308944
0.250908 0.479248 0.297189
0.398342 0.504742 0.243073
0.534325 0.512434 0.190258
0.610748 0.488610 0.165254
0.632242 0.466123 0.171536
