example_ofxGpuLutCube/bin/data/ofxGpuLutCube/LUT/C8 (clear warm_1).cube
LUT_3D_SIZE 16
0.064359 0.068579 0.070941
0.098396 0.076799 0.071046
0.145638 0.088432 0.066579
0.193622 0.098848 0.056363
0.237478 0.108944 0.054684
0.286204 0.120374 0.058227
0.328993 0.132099 0.063346
0.370246 0.143557 0.070323
0.408747 0.154949 0.076604
0.447737 0.174095 0.085702
0.485506 0.195574 0.093932
0.523407 0.219697 0.101444
0.558322 0.241711 0.108829
0.587377 0.257976 0.115341
0.609627 0.272872 0.120365
0.626962 0.286420 0.124696
0.064333 0.086895 0.076636
0.096567 0.091131 0.073394
0.144982 0.100833 0.069943
0.199251 0.113170 0.057571
0.248084 0.125816 0.055247
0.300917 0.139173 0.058739
0.347012 0.154335 0.065944
0.389111 0.168004 0.073767
0.426600 0.179324 0.080878
0.458401 0.186910 0.087214
0.489295 0.198984 0.094099
0.523718 0.218624 0.100654
0.560039 0.242463 0.108799
0.590129 0.259952 0.115762
0.610975 0.274690 0.120494
0.628508 0.288426 0.124897
0.063040 0.106425 0.081855
0.089993 0.110925 0.083418
0.145076 0.118736 0.075649
0.205330 0.128134 0.060547
0.260330 0.143983 0.056760
0.321694 0.165081 0.061611
0.375199 0.188226 0.072092
0.422889 0.208970 0.081009
0.463229 0.224430 0.090514
0.492188 0.229284 0.096799
0.511546 0.227294 0.100248
0.535699 0.232879 0.103242
0.567652 0.250704 0.110932
0.595368 0.264854 0.116989
0.612265 0.276435 0.120690
0.629521 0.289818 0.124949
0.058621 0.127225 0.086534
0.079679 0.130740 0.088127
0.129423 0.145091 0.087438
0.212195 0.154655 0.072087
0.270921 0.162814 0.059912
0.337598 0.186100 0.065184
0.396424 0.211599 0.076176
0.447824 0.235757 0.087172
0.492965 0.258037 0.100021
0.528871 0.276017 0.110569
0.554092 0.282352 0.114565
0.566211 0.270901 0.113021
0.581403 0.266712 0.115272
0.607087 0.278088 0.120422
0.622169 0.288392 0.123895
0.638609 0.299668 0.127123
0.058264 0.147829 0.090612
0.070985 0.150592 0.090546
0.110015 0.164007 0.088626
0.208000 0.194709 0.087288
0.285442 0.195110 0.071787
0.349695 0.205957 0.067947
0.411537 0.231337 0.079965
0.465952 0.257713 0.093463
0.514102 0.283313 0.107670
0.552570 0.304012 0.119302
0.584943 0.318914 0.124990
0.610279 0.324300 0.128550
0.613659 0.304360 0.125334
0.619812 0.292625 0.124290
0.634709 0.303033 0.127380
0.651197 0.313093 0.130077
0.056907 0.167726 0.095532
0.067749 0.170714 0.094754
0.093871 0.181270 0.092545
0.186007 0.218907 0.093852
0.302111 0.251835 0.097119
0.364833 0.239110 0.078811
0.423790 0.253551 0.084669
0.480913 0.279167 0.098732
0.531453 0.307257 0.114711
0.572715 0.329933 0.126384
0.609054 0.346812 0.133126
0.642808 0.358445 0.138871
0.664314 0.357708 0.139553
0.643348 0.319780 0.130784
0.648213 0.318138 0.130887
0.664631 0.326954 0.133685
0.059748 0.190703 0.100380
0.069315 0.194253 0.098994
0.084062 0.200514 0.097033
0.159885 0.236660 0.096170
0.290214 0.287173 0.108204
0.394734 0.308667 0.112865
0.440643 0.288465 0.094355
0.494177 0.304529 0.106305
0.546822 0.331104 0.122213
0.590206 0.353635 0.132954
0.630521 0.372005 0.140556
0.669318 0.386181 0.146923
0.696459 0.391538 0.148927
0.693171 0.375350 0.144808
0.665759 0.336462 0.135649
0.678751 0.341905 0.137455
0.063998 0.218208 0.104810
0.073710 0.222628 0.103203
0.084506 0.227516 0.102054
0.132868 0.249888 0.099330
0.262260 0.307499 0.111518
0.390405 0.351601 0.132922
0.475497 0.364530 0.133531
0.510902 0.340730 0.118248
0.561034 0.357089 0.130630
0.607381 0.378113 0.140414
0.650131 0.397428 0.147867
0.693183 0.413124 0.154510
0.720007 0.421328 0.156690
0.727119 0.418454 0.156007
0.707320 0.384054 0.147451
0.693802 0.358407 0.141426
0.069587 0.247578 0.109270
0.078773 0.252146 0.107116
0.089595 0.256795 0.105524
0.108755 0.264959 0.103201
0.209880 0.312949 0.106934
0.360079 0.376466 0.132858
0.471034 0.413140 0.156191
0.545805 0.419768 0.156126
0.578949 0.395665 0.143642
0.626063 0.409024 0.149987
0.671612 0.425712 0.156294
0.714942 0.439866 0.161477
0.739504 0.448924 0.163633
0.751461 0.451484 0.164084
0.752546 0.442369 0.161991
0.725835 0.397227 0.151002
0.073755 0.277778 0.110566
0.082510 0.282560 0.107390
0.093667 0.287905 0.105101
0.106754 0.293391 0.102846
0.142264 0.309192 0.100916
0.276244 0.371184 0.120456
0.429463 0.433291 0.153108
0.540005 0.471581 0.180005
0.610453 0.474701 0.178713
0.644748 0.448997 0.162565
0.691260 0.457054 0.164887
0.735137 0.467158 0.168391
0.758804 0.477610 0.170385
0.772684 0.483411 0.171288
0.778781 0.481133 0.170825
0.774053 0.461701 0.166433
0.079712 0.307279 0.115666
0.088293 0.312186 0.111312
0.097354 0.317000 0.106522
0.107774 0.322112 0.102211
0.126346 0.329711 0.100572
0.166992 0.348685 0.103154
0.308003 0.414177 0.129808
0.478856 0.485920 0.173768
0.600774 0.523673 0.199663
0.670965 0.522213 0.195014
0.707267 0.495544 0.176042
0.755229 0.500210 0.175959
0.776361 0.506317 0.176083
0.790004 0.513117 0.176901
0.797739 0.514576 0.177045
0.799796 0.505083 0.174922
0.084587 0.337831 0.124234
0.091990 0.342305 0.118597
0.099156 0.346422 0.112881
0.108131 0.350961 0.108032
0.125313 0.357665 0.104785
0.144717 0.365704 0.102654
0.177035 0.381354 0.105335
0.310186 0.442651 0.133694
0.519914 0.531084 0.190878
0.657630 0.569201 0.216488
0.723538 0.562619 0.203798
0.766181 0.537460 0.184447
0.789253 0.536282 0.182374
0.801026 0.539526 0.182277
0.808158 0.540271 0.182349
0.814267 0.537424 0.181501
0.085304 0.364491 0.136266
0.092436 0.369143 0.130510
0.099278 0.373008 0.124922
0.109160 0.377493 0.119818
0.127129 0.384467 0.116402
0.145301 0.391365 0.113973
0.166859 0.401023 0.113619
0.195425 0.414922 0.114257
0.305001 0.465032 0.132370
0.562705 0.573927 0.204489
0.709252 0.610908 0.227360
0.770622 0.598154 0.207764
0.798186 0.570743 0.188797
0.809898 0.569062 0.187575
0.816898 0.568655 0.187283
0.823060 0.564878 0.186748
0.084789 0.387193 0.146794
0.091954 0.391407 0.141235
0.098895 0.395311 0.135484
0.109190 0.399819 0.130574
0.126461 0.406547 0.127002
0.145691 0.414251 0.125134
0.165801 0.422406 0.124866
0.191624 0.434351 0.124042
0.224437 0.449889 0.123113
0.310536 0.489502 0.133228
0.604860 0.612282 0.215725
0.761104 0.650297 0.241193
0.806497 0.625153 0.210631
0.816028 0.600543 0.193396
0.823770 0.599307 0.192909
0.830253 0.597123 0.193182
0.088913 0.407316 0.152167
0.093392 0.409942 0.147481
0.098155 0.412951 0.142886
0.108688 0.417610 0.138647
0.124694 0.423785 0.135106
0.143101 0.430649 0.133148
0.164284 0.438683 0.132085
0.191294 0.450290 0.130293
0.224117 0.465483 0.128583
0.268052 0.485575 0.127599
0.336085 0.517519 0.137085
0.652988 0.645701 0.228723
0.806403 0.682068 0.253000
0.821189 0.633115 0.206518
0.827779 0.619412 0.198587
0.833906 0.618147 0.198978
0.093751 0.427175 0.160003
0.099061 0.430591 0.156574
0.104032 0.433459 0.153204
0.112498 0.437362 0.148315
0.126867 0.443161 0.143586
0.146213 0.450498 0.141636
0.165165 0.457795 0.138225
0.187661 0.467167 0.134693
0.220577 0.482836 0.132887
0.260751 0.502363 0.132747
0.312467 0.526554 0.137800
0.377201 0.556377 0.151109
0.698530 0.677692 0.239872
0.841753 0.703830 0.261754
0.831009 0.646764 0.208847
0.836033 0.640481 0.206191
0.062864 0.078956 0.095791
0.084599 0.077391 0.095471
0.123395 0.088472 0.100141
0.173195 0.102350 0.099040
0.225906 0.111701 0.083583
0.276387 0.124794 0.077298
0.328003 0.143943 0.076405
0.377262 0.162169 0.080724
0.422511 0.178547 0.087778
0.461997 0.192494 0.095900
0.497159 0.208460 0.104458
0.530575 0.226220 0.111348
0.563232 0.245348 0.116430
0.591491 0.261206 0.121152
0.613770 0.276040 0.124697
0.630940 0.289082 0.128814
0.060591 0.086581 0.093794
0.088990 0.091692 0.097037
0.137084 0.103426 0.096535
0.196953 0.115051 0.082679
0.249400 0.126557 0.069179
0.302223 0.139487 0.069805
0.348460 0.153165 0.075557
0.391834 0.168778 0.082135
0.433792 0.186693 0.090419
0.471484 0.201083 0.098566
0.506321 0.217681 0.106910
0.538443 0.233698 0.112885
0.569204 0.250513 0.117744
0.594805 0.262623 0.121385
0.613947 0.275638 0.124506
0.631696 0.289158 0.128800
0.055228 0.108757 0.101847
0.084904 0.112959 0.104521
0.134694 0.118999 0.099906
0.199313 0.133393 0.091543
0.259403 0.148439 0.076515
0.319256 0.167944 0.074303
0.372262 0.186951 0.080761
0.420566 0.204925 0.088313
0.460114 0.217088 0.097036
0.488349 0.220157 0.103437
0.510824 0.222120 0.107434
0.538560 0.233095 0.111818
0.569218 0.249801 0.116768
0.595766 0.262960 0.120804
0.614838 0.276870 0.124590
0.632006 0.289736 0.128673
0.050006 0.129882 0.106712
0.071848 0.134546 0.108123
0.117908 0.143614 0.109971
0.204496 0.157427 0.096486
0.268621 0.167795 0.081262
0.332795 0.189424 0.078564
0.392621 0.214180 0.085952
0.446515 0.239073 0.096336
0.492584 0.260667 0.108985
0.527709 0.275053 0.118735
0.549774 0.274749 0.121109
0.559257 0.259183 0.117233
0.579492 0.261713 0.119350
0.606822 0.275712 0.123945
0.622827 0.286632 0.127125
0.639203 0.297637 0.130409
0.049547 0.148417 0.109627
0.062896 0.153170 0.111153
0.100330 0.162758 0.109248
0.185678 0.189882 0.106263
0.280288 0.199327 0.091285
0.343672 0.208981 0.083217
0.407571 0.233950 0.089157
0.463918 0.260251 0.101713
0.514438 0.287065 0.116975
0.555052 0.308595 0.128633
0.586562 0.321880 0.133978
0.606188 0.318914 0.133195
0.606744 0.294379 0.127503
0.618621 0.289292 0.127357
0.634148 0.299995 0.130537
0.650990 0.310421 0.133236
0.049672 0.168204 0.113011
0.060432 0.172566 0.113683
0.087823 0.181709 0.109606
0.160785 0.210830 0.108795
0.285445 0.249485 0.112799
0.359527 0.243235 0.094765
0.419575 0.255183 0.093371
0.478948 0.281583 0.106880
0.532518 0.311283 0.123915
0.576289 0.335132 0.135885
0.612763 0.350834 0.141372
0.643908 0.359575 0.144698
0.660108 0.352895 0.142620
0.638464 0.312289 0.132952
0.647172 0.314708 0.133905
0.664317 0.324567 0.136809
0.053422 0.190354 0.118051
0.064936 0.196279 0.117841
0.081674 0.202378 0.113180
0.140219 0.228842 0.109856
0.266266 0.280039 0.120818
0.383460 0.309551 0.128254
0.437793 0.292135 0.104842
0.493481 0.307271 0.114051
0.548904 0.335272 0.130390
0.594485 0.359096 0.141393
0.635464 0.376629 0.147768
0.672921 0.388857 0.152458
0.698318 0.391282 0.153007
0.690060 0.369136 0.147289
0.663561 0.332009 0.138435
0.678431 0.339197 0.140627
0.058541 0.216817 0.120622
0.071450 0.224143 0.119021
0.083197 0.229336 0.115664
0.121245 0.246339 0.111885
0.239906 0.298615 0.119864
0.375212 0.348368 0.142424
0.469590 0.368041 0.146631
0.512062 0.345960 0.126854
0.564003 0.361349 0.137783
0.612491 0.383827 0.147852
0.655745 0.402477 0.154167
0.698323 0.416946 0.159850
0.724399 0.423636 0.161510
0.728818 0.417511 0.159801
0.702410 0.375190 0.149087
0.693202 0.354991 0.144353
0.065550 0.245651 0.122395
0.077992 0.254377 0.118264
0.089396 0.259390 0.116029
0.105931 0.266261 0.113413
0.192409 0.306259 0.114709
0.341639 0.370769 0.139564
0.461689 0.411949 0.163800
0.545667 0.426310 0.168059
0.583176 0.402405 0.151386
0.631277 0.414784 0.156972
0.677425 0.430981 0.162263
0.720399 0.444545 0.167254
0.745412 0.453392 0.169341
0.756080 0.454644 0.169356
0.754722 0.442278 0.166071
0.723752 0.391284 0.153386
0.071319 0.276660 0.122429
0.083387 0.285618 0.116986
0.094092 0.291076 0.114342
0.105785 0.296191 0.111755
0.133195 0.307839 0.109280
0.255170 0.363111 0.123618
0.414807 0.430736 0.159629
0.532012 0.471954 0.186395
0.612286 0.482199 0.189144
0.650048 0.456731 0.170265
0.696642 0.462449 0.171129
0.741547 0.472834 0.174370
0.764997 0.483482 0.176201
0.777356 0.488188 0.176837
0.783225 0.485361 0.176076
0.777386 0.463608 0.171152
0.077659 0.306347 0.127810
0.088525 0.315424 0.122128
0.097479 0.320406 0.116976
0.106573 0.325110 0.111828
0.119572 0.330933 0.108334
0.153599 0.345259 0.108883
0.283328 0.405274 0.132337
0.463776 0.483930 0.179737
0.595467 0.525565 0.205562
0.674338 0.529971 0.204141
0.712514 0.502902 0.182573
0.760789 0.506417 0.181814
0.781477 0.512117 0.181972
0.794268 0.518205 0.182862
0.801803 0.519450 0.183080
0.803988 0.509778 0.180831
0.083316 0.336512 0.134127
0.093048 0.346655 0.130051
0.100267 0.350620 0.124330
0.107953 0.354916 0.119339
0.119424 0.360040 0.114981
0.137264 0.366834 0.111910
0.164748 0.378693 0.112966
0.284118 0.433913 0.136151
0.506557 0.530036 0.196375
0.656717 0.573560 0.222897
0.728093 0.571520 0.213681
0.770228 0.544375 0.190512
0.793961 0.542207 0.188788
0.804949 0.544682 0.188582
0.811969 0.545545 0.188638
0.818155 0.542484 0.187760
0.084955 0.364741 0.146268
0.093784 0.373707 0.142602
0.101001 0.377877 0.137275
0.108505 0.381547 0.131840
0.120587 0.386606 0.127304
0.137923 0.393064 0.123822
0.158389 0.400862 0.122660
0.184583 0.412648 0.122324
0.283302 0.457802 0.135661
0.550580 0.574008 0.208682
0.711867 0.616835 0.234943
0.775644 0.606809 0.217429
0.802481 0.577370 0.195287
0.813941 0.574571 0.193847
0.820587 0.574007 0.193526
0.826897 0.570326 0.192881
0.085010 0.388015 0.157098
0.093538 0.395579 0.152801
0.100332 0.399483 0.147191
0.107133 0.403004 0.141411
0.119679 0.408025 0.136915
0.137661 0.415088 0.133957
0.157520 0.422603 0.133503
0.182784 0.432807 0.132062
0.214163 0.447322 0.130255
0.292875 0.483690 0.137078
0.598095 0.613899 0.221214
0.763992 0.655043 0.247723
0.810425 0.630990 0.217349
0.819752 0.605528 0.199013
0.826991 0.604091 0.198722
0.833409 0.602074 0.199184
0.089964 0.409277 0.164197
0.095966 0.414960 0.159269
0.100274 0.417335 0.153916
0.106083 0.419972 0.148561
0.118994 0.424848 0.144364
0.136763 0.431395 0.141615
0.157670 0.439258 0.140257
0.184175 0.449570 0.138216
0.215268 0.463583 0.136540
0.258845 0.483899 0.135773
0.323913 0.514827 0.142490
0.647881 0.647862 0.233577
0.809038 0.685984 0.258529
0.824252 0.636898 0.211387
0.830610 0.623518 0.203833
0.836701 0.622017 0.204074
0.094714 0.429300 0.170986
0.101614 0.436363 0.167829
0.106133 0.438824 0.163943
0.111648 0.441721 0.160638
0.123710 0.446339 0.154709
0.142660 0.453564 0.152286
0.160499 0.460651 0.149113
0.180691 0.468738 0.145589
0.212191 0.482516 0.143300
0.252552 0.501789 0.142045
0.302526 0.525346 0.144653
0.364579 0.554036 0.155991
0.695481 0.680479 0.244222
0.844505 0.708737 0.268225
0.833244 0.650705 0.213726
0.838314 0.644729 0.211334
0.056131 0.090055 0.124258
0.079937 0.091325 0.121179
0.107854 0.089328 0.122564
0.150786 0.099986 0.124780
0.198427 0.115135 0.124894
0.252246 0.130592 0.117528
0.313258 0.148568 0.109881
0.371934 0.171168 0.108621
0.427681 0.195456 0.110136
0.475567 0.216434 0.112950
0.513132 0.231564 0.117981
0.544478 0.243173 0.122608
0.571889 0.253755 0.125784
0.596005 0.263453 0.129387
0.614815 0.274541 0.129988
0.632034 0.288594 0.131462
0.055685 0.096868 0.120552
0.079847 0.103351 0.127767
0.115237 0.104122 0.124401
0.164534 0.117568 0.128385
0.221534 0.133331 0.122247
0.280947 0.147464 0.111484
0.339635 0.165205 0.106661
0.393620 0.186390 0.107110
0.443952 0.208630 0.109761
0.486984 0.226440 0.114781
0.522321 0.240556 0.120593
0.553225 0.251686 0.124610
0.580588 0.262265 0.127925
0.604040 0.271126 0.131186
0.620811 0.281069 0.130947
0.635792 0.291872 0.132223
0.054633 0.105889 0.118226
0.073666 0.112890 0.124919
0.118017 0.121635 0.131865
0.185838 0.139383 0.131177
0.253599 0.151457 0.109222
0.318048 0.167161 0.096224
0.370506 0.183585 0.093792
0.419880 0.203307 0.098701
0.463774 0.221307 0.107691
0.499261 0.234860 0.115831
0.529478 0.246300 0.122083
0.559336 0.256490 0.125571
0.586731 0.267444 0.129372
0.609383 0.275643 0.131816
0.621385 0.281481 0.130316
0.636386 0.291783 0.132166
0.049267 0.134335 0.131409
0.056484 0.138530 0.132780
0.103663 0.145884 0.137145
0.184323 0.161114 0.135216
0.260776 0.176892 0.119201
0.331238 0.197429 0.108327
0.391440 0.218451 0.104792
0.445046 0.239813 0.107428
0.489793 0.257231 0.116611
0.523218 0.265558 0.124015
0.543770 0.262102 0.125696
0.562447 0.259180 0.125422
0.587029 0.267373 0.128681
0.609139 0.275184 0.130732
0.623983 0.284972 0.130524
0.640404 0.296224 0.133068
0.048770 0.158299 0.139911
0.054320 0.159876 0.139007
0.085046 0.166344 0.137462
0.149852 0.184877 0.137327
0.266038 0.205409 0.124228
0.339113 0.217243 0.114088
0.404164 0.240383 0.111000
0.462793 0.266108 0.114194
0.515315 0.293192 0.127443
0.556739 0.313707 0.138601
0.584565 0.319256 0.141693
0.597196 0.304445 0.137391
0.597780 0.279917 0.131153
0.615265 0.282277 0.131457
0.633762 0.297011 0.133317
0.651239 0.308328 0.135959
0.051018 0.179582 0.144634
0.056904 0.181263 0.143635
0.073641 0.184910 0.140369
0.128819 0.203175 0.136952
0.244497 0.242977 0.138133
0.351311 0.252852 0.125694
0.414714 0.261278 0.116159
0.475965 0.287233 0.119968
0.533123 0.318210 0.135163
0.579530 0.342763 0.146926
0.616485 0.357422 0.152222
0.643697 0.360558 0.152988
0.648939 0.340165 0.146549
0.631717 0.301895 0.135729
0.646250 0.311320 0.136630
0.664512 0.322665 0.139528
0.054640 0.202730 0.148126
0.060929 0.204497 0.147254
0.070440 0.206586 0.145469
0.116921 0.223988 0.137144
0.214337 0.263471 0.139780
0.353424 0.307746 0.152454
0.431385 0.302427 0.132108
0.489254 0.311733 0.126676
0.548918 0.341483 0.141749
0.598078 0.366940 0.153399
0.640092 0.384039 0.159385
0.676049 0.392922 0.161579
0.699200 0.391101 0.159842
0.683468 0.359663 0.149725
0.662276 0.328722 0.140993
0.678765 0.337534 0.143474
0.059861 0.227519 0.151409
0.066224 0.229804 0.150172
0.072869 0.232049 0.149186
0.106782 0.244549 0.138678
0.189466 0.280274 0.136966
0.330572 0.336228 0.157920
0.449595 0.370529 0.172798
0.509034 0.355317 0.143999
0.563553 0.366684 0.148758
0.616171 0.391456 0.159512
0.661757 0.410449 0.165324
0.703667 0.422424 0.168455
0.730142 0.427093 0.168011
0.730699 0.416791 0.163454
0.696921 0.366404 0.150379
0.693654 0.352979 0.147043
0.066052 0.252663 0.153045
0.071934 0.255785 0.151237
0.079776 0.260571 0.148326
0.098090 0.267809 0.140808
0.158354 0.294274 0.132935
0.293055 0.353505 0.150950
0.433458 0.405661 0.178779
0.535578 0.433120 0.190162
0.583866 0.411302 0.163855
0.635111 0.421303 0.166897
0.682927 0.437674 0.170859
0.727126 0.450413 0.174219
0.751937 0.458561 0.175073
0.760720 0.457943 0.173964
0.756698 0.441945 0.169492
0.721648 0.385392 0.155183
0.070800 0.280640 0.147160
0.077266 0.285205 0.144003
0.089599 0.293252 0.138045
0.102081 0.298973 0.132114
0.122139 0.307511 0.126715
0.220798 0.350374 0.132256
0.387813 0.423462 0.168420
0.516983 0.470086 0.195870
0.611705 0.490098 0.202413
0.654504 0.464529 0.178798
0.702454 0.468009 0.177614
0.748196 0.478665 0.180035
0.771147 0.489462 0.181830
0.782115 0.493098 0.182183
0.787504 0.489550 0.181162
0.780424 0.464679 0.175083
0.077467 0.307980 0.142626
0.085272 0.314402 0.137917
0.096548 0.323475 0.130450
0.105566 0.328606 0.124588
0.116259 0.333973 0.119961
0.142256 0.344863 0.117853
0.258214 0.396807 0.135802
0.447293 0.480678 0.184286
0.589122 0.527061 0.210995
0.677806 0.537472 0.212926
0.718056 0.510217 0.189051
0.767089 0.512591 0.187675
0.786335 0.517710 0.187816
0.798311 0.523241 0.188547
0.805582 0.524057 0.188551
0.807826 0.513941 0.186064
0.083717 0.337632 0.143957
0.091460 0.345719 0.140936
0.100888 0.354862 0.135793
0.108774 0.359217 0.130898
0.117176 0.363668 0.126260
0.130798 0.369260 0.122308
0.154686 0.378773 0.121242
0.261234 0.427002 0.139904
0.492920 0.529167 0.201189
0.654983 0.577680 0.229113
0.732855 0.579586 0.222032
0.774689 0.550836 0.196032
0.798234 0.547760 0.194502
0.808547 0.549658 0.194102
0.815542 0.550517 0.194092
0.821668 0.547193 0.193097
0.085967 0.367014 0.156611
0.093024 0.374199 0.153533
0.102045 0.382363 0.148546
0.109647 0.386169 0.143486
0.117285 0.389905 0.138287
0.131509 0.395445 0.134155
0.151147 0.402561 0.131936
0.176109 0.412501 0.130937
0.263524 0.452082 0.140098
0.538950 0.574223 0.212838
0.713417 0.621853 0.241299
0.780241 0.614559 0.225786
0.806255 0.583363 0.200708
0.817436 0.579899 0.199313
0.824043 0.579079 0.199000
0.830366 0.575326 0.198204
0.086655 0.391048 0.167968
0.093403 0.396929 0.163729
0.101796 0.404424 0.158935
0.108378 0.407922 0.153279
0.115662 0.410983 0.147488
0.131063 0.416849 0.143174
0.150746 0.424195 0.142019
0.176158 0.433821 0.140654
0.207099 0.447136 0.138777
0.278985 0.480473 0.143187
0.590603 0.615200 0.226198
0.766631 0.659832 0.253252
0.813203 0.635626 0.222247
0.822998 0.609704 0.203945
0.829810 0.608203 0.203842
0.836190 0.606584 0.204346
0.091033 0.412218 0.176949
0.097238 0.417812 0.171269
0.103067 0.422962 0.165974
0.107855 0.425111 0.160471
0.115334 0.428097 0.155753
0.131243 0.433838 0.151967
0.152235 0.441792 0.150425
0.178267 0.451635 0.148429
0.208771 0.464322 0.146327
0.250933 0.483855 0.144729
0.314166 0.513875 0.149436
0.643853 0.650418 0.238786
0.812240 0.690143 0.263682
0.826738 0.640271 0.215059
0.832858 0.627216 0.208064
0.839116 0.625523 0.208146
0.094920 0.431058 0.185233
0.103186 0.439609 0.180199
0.108804 0.444829 0.176198
0.113731 0.447614 0.172381
0.121509 0.451142 0.168072
0.138763 0.457545 0.164219
0.156495 0.464462 0.160894
0.174986 0.471780 0.156903
0.206412 0.484498 0.154290
0.245257 0.502302 0.152088
0.294222 0.525151 0.152742
0.354085 0.552775 0.161382
0.693690 0.683730 0.248665
0.846991 0.712860 0.273837
0.835736 0.654615 0.218337
0.840424 0.648285 0.215321
0.048675 0.100635 0.153548
0.064833 0.101332 0.150164
0.095178 0.105174 0.148116
0.130050 0.105102 0.149369
0.179200 0.113482 0.147035
0.229185 0.131036 0.146273
0.286784 0.152803 0.146253
0.355400 0.178338 0.144167
0.421428 0.206547 0.146886
0.477204 0.229569 0.146330
0.523379 0.248565 0.145184
0.560269 0.264733 0.144849
0.588617 0.273682 0.140579
0.609536 0.277868 0.139564
0.624562 0.282429 0.139307
0.634974 0.288519 0.136749
0.048551 0.108775 0.150661
0.061399 0.112588 0.158688
0.095734 0.117565 0.156231
0.138636 0.120047 0.154334
0.193020 0.130837 0.152860
0.245472 0.148788 0.152152
0.308048 0.172794 0.151864
0.377055 0.196172 0.148896
0.438935 0.219474 0.148939
0.491511 0.241076 0.147988
0.535384 0.259510 0.147258
0.570696 0.274416 0.145534
0.598213 0.281960 0.141563
0.618740 0.286467 0.141413
0.631891 0.290249 0.140783
0.641606 0.295444 0.137712
0.048177 0.116607 0.147781
0.058173 0.122141 0.155001
0.090629 0.132780 0.167888
0.146530 0.142033 0.167423
0.214275 0.159942 0.167279
0.280047 0.179215 0.158861
0.352397 0.199539 0.150728
0.416483 0.219855 0.147496
0.468031 0.238973 0.146224
0.510689 0.256332 0.147295
0.546416 0.269353 0.147259
0.578519 0.281233 0.144411
0.605688 0.288223 0.142269
0.625433 0.292471 0.142649
0.637203 0.295676 0.141631
0.644669 0.298398 0.137732
0.048944 0.128876 0.147481
0.055417 0.134425 0.153459
0.082930 0.145979 0.164951
0.144170 0.163904 0.180178
0.236451 0.186585 0.177159
0.318304 0.202698 0.155428
0.388674 0.219964 0.143193
0.445085 0.237622 0.137618
0.490924 0.255741 0.136256
0.528771 0.271654 0.139881
0.558326 0.280815 0.142586
0.585331 0.287171 0.143231
0.610810 0.292296 0.142479
0.630265 0.296257 0.143392
0.639102 0.297613 0.141349
0.645871 0.299247 0.137261
0.049040 0.158461 0.165063
0.054472 0.164950 0.169317
0.068746 0.172102 0.171016
0.118840 0.184423 0.175123
0.233698 0.211280 0.177302
0.326092 0.231684 0.169189
0.404125 0.252892 0.155967
0.467808 0.275843 0.152131
0.519077 0.298202 0.150786
0.555331 0.309931 0.148821
0.578414 0.306955 0.145951
0.595129 0.297052 0.142878
0.612216 0.293280 0.141631
0.630291 0.296105 0.142519
0.637877 0.296934 0.140034
0.651643 0.306184 0.138518
0.052943 0.192504 0.181432
0.059234 0.195616 0.181004
0.067986 0.196443 0.177324
0.103764 0.205242 0.173701
0.189390 0.233568 0.175866
0.331072 0.263491 0.171958
0.413062 0.275543 0.161932
0.480894 0.302267 0.158239
0.540207 0.331974 0.158509
0.585287 0.352647 0.161464
0.619383 0.362449 0.163309
0.640204 0.354648 0.159238
0.637918 0.322852 0.148876
0.631060 0.296812 0.141667
0.643190 0.303753 0.140818
0.664082 0.319964 0.141760
0.057903 0.219923 0.187869
0.063845 0.221146 0.185331
0.070057 0.221379 0.182397
0.094855 0.226594 0.175396
0.166219 0.253529 0.172166
0.300928 0.301175 0.182087
0.423979 0.316412 0.173958
0.491253 0.325980 0.162829
0.553914 0.353895 0.163094
0.604123 0.377690 0.167412
0.645894 0.393358 0.171778
0.680092 0.398134 0.171132
0.697042 0.388610 0.167245
0.672088 0.343078 0.153238
0.658040 0.320845 0.144189
0.679111 0.335976 0.145880
0.063445 0.244146 0.192203
0.069074 0.245172 0.188926
0.074391 0.246037 0.186107
0.088628 0.247797 0.179189
0.151262 0.271507 0.167624
0.262705 0.317062 0.175693
0.420242 0.370781 0.200506
0.508462 0.372078 0.180681
