example_ofxGpuLutCube/bin/data/ofxGpuLutCube/LUT/C8 (clear warm_1).cube
LUT_3D_SIZE 6
0.064359 0.068579 0.070941
0.193622 0.098848 0.056363
0.328993 0.132099 0.063346
0.447737 0.174095 0.085702
0.558322 0.241711 0.108829
0.626962 0.286420 0.124696
0.058621 0.127225 0.086534
0.212195 0.154655 0.072087
0.396424 0.211599 0.076176
0.528871 0.276017 0.110569
0.581403 0.266712 0.115272
0.638609 0.299668 0.127123
0.059748 0.190703 0.100380
0.159885 0.236660 0.096170
0.440643 0.288465 0.094355
0.590206 0.353635 0.132954
0.696459 0.391538 0.148927
0.678751 0.341905 0.137455
0.073755 0.277778 0.110566
0.106754 0.293391 0.102846
0.429463 0.433291 0.153108
0.644748 0.448997 0.162565
0.758804 0.477610 0.170385
0.774053 0.461701 0.166433
0.085304 0.364491 0.136266
0.109160 0.377493 0.119818
0.166859 0.401023 0.113619
0.562705 0.573927 0.204489
0.798186 0.570743 0.188797
0.823060 0.564878 0.186748
0.093751 0.427175 0.160003
0.112498 0.437362 0.148315
0.165165 0.457795 0.138225
0.260751 0.502363 0.132747
0.698530 0.677692 0.239872
0.836033 0.640481 0.206191
0.048675 0.100635 0.153548
0.130050 0.105102 0.149369
0.286784 0.152803 0.146253
0.477204 0.229569 0.146330
0.588617 0.273682 0.140579
0.634974 0.288519 0.136749
0.048944 0.128876 0.147481
0.144170 0.163904 0.180178
0.388674 0.219964 0.143193
0.528771 0.271654 0.139881
0.610810 0.292296 0.142479
0.645871 0.299247 0.137261
0.057903 0.219923 0.187869
0.094855 0.226594 0.175396
0.423979 0.316412 0.173958
0.604123 0.377690 0.167412
0.697042 0.388610 0.167245
0.679111 0.335976 0.145880
0.074010 0.294368 0.192113
0.090058 0.302269 0.179990
0.328447 0.403379 0.179365
0.656468 0.475033 0.194310
0.778151 0.496328 0.189637
0.782851 0.465171 0.178387
0.087704 0.370273 0.168179
0.110608 0.390695 0.154611
0.144746 0.405272 0.141645
0.526664 0.574319 0.216656
0.809735 0.588747 0.204885
0.833327 0.579679 0.202443
0.096578 0.434082 0.198584
0.116591 0.453620 0.185321
0.152952 0.468675 0.173142
0.239461 0.503810 0.162245
0.693633 0.686938 0.253252
0.842170 0.651851 0.219402
0.051841 0.144158 0.230602
0.077189 0.146715 0.216774
0.196372 0.175755 0.219748
0.447314 0.234637 0.191463
0.627854 0.322647 0.221739
0.707868 0.326131 0.203075
0.050898 0.172090 0.235051
0.079410 0.194441 0.261909
0.249104 0.241531 0.264525
0.518209 0.310457 0.246091
0.668658 0.352707 0.237248
0.731707 0.352562 0.209051
0.053040 0.203016 0.240313
0.078011 0.228901 0.262558
0.270890 0.333520 0.340562
0.638733 0.425262 0.328791
0.729251 0.392637 0.249832
0.740747 0.368091 0.204483
0.090236 0.340459 0.332677
0.105641 0.350634 0.324463
0.169918 0.375229 0.300753
0.683758 0.535408 0.311107
0.821332 0.539425 0.253613
0.790594 0.459937 0.199437
0.113594 0.420285 0.312504
0.119209 0.421683 0.282610
0.132590 0.430572 0.253050
0.445019 0.560797 0.241391
0.820599 0.606260 0.219835
0.840682 0.593742 0.214078
0.106598 0.452547 0.248121
0.117624 0.463025 0.229684
0.143821 0.481949 0.210911
0.225476 0.512742 0.192157
0.690197 0.697135 0.271147
0.847187 0.662429 0.231298
0.065225 0.215825 0.326557
0.088853 0.213606 0.301297
0.117553 0.216980 0.285376
0.413322 0.282648 0.249288
0.607847 0.325258 0.249700
0.729523 0.339575 0.318536
0.065834 0.236532 0.332769
0.089886 0.250019 0.345428
0.123434 0.249700 0.316710
0.459747 0.325366 0.286012
0.654969 0.361330 0.295780
0.778210 0.377341 0.363759
0.067066 0.257155 0.337899
0.088053 0.279629 0.360610
0.142045 0.319035 0.401064
0.538467 0.449945 0.455118
0.709455 0.400362 0.359518
0.818161 0.422163 0.423547
0.075728 0.299779 0.354952
0.094786 0.322804 0.375560
0.131606 0.362944 0.411714
0.617153 0.624862 0.594086
0.868919 0.664179 0.575555
0.865049 0.519309 0.503782
0.164490 0.478260 0.478582
0.186413 0.503908 0.493833
0.204553 0.524335 0.506780
0.282833 0.573656 0.507981
0.866354 0.705239 0.397228
0.883548 0.679766 0.353144
0.146510 0.508645 0.383792
0.145858 0.507427 0.357587
0.151645 0.511639 0.334080
0.193761 0.536579 0.281398
0.673725 0.713932 0.306534
0.857226 0.677565 0.249085
0.085494 0.291446 0.419139
0.103117 0.290548 0.405479
0.124609 0.293497 0.396848
0.248769 0.352445 0.439054
0.616692 0.414379 0.487650
0.740236 0.396984 0.482763
0.086270 0.299571 0.421978
0.104186 0.310948 0.434461
0.126367 0.314112 0.422951
0.274005 0.385062 0.477153
0.658854 0.448227 0.534025
0.770282 0.426685 0.527921
0.090810 0.319144 0.432070
0.103039 0.327359 0.444456
0.130229 0.336766 0.454933
0.296607 0.413633 0.514163
0.694295 0.470213 0.572621
0.790864 0.446665 0.565105
0.101110 0.353413 0.449792
0.119387 0.372800 0.468187
0.142833 0.398186 0.492780
0.377048 0.540661 0.641317
0.793131 0.600968 0.707248
0.822450 0.487427 0.613075
0.135233 0.421366 0.485558
0.158668 0.445976 0.506348
0.180365 0.470738 0.530024
0.225269 0.513881 0.569019
0.859850 0.848378 0.810969
0.912605 0.868664 0.828854
0.211207 0.547847 0.579111
0.232451 0.570847 0.600272
0.249431 0.589790 0.619207
0.270917 0.615075 0.641654
0.455150 0.751098 0.717499
0.914032 0.863698 0.688282
0.105352 0.344831 0.487048
0.113002 0.345679 0.486166
0.133325 0.349085 0.484480
0.179160 0.367723 0.499776
0.570603 0.479772 0.673095
0.745199 0.440904 0.636898
0.107952 0.353586 0.492858
0.119151 0.361575 0.504103
0.134434 0.364905 0.503778
0.197385 0.392479 0.526843
0.626879 0.506700 0.706505
0.771468 0.466054 0.666969
0.110805 0.361217 0.497833
0.122029 0.369488 0.509345
0.132733 0.377682 0.520851
0.209669 0.411894 0.550128
0.670407 0.526529 0.732450
0.793495 0.486552 0.692132
0.116673 0.375936 0.506708
0.127740 0.384245 0.518601
0.138867 0.393805 0.530473
0.194671 0.421324 0.561027
0.708624 0.559198 0.764878
0.822176 0.526695 0.727731
0.155324 0.456289 0.550637
0.175800 0.477630 0.569530
0.194331 0.496764 0.587925
0.215977 0.519614 0.611637
0.845244 0.844162 0.874804
0.898572 0.804355 0.858306
0.188806 0.514178 0.582263
0.210066 0.536393 0.602171
0.227182 0.553233 0.619513
0.246663 0.575595 0.642454
0.287831 0.614346 0.680661
0.915532 0.913662 0.889994
