example_ofxGpuLutCube/bin/data/ofxGpuLutCube/LUT/C9 (cold magenta).cube
LUT_3D_SIZE 6
0.064112 0.114387 0.032670
0.118459 0.120368 0.026928
0.312833 0.137169 0.033125
0.556988 0.132134 0.022226
0.701736 0.135232 0.002953
0.806193 0.138785 0.000202
0.057080 0.113385 0.018124
0.117165 0.128964 0.017428
0.288693 0.154166 0.026088
0.541209 0.171782 0.028372
0.695129 0.179388 0.010688
0.824062 0.237390 0.008465
0.071034 0.146990 0.017324
0.130309 0.172530 0.024338
0.303537 0.215898 0.036352
0.552390 0.246920 0.041026
0.711124 0.274021 0.038538
0.813639 0.310957 0.034727
0.101273 0.223820 0.020585
0.176912 0.257030 0.025140
0.367530 0.324599 0.065925
0.602496 0.353403 0.069642
0.749181 0.400387 0.071839
0.841209 0.431883 0.064338
0.175094 0.349758 0.051216
0.253151 0.375243 0.043482
0.460735 0.443400 0.074432
0.664735 0.478885 0.112584
0.793881 0.526125 0.125154
0.859808 0.534986 0.099832
0.219313 0.423761 0.073659
0.317665 0.464858 0.083528
0.511528 0.520525 0.111415
0.691971 0.573729 0.191904
0.835141 0.623989 0.226757
0.886958 0.611470 0.136529
0.068677 0.149230 0.171580
0.149668 0.166003 0.187880
0.338620 0.181503 0.197962
0.578053 0.182871 0.180381
0.705844 0.164311 0.144894
0.741892 0.099194 0.045405
0.063047 0.153310 0.151068
0.123970 0.172528 0.160253
0.297537 0.197240 0.172840
0.557546 0.218594 0.178058
0.702838 0.226708 0.162547
0.788200 0.229778 0.126100
0.080713 0.191295 0.143771
0.153208 0.225009 0.169807
0.321815 0.263357 0.185585
0.566819 0.301418 0.198666
0.718967 0.323298 0.193064
0.793530 0.322952 0.162663
0.110487 0.271565 0.163270
0.209038 0.318147 0.191839
0.400642 0.377372 0.227899
0.610810 0.416806 0.234727
0.755064 0.454765 0.246617
0.831158 0.462612 0.214500
0.204505 0.429804 0.225519
0.295497 0.454240 0.242472
0.478216 0.505118 0.277257
0.676572 0.564433 0.381398
0.787128 0.580113 0.349894
0.855780 0.579942 0.299833
0.270918 0.523348 0.264287
0.362445 0.545607 0.283021
0.531380 0.593601 0.338308
0.740557 0.691273 0.622982
0.813877 0.673383 0.511945
0.868704 0.644878 0.382415
0.040012 0.192985 0.382502
0.119689 0.222943 0.409945
0.324867 0.265315 0.446479
0.585776 0.292442 0.474769
0.708808 0.283482 0.452500
0.714659 0.201756 0.354774
0.053344 0.222323 0.396423
0.121400 0.246272 0.411224
0.304214 0.293479 0.443936
0.562050 0.337182 0.470892
0.700686 0.333083 0.453979
0.679686 0.198039 0.327795
0.077833 0.285562 0.416454
0.157658 0.323102 0.437766
0.328067 0.368255 0.457273
0.575572 0.437199 0.500115
0.722062 0.450548 0.495891
0.737027 0.345390 0.392664
0.121784 0.392007 0.447300
0.231345 0.445242 0.479309
0.411614 0.488351 0.495389
0.614602 0.543792 0.523384
0.754360 0.579579 0.536770
0.820635 0.562518 0.496889
0.220004 0.559997 0.511617
0.325643 0.582877 0.522755
0.477954 0.601484 0.531500
0.660581 0.645742 0.574247
0.780153 0.678378 0.576986
0.857729 0.691605 0.569735
0.290211 0.653162 0.550248
0.389965 0.665266 0.551977
0.523384 0.676623 0.560004
0.689215 0.695392 0.638968
0.782182 0.721452 0.602942
0.857926 0.742022 0.597958
0.038575 0.305689 0.589168
0.116987 0.357227 0.615320
0.301212 0.408101 0.630016
0.568186 0.448131 0.650037
0.710998 0.476082 0.653725
0.763597 0.462586 0.609768
0.046503 0.353163 0.595836
0.116714 0.391452 0.608724
0.310728 0.448023 0.631099
0.567922 0.506693 0.661506
0.711756 0.526476 0.664128
0.748758 0.464742 0.590876
0.061619 0.425708 0.606536
0.144771 0.471925 0.624438
0.346432 0.534822 0.647537
0.578281 0.592641 0.675408
0.723649 0.615683 0.683959
0.782457 0.580920 0.648031
0.080595 0.519042 0.620802
0.206686 0.575483 0.646313
0.408397 0.626410 0.667381
0.611773 0.686320 0.703324
0.752021 0.717897 0.713633
0.826101 0.730526 0.711454
0.164978 0.656506 0.655146
0.301040 0.687564 0.670749
0.472913 0.713210 0.681742
0.662832 0.771236 0.724755
0.783035 0.800986 0.736806
0.860072 0.813003 0.741333
0.320504 0.769102 0.689907
0.396670 0.760733 0.685318
0.524557 0.772002 0.700441
0.682521 0.816324 0.733475
0.798493 0.843390 0.750324
0.871171 0.857761 0.756926
0.026998 0.457878 0.730434
0.115442 0.511863 0.752584
0.294365 0.566724 0.767269
0.519687 0.608617 0.767380
0.709289 0.647909 0.787390
0.812127 0.662675 0.785357
0.058186 0.520724 0.721540
0.137334 0.560005 0.734558
0.310290 0.602087 0.749353
0.545313 0.657477 0.771602
0.715991 0.686561 0.783263
0.810735 0.689479 0.780046
0.081852 0.605870 0.727058
0.160176 0.628801 0.731253
0.355996 0.676284 0.747759
0.583223 0.725224 0.771273
0.730049 0.748389 0.782413
0.819500 0.753593 0.782080
0.138215 0.665657 0.715753
0.232907 0.700790 0.731096
0.409458 0.747942 0.761002
0.617920 0.793455 0.786825
0.755615 0.825034 0.801431
0.843288 0.839479 0.806218
0.183772 0.754222 0.733895
0.309051 0.778825 0.743214
0.486931 0.807123 0.767898
0.676879 0.851527 0.801701
0.788921 0.873738 0.812478
0.861241 0.884684 0.820528
0.356052 0.848864 0.760099
0.442633 0.842940 0.761503
0.560922 0.849608 0.781566
0.711439 0.885199 0.817452
0.807608 0.897458 0.819748
0.870466 0.908039 0.826219
0.036204 0.583134 0.819568
0.125940 0.622140 0.833942
0.290406 0.665083 0.845300
0.498056 0.705072 0.840662
0.700216 0.742242 0.855218
0.813255 0.751664 0.851778
0.065923 0.639716 0.796433
0.148657 0.668286 0.809043
0.320555 0.698856 0.816507
0.530532 0.735748 0.827310
0.713334 0.763349 0.837091
0.820148 0.775302 0.840574
0.109412 0.706151 0.786262
0.188249 0.725750 0.793052
0.363740 0.753087 0.800817
0.577832 0.789540 0.814204
0.730365 0.817365 0.830740
0.830326 0.830049 0.835958
0.381628 0.784979 0.756073
0.376348 0.788998 0.756713
0.414951 0.810748 0.801725
0.615551 0.837007 0.815898
0.753945 0.871351 0.834574
0.846932 0.887692 0.841230
0.331948 0.834820 0.776967
0.370816 0.836419 0.768383
0.472464 0.847605 0.792894
0.679332 0.881796 0.827179
0.791691 0.898383 0.838315
0.865534 0.906424 0.845702
0.313878 0.878054 0.799845
0.426563 0.882199 0.802665
0.584231 0.889669 0.822121
0.744661 0.912570 0.854071
0.817765 0.918429 0.847462
0.868881 0.918392 0.854558
