example_ofxGpuLutCube/bin/data/ofxGpuLutCube/LUT/C9 (cold magenta).cube
LUT_3D_SIZE 16
0.064112 0.114387 0.032670
0.067960 0.115039 0.029525
0.088515 0.114572 0.031208
0.118459 0.120368 0.026928
0.170970 0.124621 0.026603
0.231757 0.133161 0.027751
0.312833 0.137169 0.033125
0.403226 0.136000 0.033313
0.488786 0.136373 0.028842
0.556988 0.132134 0.022226
0.614370 0.130334 0.015000
0.660008 0.126804 0.004058
0.701736 0.135232 0.002953
0.748622 0.139269 0.002142
0.783487 0.141175 0.007426
0.806193 0.138785 0.000202
0.063485 0.111333 0.035561
0.067941 0.115006 0.028749
0.089960 0.116144 0.028600
0.117157 0.120171 0.023305
0.167967 0.127332 0.027428
0.227481 0.133839 0.028021
0.308610 0.140158 0.029259
0.394506 0.140235 0.030764
0.480716 0.142148 0.030640
0.550417 0.141525 0.022173
0.606358 0.137925 0.019077
0.660111 0.137953 0.008026
0.698136 0.144893 0.003589
0.751878 0.149054 0.006020
0.789861 0.159649 0.011140
0.810543 0.164740 0.000000
0.055346 0.111698 0.023654
0.070465 0.114584 0.024939
0.085483 0.118209 0.024318
0.120381 0.123126 0.019348
0.160338 0.131538 0.021650
0.219764 0.139382 0.024834
0.299832 0.145849 0.027099
0.387397 0.148883 0.031752
0.472920 0.155480 0.028075
0.545387 0.154322 0.026526
0.601008 0.150296 0.021733
0.653145 0.152084 0.009512
0.696833 0.158484 0.007330
0.755930 0.170851 0.006691
0.793965 0.187084 0.008277
0.818429 0.198612 0.003877
0.057080 0.113385 0.018124
0.070448 0.117409 0.014722
0.085847 0.124844 0.018868
0.117165 0.128964 0.017428
0.157208 0.140653 0.020361
0.216649 0.147705 0.024755
0.288693 0.154166 0.026088
0.376931 0.163038 0.026312
0.468311 0.167123 0.030166
0.541209 0.171782 0.028372
0.602693 0.170396 0.026067
0.652582 0.168728 0.017650
0.695129 0.179388 0.010688
0.754557 0.196700 0.010160
0.795089 0.219655 0.011652
0.824062 0.237390 0.008465
0.057225 0.119409 0.014427
0.071378 0.123730 0.018156
0.090936 0.133446 0.018662
0.120958 0.139069 0.019934
0.162047 0.152512 0.025997
0.213401 0.161192 0.021034
0.287858 0.168907 0.026550
0.373012 0.180278 0.028101
0.466630 0.190617 0.032202
0.539218 0.192767 0.030783
0.599442 0.194290 0.029367
0.649372 0.195371 0.025391
0.695016 0.205263 0.020963
0.753695 0.220904 0.018254
0.792700 0.244522 0.019529
0.817313 0.260963 0.015363
0.061038 0.133496 0.017778
0.075060 0.134334 0.018442
0.092993 0.144998 0.018869
0.126339 0.156522 0.025710
0.164288 0.164616 0.024491
0.219917 0.178841 0.024721
0.295183 0.187628 0.032690
0.379510 0.204232 0.032781
0.469821 0.209439 0.033261
0.542577 0.217638 0.034673
0.602842 0.223857 0.033887
0.657696 0.224476 0.031134
0.698513 0.236608 0.027474
0.753700 0.250405 0.028080
0.790201 0.269939 0.031668
0.813403 0.280372 0.023369
0.071034 0.146990 0.017324
0.079549 0.151757 0.017799
0.099558 0.161512 0.021885
0.130309 0.172530 0.024338
0.171324 0.190799 0.029619
0.231653 0.204498 0.035421
0.303537 0.215898 0.036352
0.396354 0.226701 0.040632
0.477078 0.236760 0.041440
0.552390 0.246920 0.041026
0.614681 0.253926 0.040562
0.664792 0.261837 0.041535
0.711124 0.274021 0.038538
0.765260 0.288109 0.041621
0.790597 0.298259 0.039066
0.813639 0.310957 0.034727
0.074486 0.163910 0.017097
0.086941 0.172724 0.017801
0.106739 0.184167 0.023326
0.139904 0.195308 0.025396
0.183711 0.212985 0.029649
0.247095 0.231428 0.039946
0.319537 0.243316 0.042294
0.409890 0.256377 0.046990
0.496447 0.266479 0.047622
0.561655 0.272588 0.044691
0.626116 0.284987 0.046272
0.677182 0.300707 0.049074
0.724158 0.318001 0.050990
0.772108 0.331095 0.052055
0.801412 0.342271 0.053235
0.825643 0.351563 0.050444
0.087200 0.186762 0.018544
0.099785 0.197515 0.017645
0.118231 0.207725 0.022428
0.159210 0.225384 0.030451
0.203106 0.246802 0.039944
0.269155 0.263983 0.051975
0.340215 0.282263 0.057901
0.431432 0.296419 0.060858
0.512639 0.303887 0.057334
0.578947 0.312228 0.057727
0.639673 0.322936 0.056753
0.691423 0.343276 0.062017
0.736767 0.361186 0.063126
0.786611 0.376703 0.062809
0.810937 0.384265 0.056737
0.834078 0.392957 0.055674
0.101273 0.223820 0.020585
0.111747 0.228092 0.017731
0.134232 0.241357 0.020625
0.176912 0.257030 0.025140
0.224481 0.283352 0.035443
0.288756 0.305070 0.055424
0.367530 0.324599 0.065925
0.455872 0.337737 0.069582
0.539783 0.344925 0.070519
0.602496 0.353403 0.069642
0.657744 0.364443 0.067716
0.707743 0.386192 0.078270
0.749181 0.400387 0.071839
0.792989 0.411911 0.068851
0.820069 0.428072 0.069407
0.841209 0.431883 0.064338
0.115950 0.260141 0.023969
0.129952 0.264187 0.020988
0.155165 0.275623 0.023845
0.201567 0.293954 0.029202
0.251852 0.318575 0.038160
0.313516 0.346999 0.054403
0.395197 0.366758 0.071984
0.476758 0.377693 0.075453
0.557373 0.384407 0.078531
0.622796 0.392963 0.077944
0.677402 0.407905 0.083003
0.723119 0.423869 0.084504
0.759641 0.440097 0.083035
0.799767 0.449009 0.079614
0.825463 0.457761 0.075208
0.846150 0.464356 0.073074
0.143224 0.303629 0.031049
0.155934 0.308041 0.028965
0.178129 0.317045 0.030721
0.225270 0.333409 0.032990
0.286146 0.358937 0.046959
0.348753 0.384125 0.053391
0.426207 0.401134 0.072055
0.506067 0.415499 0.082132
0.581318 0.425550 0.086692
0.640992 0.436401 0.090401
0.695637 0.451792 0.098753
0.742700 0.464850 0.104615
0.775938 0.477016 0.098253
0.811353 0.483449 0.090656
0.834263 0.491421 0.088172
0.851047 0.499320 0.088600
0.175094 0.349758 0.051216
0.184745 0.351194 0.043126
0.209527 0.364017 0.045720
0.253151 0.375243 0.043482
0.316807 0.402483 0.048965
0.384696 0.427423 0.063987
0.460735 0.443400 0.074432
0.529700 0.455743 0.087523
0.600612 0.467394 0.098737
0.664735 0.478885 0.112584
0.712493 0.496076 0.122235
0.760371 0.515172 0.132119
0.793881 0.526125 0.125154
0.827268 0.528235 0.108381
0.849154 0.530244 0.102466
0.859808 0.534986 0.099832
0.199050 0.390515 0.062881
0.211696 0.392557 0.061617
0.237370 0.403197 0.061801
0.287722 0.415865 0.061313
0.346197 0.441036 0.065614
0.416009 0.464312 0.076577
0.490108 0.484498 0.090188
0.555492 0.498289 0.105560
0.615043 0.509659 0.119185
0.679103 0.527556 0.146997
0.734021 0.545327 0.168539
0.783598 0.560044 0.175958
0.813848 0.571463 0.161909
0.847588 0.570990 0.136656
0.864148 0.570183 0.122654
0.871316 0.570811 0.114696
0.214594 0.411772 0.072165
0.229374 0.417194 0.070888
0.253093 0.430276 0.074044
0.309135 0.445643 0.076018
0.366366 0.471401 0.084481
0.436070 0.491630 0.095830
0.510236 0.509639 0.106369
0.569118 0.525498 0.116605
0.627353 0.539950 0.140357
0.687285 0.559192 0.175991
0.741176 0.580456 0.210149
0.790625 0.598276 0.223408
0.826870 0.604631 0.198974
0.859546 0.599973 0.164873
0.873196 0.595902 0.139769
0.879302 0.595322 0.127692
0.219313 0.423761 0.073659
0.234731 0.432864 0.074695
0.265277 0.448155 0.082149
0.317665 0.464858 0.083528
0.377430 0.485198 0.092770
0.445509 0.504328 0.103179
0.511528 0.520525 0.111415
0.573451 0.540254 0.127469
0.635366 0.560623 0.153282
0.691971 0.573729 0.191904
0.745869 0.602425 0.234166
0.793185 0.616692 0.249052
0.835141 0.623989 0.226757
0.863629 0.616237 0.177082
0.880416 0.614623 0.148766
0.886958 0.611470 0.136529
0.067545 0.122841 0.065274
0.077654 0.126013 0.062535
0.094256 0.129018 0.059600
0.125945 0.132686 0.061701
0.173572 0.135324 0.055043
0.237012 0.139188 0.055730
0.318478 0.145204 0.059427
0.406490 0.144404 0.058053
0.489207 0.145523 0.056410
0.557875 0.139745 0.047950
0.614956 0.137880 0.040870
0.659280 0.135175 0.033166
0.699712 0.139096 0.019242
0.746407 0.135344 0.004937
0.778764 0.132438 0.002133
0.793966 0.127491 0.001276
0.064125 0.123395 0.061494
0.074668 0.123952 0.056120
0.094912 0.126746 0.056854
0.127970 0.130485 0.055449
0.172203 0.136104 0.056914
0.234731 0.141262 0.055959
0.310726 0.145744 0.054747
0.401833 0.149162 0.053976
0.486285 0.151371 0.053840
0.556102 0.149884 0.050914
0.610006 0.148690 0.045451
0.661594 0.145704 0.035585
0.701049 0.148086 0.023559
0.752343 0.151777 0.011830
0.786312 0.155450 0.007566
0.808686 0.157147 0.000809
0.061311 0.122606 0.054156
0.071221 0.124889 0.048168
0.088969 0.127413 0.048007
0.124644 0.132526 0.049827
0.165965 0.139802 0.051827
0.225727 0.145607 0.052291
0.304101 0.152479 0.054878
0.390660 0.157186 0.057352
0.478698 0.160309 0.055866
0.551579 0.162906 0.053682
0.606607 0.161996 0.048653
0.657692 0.159542 0.041985
0.698006 0.166867 0.031267
0.753638 0.176466 0.023768
0.791779 0.189113 0.017962
0.817447 0.202066 0.011971
0.060544 0.125133 0.045875
0.071751 0.127424 0.040937
0.088727 0.134828 0.045018
0.121047 0.137765 0.045930
0.162637 0.145365 0.047294
0.219083 0.155507 0.049696
0.295281 0.162929 0.052337
0.381262 0.171006 0.054113
0.471524 0.174916 0.057366
0.546121 0.180890 0.059337
0.606231 0.182244 0.054595
0.654382 0.181246 0.045637
0.697971 0.189742 0.038805
0.753903 0.205958 0.032362
0.796583 0.227759 0.032739
0.827337 0.244526 0.029493
0.061187 0.127839 0.037986
0.071623 0.132685 0.038054
0.090658 0.139531 0.043490
0.123743 0.148130 0.048335
0.162259 0.157791 0.047405
0.216917 0.168943 0.051483
0.292315 0.177514 0.053388
0.380721 0.188380 0.056894
0.470757 0.196158 0.057893
0.543520 0.203835 0.059227
0.605627 0.203562 0.059616
0.654220 0.207073 0.053047
0.697964 0.216340 0.049752
0.751785 0.229546 0.041921
0.793365 0.255772 0.045856
0.821260 0.274584 0.043264
0.064125 0.138015 0.039964
0.076993 0.145585 0.040232
0.097317 0.152463 0.042646
0.129477 0.164088 0.047262
0.168498 0.175417 0.053075
0.223436 0.187370 0.055460
0.299663 0.195627 0.054962
0.384494 0.212399 0.062618
0.474388 0.220024 0.064818
0.547114 0.228168 0.064585
0.609864 0.233535 0.064609
0.658373 0.236570 0.056929
0.701866 0.248556 0.054554
0.755038 0.258665 0.052242
0.789960 0.279861 0.055218
0.816511 0.295320 0.053521
0.070562 0.155057 0.039800
0.086023 0.159422 0.038261
0.107031 0.172134 0.043956
0.138033 0.183998 0.049425
0.176014 0.198688 0.059284
0.234721 0.215144 0.059114
0.308593 0.225924 0.062843
0.397922 0.234971 0.064482
0.481125 0.244900 0.068645
0.555605 0.254761 0.066559
0.615598 0.262996 0.068317
0.668167 0.273432 0.068510
0.714382 0.284396 0.067296
0.761525 0.294658 0.068048
0.794350 0.308019 0.066833
0.814506 0.319248 0.058535
0.077655 0.174154 0.041871
0.095950 0.177563 0.038546
0.115982 0.191805 0.045212
0.151232 0.205043 0.053333
0.189151 0.225589 0.059636
0.249615 0.242164 0.063389
0.329327 0.256388 0.072792
0.413731 0.268840 0.075665
0.495939 0.275576 0.073767
0.567555 0.285442 0.073703
0.627142 0.297333 0.075382
0.683905 0.311553 0.076489
0.725710 0.325425 0.079794
0.773302 0.336402 0.079124
0.803358 0.349928 0.079802
0.819497 0.353496 0.070060
0.086674 0.194280 0.040388
0.103501 0.205700 0.044714
0.125314 0.218505 0.049554
0.166441 0.234417 0.056093
0.212556 0.258574 0.065743
0.272880 0.275883 0.074840
0.349820 0.292529 0.083961
0.435780 0.305356 0.083790
0.517248 0.316703 0.087939
0.583884 0.322372 0.085816
0.639846 0.335880 0.085020
0.694225 0.353030 0.090396
0.738870 0.368020 0.088048
0.786156 0.380777 0.086743
0.814648 0.392961 0.082677
0.832572 0.394851 0.079027
0.099185 0.226070 0.044084
0.117037 0.238482 0.046030
0.140549 0.251542 0.051143
0.184666 0.268786 0.055968
0.231786 0.293073 0.066412
0.298152 0.316803 0.082306
0.373335 0.333781 0.091252
0.458103 0.349634 0.098681
0.540343 0.356642 0.099367
0.606245 0.363585 0.098169
0.661224 0.377302 0.098267
0.705300 0.396098 0.103554
0.751233 0.411552 0.101553
0.793393 0.421488 0.100164
0.821186 0.433674 0.095736
0.840809 0.436877 0.091960
0.122693 0.265689 0.050429
0.134353 0.276493 0.052785
0.161556 0.287813 0.054658
0.207979 0.304568 0.059195
0.255019 0.330573 0.069738
0.319509 0.355648 0.086408
0.400576 0.374442 0.099784
0.478576 0.387920 0.105278
0.560692 0.397639 0.106550
0.626030 0.408859 0.106872
0.677988 0.420612 0.108225
0.723866 0.435095 0.116374
0.759435 0.448538 0.114041
0.802224 0.456770 0.108127
0.824578 0.465824 0.103515
0.846166 0.469704 0.101334
0.149692 0.316117 0.064318
0.162379 0.320209 0.060992
0.188984 0.331435 0.064166
0.231571 0.343381 0.064133
0.286468 0.369260 0.076937
0.352570 0.393877 0.089320
0.431297 0.413379 0.102007
0.505189 0.425961 0.111485
0.582651 0.438378 0.121047
0.646944 0.455420 0.131019
0.698665 0.465279 0.132815
0.739108 0.478388 0.138917
0.774950 0.490473 0.131860
0.813216 0.495590 0.121801
0.834415 0.501342 0.118790
0.854374 0.505652 0.115629
0.180449 0.368367 0.079286
0.192898 0.369916 0.078695
0.213442 0.374931 0.079105
0.260225 0.390632 0.079186
0.320496 0.411202 0.083758
0.386132 0.434622 0.096450
0.460697 0.454196 0.109344
0.537821 0.469344 0.126424
0.604266 0.485180 0.148044
0.665365 0.501152 0.170089
0.716746 0.515407 0.180195
0.759937 0.525045 0.181721
0.793306 0.536135 0.168931
0.828519 0.538211 0.151256
0.847478 0.541044 0.140748
0.860208 0.542791 0.136509
0.212136 0.407096 0.098276
0.224413 0.410730 0.096595
0.244992 0.421017 0.095845
0.290694 0.432546 0.096495
0.351057 0.453445 0.103083
0.419615 0.477325 0.113131
0.488661 0.494941 0.127627
0.559512 0.513874 0.148720
0.623310 0.532962 0.182742
0.677912 0.550062 0.225245
0.734911 0.569903 0.259467
0.781899 0.581223 0.262708
0.813310 0.586511 0.228682
0.845807 0.579659 0.187271
0.860402 0.579745 0.165709
0.871687 0.578144 0.152648
0.223740 0.432683 0.105606
0.242284 0.441642 0.107367
0.268241 0.451577 0.111654
0.316095 0.463358 0.111058
0.373878 0.484622 0.118444
0.437884 0.504666 0.126570
0.507319 0.524015 0.139785
0.571985 0.544867 0.167358
0.637427 0.566184 0.218661
0.689712 0.588013 0.282850
0.747061 0.609713 0.330959
0.794168 0.618994 0.327862
0.825754 0.619971 0.277661
0.860853 0.611206 0.223706
0.872292 0.606837 0.191159
0.879798 0.601753 0.169379
0.228704 0.445865 0.103560
0.243632 0.451569 0.104848
0.274680 0.463853 0.117149
0.327069 0.480816 0.124378
0.383312 0.501692 0.126065
0.446971 0.518499 0.133184
0.517591 0.538625 0.149921
0.578847 0.558566 0.180111
0.639569 0.581052 0.233737
0.697941 0.609051 0.313389
0.754388 0.628616 0.366317
0.799444 0.641018 0.365109
0.838708 0.641521 0.312930
0.866287 0.628040 0.243825
0.876305 0.621609 0.201760
0.883064 0.617055 0.182648
0.072966 0.137196 0.114940
0.083159 0.138760 0.110075
0.104149 0.143872 0.112675
0.140810 0.149286 0.113098
0.185055 0.154117 0.114885
0.244497 0.159868 0.114724
0.324558 0.160966 0.111903
0.410287 0.162171 0.108941
0.502706 0.159769 0.105679
0.567590 0.156147 0.095614
0.625653 0.152888 0.091360
0.668935 0.150248 0.083510
0.703740 0.148754 0.066005
0.739003 0.138014 0.045828
0.761541 0.124114 0.023708
0.776757 0.111429 0.006434
0.066860 0.134885 0.103625
0.080097 0.139428 0.104843
0.101611 0.143722 0.109895
0.133345 0.147597 0.106276
0.177904 0.154118 0.107294
0.238785 0.160703 0.107613
0.314930 0.162674 0.106787
0.405586 0.164201 0.106535
0.492918 0.162452 0.103027
0.567924 0.165539 0.099555
0.621452 0.162139 0.094044
0.665630 0.160747 0.083153
0.701489 0.160925 0.073051
0.742049 0.155813 0.053296
0.769862 0.149413 0.036572
0.788982 0.142531 0.020437
0.065620 0.135319 0.096270
0.076653 0.138069 0.096371
0.091890 0.142811 0.097602
0.128891 0.148670 0.099987
0.171828 0.156171 0.101839
0.228050 0.162622 0.105248
0.306690 0.167054 0.107152
0.396656 0.171207 0.104084
0.483657 0.175925 0.104890
0.559495 0.176691 0.097888
0.616128 0.177168 0.091746
0.663391 0.173905 0.087534
0.703773 0.180215 0.078434
0.748412 0.184888 0.065056
0.782781 0.189702 0.055226
0.805139 0.190616 0.042898
0.064251 0.139045 0.088766
0.075291 0.139329 0.088446
0.091024 0.146258 0.090935
0.124146 0.153002 0.092589
0.161745 0.160203 0.097143
0.221149 0.169730 0.101586
0.295056 0.176896 0.103402
0.382996 0.185667 0.102330
0.476988 0.190558 0.101929
0.552614 0.196493 0.100849
0.613337 0.197862 0.097006
0.662073 0.198955 0.096199
0.702283 0.205466 0.088051
0.752226 0.219153 0.078907
0.791294 0.235072 0.075395
0.815022 0.245101 0.066876
0.067080 0.144485 0.081835
0.079583 0.148849 0.087126
0.096837 0.152524 0.086827
0.127539 0.160562 0.091556
0.163199 0.174339 0.095428
0.218309 0.183927 0.097722
0.292691 0.192530 0.104124
0.379303 0.201953 0.101908
0.472940 0.211606 0.104876
0.548047 0.222057 0.105788
0.607618 0.224188 0.104422
0.659046 0.225143 0.101373
0.701006 0.233664 0.092505
0.751073 0.246134 0.086230
0.789313 0.265307 0.086719
0.815787 0.279329 0.085068
0.070018 0.153302 0.080111
0.085628 0.158440 0.085062
0.104327 0.166522 0.087795
0.137284 0.177381 0.093390
0.171530 0.192172 0.100636
0.223844 0.203041 0.100865
0.298124 0.215303 0.107856
0.383973 0.223889 0.107766
0.475749 0.235283 0.111115
0.551945 0.245395 0.107759
0.612002 0.251105 0.106219
0.664906 0.253993 0.106201
0.705659 0.261291 0.099895
0.751932 0.274920 0.097670
0.787332 0.289847 0.099009
0.810833 0.296735 0.091960
0.073412 0.167537 0.078604
0.088990 0.175622 0.083739
0.108885 0.187958 0.091998
0.145930 0.199040 0.097818
0.186581 0.214089 0.102662
0.242650 0.228675 0.106592
0.314604 0.241265 0.109777
0.405239 0.252546 0.117538
0.487709 0.262827 0.116748
0.559395 0.271428 0.115939
0.623718 0.281229 0.117580
0.669723 0.292997 0.115418
0.714565 0.302692 0.112520
0.758759 0.306809 0.105896
0.789258 0.318104 0.105524
0.810868 0.323354 0.101073
0.081937 0.188311 0.083861
0.099799 0.196988 0.088404
0.119990 0.210026 0.093607
0.161176 0.225194 0.102340
0.202046 0.243967 0.111735
0.263305 0.258403 0.117498
0.339065 0.271729 0.119203
0.420112 0.284756 0.123336
0.502202 0.293617 0.124390
0.570603 0.305461 0.124640
0.632649 0.315754 0.128123
0.684255 0.330036 0.129749
0.726377 0.340160 0.123933
0.773012 0.348451 0.120353
0.798538 0.354806 0.117200
0.816548 0.359886 0.112846
0.091439 0.211884 0.083497
0.108684 0.221591 0.086865
0.136097 0.237797 0.095644
0.176103 0.253660 0.104901
0.224232 0.275791 0.117136
0.284482 0.293903 0.125492
0.361895 0.310184 0.130033
0.442688 0.324677 0.135274
0.524007 0.334614 0.139603
0.590208 0.344976 0.140253
0.644812 0.356195 0.138094
0.691742 0.370141 0.140334
0.738284 0.386352 0.140674
0.783794 0.392700 0.133638
0.809230 0.400824 0.130590
0.824391 0.404921 0.122892
0.102987 0.242803 0.087637
0.120114 0.254733 0.090912
0.150894 0.268141 0.098310
0.194525 0.287699 0.110186
0.247393 0.311398 0.121107
0.311662 0.333504 0.134733
0.386409 0.351390 0.143775
0.468922 0.366304 0.150816
0.547922 0.378023 0.154304
0.608941 0.388222 0.153399
0.667022 0.399295 0.153036
0.712437 0.415181 0.159240
0.752721 0.427631 0.154859
0.794722 0.436072 0.149989
0.818679 0.445211 0.144719
0.836845 0.447548 0.139085
0.125211 0.292077 0.101372
0.142690 0.297551 0.100919
0.169075 0.310525 0.106404
0.216702 0.325554 0.114613
0.274436 0.346847 0.128746
0.338807 0.371625 0.146330
0.413821 0.391430 0.157097
0.492598 0.405384 0.161073
0.565914 0.419828 0.168086
0.627119 0.429814 0.167039
0.681460 0.443704 0.170195
0.727146 0.456973 0.176973
0.762413 0.467807 0.174662
0.801489 0.472941 0.166276
0.828153 0.482360 0.165250
0.844224 0.483126 0.154763
0.157815 0.338080 0.117300
0.174134 0.345078 0.117631
0.196617 0.354154 0.121816
0.244492 0.367625 0.123336
0.301060 0.387694 0.138576
0.368983 0.410693 0.154541
0.439803 0.430828 0.165266
0.514743 0.451925 0.178607
0.588611 0.463456 0.189741
0.646234 0.476124 0.197268
0.697264 0.489148 0.202869
0.739791 0.498756 0.207794
0.776825 0.509247 0.202465
0.813471 0.511819 0.190210
0.834491 0.517954 0.182451
0.851623 0.520293 0.174462
0.193002 0.394626 0.138875
0.206926 0.396797 0.137862
0.226849 0.404192 0.142548
0.274736 0.414944 0.143332
0.329511 0.434847 0.150859
0.395685 0.456570 0.164851
0.468833 0.474346 0.177859
0.542256 0.494621 0.201322
0.609525 0.513404 0.237056
0.668310 0.529392 0.267873
0.719975 0.544772 0.283588
0.759543 0.550838 0.276580
0.791404 0.555267 0.250291
0.824450 0.554487 0.222542
0.848829 0.556654 0.211888
0.857736 0.558549 0.200718
0.223335 0.437708 0.157149
0.238439 0.443571 0.156645
0.258665 0.451252 0.158438
0.302845 0.456532 0.159901
0.359910 0.478282 0.169463
0.425509 0.497485 0.179959
0.498128 0.518738 0.200293
0.566683 0.540547 0.237943
0.635166 0.568058 0.300752
0.689096 0.589844 0.362826
0.740992 0.605348 0.390982
0.776227 0.607573 0.375801
0.808408 0.605077 0.328467
0.840522 0.595034 0.275779
0.857837 0.593118 0.248790
0.867602 0.593519 0.236006
0.242424 0.468105 0.164316
0.260516 0.472141 0.169330
0.288965 0.479603 0.174939
0.328976 0.493304 0.177292
0.386382 0.509312 0.186781
0.445347 0.528698 0.193993
0.514665 0.545197 0.218876
0.583248 0.572646 0.266405
0.653710 0.605041 0.358571
0.705830 0.632462 0.441761
0.753129 0.648063 0.481126
0.791351 0.649086 0.453469
0.822227 0.640752 0.391947
0.854657 0.627453 0.324081
0.864801 0.618973 0.280346
0.875169 0.614434 0.254643
0.252954 0.482036 0.168904
0.265982 0.485709 0.170487
0.295917 0.494558 0.177991
0.344179 0.510085 0.186751
0.395793 0.526173 0.199067
0.455072 0.545166 0.204161
0.524328 0.563063 0.227193
0.595778 0.592371 0.288253
0.662111 0.624190 0.390536
0.715401 0.657233 0.487942
0.762699 0.672842 0.534131
0.798058 0.670237 0.500495
0.828876 0.662052 0.431517
0.858202 0.644802 0.348440
0.869441 0.633174 0.299970
0.878731 0.630014 0.276946
0.068677 0.149230 0.171580
0.081916 0.153793 0.176496
0.104198 0.162048 0.183263
0.149668 0.166003 0.187880
0.197914 0.179767 0.191612
0.256655 0.179429 0.197498
0.338620 0.181503 0.197962
0.423620 0.183899 0.192284
0.510435 0.185095 0.188773
0.578053 0.182871 0.180381
0.632822 0.177137 0.167334
0.671424 0.172500 0.159508
0.705844 0.164311 0.144894
0.728681 0.140853 0.109463
0.737516 0.118240 0.074939
0.741892 0.099194 0.045405
0.066444 0.147592 0.164868
0.079904 0.153179 0.169571
0.100290 0.159367 0.173917
0.141112 0.166940 0.179546
0.187592 0.175086 0.187339
0.247344 0.179427 0.191328
0.328214 0.182784 0.190109
0.415942 0.189108 0.191568
0.501974 0.188385 0.182375
0.573392 0.188233 0.176709
0.630983 0.186744 0.170252
0.671672 0.184786 0.167603
0.703032 0.177214 0.147509
0.733002 0.159725 0.121420
0.747914 0.142396 0.089705
0.753659 0.128156 0.064161
0.064529 0.153894 0.162078
0.076575 0.153932 0.163169
0.097106 0.159021 0.164943
0.128004 0.166635 0.170744
0.176050 0.175535 0.172937
0.233991 0.184265 0.175664
0.311469 0.189283 0.179280
0.402731 0.192847 0.180189
0.490428 0.197827 0.181559
0.564653 0.200080 0.175752
0.621248 0.202156 0.172372
0.665843 0.199134 0.168731
0.704858 0.198405 0.152547
0.740325 0.193338 0.133360
0.758406 0.185221 0.112670
0.770674 0.177584 0.095143
0.063047 0.153310 0.151068
0.075518 0.158678 0.155347
0.094134 0.162945 0.155446
0.123970 0.172528 0.160253
0.166466 0.181031 0.167286
0.220928 0.188675 0.169379
0.297537 0.197240 0.172840
0.386531 0.204394 0.174920
0.479319 0.211517 0.179309
0.557546 0.218594 0.178058
0.615742 0.221089 0.173253
0.665862 0.223818 0.173858
0.702838 0.226708 0.162547
0.742427 0.228141 0.148156
0.767488 0.227320 0.133892
0.788200 0.229778 0.126100
0.069790 0.162305 0.148712
0.077840 0.166557 0.149057
0.097582 0.175713 0.155392
0.128831 0.182382 0.160925
0.163163 0.192418 0.164263
0.217673 0.202264 0.170233
0.294881 0.213928 0.177460
0.382618 0.224592 0.178589
0.477230 0.231984 0.179922
0.551420 0.242193 0.183380
0.618125 0.248115 0.185867
0.665699 0.251868 0.179622
0.702013 0.256792 0.173663
0.745577 0.257546 0.160660
0.767660 0.259750 0.150258
0.784923 0.263713 0.141446
0.073340 0.175226 0.146758
0.084747 0.182692 0.148701
0.105961 0.188809 0.156586
0.138958 0.200306 0.164280
0.174754 0.211846 0.168387
0.227769 0.222730 0.174643
0.301307 0.235456 0.180475
0.388081 0.247183 0.183002
0.481200 0.259611 0.186970
0.556560 0.270068 0.185948
0.622020 0.278422 0.189671
0.667334 0.283127 0.187847
0.704317 0.288594 0.179325
0.747844 0.289075 0.167598
0.772141 0.287803 0.155989
0.789405 0.289593 0.150836
0.080713 0.191295 0.143771
0.093241 0.198116 0.149334
0.114595 0.210812 0.156779
0.153208 0.225009 0.169807
0.192532 0.237318 0.178818
0.248968 0.254697 0.186724
0.321815 0.263357 0.185585
0.408505 0.277725 0.194874
0.489630 0.286572 0.192383
0.566819 0.301418 0.198666
0.627894 0.308870 0.196124
0.676228 0.321707 0.201199
0.718967 0.323298 0.193064
0.754930 0.324236 0.179550
0.777249 0.321708 0.168787
0.793530 0.322952 0.162663
0.086403 0.210724 0.149396
0.104336 0.220364 0.156936
0.128720 0.236668 0.165549
0.170175 0.250851 0.177367
0.215668 0.269904 0.188337
0.273812 0.284071 0.196212
0.346098 0.297159 0.200818
0.427852 0.311447 0.204297
