example_ofxGpuLutCube/bin/data/ofxGpuLutCube/LUT/Drone collection-104.cube
#Generated by Picture Instruments - Look Creator
TITLE "PX-680--"
LUT_3D_SIZE 17
0 0.113725 0.121569
0 0.117647 0.12549
0 0.109804 0.121569
0.0156863 0.105882 0.12549
0.141176 0.0980392 0.121569
0.231373 0.0823529 0.12549
0.309804 0.0392157 0.121569
0.384314 0 0.121569
0.47451 0 0.12549
0.568627 0 0.12549
0.654902 0.137255 0.12549
0.721569 0.231373 0.133333
0.776471 0.321569 0.137255
0.811765 0.4 0.145098
0.843137 0.462745 0.160784
0.870588 0.509804 0.168627
0.894118 0.545098 0.184314
0 0.109804 0.121569
0 0.109804 0.121569
0 0.109804 0.121569
0.054902 0.109804 0.121569
0.14902 0.105882 0.121569
0.235294 0.0941176 0.121569
0.313725 0.0745098 0.121569
0.392157 0.0313725 0.121569
0.478431 0.00392157 0.12549
0.576471 0.0823529 0.12549
0.658824 0.160784 0.12549
0.72549 0.25098 0.129412
0.772549 0.337255 0.133333
0.815686 0.411765 0.14902
0.843137 0.470588 0.156863
0.870588 0.517647 0.172549
0.894118 0.552941 0.188235
0 0.113725 0.12549
0 0.117647 0.12549
0 0.121569 0.12549
0.0784314 0.133333 0.12549
0.164706 0.129412 0.121569
0.243137 0.117647 0.121569
0.317647 0.105882 0.12549
0.392157 0.0980392 0.12549
0.486275 0.0980392 0.12549
0.580392 0.133333 0.12549
0.658824 0.2 0.129412
0.72549 0.278431 0.133333
0.772549 0.356863 0.133333
0.819608 0.423529 0.14902
0.843137 0.482353 0.156863
0.87451 0.52549 0.172549
0.898039 0.556863 0.184314
0 0.14902 0.129412
0 0.152941 0.129412
0 0.160784 0.129412
0.0705882 0.176471 0.12549
0.180392 0.188235 0.12549
0.258824 0.172549 0.121569
0.32549 0.14902 0.12549
0.4 0.145098 0.121569
0.490196 0.156863 0.12549
0.588235 0.188235 0.129412
0.666667 0.243137 0.129412
0.729412 0.313725 0.129412
0.776471 0.388235 0.133333
0.811765 0.447059 0.141176
0.847059 0.498039 0.156863
0.870588 0.537255 0.172549
0.894118 0.564706 0.180392
0 0.207843 0.137255
0 0.215686 0.141176
0 0.223529 0.137255
0.054902 0.231373 0.137255
0.164706 0.243137 0.133333
0.27451 0.254902 0.129412
0.341176 0.239216 0.129412
0.415686 0.227451 0.129412
0.501961 0.215686 0.121569
0.588235 0.247059 0.121569
0.670588 0.298039 0.12549
0.729412 0.356863 0.121569
0.776471 0.415686 0.129412
0.815686 0.466667 0.137255
0.843137 0.517647 0.156863
0.87451 0.552941 0.164706
0.894118 0.584314 0.188235
0 0.266667 0.152941
0 0.270588 0.156863
0 0.278431 0.152941
0.0745098 0.286275 0.152941
0.156863 0.294118 0.14902
0.25098 0.305882 0.145098
0.364706 0.321569 0.141176
0.443137 0.321569 0.137255
0.52549 0.321569 0.133333
0.603922 0.329412 0.12549
0.670588 0.34902 0.117647
0.729412 0.4 0.117647
0.772549 0.45098 0.121569
0.815686 0.498039 0.137255
0.843137 0.537255 0.145098
0.878431 0.576471 0.168627
0.898039 0.596078 0.180392
0 0.321569 0.172549
0 0.32549 0.172549
0.0431373 0.329412 0.176471
0.113725 0.337255 0.176471
0.176471 0.345098 0.168627
0.254902 0.356863 0.168627
0.345098 0.372549 0.164706
0.470588 0.407843 0.152941
0.54902 0.411765 0.145098
0.619608 0.427451 0.133333
0.682353 0.439216 0.12549
0.733333 0.458824 0.121569
0.776471 0.486275 0.113725
0.815686 0.529412 0.129412
0.843137 0.564706 0.141176
0.87451 0.596078 0.160784
0.898039 0.615686 0.180392
0.0862745 0.372549 0.192157
0.0980392 0.380392 0.192157
0.12549 0.384314 0.196078
0.164706 0.392157 0.192157
0.215686 0.4 0.188235
0.278431 0.419608 0.188235
0.360784 0.435294 0.184314
0.454902 0.454902 0.176471
0.576471 0.498039 0.160784
0.639216 0.509804 0.152941
0.694118 0.521569 0.141176
0.745098 0.537255 0.137255
0.780392 0.552941 0.129412
0.811765 0.564706 0.121569
0.847059 0.592157 0.137255
0.87451 0.619608 0.156863
0.898039 0.639216 0.168627
0.160784 0.439216 0.203922
0.168627 0.443137 0.207843
0.180392 0.447059 0.207843
0.219608 0.454902 0.211765
0.262745 0.466667 0.203922
0.317647 0.478431 0.203922
0.388235 0.494118 0.2
0.470588 0.513725 0.192157
0.560784 0.533333 0.180392
0.662745 0.572549 0.168627
0.713725 0.588235 0.160784
0.756863 0.6 0.152941
0.788235 0.611765 0.145098
0.819608 0.623529 0.14902
0.847059 0.635294 0.14902
0.878431 0.647059 0.152941
0.898039 0.658824 0.160784
0.211765 0.509804 0.215686
0.223529 0.513725 0.219608
0.239216 0.517647 0.219608
0.266667 0.517647 0.219608
0.305882 0.529412 0.215686
0.352941 0.541176 0.211765
0.419608 0.552941 0.211765
0.494118 0.568627 0.207843
0.572549 0.588235 0.196078
0.647059 0.603922 0.192157
0.721569 0.639216 0.180392
0.764706 0.654902 0.172549
0.796078 0.662745 0.176471
0.823529 0.670588 0.164706
0.854902 0.678431 0.172549
0.882353 0.690196 0.176471
0.905882 0.694118 0.176471
0.270588 0.580392 0.223529
0.282353 0.580392 0.227451
0.290196 0.584314 0.227451
0.313725 0.584314 0.227451
0.352941 0.592157 0.223529
0.407843 0.603922 0.223529
0.462745 0.611765 0.219608
0.52549 0.623529 0.215686
0.592157 0.639216 0.215686
0.658824 0.65098 0.207843
0.713725 0.666667 0.203922
0.768627 0.690196 0.2
0.803922 0.705882 0.2
0.831373 0.713725 0.196078
0.854902 0.721569 0.2
0.882353 0.72549 0.207843
0.905882 0.733333 0.215686
0.337255 0.647059 0.235294
0.345098 0.647059 0.239216
0.352941 0.647059 0.235294
0.372549 0.647059 0.235294
0.407843 0.654902 0.235294
0.454902 0.658824 0.235294
0.501961 0.666667 0.235294
0.564706 0.67451 0.231373
0.615686 0.682353 0.231373
0.67451 0.694118 0.231373
0.721569 0.705882 0.223529
0.760784 0.717647 0.231373
0.803922 0.733333 0.231373
0.839216 0.74902 0.231373
0.866667 0.756863 0.235294
0.894118 0.764706 0.25098
0.913725 0.768627 0.258824
0.403922 0.701961 0.247059
0.411765 0.701961 0.25098
0.415686 0.701961 0.247059
0.435294 0.705882 0.25098
0.466667 0.701961 0.254902
0.501961 0.709804 0.25098
0.545098 0.713725 0.25098
0.6 0.721569 0.254902
0.643137 0.72549 0.25098
0.690196 0.733333 0.254902
0.733333 0.741176 0.258824
0.764706 0.74902 0.258824
0.8 0.764706 0.266667
0.835294 0.776471 0.270588
0.87451 0.792157 0.290196
0.898039 0.8 0.301961
0.913725 0.803922 0.309804
0.478431 0.752941 0.27451
0.482353 0.74902 0.27451
0.490196 0.74902 0.27451
0.501961 0.74902 0.27451
0.521569 0.74902 0.278431
0.556863 0.752941 0.278431
0.592157 0.752941 0.282353
0.635294 0.756863 0.286275
0.670588 0.764706 0.286275
0.709804 0.772549 0.294118
0.737255 0.776471 0.294118
0.768627 0.784314 0.301961
0.8 0.792157 0.305882
0.835294 0.803922 0.313725
0.870588 0.815686 0.32549
0.898039 0.839216 0.341176
0.913725 0.843137 0.34902
0.556863 0.796078 0.313725
0.556863 0.792157 0.313725
0.560784 0.792157 0.313725
0.572549 0.788235 0.317647
0.588235 0.792157 0.321569
0.611765 0.792157 0.32549
0.639216 0.792157 0.32549
0.666667 0.8 0.32549
0.701961 0.8 0.333333
0.729412 0.807843 0.337255
0.756863 0.815686 0.341176
0.784314 0.823529 0.345098
0.811765 0.835294 0.356863
0.839216 0.847059 0.364706
0.866667 0.85098 0.368627
0.894118 0.866667 0.380392
0.913725 0.894118 0.4
0.627451 0.839216 0.368627
0.623529 0.835294 0.364706
0.631373 0.831373 0.364706
0.639216 0.831373 0.368627
0.647059 0.835294 0.372549
0.666667 0.835294 0.376471
0.686275 0.839216 0.380392
0.705882 0.843137 0.380392
0.729412 0.85098 0.388235
0.74902 0.854902 0.396078
0.772549 0.862745 0.403922
0.796078 0.870588 0.407843
0.823529 0.882353 0.415686
0.847059 0.890196 0.419608
0.870588 0.901961 0.427451
0.890196 0.913725 0.435294
0.909804 0.921569 0.439216
0.686275 0.890196 0.427451
0.686275 0.882353 0.423529
0.690196 0.882353 0.423529
0.694118 0.886275 0.427451
0.701961 0.886275 0.431373
0.713725 0.886275 0.435294
0.72549 0.894118 0.439216
0.741176 0.898039 0.443137
0.760784 0.905882 0.45098
0.776471 0.913725 0.454902
0.792157 0.921569 0.462745
0.815686 0.929412 0.470588
0.839216 0.937255 0.47451
0.862745 0.945098 0.482353
0.87451 0.94902 0.490196
0.898039 0.952941 0.501961
0.917647 0.956863 0.505882
0 0.113725 0.129412
0 0.109804 0.12549
0 0.109804 0.133333
0.0352941 0.105882 0.133333
0.152941 0.101961 0.141176
0.239216 0.0941176 0.141176
0.313725 0.0862745 0.145098
0.392157 0.0862745 0.14902
0.478431 0.0901961 0.152941
0.576471 0.12549 0.156863
0.654902 0.188235 0.156863
0.729412 0.266667 0.164706
0.780392 0.345098 0.168627
0.815686 0.415686 0.172549
0.847059 0.470588 0.180392
0.87451 0.517647 0.196078
0.898039 0.552941 0.203922
0 0.109804 0.133333
0 0.109804 0.133333
0 0.109804 0.133333
0.0705882 0.113725 0.137255
0.160784 0.109804 0.141176
0.243137 0.105882 0.145098
0.317647 0.101961 0.145098
0.396078 0.105882 0.14902
0.486275 0.113725 0.156863
0.580392 0.14902 0.156863
0.666667 0.211765 0.160784
0.729412 0.286275 0.168627
0.776471 0.352941 0.168627
0.811765 0.419608 0.176471
0.843137 0.47451 0.180392
0.87451 0.517647 0.192157
0.898039 0.552941 0.203922
0 0.121569 0.141176
0 0.121569 0.141176
0 0.129412 0.137255
0.0941176 0.137255 0.141176
0.176471 0.133333 0.137255
0.25098 0.129412 0.141176
0.32549 0.129412 0.145098
0.403922 0.133333 0.14902
0.494118 0.145098 0.152941
0.584314 0.180392 0.156863
0.666667 0.239216 0.160784
0.729412 0.305882 0.160784
0.780392 0.372549 0.164706
0.815686 0.435294 0.168627
0.843137 0.482353 0.180392
0.87451 0.529412 0.188235
0.894118 0.560784 0.203922
0 0.164706 0.14902
0 0.164706 0.14902
0 0.172549 0.145098
0.0941176 0.184314 0.145098
0.192157 0.192157 0.141176
0.266667 0.180392 0.145098
0.337255 0.168627 0.145098
0.411765 0.172549 0.14902
0.498039 0.192157 0.152941
0.588235 0.223529 0.152941
0.670588 0.27451 0.156863
0.733333 0.337255 0.156863
0.780392 0.396078 0.160784
0.815686 0.454902 0.168627
0.85098 0.501961 0.180392
0.87451 0.541176 0.188235
0.898039 0.572549 0.203922
0 0.219608 0.156863
0 0.227451 0.160784
0 0.231373 0.160784
0.0862745 0.239216 0.156863
0.180392 0.25098 0.156863
0.282353 0.262745 0.14902
0.34902 0.247059 0.14902
0.423529 0.235294 0.14902
0.509804 0.235294 0.14902
0.596078 0.270588 0.152941
0.67451 0.313725 0.152941
0.737255 0.368627 0.152941
0.784314 0.423529 0.156863
0.815686 0.47451 0.164706
0.839216 0.521569 0.172549
0.87451 0.560784 0.188235
0.898039 0.584314 0.203922
0 0.27451 0.168627
0 0.282353 0.168627
0.00392157 0.286275 0.172549
0.109804 0.290196 0.176471
0.180392 0.301961 0.172549
0.266667 0.313725 0.168627
0.372549 0.32549 0.160784
0.45098 0.32549 0.160784
0.529412 0.329412 0.152941
0.603922 0.337255 0.14902
0.67451 0.364706 0.145098
0.737255 0.411765 0.145098
0.780392 0.462745 0.152941
0.815686 0.501961 0.160784
0.843137 0.545098 0.176471
0.870588 0.576471 0.180392
0.898039 0.603922 0.203922
0.0156863 0.329412 0.188235
0.0627451 0.333333 0.188235
0.0980392 0.333333 0.192157
0.145098 0.341176 0.192157
0.2 0.34902 0.188235
0.27451 0.364706 0.188235
0.360784 0.376471 0.180392
0.478431 0.411765 0.176471
0.552941 0.419608 0.168627
0.623529 0.431373 0.160784
0.686275 0.443137 0.14902
0.737255 0.458824 0.141176
0.780392 0.490196 0.141176
0.815686 0.533333 0.14902
0.847059 0.564706 0.164706
0.878431 0.6 0.184314
0.898039 0.619608 0.196078
0.117647 0.384314 0.203922
0.129412 0.388235 0.207843
0.152941 0.392157 0.207843
0.188235 0.4 0.203922
0.235294 0.407843 0.203922
0.294118 0.423529 0.2
0.376471 0.439216 0.196078
0.462745 0.458824 0.196078
0.584314 0.501961 0.176471
0.647059 0.513725 0.168627
0.701961 0.52549 0.160784
0.745098 0.541176 0.152941
0.784314 0.552941 0.152941
0.811765 0.564706 0.14902
0.843137 0.596078 0.152941
0.878431 0.619608 0.176471
0.898039 0.643137 0.188235
0.172549 0.443137 0.215686
0.184314 0.45098 0.215686
0.203922 0.454902 0.219608
0.231373 0.458824 0.219608
0.27451 0.47451 0.215686
0.329412 0.486275 0.211765
0.396078 0.498039 0.207843
0.482353 0.517647 0.207843
0.564706 0.537255 0.196078
0.666667 0.576471 0.184314
0.713725 0.592157 0.172549
0.760784 0.603922 0.168627
0.792157 0.615686 0.164706
0.819608 0.627451 0.164706
0.847059 0.635294 0.156863
0.878431 0.643137 0.164706
0.901961 0.658824 0.176471
0.223529 0.509804 0.223529
0.235294 0.517647 0.227451
0.25098 0.517647 0.223529
0.27451 0.52549 0.227451
0.309804 0.533333 0.223529
0.368627 0.545098 0.227451
0.431373 0.560784 0.219608
0.505882 0.572549 0.215686
0.576471 0.588235 0.207843
0.65098 0.607843 0.2
0.72549 0.643137 0.192157
0.768627 0.654902 0.188235
0.8 0.666667 0.184314
0.827451 0.670588 0.184314
0.85098 0.682353 0.184314
0.882353 0.690196 0.188235
0.901961 0.694118 0.192157
0.282353 0.580392 0.231373
0.290196 0.580392 0.231373
0.298039 0.584314 0.235294
0.317647 0.588235 0.235294
0.360784 0.596078 0.231373
0.407843 0.603922 0.231373
0.466667 0.615686 0.227451
0.529412 0.627451 0.227451
0.596078 0.639216 0.227451
0.658824 0.654902 0.219608
0.713725 0.670588 0.215686
0.772549 0.694118 0.211765
0.803922 0.709804 0.215686
0.827451 0.713725 0.211765
0.858824 0.721569 0.219608
0.886275 0.72549 0.223529
0.905882 0.729412 0.223529
0.337255 0.643137 0.239216
0.345098 0.647059 0.239216
0.360784 0.643137 0.243137
0.380392 0.647059 0.243137
0.411765 0.65098 0.243137
0.454902 0.662745 0.239216
0.509804 0.666667 0.239216
0.564706 0.67451 0.239216
0.619608 0.686275 0.239216
0.678431 0.698039 0.243137
0.72549 0.705882 0.243137
0.764706 0.717647 0.239216
0.807843 0.737255 0.243137
0.843137 0.752941 0.25098
0.866667 0.760784 0.254902
0.894118 0.764706 0.258824
0.913725 0.764706 0.266667
0.396078 0.698039 0.25098
0.407843 0.698039 0.254902
0.419608 0.701961 0.254902
0.439216 0.701961 0.254902
0.466667 0.705882 0.258824
0.501961 0.709804 0.258824
0.54902 0.713725 0.258824
0.6 0.721569 0.258824
0.647059 0.729412 0.262745
0.690196 0.733333 0.262745
0.72549 0.741176 0.266667
0.768627 0.752941 0.270588
0.8 0.760784 0.27451
0.839216 0.780392 0.290196
0.870588 0.796078 0.294118
0.898039 0.8 0.305882
0.913725 0.803922 0.313725
0.470588 0.741176 0.27451
0.478431 0.745098 0.278431
0.490196 0.745098 0.27451
0.505882 0.74902 0.282353
0.521569 0.745098 0.286275
0.556863 0.74902 0.286275
0.596078 0.756863 0.294118
0.627451 0.760784 0.290196
0.670588 0.764706 0.294118
0.709804 0.768627 0.301961
0.741176 0.780392 0.301961
0.772549 0.788235 0.313725
0.803922 0.796078 0.321569
0.839216 0.803922 0.321569
0.866667 0.823529 0.337255
0.901961 0.843137 0.352941
0.917647 0.847059 0.360784
0.54902 0.788235 0.313725
0.552941 0.788235 0.313725
0.560784 0.788235 0.317647
0.572549 0.788235 0.317647
0.588235 0.792157 0.32549
0.611765 0.792157 0.333333
0.639216 0.792157 0.32549
0.666667 0.8 0.329412
0.698039 0.807843 0.341176
0.729412 0.811765 0.345098
0.756863 0.815686 0.34902
0.784314 0.823529 0.352941
0.811765 0.831373 0.360784
0.839216 0.843137 0.372549
0.866667 0.85098 0.380392
0.894118 0.870588 0.388235
0.913725 0.890196 0.403922
0.619608 0.831373 0.364706
0.623529 0.831373 0.364706
0.631373 0.831373 0.368627
0.639216 0.831373 0.372549
0.647059 0.835294 0.376471
0.666667 0.835294 0.380392
0.686275 0.839216 0.388235
0.709804 0.847059 0.392157
0.729412 0.85098 0.392157
0.74902 0.854902 0.396078
0.772549 0.862745 0.407843
0.796078 0.870588 0.415686
0.823529 0.882353 0.419608
0.85098 0.894118 0.427451
0.870588 0.901961 0.431373
0.894118 0.913725 0.439216
0.905882 0.921569 0.447059
0.686275 0.890196 0.423529
0.690196 0.886275 0.423529
0.690196 0.886275 0.427451
0.694118 0.886275 0.431373
0.705882 0.890196 0.435294
0.717647 0.890196 0.439216
0.729412 0.898039 0.447059
0.745098 0.901961 0.45098
0.756863 0.909804 0.454902
0.780392 0.913725 0.458824
0.796078 0.921569 0.470588
0.819608 0.929412 0.47451
0.839216 0.937255 0.478431
0.862745 0.941176 0.486275
0.878431 0.952941 0.498039
0.898039 0.952941 0.501961
0.917647 0.956863 0.509804
0 0.109804 0.156863
0 0.109804 0.156863
0 0.109804 0.152941
0.00784314 0.105882 0.156863
0.14902 0.0980392 0.164706
0.243137 0.109804 0.176471
0.321569 0.141176 0.184314
0.396078 0.156863 0.196078
0.486275 0.168627 0.196078
0.580392 0.196078 0.2
0.662745 0.239216 0.2
0.733333 0.301961 0.203922
0.780392 0.364706 0.207843
0.815686 0.427451 0.203922
0.847059 0.482353 0.219608
0.878431 0.52549 0.227451
0.894118 0.552941 0.239216
0 0.109804 0.164706
0 0.109804 0.164706
0 0.117647 0.160784
0.0666667 0.117647 0.168627
0.168627 0.121569 0.176471
0.25098 0.145098 0.188235
0.321569 0.156863 0.192157
0.403922 0.168627 0.196078
0.494118 0.180392 0.2
0.584314 0.207843 0.2
0.670588 0.254902 0.2
0.729412 0.317647 0.203922
0.780392 0.376471 0.207843
0.811765 0.435294 0.207843
0.847059 0.490196 0.215686
0.870588 0.529412 0.219608
0.894118 0.556863 0.231373
0 0.129412 0.168627
0 0.133333 0.172549
0 0.141176 0.176471
0.105882 0.14902 0.180392
0.184314 0.156863 0.184314
0.258824 0.164706 0.180392
0.329412 0.172549 0.184314
0.407843 0.184314 0.192157
0.498039 0.2 0.196078
0.592157 0.227451 0.196078
0.670588 0.27451 0.196078
0.737255 0.333333 0.203922
0.776471 0.392157 0.2
0.815686 0.447059 0.203922
0.843137 0.498039 0.215686
0.87451 0.533333 0.223529
0.894118 0.560784 0.235294
0 0.180392 0.180392
0 0.184314 0.184314
0 0.188235 0.188235
0.117647 0.196078 0.184314
0.203922 0.2 0.180392
0.27451 0.196078 0.180392
0.341176 0.2 0.184314
0.419608 0.211765 0.188235
0.505882 0.231373 0.192157
0.596078 0.258824 0.192157
0.67451 0.305882 0.196078
0.733333 0.356863 0.192157
0.780392 0.411765 0.2
0.815686 0.466667 0.207843
0.847059 0.509804 0.207843
0.870588 0.54902 0.219608
0.894118 0.576471 0.227451
0 0.235294 0.196078
0 0.239216 0.188235
0.0509804 0.243137 0.196078
0.121569 0.247059 0.188235
0.203922 0.258824 0.188235
0.290196 0.266667 0.192157
0.356863 0.258824 0.188235
0.431373 0.25098 0.184314
0.521569 0.266667 0.188235
0.6 0.298039 0.188235
0.67451 0.341176 0.188235
0.733333 0.388235 0.192157
0.784314 0.439216 0.192157
0.815686 0.486275 0.2
0.847059 0.529412 0.207843
0.87451 0.560784 0.219608
0.898039 0.588235 0.227451
0.0235294 0.290196 0.2
0.0705882 0.290196 0.2
0.101961 0.294118 0.207843
0.145098 0.301961 0.2
0.207843 0.309804 0.203922
0.282353 0.317647 0.2
0.384314 0.333333 0.196078
0.454902 0.337255 0.192157
0.533333 0.341176 0.184314
0.611765 0.34902 0.180392
0.678431 0.380392 0.180392
0.737255 0.423529 0.184314
0.780392 0.466667 0.180392
0.811765 0.509804 0.188235
0.843137 0.545098 0.2
0.87451 0.584314 0.211765
0.898039 0.607843 0.227451
0.105882 0.337255 0.211765
0.12549 0.341176 0.215686
0.141176 0.341176 0.211765
0.176471 0.34902 0.215686
0.223529 0.356863 0.215686
0.290196 0.372549 0.211765
0.372549 0.384314 0.207843
0.482353 0.415686 0.203922
0.560784 0.427451 0.196078
0.631373 0.435294 0.188235
0.686275 0.45098 0.176471
0.737255 0.466667 0.172549
0.780392 0.501961 0.180392
0.815686 0.537255 0.184314
0.847059 0.572549 0.196078
0.87451 0.603922 0.207843
0.898039 0.627451 0.223529
0.160784 0.392157 0.223529
0.168627 0.392157 0.223529
0.180392 0.4 0.223529
0.211765 0.403922 0.227451
0.258824 0.415686 0.227451
0.317647 0.427451 0.223529
0.388235 0.447059 0.219608
0.478431 0.462745 0.215686
0.592157 0.505882 0.207843
0.654902 0.517647 0.196078
0.701961 0.529412 0.188235
0.74902 0.541176 0.180392
0.784314 0.556863 0.176471
0.815686 0.564706 0.172549
0.843137 0.596078 0.184314
0.87451 0.623529 0.2
0.901961 0.639216 0.219608
0.2 0.454902 0.231373
0.207843 0.454902 0.231373
0.227451 0.458824 0.231373
0.25098 0.466667 0.239216
0.286275 0.47451 0.231373
0.34902 0.494118 0.231373
0.415686 0.505882 0.227451
0.490196 0.521569 0.219608
0.572549 0.541176 0.215686
0.67451 0.584314 0.207843
0.717647 0.592157 0.196078
0.756863 0.603922 0.192157
0.788235 0.615686 0.188235
0.819608 0.623529 0.188235
0.85098 0.631373 0.188235
0.878431 0.647059 0.192157
0.901961 0.662745 0.211765
0.243137 0.517647 0.235294
0.254902 0.521569 0.235294
0.266667 0.52549 0.239216
0.286275 0.529412 0.239216
0.329412 0.541176 0.243137
0.380392 0.54902 0.239216
0.439216 0.564706 0.231373
0.513725 0.576471 0.231373
0.588235 0.592157 0.223529
0.658824 0.611765 0.219608
0.733333 0.647059 0.211765
0.764706 0.658824 0.207843
0.796078 0.666667 0.211765
0.827451 0.67451 0.207843
0.854902 0.682353 0.207843
0.882353 0.686275 0.211765
0.905882 0.694118 0.215686
0.294118 0.584314 0.243137
0.301961 0.584314 0.243137
0.313725 0.588235 0.243137
0.337255 0.596078 0.25098
0.368627 0.6 0.247059
0.415686 0.607843 0.247059
0.478431 0.619608 0.243137
0.537255 0.635294 0.239216
0.6 0.643137 0.235294
0.666667 0.654902 0.235294
0.717647 0.670588 0.231373
0.772549 0.698039 0.235294
0.807843 0.713725 0.235294
0.831373 0.713725 0.235294
0.858824 0.717647 0.235294
0.886275 0.72549 0.239216
0.909804 0.729412 0.25098
0.345098 0.647059 0.25098
0.356863 0.65098 0.254902
0.368627 0.65098 0.25098
0.388235 0.654902 0.254902
0.415686 0.658824 0.254902
0.462745 0.662745 0.254902
0.517647 0.670588 0.254902
0.568627 0.67451 0.254902
0.623529 0.690196 0.25098
0.678431 0.694118 0.25098
0.721569 0.709804 0.254902
0.764706 0.721569 0.258824
0.803922 0.741176 0.262745
0.839216 0.752941 0.27451
0.870588 0.760784 0.278431
0.886275 0.760784 0.278431
0.909804 0.764706 0.290196
0.407843 0.698039 0.262745
0.419608 0.701961 0.262745
0.431373 0.705882 0.266667
0.443137 0.701961 0.270588
0.47451 0.705882 0.27451
0.509804 0.709804 0.27451
0.556863 0.713725 0.27451
0.603922 0.721569 0.27451
0.647059 0.72549 0.27451
0.694118 0.733333 0.282353
0.733333 0.745098 0.286275
0.764706 0.756863 0.290196
0.8 0.764706 0.298039
0.839216 0.784314 0.305882
0.87451 0.796078 0.321569
0.898039 0.803922 0.32549
0.917647 0.803922 0.333333
0.478431 0.74902 0.290196
0.482353 0.745098 0.290196
0.494118 0.74902 0.286275
0.513725 0.752941 0.294118
0.52549 0.74902 0.298039
0.560784 0.752941 0.298039
0.596078 0.752941 0.301961
0.631373 0.760784 0.301961
0.67451 0.764706 0.309804
0.713725 0.772549 0.313725
0.745098 0.780392 0.321569
0.772549 0.784314 0.32549
0.803922 0.792157 0.333333
0.831373 0.807843 0.341176
0.866667 0.819608 0.34902
0.898039 0.843137 0.364706
0.913725 0.847059 0.372549
0.54902 0.788235 0.321569
0.556863 0.788235 0.32549
0.564706 0.788235 0.329412
0.576471 0.792157 0.32549
0.592157 0.792157 0.329412
0.611765 0.792157 0.337255
0.643137 0.796078 0.345098
0.670588 0.8 0.34902
0.698039 0.803922 0.352941
0.729412 0.811765 0.356863
0.756863 0.811765 0.364706
0.784314 0.823529 0.372549
0.815686 0.835294 0.376471
0.843137 0.847059 0.384314
0.862745 0.854902 0.388235
0.894118 0.870588 0.4
0.913725 0.890196 0.411765
0.623529 0.831373 0.368627
0.627451 0.831373 0.372549
0.635294 0.835294 0.372549
0.643137 0.835294 0.376471
0.65098 0.835294 0.384314
0.670588 0.839216 0.388235
0.690196 0.839216 0.392157
0.709804 0.843137 0.4
0.733333 0.85098 0.403922
0.752941 0.858824 0.407843
0.776471 0.866667 0.415686
0.8 0.87451 0.423529
0.827451 0.882353 0.431373
0.847059 0.894118 0.435294
0.870588 0.905882 0.439216
0.894118 0.913725 0.447059
0.909804 0.92549 0.45098
0.686275 0.886275 0.431373
0.690196 0.886275 0.431373
0.694118 0.886275 0.431373
0.698039 0.890196 0.435294
0.705882 0.890196 0.443137
0.717647 0.890196 0.447059
0.729412 0.894118 0.45098
0.745098 0.901961 0.454902
0.760784 0.909804 0.462745
0.780392 0.913725 0.466667
0.796078 0.92549 0.47451
0.819608 0.929412 0.482353
0.843137 0.937255 0.490196
0.862745 0.945098 0.494118
0.878431 0.952941 0.498039
0.898039 0.952941 0.505882
0.917647 0.956863 0.509804
0.00392157 0.109804 0.207843
0 0.109804 0.207843
0 0.113725 0.207843
0.0666667 0.133333 0.2
0.137255 0.121569 0.207843
0.231373 0.117647 0.207843
0.317647 0.137255 0.215686
0.4 0.176471 0.231373
0.498039 0.215686 0.243137
0.592157 0.243137 0.247059
0.67451 0.278431 0.247059
0.733333 0.333333 0.247059
0.780392 0.388235 0.247059
0.819608 0.443137 0.247059
0.847059 0.494118 0.258824
0.878431 0.537255 0.266667
0.894118 0.564706 0.278431
0 0.121569 0.215686
0 0.121569 0.219608
0 0.133333 0.211765
0.0901961 0.152941 0.211765
0.156863 0.145098 0.211765
0.243137 0.145098 0.215686
0.32549 0.164706 0.219608
0.411765 0.211765 0.239216
0.505882 0.227451 0.243137
0.6 0.254902 0.247059
0.678431 0.294118 0.243137
0.737255 0.345098 0.247059
0.784314 0.4 0.247059
0.819608 0.45098 0.25098
0.847059 0.501961 0.254902
0.87451 0.541176 0.266667
