example_ofxGpuLutCube/bin/data/ofxGpuLutCube/LUT/Drone collection-104.cube
#Generated by Picture Instruments - Look Creator
TITLE "PX-680--"
LUT_3D_SIZE 5
0 0.113725 0.121569
0.141176 0.0980392 0.121569
0.47451 0 0.12549
0.776471 0.321569 0.137255
0.894118 0.545098 0.184314
0 0.207843 0.137255
0.164706 0.243137 0.133333
0.501961 0.215686 0.121569
0.776471 0.415686 0.129412
0.894118 0.584314 0.188235
0.160784 0.439216 0.203922
0.262745 0.466667 0.203922
0.560784 0.533333 0.180392
0.788235 0.611765 0.145098
0.898039 0.658824 0.160784
0.403922 0.701961 0.247059
0.466667 0.701961 0.254902
0.643137 0.72549 0.25098
0.8 0.764706 0.266667
0.913725 0.803922 0.309804
0.686275 0.890196 0.427451
0.701961 0.886275 0.431373
0.760784 0.905882 0.45098
0.839216 0.937255 0.47451
0.917647 0.956863 0.505882
0 0.117647 0.266667
0.184314 0.192157 0.25098
0.494118 0.184314 0.266667
0.784314 0.415686 0.305882
0.894118 0.588235 0.345098
0.00392157 0.258824 0.258824
0.258824 0.282353 0.27451
0.54902 0.329412 0.278431
0.788235 0.470588 0.286275
0.898039 0.615686 0.333333
0.27451 0.482353 0.278431
0.341176 0.501961 0.282353
0.6 0.560784 0.278431
0.792157 0.615686 0.258824
0.901961 0.670588 0.301961
0.439216 0.705882 0.301961
0.498039 0.713725 0.313725
0.658824 0.729412 0.329412
0.803922 0.768627 0.356863
0.913725 0.807843 0.388235
0.694118 0.890196 0.454902
0.709804 0.890196 0.462745
0.764706 0.909804 0.486275
0.839216 0.941176 0.509804
0.917647 0.956863 0.533333
0.156863 0.266667 0.470588
0.384314 0.301961 0.470588
0.65098 0.490196 0.482353
0.776471 0.45098 0.486275
0.890196 0.647059 0.52549
0.219608 0.364706 0.439216
0.368627 0.368627 0.462745
0.662745 0.537255 0.482353
0.784314 0.541176 0.490196
0.894118 0.705882 0.556863
0.341176 0.529412 0.427451
0.454902 0.556863 0.443137
0.686275 0.623529 0.494118
0.807843 0.678431 0.509804
0.898039 0.733333 0.537255
0.568627 0.713725 0.45098
0.627451 0.72549 0.470588
0.698039 0.741176 0.482353
0.815686 0.780392 0.509804
0.913725 0.811765 0.517647
0.709804 0.894118 0.509804
0.721569 0.901961 0.517647
0.768627 0.913725 0.537255
0.843137 0.945098 0.564706
0.917647 0.956863 0.584314
0.466667 0.454902 0.623529
0.592157 0.498039 0.623529
0.745098 0.627451 0.623529
0.831373 0.74902 0.635294
0.878431 0.733333 0.639216
0.494118 0.52549 0.607843
0.568627 0.533333 0.611765
0.741176 0.643137 0.615686
0.835294 0.760784 0.635294
0.882353 0.74902 0.643137
0.439216 0.623529 0.584314
0.52549 0.635294 0.588235
0.729412 0.686275 0.615686
0.847059 0.792157 0.647059
0.894118 0.780392 0.654902
0.572549 0.733333 0.568627
0.615686 0.737255 0.576471
0.72549 0.756863 0.596078
0.847059 0.811765 0.643137
0.909804 0.862745 0.658824
0.698039 0.894118 0.596078
0.721569 0.901961 0.6
0.784314 0.913725 0.615686
0.847059 0.941176 0.635294
0.929412 0.960784 0.67451
0.756863 0.733333 0.752941
0.784314 0.74902 0.752941
0.823529 0.784314 0.74902
0.878431 0.847059 0.752941
0.905882 0.909804 0.756863
0.760784 0.752941 0.756863
0.776471 0.760784 0.756863
0.831373 0.792157 0.756863
0.878431 0.854902 0.752941
0.905882 0.913725 0.756863
0.733333 0.772549 0.756863
0.760784 0.780392 0.756863
0.819608 0.803922 0.760784
0.878431 0.87451 0.756863
0.909804 0.933333 0.764706
0.721569 0.835294 0.764706
0.729412 0.835294 0.768627
0.764706 0.839216 0.764706
0.866667 0.882353 0.776471
0.92549 0.94902 0.780392
0.764706 0.956863 0.772549
0.772549 0.956863 0.772549
0.796078 0.960784 0.776471
0.843137 0.964706 0.780392
0.937255 0.964706 0.788235
