example_ofxGpuLutCube/bin/data/ofxGpuLutCube/LUT/Drone collection-104.cube
#Generated by Picture Instruments - Look Creator
TITLE "PX-680--"
LUT_3D_SIZE 9
0 0.113725 0.121569
0 0.109804 0.121569
0.141176 0.0980392 0.121569
0.309804 0.0392157 0.121569
0.47451 0 0.12549
0.654902 0.137255 0.12549
0.776471 0.321569 0.137255
0.843137 0.462745 0.160784
0.894118 0.545098 0.184314
0 0.113725 0.12549
0 0.121569 0.12549
0.164706 0.129412 0.121569
0.317647 0.105882 0.12549
0.486275 0.0980392 0.12549
0.658824 0.2 0.129412
0.772549 0.356863 0.133333
0.843137 0.482353 0.156863
0.898039 0.556863 0.184314
0 0.207843 0.137255
0 0.223529 0.137255
0.164706 0.243137 0.133333
0.341176 0.239216 0.129412
0.501961 0.215686 0.121569
0.670588 0.298039 0.12549
0.776471 0.415686 0.129412
0.843137 0.517647 0.156863
0.894118 0.584314 0.188235
0 0.321569 0.172549
0.0431373 0.329412 0.176471
0.176471 0.345098 0.168627
0.345098 0.372549 0.164706
0.54902 0.411765 0.145098
0.682353 0.439216 0.12549
0.776471 0.486275 0.113725
0.843137 0.564706 0.141176
0.898039 0.615686 0.180392
0.160784 0.439216 0.203922
0.180392 0.447059 0.207843
0.262745 0.466667 0.203922
0.388235 0.494118 0.2
0.560784 0.533333 0.180392
0.713725 0.588235 0.160784
0.788235 0.611765 0.145098
0.847059 0.635294 0.14902
0.898039 0.658824 0.160784
0.270588 0.580392 0.223529
0.290196 0.584314 0.227451
0.352941 0.592157 0.223529
0.462745 0.611765 0.219608
0.592157 0.639216 0.215686
0.713725 0.666667 0.203922
0.803922 0.705882 0.2
0.854902 0.721569 0.2
0.905882 0.733333 0.215686
0.403922 0.701961 0.247059
0.415686 0.701961 0.247059
0.466667 0.701961 0.254902
0.545098 0.713725 0.25098
0.643137 0.72549 0.25098
0.733333 0.741176 0.258824
0.8 0.764706 0.266667
0.87451 0.792157 0.290196
0.913725 0.803922 0.309804
0.556863 0.796078 0.313725
0.560784 0.792157 0.313725
0.588235 0.792157 0.321569
0.639216 0.792157 0.32549
0.701961 0.8 0.333333
0.756863 0.815686 0.341176
0.811765 0.835294 0.356863
0.866667 0.85098 0.368627
0.913725 0.894118 0.4
0.686275 0.890196 0.427451
0.690196 0.882353 0.423529
0.701961 0.886275 0.431373
0.72549 0.894118 0.439216
0.760784 0.905882 0.45098
0.792157 0.921569 0.462745
0.839216 0.937255 0.47451
0.87451 0.94902 0.490196
0.917647 0.956863 0.505882
0 0.109804 0.156863
0 0.109804 0.152941
0.14902 0.0980392 0.164706
0.321569 0.141176 0.184314
0.486275 0.168627 0.196078
0.662745 0.239216 0.2
0.780392 0.364706 0.207843
0.847059 0.482353 0.219608
0.894118 0.552941 0.239216
0 0.129412 0.168627
0 0.141176 0.176471
0.184314 0.156863 0.184314
0.329412 0.172549 0.184314
0.498039 0.2 0.196078
0.670588 0.27451 0.196078
0.776471 0.392157 0.2
0.843137 0.498039 0.215686
0.894118 0.560784 0.235294
0 0.235294 0.196078
0.0509804 0.243137 0.196078
0.203922 0.258824 0.188235
0.356863 0.258824 0.188235
0.521569 0.266667 0.188235
0.67451 0.341176 0.188235
0.784314 0.439216 0.192157
0.847059 0.529412 0.207843
0.898039 0.588235 0.227451
0.105882 0.337255 0.211765
0.141176 0.341176 0.211765
0.223529 0.356863 0.215686
0.372549 0.384314 0.207843
0.560784 0.427451 0.196078
0.686275 0.45098 0.176471
0.780392 0.501961 0.180392
0.847059 0.572549 0.196078
0.898039 0.627451 0.223529
0.2 0.454902 0.231373
0.227451 0.458824 0.231373
0.286275 0.47451 0.231373
0.415686 0.505882 0.227451
0.572549 0.541176 0.215686
0.717647 0.592157 0.196078
0.788235 0.615686 0.188235
0.85098 0.631373 0.188235
0.901961 0.662745 0.211765
0.294118 0.584314 0.243137
0.313725 0.588235 0.243137
0.368627 0.6 0.247059
0.478431 0.619608 0.243137
0.6 0.643137 0.235294
0.717647 0.670588 0.231373
0.807843 0.713725 0.235294
0.858824 0.717647 0.235294
0.909804 0.729412 0.25098
0.407843 0.698039 0.262745
0.431373 0.705882 0.266667
0.47451 0.705882 0.27451
0.556863 0.713725 0.27451
0.647059 0.72549 0.27451
0.733333 0.745098 0.286275
0.8 0.764706 0.298039
0.87451 0.796078 0.321569
0.917647 0.803922 0.333333
0.54902 0.788235 0.321569
0.564706 0.788235 0.329412
0.592157 0.792157 0.329412
0.643137 0.796078 0.345098
0.698039 0.803922 0.352941
0.756863 0.811765 0.364706
0.815686 0.835294 0.376471
0.862745 0.854902 0.388235
0.913725 0.890196 0.411765
0.686275 0.886275 0.431373
0.694118 0.886275 0.431373
0.705882 0.890196 0.443137
0.729412 0.894118 0.45098
0.760784 0.909804 0.462745
0.796078 0.92549 0.47451
0.843137 0.937255 0.490196
0.878431 0.952941 0.498039
0.917647 0.956863 0.509804
0 0.117647 0.266667
0 0.129412 0.258824
0.184314 0.192157 0.25098
0.305882 0.168627 0.254902
0.494118 0.184314 0.266667
0.686275 0.305882 0.294118
0.784314 0.415686 0.305882
0.85098 0.513725 0.313725
0.894118 0.588235 0.345098
0 0.172549 0.262745
0.0431373 0.180392 0.262745
0.211765 0.227451 0.258824
0.333333 0.215686 0.262745
0.52549 0.25098 0.27451
0.690196 0.337255 0.294118
0.784314 0.431373 0.294118
0.847059 0.521569 0.309804
0.898039 0.592157 0.341176
0.00392157 0.258824 0.258824
0.133333 0.266667 0.262745
0.258824 0.282353 0.27451
0.380392 0.301961 0.27451
0.54902 0.329412 0.278431
0.694118 0.392157 0.278431
0.788235 0.470588 0.286275
0.847059 0.54902 0.305882
0.898039 0.615686 0.333333
0.207843 0.356863 0.270588
0.25098 0.364706 0.278431
0.290196 0.380392 0.278431
0.419608 0.407843 0.278431
0.584314 0.439216 0.266667
0.701961 0.458824 0.258824
0.788235 0.521569 0.266667
0.85098 0.592157 0.286275
0.901961 0.639216 0.321569
0.27451 0.482353 0.278431
0.290196 0.490196 0.27451
0.341176 0.501961 0.282353
0.447059 0.52549 0.278431
0.6 0.560784 0.278431
0.72549 0.6 0.270588
0.792157 0.615686 0.258824
0.847059 0.635294 0.258824
0.901961 0.670588 0.301961
0.337255 0.6 0.286275
0.360784 0.607843 0.286275
0.407843 0.615686 0.294118
0.501961 0.627451 0.294118
0.619608 0.654902 0.298039
0.729412 0.678431 0.301961
0.807843 0.717647 0.309804
0.858824 0.721569 0.313725
0.909804 0.737255 0.32549
0.439216 0.705882 0.301961
0.462745 0.709804 0.313725
0.498039 0.713725 0.313725
0.572549 0.721569 0.32549
0.658824 0.729412 0.329412
0.737255 0.74902 0.345098
0.803922 0.768627 0.356863
0.870588 0.8 0.376471
0.913725 0.807843 0.388235
0.564706 0.792157 0.352941
0.580392 0.792157 0.356863
0.607843 0.796078 0.368627
0.65098 0.796078 0.380392
0.705882 0.803922 0.388235
0.756863 0.819608 0.403922
0.815686 0.839216 0.423529
0.870588 0.858824 0.435294
0.913725 0.894118 0.454902
0.694118 0.890196 0.454902
0.698039 0.886275 0.454902
0.709804 0.890196 0.462745
0.733333 0.898039 0.47451
0.764706 0.909804 0.486275
0.8 0.92549 0.494118
0.839216 0.941176 0.509804
0.882353 0.952941 0.521569
0.917647 0.956863 0.533333
0 0.184314 0.364706
0.133333 0.207843 0.364706
0.305882 0.25098 0.352941
0.431373 0.32549 0.360784
0.529412 0.27451 0.364706
0.701961 0.286275 0.376471
0.8 0.396078 0.384314
0.85098 0.580392 0.45098
0.890196 0.647059 0.47451
0.101961 0.239216 0.34902
0.164706 0.243137 0.34902
0.309804 0.27451 0.356863
0.431373 0.341176 0.356863
0.537255 0.298039 0.360784
0.701961 0.32549 0.380392
0.796078 0.45098 0.396078
0.85098 0.603922 0.458824
0.894118 0.654902 0.478431
0.121569 0.301961 0.341176
0.184314 0.313725 0.34902
0.309804 0.32549 0.360784
0.462745 0.388235 0.364706
0.576471 0.360784 0.372549
0.721569 0.419608 0.388235
0.796078 0.552941 0.431373
0.854902 0.611765 0.45098
0.898039 0.662745 0.466667
0.219608 0.384314 0.337255
0.262745 0.396078 0.341176
0.345098 0.415686 0.356863
0.498039 0.454902 0.380392
0.627451 0.486275 0.384314
0.72549 0.529412 0.392157
0.792157 0.580392 0.403922
0.85098 0.635294 0.423529
0.898039 0.678431 0.454902
0.313725 0.494118 0.341176
0.34902 0.509804 0.352941
0.447059 0.537255 0.372549
0.521569 0.556863 0.376471
0.639216 0.588235 0.384314
0.737255 0.611765 0.380392
0.796078 0.615686 0.372549
0.854902 0.662745 0.4
0.901961 0.694118 0.427451
0.466667 0.623529 0.380392
0.47451 0.631373 0.380392
0.494118 0.639216 0.368627
0.556863 0.647059 0.380392
0.647059 0.670588 0.396078
0.741176 0.694118 0.403922
0.807843 0.717647 0.403922
0.862745 0.72549 0.403922
0.905882 0.729412 0.407843
0.501961 0.713725 0.376471
0.509804 0.717647 0.372549
0.54902 0.721569 0.380392
0.6 0.72549 0.392157
0.67451 0.737255 0.407843
0.745098 0.752941 0.423529
0.803922 0.776471 0.431373
0.866667 0.8 0.447059
0.909804 0.811765 0.45098
0.588235 0.792157 0.4
0.596078 0.792157 0.403922
0.623529 0.796078 0.415686
0.662745 0.796078 0.427451
0.713725 0.803922 0.447059
0.760784 0.819608 0.454902
0.815686 0.835294 0.466667
0.870588 0.858824 0.478431
0.909804 0.898039 0.494118
0.701961 0.894118 0.482353
0.709804 0.894118 0.486275
0.717647 0.894118 0.490196
0.737255 0.901961 0.501961
0.768627 0.909804 0.509804
0.803922 0.92549 0.521569
0.843137 0.941176 0.533333
0.882353 0.956863 0.545098
0.913725 0.956863 0.556863
0.156863 0.266667 0.470588
0.239216 0.27451 0.470588
0.384314 0.301961 0.470588
0.54902 0.372549 0.478431
0.65098 0.490196 0.482353
0.694118 0.427451 0.47451
0.776471 0.45098 0.486275
0.843137 0.556863 0.505882
0.890196 0.647059 0.52549
0.2 0.301961 0.458824
0.239216 0.298039 0.458824
0.380392 0.32549 0.466667
0.541176 0.388235 0.470588
0.65098 0.498039 0.478431
0.694118 0.447059 0.478431
0.784314 0.47451 0.494118
0.843137 0.580392 0.505882
0.890196 0.670588 0.541176
0.219608 0.364706 0.439216
0.270588 0.368627 0.447059
0.368627 0.368627 0.462745
0.552941 0.435294 0.470588
0.662745 0.537255 0.482353
0.709804 0.501961 0.486275
0.784314 0.541176 0.490196
0.85098 0.627451 0.521569
0.894118 0.705882 0.556863
0.247059 0.439216 0.427451
0.286275 0.45098 0.443137
0.364706 0.462745 0.447059
0.537255 0.494118 0.470588
0.678431 0.584314 0.490196
0.729412 0.568627 0.490196
0.8 0.623529 0.509804
0.85098 0.698039 0.545098
0.898039 0.729412 0.560784
0.341176 0.529412 0.427451
0.372549 0.541176 0.435294
0.454902 0.556863 0.443137
0.564706 0.584314 0.466667
0.686275 0.623529 0.494118
0.74902 0.647059 0.501961
0.807843 0.678431 0.509804
0.858824 0.709804 0.52549
0.898039 0.733333 0.537255
0.435294 0.615686 0.423529
0.466667 0.623529 0.427451
0.529412 0.639216 0.447059
0.627451 0.666667 0.470588
0.690196 0.682353 0.482353
0.752941 0.709804 0.498039
0.811765 0.72549 0.498039
0.862745 0.729412 0.490196
0.905882 0.74902 0.505882
0.568627 0.713725 0.45098
0.588235 0.713725 0.458824
0.627451 0.72549 0.470588
0.65098 0.733333 0.470588
0.698039 0.741176 0.482353
0.756863 0.760784 0.501961
0.815686 0.780392 0.509804
0.87451 0.803922 0.513725
0.913725 0.811765 0.517647
0.639216 0.792157 0.47451
0.643137 0.792157 0.47451
0.654902 0.796078 0.47451
0.678431 0.803922 0.478431
0.721569 0.807843 0.494118
0.772549 0.823529 0.509804
0.823529 0.843137 0.521569
0.870588 0.870588 0.533333
0.917647 0.901961 0.545098
0.709804 0.894118 0.509804
0.709804 0.898039 0.509804
0.721569 0.901961 0.517647
0.741176 0.905882 0.521569
0.768627 0.913725 0.537255
0.807843 0.929412 0.552941
0.843137 0.945098 0.564706
0.886275 0.952941 0.576471
0.917647 0.956863 0.584314
0.270588 0.329412 0.54902
0.34902 0.34902 0.560784
0.482353 0.380392 0.564706
0.619608 0.45098 0.560784
0.717647 0.560784 0.564706
0.764706 0.65098 0.568627
0.776471 0.603922 0.560784
0.835294 0.627451 0.572549
0.882353 0.670588 0.588235
0.286275 0.356863 0.537255
0.333333 0.360784 0.545098
0.462745 0.392157 0.54902
0.607843 0.458824 0.556863
0.713725 0.564706 0.560784
0.760784 0.65098 0.568627
0.776471 0.611765 0.556863
0.839216 0.635294 0.580392
0.886275 0.686275 0.588235
0.32549 0.431373 0.529412
0.372549 0.435294 0.537255
0.45098 0.435294 0.541176
0.603922 0.494118 0.54902
0.709804 0.588235 0.560784
0.764706 0.670588 0.568627
0.784314 0.639216 0.564706
0.839216 0.654902 0.576471
0.886275 0.709804 0.596078
0.305882 0.498039 0.513725
0.352941 0.505882 0.52549
0.462745 0.517647 0.529412
0.588235 0.541176 0.541176
0.713725 0.623529 0.560784
0.768627 0.694118 0.568627
0.792157 0.67451 0.572549
0.847059 0.694118 0.580392
0.894118 0.737255 0.6
0.380392 0.580392 0.513725
0.411765 0.584314 0.517647
0.478431 0.592157 0.521569
0.572549 0.607843 0.533333
0.705882 0.647059 0.556863
0.776471 0.713725 0.572549
0.803922 0.705882 0.576471
0.862745 0.737255 0.588235
0.894118 0.780392 0.615686
0.482353 0.654902 0.513725
0.498039 0.654902 0.509804
0.556863 0.666667 0.517647
0.627451 0.67451 0.533333
0.705882 0.698039 0.545098
0.776471 0.729412 0.572549
0.823529 0.74902 0.580392
0.866667 0.772549 0.592157
0.901961 0.792157 0.603922
0.517647 0.701961 0.490196
0.537255 0.705882 0.494118
0.584314 0.713725 0.505882
0.654902 0.72549 0.521569
0.733333 0.74902 0.54902
0.772549 0.764706 0.564706
0.827451 0.796078 0.580392
0.87451 0.811765 0.580392
0.909804 0.815686 0.576471
0.635294 0.788235 0.52549
0.65098 0.788235 0.521569
0.678431 0.792157 0.533333
0.717647 0.8 0.545098
0.745098 0.811765 0.545098
0.776471 0.827451 0.556863
0.827451 0.85098 0.576471
0.878431 0.878431 0.588235
0.917647 0.905882 0.6
0.733333 0.894118 0.568627
0.745098 0.894118 0.572549
0.74902 0.901961 0.568627
0.752941 0.905882 0.564706
0.768627 0.917647 0.572549
0.803922 0.929412 0.584314
0.85098 0.945098 0.607843
0.886275 0.956863 0.619608
0.92549 0.964706 0.627451
0.466667 0.454902 0.623529
0.513725 0.470588 0.627451
0.592157 0.498039 0.623529
0.67451 0.552941 0.623529
0.745098 0.627451 0.623529
0.8 0.701961 0.631373
0.831373 0.74902 0.635294
0.843137 0.72549 0.631373
0.878431 0.733333 0.639216
0.458824 0.466667 0.615686
0.498039 0.47451 0.615686
0.576471 0.501961 0.615686
0.666667 0.556863 0.615686
0.745098 0.627451 0.619608
0.8 0.701961 0.623529
0.831373 0.74902 0.635294
0.847059 0.729412 0.635294
0.878431 0.737255 0.643137
0.494118 0.52549 0.607843
0.517647 0.52549 0.607843
0.568627 0.533333 0.611765
0.666667 0.576471 0.615686
0.741176 0.643137 0.615686
0.8 0.713725 0.623529
0.835294 0.760784 0.635294
0.843137 0.737255 0.631373
0.882353 0.74902 0.643137
0.47451 0.572549 0.592157
0.505882 0.572549 0.6
0.588235 0.592157 0.607843
0.654902 0.607843 0.607843
0.741176 0.666667 0.615686
0.807843 0.729412 0.631373
0.839216 0.776471 0.643137
0.85098 0.752941 0.635294
0.886275 0.764706 0.65098
0.439216 0.623529 0.584314
0.466667 0.631373 0.592157
0.52549 0.635294 0.588235
0.635294 0.65098 0.596078
0.729412 0.686275 0.615686
0.8 0.741176 0.627451
0.847059 0.792157 0.647059
0.866667 0.776471 0.65098
0.894118 0.780392 0.654902
0.509804 0.682353 0.576471
0.529412 0.686275 0.580392
0.568627 0.686275 0.584314
0.631373 0.694118 0.588235
0.694118 0.705882 0.6
0.784314 0.74902 0.627451
0.854902 0.807843 0.65098
0.870588 0.8 0.65098
0.901961 0.827451 0.662745
0.572549 0.733333 0.568627
0.592157 0.737255 0.576471
0.615686 0.737255 0.576471
0.666667 0.745098 0.584314
0.72549 0.756863 0.596078
0.780392 0.772549 0.611765
0.847059 0.811765 0.643137
0.882353 0.839216 0.658824
0.909804 0.862745 0.658824
0.576471 0.776471 0.552941
0.584314 0.776471 0.556863
0.607843 0.776471 0.556863
0.666667 0.788235 0.564706
0.72549 0.8 0.580392
0.788235 0.823529 0.607843
0.835294 0.854902 0.627451
0.886275 0.894118 0.647059
0.913725 0.909804 0.65098
0.698039 0.894118 0.596078
0.705882 0.894118 0.6
0.721569 0.901961 0.6
0.74902 0.905882 0.611765
0.784314 0.913725 0.615686
0.807843 0.929412 0.623529
0.847059 0.941176 0.635294
0.886275 0.956863 0.658824
0.929412 0.960784 0.67451
0.639216 0.603922 0.682353
0.662745 0.611765 0.682353
0.698039 0.635294 0.686275
0.741176 0.666667 0.682353
0.780392 0.705882 0.682353
0.823529 0.74902 0.690196
0.862745 0.796078 0.694118
0.882353 0.831373 0.698039
0.886275 0.811765 0.701961
0.635294 0.607843 0.678431
0.658824 0.615686 0.678431
0.690196 0.639216 0.678431
0.733333 0.670588 0.682353
0.780392 0.705882 0.682353
0.823529 0.74902 0.690196
0.862745 0.796078 0.694118
0.882353 0.835294 0.701961
0.886275 0.819608 0.701961
0.647059 0.635294 0.678431
0.662745 0.639216 0.678431
0.686275 0.647059 0.678431
0.733333 0.678431 0.678431
0.780392 0.713725 0.682353
0.827451 0.752941 0.686275
0.862745 0.8 0.698039
0.882353 0.843137 0.705882
0.886275 0.823529 0.705882
0.643137 0.662745 0.67451
0.662745 0.666667 0.67451
0.694118 0.678431 0.67451
0.72549 0.686275 0.678431
0.780392 0.72549 0.682353
0.831373 0.764706 0.694118
0.866667 0.811765 0.698039
0.890196 0.858824 0.713725
0.890196 0.835294 0.705882
0.6 0.690196 0.666667
0.615686 0.690196 0.666667
0.658824 0.698039 0.666667
0.713725 0.713725 0.67451
0.764706 0.733333 0.682353
0.823529 0.776471 0.690196
0.866667 0.823529 0.705882
0.886275 0.87451 0.713725
0.894118 0.854902 0.713725
0.584314 0.729412 0.658824
0.6 0.729412 0.654902
0.623529 0.729412 0.662745
0.662745 0.729412 0.658824
0.733333 0.745098 0.670588
0.807843 0.776471 0.686275
0.866667 0.831373 0.701961
0.890196 0.894118 0.721569
0.894118 0.878431 0.721569
0.627451 0.772549 0.65098
0.635294 0.772549 0.654902
0.658824 0.772549 0.654902
0.682353 0.772549 0.658824
0.721569 0.780392 0.666667
0.768627 0.788235 0.670588
0.85098 0.835294 0.698039
0.898039 0.909804 0.72549
0.909804 0.898039 0.729412
0.654902 0.815686 0.643137
0.666667 0.819608 0.647059
0.678431 0.815686 0.65098
0.705882 0.815686 0.654902
0.737255 0.827451 0.654902
0.784314 0.835294 0.662745
0.835294 0.858824 0.678431
0.890196 0.917647 0.717647
0.921569 0.929412 0.733333
0.670588 0.901961 0.65098
0.682353 0.901961 0.654902
0.690196 0.905882 0.65098
0.705882 0.909804 0.65098
0.737255 0.913725 0.65098
0.788235 0.929412 0.662745
0.843137 0.945098 0.686275
0.886275 0.956863 0.709804
0.937255 0.960784 0.72549
0.756863 0.733333 0.752941
0.764706 0.741176 0.756863
0.784314 0.74902 0.752941
0.803922 0.764706 0.756863
0.823529 0.784314 0.74902
0.858824 0.811765 0.756863
0.878431 0.847059 0.752941
0.898039 0.886275 0.74902
0.905882 0.909804 0.756863
0.760784 0.737255 0.756863
0.764706 0.745098 0.752941
0.776471 0.752941 0.752941
0.803922 0.764706 0.756863
0.827451 0.788235 0.752941
0.858824 0.811765 0.752941
0.878431 0.85098 0.74902
0.894118 0.894118 0.752941
0.909804 0.913725 0.756863
0.760784 0.752941 0.756863
0.760784 0.752941 0.756863
0.776471 0.760784 0.756863
0.8 0.768627 0.756863
0.831373 0.792157 0.756863
0.854902 0.819608 0.752941
0.878431 0.854902 0.752941
0.898039 0.898039 0.756863
0.905882 0.913725 0.756863
0.764706 0.764706 0.756863
0.768627 0.772549 0.752941
0.776471 0.772549 0.756863
0.8 0.780392 0.756863
0.831373 0.8 0.756863
0.854902 0.827451 0.756863
0.882353 0.866667 0.760784
0.901961 0.909804 0.764706
0.909804 0.917647 0.760784
0.733333 0.772549 0.756863
0.737255 0.772549 0.752941
0.760784 0.780392 0.756863
0.796078 0.796078 0.764706
0.819608 0.803922 0.760784
0.854902 0.835294 0.760784
0.878431 0.87451 0.756863
0.905882 0.913725 0.760784
0.909804 0.933333 0.764706
0.705882 0.796078 0.756863
0.713725 0.796078 0.760784
0.72549 0.796078 0.756863
0.756863 0.803922 0.764706
0.8 0.815686 0.760784
0.843137 0.839216 0.768627
0.878431 0.878431 0.768627
0.901961 0.921569 0.764706
0.917647 0.941176 0.772549
0.721569 0.835294 0.764706
0.72549 0.839216 0.768627
0.729412 0.835294 0.768627
0.74902 0.839216 0.768627
0.764706 0.839216 0.764706
0.811765 0.847059 0.772549
0.866667 0.882353 0.776471
0.905882 0.933333 0.772549
0.92549 0.94902 0.780392
0.741176 0.894118 0.768627
0.741176 0.894118 0.768627
0.752941 0.898039 0.768627
0.760784 0.898039 0.768627
0.784314 0.898039 0.772549
0.807843 0.901961 0.772549
0.839216 0.905882 0.780392
0.894118 0.937255 0.780392
0.933333 0.956863 0.788235
0.764706 0.956863 0.772549
0.768627 0.960784 0.776471
0.772549 0.956863 0.772549
0.780392 0.960784 0.776471
0.796078 0.960784 0.776471
0.815686 0.964706 0.776471
0.843137 0.964706 0.780392
0.882353 0.964706 0.788235
0.937255 0.964706 0.788235
