example_ofxGpuLutCube/bin/data/ofxGpuLutCube/LUT/DropBlues.cube
TITLE "16x16x16 Adobe/IRIDAS cube 3D LUT exported with GrossGrade v0.1.027.1 (beta) 64 bit"
DOMAIN_MIN 0 0 0
DOMAIN_MAX 1 1 1
LUT_3D_SIZE 6
0.058899999 0.058899999 0.058899999
0.193040013 0.061219998 0.069040000
0.413380057 0.020279996 0.023459990
0.594420016 0.004679997 0.007799997
0.784319997 0.000000000 0.009360000
0.976599991 0.000000000 0.000000000
0.013260001 0.208660007 0.013259996
0.214900017 0.207860023 0.011700000
0.402460039 0.201620027 0.004679996
0.592079997 0.191480026 0.000000000
0.781199992 0.182020009 0.002339999
0.975820005 0.166220024 0.003900006
0.013260001 0.390580028 0.000000000
0.203960001 0.388900042 0.000000000
0.396140039 0.389020026 0.000000000
0.582720041 0.388120055 0.000000000
0.778079987 0.380320013 0.000000000
0.972700000 0.375640035 0.000000000
0.000000000 0.580380023 0.000000000
0.203180030 0.576440036 0.000000000
0.390580028 0.575660050 0.000000000
0.586620033 0.574100018 0.000000000
0.771839976 0.573320031 0.000000000
0.968699992 0.567080021 0.000000000
0.005460000 0.765599966 0.000000000
0.198500022 0.767159998 0.000000000
0.383440018 0.764819980 0.000000000
0.580359995 0.764819980 0.000000000
0.774179935 0.760140002 0.000000000
0.961479962 0.764039993 0.000000000
0.031300001 0.960699975 0.000000000
0.206260011 0.960699975 0.000000000
0.387340039 0.956799984 0.000000000
0.581120014 0.960699975 0.000000000
0.771059990 0.956019998 0.000000000
0.968699992 0.952899992 0.000000000
0.066700004 0.069040000 0.106780007
0.141180024 0.104200013 0.141180009
0.258120030 0.182840019 0.206300035
0.480039984 0.200840026 0.242280006
0.711339951 0.193040013 0.245460019
0.941119969 0.104280047 0.218020022
0.109899998 0.200840011 0.191480026
0.207080007 0.207080007 0.207080022
0.364660025 0.220360026 0.224260032
0.558439970 0.219580024 0.217240036
0.765539944 0.202420026 0.206320047
0.974199951 0.162300035 0.194600016
0.002340003 0.389680058 0.192260027
0.194600016 0.392140031 0.194600001
0.397680014 0.388120055 0.189920008
0.583500028 0.389680058 0.189140022
0.777300000 0.385000080 0.185980007
0.967899978 0.373300016 0.185180008
0.000000000 0.581940055 0.185200021
0.167780012 0.580380023 0.182740033
0.385780036 0.574100018 0.183620006
0.578819990 0.572539985 0.181240007
0.771839976 0.570199966 0.173240006
0.962339997 0.567079961 0.158380017
0.000000000 0.765599966 0.169340029
0.145100027 0.769499958 0.169340029
0.377200067 0.765599966 0.166220024
0.582700014 0.765599966 0.166220024
0.775739968 0.764039993 0.160760030
0.964719951 0.764819980 0.163880020
0.000000000 0.963820040 0.142740011
0.199999988 0.960699975 0.151320010
0.374860018 0.956799984 0.142740011
0.581939995 0.962260008 0.147460014
0.775739968 0.956799984 0.145100027
0.967000008 0.957579970 0.131040037
0.116140001 0.096460007 0.171740010
0.163920015 0.136440009 0.200000018
0.264300019 0.202340022 0.257280022
0.371020019 0.279180020 0.323940009
0.513779938 0.353780031 0.398440003
0.746019959 0.385900021 0.451040030
0.187520027 0.206300005 0.247900009
0.218020037 0.224260017 0.262800008
0.302699983 0.262800008 0.300360024
0.401559979 0.323180020 0.352980047
0.559219956 0.375640035 0.419620007
0.792139947 0.396100014 0.448520064
0.195320025 0.380320042 0.370960057
0.265919983 0.379540026 0.370960027
0.389020026 0.389020026 0.389020026
0.540380001 0.403240025 0.408700019
0.716080010 0.421180069 0.422740042
0.909780025 0.428240031 0.423560053
0.000000000 0.580380023 0.385000050
0.179620028 0.580380023 0.383440018
0.376420051 0.576440036 0.385000050
0.581160069 0.572539985 0.377980053
0.771839976 0.574099958 0.378760010
0.967060030 0.570199966 0.374080032
0.000000000 0.771059990 0.376420051
0.148260027 0.768719971 0.374080032
0.366220027 0.769499958 0.374860048
0.576440036 0.766380012 0.370940030
0.773400009 0.764819980 0.370960027
0.963039994 0.764039993 0.370180041
0.000000000 0.965499997 0.367060035
0.094120011 0.960699975 0.362320036
0.351400048 0.960699975 0.363880038
0.572540045 0.963899970 0.369340062
0.767159939 0.956019938 0.363880038
0.967840016 0.956799984 0.363100052
0.174920008 0.146620005 0.249500006
0.208580017 0.172580019 0.272119999
0.281640023 0.228200004 0.317580014
0.386620015 0.299640000 0.378039986
0.495799989 0.378100008 0.443140030
0.617940009 0.469040006 0.524720013
0.225800008 0.230500013 0.309780031
0.250239998 0.244700015 0.319279999
0.315260023 0.283140033 0.355299979
0.413320005 0.339660019 0.407860041
0.523119986 0.413320035 0.472920001
0.636179984 0.494839966 0.541940033
0.332560003 0.372520000 0.412600040
0.352959991 0.378760010 0.417280048
0.393680066 0.403240055 0.439180017
0.479260027 0.440000027 0.477699995
0.576539993 0.494900048 0.528600037
0.705159962 0.551420033 0.592200041
0.298080027 0.560059965 0.552260041
0.338860005 0.560059965 0.550659955
0.449360013 0.563180029 0.552260041
0.574880004 0.574880004 0.574880004
0.719980001 0.589740038 0.594419956
0.897899985 0.609420002 0.610320032
0.000000000 0.767159939 0.569419980
0.137180030 0.769499958 0.568639994
0.369360000 0.769499958 0.570199966
0.569420040 0.766379952 0.570199966
0.772619963 0.764039993 0.566299975
0.966279924 0.766380012 0.566300035
0.000000000 0.958359957 0.561619997
0.108960040 0.959139943 0.560059965
0.362320036 0.962339997 0.561619997
0.559279978 0.964600027 0.560840011
0.771059990 0.955239952 0.559279978
0.961480021 0.956799984 0.559280038
0.238460004 0.200000003 0.331739992
0.258099973 0.216380015 0.347420007
0.318420023 0.260400027 0.383560002
0.408580035 0.319200009 0.438400000
0.516079962 0.399979979 0.502039969
0.629719973 0.483860016 0.576539993
0.268240005 0.259600043 0.371019989
0.291720003 0.273759991 0.385899991
0.349779993 0.310620040 0.421139985
0.432940006 0.361599982 0.468219995
0.538839996 0.431440026 0.530140042
0.641639948 0.503600001 0.591420054
0.356119990 0.386680037 0.465860009
0.374860048 0.397680044 0.474539995
0.418840051 0.417280078 0.492560029
0.490220070 0.458000064 0.534060001
0.588240027 0.507500052 0.581220090
0.687100053 0.571740031 0.641539991
0.475260019 0.537259996 0.576459944
0.492620021 0.544320047 0.585840046
0.532560050 0.558499992 0.599159956
0.581920028 0.588959992 0.626700044
0.663500011 0.622020066 0.663499951
0.757659972 0.676800072 0.713680029
0.396860003 0.744239986 0.730120003
0.432839990 0.743459940 0.731740057
0.516080081 0.747420013 0.739560008
0.632939994 0.751320004 0.741119981
0.767940044 0.767939985 0.767939985
0.906780005 0.788220048 0.797580004
0.000000000 0.960699975 0.763260007
0.114540018 0.956799984 0.756159961
0.353740036 0.960700035 0.764039993
0.565519989 0.963080049 0.762479961
0.756160080 0.960699975 0.766380012
0.962300003 0.953679979 0.752099991
0.294000000 0.247099996 0.411700010
0.314579993 0.263579994 0.424980015
0.364720017 0.298020005 0.455720007
0.436839998 0.355200022 0.502759993
0.538839936 0.425040036 0.564760029
0.647099972 0.502099991 0.631299973
0.327840000 0.302640021 0.450240016
0.336439997 0.309120029 0.455700010
0.388300002 0.342740029 0.484699994
0.456520021 0.388300002 0.528619945
0.559179962 0.454139978 0.586720049
0.658039987 0.521600008 0.649460018
0.400780022 0.413380027 0.530220032
0.411760032 0.419620007 0.536459982
0.451700032 0.445400029 0.556079984
0.514459968 0.480080038 0.590640068
0.600780010 0.527880073 0.638459980
0.702700019 0.589860022 0.695680082
0.509000003 0.557720006 0.636839986
0.516799986 0.558499992 0.638419986
0.547480047 0.575699985 0.653279960
0.600779951 0.603860021 0.684819996
0.674480021 0.644700050 0.718419969
0.771799982 0.687940001 0.769459963
0.636900008 0.718419969 0.756779969
0.639239967 0.718420029 0.755999982
0.668239951 0.730900049 0.770280004
0.718419969 0.748199940 0.790579975
0.767159998 0.780420065 0.817940056
0.853380024 0.811699986 0.854920030
0.497900009 0.933300018 0.921599984
0.523960054 0.934080005 0.918479979
0.598439991 0.935640037 0.921599984
0.703540027 0.935640037 0.927839994
0.830659986 0.941899955 0.933300018
0.960699975 0.960699975 0.960699975
