example_ofxGpuLutCube/bin/data/ofxGpuLutCube/LUT/DropBlues.cube
TITLE "16x16x16 Adobe/IRIDAS cube 3D LUT exported with GrossGrade v0.1.027.1 (beta) 64 bit"
DOMAIN_MIN 0 0 0
DOMAIN_MAX 1 1 1
LUT_3D_SIZE 16
0.058899999 0.058899999 0.058899999
0.085180007 0.055686671 0.063319996
0.132833332 0.066179998 0.070600003
0.193040013 0.061219998 0.069040000
0.264106691 0.052820001 0.060693327
0.343833327 0.039199997 0.047033329
0.413380057 0.020279996 0.023459990
0.474846661 0.008319999 0.013520001
0.531273305 0.006239996 0.017679999
0.594420016 0.004679997 0.007799997
0.656166613 0.000000000 0.010399991
0.720480025 0.000000000 0.015600000
0.784319997 0.000000000 0.009360000
0.847060084 0.000000000 0.011180004
0.913513243 0.000000000 0.004420009
0.976599991 0.000000000 0.000000000
0.041359998 0.097406670 0.046319999
0.101046674 0.093500003 0.038240001
0.153200001 0.092979997 0.045259997
0.219320014 0.085439995 0.044219997
0.282120019 0.080760002 0.034019992
0.345133364 0.075560004 0.019239997
0.408180028 0.078160003 0.010919998
0.468466669 0.074780002 0.010919998
0.527233303 0.065113343 0.005460003
0.592340052 0.054406673 0.002340001
0.656686604 0.049466670 0.006499997
0.717880011 0.042966668 0.005980000
0.786140025 0.025046671 0.001560001
0.841080070 0.024206677 0.000000000
0.912993252 0.006786698 0.000520001
0.972959995 0.015366670 0.008060001
0.015079999 0.151900008 0.032759998
0.089606665 0.148693353 0.025999999
0.152940005 0.148433343 0.021839999
0.214626685 0.148693353 0.018979998
0.278479993 0.145053327 0.016379997
0.342013329 0.142973334 0.007800000
0.407920063 0.137253329 0.004679996
0.468986660 0.135953337 0.000000000
0.525933325 0.132833332 0.000000000
0.589219987 0.125033334 0.001820000
0.657726586 0.122953340 0.005459997
0.722039998 0.125033349 0.013780000
0.781199992 0.111300014 0.012219998
0.842640102 0.107340008 0.001559988
0.913773239 0.093273357 0.006239989
0.976599991 0.078193337 0.010139998
0.013260001 0.208660007 0.013259996
0.082840003 0.207860023 0.010919998
0.151373327 0.210460022 0.019239994
0.214900017 0.207860023 0.011700000
0.270346701 0.209940016 0.011959995
0.339673340 0.206560016 0.006239998
0.402460039 0.201620027 0.004679996
0.461186647 0.199280024 0.000000000
0.525933325 0.196680039 0.000000000
0.592079997 0.191480026 0.000000000
0.656946599 0.189140022 0.000000000
0.716840029 0.187060013 0.000000000
0.781199992 0.182020009 0.002339999
0.841340065 0.182820022 0.000519996
0.914293170 0.170913368 0.000000000
0.975820005 0.166220024 0.003900006
0.016379997 0.274580002 0.002859999
0.083880000 0.270346671 0.005719998
0.143493339 0.269566685 0.005719998
0.207600012 0.267486632 0.000780001
0.275620013 0.268526673 0.008579997
0.330833346 0.266706645 0.000000000
0.396686733 0.265666693 0.000000000
0.460146666 0.260986686 0.000000000
0.519693315 0.258906662 0.000000000
0.583239973 0.258906662 0.000000000
0.650706589 0.256226689 0.000000000
0.716840029 0.256046683 0.000000000
0.781719983 0.250660032 0.000000000
0.847060084 0.253860027 0.000000000
0.906233251 0.242246687 0.000000000
0.972700000 0.236246690 0.014299996
0.009100000 0.334700018 0.000000000
0.079720005 0.332100034 0.001040000
0.136733338 0.328953356 0.000000000
0.205260038 0.328953326 0.000000000
0.270606667 0.332100034 0.003640000
0.338633329 0.326900035 0.000000000
0.396140039 0.326833338 0.000000000
0.454840004 0.326833338 0.000000000
0.521513343 0.326573342 0.000000000
0.583240032 0.322933346 0.000000000
0.644466639 0.320233375 0.000000000
0.715800047 0.321813345 0.000000000
0.779119968 0.318373322 0.000000000
0.846540093 0.316233337 0.000000000
0.906233251 0.311553359 0.000000000
0.972700000 0.304533333 0.000000000
0.013260001 0.390580028 0.000000000
0.084920004 0.391880035 0.002339998
0.129453331 0.390580028 0.000000000
0.203960001 0.388900042 0.000000000
0.269046664 0.392140031 0.000000000
0.333173364 0.392140031 0.002339998
0.396140039 0.389020026 0.000000000
0.456400007 0.385780066 0.000000000
0.516053319 0.387860060 0.000000000
0.582720041 0.388120055 0.000000000
0.648626626 0.387080073 0.000000000
0.715280056 0.385520041 0.000000000
0.778079987 0.380320013 0.000000000
0.844460070 0.378500044 0.000000000
0.906233251 0.377980053 0.000000000
0.972700000 0.375640035 0.000000000
0.008319999 0.450886667 0.000000000
0.073440000 0.451146662 0.000000000
0.129453361 0.449586689 0.000000000
0.199800014 0.450886667 0.000000000
0.266706645 0.451926678 0.000000000
0.329500020 0.452446669 0.000000000
0.395873398 0.452966690 0.000000000
0.455100000 0.446986675 0.000000000
0.523333311 0.449326664 0.000000000
0.583760083 0.450626671 0.000000000
0.642906666 0.449066669 0.000000000
0.713720024 0.448026687 0.000000000
0.772879958 0.444386631 0.000000000
0.840820014 0.442566663 0.000000000
0.907793283 0.443086684 0.000000000
0.970833302 0.443086684 0.000000000
0.000000000 0.515793324 0.000000000
0.070833325 0.513706625 0.000000000
0.129453346 0.511839986 0.000000000
0.206580028 0.512880027 0.000000000
0.269853324 0.514726639 0.000000000
0.330280006 0.513419986 0.000000000
0.390580028 0.512099981 0.000000000
0.456393331 0.511579990 0.000000000
0.517873347 0.511839986 0.000000000
0.589479983 0.509759963 0.000000000
0.639733374 0.507679939 0.000000000
0.708520055 0.507679939 0.000000000
0.770280004 0.507679939 0.000000000
0.840300024 0.506379962 0.000000000
0.907273293 0.505859971 0.000000000
0.968699992 0.503779948 0.000000000
0.000000000 0.580380023 0.000000000
0.060166664 0.580380023 0.000000000
0.133873343 0.578260064 0.000000000
0.203180030 0.576440036 0.000000000
0.264926672 0.575920045 0.000000000
0.330020010 0.579340041 0.000000000
0.390580028 0.575660050 0.000000000
0.449066669 0.573059976 0.000000000
0.519173324 0.574620008 0.000000000
0.586620033 0.574100018 0.000000000
0.647579908 0.574620008 0.000000000
0.704333305 0.573320031 0.000000000
0.771839976 0.573320031 0.000000000
0.836920142 0.570980012 0.000000000
0.905973256 0.573320031 0.000000000
0.968699992 0.567080021 0.000000000
0.000000000 0.640566647 0.000000000
0.032386687 0.640566647 0.000000000
0.119793348 0.640566647 0.000000000
0.185360059 0.640046656 0.000000000
0.253886670 0.640826583 0.000000000
0.322899997 0.640566647 0.000000000
0.390580028 0.637966633 0.000000000
0.454526663 0.639266670 0.000000000
0.509239972 0.637966633 0.000000000
0.578553379 0.639266670 0.000000000
0.643166661 0.632699966 0.000000000
0.712159991 0.639266670 0.000000000
0.769239962 0.639266670 0.000000000
0.832760096 0.635819972 0.000000000
0.900253296 0.636340022 0.000000000
0.963366628 0.634000003 0.000000000
0.020020004 0.704879999 0.000000000
0.079093345 0.704879999 0.000000000
0.132053345 0.704360008 0.000000000
0.190120026 0.702800035 0.000000000
0.268493325 0.704879999 0.000000000
0.317533344 0.702020049 0.000000000
0.389213383 0.700460076 0.000000000
0.450886667 0.700980008 0.000000000
0.509500027 0.702020049 0.000000000
0.579820037 0.702020049 0.000000000
0.637379944 0.699420035 0.000000000
0.713459969 0.694193363 0.000000000
0.776000023 0.696300030 0.000000000
0.837180078 0.701486707 0.000000000
0.897913277 0.698093355 0.000000000
0.963559985 0.698093355 0.000000000
0.005460000 0.765599966 0.000000000
0.074239999 0.765859962 0.000000000
0.108973339 0.768719971 0.000000000
0.198500022 0.767159998 0.000000000
0.258066684 0.765599966 0.000000000
0.317533344 0.763520002 0.000000000
0.383440018 0.764819980 0.000000000
0.446986675 0.765339971 0.000000000
0.517873347 0.764819980 0.000000000
0.580359995 0.764819980 0.000000000
0.647846639 0.764819980 0.000000000
0.704599977 0.764039993 0.000000000
0.774179935 0.760140002 0.000000000
0.842380106 0.763779998 0.000000000
0.895073235 0.764299989 0.000000000
0.961479962 0.764039993 0.000000000
0.000000000 0.834320068 0.000000000
0.017779939 0.834320068 0.000000000
0.132273391 0.834840059 0.000000000
0.190180004 0.834840059 0.000000000
0.260206670 0.832240045 0.000000000
0.319253325 0.828860044 0.000000000
0.381360024 0.830420017 0.000000000
0.440746695 0.833280087 0.000000000
0.507679939 0.830160081 0.000000000
0.571773291 0.827560067 0.000000000
0.643946588 0.830160081 0.000000000
0.709820032 0.825073421 0.000000000
0.778340042 0.830406725 0.000000000
0.835360050 0.833800077 0.000000000
0.901793301 0.824006736 0.000000000
0.960699975 0.824006736 0.000000000
0.000000000 0.894253254 0.000000000
0.009146675 0.894533217 0.000000000
0.136940002 0.898173273 0.000000000
0.152906716 0.898173273 0.000000000
0.236086741 0.897053301 0.000000000
0.324753344 0.893733263 0.000000000
0.371480018 0.893993258 0.000000000
0.435806662 0.893993258 0.000000000
0.506119967 0.894253254 0.000000000
0.577220023 0.893733263 0.000000000
0.647586644 0.896533310 0.000000000
0.710600019 0.891973257 0.000000000
0.769499958 0.892939925 0.000000000
0.845760047 0.890613258 0.000000000
0.901813269 0.894253254 0.000000000
0.975539982 0.889819920 0.000000000
0.031300001 0.960699975 0.000000000
0.036540005 0.960439980 0.000000000
0.121913344 0.957319975 0.000000000
0.206260011 0.960699975 0.000000000
0.249060020 0.958620012 0.000000000
0.318833351 0.954199970 0.000000000
0.387340039 0.956799984 0.000000000
0.447506666 0.954979956 0.000000000
0.508199990 0.957059979 0.000000000
0.581120014 0.960699975 0.000000000
0.644466639 0.960699975 0.000000000
0.703059971 0.954979956 0.000000000
0.771059990 0.956019998 0.000000000
0.838740110 0.960179985 0.000000000
0.905713260 0.957059979 0.000000000
0.968699992 0.952899992 0.000000000
0.054900002 0.059159998 0.064099997
0.072420001 0.063579991 0.076060005
0.102360003 0.076320007 0.085440010
0.149480015 0.085700005 0.101860009
0.229980007 0.091940001 0.111986659
0.307126671 0.087260000 0.107746668
0.384766728 0.074486651 0.097419992
0.458473355 0.041546676 0.082086675
0.526446640 0.011746677 0.076086670
0.589739978 0.006806673 0.077386677
0.653299987 0.005746672 0.070886672
0.713980019 0.003660003 0.073220007
0.787959993 0.000000001 0.074520007
0.847840071 0.000000000 0.065159991
0.913253248 0.000000000 0.073739991
0.976599991 0.000000000 0.066720001
0.066179998 0.093240000 0.088820003
0.093240000 0.093240008 0.093239985
0.133613318 0.093759999 0.097666666
0.203440040 0.097406670 0.100526668
0.266166687 0.097146668 0.098186672
0.334453344 0.090386666 0.092726663
0.405820042 0.078166679 0.079206675
0.471446693 0.070620008 0.078680001
0.530226648 0.054713342 0.076860018
0.591820002 0.048946671 0.072700009
0.655126631 0.052066673 0.070880003
0.717880011 0.027426669 0.070880003
0.780160010 0.040546667 0.070100002
0.846806765 0.011766626 0.077380009
0.913513243 0.005746672 0.074260011
0.979713321 0.004446670 0.059606671
0.017419999 0.152419999 0.085960008
0.078420013 0.148953333 0.078420006
0.152939990 0.148173332 0.081540003
0.212300003 0.144793317 0.077900007
0.278479993 0.144533336 0.073999994
0.341493368 0.140893325 0.072700001
0.407400042 0.140373364 0.076339997
0.467166662 0.135173336 0.072180010
0.527493298 0.127633348 0.068013325
0.590000033 0.125813335 0.067753337
0.656946599 0.123726673 0.074253328
0.721780002 0.116193339 0.070879996
0.781199992 0.108180009 0.068273321
0.842900097 0.088593319 0.057286654
0.912993252 0.092506655 0.075553305
0.976339996 0.088853337 0.063600004
0.006240004 0.212040022 0.081280001
0.074260004 0.211780012 0.075560011
0.148173332 0.207606673 0.074000008
0.215420008 0.207080007 0.076600000
0.277700037 0.207600012 0.079459995
0.341486692 0.206040025 0.072700009
0.399546742 0.201100037 0.066706665
0.464566678 0.198500022 0.068539999
0.526973307 0.199800029 0.066153340
0.589480042 0.193820029 0.054406669
0.648886621 0.186753362 0.053626671
0.715539992 0.186500028 0.059659999
0.780939996 0.183333337 0.058846664
0.843940079 0.173560008 0.062806673
0.912213266 0.170640007 0.063080005
0.973479986 0.167000011 0.062820002
0.011439996 0.273799986 0.072700001
0.073220000 0.273539990 0.074780002
0.147653356 0.273279995 0.076859996
0.207600012 0.266706645 0.066979989
0.277700007 0.265926659 0.068800002
0.334413320 0.268786699 0.068539999
0.394300073 0.262546659 0.063586660
0.457386672 0.260726690 0.054686673
0.525933266 0.259686679 0.058353335
0.588699996 0.258386672 0.051806662
0.649146676 0.256046683 0.047646672
0.714240015 0.255206674 0.043486666
0.780680001 0.249100015 0.044006672
0.846280098 0.248280019 0.054166686
0.909353197 0.245093346 0.064359985
0.973673344 0.240666687 0.056239996
0.000000000 0.332100034 0.064613335
0.062273327 0.331006706 0.061493337
0.141933352 0.331280023 0.069559999
0.203180000 0.329226673 0.068266667
0.271906674 0.329226673 0.064353339
0.336033344 0.325533330 0.062820002
0.389420062 0.328966647 0.062300000
0.452186644 0.325013340 0.059920006
0.521253288 0.327093333 0.052066676
0.584800065 0.325013310 0.046086673
0.648626626 0.323193341 0.045046668
0.712419927 0.319173366 0.043746673
0.778860033 0.312853336 0.044526674
0.843940079 0.314413369 0.037606657
0.905973256 0.313633353 0.047033314
0.965140045 0.307626694 0.030966669
0.001300002 0.392140031 0.053366665
0.046279993 0.389420062 0.058826670
0.135173336 0.388380051 0.053626664
0.200060025 0.390580028 0.058886655
0.266966671 0.390840024 0.056226663
0.338113338 0.391620040 0.054406669
0.395873368 0.388120055 0.053099986
0.456086695 0.388746709 0.058359999
0.514460027 0.386300057 0.054926667
0.580380023 0.388120055 0.047906667
0.644726634 0.387340069 0.039746668
0.710339963 0.383180052 0.032986656
0.779380023 0.380060017 0.038739998
0.839520037 0.379540056 0.032633323
0.902853251 0.379540026 0.027353337
0.964340031 0.367780030 0.019526657
0.002080000 0.453226686 0.044266667
0.051720001 0.452706695 0.055706672
0.136213347 0.449586689 0.046540007
0.201620013 0.450106680 0.047126669
0.261246651 0.450106680 0.047126677
0.329446703 0.449586689 0.045746669
0.391666681 0.448806643 0.040246669
0.456919998 0.449066639 0.036280002
0.520726681 0.449066639 0.052846663
0.576960027 0.448806673 0.038426667
0.644986689 0.448806673 0.035526671
0.707740068 0.448026687 0.032146670
0.774179995 0.444906682 0.026840014
0.836659968 0.442046672 0.018239994
0.900513291 0.443346679 0.012766679
0.968380034 0.440486670 0.017986672
0.000000000 0.513926685 0.038666673
0.069040000 0.513660014 0.045306675
0.130493358 0.512106657 0.040533338
0.200580031 0.513660014 0.051766668
0.260206670 0.512639940 0.043146674
0.324546695 0.514459968 0.042866670
0.389193386 0.510539949 0.030726671
0.452446640 0.505086601 0.024486678
0.519433320 0.511839986 0.025313348
0.585580051 0.511059999 0.028226674
0.641860008 0.509759963 0.026300002
0.711380005 0.509759963 0.035753340
0.772359967 0.506639957 0.029726669
0.836399972 0.506639957 0.014866648
0.903373241 0.505859971 0.007826671
0.968379974 0.507939935 0.020046677
0.000000000 0.579040051 0.038406674
0.066960000 0.579040051 0.044266671
0.131526679 0.576440036 0.033173334
0.197980031 0.576440036 0.042326666
0.262806654 0.576440036 0.027846670
0.330033362 0.576999962 0.034986664
0.393720031 0.574360013 0.022126669
0.454526633 0.574100018 0.026026670
0.520986676 0.571500003 0.012766681
0.582200050 0.576180041 0.009386671
0.648626685 0.574360013 0.008106668
0.709039986 0.577220023 0.025246669
0.771579921 0.574100018 0.024466667
0.835880101 0.573840022 0.010426655
0.900753260 0.570199966 0.008086678
0.959919989 0.568639994 0.006786671
0.000000000 0.642906666 0.024306692
0.063313335 0.638426661 0.025086695
0.127633348 0.639266670 0.023686673
0.200553343 0.639786661 0.020860024
0.253046721 0.640826583 0.020046672
0.319973350 0.639266670 0.012766682
0.388740033 0.636893272 0.017186686
0.448286712 0.635566652 0.014326676
0.517353237 0.638993323 0.019526683
0.583760023 0.637966633 0.006006668
0.648366630 0.636340022 0.011726664
0.709300041 0.634519935 0.006786686
0.766899943 0.637380004 0.011206679
0.832240045 0.636080027 0.007046654
0.900773287 0.637186706 0.004446671
0.959659994 0.636139989 0.009126665
0.000000000 0.703319967 0.013286672
0.020146666 0.701213360 0.013806672
0.099613339 0.707220018 0.024986669
0.200853348 0.706700027 0.007826670
0.267740011 0.705139995 0.011206670
0.319733351 0.702020049 0.004966672
0.387900054 0.700720072 0.011726681
0.449873358 0.699913383 0.015366671
0.513453305 0.698873401 0.005226671
0.578299999 0.701759994 0.009386671
0.641606629 0.699160039 0.004446671
0.713459909 0.700693369 0.007566669
0.775219977 0.697573364 0.006006671
0.834060073 0.703553319 0.005486671
0.898693323 0.701753378 0.003140003
0.960699975 0.704360008 0.004960001
0.034540001 0.765079975 0.006526671
0.040260002 0.765339971 0.007046672
0.115873337 0.767159998 0.018486667
0.193780035 0.769239962 0.005486670
0.242046669 0.768459976 0.005226672
0.313693345 0.765599966 0.004706671
0.381626695 0.764819980 0.007826678
0.454026669 0.768980026 0.013806666
0.516053319 0.767159998 0.007306674
0.582199991 0.764039993 0.004706671
0.647846639 0.762219965 0.005486672
0.703060031 0.763779938 0.004446670
0.779380023 0.761699975 0.005746671
0.839000046 0.761440039 0.002620003
0.894553244 0.765079975 0.004446670
0.963560045 0.768459976 0.004446670
0.006279951 0.834580064 0.005486671
0.108293392 0.830940068 0.003660003
0.127886683 0.831460059 0.007826660
0.185693339 0.834580064 0.004706671
0.253646731 0.833540082 0.002880002
0.320553362 0.830420077 0.002360002
0.385266691 0.827040076 0.004186670
0.445426673 0.828080058 0.004179995
0.510546625 0.830680013 0.007046662
0.575673342 0.828600049 0.003926670
0.649926662 0.830160081 0.004706671
0.713979959 0.827560067 0.004966672
0.774699986 0.827560067 0.003926670
0.836920083 0.827040076 0.005226672
0.908553302 0.830680072 0.005226672
0.961219966 0.824526727 0.000000000
0.006759990 0.894253254 0.001560002
0.068773381 0.901013255 0.004446670
0.087853409 0.901033282 0.003926670
0.204213291 0.897893250 0.001560002
0.261746675 0.896793306 0.001820002
0.326313347 0.892953277 0.004186669
0.387340039 0.891653240 0.003400003
0.449326694 0.895413220 0.002880002
0.505086660 0.895153284 0.002086669
0.579559982 0.894273281 0.003140002
0.647066653 0.894013286 0.005486670
0.709560037 0.891133308 0.002086669
0.772099972 0.890093267 0.003400003
0.844980121 0.894013286 0.002880003
0.905193269 0.890633285 0.004446671
0.974479973 0.889559925 0.000000000
0.005486671 0.960699975 0.002086668
0.020853341 0.960959971 0.003400003
0.033146683 0.960699975 0.000000000
0.165199995 0.960439980 0.003660003
0.222206697 0.960179985 0.003926670
0.306873351 0.959399998 0.000000000
0.377979994 0.956799984 0.001300001
0.434766680 0.958360016 0.000780001
0.505086660 0.960439980 0.000520001
0.580860019 0.962779999 0.000260000
0.652266622 0.962260008 0.001820001
0.712159991 0.960439980 0.000520001
0.766640007 0.960179985 0.000520001
0.828080058 0.960699975 0.000000000
0.901293278 0.953939974 0.000520001
0.968699992 0.956799984 0.002360002
0.055953335 0.063319996 0.084940001
0.073740005 0.068779998 0.089879997
0.102620006 0.077620007 0.102620013
0.133866668 0.099260002 0.120313339
0.177160010 0.122913338 0.140633345
0.238140002 0.135953337 0.160480008
0.320380032 0.141673356 0.173013344
0.393286675 0.144013345 0.177846670
0.469619989 0.138293356 0.172593355
0.546486676 0.121393338 0.161533341
0.620179951 0.104593359 0.157360017
0.693633318 0.080513336 0.154193357
0.767366648 0.034526683 0.145326674
0.836880028 0.020386685 0.140373349
0.905413210 0.018813349 0.140893340
0.973439991 0.009933341 0.132053345
0.087779999 0.092979997 0.105999999
0.093766667 0.098206669 0.110426679
0.119546674 0.107046679 0.115893334
0.153219998 0.124226682 0.136460006
0.201080024 0.142433330 0.155540019
0.270326704 0.144533336 0.164380014
0.341473401 0.148433343 0.168019995
0.415700018 0.146353334 0.166206673
0.480813324 0.138293356 0.162300035
0.557933331 0.130753338 0.158666670
0.634013295 0.119573355 0.158920020
0.704840064 0.078253344 0.146899998
0.780133367 0.044126682 0.137773320
0.843400061 0.026886668 0.136473343
0.907513261 0.016733352 0.134653330
0.970839977 0.013593346 0.131273344
0.065180004 0.144013330 0.132833332
0.104186684 0.144533336 0.137253329
0.145053357 0.145053327 0.145053327
0.193040013 0.149740025 0.153460011
0.256226689 0.153980017 0.155020013
0.310240030 0.160999998 0.163340002
0.381880015 0.162560001 0.159179986
0.450366676 0.154206663 0.150306687
0.511059999 0.146873370 0.146613345
0.580860019 0.137253329 0.143753365
0.651993334 0.132573336 0.140113354
0.718919992 0.121653348 0.137253344
0.777559936 0.111053340 0.129973337
0.847393453 0.102153338 0.138033345
0.912739992 0.097460009 0.130753353
0.969753325 0.076619998 0.132833332
0.004680002 0.211506680 0.148173332
0.075560004 0.211780012 0.148173332
0.143753320 0.211780012 0.144533336
0.213846669 0.203440040 0.136213347
0.273800015 0.204220027 0.133613318
0.336286694 0.205000013 0.136473343
0.400626689 0.200060025 0.139333338
0.465086669 0.197460026 0.138553336
0.527753353 0.191740006 0.136733338
0.591560006 0.190700024 0.135433331
0.652006626 0.190440029 0.132313341
0.713980019 0.188086674 0.131273344
0.780680001 0.183333352 0.126853347
0.841873407 0.173560008 0.118793346
0.909093261 0.179900005 0.133613303
0.976599991 0.174293339 0.137513340
0.011439996 0.276920021 0.142973334
0.071386665 0.273280025 0.142193317
0.134393349 0.273019969 0.140893340
0.204480022 0.266966671 0.133093342
0.274580002 0.266186655 0.130493343
0.333166689 0.265666664 0.132833332
0.394286722 0.265666664 0.130233333
0.458220005 0.262286663 0.128673345
0.520473301 0.260726660 0.128153339
0.584280014 0.257046700 0.123473339
0.650706649 0.255486697 0.127113342
0.717620015 0.251753360 0.128153339
0.784579933 0.252806693 0.126073346
0.846020043 0.252586693 0.130233347
0.907793224 0.242506698 0.125553355
0.974493325 0.239626676 0.125553340
0.000000000 0.334153354 0.132053331
0.055446669 0.331826717 0.130753323
0.136993349 0.332100034 0.131013334
0.206819996 0.331280023 0.132053331
0.269566655 0.328679979 0.128933340
0.339153320 0.328133315 0.128673345
0.395080060 0.325273335 0.125813335
0.459626675 0.327613324 0.125813335
0.520733297 0.323973328 0.128413349
0.582719982 0.321373314 0.119833335
0.648366630 0.322413355 0.119313344
0.717100024 0.322413355 0.120093338
0.781979978 0.318893343 0.117740005
0.842900038 0.317013353 0.115633339
0.908833265 0.311553359 0.125253320
0.969500005 0.304533333 0.118993334
0.000000000 0.392140031 0.126333341
0.049186666 0.391100019 0.123213336
0.125033319 0.391100049 0.122173332
0.203180015 0.391880035 0.127633333
0.263846666 0.389160037 0.128413349
0.333173364 0.388380051 0.122693338
0.395073384 0.388120055 0.122953340
0.455306679 0.388120055 0.119573340
0.518133283 0.388120055 0.118519992
0.582720041 0.385520041 0.119313352
0.649146616 0.386040062 0.113059998
0.715020001 0.387600034 0.112773336
0.779379964 0.382919997 0.114893347
0.838740051 0.378760040 0.110953338
0.902593255 0.378760040 0.113593340
0.967899978 0.372520030 0.101593331
0.000000000 0.454266667 0.120093338
0.027246667 0.450886667 0.118006669
0.109320000 0.449586689 0.121120006
0.201100022 0.452186704 0.122940004
0.262286663 0.449586660 0.121393345
0.328433335 0.452186704 0.125813335
0.395340055 0.450626671 0.115413345
0.455306649 0.449586689 0.116973333
0.520473301 0.450886667 0.119573347
0.578559995 0.447766662 0.112800002
0.647066593 0.448546648 0.111660011
0.713459969 0.450106651 0.113853335
0.774179935 0.442826658 0.108513348
0.838220060 0.442046642 0.108800001
0.902593315 0.442306668 0.105913341
0.965766668 0.439446658 0.101173341
0.000000000 0.518133283 0.122173339
0.022706661 0.515259981 0.114346676
0.087293349 0.512373328 0.117493346
0.198500022 0.514993310 0.115893349
0.262806684 0.512373328 0.118273340
0.325013340 0.513660014 0.116913341
0.392140061 0.511319995 0.116400011
0.456919998 0.514993310 0.120353341
0.517613292 0.511319935 0.114893347
0.582199991 0.509499967 0.112680010
0.639226615 0.507419944 0.110040016
0.708260059 0.508199990 0.109573349
0.768979967 0.505079925 0.102173343
0.840300024 0.507939994 0.107200012
0.904673278 0.506379962 0.100293346
0.968926668 0.507419944 0.102773346
0.000000000 0.582199991 0.113700002
0.018526666 0.580380023 0.109546669
0.093533352 0.580600023 0.112253346
0.192740008 0.578559995 0.108793341
0.260726660 0.576440036 0.112473339
0.323193341 0.575920045 0.111359999
