example_ofxGpuLutCube/bin/data/ofxGpuLutCube/LUT/FoggyNight.cube
TITLE "16x16x16 Adobe/IRIDAS cube 3D LUT exported with GrossGrade v0.1.027.1 (beta) 64 bit"
DOMAIN_MIN 0 0 0
DOMAIN_MAX 1 1 1
LUT_3D_SIZE 16
0.105999999 0.141100004 0.203899994
0.111460000 0.136680007 0.199739993
0.136953339 0.129919991 0.196619987
0.164660007 0.132520005 0.198440000
0.185699999 0.130439997 0.191160008
0.205200002 0.133300006 0.184399992
0.223520011 0.134860009 0.176599994
0.242679998 0.139019996 0.172913328
0.257293344 0.141100004 0.168699995
0.276840001 0.143500000 0.168699995
0.296799988 0.150299981 0.171366677
0.319260001 0.161479995 0.181280002
0.344300002 0.171079993 0.184400007
0.376300037 0.182840019 0.191160008
0.405979961 0.198959976 0.195840001
0.439300001 0.219500005 0.203899994
0.096859999 0.145879999 0.199220002
0.122120008 0.145360008 0.190899998
0.136693329 0.141626671 0.191160008
0.162833333 0.141106680 0.190640002
0.179200009 0.136946678 0.185433313
0.204939991 0.135386690 0.177900001
0.222153336 0.140879989 0.173999995
0.238673329 0.143500000 0.172639996
0.255733341 0.145833313 0.170566663
0.274760008 0.149780005 0.170826659
0.300179958 0.154719979 0.176566660
0.321339995 0.162793338 0.177639991
0.347160012 0.174459994 0.180240005
0.370320022 0.184140012 0.187520012
0.405719966 0.199739978 0.196099967
0.443459988 0.223399997 0.215339988
0.083340004 0.158386663 0.186739996
0.107040003 0.155006662 0.179460004
0.131493330 0.150560006 0.170580000
0.159180000 0.150560006 0.174479991
0.174446657 0.150040016 0.173946664
0.195580021 0.147960007 0.169500008
0.219060019 0.151079997 0.172166675
0.240860000 0.151859999 0.170000002
0.258073300 0.152379990 0.167319983
0.277880013 0.160206661 0.173439994
0.297839969 0.164899990 0.178680003
0.320299983 0.169179976 0.177639991
0.345339984 0.179700002 0.186479986
0.373440027 0.195580006 0.192720011
0.409879982 0.212219983 0.204159975
0.447100013 0.226040006 0.212740004
0.090879999 0.171839997 0.175819993
0.102840006 0.171320006 0.170560002
0.126800001 0.171320006 0.169000000
0.149000004 0.163880005 0.156020001
0.172626644 0.163100004 0.159399971
0.198180005 0.163100004 0.164366663
0.214040011 0.163099989 0.167879999
0.231600001 0.162060007 0.169766650
0.258853346 0.168559998 0.173480004
0.278400004 0.170980006 0.175819993
0.300699979 0.176306665 0.176599994
0.327059984 0.184140012 0.178940013
0.353659987 0.192980006 0.188299999
0.379680008 0.208840013 0.198960006
0.414819986 0.225539982 0.211699992
0.447880000 0.245540023 0.221060008
0.093999997 0.187520012 0.172700003
0.099540003 0.185439989 0.165160015
0.122120000 0.187520012 0.156800002
0.141900003 0.184660003 0.153679997
0.170920014 0.180759996 0.152899995
0.188820004 0.177900001 0.153419986
0.217940018 0.178420022 0.161219999
0.236800000 0.179979995 0.166513339
0.256773323 0.182060003 0.171873316
0.279440016 0.189860001 0.178939998
0.301999986 0.192460001 0.181020007
0.329139978 0.204940006 0.187260002
0.358340025 0.212220013 0.191420004
0.389560044 0.225560009 0.201560020
0.423426628 0.242400005 0.215599969
0.457266688 0.261166692 0.229460016
0.099299997 0.201300010 0.172700003
0.106780007 0.205200002 0.168966666
0.116140008 0.202600002 0.162059993
0.139819995 0.201820001 0.153679997
0.165460005 0.201300010 0.157839999
0.194800004 0.200000018 0.154200003
0.214593336 0.198700011 0.154719993
0.237059996 0.200000018 0.161766663
0.262753308 0.200780004 0.170833334
0.284900010 0.204940006 0.177379996
0.307199955 0.210400015 0.184399992
0.338013321 0.224800006 0.197920009
0.363900006 0.235720009 0.204420015
0.397100061 0.246833354 0.215340018
0.434219986 0.264293313 0.224280000
0.479699999 0.287600011 0.240600005
0.113020003 0.221180022 0.174260005
0.119000003 0.223520011 0.170299992
0.128620014 0.223520011 0.171619996
0.138000011 0.223520011 0.155239984
0.159740001 0.222220019 0.157320008
0.190640017 0.222740024 0.162000000
0.218840018 0.225080013 0.161560014
0.246513352 0.224560022 0.160180002
0.264833331 0.228200018 0.167099997
0.296460032 0.230540007 0.177379996
0.321500003 0.237340003 0.189339995
0.353773355 0.249920025 0.203120008
0.380439997 0.261960030 0.215599999
0.414860070 0.279286712 0.230540022
0.452579975 0.297499985 0.242660001
0.499580026 0.320040017 0.260400027
0.124980003 0.246366665 0.182059988
0.129659995 0.246626675 0.176339999
0.139033347 0.248186678 0.175820008
0.146646678 0.248966679 0.169419989
0.168620005 0.250006676 0.162139997
0.191679999 0.252086669 0.164966658
0.226120025 0.253646672 0.169673339
0.251826674 0.255726665 0.172386646
0.286079973 0.259886682 0.172560006
0.308999985 0.265866637 0.182839990
0.340626657 0.272646666 0.193499997
0.371553332 0.282179981 0.214039996
0.402339995 0.295180023 0.221580014
0.437620044 0.313500047 0.240300015
0.477079928 0.334906638 0.259366632
0.522900045 0.355846673 0.278140008
0.147913322 0.275539994 0.198699996
0.151906669 0.279439986 0.194799975
0.155233324 0.279959977 0.191419989
0.170479998 0.281519979 0.183359995
0.186433330 0.286539972 0.179979995
0.211799994 0.288439989 0.179719985
0.234479994 0.289220005 0.178633332
0.264046669 0.291559994 0.184659988
0.297799975 0.299619973 0.191159979
0.330493331 0.304039985 0.193759993
0.362386614 0.312359989 0.203639999
0.394459993 0.324953318 0.221373320
0.427979976 0.337513328 0.235000014
0.468953341 0.356393307 0.254913330
0.512353241 0.380353242 0.275793254
0.552179992 0.397659957 0.292860001
0.179600015 0.318360001 0.219500005
0.185400009 0.321740001 0.215080023
0.187399998 0.322260022 0.215080008
0.199220017 0.324620008 0.207020015
0.213860020 0.327259988 0.200780019
0.234793335 0.333360016 0.201040000
0.261980027 0.336480021 0.201560020
0.286559999 0.338559985 0.202860013
0.319973350 0.344386667 0.208059996
0.361620009 0.356940001 0.220339999
0.393659979 0.363700032 0.225659996
0.433260024 0.380093336 0.240233347
0.471280009 0.393640012 0.259600013
0.510286689 0.413140029 0.275266677
0.556399941 0.435339987 0.299119949
0.603860021 0.459520012 0.325500011
0.226199985 0.371266633 0.245699987
0.220099971 0.373606622 0.243099988
0.227239966 0.373086631 0.242839977
0.240779996 0.377506614 0.235299990
0.255126655 0.383259952 0.231659994
0.270666659 0.385599971 0.230099991
0.295499980 0.388199955 0.227239996
0.324406624 0.399379969 0.234259978
0.358746678 0.403279960 0.237379968
0.389239997 0.412626624 0.247579992
0.435366660 0.422299951 0.252299994
0.477193326 0.441866606 0.269006640
0.513699889 0.459026635 0.278379977
0.562646687 0.481126666 0.305640012
0.604913175 0.496793270 0.326519907
0.658766627 0.528066635 0.351566643
0.269013345 0.434280008 0.274993330
0.277820021 0.438180000 0.280453354
0.285873353 0.437140018 0.277333349
0.293413341 0.440540016 0.271093369
0.311120003 0.448913336 0.269013345
0.321553349 0.449953318 0.266673356
0.347273350 0.456713349 0.263553321
0.373633355 0.462173343 0.266673326
0.400700003 0.473613322 0.272913337
0.442360014 0.483413339 0.280973345
0.481093317 0.500173330 0.296279997
0.527833343 0.509273291 0.303059995
0.570253313 0.530953407 0.314240038
0.620706737 0.557473361 0.339313388
0.675433278 0.582993388 0.364793301
0.731993377 0.609353304 0.394199997
0.344240010 0.510600030 0.313740015
0.344760001 0.508520007 0.321280032
0.353180021 0.512940049 0.319200039
0.359360009 0.519959986 0.323879987
0.368719995 0.523126662 0.315039992
0.389260024 0.531240046 0.314260006
0.407740027 0.541900039 0.312179983
0.432946682 0.546579957 0.311920017
0.471980006 0.557399988 0.323099971
0.500400007 0.567879975 0.330959976
0.551186621 0.590039968 0.345279962
0.600700021 0.609093308 0.359339982
0.650179982 0.627460003 0.367940009
0.708480000 0.658260047 0.396286726
0.760333180 0.684539974 0.415579915
0.822020054 0.719139993 0.451799989
0.432200074 0.610346735 0.382786721
0.431680083 0.609826744 0.380706728
0.434280097 0.611400068 0.383306742
0.446300089 0.618753374 0.383306712
0.458326787 0.619326770 0.376546741
0.472106755 0.624660075 0.374726743
0.490946770 0.635620117 0.374726713
0.519993424 0.653606772 0.375506759
0.548846781 0.661926746 0.376546741
0.586686730 0.672366798 0.389806718
0.631673396 0.694926798 0.403860092
0.680126786 0.712666750 0.416860074
0.742126763 0.747760057 0.442100048
0.793406844 0.769993484 0.458586752
0.855440080 0.799406767 0.487446725
0.917386770 0.832966805 0.510380030
0.538306475 0.725973129 0.454453260
0.539086461 0.723113120 0.450726599
0.549226522 0.733253181 0.454453260
0.551566482 0.735359907 0.454453260
0.564393163 0.743233144 0.454973221
0.582533181 0.748706460 0.452339888
0.596053183 0.755326569 0.445779949
0.622213125 0.770573199 0.452066571
0.651793242 0.787473142 0.456013232
0.693633199 0.802553177 0.464593232
0.749899805 0.825633168 0.488193214
0.794493198 0.843413174 0.502053201
0.842153192 0.868453205 0.519993186
0.893433213 0.891886532 0.541419923
0.939846516 0.905433178 0.554693222
0.995293260 0.931193233 0.576313257
0.666700006 0.866699994 0.549000025
0.666700006 0.866699994 0.552113354
0.669300020 0.867739975 0.542673349
0.684640050 0.874499977 0.551340044
0.683600008 0.876580000 0.545099974
0.705799997 0.886200011 0.543766677
0.726279974 0.897239983 0.541100025
0.740626633 0.905740023 0.541100025
0.765799999 0.918219984 0.545313358
0.799219966 0.930180013 0.549000025
0.837899923 0.941166699 0.559400022
0.879673302 0.950820029 0.573400021
0.912180007 0.962260067 0.576600015
0.944826722 0.968153298 0.579980016
0.982039928 0.972433329 0.591419995
1.000000000 0.968699992 0.584399998
0.089579999 0.137460008 0.221080005
0.114839993 0.133300006 0.208839998
0.132793322 0.133039996 0.209359989
0.160233334 0.133300006 0.211180001
0.182059988 0.133560017 0.202339992
0.204680011 0.134600013 0.194540009
0.221353337 0.138760000 0.195579991
0.239973336 0.141100004 0.188300014
0.258853316 0.141366661 0.181800008
0.276059985 0.143500000 0.181539997
0.298099995 0.152899981 0.181800008
0.317699999 0.159659997 0.190119997
0.345853359 0.170299992 0.193240002
0.373180032 0.182840019 0.199740008
0.405459940 0.202339962 0.211439982
0.435400009 0.219500005 0.216380000
0.093219988 0.149519995 0.208319992
0.106780000 0.141886681 0.204679981
0.128106639 0.141626701 0.211440012
0.155266672 0.138246655 0.200780019
0.174186662 0.138766661 0.200000003
0.197920009 0.140586674 0.193499982
0.219013348 0.139286667 0.186739996
0.238673329 0.141886652 0.185960010
0.257293314 0.143753320 0.183620006
0.275799960 0.150039971 0.183099985
0.297560006 0.156020001 0.186740011
0.320040017 0.163060009 0.189339995
0.343773335 0.174459994 0.192200020
0.373180032 0.184140012 0.200000003
0.405719936 0.203119963 0.208579972
0.439560026 0.220019996 0.220560014
0.082820006 0.158113331 0.200780004
0.095600002 0.155006662 0.196620017
0.127580002 0.154200003 0.188299984
0.152406693 0.150820002 0.192200005
0.173926681 0.153679997 0.191420004
0.196360022 0.150560006 0.187520012
0.215080023 0.150559992 0.190380007
0.234200016 0.149519995 0.185959995
0.253913313 0.150819987 0.185440004
0.276060015 0.158913329 0.187260002
0.297059983 0.167086646 0.191420004
0.319260001 0.170793340 0.188299999
0.342219949 0.179700002 0.191939995
0.376040041 0.195060000 0.200780004
0.406499982 0.211959988 0.215606630
0.447100013 0.229420006 0.224719986
0.090099998 0.168300003 0.199219987
0.102619998 0.171059996 0.192720011
0.125239983 0.170800000 0.183353350
0.145020008 0.167000011 0.176326662
0.172626674 0.163360000 0.179966673
0.194019988 0.166480005 0.183619991
0.211439997 0.162839994 0.184660003
0.230820000 0.163100019 0.186220005
0.252873331 0.167780012 0.187519997
0.276579976 0.170460016 0.184140012
0.297839999 0.177346662 0.187519997
0.321339995 0.185440004 0.192460015
0.348459989 0.193760008 0.197140008
0.380980045 0.206500024 0.208060011
0.411439985 0.221639991 0.216646671
0.448660016 0.246340007 0.230480015
0.093759991 0.186740026 0.188820004
0.102880001 0.185179979 0.188299999
0.112760000 0.187520012 0.180493355
0.140340015 0.181799993 0.170006663
0.169619992 0.180759996 0.168926656
0.190119997 0.177900016 0.170013323
0.214300022 0.180239990 0.174260005
0.232380018 0.178680018 0.178939998
0.252353311 0.182840005 0.183879986
0.276580006 0.187000006 0.188300014
0.301479965 0.196360007 0.192460001
0.325239986 0.204680011 0.195060015
0.355753362 0.212506667 0.201560006
0.386700034 0.226600006 0.212740019
0.421386600 0.241646662 0.222919986
0.458046645 0.264619976 0.240859985
0.094359994 0.199739993 0.185960010
0.101760007 0.204160020 0.185440004
0.116919994 0.202340022 0.181273341
0.136700004 0.201820001 0.169486672
0.158693328 0.201560006 0.168926656
0.192200005 0.198700011 0.167273328
0.209360018 0.198700011 0.168399990
0.235760003 0.200000018 0.175300002
0.259113312 0.202080011 0.181280017
0.282040000 0.205980003 0.187260002
0.306940019 0.213266641 0.196879998
0.334633321 0.226099983 0.203639999
0.362080008 0.236546680 0.209619999
0.395540059 0.249446705 0.221340016
0.435639977 0.268253297 0.233959988
0.472159982 0.289160013 0.249213338
0.107040003 0.224820003 0.187520012
0.107640013 0.221180022 0.186740026
0.122380003 0.223520011 0.183620021
0.135660008 0.221180022 0.171326652
0.160780013 0.224560007 0.169746652
0.187520027 0.223000035 0.169653356
0.218566686 0.222740024 0.170006663
0.241000012 0.224560022 0.172539994
0.265873313 0.228720024 0.181539997
0.293080032 0.234180003 0.189860001
0.318639994 0.238900021 0.197400004
0.350906670 0.248620018 0.209620014
0.377060026 0.261180043 0.221113339
0.412253380 0.278486729 0.234446704
0.448939949 0.296719998 0.248420000
0.492540002 0.316139996 0.265400022
0.119779997 0.248706654 0.194799989
0.130966663 0.247926667 0.194279999
0.135686666 0.248706669 0.187260002
0.147686675 0.250006676 0.182839990
0.166279987 0.250266671 0.174986660
0.194540009 0.252086669 0.174206659
0.222220019 0.252346665 0.180760011
0.249746665 0.255726665 0.174986660
0.282439977 0.259886682 0.186739996
0.306659997 0.264826655 0.191939995
0.337766618 0.272386670 0.202859998
0.369473338 0.284000009 0.217999995
0.402339995 0.296220034 0.234233320
0.435800046 0.312460035 0.247860000
0.473699957 0.335166603 0.266433299
0.520819962 0.357666641 0.284660012
0.142986655 0.277879983 0.207546666
0.153373316 0.281519979 0.210660011
0.157879993 0.279959977 0.202600002
0.169439986 0.284179986 0.200259998
0.186953306 0.286619991 0.190899998
0.208666667 0.287660003 0.190380007
0.232406676 0.289220005 0.189859986
0.265606672 0.289999992 0.193759993
0.293639988 0.297540009 0.192199990
0.331013352 0.303780019 0.201559991
0.362906665 0.312619954 0.217226639
0.394199997 0.324693322 0.231120005
0.430319995 0.338553339 0.249713331
0.467653394 0.355093330 0.263273329
0.512093246 0.378533274 0.280493289
0.555866659 0.405459970 0.307419986
0.178039998 0.319920003 0.226700008
0.186099976 0.321740001 0.229820013
0.185840026 0.322260022 0.223726675
0.200260028 0.323819995 0.219779998
0.217500001 0.327606678 0.213006660
0.230106682 0.332840025 0.208580002
0.261720031 0.335700005 0.211706683
0.287080020 0.341679990 0.214320019
0.321013331 0.344906658 0.218786642
0.357460022 0.355379999 0.222279996
0.394959986 0.363700032 0.231386647
0.431900024 0.380873352 0.249446660
0.469720006 0.391560018 0.263039976
0.510286689 0.412606716 0.284380019
0.552959979 0.435073316 0.306140006
0.600780010 0.460560024 0.327846646
0.218799964 0.373606622 0.254966646
0.231139958 0.371526629 0.253926665
0.228539973 0.375426650 0.249953315
0.241039976 0.378806621 0.246746659
0.255906612 0.380626619 0.243886650
0.270566672 0.384819984 0.237906635
0.293080002 0.388979971 0.237379983
0.323106647 0.396259934 0.241026640
0.355886638 0.405359983 0.248613313
0.388200015 0.412626624 0.250479996
0.436666638 0.427499950 0.264326662
0.471266657 0.439006627 0.273173302
0.509779990 0.458246678 0.289519995
0.564466655 0.477726638 0.309800029
0.608073235 0.499653250 0.333026558
0.659546614 0.531446636 0.364766628
0.277020007 0.432460010 0.286220014
0.279433340 0.432206690 0.286479980
0.284113318 0.438446671 0.290039986
0.295753330 0.443193316 0.283053368
0.307740033 0.448913336 0.280453324
0.323373348 0.451513350 0.277593315
0.347453326 0.457233340 0.273693353
0.373633355 0.463213325 0.276553303
0.404146671 0.474133343 0.281233341
0.438473314 0.484453350 0.291319996
0.480573267 0.500173330 0.301499993
0.528873384 0.516553402 0.313460052
0.574093342 0.535893381 0.328046650
0.623306751 0.559813321 0.345606685
0.677273214 0.583513319 0.372073323
0.734073341 0.619639993 0.406500012
0.344240010 0.510080040 0.329086691
0.343979985 0.510600030 0.330386639
0.350260019 0.515020013 0.333566695
0.363779992 0.518419981 0.330640018
0.373400003 0.522586644 0.326486647
0.389779985 0.529113352 0.325179935
0.409940034 0.538780034 0.321539998
0.440066665 0.551660001 0.324146658
0.474059999 0.559300005 0.328046709
0.504060030 0.572040021 0.336160004
0.550406635 0.586140037 0.348220021
0.592640042 0.603306651 0.361939967
0.650180042 0.629020035 0.379379988
0.697300076 0.647080004 0.395506680
0.760333240 0.684539974 0.420613289
0.818900049 0.721520007 0.453880012
0.431420088 0.610606730 0.392146766
0.432460070 0.603846788 0.379406720
0.443653435 0.612193406 0.386946738
0.453906715 0.622033417 0.392146736
0.466906726 0.625166774 0.388766736
0.477326751 0.628286719 0.380446732
0.488606721 0.634286761 0.376286715
0.513233364 0.646286786 0.379146725
0.555833340 0.664826810 0.388766736
0.591366708 0.674446821 0.395006716
0.636606753 0.693366766 0.410106689
0.686886787 0.716826797 0.430080086
0.740826726 0.746953428 0.449740052
0.793666780 0.769733489 0.467426747
0.861160040 0.805126667 0.495513380
0.913486779 0.832966805 0.517660022
0.534573197 0.725973129 0.462773263
0.545066535 0.728573203 0.461993188
0.547406554 0.732733190 0.461733252
0.558353186 0.731199861 0.456013262
0.561793268 0.733039856 0.455493301
0.577593207 0.742466509 0.454426587
0.598653197 0.755586565 0.450986594
0.630053163 0.773946524 0.458306581
0.663006425 0.789813221 0.466933221
0.702473223 0.801513135 0.471373260
0.749379873 0.824593186 0.491313219
0.790853202 0.845819890 0.508813322
0.842153192 0.866386473 0.528859854
0.893173218 0.891346514 0.543246567
0.943226457 0.908813059 0.566673219
0.994513214 0.927033246 0.576573253
0.666960001 0.866699994 0.549520016
0.675280035 0.866959989 0.553680003
0.664879978 0.866959989 0.549780011
0.677359998 0.865140021 0.549260080
0.692000031 0.878659964 0.547699988
0.712500036 0.892960012 0.554199994
0.722899973 0.894900024 0.554199994
0.744266629 0.909120023 0.551080048
0.769699991 0.919779956 0.551340044
0.807853401 0.934913337 0.560546696
0.852039993 0.950299978 0.571886659
0.883080006 0.953159988 0.578420043
0.909579992 0.962260067 0.592720032
0.944306731 0.968153298 0.589859962
0.981779933 0.972166657 0.588819981
1.000000000 0.972433329 0.596359968
0.081259996 0.140060008 0.245813340
0.099220008 0.136419997 0.245286673
0.131493345 0.133300006 0.226039991
0.156060010 0.129660010 0.227860004
0.173406675 0.133820012 0.220553353
0.193760008 0.137199998 0.216380000
0.213000014 0.138760000 0.212220013
0.231600001 0.141100004 0.208580002
0.251573324 0.143753320 0.204420000
0.271380007 0.145619988 0.200259998
0.297580004 0.153419986 0.201820001
0.319260031 0.160179988 0.207800016
0.337980002 0.170819983 0.209880009
0.367953360 0.182840019 0.213260025
0.401299953 0.198959976 0.221619993
0.434853345 0.219500005 0.229939997
0.076840006 0.145353347 0.237220004
0.086999997 0.145353347 0.237226680
0.123420008 0.141366690 0.228366673
0.148753345 0.141626671 0.221086681
0.166500017 0.138773322 0.217426687
0.192460001 0.141626671 0.215339988
0.211960018 0.142153323 0.209360003
0.230806679 0.142153323 0.204679996
0.247139990 0.147393331 0.203900009
0.271899998 0.153939977 0.204160005
0.296499997 0.156553313 0.202859998
0.319000006 0.163333341 0.202859998
0.343513340 0.174459994 0.205980003
0.372920036 0.187260002 0.215866670
0.402339965 0.200519979 0.221880004
0.435400009 0.220546663 0.233666658
0.083859995 0.158386678 0.216639996
0.098700009 0.154733330 0.213780001
0.119259998 0.153939992 0.217159986
0.139559984 0.153939992 0.220020011
0.162080005 0.153939992 0.213780016
0.186480016 0.150560006 0.211700007
0.207280010 0.151080012 0.205459982
0.232900009 0.152379990 0.203119993
0.254953325 0.154459998 0.202600002
0.271120012 0.156826675 0.200780004
0.290879935 0.163599998 0.203379989
0.315800041 0.172100008 0.206499994
0.338253349 0.181019977 0.207019985
0.375246704 0.195579991 0.216133326
0.406499982 0.212219983 0.228119984
0.443199992 0.228379995 0.236960009
0.083860002 0.170540005 0.212740004
0.096120000 0.170799986 0.213520005
0.111460000 0.171580002 0.209880009
0.143460006 0.163880005 0.200780004
0.164680004 0.163100004 0.204679996
0.185699999 0.163880005 0.205459982
0.205200016 0.164920017 0.208839998
0.229753330 0.166740015 0.206499994
0.250000000 0.165960014 0.204160005
0.271899998 0.172060013 0.204939991
0.294200003 0.178160012 0.206239998
0.320300013 0.185440004 0.207540005
0.347420007 0.193760008 0.211220026
0.377860039 0.206500024 0.221100017
0.411699980 0.225539982 0.233139992
0.448660016 0.246860012 0.243733346
0.087020002 0.184660003 0.212740019
0.103120007 0.184660003 0.213000029
0.112500004 0.183620006 0.207800001
0.129940003 0.181799993 0.191159993
0.159219995 0.180240005 0.190899983
0.184140012 0.178160012 0.194540009
0.211180016 0.181280002 0.198180005
0.228220016 0.184139997 0.205459997
0.249753311 0.185179994 0.202860013
0.272940010 0.188819990 0.203379989
0.298099965 0.194539994 0.209619999
0.324979991 0.201559991 0.213820025
0.351606637 0.211973339 0.218500003
0.384620041 0.228420049 0.227860019
0.420566618 0.241646662 0.236300007
0.458566666 0.263579994 0.254133344
0.102880001 0.201300010 0.210400000
0.105480000 0.201559991 0.208580002
0.116919994 0.199480012 0.202080011
0.128900021 0.201820001 0.194020003
0.159713328 0.201300010 0.188820004
0.188560009 0.198700011 0.187780023
0.208580017 0.196360007 0.185180008
0.236280009 0.200519994 0.192979991
0.254433304 0.201560020 0.202340007
0.276320010 0.205980003 0.206499994
0.305119991 0.214879975 0.213560015
0.334113330 0.224540010 0.218240023
0.364513338 0.236026675 0.224999994
0.395046711 0.249446705 0.232340023
0.434219986 0.267473340 0.246833324
0.473199993 0.285520017 0.260133326
0.110160008 0.220633358 0.211440012
0.115100004 0.220906690 0.206499994
0.120040007 0.223520011 0.201560020
0.138000011 0.223520011 0.195060000
0.159219995 0.221700028 0.184660003
0.181220010 0.224040031 0.188300014
0.217746675 0.223260015 0.190899998
0.239946678 0.224560022 0.185699999
0.264573336 0.228200033 0.195059985
0.292040020 0.232100010 0.206499994
0.317600012 0.239446670 0.214340001
0.346166700 0.252286673 0.224479988
0.376540005 0.265340030 0.234973356
0.409100056 0.277606696 0.247100025
0.452059984 0.298019975 0.260140002
0.491960019 0.319000036 0.275799990
0.124980003 0.248186678 0.216160014
0.128886670 0.247666672 0.210160017
0.135686666 0.246886656 0.206239998
0.147686675 0.249486685 0.203639984
0.164460003 0.250006676 0.192200005
0.189340010 0.252606660 0.190900013
0.221700028 0.255726665 0.195060000
0.247040004 0.255726665 0.193240002
0.281619996 0.259886682 0.198699996
0.304059982 0.265866637 0.207033336
0.337246627 0.273426682 0.218239993
0.369446665 0.284520030 0.231600016
0.399719983 0.295699984 0.245753348
0.434733361 0.313913375 0.263566673
0.474733293 0.334106654 0.278139979
0.514419973 0.358706653 0.294139981
0.151113331 0.280999988 0.227120012
0.148966655 0.280999988 0.223999977
0.155019984 0.279699981 0.218240008
0.172299981 0.283620000 0.216133326
0.184873328 0.286619991 0.211999997
0.206780002 0.289480001 0.202600002
0.232660010 0.289220005 0.204940006
0.264313310 0.293380022 0.210700005
0.289480001 0.297540009 0.208333313
0.332313359 0.304039985 0.213819996
0.361086637 0.314959973 0.229033336
0.392899990 0.325733334 0.242613330
0.431620002 0.339333355 0.257813334
0.468173385 0.356913298 0.277646661
0.510013223 0.380353242 0.295979947
0.552713335 0.407279998 0.322393298
0.182799995 0.320960015 0.243393332
0.180640012 0.321480006 0.244953334
0.186619997 0.323819995 0.239193335
0.207553357 0.324353337 0.232433334
0.214900002 0.327606678 0.231873333
0.232680023 0.332320005 0.225286677
