example_ofxGpuLutCube/bin/data/ofxGpuLutCube/LUT/FoggyNight.cube
TITLE "16x16x16 Adobe/IRIDAS cube 3D LUT exported with GrossGrade v0.1.027.1 (beta) 64 bit"
DOMAIN_MIN 0 0 0
DOMAIN_MAX 1 1 1
LUT_3D_SIZE 6
0.105999999 0.141100004 0.203899994
0.164660007 0.132520005 0.198440000
0.223520011 0.134860009 0.176599994
0.276840001 0.143500000 0.168699995
0.344300002 0.171079993 0.184400007
0.439300001 0.219500005 0.203899994
0.090879999 0.171839997 0.175819993
0.149000004 0.163880005 0.156020001
0.214040011 0.163099989 0.167879999
0.278400004 0.170980006 0.175819993
0.353659987 0.192980006 0.188299999
0.447880000 0.245540023 0.221060008
0.113020003 0.221180022 0.174260005
0.138000011 0.223520011 0.155239984
0.218840018 0.225080013 0.161560014
0.296460032 0.230540007 0.177379996
0.380439997 0.261960030 0.215599999
0.499580026 0.320040017 0.260400027
0.179600015 0.318360001 0.219500005
0.199220017 0.324620008 0.207020015
0.261980027 0.336480021 0.201560020
0.361620009 0.356940001 0.220339999
0.471280009 0.393640012 0.259600013
0.603860021 0.459520012 0.325500011
0.344240010 0.510600030 0.313740015
0.359360009 0.519959986 0.323879987
0.407740027 0.541900039 0.312179983
0.500400007 0.567879975 0.330959976
0.650179982 0.627460003 0.367940009
0.822020054 0.719139993 0.451799989
0.666700006 0.866699994 0.549000025
0.684640050 0.874499977 0.551340044
0.726279974 0.897239983 0.541100025
0.799219966 0.930180013 0.549000025
0.912180007 0.962260067 0.576600015
1.000000000 0.968699992 0.584399998
0.075280003 0.133300006 0.268260032
0.148220003 0.133300006 0.246340007
0.206240013 0.139560014 0.229700014
0.265139997 0.149000004 0.221120015
0.336420000 0.173419982 0.227360010
0.431300014 0.220280007 0.251019984
0.093219995 0.171839997 0.226579994
0.132540002 0.163100004 0.228919998
0.200780004 0.165440008 0.227360010
0.265919983 0.170980006 0.223460019
0.344300002 0.196880013 0.231260031
0.446339995 0.240100011 0.253360003
0.109120011 0.219540015 0.229700014
0.140340000 0.221180022 0.220340014
0.212540016 0.223520026 0.208580002
0.288659990 0.233680010 0.225020006
0.376540005 0.265860051 0.254940003
0.493340015 0.322380006 0.297960013
0.181940019 0.317580014 0.265879989
0.195320010 0.324620008 0.254960001
0.257160008 0.336479992 0.243100002
0.349920005 0.353819996 0.253320038
0.466600031 0.392859995 0.291720003
0.601559997 0.461080015 0.356860012
0.348919988 0.508260012 0.359180003
0.366380006 0.519980013 0.363979995
0.412539989 0.539560020 0.350600034
0.507419944 0.573400021 0.363200009
0.645500004 0.628240049 0.402280033
0.821980000 0.719960034 0.480739981
0.667479992 0.865920007 0.578940034
0.687759995 0.872940004 0.576600075
0.728619993 0.895620048 0.577380002
0.810920000 0.937240005 0.582059979
0.915299952 0.963860035 0.607020020
1.000000000 0.972700000 0.615620017
0.090879992 0.127059996 0.342700005
0.140360028 0.129400000 0.322380006
0.196100011 0.142700002 0.284640014
0.256520003 0.153679997 0.279960006
0.321539998 0.178140000 0.282300025
0.429700017 0.229699999 0.314579993
0.050200000 0.167000011 0.305040002
0.116139993 0.160760015 0.299580008
0.188300014 0.168599993 0.280740023
0.254960030 0.176599994 0.277620018
0.330960006 0.202340022 0.294120044
0.440079987 0.254139990 0.323940009
0.110680006 0.219540015 0.274500012
0.142700031 0.221180022 0.274500012
0.196880013 0.224300027 0.283199996
0.273680001 0.238380030 0.294120014
0.364700019 0.268239975 0.313740045
0.484640002 0.323980004 0.352960020
0.188180000 0.319920003 0.317580014
0.213320017 0.323060006 0.319940031
0.258000016 0.334920019 0.324760020
0.353820026 0.358500004 0.325540006
0.456459999 0.403880030 0.369420022
0.596880019 0.472900033 0.426660001
0.371839970 0.514500022 0.430660039
0.387439966 0.519960046 0.432220012
0.426620036 0.539560020 0.436940014
0.503460050 0.578859985 0.427480012
0.647060037 0.635340035 0.471300006
0.818899989 0.729399979 0.554500043
0.695559978 0.866699994 0.653379977
0.712239981 0.876839995 0.651040018
0.752140045 0.902700067 0.657280028
0.818060040 0.936460018 0.656499982
0.912180007 0.966239989 0.661180019
0.997659981 0.968699992 0.669820070
0.088539995 0.127839997 0.400000006
0.128619999 0.131740004 0.392980009
0.189080015 0.138760000 0.357620001
0.248660013 0.157580003 0.330959976
0.322380006 0.184399992 0.333300024
0.423400015 0.237739995 0.366340011
0.051780000 0.163880005 0.376480013
0.109120004 0.162320003 0.371799976
0.186740011 0.166220009 0.359979987
0.252620041 0.180500001 0.332540005
0.331759989 0.208580002 0.345060021
0.436960012 0.264360011 0.379680008
0.091780029 0.222740024 0.341159970
0.118480012 0.223520011 0.347399980
0.183500022 0.231320009 0.354420006
0.273680001 0.241560027 0.348179996
0.365480036 0.280860066 0.373360038
0.487760007 0.341920018 0.416500032
0.199179992 0.325500011 0.364000022
0.220460013 0.330240041 0.371019989
0.272240013 0.342020005 0.379600018
0.346020013 0.363180012 0.399179995
0.458800048 0.408700049 0.439240038
0.596840024 0.484779984 0.495740026
0.384319991 0.523880005 0.480720013
0.399140030 0.530200005 0.485460013
0.443960041 0.545140028 0.500400007
0.527819991 0.585879982 0.526279986
0.657979965 0.646279991 0.552219987
0.820400059 0.741099954 0.632160008
0.712240040 0.868259966 0.707440019
0.737219989 0.883080006 0.722379982
0.778899968 0.903540015 0.738820016
0.825919986 0.930960000 0.741940022
0.911400020 0.964600027 0.734079957
0.998440027 0.972700000 0.741940022
0.101259999 0.126279980 0.452560008
0.123940013 0.130179986 0.453399986
0.185960010 0.139580011 0.434480011
0.256520003 0.156800002 0.407800019
0.323940009 0.196879998 0.395319998
0.430500001 0.246320009 0.430660009
0.056540001 0.163100019 0.442360014
0.100359999 0.162320018 0.439200014
0.178060010 0.165440008 0.435339987
0.257300019 0.181260005 0.410140008
0.333320022 0.220339999 0.404679984
0.445540041 0.274499983 0.441579968
0.049440011 0.225860015 0.431359977
0.097180009 0.227420017 0.428240001
0.189820021 0.231320038 0.429020017
0.278479993 0.249400020 0.433739990
0.373400033 0.290220022 0.436120003
0.496460021 0.353740066 0.476819992
0.214159995 0.334920019 0.428320020
0.221240014 0.338039994 0.436080009
0.269080013 0.353020012 0.458019972
0.350700021 0.375660032 0.485579997
0.464280009 0.422000021 0.501960039
0.607020020 0.501980066 0.559280097
0.406940013 0.535660028 0.538780034
0.418000013 0.535660028 0.541899979
0.468180031 0.561640024 0.558540046
0.544420004 0.598360002 0.591340065
0.667339981 0.661100030 0.645500064
0.836920023 0.767880023 0.733300030
0.739540040 0.892440021 0.783559978
0.751340032 0.893220007 0.784380019
0.790620029 0.913020015 0.796880007
0.854180038 0.941940010 0.824200034
0.923940122 0.967879951 0.846260011
0.985179961 0.968699992 0.822620034
0.097900003 0.133300006 0.517700016
0.132520005 0.136419997 0.513020039
0.189860016 0.140359998 0.504440010
0.259640008 0.159920007 0.484640002
0.344300002 0.200000003 0.478399992
0.443199992 0.274500012 0.497900009
0.078399993 0.161540002 0.506779969
0.109900005 0.167000011 0.504379988
0.182060018 0.170160010 0.499579996
0.258860022 0.185180008 0.489320010
0.358380020 0.223460004 0.484640002
0.458819985 0.294840038 0.507559955
0.086200014 0.230540022 0.499579996
0.124740019 0.230540007 0.499579996
0.196880028 0.243900016 0.506780028
0.288660020 0.258060038 0.520820022
0.398380041 0.298020035 0.517700016
0.513020039 0.374860048 0.550500035
0.196840003 0.349860013 0.530179977
0.219680011 0.353780031 0.534880042
0.276140004 0.368640006 0.552859962
0.374100000 0.393640012 0.572579980
0.495720029 0.437680006 0.600000024
0.632940054 0.523880064 0.635280013
0.439260006 0.563199997 0.614820004
0.448680013 0.560860038 0.616379917
0.494940072 0.583540022 0.638459980
0.569440007 0.625900030 0.685399950
0.688700080 0.692600012 0.741900027
0.866620004 0.790560007 0.806940019
0.764599979 0.909900010 0.843200028
0.784399986 0.918479979 0.851000011
0.819540024 0.931740046 0.866699994
0.872160017 0.953679979 0.885420024
0.929400027 0.964600027 0.900480032
0.980499983 0.968699992 0.897899985
