example_ofxGpuLutCube/bin/data/ofxGpuLutCube/LUT/FuturisticBleak.cube
TITLE "16x16x16 Adobe/IRIDAS cube 3D LUT exported with GrossGrade v0.1.027.1 (beta) 64 bit"
DOMAIN_MIN 0 0 0
DOMAIN_MAX 1 1 1
LUT_3D_SIZE 6
0.031300001 0.047100000 0.082300000
0.153740004 0.083140008 0.115359999
0.307380021 0.156140015 0.148940012
0.451719999 0.227480009 0.191420004
0.601500034 0.301259995 0.239240021
0.760699987 0.372700006 0.286199987
0.124780014 0.200060025 0.162320003
0.194600031 0.214100033 0.163100004
0.332560033 0.240700021 0.160760000
0.480020016 0.282359987 0.190640002
0.615660012 0.341119975 0.246279985
0.765420020 0.403899997 0.289380014
0.256500036 0.363940001 0.258060038
0.290220052 0.370180011 0.251820028
0.369340062 0.394540042 0.275280029
0.493400007 0.418060005 0.265080005
0.668959975 0.439940035 0.262740046
0.834500015 0.478520036 0.291660011
0.404680014 0.523099959 0.353639990
0.431400031 0.530120015 0.347400010
0.488620013 0.544360042 0.353760034
0.586620033 0.563960016 0.378039986
0.688699961 0.589740038 0.378040016
0.843980014 0.612539947 0.374139994
0.556779981 0.687739968 0.454919994
0.575739980 0.694219947 0.461160034
0.610140026 0.699700058 0.451020002
0.681500018 0.715300024 0.465119988
0.775739968 0.733320057 0.486980021
0.872160017 0.763260007 0.494240016
0.705999970 0.854900002 0.572700024
0.719259977 0.854900002 0.568700016
0.748220026 0.860459983 0.567059994
0.796100020 0.870599985 0.567839980
0.872920036 0.884640038 0.587520003
0.972700000 0.917699993 0.623399973
0.045540005 0.066699997 0.127840012
0.138060018 0.109120011 0.168560013
0.248580039 0.192200035 0.222740024
0.400780022 0.259640008 0.281580031
0.566320002 0.320039958 0.322399974
0.744300008 0.378939986 0.351399988
0.132540002 0.203180015 0.204740018
0.189860001 0.218800038 0.221920028
0.305040032 0.256500006 0.264300019
0.443140000 0.298740000 0.290160000
0.603060067 0.351380020 0.326299995
0.763880014 0.402339995 0.352959991
0.258839995 0.365500033 0.303480029
0.287880063 0.372520000 0.307379991
0.367000043 0.392980039 0.317699999
0.504319966 0.419620007 0.312200010
0.665840030 0.447000027 0.320840031
0.797660053 0.495680004 0.371840000
0.409420013 0.526220024 0.386740029
0.426719993 0.530120015 0.390639961
0.487059981 0.546779990 0.389740020
0.578000009 0.563180029 0.401560009
0.690259933 0.588960052 0.406240016
0.850220025 0.611699998 0.403900027
0.554480016 0.688579977 0.483920008
0.570280015 0.695779979 0.485459983
0.614940047 0.698920012 0.480019957
0.680779994 0.716859996 0.487039983
0.772619963 0.734880030 0.511400044
0.870600045 0.757600009 0.518419981
0.694779992 0.854120016 0.582840025
0.716920018 0.855699956 0.588299990
0.754460037 0.860460043 0.585959971
0.798440039 0.874499977 0.590639949
0.870579958 0.883859992 0.602339983
0.968699992 0.921599984 0.646340013
0.100360006 0.100360006 0.203900009
0.154520005 0.143480003 0.232880011
0.260400027 0.212520018 0.283980012
0.365520000 0.286980003 0.333339989
0.496459991 0.364700019 0.396879971
0.676059961 0.432100028 0.441640019
0.160760000 0.218800023 0.269820035
0.203960046 0.236760005 0.286260039
0.287880003 0.273780018 0.318500012
0.390599996 0.330200016 0.356879979
0.530179977 0.393760026 0.413280010
0.698919952 0.451799989 0.450260013
0.272100002 0.369400024 0.350620002
0.295680016 0.374860018 0.352959991
0.359980047 0.398480028 0.381880045
0.483160049 0.428240061 0.407840043
0.624300003 0.467420042 0.434480041
0.770300031 0.509720027 0.469760031
0.420460016 0.527779996 0.441560030
0.444700032 0.532459974 0.443120003
0.489400029 0.548340082 0.458060056
0.577220023 0.565519989 0.464320004
0.698119938 0.591300011 0.461980015
0.851019979 0.610920012 0.475280017
0.572620034 0.691099942 0.539579988
0.588239968 0.691879928 0.542700052
0.618059993 0.700480044 0.545040071
0.676819980 0.716859996 0.538800061
0.772619963 0.737999976 0.560020030
0.874500036 0.764039993 0.566340029
0.713020027 0.851000011 0.640079975
0.719260037 0.857299984 0.640080035
0.750500023 0.862020016 0.639940083
0.799219966 0.874499977 0.638380051
0.867460012 0.886979997 0.643159986
0.962260008 0.917699993 0.684760034
0.159259990 0.152860001 0.286980003
0.192980006 0.182840019 0.308219999
0.267420024 0.235220015 0.346620023
0.374920011 0.301200002 0.392979980
0.494179994 0.378100008 0.439960033
0.636959970 0.458900005 0.493220031
0.197660014 0.239900008 0.335700005
0.223480046 0.254920006 0.345899999
0.295680046 0.293340057 0.375699997
0.400780022 0.345120013 0.415659964
0.523100019 0.414059997 0.464339972
0.657260001 0.488599986 0.503539979
0.295680016 0.380320013 0.417280018
0.314420015 0.388960004 0.428220004
0.370140016 0.409480006 0.436060011
0.466580033 0.443900019 0.459640026
0.581980050 0.494900048 0.495680064
0.705160022 0.548940003 0.544260025
0.439240009 0.534920037 0.485560000
0.458740026 0.541160047 0.491059989
0.507439971 0.553819954 0.504320025
0.578779995 0.575699985 0.526220024
0.679160058 0.599940002 0.562399983
0.810920000 0.636839986 0.593760014
0.589020014 0.692659974 0.583559990
0.597600043 0.694239974 0.585899949
0.637720048 0.703600049 0.597599983
0.686359942 0.718420029 0.610920012
0.772619963 0.743460000 0.622799993
0.888539970 0.763260007 0.619679987
0.721599996 0.852559984 0.681520045
0.742720008 0.851779997 0.684639990
0.770960033 0.861240029 0.696520030
0.802339971 0.871380031 0.696519971
0.869020045 0.889320016 0.698859990
0.961480021 0.921599984 0.753639996
0.217939988 0.207800016 0.377320021
0.244719997 0.223460004 0.381999999
0.301140040 0.267460018 0.418060005
0.400000006 0.324719995 0.455700010
0.516079962 0.397660017 0.506720066
0.646319985 0.476060003 0.552100003
0.246280015 0.273759991 0.411760032
0.266680002 0.283920020 0.418779969
0.327080041 0.317720026 0.444719970
0.416480035 0.367900074 0.480780005
0.536440015 0.425800025 0.519980013
0.667460024 0.502820015 0.567160010
0.323140055 0.397660017 0.479939997
0.341200024 0.405540079 0.484699994
0.396080077 0.425080061 0.499580026
0.481620044 0.462740034 0.528660059
0.599160016 0.508940041 0.558460057
0.705820024 0.560040057 0.595320046
0.460320026 0.547520041 0.559300005
0.481660008 0.553040028 0.556160033
0.520740032 0.561619997 0.567099988
0.586620033 0.587400019 0.587460041
0.671320021 0.616560042 0.619679987
0.773359954 0.659640014 0.645539999
0.605400026 0.699700058 0.631440043
0.614820004 0.698139966 0.633000016
0.654139996 0.710619986 0.643140018
0.701179981 0.721539974 0.651800036
0.775739908 0.752879977 0.691880047
0.875280082 0.778859973 0.723879993
0.746640027 0.858100057 0.741180003
0.754460037 0.858100057 0.741180003
0.775759995 0.864359975 0.745859981
0.817940056 0.873719990 0.762380004
0.872920096 0.895560026 0.782000005
0.961479962 0.926279962 0.828159988
0.266700000 0.254900008 0.451000005
0.290879995 0.271379977 0.464359999
0.340360016 0.304260015 0.486200005
0.422800004 0.357660025 0.527059972
0.539619982 0.419499993 0.571080029
0.670599997 0.502099991 0.623399973
0.292499989 0.310680032 0.487760007
0.311459988 0.316939980 0.487819999
0.367039979 0.345880002 0.511460006
0.446220011 0.390640020 0.541119993
0.567939997 0.444720000 0.582060039
0.686980009 0.513019979 0.621859968
0.366279989 0.421180040 0.548940003
0.383560002 0.430560023 0.552120030
0.433700025 0.446180046 0.563940048
0.510560036 0.478480011 0.582019985
0.617199957 0.524720073 0.621060014
0.719259977 0.579659998 0.658840001
0.501200020 0.559280038 0.611699998
0.509779990 0.560840011 0.615619957
0.545920014 0.578819990 0.633719981
0.599879920 0.597540021 0.644699991
0.681500018 0.632940054 0.676060081
0.786740065 0.665879965 0.708339989
0.629880011 0.712180018 0.705160022
0.633780003 0.709060013 0.702039957
0.666620016 0.717639983 0.709840000
0.719199955 0.736440003 0.726999998
0.773399949 0.758500040 0.743520021
0.864339948 0.790580034 0.774980009
0.756799996 0.866699994 0.792200029
0.772700012 0.866699994 0.788299978
0.790639997 0.870599985 0.795320034
0.836099982 0.882300019 0.806240022
0.894000053 0.900480032 0.819500029
0.952899992 0.945100009 0.929400027
