example_ofxGpuLutCube/bin/data/ofxGpuLutCube/LUT/FuturisticBleak.cube
TITLE "16x16x16 Adobe/IRIDAS cube 3D LUT exported with GrossGrade v0.1.027.1 (beta) 64 bit"
DOMAIN_MIN 0 0 0
DOMAIN_MAX 1 1 1
LUT_3D_SIZE 16
0.031300001 0.047100000 0.082300000
0.068519995 0.055426668 0.086459994
0.100813337 0.064880006 0.093259998
0.153740004 0.083140008 0.115359999
0.202940017 0.108340003 0.125760004
0.258833349 0.132033318 0.138500005
0.307380021 0.156140015 0.148940012
0.355326653 0.179980010 0.164433330
0.403380007 0.202859983 0.177073330
0.451719999 0.227480009 0.191420004
0.501999974 0.251066625 0.206499994
0.549233377 0.276059985 0.220279992
0.601500034 0.301259995 0.239240021
0.649140060 0.322900027 0.249960005
0.709873259 0.351073295 0.269293278
0.760699987 0.372700006 0.286199987
0.064099997 0.089080006 0.099220008
0.085960008 0.090126663 0.099740006
0.126813337 0.095606670 0.097420000
0.171159998 0.116146676 0.116400003
0.220366657 0.135686666 0.130700007
0.267693341 0.154273331 0.140606672
0.314666718 0.177840024 0.153420001
0.359746695 0.197140008 0.164700001
0.405460000 0.215879992 0.177333340
0.455879986 0.238666669 0.195840001
0.500179946 0.264066637 0.209619999
0.547413349 0.283360004 0.223406672
0.604620039 0.306199968 0.237419978
0.649926722 0.331226707 0.253346682
0.710133255 0.348733306 0.262793362
0.757319987 0.381020010 0.286199987
0.086500004 0.137253329 0.122913346
0.111726671 0.140893355 0.121613331
0.143493354 0.152940005 0.129673332
0.172720015 0.162040025 0.129933327
0.234426677 0.173519999 0.126813337
0.282400012 0.185699999 0.132273331
0.331000030 0.200820014 0.147900000
0.373319983 0.220060006 0.163139999
0.415133327 0.240473330 0.179979995
0.455359995 0.259120017 0.194800019
0.505639911 0.283119977 0.213519990
0.554733396 0.303839982 0.228153333
0.605920017 0.323679984 0.244459987
0.654166698 0.347946674 0.261226684
0.714299917 0.362560034 0.271640003
0.764599979 0.389860004 0.286199987
0.124780014 0.200060025 0.162320003
0.145860001 0.199540034 0.152960017
0.168300003 0.203700021 0.155560032
0.194600031 0.214100033 0.163100004
0.231826678 0.226080015 0.166740015
0.279020041 0.231540024 0.162580013
0.332560033 0.240700021 0.160760000
0.386319995 0.255440027 0.166480005
0.434253305 0.265613347 0.174640000
0.480020016 0.282359987 0.190640002
0.520479977 0.301999986 0.210399970
0.569473326 0.321339995 0.227613330
0.615660012 0.341119975 0.246279985
0.665866733 0.364646673 0.262246668
0.719499886 0.384119987 0.282039970
0.765420020 0.403899997 0.289380014
0.179126680 0.260646671 0.193760023
0.185439989 0.257526696 0.191160023
0.198740020 0.260126680 0.190640002
0.218040019 0.265126646 0.189600006
0.252066672 0.270606667 0.197659999
0.283179998 0.282900035 0.204500005
0.330740005 0.290700018 0.198180005
0.382160008 0.298240006 0.195840016
0.436560005 0.308666676 0.194800004
0.485819995 0.318906695 0.201560006
0.544340014 0.332026690 0.208839998
0.595499992 0.347446680 0.220306665
0.639526606 0.364140004 0.240280002
0.691466689 0.383060008 0.251780033
0.734346628 0.405459970 0.278913289
0.780166686 0.424780011 0.299939990
0.218300000 0.313633323 0.228699997
0.222726673 0.313633323 0.222200006
0.232113346 0.311553359 0.216480017
0.255713344 0.315713316 0.222460017
0.278740019 0.323713332 0.228180006
0.312300026 0.333433330 0.236533329
0.339160025 0.341753364 0.246333331
0.386059999 0.351373345 0.236500010
0.434253275 0.358933359 0.233640015
0.484519988 0.367819995 0.231039986
0.546499968 0.377700001 0.237833336
0.607253313 0.389259994 0.235499993
0.658819973 0.398440033 0.242899999
0.709600091 0.408873379 0.248659998
0.764173269 0.426359981 0.267993301
0.818233311 0.447133332 0.292699993
0.256500036 0.363940001 0.258060038
0.266640007 0.363940001 0.258060038
0.272980005 0.364979982 0.254680037
0.290220052 0.370180011 0.251820028
0.315206707 0.375380009 0.258060008
0.339680046 0.383700043 0.269500017
0.369340062 0.394540042 0.275280029
0.401940018 0.396920025 0.274753362
0.444673359 0.408960015 0.271580040
0.493400007 0.418060005 0.265080005
0.549400032 0.426380008 0.266666681
0.611973345 0.436300039 0.265366673
0.668959975 0.439940035 0.262740046
0.726240039 0.452206701 0.270540029
0.787493229 0.465326667 0.277873307
0.834500015 0.478520036 0.291660011
0.300639987 0.416000009 0.292840004
0.307140052 0.416000009 0.293359995
0.311833352 0.416520029 0.286040008
0.324506640 0.422759980 0.285420001
0.346426696 0.426919967 0.282380015
0.374100029 0.434493333 0.293359995
0.409740031 0.442826658 0.303240001
0.439186662 0.447506666 0.303240001
0.471213341 0.457713336 0.312599987
0.513420045 0.466126680 0.305579960
0.561126649 0.473666698 0.300120026
0.619406641 0.483713329 0.296999991
0.672620058 0.492319971 0.299339980
0.727540076 0.500120044 0.301160008
0.790353239 0.508180022 0.299599975
0.835566700 0.518480003 0.305059999
0.350933313 0.468213320 0.326279968
0.354833305 0.470293283 0.320559978
0.360553294 0.470813334 0.320039958
0.374639958 0.474193335 0.313920021
0.389199972 0.479213327 0.316780001
0.413359970 0.484233290 0.319000006
0.443620026 0.491039991 0.326799989
0.474853337 0.495719999 0.328359991
0.512413323 0.504039943 0.336733311
0.542353272 0.515740037 0.344793350
0.582446635 0.524633288 0.344899982
0.628819942 0.531713307 0.335693330
0.678899944 0.538033366 0.334653348
0.733313382 0.548853338 0.337773293
0.786193252 0.556133330 0.336733311
0.835566700 0.562373281 0.336473316
0.404680014 0.523099959 0.353639990
0.415780008 0.524919987 0.349739999
0.417340010 0.527000010 0.349739999
0.431400031 0.530120015 0.347400010
0.444960028 0.535319984 0.347453326
0.464460015 0.542720020 0.356293350
0.488620013 0.544360042 0.353760034
0.517106652 0.551986694 0.361880004
0.542306662 0.555119991 0.366560042
0.586620033 0.563960016 0.378039986
0.617339969 0.574886680 0.378833354
0.646040022 0.584020019 0.383033335
0.688699961 0.589740038 0.378040016
0.742446721 0.601000011 0.379340023
0.790099919 0.608060062 0.375699997
0.843980014 0.612539947 0.374139994
0.462666631 0.581699967 0.390799969
0.473166615 0.581699967 0.389499992
0.473686606 0.583000004 0.387419999
0.482846648 0.583779991 0.380659997
0.497319967 0.588199973 0.384039968
0.513699949 0.593399942 0.386966616
0.534539938 0.595999956 0.381439984
0.560546637 0.601006627 0.390379995
0.581439972 0.607279897 0.392719984
0.608346701 0.611439943 0.401819974
0.643166661 0.618399918 0.407799959
0.678373337 0.633219957 0.421259969
0.704639971 0.638939977 0.424899995
0.756660044 0.648106635 0.422299981
0.798419893 0.655906618 0.417486638
0.849700034 0.662699938 0.414299995
0.513980031 0.634539962 0.418200016
0.518920004 0.637400031 0.421059996
0.519960046 0.636880040 0.421059996
0.528819978 0.636099935 0.416900009
0.541433334 0.641300023 0.418980032
0.551153362 0.642633379 0.417420000
0.573633313 0.647873282 0.415340006
0.593939960 0.652813375 0.422500014
0.620180011 0.661133349 0.429859996
0.647600055 0.663733304 0.433500022
0.675720036 0.669973373 0.440259993
0.707740068 0.672653377 0.447353333
0.738773346 0.682793319 0.458613336
0.773413420 0.693426669 0.458873332
0.815853238 0.704620004 0.460393369
0.859653354 0.712939978 0.453333318
0.556779981 0.687739968 0.454919994
0.564040005 0.685940027 0.455959976
0.565599978 0.692399979 0.459340006
0.575739980 0.694219947 0.461160034
0.584339976 0.695779979 0.456739992
0.595780075 0.697080016 0.452580005
0.610140026 0.699700058 0.451020002
0.630820036 0.704120040 0.454400003
0.655673325 0.710359991 0.458099991
0.681500018 0.715300024 0.465119988
0.710839987 0.721279979 0.469020009
0.739293337 0.729600012 0.478379995
0.775739968 0.733320057 0.486980021
0.808280051 0.745039999 0.495020002
0.827119946 0.751320004 0.498659939
0.872160017 0.763260007 0.494240016
0.615560055 0.742186725 0.489840001
0.613520026 0.741666734 0.490099996
0.616640031 0.743266702 0.493740022
0.620599985 0.745866716 0.492700040
0.632240057 0.744306803 0.488020003
0.643420041 0.747946680 0.489320010
0.655940056 0.752106667 0.487760007
0.673406720 0.759526730 0.487760007
0.695446670 0.763233423 0.491919994
0.714540005 0.767160058 0.493220061
0.745286644 0.774986684 0.505380034
0.767666757 0.774726748 0.502840042
0.798399985 0.784606755 0.515840054
0.829120040 0.792680085 0.521300077
0.864573359 0.801260054 0.536160052
0.901800036 0.813260078 0.542746723
0.660173297 0.796599925 0.530679882
0.660433233 0.797119915 0.530939877
0.668493271 0.803359926 0.534579873
0.673173249 0.800499916 0.533019900
0.673453271 0.800239921 0.527819932
0.685933292 0.799199939 0.526779890
0.690473258 0.801799893 0.521319926
0.705459952 0.810119927 0.521319985
0.724700034 0.812739909 0.523919940
0.747139931 0.817153275 0.529639959
0.775713265 0.825546622 0.536140025
0.806479871 0.831179917 0.542213321
0.838199914 0.834859908 0.551853299
0.871606648 0.842920005 0.564766586
0.897653222 0.847599924 0.565819979
0.938759923 0.859913230 0.585679889
0.705999970 0.854900002 0.572700024
0.705999970 0.851000011 0.572700024
0.708079934 0.851520002 0.572166681
0.719259977 0.854900002 0.568700016
0.711979985 0.855966687 0.567606688
0.726833344 0.858900011 0.565966666
0.748220026 0.860459983 0.567059994
0.758359969 0.862800002 0.562779963
0.775159955 0.866959989 0.567099988
0.796100020 0.870599985 0.567839980
0.819500029 0.873199999 0.572600007
0.844680011 0.877359986 0.582320035
0.872920036 0.884640038 0.587520003
0.895299971 0.892960012 0.591679990
0.934579909 0.901560009 0.603120029
0.972700000 0.917699993 0.623399973
0.024200000 0.047886670 0.087260000
0.068260007 0.059940003 0.095579997
0.091440000 0.073720001 0.102100007
0.138560027 0.094840005 0.126026675
0.191960007 0.116660006 0.142966658
0.244393334 0.141926676 0.158900008
0.294640005 0.167060018 0.173299998
0.349846661 0.188820004 0.187006667
0.400519997 0.205459997 0.196899995
0.448333323 0.226700008 0.213800013
0.497319996 0.251586646 0.226539984
0.547673345 0.276319981 0.243906677
0.606699944 0.301259995 0.257840008
0.646800041 0.323160022 0.270340025
0.705973268 0.347693294 0.283620030
0.756799996 0.372960001 0.306520015
0.072420001 0.089599997 0.108606666
0.085440002 0.094026670 0.113546669
0.115633346 0.102626666 0.126046672
0.159200013 0.116940007 0.138800010
0.211260006 0.139846683 0.154480010
0.259613335 0.157913342 0.165973336
0.312320024 0.178360030 0.176020011
0.361046642 0.199240014 0.189860016
0.406760007 0.217959985 0.200800002
0.455099970 0.238926679 0.213540003
0.496019930 0.261726677 0.229466647
0.546646655 0.284920007 0.244713321
0.601500034 0.312959969 0.261480004
0.652866781 0.332006693 0.268260032
0.709879935 0.352113307 0.283099979
0.760699987 0.377120018 0.295580000
0.097159997 0.140633345 0.135686666
0.107046671 0.144793347 0.139333323
0.143233329 0.155800000 0.145553350
0.175580010 0.162053362 0.143233344
0.227653340 0.177046672 0.146106660
0.269073337 0.190126672 0.168320000
0.320600033 0.206800014 0.184140012
0.365520000 0.223193347 0.192739993
0.408879995 0.243333340 0.208600000
0.450159997 0.261980027 0.220559999
0.500699937 0.285459995 0.239206657
0.555100024 0.303319991 0.247633353
0.606479943 0.326033324 0.265900016
0.654686689 0.342673361 0.273479998
0.710399926 0.362033308 0.290639967
0.767893314 0.390120000 0.300019979
0.127080023 0.199540034 0.175480023
0.137786672 0.202660024 0.179460004
0.164920017 0.206560016 0.168560028
0.194053352 0.211513385 0.174020022
0.233126670 0.224780038 0.181020021
0.284999996 0.231540024 0.178120017
0.335693359 0.240440011 0.175120011
0.382680029 0.255466670 0.189080000
0.420973271 0.272740006 0.208079979
0.465140015 0.290940017 0.222126648
0.507733345 0.307720035 0.236840010
0.558759987 0.325780004 0.256533355
0.611173272 0.346426636 0.267220020
0.663266718 0.366480052 0.282059997
0.716639996 0.384119987 0.294020027
0.763620019 0.405460030 0.309119970
0.173519999 0.259606659 0.205479994
0.178606674 0.257786691 0.208600014
0.199260011 0.260926664 0.205220014
0.217519999 0.262266695 0.202893347
0.248019993 0.273800015 0.216726676
0.286299974 0.288100034 0.216460019
0.331793368 0.290440023 0.210480019
0.383980006 0.299540013 0.209660023
0.442333311 0.309786707 0.209900007
0.489760011 0.320586681 0.216420010
0.537006617 0.335146666 0.229766667
0.584580004 0.353473365 0.249699980
0.629253328 0.371546656 0.263559997
0.671400070 0.389326692 0.281280041
0.727819920 0.410179973 0.296099991
0.782060027 0.432580024 0.317960024
0.210500002 0.312073350 0.238613337
0.217519999 0.313893318 0.237806678
0.236253351 0.314153343 0.236506671
0.251553357 0.315973312 0.234166667
0.276140034 0.323713332 0.241533339
0.312073350 0.332366675 0.247913346
0.338880032 0.343833357 0.254413337
0.383720011 0.347733349 0.246586680
0.438953310 0.357373327 0.243340001
0.491320014 0.366519988 0.239680007
0.549326658 0.377959996 0.245506659
0.601219952 0.384840012 0.248693347
0.654093325 0.395839989 0.255973369
0.704126716 0.414660007 0.273706675
0.749553323 0.436826646 0.293239951
0.807020009 0.453113317 0.309560001
0.254940033 0.367580026 0.271140009
0.257800013 0.365500033 0.268740028
0.272920012 0.364720017 0.267160028
0.289960027 0.368880004 0.265859991
0.315206707 0.374080002 0.265619993
0.341240019 0.382400036 0.276600003
0.372260034 0.391880035 0.283980012
0.401353359 0.401093394 0.293340057
0.445193350 0.407140017 0.281380057
0.496000022 0.417280018 0.275819987
0.549066663 0.425346702 0.274780035
0.610973358 0.435000062 0.273220032
0.667399943 0.438900054 0.275300056
0.720520020 0.452300042 0.283200055
0.776833296 0.465600014 0.287520021
0.827659965 0.477120012 0.299840003
0.295180023 0.419900030 0.303499997
0.301939994 0.418080002 0.301939994
0.314693302 0.416520029 0.302199990
0.331540018 0.420680016 0.301420003
0.350326687 0.425906688 0.297259986
0.376960009 0.432686687 0.299859971
0.405840039 0.439446658 0.307919979
0.436846673 0.447506666 0.312239975
0.465259999 0.455893338 0.320826679
0.508479953 0.467686653 0.315319985
0.559766591 0.473666698 0.307920009
0.616986632 0.485533357 0.306879967
0.673920035 0.494920015 0.308699995
0.725459993 0.499080032 0.308559984
0.786973238 0.507920027 0.307940036
0.840599954 0.518060029 0.319260001
0.343346655 0.472113311 0.330966651
0.354573309 0.470553339 0.329406619
0.362893313 0.469533265 0.328113288
0.378279984 0.475033283 0.329960018
0.393619984 0.480333298 0.324986637
0.414139986 0.487399966 0.327846646
0.440759957 0.491820008 0.332040012
0.474593341 0.494159997 0.335433304
0.511886656 0.504039943 0.339346647
0.541973352 0.514440000 0.354006678
0.579846680 0.526193321 0.351926625
0.630379975 0.532233357 0.344293356
0.679419935 0.541933358 0.345333368
0.730406702 0.549373329 0.342993319
0.786193252 0.557953298 0.346186608
0.847100019 0.566273332 0.346353352
0.405733347 0.526740015 0.356366664
0.412140012 0.525179982 0.356886655
0.416820019 0.523620009 0.352359980
0.432440013 0.529860020 0.357859999
0.444440007 0.535960078 0.354699999
0.462899983 0.541419983 0.356599987
0.491480023 0.547519982 0.362659991
0.514246643 0.550960004 0.368160009
0.543333352 0.554600000 0.370499998
0.584279954 0.561619997 0.374660015
0.616039932 0.572546661 0.385919988
0.646300018 0.584020019 0.389013350
0.691820025 0.588440061 0.382460028
0.738780081 0.598919988 0.384020030
0.791133344 0.609360039 0.385126710
0.846840024 0.614099979 0.378819972
0.460359991 0.583000004 0.390086651
0.469006658 0.584039986 0.391906649
0.475526631 0.581439972 0.385079980
0.488446593 0.584299982 0.387940019
0.493679911 0.590019941 0.385859996
0.507199943 0.591059923 0.385339975
0.530900002 0.596779943 0.388299942
0.556906641 0.601559937 0.394019961
0.579619944 0.605459929 0.398959935
0.608346701 0.611706614 0.403379977
0.644986689 0.619699955 0.415100008
0.677073359 0.631919980 0.423079997
0.704900026 0.638419986 0.426719964
0.753666759 0.646806657 0.426200002
0.803359985 0.655646563 0.423079997
0.849440038 0.662439942 0.423859954
0.513979971 0.631940007 0.426480025
0.517620027 0.635839999 0.430120021
0.519446611 0.637400031 0.425700009
0.535973251 0.637920022 0.428300023
0.541953325 0.642340004 0.424080014
0.548293412 0.643933356 0.421106696
0.572333336 0.649693310 0.424333334
0.591600001 0.654893398 0.426480025
0.619920015 0.658013284 0.433500022
0.641360044 0.663733363 0.435326695
0.675199926 0.669713378 0.445786685
0.708520055 0.676293314 0.453593314
0.741373301 0.688453317 0.461733371
0.767666698 0.696286678 0.465633363
0.819739997 0.704620004 0.461993366
0.859913349 0.718399942 0.464853346
0.560840011 0.687240005 0.458359987
0.561106682 0.688279986 0.458880007
0.564819992 0.692399979 0.461480051
0.577059984 0.694999993 0.464340031
0.583039939 0.696820021 0.462000042
0.593960047 0.697859943 0.456479967
0.611820042 0.700479984 0.456499994
0.636640012 0.706460059 0.458879977
0.656973362 0.708800018 0.458099991
0.684259892 0.713479996 0.466939986
0.709319949 0.716340005 0.471619993
0.736433327 0.723879993 0.478139967
0.775739908 0.734359980 0.488820016
0.802299976 0.743520021 0.499699980
0.827119946 0.751580000 0.499699980
0.869040012 0.761886656 0.500479937
0.611946702 0.742186725 0.497380048
0.618966758 0.742186725 0.497120023
0.620286763 0.743266702 0.498140037
0.623720050 0.746906698 0.495360017
0.634060025 0.748986661 0.497060031
0.643420041 0.748726726 0.492460012
0.652300060 0.751846671 0.490379989
0.668246746 0.756540060 0.491660029
0.695186734 0.764486670 0.495980054
0.720520020 0.769006729 0.500240088
0.747406662 0.774986684 0.505180001
0.767666757 0.773686767 0.509080052
0.794760048 0.780706704 0.519220054
0.829640031 0.792420089 0.528579950
0.870553374 0.804120064 0.540146649
0.897900045 0.809346676 0.550026715
0.659386575 0.796859920 0.538766623
0.666666567 0.803619921 0.538499951
0.664853275 0.800499916 0.535646558
0.669273198 0.803359926 0.535359859
0.676573277 0.801540017 0.536679924
0.683073223 0.802839935 0.529646635
0.691153288 0.803619981 0.524179935
0.708179951 0.810119927 0.527559936
0.729119897 0.812199891 0.529379904
0.750000060 0.815859914 0.532519996
0.779353321 0.824506640 0.540906549
0.804659963 0.828446627 0.548993230
0.840539992 0.834313273 0.553933263
0.868486643 0.842919946 0.565813243
0.897653282 0.847599924 0.573713303
0.937719941 0.859393299 0.585939944
0.705739975 0.851000011 0.580240011
0.703140020 0.851260006 0.569226682
0.706519961 0.851526678 0.572433352
0.707819939 0.851779997 0.572426736
0.719260037 0.855966687 0.570546687
0.739833355 0.858900011 0.576600015
0.748220026 0.860459983 0.576600015
0.760273337 0.866439998 0.576340020
0.777073324 0.870599985 0.574520051
0.797919989 0.872680008 0.570566714
0.825926661 0.879440010 0.577086687
0.852366686 0.884899974 0.586220026
0.865660012 0.885940015 0.591419995
0.893739998 0.892960012 0.598700047
0.927559972 0.897639990 0.600780010
0.972159982 0.921339989 0.635659993
0.036440004 0.059939999 0.105219997
0.058293339 0.067479998 0.113286667
0.095340006 0.078180008 0.123433337
0.129680023 0.103680015 0.143240005
0.173520029 0.128373340 0.163640007
0.215153337 0.151873335 0.184660003
0.270620048 0.179660022 0.207060024
0.322673351 0.203380018 0.226606667
0.376966625 0.222139999 0.237140000
0.431093335 0.241793334 0.249453336
0.481386632 0.261726648 0.258293331
0.536220074 0.283119977 0.275293320
0.590580046 0.304119974 0.284159988
0.642640114 0.328373343 0.293260038
0.703853250 0.352373272 0.315339953
0.755760014 0.376599997 0.317973346
0.075540006 0.093500003 0.129686654
0.081800006 0.101826675 0.137233317
0.111986667 0.110946678 0.146073326
0.141693354 0.125800014 0.153213352
0.186739996 0.153200001 0.177566662
0.233666688 0.172760010 0.198459998
0.284220040 0.192206681 0.211220011
0.335160017 0.212779999 0.225526676
0.381659955 0.227126658 0.235533327
0.432159990 0.249940008 0.250493348
0.486586601 0.273999959 0.263306677
0.540906727 0.289620012 0.275840044
0.598119974 0.311399996 0.285720021
0.654153347 0.336173385 0.300280005
0.705179989 0.352893353 0.305720001
0.756020010 0.377899975 0.318493336
0.101580009 0.144533336 0.151900008
0.118226662 0.152160019 0.158920020
0.136213347 0.156840011 0.170879990
0.167520016 0.165953323 0.184413329
0.212040007 0.178606674 0.193280026
0.254933327 0.196140006 0.206280008
0.304520041 0.214353338 0.217733338
0.353753299 0.228493348 0.227873340
0.401299983 0.248413324 0.239433333
0.446779996 0.264059991 0.248153329
0.497060001 0.284939975 0.261206657
0.552993357 0.304879993 0.276100010
0.603619993 0.327333331 0.291180015
0.655466735 0.346153349 0.300540000
0.707279980 0.362820029 0.313259989
0.760699987 0.385959983 0.321353316
0.126560017 0.198500007 0.192733362
0.141159996 0.206300005 0.196400017
0.157120019 0.207340002 0.194580019
0.190933362 0.212033361 0.195100024
0.235986665 0.226600006 0.200040027
0.282919973 0.231553331 0.199520022
0.321913362 0.246220022 0.222153351
0.368120015 0.262226671 0.233413339
0.414199978 0.275079995 0.245033324
0.458339989 0.292500019 0.258300036
0.503820002 0.309279978 0.268486649
0.556160033 0.328900009 0.281560034
0.608299911 0.347739965 0.291180015
0.662746727 0.367520034 0.304660022
0.713259935 0.384639978 0.315620035
0.766739964 0.408580035 0.327333331
0.174560025 0.253886670 0.225053340
0.181800008 0.257786691 0.225313336
0.188040018 0.260646671 0.228953362
0.215180039 0.265926659 0.223233357
0.250506699 0.271126717 0.232086703
0.286560029 0.287580013 0.235453337
0.331080049 0.290700018 0.227653340
0.390586674 0.297200024 0.228173345
0.435546666 0.309253395 0.237093344
0.473980039 0.325006694 0.255206645
0.518393338 0.342206657 0.274020016
0.569733322 0.357633352 0.286760032
0.617720008 0.378619999 0.297680020
0.667946756 0.396880001 0.310900003
0.723399878 0.411520004 0.314073324
0.776859999 0.433100015 0.334093332
0.215700001 0.311033338 0.254413337
0.219080001 0.313893318 0.256233335
0.227413341 0.315453321 0.258833319
0.251553357 0.318773359 0.255713344
0.279260010 0.323973358 0.255713373
0.310500026 0.336033344 0.269859999
0.338293344 0.343053371 0.263513327
0.390066683 0.351893336 0.264293313
0.439733326 0.360753357 0.264073342
0.491840035 0.366519988 0.260133326
0.549586594 0.378480017 0.267226666
0.600180030 0.388479978 0.277400017
0.648113370 0.404953331 0.290140033
0.691486835 0.424540013 0.307200015
0.741693318 0.443733305 0.324993312
0.792979956 0.457793355 0.337773323
0.255980015 0.364460021 0.286840022
0.261700034 0.364199996 0.289100021
0.267720044 0.368360013 0.288660020
0.293080032 0.370180011 0.283900023
0.311046720 0.377719998 0.287060052
0.332920045 0.383700043 0.287100047
0.369140029 0.392980039 0.296980023
0.393693358 0.401160002 0.298280030
0.443893313 0.409480035 0.298280001
0.497560054 0.418320030 0.292560041
0.554106653 0.427186668 0.288399994
0.617513299 0.435520023 0.290480018
0.670780003 0.440200031 0.294120044
0.719220042 0.455940038 0.302440017
0.776313245 0.470073313 0.312999964
0.817420006 0.485540003 0.328880012
0.297259986 0.417299986 0.319779962
0.301680028 0.417299986 0.314159989
0.306619972 0.418600023 0.319780022
0.334660023 0.422759980 0.313899994
0.348806709 0.427453309 0.310779959
0.374880016 0.434246659 0.315620005
0.404773384 0.442566663 0.320313334
0.433726668 0.446466655 0.327333331
0.466913342 0.458326668 0.329186648
0.509000003 0.467166662 0.325253338
0.564246655 0.474466681 0.322653323
0.620759964 0.485560000 0.320573330
0.675520003 0.491020024 0.318753332
0.731193423 0.500120044 0.320573360
0.787233233 0.507659972 0.323433310
0.834200025 0.519780040 0.332793325
0.347553313 0.472113311 0.346393317
0.351453304 0.472113311 0.344040006
0.354833305 0.472373307 0.348473340
0.380879998 0.476433307 0.344793350
0.394233346 0.479813308 0.340633363
0.413619995 0.486879975 0.340373337
0.440239996 0.490779996 0.342753321
0.474593341 0.497799993 0.350553304
0.506380022 0.504039943 0.355573326
0.539879978 0.514180005 0.361373305
0.582186639 0.526193321 0.361333311
0.626999974 0.530413330 0.356133312
0.681760013 0.539853334 0.356653333
0.737993360 0.548333347 0.354053289
0.789833248 0.555613339 0.349253356
0.845799983 0.566273332 0.356273323
0.404173344 0.525179982 0.366860002
0.410226673 0.524919987 0.371800005
0.414739966 0.530380011 0.372580022
0.432960033 0.531539977 0.369980007
0.446000010 0.534659982 0.371540010
0.460819989 0.541446686 0.367639989
