example_ofxGpuLutCube/bin/data/ofxGpuLutCube/LUT/Hefe.cube
TITLE "16x16x16 Adobe/IRIDAS cube 3D LUT exported with GrossGrade v0.1.027.1 (beta) 64 bit"
DOMAIN_MIN 0 0 0
DOMAIN_MAX 1 1 1
LUT_3D_SIZE 16
0.000000000 0.000000000 0.000000000
0.024546668 0.004160000 0.003900000
0.064793341 0.008333335 0.003900000
0.111380018 0.015699999 0.008600003
0.173073351 0.020640003 0.012840003
0.253600031 0.032700002 0.019600000
0.357660085 0.042360011 0.023499999
0.472720027 0.052820001 0.025366668
0.577806652 0.062700003 0.031659994
0.658039987 0.070600003 0.039200000
0.728133261 0.077099994 0.043099999
0.771273315 0.078400001 0.043099999
0.808660030 0.082400002 0.043899998
0.845526695 0.090200000 0.050480008
0.873193204 0.097479977 0.054639991
0.882399976 0.097999997 0.058800001
0.000260001 0.028540002 0.004160000
0.024546668 0.028806670 0.000260001
0.068793334 0.036346670 0.003639999
0.111913361 0.044680003 0.005480006
0.170473352 0.049446676 0.013880006
0.249666691 0.061146673 0.019600000
0.355260074 0.070866682 0.027233332
0.470853359 0.083440006 0.032960001
0.572253287 0.095406666 0.033739995
0.652840018 0.103786670 0.041280001
0.724433303 0.109806664 0.043099999
0.768606663 0.117606677 0.049699999
0.811779976 0.122646667 0.047100000
0.845526695 0.126546666 0.051259998
0.865913332 0.126546666 0.050999999
0.878400028 0.130446672 0.055160001
0.000520001 0.064793341 0.011800000
0.021166671 0.065326676 0.007279999
0.060893338 0.068793342 0.010746664
0.109313354 0.081546679 0.009120004
0.170213357 0.086053349 0.013360004
0.247600034 0.095946684 0.017520005
0.353180081 0.107213348 0.023499999
0.466380030 0.121560007 0.029320002
0.575420022 0.134093344 0.035559993
0.654919982 0.144593343 0.041540001
0.726833284 0.150833338 0.045766667
0.768339992 0.159513339 0.047620002
0.811779976 0.166533351 0.047100004
0.845526695 0.170693338 0.053340014
0.865913332 0.174866661 0.050999999
0.877880037 0.175126672 0.054900002
0.011800000 0.111380018 0.016480003
0.027746666 0.111646682 0.005480006
0.060893338 0.111646689 0.009380005
0.106700011 0.114500016 0.007800000
0.173073351 0.131240025 0.012840003
0.251000047 0.141413361 0.017000003
0.356100082 0.153720021 0.023499999
0.467940032 0.169160008 0.030360002
0.574899912 0.183773354 0.034519993
0.651019990 0.191360027 0.036080003
0.726833284 0.203680009 0.042599995
0.770473301 0.212260023 0.046033334
0.812560022 0.218060017 0.050219998
0.845526695 0.221980020 0.053600006
0.865913332 0.225620016 0.054119997
0.878400028 0.225880027 0.058019999
0.015699999 0.171253353 0.020640003
0.024546668 0.176973358 0.010999998
0.061933342 0.173073351 0.015179999
0.101420030 0.167613372 0.009906672
0.159193337 0.173073366 0.020640004
0.249173358 0.203173354 0.013360002
0.350320071 0.214366689 0.022226676
0.466400027 0.235273361 0.026146667
0.579886615 0.248873338 0.034519989
0.652286649 0.258593351 0.037380006
0.725533307 0.269513339 0.044699997
0.771273315 0.277933329 0.049959999
0.812560022 0.287033379 0.047879994
0.847320020 0.294126689 0.052300006
0.865913332 0.296493381 0.052040003
0.878400028 0.299613357 0.054900002
0.017000003 0.249666691 0.026133338
0.027440008 0.254640043 0.019366672
0.068259999 0.247066692 0.018300004
0.103500016 0.251746684 0.020380003
0.162640020 0.251000047 0.020900002
0.228766695 0.254866689 0.022233337
0.349020094 0.288386703 0.013106683
0.472933352 0.309800029 0.034000006
0.577026606 0.327580005 0.036599994
0.650726676 0.337746680 0.035820000
0.726799905 0.354266703 0.047099989
0.767040014 0.355566680 0.046033334
0.813600004 0.369686693 0.050999999
0.842873394 0.373333395 0.051780012
0.865913332 0.378806680 0.054900002
0.877099991 0.379066676 0.054900002
0.022760011 0.355260074 0.038420014
0.032446668 0.357660085 0.025100006
0.066393346 0.350320071 0.024033334
0.104280025 0.353720069 0.022760011
0.158946708 0.356620073 0.018313345
0.226166695 0.360033423 0.027500000
0.319960088 0.352180094 0.020420019
0.470320016 0.412286758 0.023546666
0.571506619 0.432160079 0.034779999
0.650200009 0.442360073 0.035299990
0.726026595 0.458560079 0.043393340
0.769673288 0.467200071 0.047033321
0.813339949 0.479980111 0.048659999
0.845526695 0.486526757 0.052300010
0.865913332 0.488660067 0.051259998
0.878400028 0.492560089 0.054900002
0.029320002 0.470853359 0.050999999
0.032446668 0.468720019 0.032960001
0.066926666 0.464560032 0.030620003
0.105346687 0.471653372 0.030100005
0.162073344 0.468720019 0.031659998
0.226166680 0.467953354 0.030099997
0.317680061 0.463000029 0.028759981
0.414133340 0.468720019 0.033220001
0.570693254 0.532300055 0.037639987
0.656219959 0.549820065 0.039459996
0.725466609 0.559719980 0.040500004
0.770446658 0.570980012 0.048139997
0.813599944 0.583820045 0.048920002
0.847086668 0.589800060 0.053600021
0.869293272 0.593960047 0.056459986
0.878400028 0.594480038 0.054900002
0.031659994 0.572299898 0.061193325
0.037906665 0.574119925 0.038939994
0.069313340 0.574119925 0.033999998
0.111380018 0.575160027 0.033479996
0.163380027 0.578019977 0.036339995
0.231886685 0.575679958 0.039199997
0.323906749 0.572299898 0.032960013
0.419853359 0.572039902 0.035300002
0.511106610 0.572039902 0.029579997
0.652526617 0.641286671 0.039200000
0.725466609 0.651233256 0.046013325
0.771273315 0.659379959 0.050459992
0.811779976 0.669286668 0.051259995
0.845006704 0.674766719 0.054640003
0.865913332 0.677886665 0.051259995
0.880266666 0.683393300 0.058540009
0.039980002 0.656480014 0.075280003
0.040506668 0.652840018 0.045233335
0.069533341 0.654919982 0.039980002
0.113740020 0.654919982 0.041540001
0.165766686 0.656220019 0.038939998
0.234226704 0.653620005 0.041313339
0.328600079 0.654919982 0.039980002
0.415433347 0.652840018 0.039719999
0.516826630 0.650446653 0.039986677
0.596080065 0.657260001 0.036080003
0.714779854 0.716326654 0.042066664
0.771273315 0.727079988 0.051780004
0.814119995 0.739579976 0.047880005
0.847866714 0.744340003 0.054380011
0.865653336 0.745380044 0.050999999
0.880800009 0.749800026 0.050999999
0.040499989 0.722866595 0.075799994
0.042066664 0.722866595 0.047839988
0.070873335 0.724166632 0.042333327
0.111380018 0.724166632 0.044466656
0.170473352 0.722866595 0.040759992
0.232666686 0.722866595 0.041800000
0.323400080 0.725233257 0.041799996
0.421980023 0.724733293 0.043900002
0.520793319 0.720786572 0.040813319
0.594206691 0.722866595 0.042326659
0.660133243 0.721566617 0.039200000
0.745340049 0.766233325 0.037126694
0.809179962 0.795286655 0.047880001
0.845526695 0.799446642 0.048660025
0.865653276 0.802373290 0.054639991
0.881066680 0.806533277 0.054900002
0.045206666 0.772313356 0.080506667
0.050219998 0.771273315 0.055420000
0.075553343 0.770206690 0.048140001
0.114500023 0.770473301 0.044166666
0.167066678 0.769379973 0.044993326
0.230846688 0.768606663 0.045500003
0.325220078 0.770713329 0.046539996
0.423800021 0.770206690 0.049960002
0.521039963 0.770473361 0.049179997
0.594213307 0.771273315 0.044686664
0.658833265 0.772573292 0.045993347
0.703533351 0.770206690 0.049960002
0.786366701 0.811779976 0.050219998
0.842593372 0.842913389 0.054380011
0.862980008 0.846553385 0.053860001
0.879466653 0.853573322 0.053860001
0.047100000 0.811779976 0.090200000
0.050480001 0.812039971 0.058279999
0.073213339 0.810999990 0.047100000
0.115300022 0.811779976 0.047100000
0.173073351 0.810739994 0.048139997
0.242886692 0.811779976 0.050219998
0.327820063 0.814899981 0.050999999
0.425360024 0.809960008 0.047100008
0.521839976 0.812819958 0.049179997
0.598460019 0.814119995 0.047100000
0.662233233 0.814379990 0.049699996
0.705613375 0.812039971 0.047360007
0.745859981 0.815680027 0.046300001
0.803126693 0.844740033 0.054120000
0.837913275 0.866173327 0.051780000
0.865839958 0.874499977 0.051780000
0.050480008 0.845006704 0.093060017
0.050740007 0.845526695 0.061400011
0.076073349 0.842073381 0.050480008
0.114780031 0.845526695 0.050726686
0.169146657 0.845006704 0.051520012
0.239513382 0.847086728 0.053860016
0.330460072 0.845006704 0.053860016
0.429260015 0.842060030 0.050480008
0.525753379 0.842873335 0.052560005
0.602100015 0.843940020 0.052820012
0.668213308 0.844206691 0.053080004
0.711853325 0.844473362 0.053340010
0.748726726 0.848126709 0.053860016
0.774926662 0.845526695 0.050480008
0.811793208 0.865913332 0.054639991
0.844673336 0.878933370 0.055419993
0.050999999 0.865913332 0.094099998
0.051259998 0.865913332 0.062180001
0.076073341 0.865913332 0.054639991
0.115300022 0.865913332 0.054900002
0.174373329 0.866173327 0.050999999
0.236306682 0.869553268 0.054639991
0.332280070 0.865653276 0.054639991
0.424320042 0.867733300 0.052820001
0.522639990 0.865913332 0.053079996
0.598980010 0.868253350 0.050999999
0.661433280 0.865913332 0.050999999
0.708213329 0.865913332 0.053860001
0.746660054 0.865913332 0.054120000
0.774926662 0.865913332 0.054899991
0.791413248 0.869553328 0.050739989
0.820386648 0.878140032 0.054900002
0.054900002 0.878400028 0.094099998
0.054900002 0.878400028 0.061920002
0.076073341 0.878400028 0.054900002
0.115300022 0.881599963 0.054900002
0.168106675 0.878400028 0.054900002
0.233966693 0.878400028 0.054900002
0.334100068 0.876060009 0.054900002
0.431913346 0.876320004 0.052820001
0.524986625 0.878400028 0.055159993
0.603139997 0.878400028 0.056460001
0.665366590 0.878400028 0.054900002
0.712373316 0.878400028 0.057760000
0.746660054 0.878400028 0.054900002
0.778826654 0.878400028 0.054900002
0.791673362 0.878140032 0.054900002
0.807799995 0.874499977 0.050999999
0.004160000 0.003900000 0.025073336
0.028540002 0.003900000 0.021166671
0.065060005 0.004160000 0.024806669
0.112180024 0.011533333 0.028806670
0.178793341 0.018559998 0.032180000
0.251000047 0.017000003 0.029580003
0.357660085 0.023499999 0.034786664
0.470060021 0.025366668 0.031926673
0.578019977 0.033479996 0.040246665
0.655179977 0.041540001 0.040246669
0.725466609 0.049173325 0.046026666
0.769646645 0.056979999 0.047359999
0.813600004 0.055160001 0.051259998
0.842580020 0.059059992 0.051779989
0.866173327 0.065653324 0.054900002
0.878666699 0.065913327 0.055160001
0.003639999 0.024546668 0.028540002
0.032446668 0.028540002 0.028806670
0.069053337 0.032966670 0.036086671
0.115560025 0.043366671 0.037126675
0.181133345 0.052046668 0.044673339
0.255680054 0.062480006 0.049706675
0.361046761 0.073466673 0.056733340
0.467426687 0.081573337 0.056466673
0.582493305 0.089686669 0.067960002
0.659346640 0.101706669 0.070086673
0.727293253 0.109546669 0.075546674
0.776733339 0.116566673 0.078666672
0.820106626 0.121580005 0.082906671
0.853326678 0.126546666 0.083706670
0.877353311 0.129926652 0.087086663
0.886560023 0.126806676 0.083706677
0.004160000 0.065060012 0.032706670
0.029586673 0.069313340 0.033486672
0.061680008 0.069573343 0.032706670
0.112180024 0.081280015 0.037646674
0.173333347 0.089693345 0.038166679
0.250460029 0.098280005 0.045200005
0.355526745 0.111373350 0.053866677
0.471380025 0.125773340 0.058286674
0.584046662 0.135913342 0.066659994
0.655439973 0.144593343 0.066666678
0.727299929 0.155513331 0.076066665
0.775693297 0.161306664 0.075553343
0.818546653 0.168613344 0.081346668
0.849686682 0.170960009 0.080240004
0.873713315 0.174600005 0.083706670
0.886300027 0.175386667 0.083706670
0.007800000 0.111913361 0.041560009
0.036086667 0.115560025 0.041286673
0.065060005 0.108793356 0.034006674
0.107740022 0.116080023 0.034266677
0.176713362 0.131506696 0.040506668
0.250986695 0.141420037 0.049186673
0.358993411 0.154500023 0.056986678
0.472720027 0.168120012 0.061146669
0.580359936 0.181953356 0.066399999
0.658299983 0.193180010 0.068773329
0.730473280 0.202900022 0.078406662
0.778033316 0.212000027 0.080800004
0.819066644 0.217793345 0.081326671
0.849946678 0.222240016 0.082386665
0.870333314 0.222500011 0.083433338
0.886040032 0.226660028 0.087086670
0.015699999 0.176713362 0.052046668
0.044406671 0.177493349 0.053346671
0.071113333 0.176973358 0.040246669
0.108266689 0.174893364 0.041820008
0.164986700 0.177753344 0.047880001
0.252800047 0.199726701 0.046820000
0.361060083 0.222766697 0.054393344
0.475313365 0.232133359 0.059066668
0.579060018 0.249413356 0.066373333
0.658039987 0.261973351 0.070086673
0.729953289 0.270320028 0.077886678
0.779593289 0.285733372 0.082373343
0.819599986 0.287033409 0.081600010
0.852026701 0.298313349 0.082906671
0.873979986 0.296753377 0.083439998
0.886300027 0.299353361 0.083966672
0.019860001 0.253600031 0.061146673
0.051266667 0.256720006 0.064013340
0.071386665 0.254120022 0.048406672
0.108006686 0.251246691 0.046520010
0.163906693 0.257500023 0.046780013
0.229026690 0.246293366 0.048080008
0.365500063 0.298066705 0.052306678
0.472706676 0.309540004 0.062726676
0.579059958 0.324980021 0.066400006
0.655179977 0.338833362 0.070346668
0.730993271 0.349553347 0.078406669
0.775953352 0.357393354 0.078146666
0.822513282 0.371506721 0.083680004
0.849166691 0.376213372 0.081040002
0.875280023 0.381440014 0.084746674
0.886560023 0.379333347 0.084226675
0.022760011 0.352400064 0.068206690
0.053866677 0.359260082 0.070866674
0.072693340 0.357146740 0.052826673
0.116080023 0.361600071 0.057766680
0.170193359 0.362380087 0.053866677
0.234493375 0.357673407 0.055426672
0.340400070 0.365760088 0.059333351
0.472166687 0.412806749 0.051786654
0.580619991 0.426140070 0.065359987
0.657260001 0.444740087 0.068486676
0.729693294 0.460900068 0.076846674
0.776439965 0.470593423 0.078406669
0.819579959 0.480760098 0.081046678
0.849686682 0.490740091 0.083966672
0.876320004 0.494380087 0.085519992
0.887860060 0.492560089 0.085266672
0.029060001 0.463000029 0.077626668
0.060106672 0.473240018 0.083706670
0.075033344 0.471646696 0.062186673
0.115806684 0.474020034 0.061146669
0.173073351 0.470846683 0.064293332
0.234233364 0.475060016 0.057253342
0.327340066 0.473240018 0.061933331
0.423240036 0.472720027 0.062193342
0.583526611 0.536980033 0.072946638
0.658039987 0.549300015 0.070866674
0.733573318 0.566299975 0.081599988
0.774393320 0.576206684 0.079973340
0.820666671 0.583553374 0.084466673
0.849686682 0.590840042 0.083966672
0.875540018 0.595780015 0.085266672
0.888900042 0.595313370 0.086306676
0.029839998 0.574119925 0.088126667
0.064320005 0.580673337 0.090206668
0.071133345 0.582226634 0.063793331
0.119200021 0.584046662 0.068526670
0.176973343 0.581446588 0.067206666
0.241840020 0.581446648 0.066140004
0.331240058 0.582226634 0.066140004
0.430299997 0.580100000 0.065873332
0.531233311 0.584313273 0.066140004
0.658299983 0.639473319 0.064280011
0.733593225 0.652826607 0.081573337
0.775953352 0.661713302 0.080793329
0.816986680 0.668266654 0.079753332
0.849166691 0.676586688 0.084993340
0.875800014 0.681266665 0.079706669
0.886820018 0.672693312 0.086046666
0.037640002 0.652580023 0.100406669
0.068746679 0.655439973 0.098846674
0.075293347 0.657260001 0.072426677
0.121060029 0.659079969 0.074766673
0.174373358 0.656740010 0.072686680
0.239720017 0.658039987 0.072946675
0.332280070 0.660380006 0.073726676
0.428479999 0.659079969 0.073726676
0.526033342 0.653880000 0.066920012
0.603659987 0.656999946 0.067186676
0.728393197 0.722106576 0.078986675
0.779853344 0.730459988 0.080760002
0.818286657 0.736460030 0.081860006
0.849686682 0.742206693 0.084486663
0.875793338 0.749280035 0.082633354
0.886560023 0.746160030 0.084226675
0.044466656 0.726566613 0.108246662
0.070866667 0.727093279 0.102233328
0.079193331 0.730733275 0.075546667
0.122320019 0.729173243 0.076066673
0.175153360 0.728653252 0.076846667
0.241086692 0.727093279 0.072946653
0.334620059 0.728653252 0.076846674
0.434520006 0.731253266 0.080006659
0.530966699 0.730733335 0.076373324
0.602360010 0.728393257 0.073726684
0.669819832 0.727353275 0.074506663
0.759479940 0.773606598 0.077626668
0.815939963 0.798666596 0.079973340
0.849166691 0.802373290 0.079986691
0.873979986 0.806013286 0.083440006
0.885259986 0.806533277 0.086046666
0.045766667 0.771006644 0.117346674
0.080773331 0.776473343 0.116046667
0.080493338 0.774133325 0.082106672
0.119980015 0.774133325 0.081040002
0.173853353 0.776473343 0.079706669
0.244466692 0.777513385 0.079706669
0.340400070 0.776473343 0.082113340
0.436073333 0.776473343 0.081333339
0.534873366 0.779333353 0.081033327
0.604713321 0.777513325 0.076093338
0.671673238 0.779073358 0.079200007
0.714226663 0.773873329 0.078173332
0.790886700 0.817246735 0.079193354
0.846306682 0.846293390 0.082373343
0.872420013 0.850453377 0.083706670
0.888640046 0.848373353 0.087606668
0.047619998 0.812560022 0.125240013
0.079706669 0.819579959 0.121580005
0.081020005 0.819579959 0.084713340
0.122580022 0.819579959 0.082640007
0.176453352 0.819846630 0.079973340
0.244206697 0.822513282 0.079706669
0.340400070 0.820913315 0.078406669
0.438160032 0.819846630 0.078673333
0.537780046 0.822779953 0.081060000
0.606519997 0.819066644 0.079973340
0.673493266 0.817506611 0.079706669
0.717673302 0.819579959 0.079973340
0.757139981 0.825899959 0.076066673
0.809380114 0.849686682 0.081806660
0.845979929 0.873193324 0.081026673
0.874259949 0.884980023 0.081813335
0.050999999 0.841540039 0.123686664
0.080506660 0.849686682 0.123426668
0.084486671 0.849686682 0.084479995
0.126560017 0.849686682 0.083953336
0.181400016 0.849686682 0.082906678
0.250193357 0.849686682 0.083173342
0.346386760 0.849686682 0.083173342
0.440240026 0.849686682 0.084733345
0.538560033 0.849946678 0.084993340
0.609166682 0.849686682 0.081573337
0.674273252 0.847346663 0.083706670
0.720793307 0.849686682 0.083706670
0.757660031 0.848906696 0.083433345
0.786906719 0.849686682 0.082653351
0.824553251 0.870859981 0.087346673
0.852819979 0.887080014 0.090986677
0.054639991 0.866173327 0.130186662
0.083439991 0.873979986 0.130186662
0.084479995 0.874239981 0.090726666
0.126293346 0.874239981 0.087606676
0.183540002 0.873979986 0.087079987
0.249933362 0.873719990 0.087086655
0.343266755 0.873979986 0.087346651
0.438420027 0.873979986 0.088639982
0.540160000 0.874239981 0.087079979
0.610979974 0.876060009 0.083699994
0.674793303 0.875280023 0.083706670
0.719493330 0.873199999 0.086566672
0.757920027 0.873979986 0.086559989
0.783260047 0.873979986 0.087346643
0.803640008 0.874239981 0.083706670
0.831919968 0.886820018 0.087339982
0.054900002 0.878400028 0.130706668
0.083966672 0.886560023 0.130706668
0.084746674 0.889940023 0.090726666
0.122840017 0.886560023 0.087086670
0.180093348 0.886820018 0.080233335
0.244726688 0.889160037 0.079973340
0.339360058 0.886820018 0.080233335
0.434520006 0.886560023 0.081573337
0.538820028 0.886560023 0.082100004
0.609166682 0.888640046 0.080233335
0.673753262 0.886560023 0.079973340
0.717933357 0.887600005 0.083966672
0.751346707 0.886820018 0.080233335
0.779346645 0.886560023 0.079706669
0.799733341 0.886820018 0.079973340
0.819859982 0.886560023 0.079973340
0.008333335 0.004420001 0.069313340
0.036606673 0.004160000 0.065326676
0.068793342 0.000520001 0.064273342
0.111646689 0.011800000 0.065060005
0.176453352 0.015699999 0.061946675
0.250200033 0.019600000 0.058813345
0.357140094 0.023499999 0.068259999
0.472186685 0.028800000 0.066660009
0.573339880 0.035039991 0.067706674
0.649673343 0.039200000 0.070873342
0.721319973 0.043933321 0.074773334
0.769913316 0.044700000 0.077113338
0.814899981 0.046820004 0.075293340
0.842593372 0.047620002 0.069833331
0.866173327 0.051519997 0.072693340
0.882399976 0.054900002 0.079973340
0.003639999 0.024546668 0.061420005
0.033226673 0.032706667 0.065846682
0.069053344 0.032446668 0.064800009
0.112180024 0.040246669 0.065586679
0.174633369 0.041286673 0.066120014
0.251260042 0.048920006 0.068786666
0.358193427 0.054646678 0.072693340
0.471646696 0.060106672 0.071913339
0.580933332 0.069826663 0.075293332
0.654139996 0.072166674 0.075033344
0.729693294 0.081839994 0.084486671
0.776213348 0.083440006 0.084486671
0.819579959 0.088893332 0.083160006
0.849686682 0.093586676 0.084220007
0.870593309 0.091246672 0.084746666
0.883179963 0.094106667 0.087866671
0.000520001 0.061413340 0.065326676
0.029066671 0.068526670 0.065586679
0.072693348 0.073213339 0.072693340
0.115820028 0.080493346 0.073473342
0.178546682 0.089953348 0.082066678
0.256720036 0.099346682 0.084166683
0.363680065 0.112153351 0.094373338
0.482093394 0.125513345 0.099586673
0.588519931 0.137513340 0.107426666
0.665333331 0.146153346 0.111373343
0.733853221 0.154746667 0.116846673
0.781673372 0.160033345 0.117366679
0.824360013 0.169913352 0.126813337
0.856186688 0.174606681 0.127593338
0.878153384 0.175646678 0.128633335
0.887340009 0.171746656 0.124733344
0.009120004 0.111380018 0.077893347
0.036866672 0.115300022 0.077113345
0.077113338 0.116340026 0.081013344
0.116860032 0.123360030 0.081286676
0.182713360 0.136206686 0.082080014
0.258800030 0.147720039 0.086053342
0.363940060 0.158940047 0.092813358
0.478440076 0.172020018 0.103260010
0.588779926 0.186420023 0.111893333
0.665600002 0.197393373 0.115533344
0.730733275 0.205760032 0.119433343
0.782713354 0.216733351 0.125246659
0.824079931 0.224053353 0.127333343
0.857240021 0.229000032 0.128373340
0.877886713 0.229260013 0.125513345
0.894620001 0.236100018 0.128633335
0.015179998 0.176453352 0.082080014
0.041286673 0.174633369 0.086053349
0.082080014 0.179586694 0.086053342
0.113740027 0.185380012 0.081540011
0.175400019 0.184020028 0.076360025
0.261726677 0.204473376 0.091773339
0.371740073 0.220893383 0.095946684
0.481560022 0.238473371 0.102200009
0.588753283 0.253566682 0.107733332
0.668266654 0.265353352 0.115013346
0.735706627 0.269786686 0.116340011
0.783273339 0.281573355 0.118940011
0.827199936 0.288346738 0.128873333
0.856720030 0.298040032 0.126553342
0.881613314 0.300133377 0.131753325
0.897480011 0.300133348 0.131493330
0.020900002 0.251520038 0.099866681
0.047340002 0.252800047 0.098813348
0.088133343 0.261206686 0.097766675
0.120240018 0.267706692 0.088393345
0.176193357 0.261206686 0.093620017
0.247600049 0.265366673 0.093073338
0.371746719 0.294093370 0.097500019
0.479720026 0.310853362 0.103760004
0.589020014 0.329140007 0.105346672
0.665333331 0.340660036 0.112933345
0.733853221 0.351113379 0.122080006
0.782206714 0.362100035 0.127593338
0.824599981 0.371506691 0.126533344
0.856706679 0.378826708 0.126813337
0.877880037 0.380660027 0.130973324
0.895153344 0.382220000 0.130466685
0.022760011 0.354740083 0.103773355
0.051526684 0.358453423 0.109813347
0.093086690 0.367060065 0.108253352
0.119980022 0.371480048 0.096713342
0.180873349 0.367580056 0.096466690
0.241606712 0.364980072 0.094633326
0.339053422 0.369933426 0.096466690
0.475266725 0.418066770 0.096193336
0.589819968 0.434800059 0.107426673
0.667979956 0.450460076 0.113193348
0.734893262 0.462486744 0.116586670
0.783506632 0.474260062 0.123146683
0.825659931 0.481820077 0.126293331
0.856706679 0.489946753 0.124213345
0.881353259 0.492553413 0.128373340
0.894620001 0.495420069 0.131493345
0.031399999 0.469253361 0.121300012
0.061146669 0.474800050 0.128373340
0.102746673 0.482600033 0.124213338
0.124946691 0.485720038 0.106693335
0.182206690 0.479480058 0.103240013
0.248120040 0.485473365 0.102740012
0.340413421 0.481040031 0.108773343
0.443926692 0.484420031 0.104300007
0.591119945 0.537760019 0.108513340
0.666666687 0.554760039 0.114493348
0.736486614 0.568379998 0.121560000
0.781673372 0.577533364 0.130453333
0.825659990 0.584066689 0.127313331
0.853846669 0.590060055 0.124733336
0.878413379 0.594740033 0.130453348
0.897480011 0.597913384 0.132013336
0.035299998 0.574119925 0.132533342
0.064540006 0.582493305 0.132800013
0.106953345 0.588220000 0.130713329
0.127306700 0.591373324 0.103800006
0.185380027 0.587999940 0.106386676
0.251240045 0.588486612 0.104860008
0.344313413 0.589273334 0.109033331
0.445740014 0.590073347 0.109293334
0.543026626 0.588519931 0.099846676
0.661693275 0.645499945 0.110333338
0.738306582 0.654906631 0.123400003
0.782213330 0.661979973 0.120746680
0.825100005 0.668526649 0.126293331
0.855419993 0.680260003 0.131233364
0.879753292 0.684740007 0.127586648
0.895660043 0.685526669 0.130713329
0.041019998 0.652840018 0.144333348
0.070346668 0.659079969 0.142773345
0.111373343 0.663773298 0.143293351
0.131253347 0.666933358 0.117366679
0.182966694 0.667200029 0.112426683
0.253320038 0.667200029 0.111906677
