example_ofxGpuLutCube/bin/data/ofxGpuLutCube/LUT/Hefe.cube
TITLE "16x16x16 Adobe/IRIDAS cube 3D LUT exported with GrossGrade v0.1.027.1 (beta) 64 bit"
DOMAIN_MIN 0 0 0
DOMAIN_MAX 1 1 1
LUT_3D_SIZE 6
0.000000000 0.000000000 0.000000000
0.111380018 0.015699999 0.008600003
0.357660085 0.042360011 0.023499999
0.658039987 0.070600003 0.039200000
0.808660030 0.082400002 0.043899998
0.882399976 0.097999997 0.058800001
0.011800000 0.111380018 0.016480003
0.106700011 0.114500016 0.007800000
0.356100082 0.153720021 0.023499999
0.651019990 0.191360027 0.036080003
0.812560022 0.218060017 0.050219998
0.878400028 0.225880027 0.058019999
0.022760011 0.355260074 0.038420014
0.104280025 0.353720069 0.022760011
0.319960088 0.352180094 0.020420019
0.650200009 0.442360073 0.035299990
0.813339949 0.479980111 0.048659999
0.878400028 0.492560089 0.054900002
0.039980002 0.656480014 0.075280003
0.113740020 0.654919982 0.041540001
0.328600079 0.654919982 0.039980002
0.596080065 0.657260001 0.036080003
0.814119995 0.739579976 0.047880005
0.880800009 0.749800026 0.050999999
0.047100000 0.811779976 0.090200000
0.115300022 0.811779976 0.047100000
0.327820063 0.814899981 0.050999999
0.598460019 0.814119995 0.047100000
0.745859981 0.815680027 0.046300001
0.865839958 0.874499977 0.051780000
0.054900002 0.878400028 0.094099998
0.115300022 0.881599963 0.054900002
0.334100068 0.876060009 0.054900002
0.603139997 0.878400028 0.056460001
0.746660054 0.878400028 0.054900002
0.807799995 0.874499977 0.050999999
0.013360007 0.008600003 0.111380018
0.109060027 0.008600003 0.101160027
0.355260074 0.021960009 0.107480019
0.653360009 0.039200000 0.112940021
0.809440017 0.047100000 0.113720022
0.878400028 0.054900002 0.118420020
0.009380006 0.103500016 0.109840028
0.127860025 0.127860025 0.128660023
0.377240062 0.156080037 0.141940027
0.674520016 0.198440030 0.167860016
0.834500074 0.219640017 0.176440001
0.898800015 0.233760029 0.186680019
0.023499999 0.350580096 0.152940020
0.145920038 0.376460075 0.159220040
0.357640088 0.382760108 0.144340038
0.671400070 0.456480056 0.165500015
0.832159996 0.483880103 0.177220017
0.905099988 0.498800069 0.185880020
0.042319998 0.653360009 0.196080029
0.165520012 0.671399951 0.196880028
0.364720076 0.675300002 0.166300029
0.633760035 0.675300002 0.168640032
0.836860061 0.741160035 0.177220032
0.903560042 0.756079972 0.185900033
0.051759999 0.814119995 0.226660028
0.181980014 0.835280001 0.224320024
0.365500093 0.837639987 0.178780019
0.633759975 0.835280001 0.182760015
0.780399978 0.835280061 0.178780019
0.898820043 0.893340051 0.191360041
0.051780004 0.878400028 0.229000017
0.181920037 0.899580002 0.228220031
0.363160074 0.899580002 0.182760030
0.632940054 0.899580002 0.179560021
0.776480019 0.902760029 0.180360034
0.840780020 0.902779996 0.182760015
0.043099999 0.025100006 0.356100082
0.154500023 0.024300003 0.356060088
0.359260082 0.023499999 0.321560115
0.656480014 0.039200000 0.327080071
0.812560022 0.046300001 0.328640074
0.880800009 0.054900002 0.337280065
0.020380003 0.104300022 0.349020094
0.156080037 0.144340023 0.377240092
0.375660092 0.147460029 0.354480088
0.673739970 0.166300029 0.358440101
0.833720028 0.178800032 0.367840081
0.900380015 0.183560014 0.360820085
0.018820010 0.321580082 0.356100082
0.145920023 0.356880069 0.382760078
0.410980076 0.407080084 0.410980076
0.704300046 0.469020128 0.439220071
0.862779975 0.497280091 0.462740093
0.932560027 0.501180112 0.460380107
0.040760007 0.654919982 0.443160087
0.166300029 0.673740029 0.451760113
0.443940103 0.706680059 0.465880126
0.685480058 0.709040046 0.437660068
0.864300013 0.752940059 0.462760180
0.934900045 0.759199977 0.474520087
0.046259999 0.810220003 0.468240082
0.180380031 0.834500074 0.483100116
0.465880126 0.863499999 0.502760053
0.687839985 0.861179948 0.456480145
0.836880088 0.868219972 0.463540107
0.931740046 0.904320002 0.469020098
0.052560005 0.878400028 0.488660067
0.184340030 0.904320002 0.490200073
0.469060093 0.932560027 0.499620080
0.686300039 0.932520032 0.459600091
0.829819977 0.933340013 0.463500082
0.891759992 0.933300018 0.465060085
0.071380004 0.041540001 0.655700028
0.195300028 0.038419999 0.654919982
0.452580065 0.039199993 0.661159992
0.654139996 0.037640002 0.601579964
0.810999930 0.047100000 0.601580024
0.879999995 0.054900002 0.603139997
0.040759999 0.112160020 0.654919982
0.193720043 0.160760015 0.675320029
0.451760113 0.166300029 0.676859975
0.674520016 0.167080015 0.631359994
0.834500015 0.179560021 0.637660027
0.899580002 0.184340030 0.636879981
0.036860008 0.322360069 0.652580023
0.165480018 0.360820085 0.673739970
0.460380077 0.435280085 0.708999991
0.702740014 0.435320079 0.682360053
0.863539994 0.463520110 0.690980077
0.934900045 0.468260080 0.694120049
0.039980002 0.596080005 0.657260001
0.165520027 0.630559981 0.676080048
0.440820098 0.679240048 0.703520000
0.736440063 0.736440003 0.737220049
0.889400005 0.760760009 0.749800026
0.964699984 0.767059982 0.755299985
0.047880005 0.812559962 0.738820016
0.178020045 0.833720028 0.741940022
0.459600091 0.861159980 0.753700018
0.752139986 0.889400005 0.759979963
0.876060009 0.891740084 0.749819994
0.969380021 0.919219971 0.760019958
0.054900002 0.878400028 0.748239994
0.183520034 0.900359988 0.753699958
0.465100080 0.932560027 0.763940036
0.756819963 0.962359965 0.765500009
0.873700082 0.965479970 0.754499972
0.941980004 0.967040002 0.756079972
0.092539996 0.050219998 0.817240000
0.219620019 0.045500007 0.814119995
0.477640063 0.047100000 0.815679967
0.734899998 0.047100000 0.814119995
0.815679967 0.043899998 0.751399994
0.881600022 0.051780000 0.746660054
0.048659995 0.116080023 0.814119995
0.221980035 0.178000018 0.832939982
0.485500097 0.178000018 0.836839974
0.741160035 0.179580033 0.834500015
0.839200020 0.178780034 0.781159997
0.899580002 0.184340030 0.778820038
0.048660003 0.329420060 0.812559962
0.180360019 0.364720076 0.834520042
0.487060100 0.456480086 0.857259989
0.749020040 0.465080082 0.864299953
0.862739980 0.466660082 0.831379950
0.931739986 0.465060085 0.833720028
0.049439993 0.598460019 0.813339949
0.180360019 0.635320008 0.835280001
0.466680080 0.690219998 0.867459953
0.759199977 0.745900035 0.886280119
0.890960038 0.750580013 0.881579995
0.966260016 0.757640004 0.880800009
0.047880001 0.743540049 0.814899981
0.178780034 0.778040051 0.835280120
0.462720066 0.833720028 0.864339948
0.750580013 0.883939981 0.893299937
0.909000039 0.909000039 0.912119985
0.983520031 0.916879952 0.916100085
0.058019999 0.872159958 0.880819976
0.181160033 0.900380015 0.892540038
0.467460066 0.932560027 0.904320002
0.758419991 0.967040002 0.913679957
0.913679957 0.987420022 0.919999957
0.979620039 0.987420022 0.912899971
0.097999997 0.054900002 0.878400028
0.225880027 0.054900002 0.880039990
0.497240067 0.056460008 0.876060009
0.749800026 0.054900002 0.874499977
0.880039990 0.051780000 0.868259966
0.878400028 0.054900002 0.811800003
0.054900002 0.118420020 0.878400028
0.228220031 0.180360034 0.902779996
0.499580085 0.186680034 0.899580002
0.756079972 0.183560014 0.899580002
0.891740024 0.184340030 0.898039997
0.902000010 0.183560014 0.840780020
0.054900002 0.332540065 0.879999995
0.185900018 0.367840081 0.903560042
0.505920053 0.465060085 0.932560027
0.759199977 0.466660082 0.932560027
0.905099988 0.469020098 0.934120059
0.932560027 0.469060093 0.890980005
0.057240002 0.603139997 0.883140028
0.183560014 0.635280013 0.899580002
0.480760098 0.694880068 0.938800037
0.770180047 0.752919972 0.964699984
0.912899971 0.757619977 0.966260016
0.967040002 0.754480004 0.945879996
0.054900002 0.746660054 0.878400028
0.187460020 0.779600024 0.899580002
0.466660082 0.832940042 0.932560027
0.756079972 0.879220009 0.966260016
0.918459952 0.913679957 0.986640036
0.985080004 0.909779966 0.979620039
0.054900002 0.807799995 0.878400028
0.183560014 0.839980006 0.898800015
0.466660082 0.889420033 0.930220008
0.754480004 0.945879996 0.967040002
0.913679957 0.980400026 0.987420022
1.000000000 1.000000000 1.000000000
