example_ofxGpuLutCube/bin/data/ofxGpuLutCube/LUT/HorrorBlue.cube
TITLE "16x16x16 Adobe/IRIDAS cube 3D LUT exported with GrossGrade v0.1.027.1 (beta) 64 bit"
DOMAIN_MIN 0 0 0
DOMAIN_MAX 1 1 1
LUT_3D_SIZE 6
0.000000000 0.066699997 0.117700003
0.142740026 0.033779990 0.100479990
0.313660055 0.000000000 0.018779980
0.501980007 0.000000000 0.001559999
0.754619956 0.000000000 0.053340003
1.000000000 0.000000000 0.133300006
0.000000000 0.148200005 0.090879999
0.107340023 0.143520027 0.083080001
0.308200061 0.131040022 0.000000000
0.532519996 0.104280032 0.000000000
0.766380012 0.173400000 0.032939993
1.000000000 0.200860023 0.110679999
0.000000000 0.327820033 0.160820022
0.147420004 0.334240019 0.158420026
0.323920041 0.361540049 0.179540023
0.557720006 0.387460053 0.116780043
0.839260042 0.407080054 0.004680033
1.000000000 0.363880068 0.000000000
0.154480040 0.604740024 0.328560024
0.261140019 0.607860029 0.323100001
0.454960048 0.623580039 0.321480006
0.643920004 0.636900067 0.344280034
0.861160040 0.636900008 0.300400019
1.000000000 0.610320032 0.112140022
0.429820001 0.821139991 0.432999998
0.459600031 0.822019994 0.429100007
0.602380037 0.817200005 0.411700040
0.752200007 0.815599978 0.412479997
0.931759953 0.802280009 0.422619998
1.000000000 0.785120010 0.374179989
0.600000024 0.972700000 0.486200005
0.636179984 0.968699992 0.476839989
0.725540042 0.955240011 0.453339994
0.854879975 0.941100001 0.444759995
0.975739956 0.930180013 0.447100013
1.000000000 0.906000018 0.451000005
0.000000000 0.066699997 0.195320010
0.052580010 0.065920003 0.192980006
0.174860030 0.108340010 0.196880013
0.402419984 0.116040014 0.225820005
0.681599975 0.103560030 0.264340043
0.993739963 0.042340063 0.314420015
0.000000000 0.148980036 0.190640017
0.000000000 0.159980014 0.200840026
0.226660028 0.174020007 0.215680003
0.454840004 0.193060026 0.231320024
0.745959997 0.207100019 0.261960030
1.000000000 0.199300036 0.304219991
0.000000000 0.340480030 0.274500042
0.000000000 0.352180064 0.259680063
0.261900038 0.378780097 0.283940017
0.526260018 0.410260051 0.225100040
0.817200065 0.425900072 0.196120054
1.000000000 0.454980016 0.272119939
0.000000000 0.619620025 0.396060050
0.083120033 0.623599946 0.385060012
0.394540012 0.632999957 0.402360022
0.597659945 0.647040009 0.414880037
0.825920045 0.653280020 0.365540028
1.000000000 0.624380052 0.218880028
0.327840000 0.833000004 0.463560015
0.391340017 0.833000004 0.473720014
0.552919984 0.825119913 0.472940028
0.723899961 0.820319951 0.463560045
0.901239991 0.812479973 0.466680050
1.000000000 0.793699980 0.423460007
0.546639979 0.982059956 0.503659964
0.583620012 0.973480046 0.513799965
0.680020034 0.960699975 0.509899974
0.837660015 0.949779987 0.489319980
0.964820027 0.936419964 0.487819999
1.000000000 0.906000018 0.495620012
0.000000000 0.068260007 0.294900030
0.000000000 0.086200006 0.294900000
0.152960032 0.128660023 0.296460062
0.301200002 0.208580017 0.352980018
0.505840003 0.312959999 0.436940044
0.831379950 0.393760026 0.530220032
0.000000000 0.162320003 0.300360024
0.000000000 0.173240021 0.301940024
0.137280017 0.204760045 0.326380044
0.304320008 0.277640015 0.378800005
0.543559968 0.369380027 0.469819993
0.872899950 0.429780036 0.543600082
0.000000000 0.350620061 0.385000020
0.000000000 0.361540049 0.384340048
0.045520067 0.403880060 0.424340069
0.404740006 0.444620073 0.468240052
0.691700041 0.494920015 0.515220046
0.974139988 0.508200049 0.526260078
0.000000000 0.621960044 0.533340037
0.000000000 0.632220030 0.542720020
0.199220046 0.658739984 0.547500014
0.505140007 0.668999970 0.546720088
0.772619963 0.678439975 0.483120054
1.000000000 0.653279960 0.411020070
0.247839987 0.836120069 0.615720093
0.304300010 0.837680042 0.607100010
0.421120048 0.846300066 0.574860036
0.649439991 0.832220018 0.573300004
0.843939960 0.837680042 0.580320001
1.000000000 0.817939997 0.522360027
0.468259990 0.988300025 0.618840039
0.492499977 0.984399974 0.596940041
0.574079990 0.982840002 0.578760028
0.753699958 0.968700051 0.597660065
0.916859984 0.945840001 0.579540014
1.000000000 0.919259965 0.582780004
0.000000000 0.093220003 0.385839999
0.000000000 0.107560001 0.388300031
0.111320034 0.148180023 0.406240016
0.298079997 0.222020015 0.456400037
0.490319997 0.342739999 0.546620011
0.713800013 0.477620006 0.645480037
0.000000000 0.177260011 0.396059990
0.000000000 0.188360006 0.410200000
0.093340039 0.228940025 0.440760016
0.303539991 0.298880041 0.492579997
0.508260012 0.409400016 0.579580009
0.728619993 0.526300073 0.665099978
0.000000000 0.374020040 0.499620020
0.000000000 0.383520067 0.504360020
0.036040053 0.419660091 0.534120023
0.329339981 0.480740011 0.591420054
0.551380038 0.563120067 0.655620098
0.775639951 0.621959984 0.705100000
0.000000000 0.642360032 0.655620039
0.000000000 0.648600042 0.652500033
0.178100079 0.661080003 0.657959998
0.374100029 0.696520090 0.688719988
0.650240004 0.709780037 0.707439959
0.926280022 0.707439959 0.710559964
0.232199967 0.839240074 0.720700026
0.298840016 0.842360020 0.720760047
0.406280041 0.850200057 0.726280034
0.536420047 0.856480002 0.718360007
0.767100036 0.859599948 0.710560024
0.987519920 0.839240015 0.627480030
0.446359992 0.982840002 0.738039970
0.473720014 0.982059956 0.740379989
0.542699993 0.983619928 0.734920025
0.634499967 0.989080012 0.703539968
0.847840011 0.964640021 0.698859930
1.000000000 0.935640037 0.699639976
0.000000000 0.127839997 0.481519997
0.000000000 0.137219995 0.495020002
0.086320058 0.189060003 0.525440037
0.308219969 0.258040011 0.583539963
0.497339994 0.370279968 0.672860026
0.723940015 0.499700010 0.769500017
0.000000000 0.206300005 0.516079962
0.000000000 0.220360026 0.529359996
0.088580057 0.263540030 0.561579943
0.300400019 0.336479992 0.622799993
0.518419981 0.436920017 0.708260000
0.741939962 0.545020044 0.781999946
0.000000000 0.398460060 0.626680076
0.000000000 0.413420081 0.633700013
0.042400051 0.445520043 0.664360046
0.314480036 0.511320055 0.717600048
0.554500043 0.578740060 0.772620022
0.749740005 0.639160037 0.810140014
0.000000000 0.657180011 0.770999968
0.000000000 0.661080003 0.771780014
0.127020046 0.680880010 0.788220048
0.381900012 0.706660032 0.803899944
0.603040040 0.731740057 0.819560051
0.799999952 0.762399971 0.834560037
0.252500027 0.847899973 0.826759994
0.278560013 0.846280038 0.825860083
0.415660024 0.854920030 0.827539980
0.527840078 0.862720013 0.825860023
0.670520067 0.873700023 0.838460028
0.879179955 0.868180037 0.850239992
0.461219996 0.984399974 0.847819984
0.469040006 0.984399974 0.847839952
0.532560050 0.983619988 0.849420011
0.616380036 0.988300025 0.850180030
0.741180003 0.992200017 0.853359997
0.977379978 0.952120006 0.821840048
0.000000000 0.172700003 0.603900015
0.000000000 0.189860001 0.617940009
0.120680034 0.236060008 0.653379977
0.320760012 0.305880010 0.710560024
0.528559983 0.415600032 0.804679990
0.745100021 0.533299983 0.893999994
0.000000000 0.250240028 0.643220007
0.000000000 0.264340043 0.651799977
0.108200036 0.301160008 0.687039971
0.318420023 0.371800005 0.745119989
0.542720020 0.467460006 0.834559977
0.747440040 0.558420002 0.894060016
0.000000000 0.435260057 0.752180040
0.000000000 0.449360043 0.762320042
0.061160091 0.485480040 0.798480034
0.344280005 0.534120023 0.839999974
0.564819992 0.600720048 0.892560005
0.764720023 0.649479985 0.936420023
0.000000000 0.676020026 0.890100002
0.000000000 0.679320037 0.889379978
0.168640032 0.701200008 0.909779966
0.400840014 0.721540034 0.923940063
0.603060007 0.745059967 0.945840001
0.807799995 0.760839999 0.942700028
0.264979959 0.857259989 0.946659982
0.284720033 0.853359997 0.945879996
0.405500054 0.858040035 0.944280028
0.527819991 0.872139990 0.949779987
0.683239996 0.877600014 0.949779987
0.835399985 0.886179984 0.949779987
0.462799996 0.980499983 0.945100009
0.485420018 0.984399974 0.949000001
0.531780005 0.986739993 0.953679979
0.622620046 0.985960007 0.952899992
0.767159998 0.995320022 0.966319978
0.909900010 0.960699975 0.949000001
