example_ofxGpuLutCube/bin/data/ofxGpuLutCube/LUT/HorrorBlue.cube
TITLE "16x16x16 Adobe/IRIDAS cube 3D LUT exported with GrossGrade v0.1.027.1 (beta) 64 bit"
DOMAIN_MIN 0 0 0
DOMAIN_MAX 1 1 1
LUT_3D_SIZE 16
0.000000000 0.066699997 0.117700003
0.004186670 0.062013328 0.114059992
0.072200008 0.049440000 0.116140001
0.142740026 0.033779990 0.100479990
0.198260024 0.008579997 0.077359997
0.261433333 0.000000000 0.060099993
0.313660055 0.000000000 0.018779980
0.372800022 0.000000000 0.000000000
0.435573310 0.000000000 0.002079999
0.501980007 0.000000000 0.001559999
0.572566569 0.000000000 0.015599983
0.659313321 0.000000000 0.040780004
0.754619956 0.000000000 0.053340003
0.850786746 0.000000000 0.075266697
0.950533211 0.000000000 0.115079947
1.000000000 0.000000000 0.133300006
0.000000000 0.091680005 0.109099999
0.002360001 0.076060005 0.097120009
0.077660009 0.071900003 0.070340008
0.141960010 0.061746664 0.070039995
0.192006677 0.040806662 0.044159994
0.252853364 0.020819999 0.012999997
0.304786682 0.007039998 0.000000000
0.358966649 0.001820001 0.000000000
0.425119966 0.004186668 0.000000000
0.497000009 0.004186670 0.007280003
0.574906647 0.003660003 0.021579990
0.657493353 0.003660003 0.039480004
0.753839970 0.001300002 0.052826669
0.847140074 0.003400003 0.078906693
0.953133166 0.000000001 0.103619970
1.000000000 0.002360002 0.117700003
0.000000000 0.117440000 0.096859999
0.002880002 0.109900005 0.086199999
0.043213341 0.102620013 0.085679993
0.123200014 0.102360003 0.055493318
0.188573331 0.088840000 0.000000000
0.250640005 0.070100002 0.000000000
0.316000044 0.052353334 0.000000000
0.373059988 0.041033342 0.000000000
0.429553330 0.047793329 0.000000000
0.495453387 0.067480005 0.007280001
0.574386656 0.065906681 0.015599996
0.659613311 0.065873340 0.035799995
0.753839970 0.047526680 0.056786660
0.843940079 0.064066716 0.077866696
0.944286525 0.026946750 0.095599979
1.000000000 0.055266686 0.116659999
0.000000000 0.148200005 0.090879999
0.003400003 0.144033343 0.085419998
0.053653345 0.141433358 0.083859995
0.107340023 0.143520027 0.083080001
0.167800009 0.145080015 0.061733343
0.234453350 0.137540013 0.007860011
0.308200061 0.131040022 0.000000000
0.379820019 0.124720030 0.000000000
0.454033285 0.106620036 0.000000000
0.532519996 0.104280032 0.000000000
0.603879988 0.122100011 0.000000000
0.689453363 0.139880002 0.000000000
0.766380012 0.173400000 0.032939993
0.852540076 0.185440019 0.041319981
0.957606494 0.192520022 0.097333238
1.000000000 0.200860023 0.110679999
0.000000000 0.192280009 0.099280000
0.003140002 0.188326687 0.093300000
0.060413338 0.185393348 0.076140001
0.126820013 0.193566665 0.086280011
0.176380008 0.200080022 0.091480002
0.228213340 0.199820012 0.088353351
0.304013371 0.207126677 0.045526665
0.376699984 0.206346691 0.009440009
0.457153320 0.211546689 0.000000007
0.539399981 0.202186689 0.000000000
0.631466687 0.203226686 0.000000000
0.726013362 0.204786688 0.000000000
0.807560027 0.215186685 0.000000000
0.895846725 0.222466677 0.000000000
0.980193257 0.258026600 0.044466566
1.000000000 0.270860016 0.083453305
0.000000000 0.256233335 0.124233335
0.000000000 0.256980002 0.119813345
0.049693342 0.254900008 0.116680004
0.136500016 0.255680025 0.115100011
0.177180022 0.266213357 0.123446673
0.241733357 0.270633370 0.124233350
0.300393373 0.276620030 0.133053318
0.376126647 0.288900018 0.095646679
0.456473291 0.290233344 0.049153365
0.545120001 0.296473354 0.019633343
0.632766664 0.305900007 0.007800012
0.733100057 0.311293364 0.000000000
0.829039991 0.312173337 0.000000000
0.927820086 0.299073339 0.000000000
0.995553255 0.309053361 0.000000000
1.000000000 0.295399994 0.000000000
0.000000000 0.327820033 0.160820022
0.002086668 0.336320043 0.168880031
0.024040028 0.331380039 0.162120014
0.147420004 0.334240019 0.158420026
0.195140034 0.341520071 0.162580028
0.253553361 0.349580050 0.173040032
0.323920041 0.361540049 0.179540023
0.393460006 0.365700066 0.179273367
0.471353322 0.380913436 0.163580090
0.557720006 0.387460053 0.116780043
0.647066653 0.397393405 0.079193421
0.743100047 0.406533390 0.054880068
0.839260042 0.407080054 0.004680033
0.944513440 0.402620047 0.000000000
0.996859968 0.400100023 0.000000000
1.000000000 0.363880068 0.000000000
0.000000000 0.416566670 0.213660002
0.009126672 0.416826665 0.212360010
0.069753349 0.415786654 0.208173349
0.155086696 0.423326641 0.207106665
0.237646684 0.426446676 0.208200008
0.282940000 0.439966679 0.223020002
0.360246688 0.445686668 0.226139992
0.418906659 0.455966651 0.231646657
0.497799993 0.466646701 0.242826685
0.581380069 0.480046660 0.227446660
0.666706622 0.484206676 0.191380024
0.755093336 0.496193320 0.166766673
0.843480051 0.497486651 0.103213310
0.945046842 0.494906664 0.045426659
0.997639954 0.479013354 0.000000024
1.000000000 0.462206692 0.000000000
0.039733309 0.512673318 0.274193287
0.080199957 0.510853350 0.270553321
0.132993311 0.510333359 0.271333307
0.204500005 0.513973355 0.261099964
0.276286662 0.521566629 0.263533324
0.344633311 0.524739981 0.266653329
0.401579976 0.536740005 0.274193347
0.470293313 0.540133297 0.279273301
0.531813323 0.550153255 0.288179994
0.610700071 0.562633336 0.308979958
0.683926642 0.569913328 0.291286647
0.767653346 0.571473300 0.255673319
0.849199951 0.574593306 0.221139967
0.942966759 0.564973295 0.146946549
0.996859968 0.556653380 0.073200077
1.000000000 0.539753318 0.020959988
0.154480040 0.604740024 0.328560024
0.195753351 0.609420002 0.332719982
0.214113355 0.609420002 0.328040004
0.261140019 0.607860029 0.323100001
0.330166668 0.613059998 0.321020007
0.396893352 0.620420039 0.323066682
0.454960048 0.623580039 0.321480006
0.513466716 0.628059983 0.322566658
0.576159954 0.629620016 0.333620012
0.643920004 0.636900067 0.344280034
0.710546672 0.639500022 0.351820022
0.773633420 0.640280068 0.340860009
0.861160040 0.636900008 0.300400019
0.947126746 0.632740021 0.252799928
0.997119904 0.628260016 0.187646732
1.000000000 0.610320032 0.112140022
0.241866618 0.691566646 0.372599989
0.251779974 0.691566646 0.372859985
0.278406620 0.692086637 0.372079968
0.328339964 0.695726573 0.369479954
0.386686653 0.697286665 0.370259970
0.443133324 0.698066592 0.372599989
0.505079985 0.696246624 0.365026623
0.552746594 0.698620021 0.360299975
0.607599974 0.698099971 0.362966657
0.670639992 0.701740026 0.373120010
0.741266608 0.700699985 0.375199974
0.807633281 0.701999962 0.381699979
0.867660046 0.701479971 0.381686598
0.952846766 0.695500016 0.335386574
0.997379899 0.686633289 0.277253389
1.000000000 0.677066624 0.220899925
0.322113335 0.763753355 0.401559979
0.336953342 0.765313327 0.406760037
0.354313344 0.762193322 0.410400003
0.392953366 0.761673331 0.398439974
0.449433327 0.763753355 0.401559979
0.491993338 0.759333313 0.399219990
0.548460066 0.758773327 0.390379995
0.606040061 0.755926669 0.385700017
0.656173289 0.762193322 0.392953336
0.712933362 0.759073377 0.395580024
0.770493329 0.759073377 0.396100014
0.838773310 0.752093315 0.397659987
0.899140000 0.756139994 0.404160023
0.965806782 0.746373355 0.393719971
0.997640014 0.742993295 0.362140059
1.000000000 0.741093338 0.311353326
0.429820001 0.821139991 0.432999998
0.422540039 0.822193325 0.434300005
0.440033346 0.824420035 0.433000028
0.459600031 0.822019994 0.429100007
0.501619995 0.817939997 0.424599975
0.549753368 0.817713380 0.412740022
0.602380037 0.817200005 0.411700040
0.647866666 0.812460005 0.404940009
0.707399964 0.815339983 0.413780004
0.752200007 0.815599978 0.412479997
0.810279906 0.808059990 0.410140038
0.874153316 0.804160058 0.415080011
0.931759953 0.802280009 0.422619998
0.987726748 0.802306652 0.419759989
0.998699963 0.797600031 0.419240057
1.000000000 0.785120010 0.374179989
0.488266706 0.875500083 0.456286699
0.487766713 0.872120082 0.455760032
0.511406779 0.873186707 0.450493366
0.530680060 0.874486744 0.456006676
0.562026739 0.869246721 0.447620034
0.597706795 0.868986726 0.444460034
0.652560055 0.866919994 0.430820018
0.706606746 0.865866661 0.425740033
0.750113368 0.864306688 0.424700022
0.803646684 0.864826679 0.429179996
0.847606659 0.856506705 0.428686708
0.902786732 0.847333372 0.417173356
0.946599960 0.845760047 0.425480008
0.993200064 0.845760047 0.427300006
1.000000000 0.842120051 0.437440008
1.000000000 0.829640031 0.425046742
0.537959993 0.926259995 0.469820023
0.539526641 0.929119945 0.469040036
0.563073277 0.922359943 0.458893329
0.578393221 0.922619879 0.462020010
0.607079983 0.922099888 0.457046658
0.642693341 0.921059966 0.452299982
0.685013294 0.915079892 0.441900015
0.741526604 0.909359872 0.434859991
0.791393220 0.905199945 0.432673335
0.837419987 0.901299953 0.431033343
0.891059875 0.902599990 0.436633348
0.927039981 0.894059956 0.429966688
0.970799983 0.888013244 0.436120033
0.995819986 0.884113252 0.445259988
1.000000000 0.880213261 0.445780009
1.000000000 0.868253231 0.446046650
0.600000024 0.972700000 0.486200005
0.604420006 0.972700000 0.486200005
0.614859998 0.972166657 0.485160023
0.636179984 0.968699992 0.476839989
0.648686647 0.966566682 0.470600009
0.686299980 0.959399998 0.465366662
0.725540042 0.955240011 0.453339994
0.767340004 0.951079965 0.451000005
0.811233342 0.944786668 0.448920012
0.854879975 0.941100001 0.444759995
0.901999950 0.938499987 0.443199992
0.934859991 0.934340060 0.446060002
0.975739956 0.930180013 0.447100013
0.997920036 0.926019967 0.447100013
1.000000000 0.918219984 0.465393275
1.000000000 0.906000018 0.451000005
0.000000000 0.066959992 0.131746665
0.000000000 0.062540002 0.134866685
0.013833342 0.062539995 0.131746665
0.096673347 0.058886662 0.136686653
0.169080004 0.048626661 0.124986663
0.232866675 0.025053332 0.108786672
0.294620037 0.003660003 0.091166660
0.363626689 0.002620002 0.075046673
0.431393296 0.000260001 0.073746666
0.497800022 0.000000000 0.078940004
0.570226550 0.000000000 0.084666669
0.653333366 0.000000000 0.093526676
0.755653322 0.000000000 0.119226672
0.854426801 0.000000000 0.132806674
0.947153211 0.000000000 0.158633307
1.000000000 0.000000000 0.187260017
0.000000000 0.084399998 0.123426668
-0.000000000 0.083880007 0.130706668
0.026586674 0.079459995 0.130446658
0.117713340 0.067746662 0.117146663
0.177160025 0.055186663 0.101826668
0.238866672 0.034546662 0.092979997
0.298800021 0.010426668 0.069546662
0.361566693 0.005226672 0.066406675
0.430366635 0.003660004 0.072960004
0.498340011 0.002880003 0.080506675
0.573346674 0.003926669 0.091166668
0.657493353 0.002620003 0.100006670
0.744773328 0.001820002 0.112206668
0.846066773 0.002880003 0.137486711
0.953133166 0.000520001 0.155253321
1.000000000 0.003140002 0.183886662
0.000000000 0.117706664 0.121086679
0.000000000 0.114060000 0.112506673
0.017186670 0.109899998 0.115366660
0.113040015 0.107026666 0.085953325
0.178086668 0.098199993 0.043706674
0.230806664 0.092486665 0.056486670
0.291260064 0.086766675 0.058633331
0.355846673 0.068786673 0.054180004
0.420706660 0.050533339 0.060946658
0.488680035 0.064633347 0.076593339
0.565806687 0.071120009 0.081799999
0.658013344 0.056706682 0.090140007
0.751686692 0.045666683 0.109606661
0.849466741 0.043306686 0.129686698
0.944553196 0.026146717 0.154993311
1.000000000 0.059426684 0.169860005
0.000000000 0.149240017 0.126286671
0.000000000 0.149240017 0.113286667
0.014066672 0.143000036 0.110686667
0.087560013 0.143780038 0.110426664
0.150560006 0.150020018 0.094040006
0.224306673 0.143520027 0.034940019
0.293860048 0.140919998 0.008346678
0.370406628 0.133900017 0.006786671
0.435313344 0.141960010 0.024306647
0.501773417 0.152126685 0.046306659
0.571306586 0.164420024 0.055459972
0.662733436 0.179140016 0.082013331
0.756959975 0.190706685 0.108779989
0.847140074 0.191240028 0.127606675
0.954433143 0.196700037 0.154993296
1.000000000 0.205540031 0.177126676
0.000000000 0.194580004 0.121366672
0.000000000 0.196700037 0.126046672
0.005746671 0.197220013 0.129699990
0.098753348 0.196960017 0.121100001
0.149786681 0.200600013 0.124746680
0.213646695 0.209726691 0.117726684
0.291780055 0.213366672 0.076606661
0.364426672 0.211286679 0.037046690
0.449353337 0.212326676 0.008606684
0.538060009 0.202673361 0.004186670
0.622579992 0.214373320 0.003660003
0.702253342 0.235226691 0.017986670
0.787500024 0.247866690 0.055379998
0.863586783 0.269053370 0.097000033
0.964633226 0.294360012 0.147373289
1.000000000 0.292526692 0.167679980
0.000000000 0.257760018 0.145886689
0.000000000 0.264133364 0.153973341
0.005486671 0.264913350 0.158433348
0.094313353 0.262053370 0.143260002
0.163640022 0.267513365 0.146133333
0.223793373 0.272453368 0.151113346
0.291260004 0.292046666 0.173273325
0.362346679 0.290466696 0.122133337
0.448053330 0.295693338 0.082340032
0.536773384 0.304013342 0.040453345
0.630646586 0.313473344 0.023033354
0.724933326 0.315526694 0.004186670
0.822260022 0.310066700 0.005226671
0.918193460 0.312173367 0.004446670
0.994773269 0.343526632 0.067366548
1.000000000 0.341386676 0.087873325
0.000000000 0.338400036 0.182260022
0.000000000 0.340480030 0.185180038
0.007846672 0.336580038 0.185140014
0.103793360 0.337620050 0.184880018
0.175180033 0.342040062 0.180340022
0.247033358 0.352180064 0.191380024
0.312200040 0.364926726 0.200286701
0.378826678 0.378253400 0.217786714
0.456113309 0.380133390 0.178493395
0.545120060 0.391360044 0.146920055
0.638486624 0.403666705 0.114460088
0.734593332 0.412086725 0.075046748
0.833753347 0.406860083 0.030860061
0.934373438 0.410286784 0.005746671
0.996339917 0.404520065 0.002620003
1.000000000 0.377453417 0.001560001
0.000000000 0.421506643 0.224586666
0.000000000 0.420726657 0.230086669
0.025386674 0.422026634 0.231386676
0.132860020 0.425146639 0.231633320
0.209720030 0.430866688 0.229006678
0.277433366 0.438926697 0.237353340
0.343086720 0.443086684 0.244406685
0.413699985 0.455966681 0.249086663
0.480833322 0.470546722 0.268986642
0.561760008 0.481086671 0.245966643
0.651746631 0.488886684 0.214120016
0.744333386 0.502479970 0.193480000
0.841333330 0.501946688 0.134186655
0.935646772 0.497520030 0.062526606
0.996859968 0.489199996 0.019046690
1.000000000 0.468759984 0.001560001
0.012739992 0.513193309 0.279293299
0.037133314 0.514753282 0.288699985
0.100146629 0.513193309 0.288959950
0.166486695 0.517626643 0.287140042
0.249693304 0.526533306 0.286833316
0.321326643 0.528953254 0.282673329
0.388786674 0.537013292 0.292600006
0.451286614 0.539353311 0.296246648
0.522433281 0.550673306 0.303786665
0.597139955 0.566533327 0.320706606
0.677646637 0.574073315 0.308193296
0.756646693 0.579293311 0.277213275
0.846853316 0.575913250 0.236673310
0.930660069 0.566013277 0.169966578
0.996073246 0.562373281 0.105573401
1.000000000 0.549893320 0.060693298
0.097973354 0.612020016 0.340140015
0.117640011 0.613580048 0.341179997
0.193660006 0.611760020 0.345340014
0.223520026 0.609680057 0.338060021
0.313246697 0.615926683 0.339619994
0.384840041 0.623613358 0.339359999
0.443380028 0.626760006 0.336239994
0.500380039 0.633520007 0.347940028
0.560559988 0.630140007 0.348720014
0.636113346 0.637419999 0.355120003
0.703786552 0.643400013 0.359226674
0.769993365 0.647559941 0.359799981
0.852320015 0.643920004 0.317386657
0.941633344 0.633780003 0.267133296
0.996073246 0.629040003 0.210746750
1.000000000 0.620199978 0.153820023
0.196779951 0.695726633 0.376499981
0.218819916 0.693646610 0.380139977
0.264786631 0.700406611 0.389239967
0.314506620 0.700666666 0.388719946
0.367626607 0.697806656 0.385339975
0.434446692 0.696246624 0.377799988
0.491746664 0.699660003 0.373379976
0.541966677 0.698099971 0.373120010
0.598126650 0.700959921 0.379879981
0.664106607 0.700699985 0.377540022
0.737806618 0.703559995 0.391939938
0.798593342 0.701479912 0.391393304
0.864279985 0.701999962 0.393966585
0.945566773 0.698619962 0.349286556
0.997379899 0.691053331 0.291833401
1.000000000 0.682466626 0.240826607
0.298773319 0.764013350 0.409359992
0.307453334 0.762973309 0.410420001
0.330913365 0.768173337 0.421340019
0.390313357 0.765833318 0.420040041
0.437940031 0.765313268 0.417440027
0.478653342 0.760893345 0.408326656
0.540133357 0.759853363 0.404960006
0.592733383 0.760113358 0.404419959
0.647333324 0.760373354 0.399740010
0.706113338 0.760893345 0.405979991
0.762173295 0.761673331 0.406500012
0.834580004 0.755866706 0.412220001
0.896740019 0.755100012 0.405480027
0.958506763 0.749493361 0.410146624
0.997119904 0.745333314 0.366633356
1.000000000 0.747673333 0.330693334
0.390819967 0.824940026 0.441839993
0.402000010 0.824679971 0.441320002
0.412693322 0.827800035 0.447306693
0.454660028 0.823066652 0.445746690
0.491460025 0.818480015 0.437379986
0.534933388 0.817426682 0.426846623
0.589880049 0.818760037 0.423680037
0.645526707 0.819580019 0.424719989
0.700899959 0.818493366 0.422380000
0.746406674 0.816900015 0.423680007
0.805186629 0.807020009 0.418220013
0.856980026 0.804939985 0.420040011
0.923880041 0.806219935 0.426539987
0.977846801 0.802826643 0.433520049
0.998180032 0.795000017 0.418220043
1.000000000 0.786680043 0.385380000
0.451300085 0.879686713 0.454646677
0.484326720 0.876046717 0.458366662
0.487726778 0.876826704 0.459406644
0.527560055 0.875266731 0.462526679
0.553966761 0.871326745 0.461206675
0.597113431 0.869766712 0.449673355
0.641026735 0.865086675 0.441600025
0.693346739 0.863539994 0.433420002
0.747773349 0.868220031 0.436826676
0.802546740 0.866906703 0.443420053
0.840026677 0.857286692 0.434980065
0.900420070 0.852606714 0.435853332
0.943480015 0.849406660 0.434060037
0.992146730 0.846280038 0.442126691
0.999220014 0.841860056 0.439546704
1.000000000 0.829640031 0.439780056
0.523919940 0.930159986 0.476833284
0.543766618 0.926519990 0.477619976
0.547433257 0.925740004 0.477619976
0.573713303 0.922359884 0.476059943
0.596079886 0.918719947 0.468259960
0.633413315 0.917939901 0.456786662
0.685760021 0.913259983 0.447886676
0.736446559 0.910919905 0.445806682
0.777753234 0.906499982 0.440580010
0.831906676 0.902079940 0.440599978
0.883726597 0.902859986 0.446066678
0.918720007 0.896919966 0.446566701
0.962979913 0.889319897 0.441646636
0.995299995 0.888013244 0.449706703
1.000000000 0.880473256 0.454646617
1.000000000 0.868513227 0.447620034
0.569486678 0.976599991 0.483080000
0.591939926 0.976599991 0.494539976
0.602600038 0.972166657 0.493999988
0.622406662 0.968699992 0.491919965
0.641920030 0.966826677 0.479439974
0.672940016 0.959399998 0.476319999
0.706080019 0.956799984 0.469819993
0.749086678 0.954719961 0.464099973
0.800000012 0.948473334 0.455473334
0.851459980 0.944833338 0.449446678
0.903039932 0.939833343 0.452826679
0.943513334 0.937200010 0.455426663
0.969519973 0.930960000 0.455686659
0.996360004 0.926019967 0.465126663
1.000000000 0.921859980 0.467739969
1.000000000 0.906000018 0.471379995
0.000000000 0.070080005 0.167760015
0.000000000 0.063320003 0.168280005
0.006280006 0.059420001 0.160999998
0.074780010 0.065140001 0.159700006
0.112513341 0.076060005 0.158660010
0.165960014 0.075840004 0.166199997
0.232866704 0.066973336 0.160480008
0.304013342 0.055993341 0.157620013
0.384546638 0.034553353 0.157620013
0.462146640 0.014613343 0.152633339
0.544333339 0.012533343 0.161499992
0.639239967 0.014653347 0.177340016
0.741760015 0.009413345 0.188340008
0.845000029 0.009933341 0.202913344
0.943759918 0.009413343 0.220593318
1.000000000 0.000000000 0.236713350
0.000000000 0.084140003 0.164120004
0.000000000 0.084660001 0.164119989
0.001560002 0.088299997 0.161520004
0.037253354 0.089340001 0.158140004
0.107873335 0.093259998 0.164899990
0.175079986 0.089620009 0.163079992
0.245366707 0.079219997 0.153953344
0.313393325 0.062546670 0.151326656
0.387379944 0.044433352 0.150560036
0.470573366 0.025313344 0.154459998
0.558479965 0.016733348 0.165426657
0.646799982 0.017513350 0.166486666
0.745146632 0.017000016 0.180226699
0.846580088 0.015940014 0.208113372
0.947399855 0.008106676 0.219293326
1.000000000 0.009153341 0.236993358
0.000000000 0.117440000 0.153720021
0.000000000 0.114593334 0.150600031
-0.000000000 0.111733340 0.154760003
0.044020019 0.112253346 0.161520004
0.127633333 0.111733340 0.155280009
0.191999987 0.110893331 0.158380002
0.261000037 0.101333328 0.142193362
0.338126659 0.093533337 0.142193347
0.410779983 0.082613349 0.146366671
0.487340033 0.065146685 0.149520010
0.566833317 0.069880001 0.155800015
0.654893339 0.062833346 0.165953338
0.751173377 0.051686682 0.186460033
0.848680079 0.058866702 0.202393338
0.943773210 0.035266735 0.214353308
1.000000000 0.064366683 0.239140004
0.000000000 0.152960017 0.165419996
0.000000000 0.149499997 0.165420011
0.000000000 0.151840031 0.155020013
0.034666684 0.148460001 0.152160019
0.128940001 0.154513344 0.127620012
0.200360000 0.151333362 0.101913340
0.265420020 0.158160016 0.125013337
0.342833370 0.157873377 0.127093345
0.417559952 0.150800020 0.134113342
0.488679975 0.159460038 0.145053357
0.563726664 0.172000021 0.149480015
0.656453311 0.188553363 0.170480013
0.753259957 0.196440041 0.182593346
0.843940079 0.191240028 0.187833354
0.951306462 0.209699988 0.215393305
1.000000000 0.209700033 0.243460014
0.000000000 0.199040025 0.170660004
0.000000000 0.198260009 0.175346658
0.000000000 0.201120019 0.156100005
0.030726684 0.201900020 0.164153337
0.119053334 0.206073344 0.162080020
0.192453325 0.213626683 0.157913357
0.276640058 0.218306676 0.116659991
0.356366664 0.218566686 0.089933343
0.436353296 0.223246694 0.090933353
0.502253413 0.234726697 0.109533340
0.575986743 0.254606664 0.137759998
0.666373312 0.269566715 0.161520004
0.762146711 0.286273360 0.172053322
0.847593427 0.287346631 0.187806696
0.954166532 0.301440001 0.214353308
1.000000000 0.297486663 0.239166677
0.000000000 0.263613343 0.198220015
0.000000000 0.266473353 0.195100009
0.000000000 0.269853354 0.188080013
0.006006683 0.270893335 0.194580019
0.128406689 0.269333363 0.185153335
0.202953354 0.280253351 0.194593355
0.272700012 0.290980041 0.194033340
0.352986693 0.300373375 0.159706697
0.433233291 0.305080026 0.127633348
0.527320027 0.309253335 0.090773344
0.624019980 0.317373335 0.081600018
0.716053367 0.325033307 0.091546677
0.804399967 0.340973347 0.123673342
0.884646773 0.358706683 0.149833366
0.966739953 0.382019967 0.205686584
1.000000000 0.373320013 0.212713346
0.000000000 0.342040062 0.227353349
0.000000000 0.342560083 0.218513340
0.000000000 0.343080014 0.220333338
0.015660031 0.348540038 0.228733361
0.119926699 0.348280013 0.223793343
0.221960023 0.356080085 0.218853369
0.291806728 0.374840051 0.236820057
0.360786676 0.378826678 0.238160044
0.450133324 0.391880035 0.211506724
0.541466653 0.398133367 0.180680066
0.630906641 0.411240071 0.147760049
0.729106665 0.417580068 0.121840052
0.830600023 0.417580038 0.103013389
0.927033424 0.419920057 0.087060004
0.995553255 0.419373363 0.104846567
1.000000000 0.406880021 0.113393284
0.000000000 0.427226692 0.246506691
0.000000000 0.425146669 0.243906662
0.000000000 0.422286659 0.249846667
0.043926697 0.432946682 0.264086664
0.167846680 0.433986664 0.261486650
0.244953319 0.440486670 0.264606655
0.321300030 0.449886680 0.273006707
0.392673343 0.465379983 0.285300016
0.469733328 0.478746682 0.297773331
0.551360011 0.485780001 0.269526660
0.649926603 0.492819995 0.232393369
0.737453401 0.507706702 0.214893326
0.830600023 0.506146610 0.178266659
0.934113443 0.504813313 0.127286628
0.996599913 0.489673376 0.076586738
1.000000000 0.475626677 0.038573347
0.000000000 0.522293329 0.297813326
0.001559999 0.517353296 0.298579961
0.025119977 0.516873300 0.303793281
0.106406651 0.525726616 0.315233320
0.212873325 0.528146684 0.316313297
0.299126685 0.533633292 0.316819966
0.363166660 0.536233306 0.314713329
0.434773356 0.550013244 0.332346648
0.505606651 0.554313362 0.335473329
0.581239998 0.571473300 0.355873346
0.664866626 0.577193320 0.330740005
0.745853305 0.578773260 0.292826653
0.832680047 0.581919909 0.261933327
0.928340197 0.571746588 0.202553242
0.996339917 0.567573309 0.153420046
1.000000000 0.556653321 0.089853309
0.053106673 0.617753386 0.354340017
0.054666676 0.615926683 0.351173371
0.111386672 0.615660012 0.355380028
0.199906707 0.617493331 0.368900031
0.271573365 0.621746719 0.367340028
0.352440029 0.627279997 0.368640006
