example_ofxGpuLutCube/bin/data/ofxGpuLutCube/LUT/Lomo-fi.cube
TITLE "16x16x16 Adobe/IRIDAS cube 3D LUT exported with GrossGrade v0.1.027.1 (beta) 64 bit"
DOMAIN_MIN 0 0 0
DOMAIN_MAX 1 1 1
LUT_3D_SIZE 16
0.000000000 0.000000000 0.000000000
0.012580003 0.000000000 0.000000000
0.036873341 0.000000000 0.000000000
0.073760025 0.000000000 0.000000000
0.157660037 0.000000000 0.000000000
0.300666749 0.002599997 0.000000000
0.545100152 0.000000000 0.000000000
0.713480055 0.000000000 0.000000000
0.824546635 0.000000000 0.002079997
0.891000032 0.000000000 0.000000000
0.934666634 0.000000000 0.002599995
0.962620020 0.000000000 0.000000000
0.978820026 0.000000000 0.000000000
0.991146684 0.000000000 0.000000000
0.995840013 0.000000000 0.000000000
1.000000000 0.000000000 0.000000000
0.000000000 0.012320002 0.000000000
0.012580003 0.012320002 0.003639999
0.036606673 0.012320002 0.003900000
0.076880023 0.012320002 0.003639999
0.151346713 0.012320002 0.000000000
0.301966727 0.011513334 0.000000000
0.537506819 0.014659995 0.001560006
0.715040028 0.010720000 0.002079998
0.820906639 0.012320002 0.001819998
0.888866663 0.012320002 0.001559998
0.932326674 0.012320002 0.003639999
0.958953321 0.012320002 0.000000000
0.978560030 0.012320003 0.000000000
0.991666675 0.012320002 0.000000000
0.995840013 0.012320002 0.000000000
1.000000000 0.008586668 0.000000000
0.000000000 0.033493336 0.000000000
0.009113337 0.033493336 0.000520001
0.032960001 0.033493336 0.000520001
0.073493354 0.036613334 0.003639998
0.152980044 0.033493336 0.000000000
0.298586726 0.033493336 0.000000000
0.536980212 0.032453332 0.000000000
0.709060013 0.035313338 0.002599999
0.820646644 0.033493336 0.000000000
0.887040019 0.033493336 0.000000000
0.930733263 0.033493336 0.000000002
0.958693326 0.032960001 0.000000000
0.978820026 0.033493336 0.000000002
0.991666675 0.033493336 0.000520001
0.995840013 0.033493336 0.000000000
1.000000000 0.033493336 0.000520001
0.000000000 0.072960019 0.000000000
0.009380005 0.072960019 0.000780003
0.036079999 0.072960019 0.000520001
0.073760025 0.075300016 0.000000000
0.152720034 0.075820021 0.000000000
0.304046750 0.072180018 0.000780003
0.538020134 0.075300016 0.000000000
0.706666708 0.072960019 0.000000000
0.820646644 0.074260019 0.002079997
0.887040019 0.072180018 0.000000000
0.930733263 0.072180018 0.000780003
0.958693326 0.075300023 0.000000000
0.976480007 0.073740020 0.000000000
0.988480031 0.075560033 0.000000000
0.992713332 0.072960019 0.000000000
1.000000000 0.072180018 0.000000000
0.002859997 0.154020041 0.000000000
0.013599994 0.153760046 0.002859997
0.032960005 0.152966708 0.000520001
0.075553358 0.146406710 0.000000000
0.152693376 0.147940040 0.000000000
0.298000067 0.153500035 0.000260000
0.533860147 0.150873363 0.000000000
0.706146717 0.156620041 0.000779999
0.824806690 0.151113376 0.001039999
0.884440064 0.154280037 0.000000000
0.931773245 0.153240040 0.001559996
0.960513353 0.152980044 0.002859997
0.976499975 0.150846690 0.000779996
0.990599990 0.152980044 0.002340005
0.999480009 0.153753370 0.004679992
1.000000000 0.152980044 0.001040003
0.000000000 0.301966727 0.000000000
0.013106670 0.306653410 0.003386666
0.035313334 0.303786725 0.001040003
0.075026691 0.306906730 0.005199995
0.153206706 0.302486718 0.002599997
0.300666749 0.308500081 0.002599997
0.536200166 0.303266734 0.000000000
0.712180078 0.306906760 0.002079998
0.826626658 0.305086732 0.002599995
0.881840050 0.306673378 0.000000000
0.933366656 0.305900067 0.002599997
0.960513353 0.300666720 0.000000000
0.978820026 0.303266734 0.000000000
0.991146684 0.303266734 0.000000000
0.995840013 0.301706731 0.000000000
1.000000000 0.303266734 0.000000000
0.002339994 0.542760134 0.000000000
0.012320002 0.539060175 0.000000000
0.031153345 0.537760139 0.000000000
0.072960019 0.537240148 0.000000000
0.154020041 0.539120138 0.002859997
0.304040074 0.546140194 0.005979991
0.540360212 0.532560170 0.000000000
0.714780033 0.541193485 0.004159996
0.820386648 0.543280125 0.001560000
0.879979968 0.538820148 0.000000000
0.932559967 0.537273467 0.000000000
0.957653344 0.536713481 0.000000000
0.977259994 0.538840175 0.003899994
0.993486643 0.538800180 0.002339994
0.995840013 0.534900129 0.000000000
1.000000000 0.536460161 0.000000000
0.000000000 0.711660028 0.000000000
0.010446671 0.707446694 0.000000000
0.033493336 0.703286707 0.000520001
0.074000023 0.712440014 0.002079998
0.149006709 0.710619986 0.000000000
0.296766728 0.710566700 0.001039999
0.540160120 0.703806698 0.000519992
0.705626667 0.707706690 0.000000000
0.819086671 0.711660028 0.000260002
0.885220051 0.711346686 0.000000000
0.935966611 0.708746672 0.000000000
0.960513353 0.710593402 0.003900000
0.978320003 0.708226681 0.000000000
0.992706656 0.711126685 0.000000000
0.997393370 0.711086690 0.001819995
1.000000000 0.707446694 0.000000000
0.000000000 0.818826675 0.000000000
0.008586668 0.820906699 0.002079997
0.035053335 0.819606662 0.002079997
0.071626700 0.820906699 0.000780000
0.154800043 0.820126653 0.001039999
0.299086720 0.823506653 0.002599997
0.541966796 0.817526698 0.000000006
0.711393356 0.820386648 0.001819995
0.818826675 0.820906699 0.002079997
0.886519969 0.820906699 0.001559998
0.935446739 0.820386648 0.002079997
0.961553335 0.820906699 0.002079997
0.978820026 0.821946681 0.002079997
0.991146684 0.820906699 0.002079997
0.997920036 0.820906699 0.002079997
1.000000000 0.822726667 0.002079997
0.000000000 0.887040019 0.000000000
0.010720003 0.887040019 0.000000000
0.035313338 0.885219991 0.000000000
0.072160028 0.887040019 0.000780003
0.151086718 0.887040019 0.000000000
0.304306746 0.885740042 0.001039999
0.538060129 0.888640046 0.000000000
0.704580009 0.887040019 0.000000000
0.821166694 0.887040019 0.002079997
0.887040019 0.887040019 0.000000000
0.932066679 0.887040019 0.000000000
0.959993362 0.888080001 0.000000000
0.978040040 0.887040019 0.000000000
0.993486702 0.889440000 0.000000000
0.997913361 0.886780024 0.000000000
1.000000000 0.887040019 0.000000000
0.000000000 0.930733263 0.000000000
0.008586668 0.932066679 0.000000000
0.036873341 0.931253254 0.001820004
0.073760018 0.930733263 0.000000000
0.152940065 0.930473268 0.000000000
0.298033386 0.930733323 0.001299997
0.532560170 0.933106661 0.000000000
0.708226740 0.930733263 0.001820002
0.821426690 0.930733263 0.000000000
0.884700000 0.934406638 0.001299996
0.930733323 0.930733263 0.000000000
0.960253358 0.932066679 0.000260005
0.975700021 0.931533277 0.000780000
0.987680018 0.931533337 0.000000000
0.995840013 0.931800008 0.001039995
1.000000000 0.930733263 0.000000000
0.000000000 0.957653344 0.000000000
0.009393334 0.961553335 0.000000000
0.034000002 0.958173335 0.002860001
0.070826694 0.958693326 0.000780003
0.157400027 0.958693326 0.001819998
0.291753381 0.961059988 0.001039999
0.537006795 0.961293340 0.001299995
0.706953347 0.959473312 0.002860001
0.819086671 0.958693326 0.002079997
0.884180009 0.961553335 0.000519999
0.931539953 0.958693326 0.002599995
0.961553335 0.958693326 0.000000000
0.976760030 0.957913339 0.000000011
0.992186666 0.958693326 0.000000000
0.996879995 0.958433330 0.002859990
1.000000000 0.958693326 0.000000000
0.000000000 0.978820026 0.003120000
0.012320002 0.978820026 0.000000000
0.036873341 0.978820026 0.002600000
0.075300023 0.978820026 0.000000000
0.158180043 0.978820026 0.004160003
0.306420058 0.975700021 0.001299997
0.534880161 0.980379999 0.001560000
0.710846722 0.977520049 0.000000000
0.820906699 0.978820026 0.002079997
0.884700000 0.978820026 0.000000000
0.932066679 0.978300035 0.000000000
0.960773349 0.975960016 0.000000000
0.978820086 0.978820026 0.000000000
0.990880013 0.978820026 0.003120000
0.995840013 0.978820026 0.000000000
1.000000000 0.978820026 0.003120000
0.000000000 0.991146684 0.003380008
0.012320002 0.991146684 0.000000000
0.036353346 0.991146684 0.003379998
0.075560033 0.991146684 0.000000000
0.150873363 0.991146684 0.002340005
0.299300075 0.989813328 0.001300002
0.538800180 0.990626693 0.001820002
0.716113389 0.991666675 0.003380008
0.820906699 0.991146684 0.002079997
0.884700000 0.991146684 0.000000000
0.932066679 0.991146684 0.003380008
0.961033344 0.991666675 0.000520007
0.975700021 0.991146684 0.000000000
0.991146684 0.991146684 0.000000000
0.995840013 0.991146684 0.000000000
1.000000000 0.991146684 0.003380008
0.000000000 0.995840013 0.000000000
0.008326668 0.995840013 0.000000000
0.032960001 0.995840013 0.000000000
0.072960019 0.995840013 0.000000000
0.154793352 0.992200017 0.000000000
0.299100071 0.999480009 0.000000000
0.545653522 0.995840013 0.001560000
0.707973361 0.999213338 0.001819995
0.820906699 0.995840013 0.002079997
0.884440005 0.995840013 0.000000000
0.931799948 0.995840013 0.002599995
0.957653344 0.996879995 0.000000000
0.975700021 0.995840013 0.000000000
0.991146684 0.995840013 0.000000000
0.995840013 0.995840013 0.000000000
1.000000000 0.995840013 0.003639990
0.000000000 1.000000000 0.000000000
0.008326668 1.000000000 0.000000000
0.032960001 1.000000000 0.000000000
0.072960019 1.000000000 0.000000000
0.149006709 1.000000000 0.000000000
0.295400053 1.000000000 0.000000000
0.540360153 0.997660041 0.000000000
0.709526718 1.000000000 0.000000000
0.820906699 1.000000000 0.002079997
0.884700000 1.000000000 0.000000000
0.932066679 1.000000000 0.000000000
0.957653344 1.000000000 0.000000000
0.979620039 1.000000000 0.000000000
0.991666675 1.000000000 0.000000000
0.996100008 1.000000000 0.000000000
1.000000000 1.000000000 0.000000000
0.000000000 0.000000000 0.012320002
0.012060001 0.000000000 0.012320003
0.036606673 0.000000000 0.012320002
0.073493361 0.000000000 0.012840005
0.152980044 0.000000000 0.008326668
0.306153417 0.001300002 0.010693340
0.543020129 0.000000000 0.009920008
0.709006727 0.001560001 0.013620002
0.822986662 0.001819998 0.014140000
0.888599992 0.000000000 0.010186668
0.932066679 0.000000000 0.010986665
0.961553335 0.001039999 0.008586668
0.979620039 0.000000000 0.015180001
0.991666675 0.000000000 0.015960000
0.999480009 0.000000000 0.012320001
1.000000000 0.000000000 0.012320002
0.000000000 0.012580003 0.012320002
0.008326667 0.012580003 0.012320002
0.036606673 0.008853336 0.012320002
0.073493361 0.011786666 0.009120005
0.158960044 0.012320002 0.011519999
0.301966727 0.011253333 0.009653337
0.541720152 0.012580003 0.014919996
0.709526718 0.012320002 0.012060001
0.825073361 0.012320002 0.014139999
0.887306690 0.012320002 0.012320002
0.934406638 0.012320002 0.012060003
0.961553335 0.012320002 0.008586668
0.979620039 0.012320002 0.012320002
0.991666675 0.012320002 0.012839994
0.996100008 0.012053326 0.012320002
1.000000000 0.012320002 0.012320002
0.000260001 0.033493336 0.009113337
0.008853336 0.033753335 0.009113337
0.036873341 0.033493340 0.009113337
0.073226690 0.033226669 0.006260008
0.152720034 0.036353335 0.012320002
0.294340074 0.033493336 0.011780001
0.529180169 0.035833333 0.011253330
0.704846680 0.033753335 0.011246668
0.821426690 0.033753339 0.010973333
0.883660018 0.033493336 0.012580003
0.928600013 0.033493336 0.012580004
0.957133353 0.033493336 0.011773337
0.976220012 0.033493336 0.009113337
0.988213360 0.034013327 0.009646663
0.992720008 0.033493336 0.008853336
0.996619999 0.033493336 0.009113337
0.000000000 0.072960019 0.011786666
0.006260008 0.073226683 0.012046667
0.033753339 0.072700016 0.011786666
0.070293374 0.072180018 0.008586668
0.149786711 0.072960019 0.012053335
0.300673395 0.073493361 0.009646673
0.534640193 0.072700016 0.007580013
0.711140037 0.072700016 0.011253336
0.822986662 0.074793354 0.009413331
0.884700000 0.072700016 0.008846669
0.931800008 0.073226683 0.011246667
0.959733367 0.072960019 0.011513337
0.978820026 0.072960019 0.010986670
0.991146684 0.072960019 0.012320002
0.995840013 0.072960019 0.011786666
1.000000000 0.072960019 0.011786666
0.002859997 0.155840039 0.015179998
0.009646672 0.153500050 0.009646672
0.030893341 0.151666701 0.011786667
0.073493361 0.150046706 0.009120004
0.152720049 0.152200028 0.013859995
0.297546715 0.156353384 0.013853329
0.539900124 0.151673362 0.010219997
0.711920083 0.154260039 0.011759995
0.821426630 0.151913375 0.013333331
0.883660018 0.154540047 0.012320002
0.933359981 0.152160048 0.012020005
0.962073326 0.153500050 0.012580003
0.978560030 0.152980044 0.010460004
0.991666675 0.153760031 0.012320002
0.996100008 0.153233379 0.012053326
0.999740005 0.151940033 0.014659997
0.000260001 0.302226722 0.011993341
0.013853328 0.306386709 0.013620004
0.034246668 0.303006738 0.010433338
0.072960019 0.301446736 0.010953343
0.152720049 0.306126744 0.014919998
0.296500057 0.300146729 0.010993334
0.546140194 0.300926745 0.017266667
0.704846740 0.300926715 0.010473331
0.820906699 0.301733404 0.013886668
0.883140028 0.302226722 0.012060001
0.930466652 0.300926715 0.010700005
0.959213316 0.297546744 0.011500005
0.980640054 0.308513403 0.014640005
0.987973332 0.303526729 0.008613333
0.995580018 0.303266734 0.009653332
0.998960018 0.302486718 0.011253333
0.000000000 0.535940111 0.009920008
0.010726661 0.539346814 0.008326668
0.032453332 0.534353435 0.007580013
0.071093373 0.539120078 0.007580013
0.155566707 0.539640129 0.012546653
0.298266739 0.534640133 0.009113340
0.545360148 0.534900129 0.012320002
0.707706690 0.534640133 0.008326668
0.817526698 0.531500161 0.008079998
0.884959996 0.537240148 0.010726662
0.929166675 0.533306777 0.008093340
0.961033344 0.536200106 0.014400004
0.977259994 0.539100111 0.010480014
0.989280045 0.539366782 0.009920008
0.998180032 0.541980147 0.011793320
1.000000000 0.535940111 0.008326668
0.000000000 0.707446694 0.008586668
0.010980001 0.711086690 0.010446671
0.033493336 0.710359991 0.012320002
0.077120021 0.710046649 0.010446671
0.159973368 0.710046709 0.012279997
0.299353391 0.709526718 0.011526668
0.539586782 0.707966685 0.010726662
0.705106735 0.707446694 0.012060001
0.821686625 0.709786713 0.014133322
0.886520028 0.710866690 0.014140001
0.929933310 0.708486676 0.009920000
0.960280001 0.715820014 0.015960000
0.978820026 0.711120009 0.012820013
0.991146684 0.713480055 0.012320002
0.995840013 0.709786713 0.010186664
1.000000000 0.709266722 0.012060001
0.000000000 0.820906699 0.010713333
0.008586668 0.820906699 0.010713333
0.035046674 0.819606662 0.010973333
0.073760025 0.824026704 0.011233335
0.152693376 0.820906699 0.012319999
0.305346727 0.820646644 0.012579998
0.541673481 0.822206616 0.014139995
0.706666648 0.820126712 0.010453332
0.822726667 0.820906699 0.010980003
0.884959996 0.818826675 0.008853338
0.933886707 0.820386648 0.013880005
0.958693326 0.819606721 0.009126671
0.977780044 0.819086671 0.011513332
0.992966712 0.822206676 0.015440009
0.995833337 0.822466671 0.010713332
1.000000000 0.818826675 0.010453333
0.002080001 0.884700000 0.010720002
0.010720003 0.886780024 0.010720003
0.035573341 0.883660018 0.010720002
0.075320020 0.886520028 0.011240005
0.156360045 0.884180009 0.010980004
0.302233398 0.886780024 0.010980004
0.534373462 0.884966731 0.008100009
0.709526718 0.884960055 0.010720002
0.821426690 0.886780024 0.014920005
0.887306690 0.888599992 0.014400003
0.933073282 0.884700000 0.012320010
0.958433330 0.887040019 0.010720002
0.976740003 0.887040019 0.010720002
0.991666675 0.887040019 0.012320002
0.995833337 0.886780024 0.008326658
1.000000000 0.884700000 0.010720002
0.000000000 0.930733263 0.009920006
0.008586668 0.930733263 0.012320002
0.036340006 0.930733263 0.013620004
0.073760018 0.930733263 0.011233342
0.152426690 0.930733263 0.011519999
0.299366713 0.933626652 0.011253335
0.535420120 0.930466592 0.010726668
0.712406695 0.930993259 0.014399999
0.819606662 0.930733323 0.010986664
0.886780024 0.932066619 0.010719995
0.930733263 0.930733323 0.008586668
0.958433330 0.932066679 0.008586667
0.979360044 0.931533277 0.012320002
0.992446661 0.930733263 0.012320002
0.995580018 0.930473268 0.009653329
0.999740005 0.930466592 0.012060002
0.001039999 0.957653344 0.011513337
0.009393333 0.958693326 0.011253336
0.034779999 0.957653344 0.012053334
0.074000023 0.960773349 0.009380005
0.150593355 0.958433330 0.011519999
0.300653398 0.961293340 0.014660002
0.539086819 0.958953321 0.013620007
0.714000046 0.958953321 0.014920002
0.821166635 0.962593317 0.012819997
0.884440005 0.959213316 0.012060001
0.934139967 0.961293340 0.015959995
0.956093311 0.957653344 0.012320002
0.978300035 0.958693326 0.011520004
0.991146684 0.958953321 0.012580003
0.995840013 0.961553335 0.012053326
1.000000000 0.956093311 0.012320002
0.000000000 0.978820026 0.012320002
0.011520003 0.978820026 0.011520003
0.035826672 0.978820026 0.014920000
0.072693363 0.978820026 0.011520005
0.152680054 0.974866688 0.013099996
0.303533375 0.977519989 0.013359995
0.539620161 0.977800012 0.010720002
0.715560019 0.977259994 0.013099994
0.820906699 0.978820026 0.013340000
0.884700000 0.978820026 0.012319993
0.932066679 0.978820026 0.012320002
0.960513353 0.979360044 0.012319991
0.979620039 0.978820026 0.012320001
0.991146684 0.978820026 0.012053328
0.995840013 0.978820026 0.008586668
1.000000000 0.978820026 0.012320002
0.000000000 0.991146684 0.008846669
0.011786676 0.991666675 0.008846669
0.036606673 0.991146684 0.015180008
0.073493361 0.991146684 0.012306679
0.152980044 0.991146684 0.010986674
0.309046715 0.990573347 0.012580003
0.544060171 0.993226707 0.012046677
0.712180018 0.991146684 0.012320002
0.822206676 0.991146684 0.013606674
0.884700000 0.991146684 0.012320002
0.932066679 0.991146684 0.012320003
0.961033344 0.992186666 0.012580003
0.978820026 0.991146684 0.011786676
0.991146684 0.991146684 0.012320002
0.995840013 0.991146684 0.011786664
1.000000000 0.991146684 0.012580003
0.000000000 0.995840013 0.012053326
0.012053325 0.995840013 0.008586668
0.036079995 0.995840013 0.012320002
0.073493354 0.995840013 0.012840002
0.154800043 0.996619999 0.014653316
0.304040015 0.996360004 0.012313326
0.538546801 0.992193341 0.011246666
0.705893338 0.997399986 0.013879997
0.820906699 0.995840013 0.010453332
0.884700000 0.995840013 0.012319993
0.931799948 0.995840013 0.012320002
0.961293340 0.996100008 0.012319991
0.978560030 0.995840013 0.012053325
0.991146684 0.995840013 0.012319989
0.995840013 0.995840013 0.012053325
1.000000000 0.995840013 0.012320002
0.000000000 1.000000000 0.012320002
0.012320002 1.000000000 0.012320002
0.036873341 1.000000000 0.012320002
0.073493361 1.000000000 0.009120004
0.155320048 1.000000000 0.008586668
0.302486718 1.000000000 0.009653337
0.539900124 1.000000000 0.012320002
0.704326689 1.000000000 0.010720000
0.822726667 1.000000000 0.010453332
0.884700000 1.000000000 0.010186668
0.932066679 1.000000000 0.012320002
0.961553335 1.000000000 0.009653335
0.975960016 1.000000000 0.011520002
0.987946689 1.000000000 0.009119994
0.995840013 1.000000000 0.008586668
1.000000000 1.000000000 0.012320002
0.000000000 0.000000000 0.034013338
0.012320002 0.000000000 0.034013338
0.033493336 0.000000000 0.033493336
0.076080024 0.000000000 0.034013338
0.153500050 0.000000000 0.034013338
0.301720083 0.000520001 0.034013338
0.543800175 0.000000000 0.033493336
0.715040028 0.000000000 0.032713339
0.820906699 0.000000000 0.032193337
0.885219991 0.000000000 0.034013338
0.932586670 0.000000000 0.033493340
0.961553335 0.000000000 0.034013338
0.975700021 0.000000000 0.031413339
0.991146684 0.000000000 0.034013338
0.995840013 0.000000000 0.033233330
1.000000000 0.000000000 0.034013338
0.000000000 0.012580003 0.033493336
0.012320002 0.012580003 0.033493336
0.036873337 0.012320002 0.036873341
0.072960019 0.012320002 0.034013338
0.159480035 0.009373337 0.037133340
0.297226757 0.012053334 0.033226669
0.536986828 0.011253330 0.033486672
0.706926644 0.013620002 0.033753339
0.820906699 0.012320002 0.035313334
0.885219991 0.012320002 0.034013338
0.932586670 0.012053334 0.033753335
0.961293340 0.012320002 0.034013338
0.979100049 0.012320002 0.033493336
0.991666675 0.012320002 0.034273326
0.996100008 0.012320002 0.033753339
1.000000000 0.012320002 0.037393339
0.000000000 0.033493336 0.033493336
0.008853336 0.036873337 0.033493336
0.030113339 0.033493336 0.033493340
0.069500022 0.032960001 0.034013338
0.145613372 0.033493336 0.034013338
0.298273414 0.034013338 0.034533340
0.536980152 0.032960001 0.034013338
0.709526718 0.031933341 0.034533340
0.820906699 0.033493336 0.035573334
0.884700000 0.033493336 0.035573337
0.930733263 0.033493336 0.035573337
0.958173335 0.034533337 0.035053339
0.979620039 0.033493336 0.033493336
0.991666675 0.033493336 0.033493336
0.996100008 0.033493336 0.033493336
1.000000000 0.032960001 0.036873337
0.000000000 0.072960019 0.032960001
0.012320002 0.076080024 0.033226669
0.033493336 0.072960019 0.033753339
0.072960019 0.072440021 0.031153344
0.153240040 0.073226690 0.034273341
0.302486718 0.072700016 0.033493336
0.532820165 0.075300023 0.031153345
0.706406653 0.072180018 0.032193337
0.820906699 0.072960019 0.031400006
0.886520028 0.073493354 0.033493336
0.932066679 0.072960019 0.032960005
0.961033344 0.074000023 0.033493336
0.976480007 0.073480017 0.031153338
0.988480031 0.076080024 0.033493336
0.996619999 0.075820014 0.033233330
1.000000000 0.075560026 0.033753343
0.000000000 0.152980044 0.032960001
0.015173332 0.150566727 0.033753335
0.033493336 0.153500035 0.033493340
0.070293367 0.152980044 0.033480007
0.151926696 0.152460039 0.029580005
0.299353391 0.155060038 0.030373339
0.545633554 0.150566712 0.033493340
0.710620046 0.153760031 0.034013338
0.820386708 0.152433366 0.032959998
0.888093352 0.156100050 0.035040006
0.931766689 0.151900053 0.034260005
0.958460033 0.154540032 0.032713339
0.979340017 0.152700037 0.035560004
0.991666675 0.152980044 0.032440003
0.996613324 0.153753370 0.032960001
0.999480009 0.152460039 0.042073328
0.000780001 0.305346757 0.033493336
0.014653332 0.303786755 0.035573337
0.033753339 0.306400061 0.034526676
0.073226690 0.308206737 0.037393339
0.151873395 0.305086732 0.037393339
0.303526729 0.295400053 0.030113339
0.540680110 0.300393403 0.032440007
0.707966685 0.298533410 0.031153340
0.819606662 0.301446736 0.035313334
0.882880032 0.300380051 0.033753339
0.929933310 0.299593389 0.034273341
0.962360024 0.304046750 0.035833340
0.978559971 0.300666690 0.036613338
0.991926670 0.302746743 0.036873348
0.996360004 0.303259999 0.035573341
0.997399986 0.297480077 0.034793340
0.001040005 0.533860147 0.033493336
0.011793334 0.533313453 0.034793328
0.033493336 0.540680170 0.036873337
0.073226690 0.539380133 0.038433328
0.157660037 0.536706746 0.041033316
0.294880062 0.531766832 0.032440003
0.534900129 0.545880198 0.038693327
0.705106676 0.534646809 0.030633332
0.823766708 0.534900188 0.032180004
0.886000037 0.535420120 0.032453332
0.931239963 0.539606810 0.034779996
0.960513353 0.539873481 0.033753328
0.977539957 0.535960138 0.032453328
0.994526684 0.535940170 0.036353350
0.995573342 0.534120142 0.033233326
1.000000000 0.535940111 0.034533340
0.002079998 0.707706690 0.032193337
0.013353335 0.707446694 0.031673342
0.033493336 0.711660028 0.033493336
0.073493354 0.710880041 0.033233337
0.154020026 0.708746731 0.034793336
0.296233386 0.710826695 0.034273341
0.550033510 0.710306644 0.036093339
0.713220060 0.709526658 0.036873341
0.822206736 0.711913347 0.037393324
0.883920074 0.712426722 0.034520000
0.931233346 0.712680042 0.036613327
0.961839974 0.709526718 0.035573337
0.977520049 0.710826695 0.036093339
0.993226647 0.709526718 0.035053346
0.997393370 0.709786713 0.035040002
1.000000000 0.709006727 0.035040002
0.000000000 0.820906699 0.033493336
0.009373335 0.820906699 0.035313338
0.035313338 0.818826675 0.035053335
0.074280024 0.820906699 0.032193340
0.155840039 0.819086671 0.035560001
0.298046708 0.822466671 0.033493336
0.538586795 0.821960032 0.034013327
0.710613370 0.821426690 0.033493336
0.820906699 0.820386708 0.034520000
0.884700000 0.820906699 0.032960005
0.932586610 0.820906699 0.035053335
0.959473312 0.819346666 0.031140005
0.977019966 0.821426690 0.032453332
0.991146684 0.822726667 0.035053339
0.998960018 0.822206676 0.034793328
1.000000000 0.820906699 0.035573337
0.001820000 0.887040019 0.031933337
0.010720003 0.887040019 0.034013338
0.035313338 0.883140028 0.034013338
0.074786685 0.886780024 0.032453340
0.154800043 0.885739982 0.033493336
0.299366713 0.887040019 0.031400003
