example_ofxGpuLutCube/bin/data/ofxGpuLutCube/LUT/Lomo-fi.cube
TITLE "16x16x16 Adobe/IRIDAS cube 3D LUT exported with GrossGrade v0.1.027.1 (beta) 64 bit"
DOMAIN_MIN 0 0 0
DOMAIN_MAX 1 1 1
LUT_3D_SIZE 6
0.000000000 0.000000000 0.000000000
0.073760025 0.000000000 0.000000000
0.545100152 0.000000000 0.000000000
0.891000032 0.000000000 0.000000000
0.978820026 0.000000000 0.000000000
1.000000000 0.000000000 0.000000000
0.000000000 0.072960019 0.000000000
0.073760025 0.075300016 0.000000000
0.538020134 0.075300016 0.000000000
0.887040019 0.072180018 0.000000000
0.976480007 0.073740020 0.000000000
1.000000000 0.072180018 0.000000000
0.002339994 0.542760134 0.000000000
0.072960019 0.537240148 0.000000000
0.540360212 0.532560170 0.000000000
0.879979968 0.538820148 0.000000000
0.977259994 0.538840175 0.003899994
1.000000000 0.536460161 0.000000000
0.000000000 0.887040019 0.000000000
0.072160028 0.887040019 0.000780003
0.538060129 0.888640046 0.000000000
0.887040019 0.887040019 0.000000000
0.978040040 0.887040019 0.000000000
1.000000000 0.887040019 0.000000000
0.000000000 0.978820026 0.003120000
0.075300023 0.978820026 0.000000000
0.534880161 0.980379999 0.001560000
0.884700000 0.978820026 0.000000000
0.978820086 0.978820026 0.000000000
1.000000000 0.978820026 0.003120000
0.000000000 1.000000000 0.000000000
0.072960019 1.000000000 0.000000000
0.540360153 0.997660041 0.000000000
0.884700000 1.000000000 0.000000000
0.979620039 1.000000000 0.000000000
1.000000000 1.000000000 0.000000000
0.000000000 0.000000000 0.076080024
0.072960019 0.000000000 0.076880030
0.538040161 0.002339994 0.074540026
0.888599992 0.000000000 0.076880023
0.975700021 0.000000000 0.073760018
1.000000000 0.000000000 0.080000021
0.000000000 0.073760018 0.075300016
0.072960019 0.076080024 0.076080024
0.540400147 0.070560031 0.069760032
0.889400005 0.072960019 0.075300016
0.974080026 0.072960019 0.076080024
0.996879995 0.072960019 0.076880023
0.000000000 0.532560170 0.072960027
0.070560031 0.535680175 0.070560031
0.541940153 0.543540180 0.080000028
0.885480046 0.539620161 0.075300016
0.978839993 0.537260175 0.072940022
0.999220014 0.536460102 0.076880023
0.000000000 0.888599992 0.072960019
0.072960019 0.886260033 0.075320020
0.544340134 0.886260033 0.073760025
0.887040019 0.887040019 0.075320020
0.977259994 0.887040019 0.074520029
1.000000000 0.887040019 0.076880023
0.000000000 0.978820026 0.076880023
0.076100022 0.978820026 0.072960027
0.541180134 0.977260053 0.078440018
0.886260033 0.978820026 0.073760025
0.978820026 0.978820026 0.076080017
1.000000000 0.978820026 0.076880023
0.000000000 1.000000000 0.075300023
0.072960019 1.000000000 0.070560038
0.536460161 1.000000000 0.074520014
0.884700000 1.000000000 0.072180018
0.978040040 1.000000000 0.072960019
1.000000000 1.000000000 0.072960019
0.000000000 0.000000000 0.548220158
0.072960019 0.000000000 0.540360153
0.544320166 0.000000000 0.539580166
0.888599992 0.000779996 0.544300139
0.978820026 0.001560000 0.538020134
1.000000000 0.000000000 0.541920185
0.000780003 0.071340039 0.527860165
0.070560031 0.072180025 0.538800120
0.530220151 0.072960019 0.538840115
0.884700060 0.075300023 0.531000137
0.976480007 0.072960027 0.545880139
0.999220014 0.072180018 0.528620124
0.000000000 0.536460161 0.527880192
0.068980023 0.532540143 0.527820230
0.534120202 0.533340096 0.533340156
0.886300027 0.543520153 0.530180156
0.978039980 0.538020134 0.537240148
0.998440027 0.537240148 0.541980147
0.000000000 0.887040019 0.536480188
0.072960019 0.886260033 0.538040161
0.543520153 0.887839973 0.541180134
0.885479987 0.886260033 0.540360153
0.977280021 0.884700000 0.541140139
0.998440027 0.884700060 0.540380180
0.001560000 0.978820026 0.527840137
0.077660017 0.978820026 0.535680175
0.541940153 0.977259994 0.542760134
0.886260033 0.978040040 0.528660178
0.978820026 0.978820026 0.544340193
1.000000000 0.978820026 0.530200183
0.002339994 1.000000000 0.534900129
0.072960019 1.000000000 0.523160160
0.539640129 0.997660041 0.536460161
0.887040019 1.000000000 0.522320151
0.975700021 1.000000000 0.525500119
1.000000000 1.000000000 0.531000137
0.000000000 0.000000000 0.888599992
0.074520022 0.000000000 0.889400005
0.546640158 0.000779996 0.892560005
0.883140028 0.000000000 0.887040019
0.975700021 0.000000000 0.887820005
1.000000000 0.000000000 0.887040019
0.000000000 0.074520022 0.886260033
0.072960019 0.074520022 0.884700000
0.531780183 0.076080024 0.885479987
0.883920014 0.073740020 0.887040019
0.976480007 0.073740028 0.887820005
1.000000000 0.074520022 0.887820005
0.000000000 0.534120142 0.883919954
0.072160028 0.535700142 0.884699941
0.535680175 0.544280171 0.887880027
0.883140028 0.533340156 0.881540000
0.975679994 0.537240148 0.887059987
0.996879995 0.533340156 0.886280000
0.002340002 0.887040019 0.885480046
0.073720023 0.887040019 0.885479987
0.539600194 0.883140028 0.885479987
0.887040019 0.887040019 0.887880087
0.977259994 0.886260033 0.886260033
1.000000000 0.884700000 0.887040019
0.000000000 0.978820026 0.888599992
0.076100022 0.978820026 0.885500014
0.539600134 0.978040040 0.887040019
0.887040019 0.978820026 0.887820005
0.979620039 0.978820026 0.887040019
1.000000000 0.978820026 0.889440000
0.000000000 1.000000000 0.887040019
0.072960019 1.000000000 0.885479987
0.536500156 0.998440027 0.883140028
0.884700000 1.000000000 0.884700000
0.976480007 1.000000000 0.883920014
1.000000000 1.000000000 0.883140028
0.000000000 0.000000000 0.981940031
0.072960019 0.000000000 0.978820026
0.541980147 0.001560000 0.981940031
0.887040019 0.000000000 0.975700021
0.979619980 0.000000000 0.978820026
1.000000000 0.000000000 0.978820026
0.000000003 0.076080024 0.981160045
0.073760025 0.073740020 0.978040040
0.534880221 0.072180018 0.975680053
0.887820005 0.072960019 0.975700021
0.976479948 0.072960019 0.981160045
1.000000000 0.072960019 0.981160045
0.000000000 0.537240148 0.978060007
0.071360022 0.537240148 0.978060007
0.529400170 0.534120142 0.973320007
0.883140028 0.538840115 0.979640007
0.976499975 0.540420115 0.975679994
1.000000000 0.537240148 0.978060007
0.000000000 0.884700000 0.978820026
0.071360029 0.887820005 0.978820026
0.541180074 0.886260033 0.975699961
0.884700000 0.887820005 0.978040040
0.978040040 0.887040019 0.977259994
1.000000000 0.884700000 0.977259994
0.000000000 0.978820086 0.978820026
0.076100022 0.978820026 0.978820026
0.541180193 0.978820086 0.978040040
0.887820005 0.978820026 0.978820026
0.979620039 0.978820026 0.978820086
1.000000000 0.978820026 0.978820026
0.000000000 1.000000000 0.978820026
0.072960019 1.000000000 0.975699961
0.533360124 1.000000000 0.975700021
0.887040019 1.000000000 0.975700021
0.978820026 1.000000000 0.978040040
1.000000000 1.000000000 0.978820026
0.000000000 0.000000000 1.000000000
0.076880023 0.000000000 0.996879995
0.541200161 0.000000000 1.000000000
0.887040019 0.000000000 0.998440027
0.978820026 0.000000000 0.999220014
1.000000000 0.000000000 1.000000000
0.000000000 0.072960019 1.000000000
0.076080024 0.072960019 0.996879995
0.540360153 0.075300016 1.000000000
0.884700000 0.074520022 1.000000000
0.978820026 0.072960019 0.999220014
1.000000000 0.072960019 0.996879995
0.000000000 0.534900129 1.000000000
0.077640019 0.535660148 0.999220014
0.534900129 0.535680115 0.998440027
0.885480046 0.534900129 0.998440027
0.980380058 0.538020194 0.997660041
1.000000000 0.534900129 0.996100008
0.000000000 0.884700000 1.000000000
0.072960019 0.884700000 0.996879995
0.546660185 0.884700000 1.000000000
0.885480046 0.887040019 0.998440027
0.978820026 0.887040019 0.999220014
1.000000000 0.884700000 0.996100008
0.000000000 0.979620039 1.000000000
0.072960019 0.978820026 0.996879995
0.539620161 0.979600072 1.000000000
0.887040019 0.978820026 1.000000000
0.978820026 0.978820026 1.000000000
1.000000000 0.978820026 1.000000000
0.000000000 1.000000000 1.000000000
0.072960019 1.000000000 0.996879995
0.537240148 1.000000000 1.000000000
0.884700000 1.000000000 1.000000000
0.975700021 1.000000000 1.000000000
1.000000000 1.000000000 1.000000000
