example_ofxGpuLutCube/bin/data/ofxGpuLutCube/LUT/lut33.cube
TITLE "16x16x16 Adobe/IRIDAS cube 3D LUT exported with GrossGrade v0.1.027.1 (beta) 64 bit"
DOMAIN_MIN 0 0 0
DOMAIN_MAX 1 1 1
LUT_3D_SIZE 16
0.000000000 0.000000000 0.000000000
0.043993831 0.044493005 0.055948190
0.050559416 0.046399198 0.057714030
0.057874430 0.049470790 0.058877375
0.082207084 0.055224285 0.059871517
0.116721727 0.063661091 0.061065461
0.178372085 0.075194538 0.062194515
0.250581920 0.085536659 0.063258857
0.339942157 0.090754040 0.064976379
0.420112580 0.090211503 0.068047099
0.487594843 0.081966676 0.072765373
0.535732746 0.069070764 0.076509506
0.568580031 0.054258611 0.078925550
0.590387046 0.038119379 0.080738842
0.604899466 0.027590713 0.082197487
0.614085972 0.025824999 0.083458997
0.626883209 0.055263150 0.084985204
0.045812596 0.048175778 0.057979982
0.051838040 0.049989309 0.059593093
0.059409671 0.053105321 0.060851347
0.085998170 0.059218124 0.061935239
0.123188972 0.068860061 0.063065484
0.189693868 0.081095129 0.064163789
0.266180784 0.091852777 0.065347470
0.358494937 0.097932033 0.067219570
0.440588593 0.098004468 0.070486724
0.508914173 0.090118304 0.075414963
0.556696177 0.080879554 0.078966469
0.588312447 0.070093833 0.081124939
0.608804941 0.063321389 0.082810417
0.622220755 0.062168483 0.084159806
0.630799234 0.065048970 0.085262284
0.644318044 0.086081624 0.086945444
0.047246944 0.056057528 0.061480761
0.052734964 0.057570800 0.062924802
0.060808614 0.061038066 0.064244434
0.090522081 0.068409771 0.065518692
0.130893618 0.079401463 0.066604048
0.202102304 0.092166044 0.067606792
0.283408701 0.104837671 0.068772420
0.379315197 0.111674793 0.070642978
0.463591427 0.113282174 0.073840775
0.532516956 0.108670764 0.078379013
0.579808712 0.102562562 0.081616998
0.610247314 0.096680135 0.083658777
0.629835546 0.095417351 0.085251257
0.642598152 0.097925872 0.086536422
0.650855899 0.103121825 0.087655693
0.667067051 0.124147765 0.089898616
0.045578282 0.068786591 0.067164645
0.053341508 0.070592485 0.068551987
0.063427657 0.075080737 0.069922492
0.096561916 0.083331801 0.071217813
0.139934242 0.095289841 0.072280817
0.216985285 0.109945789 0.073161103
0.303341508 0.124278300 0.073988385
0.403906643 0.133863300 0.075804837
0.490811616 0.138022587 0.078449652
0.560018718 0.135760128 0.081865191
0.606644928 0.132274091 0.084652439
0.635938168 0.130023628 0.086779714
0.655100942 0.132008255 0.088224120
0.667754769 0.136775777 0.089533143
0.676063657 0.143458888 0.090795688
0.696105540 0.176678777 0.093358785
0.031882543 0.094989844 0.076219067
0.045560375 0.097187668 0.077615932
0.061026767 0.102365784 0.079096071
0.102893651 0.112156071 0.080431469
0.152493715 0.126308307 0.081254661
0.235815451 0.143144026 0.081582583
0.328116417 0.159889936 0.081517555
0.433838546 0.172792271 0.082355604
0.523914695 0.180408716 0.084045157
0.593823254 0.181772828 0.086751632
0.640238941 0.181568533 0.089133516
0.668776631 0.181910425 0.090936482
0.687433481 0.185866192 0.092309445
0.699917793 0.192279443 0.093444735
0.708533466 0.200200021 0.094831392
0.732297242 0.238783658 0.097466625
0.000010834 0.135043770 0.088628225
0.009030268 0.137461662 0.089136451
0.041451186 0.144104868 0.090292089
0.106412962 0.156391084 0.091502070
0.165852845 0.174173340 0.091937914
0.257792830 0.194228172 0.091081560
0.357128501 0.214253619 0.089528315
0.468435317 0.230688453 0.088891387
0.562128365 0.241711050 0.089385062
0.633202910 0.245862991 0.091227673
0.679861128 0.247829616 0.093080305
0.708014786 0.249553874 0.094311245
0.726202250 0.254482388 0.095417023
0.738422453 0.261861205 0.096336983
0.747379363 0.271699876 0.097507142
0.774452507 0.323352545 0.097647794
0.000000000 0.190380588 0.104297891
0.000024336 0.194422886 0.104834959
0.003261193 0.202721596 0.104774766
0.098720849 0.217513710 0.104117870
0.177824900 0.240305677 0.103712641
0.282241464 0.265467703 0.101274870
0.390302032 0.289815754 0.096850209
0.507675529 0.309873760 0.093878590
0.605269551 0.323784649 0.092534132
0.677941322 0.330182791 0.092404053
0.725153685 0.333473831 0.093176380
0.753150046 0.335931271 0.093988158
0.771076798 0.341523021 0.094688386
0.783027649 0.349791348 0.095115162
0.791885138 0.360948771 0.095576301
0.820169985 0.417488396 0.091234863
0.000000000 0.253530115 0.118880525
0.000000000 0.259376854 0.119596206
0.000133020 0.271055013 0.119342901
0.068582989 0.288881600 0.116202056
0.185981944 0.316961288 0.114045084
0.305442661 0.348238468 0.109087266
0.423551559 0.378736824 0.101714082
0.547489762 0.403554350 0.094036169
0.649490774 0.421127647 0.088664547
0.724289358 0.429998994 0.085295044
0.772411168 0.434286565 0.084267505
0.800444603 0.436686844 0.084516376
0.818229914 0.442359895 0.084602833
0.829818070 0.450532734 0.084088787
0.838107049 0.461155176 0.083567329
0.866092503 0.522431731 0.065006338
0.000000000 0.318981677 0.132597759
0.000000000 0.326662004 0.133370653
0.000006503 0.341820717 0.132880792
0.034670539 0.363577306 0.127980128
0.188005716 0.396562099 0.122998640
0.325678736 0.434272259 0.114863157
0.454509676 0.471471310 0.102375872
0.585249007 0.501977682 0.086800203
0.691911280 0.523782969 0.071813338
0.769502878 0.535603404 0.054137647
0.818935871 0.541056931 0.046538875
0.847125947 0.543057323 0.046032473
0.864866138 0.548460364 0.044534490
0.876058578 0.555990160 0.041764483
0.883397579 0.565000176 0.037863873
0.908156991 0.618353128 0.007378118
0.000000000 0.372639179 0.142505884
0.000000000 0.382407546 0.142994300
0.000007271 0.400325119 0.141872868
0.012937951 0.425550073 0.135457069
0.186540037 0.462380350 0.127781898
0.341331184 0.505517900 0.115922920
0.478750467 0.548513055 0.096671663
0.614827275 0.584226549 0.061689690
0.726351440 0.611342728 0.027542068
0.807655215 0.627483070 0.008206110
0.859329045 0.635687232 0.001565322
0.888433933 0.638775706 0.000317768
0.906242847 0.643703818 0.000301940
0.916838765 0.649649918 0.000265718
0.923017800 0.656131983 0.000213368
0.943119884 0.700561821 0.000000000
0.000000000 0.413650662 0.149826616
0.000000000 0.425553560 0.150029257
0.000000000 0.445377171 0.147841230
0.009732401 0.473121703 0.140086502
0.185230687 0.512693286 0.129575148
0.353068888 0.559799433 0.114295103
0.496459037 0.607169390 0.087059468
0.636708498 0.647748947 0.031111669
0.752367854 0.680214465 0.002411816
0.836832881 0.700241268 0.000017387
0.890661061 0.711120248 0.000000000
0.921032727 0.715813935 0.000000000
0.938860893 0.720250547 0.000000000
0.948728025 0.724360943 0.000000000
0.953721762 0.728161037 0.000000000
0.966885746 0.755329132 0.000000000
0.000000000 0.437761307 0.154720291
0.000000000 0.451436609 0.154408216
0.000000000 0.472220868 0.151410922
0.010082959 0.500898838 0.142451927
0.189152405 0.541819274 0.130802482
0.361268401 0.590785146 0.113637105
0.507065654 0.640404522 0.078481406
0.649646163 0.684229970 0.014532330
0.767442286 0.720012724 0.000000903
0.853294790 0.742237031 0.000000000
0.908593714 0.755136490 0.000000000
0.940262139 0.761333525 0.000000000
0.958288312 0.765643597 0.000000000
0.967939794 0.768801451 0.000000000
0.972550869 0.771332741 0.000000000
0.981050789 0.787807643 0.000000000
0.000000000 0.453736901 0.157945812
0.000000000 0.469742149 0.157440335
0.000016800 0.491303623 0.154119775
0.011838624 0.520068288 0.144395933
0.203831345 0.561515510 0.132706136
0.371475458 0.610776603 0.114823021
0.516175628 0.660959482 0.077726923
0.658375025 0.706018507 0.009869209
0.776359081 0.743220508 0.000001897
0.862669170 0.766749799 0.000000000
0.918659210 0.780935407 0.000000000
0.951363206 0.788338840 0.000000000
0.969899595 0.792794287 0.000000000
0.979607046 0.795477033 0.000000000
0.984018207 0.797315478 0.000000000
0.989622772 0.806477189 0.000000000
0.000000000 0.466012865 0.161659390
0.000000000 0.484668076 0.160345688
0.000004129 0.507054985 0.156777442
0.043835200 0.535709381 0.147376865
0.229924440 0.576854527 0.136367112
0.385863036 0.625026345 0.119239330
0.526677966 0.674237072 0.086515583
0.665494204 0.718257606 0.017753892
0.781724513 0.755233228 0.000002787
0.867413521 0.779203057 0.000000000
0.923750937 0.794084251 0.000000000
0.956965923 0.802134931 0.000000000
0.975950301 0.806831062 0.000000000
0.985871375 0.809417903 0.000000000
0.990200579 0.810903668 0.000000000
0.993340492 0.815519989 0.000000000
0.000000000 0.483138174 0.170749322
0.000000000 0.505026400 0.168847308
0.002327164 0.527559340 0.164429307
0.102438293 0.555641592 0.156974509
0.271403730 0.595537245 0.148638874
0.410933614 0.640971661 0.134563982
0.544091344 0.687444568 0.111874193
0.675142646 0.728184998 0.071428366
0.785130680 0.761418402 0.011509521
0.868911922 0.785015941 0.000055178
0.924778283 0.800054610 0.000005284
0.958337069 0.808399975 0.000000000
0.977755487 0.813248336 0.000000000
0.987849593 0.815692484 0.000000000
0.991914690 0.816660345 0.000000000
0.992828012 0.817436993 0.000000000
0.000000000 0.503285825 0.183314651
0.000000000 0.528162420 0.180352747
0.014708132 0.550622880 0.175556868
0.187407047 0.578467071 0.170329705
0.314322561 0.616008103 0.163939312
0.440575749 0.657946289 0.153562710
0.565374255 0.700712442 0.137622297
0.687386572 0.738317609 0.117933922
0.790574133 0.768340826 0.094307825
0.870010853 0.788975954 0.067229673
0.923854589 0.802433312 0.029482342
0.957346141 0.810534060 0.000823558
0.977169037 0.815475464 0.000000000
0.987493098 0.817786813 0.000076834
0.991730988 0.818796992 0.048076998
0.994973958 0.824755073 0.153371483
0.043940648 0.045311365 0.059303276
0.050819349 0.047021028 0.061279252
0.058294725 0.050044905 0.062630892
0.083532244 0.055876885 0.063824005
0.119496018 0.064755015 0.065236188
0.182970569 0.076417349 0.066611983
0.256635010 0.086566105 0.067938566
0.346545070 0.091287181 0.069857009
0.426962554 0.090147287 0.073065296
0.494378418 0.081084676 0.077750012
0.542233109 0.066766530 0.081164867
0.574657023 0.050319742 0.083459921
0.596257269 0.031873357 0.085217781
0.610688925 0.005016034 0.086704671
0.619789720 0.001425802 0.088124372
0.632668316 0.053290877 0.089882143
0.046049800 0.049112286 0.061602175
0.052382376 0.050775461 0.063249759
0.060055360 0.053795051 0.064784214
0.087374091 0.060092006 0.066182539
0.126004964 0.070272230 0.067455262
0.193992585 0.082317978 0.068804853
0.271935672 0.093057893 0.070335679
0.365231633 0.099055663 0.072498299
0.447731286 0.098664291 0.075749442
0.515842438 0.090060450 0.080213040
0.563345253 0.080167420 0.083502822
0.594654918 0.068888634 0.085667349
0.614977479 0.062518544 0.087487057
0.628266871 0.061454747 0.088955529
0.636751115 0.064413406 0.090230107
0.650386572 0.086611383 0.092269756
0.047172301 0.057065930 0.065438077
0.053415567 0.058606487 0.066873766
0.062073991 0.062368944 0.068578601
0.092173830 0.069814183 0.070204332
0.133765742 0.081089698 0.071419738
0.206547588 0.093953595 0.072663307
0.289229244 0.106489792 0.074199460
0.386208832 0.113230489 0.076385647
0.470959932 0.114642650 0.079449318
0.539626479 0.109562658 0.083407246
0.586637914 0.103282526 0.086484656
0.616814852 0.097377986 0.088511601
0.636254966 0.096503086 0.090329237
0.648922563 0.099399172 0.091847382
0.657137990 0.104694106 0.093188249
0.673586309 0.126461565 0.096004888
0.044094257 0.070491560 0.071656540
0.053305544 0.072403386 0.073117137
0.063963629 0.076968834 0.074812010
0.098429069 0.085441150 0.076436639
0.143133685 0.097591944 0.077690460
0.221916944 0.112392806 0.078722507
0.309670717 0.126768157 0.079791956
0.411070198 0.136144593 0.081783593
0.498369873 0.140206411 0.084462456
0.567390800 0.137829453 0.087745868
0.613736749 0.134210721 0.090395488
0.642731249 0.131836444 0.092369027
0.661751390 0.134192675 0.094006389
0.674387455 0.139581382 0.095631331
0.682784498 0.146478742 0.097193919
0.703235507 0.181161404 0.100549862
0.027242970 0.097724624 0.081289262
0.043950733 0.099916324 0.082648307
0.060784578 0.105170339 0.084378138
0.104441471 0.115182921 0.086025327
0.155908287 0.129696891 0.087014854
0.241153419 0.146905988 0.087611370
0.335019171 0.163914859 0.087785326
0.441587985 0.176683024 0.089012384
0.532066226 0.184350908 0.090981774
0.601781130 0.185731649 0.093600377
0.647967160 0.185512587 0.095826402
0.676263630 0.185966685 0.097637802
0.694701552 0.189967379 0.099098928
0.707103014 0.196408883 0.100571401
0.715908885 0.205043882 0.102276228
0.740184784 0.244953275 0.105650567
0.000005420 0.139266744 0.094574615
0.006963610 0.141857401 0.095175125
0.035397939 0.148580343 0.096397176
0.107226692 0.161031827 0.097752497
0.169431373 0.179430440 0.098595433
0.263629526 0.200014219 0.098169170
0.364556670 0.220261261 0.097016394
0.476863801 0.236716002 0.096918114
0.571011901 0.247652963 0.097642645
0.641913772 0.251884788 0.099331476
0.688363612 0.253793865 0.101115026
0.716347635 0.255674869 0.102518171
0.734259903 0.260532618 0.103662312
0.746364176 0.268241376 0.104813129
0.755500019 0.278627366 0.106309593
0.782976329 0.331612766 0.107653052
0.000000000 0.196335375 0.110936463
0.000000000 0.200488761 0.111694261
0.001908367 0.209260717 0.111675978
0.096916616 0.224445254 0.110918738
0.181383118 0.247897238 0.110972226
0.288557231 0.273643285 0.108894989
0.398737490 0.298501045 0.105612874
0.516749799 0.318447530 0.103678070
0.614723325 0.332230598 0.102693222
0.687346756 0.338716716 0.102611385
0.734341979 0.341892093 0.103246473
0.762078464 0.344255060 0.104236603
0.779840529 0.350031227 0.105007552
0.791773677 0.358774632 0.105784461
0.800643802 0.370110273 0.106806949
0.829173982 0.427779138 0.104893744
0.000000000 0.261059999 0.126461640
0.000000000 0.267135769 0.127367973
0.000016275 0.279247999 0.127234593
0.064181916 0.297580719 0.124092229
0.188894406 0.326394409 0.122390106
0.311741769 0.358372837 0.117996790
0.432381660 0.389460176 0.111274943
0.557072699 0.414386570 0.105753072
0.659383416 0.431853056 0.101403803
0.734209180 0.440755874 0.098659746
0.782127798 0.444968194 0.097709008
0.809870958 0.447289348 0.098137155
0.827540576 0.453176111 0.098426819
0.839135408 0.461725533 0.098834790
0.847365737 0.472420871 0.099337883
0.875559211 0.534857512 0.089318000
0.000000000 0.327692598 0.140747756
0.000000000 0.335905313 0.141850978
0.000000000 0.351338804 0.141312480
0.031088812 0.373542666 0.136480451
0.189832047 0.407307953 0.132276237
0.331537366 0.445839912 0.125336304
0.462927431 0.483701199 0.114124648
0.595024705 0.514643967 0.101959877
0.702183843 0.536516488 0.090637602
0.779616475 0.548077643 0.082766436
0.828815877 0.553435147 0.078766249
0.856913209 0.555651426 0.077982828
0.874424636 0.561098576 0.077217877
0.885448575 0.568674624 0.076573588
0.892763257 0.577755094 0.076046415
0.916486681 0.630060971 0.047048308
0.000000000 0.381678492 0.151533723
0.000000000 0.391972542 0.152377203
0.000000000 0.410148352 0.151245400
0.009789224 0.435841113 0.144978777
0.187450752 0.473330110 0.137769461
0.346664280 0.517168999 0.128120556
0.486545056 0.560736418 0.111855105
0.624360979 0.597046137 0.090340383
0.735915720 0.623550296 0.057041463
0.816363037 0.638597727 0.037393708
0.867569387 0.646402657 0.021983169
0.896569908 0.649671376 0.019536648
0.914041042 0.654311359 0.018171398
0.924262702 0.659938633 0.017467923
0.930384159 0.666478455 0.017438082
0.949854732 0.710037708 0.002283431
0.000000000 0.422612339 0.159664065
0.000000000 0.434780329 0.159993425
0.000000000 0.455052286 0.158244103
0.009225558 0.483151644 0.150848538
0.185431167 0.523227870 0.141050100
0.357828051 0.570870161 0.128785998
0.503599346 0.618678749 0.107787907
0.645233393 0.659200966 0.070885852
0.760465562 0.690299869 0.017028937
0.844326437 0.709613085 0.002910027
0.897948980 0.720466316 0.000380273
0.928241253 0.725364149 0.000393221
0.945741653 0.729366362 0.000381911
0.955268621 0.733034492 0.000400872
0.960091949 0.736891150 0.000456498
0.972544730 0.763099849 0.000404265
0.000000000 0.445828617 0.164845794
0.000000000 0.459852219 0.164831772
0.000000000 0.481134444 0.162486866
0.009506609 0.510224879 0.154806256
0.188106373 0.551447034 0.143920764
0.365712672 0.600898325 0.130399138
0.513815820 0.650902450 0.107028618
0.656850874 0.693741977 0.061606560
0.774079382 0.727881551 0.008033453
0.859801650 0.749818087 0.000502473
0.914904237 0.762679398 0.000341394
0.946505666 0.769000947 0.000287446
0.964241564 0.773006678 0.000263871
0.973509014 0.775766194 0.000308284
0.977654636 0.778086245 0.000376736
0.985162318 0.793276191 0.000482407
0.000000000 0.461524993 0.170147508
0.000000000 0.477575868 0.169695690
0.000001634 0.499600649 0.167201936
0.010975199 0.528811455 0.159097686
0.200629547 0.570313752 0.148770303
0.374628931 0.619983315 0.134959027
0.521938503 0.670521557 0.111729331
0.664330482 0.714162529 0.069314636
0.781403780 0.749166846 0.009988224
0.867807508 0.772459388 0.000872855
0.923879743 0.786617160 0.000483444
0.956366301 0.793986976 0.000446452
0.974670649 0.798282325 0.000439504
0.983987033 0.800676465 0.000464052
0.987895310 0.802164197 0.000514156
0.992934704 0.810489714 0.000713691
0.000000000 0.474076331 0.177890405
0.000000000 0.492819816 0.177245364
0.000000000 0.515371025 0.174185261
0.029574862 0.544101775 0.166154638
0.224287495 0.585221589 0.157315820
0.386846453 0.633683085 0.144571289
0.530789316 0.683197498 0.124317013
0.670508564 0.726288974 0.094660185
0.785252452 0.760123789 0.035416573
0.870885074 0.783266604 0.008149067
0.927336037 0.797958136 0.005306893
0.960423529 0.805826545 0.004508311
0.979236960 0.810424209 0.004100570
0.988868177 0.812846601 0.004609402
0.992860794 0.814071357 0.005719218
0.994337976 0.817491591 0.045431443
0.000000000 0.493164420 0.199877232
0.000000000 0.514916241 0.199091569
0.000311699 0.537580073 0.196625441
0.071748883 0.565255165 0.190586373
0.262910873 0.605065525 0.185380936
0.409191102 0.650657654 0.177076891
0.545809448 0.697257996 0.164677545
0.678885162 0.738084257 0.149367645
0.789306700 0.770173788 0.133208126
0.872054517 0.791294217 0.117159955
0.927115440 0.804706156 0.104951516
0.960205972 0.812248230 0.098083258
0.979293704 0.816838443 0.095542304
0.989236414 0.819365025 0.100340366
0.993260205 0.820576429 0.110205822
0.995587528 0.825558245 0.164175540
0.000000000 0.515549719 0.226460561
0.000000116 0.540454745 0.225670278
0.003085381 0.562996626 0.223634750
0.137184560 0.589928865 0.220321089
0.302855879 0.627572894 0.218166977
0.435964465 0.669549942 0.213372365
0.564491034 0.712282300 0.206046745
0.688894093 0.749844491 0.197906151
0.793587208 0.779809237 0.189467415
0.874028921 0.800381482 0.182467818
0.928424835 0.813697100 0.178266108
0.961841822 0.821355820 0.176974550
0.981368124 0.826160371 0.177805960
0.991558671 0.828697205 0.181179658
0.995098352 0.829339921 0.187916785
0.997666776 0.835225403 0.233940601
0.044378605 0.046077147 0.067305148
0.050546557 0.047883008 0.069330290
0.058338623 0.050834090 0.070871077
0.084111005 0.056574695 0.072383374
0.121366374 0.066052772 0.074201591
0.186196491 0.077617206 0.076025195
0.261089265 0.087326564 0.077756815
0.351802438 0.091784902 0.079809815
0.432732552 0.089989483 0.082760036
0.500392616 0.080015130 0.086927794
0.548198104 0.064566344 0.090115257
0.580418229 0.044833019 0.092273451
0.601956427 0.015891569 0.094172716
0.616601586 0.000092918 0.096216179
0.625662327 0.000000000 0.098030426
0.638385534 0.050237536 0.100113310
0.045505710 0.050314583 0.070031628
0.052296497 0.051817682 0.071631819
0.060377598 0.054815829 0.073383957
0.087943539 0.061051369 0.075161725
0.127700970 0.071519911 0.076873615
0.197086900 0.083480045 0.078633323
0.276336908 0.094179541 0.080524705
0.370648831 0.099910446 0.082718365
0.453772783 0.099099748 0.085695840
0.522065818 0.089823239 0.089733191
0.569533765 0.079327933 0.092799500
0.600692451 0.067551903 0.094883896
0.620950103 0.061283827 0.096924871
0.634192228 0.060526822 0.098809890
0.642593980 0.063692279 0.100589305
0.656308949 0.086999416 0.103320040
0.043480825 0.058734447 0.074524902
0.052438755 0.060264058 0.075890467
0.062492348 0.064005993 0.077797994
0.092938796 0.071254656 0.079730853
0.135525793 0.082566768 0.081359699
0.209762320 0.095426798 0.082990244
0.293706030 0.107900850 0.084830090
0.391796857 0.114578784 0.087135039
0.477207035 0.115777291 0.090027824
0.545995295 0.110345885 0.093679026
0.592996836 0.103921123 0.096518032
0.623087227 0.098062389 0.098523870
0.642481446 0.097467765 0.100588933
0.655090392 0.100488648 0.102569602
0.663237751 0.105889834 0.104508005
0.679843187 0.128300950 0.108136185
0.039930340 0.072733037 0.081394389
0.051558472 0.074562490 0.082824968
0.063044123 0.078984380 0.084687911
0.099332362 0.087293163 0.086599827
0.145426199 0.099813372 0.088363215
0.225433722 0.114614353 0.089806184
0.314426422 0.128950924 0.091304645
0.416852862 0.138338804 0.093573339
0.504747450 0.142194733 0.096304402
0.573875904 0.139773667 0.099315248
0.620238721 0.136117086 0.101754941
0.649189353 0.133581057 0.103596836
0.668183804 0.136308521 0.105502643
0.680810928 0.141948804 0.107509516
0.689234912 0.149107724 0.109776929
0.709965646 0.184897974 0.114267305
0.017252602 0.100888863 0.091916695
0.036966290 0.102979280 0.093156062
0.058572374 0.108378127 0.095161431
0.104747832 0.118485160 0.097232066
0.158209711 0.133362293 0.098899670
0.244794384 0.150567085 0.100069486
0.340163678 0.167695433 0.100835845
0.447753370 0.180359408 0.102444023
0.538875163 0.188064337 0.104507424
0.608729720 0.189341456 0.106713921
0.654944837 0.189146608 0.108686216
0.683193982 0.189584434 0.110315762
0.701565206 0.193473637 0.111918353
0.713949323 0.200141072 0.113835111
0.722867548 0.209619701 0.116458118
0.747488499 0.250716835 0.121473067
0.000002710 0.144158065 0.106897064
0.000035097 0.146831438 0.107446186
0.024566643 0.153348386 0.108415857
0.106026463 0.165846288 0.110115491
0.171213791 0.184565559 0.111577764
0.267528594 0.205386981 0.111912087
0.370127887 0.225857362 0.111562125
0.483503222 0.242247760 0.111978143
0.578344464 0.253151596 0.112913936
0.649458587 0.257355809 0.114207871
0.695938170 0.259217024 0.115762912
0.723841786 0.261008203 0.117164895
0.741670847 0.266033053 0.118628316
0.753714204 0.273854017 0.120319873
0.762967527 0.284856021 0.122995347
0.790703535 0.339128256 0.126933083
0.000000000 0.202732846 0.124039926
0.000000000 0.206864476 0.124879077
0.001337312 0.216008827 0.125234947
0.090542614 0.231141865 0.124497131
0.181924433 0.254952788 0.125344187
0.292131484 0.281046808 0.124351025
0.404462487 0.306190550 0.122071363
0.523685336 0.326177776 0.120929226
0.622357428 0.339886069 0.120504811
0.695364535 0.346421808 0.120493785
0.742379963 0.349493414 0.121104956
0.769976676 0.351702362 0.122129746
0.787703335 0.357734323 0.123443089
0.799593806 0.366704464 0.125046968
0.808504939 0.378370821 0.127475634
0.837189376 0.437158734 0.129123792
0.000000000 0.269134998 0.141037911
0.000000000 0.275271952 0.142014161
0.000007294 0.287709892 0.142164886
0.056623515 0.306042761 0.139135659
0.187977284 0.335228622 0.138395563
0.314976126 0.367683500 0.135653064
0.438107610 0.399175644 0.131057829
0.564226210 0.424239933 0.126961172
0.667254925 0.441645414 0.123885535
0.742474556 0.450472832 0.122003607
0.790467858 0.454607964 0.121341713
0.818081975 0.456847191 0.121877454
0.835711777 0.462920696 0.122857675
0.847300291 0.471706927 0.124379657
0.855470181 0.482533485 0.126518890
0.883734405 0.545985162 0.123488687
0.000000000 0.337144494 0.156683773
0.000000000 0.345516622 0.157829776
0.000000327 0.361181915 0.157717854
0.015582560 0.383533835 0.153440490
0.186496556 0.417615920 0.150019661
0.334124297 0.456726402 0.145117924
0.468269914 0.495047271 0.137163758
0.602182388 0.526285946 0.128868669
0.710242450 0.548186421 0.121402718
0.787904382 0.559518576 0.116620511
0.837266505 0.564854801 0.114350833
0.865379989 0.567176938 0.114014879
0.882763803 0.572650313 0.114622563
0.893682003 0.580275893 0.115839660
0.900966942 0.589477062 0.117587440
0.924479663 0.642004430 0.111288324
0.000000000 0.391569287 0.168521628
0.000000000 0.402076572 0.169515610
0.000000000 0.420457155 0.168855384
0.007605281 0.446399271 0.163727820
0.181567833 0.484014630 0.157842919
