example_ofxGpuLutCube/bin/data/ofxGpuLutCube/LUT/lut33 Rec709 Fujifilm 3513DI D65.cube
TITLE "16x16x16 Adobe/IRIDAS cube 3D LUT exported with GrossGrade v0.1.027.1 (beta) 64 bit"
DOMAIN_MIN 0 0 0
DOMAIN_MAX 1 1 1
LUT_3D_SIZE 16
0.028579000 0.023029000 0.030894000
0.027848637 0.024712421 0.031854473
0.027684802 0.026462318 0.032621209
0.030218720 0.028325975 0.032956988
0.063442305 0.033653993 0.033336315
0.116593450 0.038129408 0.031895258
0.191218376 0.033773534 0.018245112
0.274309039 0.007370029 0.000000000
0.364077568 0.000000000 0.000000000
0.445177257 0.000000000 0.000000000
0.514344096 0.000000000 0.000000000
0.566865563 0.000000000 0.000000000
0.605811894 0.000000000 0.000000000
0.633052409 0.000000000 0.000000000
0.650479555 0.000000000 0.000000000
0.662084997 0.000000000 0.000000000
0.029250285 0.031878218 0.035671372
0.027977500 0.031465828 0.036570743
0.029064447 0.031876709 0.037437253
0.036394138 0.033254154 0.037891354
0.069942094 0.039405227 0.038525935
0.125201285 0.045936275 0.036142226
0.203483388 0.047289014 0.018101538
0.290596783 0.034227617 0.000000000
0.382595956 0.004401143 0.000000000
0.465876430 0.000009523 0.000000000
0.536297083 0.000000000 0.000000000
0.589762866 0.000000000 0.000000000
0.628520906 0.000000000 0.000000000
0.654326677 0.000000000 0.000000000
0.671246350 0.000000000 0.000000000
0.682916522 0.000000000 0.000000000
0.026922494 0.048939679 0.040078297
0.026398338 0.047383923 0.040990897
0.029145384 0.047084186 0.041951500
0.038193993 0.048923023 0.042857815
0.077307820 0.056562878 0.042538401
0.136118621 0.064867422 0.038796321
0.219426021 0.069931701 0.016099529
0.311416924 0.070853479 0.000000000
0.405624181 0.058783576 0.000000000
0.487707347 0.013299217 0.000000000
0.559261382 0.000423937 0.000000000
0.613648713 0.000261527 0.000000000
0.652478993 0.000153420 0.000000000
0.677507162 0.000162065 0.000000000
0.693913996 0.000271613 0.000000000
0.705265224 0.000361657 0.000000000
0.008418058 0.071163267 0.045329619
0.011774831 0.068333410 0.045636408
0.021417253 0.067642450 0.046544340
0.037396707 0.070254542 0.047720589
0.084691361 0.079624131 0.046211723
0.150432721 0.091000140 0.038174402
0.240701973 0.100041449 0.013242035
0.337652802 0.106552891 0.000000000
0.435462683 0.105566092 0.000000000
0.519305170 0.093439922 0.000000000
0.588773251 0.058735833 0.000000000
0.642304778 0.041243803 0.000000000
0.680873811 0.034101233 0.000000000
0.705950618 0.034050092 0.000000000
0.722318888 0.041479900 0.000000000
0.733552694 0.049109444 0.000000000
0.000000000 0.109817363 0.051978413
0.000000000 0.105031036 0.052794233
0.000000000 0.103815220 0.053296499
0.011065805 0.108189031 0.053273164
0.088255256 0.119291291 0.048024911
0.163900301 0.133416966 0.032576330
0.263403058 0.148081616 0.004153269
0.367344916 0.161083430 0.000000000
0.470324099 0.167600304 0.000000000
0.558626175 0.166847035 0.000000000
0.630919099 0.161180228 0.000000000
0.683543921 0.156264916 0.000000000
0.721162498 0.155303925 0.000000000
0.746161401 0.159827650 0.000000000
0.762837529 0.167794481 0.000000000
0.774602354 0.177533627 0.000000000
0.000000000 0.154992506 0.054042537
0.000000000 0.148971051 0.056013424
0.000000000 0.147610098 0.056433942
0.000309080 0.153910562 0.054597337
0.076944984 0.167161062 0.041060124
0.175680563 0.186103255 0.016475659
0.286148012 0.207007021 0.000001007
0.397050053 0.224858001 0.000000000
0.505736172 0.236256734 0.000000000
0.598907709 0.240858629 0.000000000
0.674647212 0.241071478 0.000000000
0.727564812 0.240180194 0.000000000
0.764637768 0.241880447 0.000000000
0.789264202 0.248091742 0.000000000
0.805729985 0.256711394 0.000000000
0.817427337 0.266696692 0.000000000
0.000000000 0.207658321 0.046326246
0.000000000 0.201189041 0.050467703
0.000000000 0.200156048 0.049966328
0.000012342 0.207925200 0.041541599
0.032669008 0.225246191 0.015541466
0.180129528 0.251333088 0.000001161
0.305937499 0.277952045 0.000002574
0.423592299 0.299566269 0.000000000
0.536356926 0.314591408 0.000000000
0.632882059 0.322463214 0.000000000
0.711306930 0.325621217 0.000000000
0.766110420 0.327520430 0.000000000
0.803862989 0.331428260 0.000000000
0.827996254 0.338938624 0.000000000
0.843359232 0.346883714 0.000000000
0.853617668 0.355152667 0.000000000
0.000000000 0.266646206 0.012400308
0.000000000 0.259941041 0.021812625
0.000000000 0.259763360 0.020312726
0.000000000 0.270260900 0.009300333
0.005799149 0.293998420 0.000009703
0.174620047 0.326356113 0.000000000
0.322396576 0.358921885 0.000000000
0.449634224 0.385230482 0.000000000
0.567029417 0.403432190 0.000000000
0.666170418 0.413610667 0.000000000
0.746813953 0.418807030 0.000000000
0.803942859 0.422960341 0.000000000
0.843078732 0.428378910 0.000000000
0.867382109 0.436342001 0.000000000
0.882723033 0.444889516 0.000000000
0.892852128 0.453712046 0.000000000
0.000000000 0.330727428 0.000000000
0.000000000 0.324068516 0.000000000
0.000000000 0.325251698 0.000000000
0.000000000 0.338643998 0.000016709
0.001516709 0.367338687 0.000000000
0.138993979 0.404987931 0.000000000
0.335371822 0.444441468 0.000000000
0.474109888 0.476376057 0.000000000
0.598319292 0.498021394 0.000000000
0.700576127 0.510488927 0.000000000
0.782981098 0.517291844 0.000000000
0.842454195 0.523228526 0.000000000
0.883456826 0.529798388 0.000000000
0.908639073 0.537809253 0.000000000
0.925594330 0.547826886 0.000000000
0.937614560 0.558884144 0.000000000
0.000000000 0.383570075 0.000000000
0.000000000 0.378446937 0.000000000
0.000000000 0.382309496 0.000000000
0.000000000 0.399825513 0.000000000
0.001305989 0.434478611 0.000000000
0.119447738 0.477985173 0.000000000
0.343576312 0.521749139 0.000000000
0.493043482 0.558355331 0.000000000
0.624543786 0.584745169 0.000000000
0.732644498 0.601415396 0.000000000
0.818466425 0.611185074 0.000000000
0.879645228 0.618578553 0.000000000
0.921929181 0.626189351 0.000000000
0.948173106 0.635041237 0.000000000
0.965824127 0.644926071 0.000000000
0.978286862 0.655375957 0.000000000
0.000000000 0.424308151 0.000000000
0.000000000 0.421612352 0.000000000
0.000000000 0.428777069 0.000000000
0.000000000 0.450661033 0.000000000
0.001170428 0.490903914 0.000000000
0.114450209 0.539855361 0.000000000
0.350510061 0.587011933 0.000000000
0.507564604 0.627262115 0.000000000
0.645633638 0.658405006 0.000000000
0.759501934 0.679607034 0.000000000
0.850068629 0.693187058 0.000000000
0.913003266 0.702251911 0.000000000
0.956169903 0.710713506 0.000000000
0.983364046 0.720330596 0.000000000
0.995558679 0.727315485 0.000000000
0.999125302 0.732788384 0.000000000
0.000000000 0.450324595 0.000000000
0.000000000 0.451178074 0.000000000
0.000000000 0.461729705 0.000000000
0.000000000 0.486607909 0.000000000
0.001190325 0.530354857 0.000000000
0.115421183 0.583121598 0.000000000
0.359971315 0.633901834 0.000000000
0.521272600 0.677749574 0.000000000
0.662446856 0.712706208 0.000000000
0.779408753 0.737791359 0.000000000
0.873129845 0.754851341 0.000000000
0.938948989 0.766324699 0.000000000
0.983182609 0.775593758 0.000000000
0.998398304 0.780677259 0.000000000
0.999967635 0.782685459 0.000000000
1.000000000 0.785035670 0.000000000
0.000000000 0.467133790 0.000000000
0.000000000 0.471756369 0.000000000
0.000000000 0.486005127 0.000000000
0.000000000 0.514144659 0.000000000
0.001426686 0.559757531 0.000000000
0.126162559 0.614125848 0.000000000
0.373199880 0.667283297 0.000000000
0.535444736 0.713649511 0.000000000
0.677361429 0.751140893 0.000000000
0.795376003 0.778930962 0.000000000
0.890477538 0.798571825 0.000000000
0.958299875 0.811887503 0.000000000
0.995034635 0.819150090 0.000000000
0.999912858 0.820320725 0.000000000
0.999999940 0.820931196 0.000000000
1.000000000 0.821947157 0.000000000
0.000000000 0.477697998 0.000000000
0.000000000 0.486297876 0.000000000
0.000000000 0.504692674 0.000000000
0.000000000 0.536870480 0.000000000
0.001797835 0.582971752 0.000000000
0.145050526 0.636613786 0.000000000
0.391287774 0.690369964 0.000000000
0.551207900 0.737700105 0.000000000
0.692072749 0.776327372 0.000000000
0.809406221 0.805562139 0.000000000
0.904138982 0.826643765 0.000000000
0.972391367 0.840991735 0.000000000
0.998944700 0.845313311 0.000000000
1.000000000 0.844990134 0.000000000
1.000000000 0.845063031 0.000000000
1.000000000 0.845417738 0.000000000
0.000000000 0.492414147 0.000000000
0.000000000 0.508878469 0.000000000
0.000000000 0.533246934 0.000000000
0.000008626 0.568719387 0.000000000
0.012992845 0.613963008 0.000000000
0.230511233 0.665209889 0.000000000
0.428502649 0.715971172 0.000000000
0.579231322 0.761012912 0.000000000
0.714505553 0.798492730 0.000000000
0.829235554 0.827527523 0.000000000
0.922800541 0.849053025 0.000000000
0.987087965 0.863124490 0.000000000
0.999846160 0.863215864 0.000000000
0.999999940 0.861934185 0.000000000
1.000000000 0.861656725 0.000000000
1.000000000 0.861911237 0.000000000
0.000000000 0.509754002 0.000000000
0.000000000 0.535786867 0.000000000
0.000000000 0.566715002 0.000000000
0.000000000 0.604900360 0.000000000
0.067448258 0.648959756 0.000000000
0.309905827 0.697253466 0.000000000
0.473225445 0.743087411 0.000000000
0.613383830 0.784065127 0.000000000
0.741278827 0.819100201 0.000000000
0.852541029 0.846960962 0.000000000
0.944511175 0.868258238 0.000000000
0.997109890 0.879606009 0.000000000
1.000000000 0.877377570 0.000000000
1.000000000 0.875492811 0.000000000
1.000000000 0.875219762 0.000000000
1.000000000 0.875981987 0.000000000
0.028807763 0.020904891 0.028380683
0.026874233 0.026733372 0.031429522
0.026338471 0.028120985 0.032549374
0.031464405 0.027885953 0.030994788
0.067009993 0.033863768 0.031192059
0.123113707 0.039005421 0.029380901
0.202012047 0.033256501 0.008557668
0.288570404 0.008068162 0.000013127
0.379537880 0.000000000 0.000000000
0.463103324 0.000000000 0.000000000
0.534151733 0.000000000 0.000000000
0.586067796 0.000000000 0.000000000
0.624356091 0.000000000 0.000000000
0.651602745 0.000000000 0.000000000
0.669453323 0.000000000 0.000000000
0.681700110 0.000000000 0.000000000
0.029263472 0.032365788 0.030540900
0.028290989 0.032384366 0.033418607
0.029998304 0.032892976 0.035020273
0.037186339 0.034203693 0.034991063
0.073765315 0.041282035 0.035835285
0.132380649 0.048533253 0.033328667
0.214461982 0.048069447 0.010104652
0.305238903 0.032728672 0.000009428
0.399323046 0.001658400 0.000000000
0.484818667 0.000003664 0.000000000
0.556709349 0.000000000 0.000000000
0.609844863 0.000000000 0.000000000
0.648238778 0.000000000 0.000000000
0.674170613 0.000000000 0.000000000
0.691057026 0.000000000 0.000000000
0.702582359 0.000000000 0.000000000
0.025781365 0.049694225 0.035305627
0.027153801 0.048094925 0.037079964
0.030353563 0.047947578 0.038722023
0.038761366 0.050305668 0.039888851
0.081530392 0.058700092 0.039972559
0.143661276 0.067170762 0.035962921
0.231008068 0.071830310 0.009527150
0.326832801 0.072352499 0.000001755
0.423302680 0.056980457 0.000000000
0.507752478 0.011142083 0.000000000
0.580754578 0.000382409 0.000000000
0.634892762 0.000140499 0.000000000
0.673260093 0.000032748 0.000000000
0.698046029 0.000021026 0.000000000
0.714333534 0.000075174 0.000000000
0.725611389 0.000218183 0.000000000
0.009338703 0.072163165 0.042814944
0.012479139 0.069570996 0.042952199
0.021247189 0.069179654 0.043887421
0.036436744 0.072088934 0.045460984
0.089766644 0.081868500 0.044063814
0.158835694 0.093488902 0.035221592
0.253157735 0.102909029 0.007576166
0.354323298 0.109956630 0.000000000
0.455172807 0.108575113 0.000000000
0.541132092 0.095414393 0.000000000
0.611902595 0.059486389 0.000000000
0.665048182 0.041204520 0.000000000
0.702532351 0.031374592 0.000000000
0.726333380 0.028143685 0.000000000
0.742906809 0.038274210 0.000000000
0.755269587 0.048776299 0.000000000
0.000000000 0.112934053 0.049732983
0.000000000 0.107779339 0.050038703
0.000000000 0.106818452 0.050337777
0.011892784 0.112227887 0.050663792
0.094096713 0.123734541 0.043373492
0.174317077 0.138408691 0.025605101
0.278668702 0.154399380 0.001431017
0.386566103 0.168088734 0.000000000
0.492412984 0.174338564 0.000000000
0.582373679 0.172815353 0.000000000
0.655438066 0.166584641 0.000000000
0.707662284 0.161513939 0.000000000
0.744381249 0.160562307 0.000000000
0.768236518 0.164726168 0.000000000
0.784934938 0.172165841 0.000000000
0.797423661 0.181570694 0.000000000
0.000000000 0.161055014 0.050570119
0.000000000 0.154247835 0.052607194
0.000000000 0.153052732 0.052963205
0.000405969 0.160560861 0.049306620
0.084705152 0.174912214 0.030985057
0.187741354 0.195479602 0.010296879
0.304669768 0.218042403 0.000000000
0.419277340 0.236278012 0.000000000
0.530383945 0.247558177 0.000000000
0.624746025 0.251440346 0.000000000
0.700712264 0.250582010 0.000000000
0.753162324 0.249521717 0.000000000
0.789749742 0.251573801 0.000000000
0.813991904 0.258197099 0.000000000
0.830144465 0.266372949 0.000000000
0.841501832 0.275234550 0.000000000
0.000000000 0.217353299 0.036873717
0.000000000 0.209787741 0.041530136
0.000000000 0.208703205 0.040578824
0.000008439 0.217965603 0.029831313
0.040638924 0.237675041 0.004685788
0.194177791 0.266431779 0.000000000
0.326631665 0.294714749 0.000000000
0.448335469 0.317000926 0.000000000
0.563359082 0.331570983 0.000000000
0.661208689 0.338703483 0.000000000
0.740070045 0.341110468 0.000000000
0.793925405 0.342556030 0.000000000
0.830788195 0.346405804 0.000000000
0.854441762 0.354096830 0.000000000
0.869750559 0.362221777 0.000000000
0.880088806 0.370468795 0.000000000
0.000000000 0.281626433 0.004912237
0.000000000 0.274199337 0.008540837
0.000000000 0.274519861 0.007351847
0.000000000 0.287115216 0.000800482
0.008054162 0.313953429 0.000030486
0.190680042 0.349003106 0.000000000
0.345024616 0.383051693 0.000000000
0.476706237 0.410117984 0.000000000
0.597171366 0.428192377 0.000000000
0.698347449 0.438110888 0.000000000
0.779906094 0.442978054 0.000000000
0.836093009 0.446702570 0.000000000
0.873973310 0.451664865 0.000000000
0.897302032 0.459238648 0.000000000
0.912418067 0.467848599 0.000000000
0.922683120 0.476879001 0.000000000
0.000000000 0.350569338 0.000021452
0.000000000 0.344293475 0.000038613
0.000000000 0.346748322 0.000030084
0.000000000 0.362645835 0.000000181
0.001720635 0.395119458 0.000000000
0.159431562 0.436263084 0.000000000
0.359627038 0.476568550 0.000000000
0.504059911 0.509048939 0.000000000
0.632479906 0.531392753 0.000000000
0.737687647 0.544188261 0.000000000
0.821682930 0.551088333 0.000000000
0.880780995 0.556893885 0.000000000
0.920509458 0.562846541 0.000000000
0.944123805 0.569823146 0.000000000
0.960027695 0.579114020 0.000000000
0.971179903 0.589609802 0.000000000
0.000000000 0.405539185 0.000000000
0.000000000 0.401384681 0.000000000
0.000000000 0.406734258 0.000000000
0.000000000 0.426515222 0.000000000
0.001507583 0.464827418 0.000000000
0.132763982 0.512171090 0.000000000
0.369159400 0.557910621 0.000000000
0.525275350 0.596003473 0.000000000
0.662188292 0.623934209 0.000000000
0.773007512 0.640982389 0.000000000
0.860162079 0.650592446 0.000000000
0.921298027 0.657910526 0.000000000
0.962503314 0.665007532 0.000000000
0.984397590 0.671834409 0.000000000
0.994444370 0.678435206 0.000000000
0.998291135 0.685174108 0.000000000
0.000000000 0.446531504 0.000043600
0.000000000 0.445142835 0.000000000
0.000000000 0.453872949 0.000000000
0.000000000 0.477668941 0.000000000
0.001326409 0.520853341 0.000000000
0.126814887 0.573342621 0.000000000
0.376374632 0.623709440 0.000000000
0.541055977 0.666566432 0.000000000
0.685256720 0.699762046 0.000000000
0.801420271 0.721385658 0.000000000
0.892477632 0.734449804 0.000000000
0.955409408 0.743369699 0.000000000
0.990712643 0.749085248 0.000000000
0.999170005 0.751713753 0.000000000
0.999977231 0.754033923 0.000000000
0.999991596 0.757479429 0.000000000
0.000000000 0.470629126 0.000441175
0.000000000 0.472589076 0.000009428
0.000000000 0.484994501 0.000009471
0.000000000 0.512550294 0.000000000
0.001263570 0.558440030 0.000000000
0.125941679 0.613541484 0.000000000
0.385073245 0.667727828 0.000000000
0.554063261 0.714193821 0.000000000
0.700734138 0.750591338 0.000000000
0.820378602 0.776329219 0.000000000
0.914831758 0.793380022 0.000000000
0.978512704 0.804190099 0.000000000
0.998739064 0.805298388 0.000000000
0.999999106 0.805282295 0.000000000
0.999999821 0.806294441 0.000000000
1.000000000 0.808072031 0.000000000
0.000000000 0.485318720 0.000791039
0.000000000 0.490937889 0.000465388
0.000000000 0.506967545 0.000237103
0.000000000 0.537807226 0.000003966
0.001315273 0.585219681 0.000000000
0.130046561 0.641245663 0.000000000
0.394213200 0.697254241 0.000000000
0.564840615 0.745781779 0.000000000
0.712301314 0.784183681 0.000000000
0.833404958 0.812590480 0.000000000
0.929581463 0.832469761 0.000000000
0.989079773 0.843452692 0.000000000
0.999815702 0.841911316 0.000000000
0.999998868 0.841202676 0.000000000
1.000000000 0.841336966 0.000000000
1.000000000 0.841881573 0.000000000
0.000000000 0.494278789 0.008057640
0.000000000 0.503650248 0.004884067
0.000000000 0.523235142 0.000718887
0.000000000 0.556804538 0.000312745
0.001514719 0.604721844 0.000018531
0.139679536 0.660234988 0.000001858
0.403458804 0.715723217 0.000000135
0.573447704 0.764373779 0.000000000
0.721193910 0.803808212 0.000000000
0.842148781 0.833432674 0.000000000
0.938034236 0.854441166 0.000000000
0.993855476 0.864842355 0.000000000
0.999989271 0.862288535 0.000000000
1.000000000 0.861105084 0.000000000
1.000000000 0.860708117 0.000000000
1.000000000 0.860689402 0.000000000
0.000000000 0.511081159 0.120429158
0.000000000 0.525794685 0.102052651
0.000000000 0.547937751 0.076393843
0.000000000 0.580606043 0.037286401
0.002511183 0.624460697 0.008526287
0.166117802 0.675996244 0.000420579
0.420238674 0.727665722 0.000165453
0.582287967 0.773366749 0.000042890
0.724717200 0.811331213 0.000002806
0.843185484 0.840668082 0.000000523
0.937810063 0.861968040 0.000000000
0.993954122 0.873043716 0.000000000
0.999999642 0.870479465 0.000000000
1.000000000 0.868343472 0.000000000
1.000000000 0.866947412 0.000000000
1.000000000 0.865991235 0.000002277
0.000000000 0.537590265 0.198567495
0.000000000 0.561642349 0.192389995
0.000000000 0.588592291 0.183456346
0.000000000 0.620532930 0.161242694
0.008700815 0.655696630 0.100592360
0.239000395 0.697347045 0.040854648
0.441705197 0.741080463 0.009366767
0.593248725 0.781852007 0.000976272
0.727593124 0.816825926 0.000134640
0.842229247 0.844787180 0.000005935
0.935114980 0.865828335 0.000000000
0.992188632 0.877942264 0.000000000
0.999998748 0.876297951 0.000000000
1.000000000 0.873695910 0.000000000
1.000000000 0.871153116 0.000000000
1.000000000 0.869579852 0.000000000
0.028664757 0.021999829 0.043049801
0.024470538 0.023601849 0.043635711
0.023438953 0.026138883 0.043661822
0.030736558 0.027687753 0.042625125
0.070745826 0.034596946 0.043352261
0.128821403 0.038956728 0.042532936
0.211254597 0.028158059 0.031514440
0.299831629 0.000000000 0.006627364
0.393558085 0.000000000 0.000273635
0.479180545 0.000000000 0.000220194
0.551573932 0.000000000 0.000172280
0.603496969 0.000000000 0.000155979
0.641078651 0.000000000 0.000206559
0.667211890 0.000000000 0.000291183
0.684193909 0.000000000 0.000397377
0.695760727 0.000000000 0.001262170
0.027929395 0.032480810 0.043194260
0.027928248 0.032280929 0.043139644
0.029207880 0.033040438 0.043606699
0.036409378 0.035068534 0.044206418
0.077557914 0.043052066 0.045593176
0.138720259 0.050246034 0.044044696
0.223803148 0.045854304 0.027983021
0.315821737 0.015628219 0.001365639
0.414156407 0.000007743 0.000053108
0.501838505 0.000000000 0.000000181
0.575056434 0.000000000 0.000000594
0.628079772 0.000000000 0.000000000
0.665825188 0.000000000 0.000000542
0.690877616 0.000000000 0.000010669
0.706860244 0.000000000 0.000100191
0.717487693 0.000000000 0.000247046
0.019361246 0.051259980 0.047706757
0.024750976 0.049811501 0.046583820
0.027200537 0.049644064 0.046857532
0.037272885 0.052320015 0.048736863
0.085114993 0.061158750 0.049674332
0.150408477 0.069558010 0.046844646
0.240664423 0.071749970 0.025995996
0.337759793 0.065710917 0.000040215
0.437151670 0.038693342 0.000000482
0.525384545 0.000530938 0.000000000
0.600005805 0.000098302 0.000000000
0.653958917 0.000001239 0.000000000
0.691625237 0.000000000 0.000000000
0.715515971 0.000000000 0.000000000
0.730800092 0.000000000 0.000000000
0.741031528 0.000000000 0.000000671
0.003597417 0.074855648 0.057642456
0.006361462 0.072146423 0.054850213
0.017982518 0.071901195 0.054301050
0.029370280 0.074798733 0.055994797
0.093298227 0.085009463 0.055782422
0.166256502 0.096751034 0.050207883
0.263113678 0.103829488 0.023339238
0.366242647 0.107625015 0.000000017
0.470192581 0.104554042 0.000000361
0.558331668 0.084823512 0.000000000
0.630992532 0.047065638 0.000000344
0.684122145 0.026734643 0.000000000
0.720935166 0.020860467 0.000000301
0.743388057 0.020400999 0.000000882
0.758515537 0.021495679 0.000000000
0.769448578 0.023414679 0.000000000
0.000000000 0.118470132 0.067187779
0.000003265 0.112588227 0.063530900
0.000000000 0.111496225 0.061954245
0.011129864 0.117510185 0.062864088
0.097406782 0.129547790 0.059393473
0.182195157 0.144095317 0.047544975
0.289079934 0.157405689 0.013573335
0.399874240 0.169704944 0.000003854
0.508792102 0.175307199 0.000000000
0.600727618 0.172707468 0.000000495
0.674774468 0.165059566 0.000000000
0.726612270 0.159123495 0.000000000
0.762008011 0.156498224 0.000000000
0.783873320 0.158532098 0.000000000
0.798860788 0.164468497 0.000000000
0.809954703 0.172338501 0.000000000
0.000000000 0.169776201 0.073281012
0.000000000 0.161941662 0.069319636
0.000000000 0.160632953 0.067364052
0.000101125 0.169144645 0.066707432
0.085565791 0.183831736 0.055936705
0.195513681 0.203171358 0.029498311
0.315977037 0.223990291 0.002556744
0.434379041 0.242101714 0.000001651
0.548228979 0.252863526 0.000000710
0.644250751 0.255945653 0.000000000
0.720892966 0.254216343 0.000000000
0.772889733 0.252737612 0.000000000
0.808222353 0.254111230 0.000000000
0.830551803 0.259534329 0.000000000
0.844792902 0.266043514 0.000000000
0.854330063 0.273245573 0.000000000
0.000000000 0.229870260 0.071920820
0.000000000 0.221440643 0.068420313
0.000000000 0.220272198 0.065669805
0.000008951 0.230355889 0.062561691
0.033826776 0.248696923 0.032973181
0.199481606 0.276358932 0.002314645
0.338705033 0.305357754 0.000031994
0.464614421 0.327804327 0.000000000
0.582467437 0.341807008 0.000000000
0.682041049 0.348362446 0.000000000
0.761430204 0.350058943 0.000000000
0.814455509 0.350995392 0.000000000
0.849815905 0.354089499 0.000000000
0.871585488 0.360699028 0.000000000
0.885199726 0.367821008 0.000000000
0.894003153 0.375047982 0.000000000
0.000000000 0.296979308 0.062207203
0.000000000 0.289319098 0.058970578
0.000000000 0.289456993 0.053705186
0.000000000 0.301778942 0.039350450
0.004334209 0.327882946 0.004077256
0.193792015 0.364374131 0.000000155
0.357258260 0.399386287 0.000000000
0.494182646 0.427062958 0.000000000
0.618019819 0.445120662 0.000000000
0.721134007 0.454621971 0.000000000
0.803348124 0.458875000 0.000000000
0.858626187 0.462063491 0.000000000
0.894887507 0.466256469 0.000000000
0.916180015 0.472707391 0.000000000
0.929455280 0.480118781 0.000000000
0.938009977 0.487941325 0.000000000
0.000000000 0.366324663 0.036434054
0.000000000 0.360314250 0.030794686
0.000000000 0.362909675 0.020371903
0.000000000 0.379435360 0.003585488
0.001507297 0.414071679 0.000102671
0.153200746 0.457344443 0.000002495
0.370893300 0.498546004 0.000000021
0.522093832 0.531843066 0.000000000
0.655291498 0.555113673 0.000000000
0.762928605 0.567925632 0.000000000
0.847916126 0.574368060 0.000000000
0.906500995 0.579753399 0.000000000
0.944624901 0.584904253 0.000000000
0.965917170 0.590605497 0.000000000
0.978765309 0.597907662 0.000000000
0.985845566 0.605843782 0.000000000
0.000000000 0.421003371 0.019578602
0.000000000 0.417350203 0.015919941
0.000000000 0.423287153 0.004564275
0.000000000 0.444252908 0.001440539
0.000848518 0.484742016 0.000042108
0.126376465 0.534450710 0.000001445
