example_ofxGpuLutCube/bin/data/ofxGpuLutCube/LUT/lut33.cube
TITLE "16x16x16 Adobe/IRIDAS cube 3D LUT exported with GrossGrade v0.1.027.1 (beta) 64 bit"
DOMAIN_MIN 0 0 0
DOMAIN_MAX 1 1 1
LUT_3D_SIZE 6
0.000000000 0.000000000 0.000000000
0.057874430 0.049470790 0.058877375
0.178372085 0.075194538 0.062194515
0.420112580 0.090211503 0.068047099
0.568580031 0.054258611 0.078925550
0.614085972 0.025824999 0.083458997
0.667067051 0.124147765 0.089898616
0.063427657 0.075080737 0.069922492
0.216985285 0.109945789 0.073161103
0.490811616 0.138022587 0.078449652
0.635938168 0.130023628 0.086779714
0.676063657 0.143458888 0.090795688
0.774452507 0.323352545 0.097647794
0.003261193 0.202721596 0.104774766
0.282241464 0.265467703 0.101274870
0.605269551 0.323784649 0.092534132
0.753150046 0.335931271 0.093988158
0.791885138 0.360948771 0.095576301
0.908156991 0.618353128 0.007378118
0.000007271 0.400325119 0.141872868
0.341331184 0.505517900 0.115922920
0.726351440 0.611342728 0.027542068
0.888433933 0.638775706 0.000317768
0.923017800 0.656131983 0.000213368
0.981050789 0.787807643 0.000000000
0.000016800 0.491303623 0.154119775
0.371475458 0.610776603 0.114823021
0.776359081 0.743220508 0.000001897
0.951363206 0.788338840 0.000000000
0.984018207 0.797315478 0.000000000
0.992828012 0.817436993 0.000000000
0.014708132 0.550622880 0.175556868
0.440575749 0.657946289 0.153562710
0.790574133 0.768340826 0.094307825
0.957346141 0.810534060 0.000823558
0.991730988 0.818796992 0.048076998
0.999095321 0.847141445 0.316315413
0.057920873 0.051670048 0.084758446
0.187720567 0.077929795 0.091236539
0.437024444 0.089792438 0.098540932
0.585763812 0.037298866 0.107162178
0.631610155 0.000000000 0.114668652
0.685779870 0.130124211 0.128304377
0.059734117 0.081451789 0.101123974
0.227090478 0.116944872 0.108431391
0.509540677 0.144102126 0.115558177
0.655231774 0.135261685 0.122063145
0.695313931 0.151142865 0.130452678
0.797262192 0.345688224 0.156123176
0.000000464 0.223499626 0.147558779
0.292546809 0.287871063 0.149232462
0.627541363 0.346931785 0.148450151
0.776438475 0.358355701 0.150262326
0.815061152 0.385608047 0.158245891
0.930434942 0.652799785 0.165342033
0.000000000 0.431762010 0.197456956
0.344321817 0.539215147 0.185231179
0.747664809 0.646811903 0.162761718
0.910172343 0.671978056 0.154931694
0.943367064 0.688532412 0.162099153
0.990615964 0.808828473 0.178203747
0.000000000 0.521469831 0.231702477
0.363653243 0.640188992 0.217135638
0.786731124 0.768697798 0.190688565
0.961515486 0.809003353 0.175776929
0.992563248 0.817321718 0.185596824
0.999426484 0.848314583 0.327685863
0.000007497 0.589856803 0.340583116
0.415143251 0.693143487 0.344694346
0.791892648 0.803305745 0.345094115
0.963492393 0.844268978 0.342895091
0.997730792 0.852585614 0.353157252
0.993052840 0.886009336 0.597889125
0.040297173 0.003788470 0.232553184
0.193387493 0.044755328 0.258520633
0.451652676 0.049314041 0.277396172
0.605853617 0.000007897 0.288860261
0.651521981 0.000000000 0.302009791
0.701587021 0.124966301 0.334765434
0.001159364 0.077392243 0.271533012
0.230289608 0.116620980 0.301230043
0.524513662 0.142456308 0.321724534
0.671900153 0.132228315 0.327774793
0.711057186 0.151909828 0.341415763
0.810358167 0.373012573 0.409031719
0.000000000 0.262175351 0.359820336
0.277124912 0.321586758 0.381684750
0.637395859 0.377922058 0.402211696
0.789450824 0.387292027 0.405076444
0.827381372 0.416216612 0.418625116
0.935321391 0.698027492 0.479270190
0.000000000 0.488019615 0.437265545
0.285782844 0.588318408 0.454189330
0.744934738 0.694668949 0.473643422
0.914202690 0.718338132 0.474812955
0.947074056 0.734750152 0.484501839
0.988198817 0.855805039 0.527091980
0.000000000 0.578831732 0.491262466
0.268455684 0.689244509 0.506273329
0.774047315 0.816868365 0.527713120
0.957001805 0.856057525 0.528809369
0.988901198 0.863795161 0.535993636
0.991766334 0.888373494 0.623828769
0.000000000 0.638905287 0.587365508
0.352002084 0.734565854 0.604610324
0.775086403 0.843403935 0.630114615
0.953965664 0.883401394 0.634625375
0.989907801 0.891231596 0.640332282
0.984050512 0.915748835 0.846413136
0.000004877 0.000000000 0.424353868
0.202554390 0.000000000 0.459574074
0.479239404 0.000000000 0.497962862
0.633889675 0.000000000 0.515173197
0.678252280 0.000000000 0.528269291
0.718175948 0.023639932 0.575652719
0.000001761 0.001147139 0.478280038
0.231650800 0.040802237 0.519735813
0.536883473 0.066442110 0.558523655
0.687188923 0.040939599 0.571015537
0.725099564 0.088216275 0.585363448
0.818543255 0.390276700 0.681052387
0.000000000 0.272977859 0.593481779
0.243767515 0.345093071 0.631121397
0.639476597 0.398792177 0.674057424
0.796054602 0.406856716 0.682696104
0.833939075 0.437254816 0.695799589
0.931605041 0.731256604 0.778732538
0.000000000 0.530446351 0.695090175
0.132371992 0.627235115 0.725637615
0.730107188 0.730593145 0.771113992
0.907560706 0.753310382 0.779934883
0.942021966 0.769336462 0.787085772
0.979540467 0.892543554 0.824821293
0.000000000 0.621800900 0.740452588
0.117189482 0.729126275 0.769317091
0.753593385 0.853579521 0.815375030
0.945740640 0.892837822 0.826419115
0.980072558 0.900180101 0.830323935
0.983696878 0.917893887 0.868810833
0.000000000 0.672602236 0.793226182
0.236565799 0.764155209 0.816840291
0.758146226 0.872115850 0.860982537
0.944192529 0.912318587 0.873580217
0.981876493 0.919211090 0.875536025
0.981743932 0.929974973 0.972645402
0.000000000 0.000000000 0.531052947
0.200796723 0.000000000 0.571098983
0.499061763 0.000000000 0.621156514
0.657014668 0.000000000 0.643655062
0.700530529 0.000000000 0.656979144
0.738897145 0.015008117 0.715286136
0.000000000 0.000000000 0.597067297
0.229573011 0.022319682 0.642429471
0.551034927 0.027679358 0.693439662
0.706032038 0.025043931 0.711014688
0.742959082 0.063834161 0.724619985
0.825836420 0.399699479 0.821696460
0.000000000 0.262883335 0.706976414
0.197544694 0.355238527 0.754546285
0.637860358 0.407944769 0.811483502
0.800265729 0.415126771 0.825479209
0.839247227 0.446009696 0.837494195
0.929327130 0.738919616 0.924540102
0.000000000 0.539968789 0.816361547
0.090504669 0.638460994 0.854957342
0.716485441 0.739483118 0.912940860
0.902155280 0.762216151 0.928501606
0.938857615 0.777831018 0.934033155
0.975888193 0.905337393 0.965915978
0.000000000 0.635749996 0.852599740
0.042069629 0.742484510 0.888941407
0.737731576 0.865486801 0.946581304
0.938830972 0.905698478 0.965646565
0.976261914 0.913255036 0.968589187
0.981304288 0.929665685 0.979179680
0.000000000 0.683086216 0.878916562
0.179295883 0.772897780 0.905184984
0.744436920 0.880787253 0.958315432
0.938212037 0.922515631 0.977461755
0.979514658 0.930394530 0.980682492
0.980636001 0.932151020 0.998580992
0.000000000 0.000000000 0.603012919
0.226897061 0.000000000 0.647596657
0.538343310 0.000000000 0.700672925
0.695683479 0.000000000 0.721891701
0.733668029 0.000000000 0.735514998
0.781137466 0.258139938 0.795729518
0.000000000 0.029195562 0.656283140
0.235154316 0.206544355 0.714159429
0.585793018 0.242278621 0.770364106
0.743815601 0.241897434 0.787710130
0.785455525 0.277149588 0.802817106
0.849578857 0.475916922 0.874291897
0.000000000 0.327676594 0.755912244
0.176395714 0.413428009 0.798961759
0.649740219 0.473798603 0.858722270
0.818799973 0.482859641 0.875153244
0.859188735 0.511189461 0.886112154
0.932273388 0.752990663 0.955751359
0.000000000 0.554240584 0.843216062
0.084871568 0.650117040 0.880906522
0.710890830 0.749428034 0.940382183
0.901255310 0.773473322 0.958919168
0.940335274 0.787617266 0.964368522
0.973994315 0.905974269 0.991943002
0.000000000 0.642445922 0.875072002
0.041418456 0.745712757 0.910018086
0.729624748 0.865513682 0.969362915
0.934419811 0.906437933 0.990923405
0.974196732 0.913791239 0.993965507
0.980068028 0.930943012 0.999242008
0.000000000 0.687564671 0.893795431
0.164462537 0.774472594 0.920449674
0.735046327 0.880451441 0.974659085
0.933243513 0.923193455 0.995934069
0.977985978 0.931652009 0.999790013
