example_ofxGpuLutCube/bin/data/ofxGpuLutCube/LUT/lut33 Rec709 Fujifilm 3513DI D65.cube
TITLE "16x16x16 Adobe/IRIDAS cube 3D LUT exported with GrossGrade v0.1.027.1 (beta) 64 bit"
DOMAIN_MIN 0 0 0
DOMAIN_MAX 1 1 1
LUT_3D_SIZE 6
0.028579000 0.023029000 0.030894000
0.030218720 0.028325975 0.032956988
0.191218376 0.033773534 0.018245112
0.445177257 0.000000000 0.000000000
0.605811894 0.000000000 0.000000000
0.662084997 0.000000000 0.000000000
0.008418058 0.071163267 0.045329619
0.037396707 0.070254542 0.047720589
0.240701973 0.100041449 0.013242035
0.519305170 0.093439922 0.000000000
0.680873811 0.034101233 0.000000000
0.733552694 0.049109444 0.000000000
0.000000000 0.207658321 0.046326246
0.000012342 0.207925200 0.041541599
0.305937499 0.277952045 0.000002574
0.632882059 0.322463214 0.000000000
0.803862989 0.331428260 0.000000000
0.853617668 0.355152667 0.000000000
0.000000000 0.383570075 0.000000000
0.000000000 0.399825513 0.000000000
0.343576312 0.521749139 0.000000000
0.732644498 0.601415396 0.000000000
0.921929181 0.626189351 0.000000000
0.978286862 0.655375957 0.000000000
0.000000000 0.467133790 0.000000000
0.000000000 0.514144659 0.000000000
0.373199880 0.667283297 0.000000000
0.795376003 0.778930962 0.000000000
0.995034635 0.819150090 0.000000000
1.000000000 0.821947157 0.000000000
0.000000000 0.509754002 0.000000000
0.000000000 0.604900360 0.000000000
0.473225445 0.743087411 0.000000000
0.852541029 0.846960962 0.000000000
1.000000000 0.877377570 0.000000000
1.000000000 0.875981987 0.000000000
0.023312939 0.025699615 0.067089595
0.023925669 0.027370555 0.063779898
0.219792500 0.024532123 0.060028024
0.495368302 0.000000000 0.034352574
0.657161236 0.000000000 0.034113105
0.707299113 0.000000000 0.070395976
0.000000000 0.079624571 0.084480323
0.021454547 0.078800648 0.077871077
0.273456573 0.107301459 0.062294751
0.570023477 0.054873005 0.008204781
0.734652162 0.002596839 0.002377432
0.776737988 0.003168731 0.016652213
0.000000000 0.246345013 0.119369231
0.000000000 0.246792644 0.107592821
0.342552394 0.312494993 0.028912976
0.693506300 0.350519240 0.000281562
0.859010458 0.353790700 0.000004181
0.893584669 0.370006710 0.003694791
0.000000000 0.448619425 0.148144856
0.000000000 0.467172891 0.123224974
0.367679149 0.594423294 0.004493697
0.806360364 0.682317793 0.000000000
0.989184201 0.701614976 0.000014903
0.999988437 0.707488537 0.000000000
0.000000000 0.531753540 0.238911346
0.000000000 0.578082442 0.217238933
0.355690241 0.712938905 0.056234598
0.833535016 0.826250494 0.004967506
0.999993324 0.854456782 0.001018201
1.000000000 0.848907053 0.005799897
0.000000000 0.589979947 0.406160772
0.000000000 0.676355481 0.407860428
0.391709626 0.780131102 0.364361316
0.814990401 0.855420411 0.306224555
0.997603178 0.886179686 0.288795084
1.000000000 0.887826979 0.334583551
0.000000000 0.000000000 0.265443087
0.007931043 0.000000000 0.255414069
0.245092362 0.000000000 0.276054084
0.527200282 0.000000000 0.290930033
0.685453236 0.000000000 0.315621823
0.730109692 0.000000000 0.352328628
0.000000000 0.038046591 0.303616136
0.000000000 0.056385633 0.292353779
0.289280951 0.105686888 0.312544435
0.593195975 0.018690012 0.306991309
0.753975868 0.001538243 0.326074183
0.790075421 0.003500416 0.369046181
0.000000000 0.300927579 0.406223089
0.000000000 0.301152200 0.397009462
0.328461558 0.361212611 0.390341729
0.694899261 0.374935329 0.374541968
0.851655006 0.367931575 0.377187312
0.883454561 0.393602371 0.421810567
0.000000000 0.533454716 0.496504873
0.000000000 0.554352343 0.491244733
0.243718997 0.662994742 0.468846112
0.774477184 0.722696066 0.443192869
0.956375837 0.734288573 0.442692190
0.985547006 0.754714906 0.494056493
0.000000000 0.605487585 0.580044746
0.000000000 0.654334545 0.586635649
0.159292787 0.780565619 0.559089422
0.785409927 0.868810177 0.540266395
0.986851335 0.899136364 0.536226511
1.000000000 0.904831469 0.569257140
0.000000000 0.641499758 0.681230664
0.000000000 0.728255212 0.703148127
0.251598567 0.828577995 0.685054004
0.781013370 0.907067716 0.679339826
0.978137910 0.942370594 0.688455284
1.000000000 0.950069010 0.716995418
0.000000000 0.000000000 0.449158609
0.000000000 0.000000000 0.450892001
0.252135664 0.000000000 0.484006166
0.548608780 0.000000000 0.515494764
0.708134115 0.000000000 0.542174757
0.753426969 0.000000000 0.572652638
0.000000000 0.000013187 0.520471811
0.000003658 0.002688833 0.518954337
0.293453246 0.023581952 0.554559052
0.611697733 0.002274826 0.573435545
0.773926735 0.000000000 0.598141491
0.809953272 0.000031123 0.632449389
0.000000000 0.308878571 0.648783982
0.000000000 0.306909144 0.650056541
0.287793130 0.387986332 0.666659474
0.689624965 0.399946064 0.677165985
0.854493618 0.396098524 0.689231277
0.886756837 0.423416734 0.723599255
0.000000000 0.576783538 0.754978359
0.000000000 0.599965870 0.767385423
0.077266991 0.712655365 0.769814670
0.748083830 0.777583361 0.783394516
0.945888519 0.793034971 0.796394706
0.977573991 0.812282562 0.824909568
0.000000000 0.640384674 0.804424942
0.000000000 0.689671695 0.826623082
0.036786687 0.821370721 0.829889059
0.751071632 0.917881012 0.847835898
0.970322311 0.953964353 0.861964762
1.000000000 0.962318957 0.881235421
0.000000000 0.661662519 0.843152821
0.000000000 0.750081360 0.876502216
0.121607311 0.852422535 0.875069022
0.755260706 0.941833973 0.902225852
0.966942549 0.980696976 0.919840753
1.000000000 0.988458276 0.933830678
0.000000000 0.000000000 0.524328530
0.000000000 0.000000000 0.534536362
0.245047882 0.000000000 0.576379061
0.555925131 0.000000000 0.620731533
0.723276138 0.000000000 0.650488615
0.769057453 0.000000000 0.671161711
0.000000000 0.000000000 0.612742305
0.000000000 0.000000000 0.622728765
0.286597282 0.010464425 0.664811611
0.621238649 0.000047845 0.702626228
0.789079726 0.000000000 0.728025973
0.823318779 0.000000000 0.748202980
0.000000000 0.300629824 0.736067295
0.000000000 0.296635360 0.748125076
0.245625734 0.395181507 0.777978837
0.684949815 0.410718918 0.811430991
0.857874632 0.407187402 0.828265429
0.891299248 0.436737120 0.846496046
0.000000000 0.585322022 0.841585636
0.000000000 0.609311879 0.862946987
0.031505093 0.725143075 0.881479263
0.733127117 0.799270332 0.916560352
0.943220377 0.816798449 0.936730981
0.976603150 0.833658159 0.948595583
0.000000000 0.646564364 0.864363909
0.000000000 0.694382370 0.894349277
0.011584469 0.829305649 0.913528085
0.732588530 0.933286130 0.950701416
0.964469135 0.972713292 0.972988188
0.998751581 0.980052888 0.980610430
0.000000000 0.664772332 0.881410301
0.000000000 0.751567006 0.916418374
0.047947135 0.855554640 0.922861814
0.739902854 0.949148417 0.962127388
0.962502182 0.991409838 0.985749483
1.000000000 0.998583496 0.992047727
0.000000000 0.000000000 0.543325007
0.000000000 0.000000000 0.556854248
0.240141764 0.000000000 0.600838959
0.557793498 0.000000000 0.650001407
0.731826842 0.000000000 0.683368921
0.776154995 0.000000000 0.698567986
0.000000000 0.000000000 0.637223840
0.000000000 0.000000000 0.650853276
0.282216638 0.020018116 0.696488559
0.620220900 0.002550375 0.739081740
0.794153571 0.000000000 0.765266716
0.827724338 0.002773047 0.779204726
0.000000000 0.313871086 0.757353127
0.000000000 0.304857820 0.769463956
0.218900397 0.406431913 0.802573562
0.680338085 0.424760729 0.843216300
0.859496236 0.421779871 0.861805260
0.894199312 0.450502545 0.874627769
0.000000000 0.588963449 0.855783165
0.000000000 0.611435175 0.877762318
0.013793794 0.728682697 0.902038097
0.721794486 0.806273699 0.941874802
0.942126393 0.826319396 0.964454055
0.977486908 0.842945755 0.971904218
0.000000000 0.645823538 0.869975567
0.000000000 0.694906235 0.904030502
0.001737308 0.828879714 0.926286697
0.722404838 0.935127616 0.966296494
0.961406291 0.976184666 0.990932703
0.997972608 0.982966602 0.995988786
0.000000000 0.665090978 0.885559022
0.000000000 0.749709189 0.921881616
0.041990288 0.854567707 0.929404259
0.730664194 0.949745476 0.970444679
0.960012674 0.992761016 0.994696975
0.999981999 1.000000000 0.999966979
