example_ofxGpuLutCube/bin/data/ofxGpuLutCube/LUT/lut64_FJNeo.cube
TITLE "16x16x16 Adobe/IRIDAS cube 3D LUT exported with GrossGrade v0.1.027.1 (beta) 64 bit"
DOMAIN_MIN 0 0 0
DOMAIN_MAX 1 1 1
LUT_3D_SIZE 6
0.026100000 0.026100000 0.026100000
0.049540002 0.049540002 0.049540002
0.071720660 0.071720660 0.071720660
0.122150324 0.122150324 0.122150324
0.193600044 0.193600044 0.193600044
0.269600004 0.269600004 0.269600004
0.113624513 0.113624513 0.113624513
0.149089709 0.149089709 0.149089709
0.187397450 0.187397450 0.187397450
0.260713577 0.260713577 0.260713577
0.350652307 0.350652307 0.350652307
0.438419372 0.438419372 0.438419372
0.191056803 0.191056803 0.191056803
0.238114879 0.238114879 0.238114879
0.303714246 0.303714246 0.303714246
0.391623914 0.391623914 0.391623914
0.501819432 0.501819432 0.501819432
0.578063905 0.578063905 0.578063905
0.319490314 0.319490314 0.319490314
0.364874184 0.364874184 0.364874184
0.450043261 0.450043261 0.450043261
0.529596746 0.529596746 0.529596746
0.630592942 0.630592942 0.630592942
0.723889709 0.723889709 0.723889709
0.461695552 0.461695552 0.461695552
0.512026548 0.512026548 0.512026548
0.599028468 0.599028468 0.599028468
0.682963312 0.682963312 0.682963312
0.752282083 0.752282083 0.752282083
0.833375514 0.833375514 0.833375514
0.605000019 0.605000019 0.605000019
0.658342600 0.658342600 0.658342600
0.743706465 0.743706465 0.743706465
0.831259966 0.831259966 0.831259966
0.896486461 0.896486461 0.896486461
0.947899997 0.947899997 0.947899997
0.020847097 0.020847097 0.020847097
0.073338717 0.073338717 0.073338717
0.116747767 0.116747767 0.116747767
0.147240013 0.147240013 0.147240013
0.213832945 0.213832945 0.213832945
0.291535467 0.291535467 0.291535467
0.130804524 0.130804524 0.130804524
0.181896165 0.181896165 0.181896165
0.228534847 0.228534847 0.228534847
0.291736811 0.291736811 0.291736811
0.379387826 0.379387826 0.379387826
0.463866472 0.463866472 0.463866472
0.217109069 0.217109069 0.217109069
0.259170383 0.259170383 0.259170383
0.332872301 0.332872301 0.332872301
0.407789737 0.407789737 0.407789737
0.518599451 0.518599451 0.518599451
0.635734856 0.635734856 0.635734856
0.345853537 0.345853537 0.345853537
0.387480646 0.387480646 0.387480646
0.460313588 0.460313588 0.460313588
0.541638672 0.541638672 0.541638672
0.636732996 0.636732996 0.636732996
0.748316765 0.748316765 0.748316765
0.487433612 0.487433612 0.487433612
0.538656890 0.538656890 0.538656890
0.600851059 0.600851059 0.600851059
0.686829746 0.686829746 0.686829746
0.763621390 0.763621390 0.763621390
0.851746500 0.851746500 0.851746500
0.631429017 0.631429017 0.631429017
0.690112889 0.690112889 0.690112889
0.749098122 0.749098122 0.749098122
0.831149697 0.831149697 0.831149697
0.907776177 0.907776177 0.907776177
0.961690962 0.961690962 0.961690962
0.040080011 0.040080011 0.040080011
0.098467119 0.098467119 0.098467119
0.191165864 0.191165864 0.191165864
0.223647773 0.223647773 0.223647773
0.259783924 0.259783924 0.259783924
0.320233554 0.320233554 0.320233554
0.152078733 0.152078733 0.152078733
0.218858093 0.218858093 0.218858093
0.306914896 0.306914896 0.306914896
0.362481982 0.362481982 0.362481982
0.416546494 0.416546494 0.416546494
0.481590360 0.481590360 0.481590360
0.248087794 0.248087794 0.248087794
0.300727755 0.300727755 0.300727755
0.381520718 0.381520718 0.381520718
0.449551642 0.449551642 0.449551642
0.543583989 0.543583989 0.543583989
0.643862605 0.643862605 0.643862605
0.379383862 0.379383862 0.379383862
0.426599383 0.426599383 0.426599383
0.482416123 0.482416123 0.482416123
0.570487082 0.570487082 0.570487082
0.642035484 0.642035484 0.642035484
0.777430952 0.777430952 0.777430952
0.527671039 0.527671039 0.527671039
0.577969730 0.577969730 0.577969730
0.624448478 0.624448478 0.624448478
0.688856184 0.688856184 0.688856184
0.763040125 0.763040125 0.763040125
0.854873598 0.854873598 0.854873598
0.674426436 0.674426436 0.674426436
0.725882590 0.725882590 0.725882590
0.768686473 0.768686473 0.768686473
0.821056068 0.821056068 0.821056068
0.902190983 0.902190983 0.902190983
0.964483202 0.964483202 0.964483202
0.069056772 0.069056772 0.069056772
0.115765177 0.115765177 0.115765177
0.218682617 0.218682617 0.218682617
0.293389678 0.293389678 0.293389678
0.326467097 0.326467097 0.326467097
0.364443243 0.364443243 0.364443243
0.200388402 0.200388402 0.200388402
0.262247741 0.262247741 0.262247741
0.340438098 0.340438098 0.340438098
0.437907755 0.437907755 0.437907755
0.472116828 0.472116828 0.472116828
0.510720670 0.510720670 0.510720670
0.295860708 0.295860708 0.295860708
0.363418758 0.363418758 0.363418758
0.448751628 0.448751628 0.448751628
0.524696171 0.524696171 0.524696171
0.590580046 0.590580046 0.590580046
0.649116099 0.649116099 0.649116099
0.418763876 0.418763876 0.418763876
0.474575460 0.474575460 0.474575460
0.536140025 0.536140025 0.536140025
0.607039273 0.607039273 0.607039273
0.667232931 0.667232931 0.667232931
0.767956138 0.767956138 0.767956138
0.564987838 0.564987838 0.564987838
0.614271045 0.614271045 0.614271045
0.659640133 0.659640133 0.659640133
0.704695523 0.704695523 0.704695523
0.774093032 0.774093032 0.774093032
0.855288386 0.855288386 0.855288386
0.710979998 0.710979998 0.710979998
0.761094213 0.761094213 0.761094213
0.799117446 0.799117446 0.799117446
0.831103206 0.831103206 0.831103206
0.891684592 0.891684592 0.891684592
0.963739991 0.963739991 0.963739991
0.094190978 0.094190978 0.094190978
0.146860018 0.146860018 0.146860018
0.220206484 0.220206484 0.220206484
0.324878067 0.324878067 0.324878067
0.373868406 0.373868406 0.373868406
0.400410980 0.400410980 0.400410980
0.247032315 0.247032315 0.247032315
0.299823254 0.299823254 0.299823254
0.355853558 0.355853558 0.355853558
0.467534214 0.467534214 0.467534214
0.516727805 0.516727805 0.516727805
0.539760053 0.539760053 0.539760053
0.365247816 0.365247816 0.365247816
0.435892999 0.435892999 0.435892999
0.500743330 0.500743330 0.500743330
0.560747802 0.560747802 0.560747802
0.643997490 0.643997490 0.643997490
0.669392288 0.669392288 0.669392288
0.484082580 0.484082580 0.484082580
0.541294277 0.541294277 0.541294277
0.596185207 0.596185207 0.596185207
0.655706406 0.655706406 0.655706406
0.711785853 0.711785853 0.711785853
0.779202640 0.779202640 0.779202640
0.607180059 0.607180059 0.607180059
0.653210402 0.653210402 0.653210402
0.697880149 0.697880149 0.697880149
0.742185235 0.742185235 0.742185235
0.794535518 0.794535518 0.794535518
0.860309064 0.860309064 0.860309064
0.747520030 0.747520030 0.747520030
0.789640009 0.789640009 0.789640009
0.826640010 0.826640010 0.826640010
0.858429015 0.858429015 0.858429015
0.896567106 0.896567106 0.896567106
0.965755463 0.965755463 0.965755463
0.114399999 0.114399999 0.114399999
0.173100010 0.173100010 0.173100010
0.232627764 0.232627764 0.232627764
0.330072254 0.330072254 0.330072254
0.387686431 0.387686431 0.387686431
0.416599989 0.416599989 0.416599989
0.276957452 0.276957452 0.276957452
0.329160005 0.329160005 0.329160005
0.378561318 0.378561318 0.378561318
0.459072888 0.459072888 0.459072888
0.527909636 0.527909636 0.527909636
0.556119978 0.556119978 0.556119978
0.419949740 0.419949740 0.419949740
0.480443925 0.480443925 0.480443925
0.528319418 0.528319418 0.528319418
0.569601953 0.569601953 0.569601953
0.659165204 0.659165204 0.659165204
0.691346467 0.691346467 0.691346467
0.542746484 0.542746484 0.542746484
0.596573532 0.596573532 0.596573532
0.655083835 0.655083835 0.655083835
0.696592927 0.696592927 0.696592927
0.744258106 0.744258106 0.744258106
0.807682574 0.807682574 0.807682574
0.658204556 0.658204556 0.658204556
0.704676807 0.704676807 0.704676807
0.750587821 0.750587821 0.750587821
0.793403864 0.793403864 0.793403864
0.829920053 0.829920053 0.829920053
0.883684576 0.883684576 0.883684576
0.782599986 0.782599986 0.782599986
0.824815512 0.824815512 0.824815512
0.863800049 0.863800049 0.863800049
0.898519993 0.898519993 0.898519993
0.929844499 0.929844499 0.929844499
0.970099986 0.970099986 0.970099986
