example_ofxGpuLutCube/bin/data/ofxGpuLutCube/LUT/lut64_FJNeo.cube
TITLE "16x16x16 Adobe/IRIDAS cube 3D LUT exported with GrossGrade v0.1.027.1 (beta) 64 bit"
DOMAIN_MIN 0 0 0
DOMAIN_MAX 1 1 1
LUT_3D_SIZE 16
0.026100000 0.026100000 0.026100000
0.036864731 0.036864731 0.036864731
0.043771185 0.043771185 0.043771185
0.049540002 0.049540002 0.049540002
0.055626668 0.055626668 0.055626668
0.062435482 0.062435482 0.062435482
0.071720660 0.071720660 0.071720660
0.085523665 0.085523665 0.085523665
0.102891825 0.102891825 0.102891825
0.122150324 0.122150324 0.122150324
0.143502146 0.143502146 0.143502146
0.167496562 0.167496562 0.167496562
0.193600044 0.193600044 0.193600044
0.220615536 0.220615536 0.220615536
0.247600645 0.247600645 0.247600645
0.269600004 0.269600004 0.269600004
0.066292904 0.066292904 0.066292904
0.076896988 0.076896988 0.076896988
0.083547741 0.083547741 0.083547741
0.088930972 0.088930972 0.088930972
0.094769031 0.094769031 0.094769031
0.101572692 0.101572692 0.101572692
0.111670770 0.111670770 0.111670770
0.127669483 0.127669483 0.127669483
0.148132920 0.148132920 0.148132920
0.170011818 0.170011818 0.170011818
0.193167970 0.193167970 0.193167970
0.218545169 0.218545169 0.218545169
0.245796591 0.245796591 0.245796591
0.273707390 0.273707390 0.273707390
0.301379591 0.301379591 0.301379591
0.323518723 0.323518723 0.323518723
0.097750328 0.097750328 0.097750328
0.107988179 0.107988179 0.107988179
0.114908822 0.114908822 0.114908822
0.121694192 0.121694192 0.121694192
0.129357859 0.129357859 0.129357859
0.137915060 0.137915060 0.137915060
0.149019584 0.149019584 0.149019584
0.166198522 0.166198522 0.166198522
0.189964741 0.189964741 0.189964741
0.216947332 0.216947332 0.216947332
0.244181931 0.244181931 0.244181931
0.271604508 0.271604508 0.271604508
0.300443470 0.300443470 0.300443470
0.330248028 0.330248028 0.330248028
0.359503448 0.359503448 0.359503448
0.382175714 0.382175714 0.382175714
0.113624513 0.113624513 0.113624513
0.125196993 0.125196993 0.125196993
0.136670336 0.136670336 0.136670336
0.149089709 0.149089709 0.149089709
0.161276340 0.161276340 0.161276340
0.173646912 0.173646912 0.173646912
0.187397450 0.187397450 0.187397450
0.205123484 0.205123484 0.205123484
0.230077654 0.230077654 0.230077654
0.260713577 0.260713577 0.260713577
0.291557223 0.291557223 0.291557223
0.320736378 0.320736378 0.320736378
0.350652307 0.350652307 0.350652307
0.382189751 0.382189751 0.382189751
0.414014876 0.414014876 0.414014876
0.438419372 0.438419372 0.438419372
0.126049250 0.126049250 0.126049250
0.139601082 0.139601082 0.139601082
0.155844316 0.155844316 0.155844316
0.174289688 0.174289688 0.174289688
0.191391841 0.191391841 0.191391841
0.207297415 0.207297415 0.207297415
0.224608630 0.224608630 0.224608630
0.245072290 0.245072290 0.245072290
0.271604300 0.271604300 0.271604300
0.304196566 0.304196566 0.304196566
0.337721735 0.337721735 0.337721735
0.368849069 0.368849069 0.368849069
0.399190366 0.399190366 0.399190366
0.430444807 0.430444807 0.430444807
0.462837666 0.462837666 0.462837666
0.488580197 0.488580197 0.488580197
0.152620435 0.152620435 0.152620435
0.166365370 0.166365370 0.166365370
0.182704955 0.182704955 0.182704955
0.203258291 0.203258291 0.203258291
0.224256143 0.224256143 0.224256143
0.242984951 0.242984951 0.242984951
0.262062401 0.262062401 0.262062401
0.284822822 0.284822822 0.284822822
0.313501954 0.313501954 0.313501954
0.348172903 0.348172903 0.348172903
0.384621501 0.384621501 0.384621501
0.418761522 0.418761522 0.418761522
0.450116187 0.450116187 0.450116187
0.479676187 0.479676187 0.479676187
0.509055972 0.509055972 0.509055972
0.533090353 0.533090353 0.533090353
0.191056803 0.191056803 0.191056803
0.204044774 0.204044774 0.204044774
0.218253151 0.218253151 0.218253151
0.238114879 0.238114879 0.238114879
0.262118965 0.262118965 0.262118965
0.284060895 0.284060895 0.284060895
0.303714246 0.303714246 0.303714246
0.326283276 0.326283276 0.326283276
0.355419606 0.355419606 0.355419606
0.391623914 0.391623914 0.391623914
0.430702001 0.430702001 0.430702001
0.468023717 0.468023717 0.468023717
0.501819432 0.501819432 0.501819432
0.531386673 0.531386673 0.531386673
0.557436168 0.557436168 0.557436168
0.578063905 0.578063905 0.578063905
0.231671840 0.231671840 0.231671840
0.244452298 0.244452298 0.244452298
0.258198738 0.258198738 0.258198738
0.277287573 0.277287573 0.277287573
0.303051203 0.303051203 0.303051203
0.328632712 0.328632712 0.328632712
0.350157857 0.350157857 0.350157857
0.372085840 0.372085840 0.372085840
0.399944574 0.399944574 0.399944574
0.435489267 0.435489267 0.435489267
0.474920869 0.474920869 0.474920869
0.513493121 0.513493121 0.513493121
0.549554467 0.549554467 0.549554467
0.581480026 0.581480026 0.581480026
0.607568622 0.607568622 0.607568622
0.626595914 0.626595914 0.626595914
0.274174392 0.274174392 0.274174392
0.287301928 0.287301928 0.287301928
0.301367134 0.301367134 0.301367134
0.319637626 0.319637626 0.319637626
0.345745623 0.345745623 0.345745623
0.374627560 0.374627560 0.374627560
0.399430960 0.399430960 0.399430960
0.421941072 0.421941072 0.421941072
0.448224723 0.448224723 0.448224723
0.481236130 0.481236130 0.481236130
0.518460631 0.518460631 0.518460631
0.555707276 0.555707276 0.555707276
0.592006683 0.592006683 0.592006683
0.626529932 0.626529932 0.626529932
0.655804276 0.655804276 0.655804276
0.676168144 0.676168144 0.676168144
0.319490314 0.319490314 0.319490314
0.333058953 0.333058953 0.333058953
0.347507536 0.347507536 0.347507536
0.364874184 0.364874184 0.364874184
0.390244514 0.390244514 0.390244514
0.421534419 0.421534419 0.421534419
0.450043261 0.450043261 0.450043261
0.473883212 0.473883212 0.473883212
0.499310344 0.499310344 0.499310344
0.529596746 0.529596746 0.529596746
0.563144445 0.563144445 0.563144445
0.596766233 0.596766233 0.596766233
0.630592942 0.630592942 0.630592942
0.665968895 0.665968895 0.665968895
0.699758470 0.699758470 0.699758470
0.723889709 0.723889709 0.723889709
0.366511822 0.366511822 0.366511822
0.380600840 0.380600840 0.380600840
0.395618498 0.395618498 0.395618498
0.412615031 0.412615031 0.412615031
0.436701089 0.436701089 0.436701089
0.468899995 0.468899995 0.468899995
0.500532210 0.500532210 0.500532210
0.526323199 0.526323199 0.526323199
0.551550150 0.551550150 0.551550150
0.580240011 0.580240011 0.580240011
0.610183835 0.610183835 0.610183835
0.638979375 0.638979375 0.638979375
0.667948365 0.667948365 0.667948365
0.700808227 0.700808227 0.700808227
0.737825751 0.737825751 0.737825751
0.767438710 0.767438710 0.767438710
0.414033324 0.414033324 0.414033324
0.428597212 0.428597212 0.428597212
0.444498479 0.444498479 0.444498479
0.462103873 0.462103873 0.462103873
0.485073566 0.485073566 0.485073566
0.516561091 0.516561091 0.516561091
0.550052285 0.550052285 0.550052285
0.578122973 0.578122973 0.578122973
0.603746235 0.603746235 0.603746235
0.631733358 0.631733358 0.631733358
0.659685850 0.659685850 0.659685850
0.684471369 0.684471369 0.684471369
0.707824945 0.707824945 0.707824945
0.734747350 0.734747350 0.734747350
0.770115495 0.770115495 0.770115495
0.803834856 0.803834856 0.803834856
0.461695552 0.461695552 0.461695552
0.476633608 0.476633608 0.476633608
0.493427992 0.493427992 0.493427992
0.512026548 0.512026548 0.512026548
0.534903109 0.534903109 0.534903109
0.565122247 0.565122247 0.565122247
0.599028468 0.599028468 0.599028468
0.628902256 0.628902256 0.628902256
0.655299664 0.655299664 0.655299664
0.682963312 0.682963312 0.682963312
0.710135579 0.710135579 0.710135579
0.732838094 0.732838094 0.732838094
0.752282083 0.752282083 0.752282083
0.773019850 0.773019850 0.773019850
0.801668465 0.801668465 0.801668465
0.833375514 0.833375514 0.833375514
0.509442210 0.509442210 0.509442210
0.524634480 0.524634480 0.524634480
0.541974306 0.541974306 0.541974306
0.561575353 0.561575353 0.561575353
0.585015357 0.585015357 0.585015357
0.614602506 0.614602506 0.614602506
0.648073018 0.648073018 0.648073018
0.678839684 0.678839684 0.678839684
0.706000566 0.706000566 0.706000566
0.733537912 0.733537912 0.733537912
0.760246575 0.760246575 0.760246575
0.782251537 0.782251537 0.782251537
0.800058424 0.800058424 0.800058424
0.817315519 0.817315519 0.817315519
0.839112997 0.839112997 0.839112997
0.864046097 0.864046097 0.864046097
0.557226658 0.557226658 0.557226658
0.572615325 0.572615325 0.572615325
0.590319753 0.590319753 0.590319753
0.610527158 0.610527158 0.610527158
0.634571850 0.634571850 0.634571850
0.664021552 0.664021552 0.664021552
0.697026253 0.697026253 0.697026253
0.728190780 0.728190780 0.728190780
0.756149888 0.756149888 0.756149888
0.783743262 0.783743262 0.783743262
0.809949040 0.809949040 0.809949040
0.831338346 0.831338346 0.831338346
0.848569512 0.848569512 0.848569512
0.864835143 0.864835143 0.864835143
0.883234024 0.883234024 0.883234024
0.902625859 0.902625859 0.902625859
0.605000019 0.605000019 0.605000019
0.620314598 0.620314598 0.620314598
0.638119817 0.638119817 0.638119817
0.658342600 0.658342600 0.658342600
0.682240903 0.682240903 0.682240903
0.711159170 0.711159170 0.711159170
0.743706465 0.743706465 0.743706465
0.775189698 0.775189698 0.775189698
0.803660035 0.803660035 0.803660035
0.831259966 0.831259966 0.831259966
0.857374191 0.857374191 0.857374191
0.879100204 0.879100204 0.879100204
0.896486461 0.896486461 0.896486461
0.912479997 0.912479997 0.912479997
0.929648578 0.929648578 0.929648578
0.947899997 0.947899997 0.947899997
0.026984733 0.026984733 0.026984733
0.039025161 0.039025161 0.039025161
0.048239786 0.048239786 0.048239786
0.056043658 0.056043658 0.056043658
0.063433766 0.063433766 0.063433766
0.071342796 0.071342796 0.071342796
0.080618300 0.080618300 0.080618300
0.092842378 0.092842378 0.092842378
0.108635701 0.108635701 0.108635701
0.127409026 0.127409026 0.127409026
0.148865148 0.148865148 0.148865148
0.173178703 0.173178703 0.173178703
0.199512064 0.199512064 0.199512064
0.226554886 0.226554886 0.226554886
0.253647059 0.253647059 0.253647059
0.275853962 0.275853962 0.275853962
0.066970110 0.066970110 0.066970110
0.079041950 0.079041950 0.079041950
0.088357426 0.088357426 0.088357426
0.095951177 0.095951177 0.095951177
0.103039138 0.103039138 0.103039138
0.110876553 0.110876553 0.110876553
0.121255495 0.121255495 0.121255495
0.135992497 0.135992497 0.135992497
0.154682368 0.154682368 0.154682368
0.175679982 0.175679982 0.175679982
0.198809892 0.198809892 0.198809892
0.224407524 0.224407524 0.224407524
0.251782179 0.251782179 0.251782179
0.279762655 0.279762655 0.279762655
0.307439357 0.307439357 0.307439357
0.329660654 0.329660654 0.329660654
0.099688172 0.099688172 0.099688172
0.111628823 0.111628823 0.111628823
0.121234201 0.121234201 0.121234201
0.129726678 0.129726678 0.129726678
0.137734860 0.137734860 0.137734860
0.146344945 0.146344945 0.146344945
0.157638520 0.157638520 0.157638520
0.174445182 0.174445182 0.174445182
0.197215274 0.197215274 0.197215274
0.223428607 0.223428607 0.223428607
0.250785798 0.250785798 0.250785798
0.278900057 0.278900057 0.278900057
0.308069289 0.308069289 0.308069289
0.337541372 0.337541372 0.337541372
0.366362810 0.366362810 0.366362810
0.388744771 0.388744771 0.388744771
0.120281935 0.120281935 0.120281935
0.132447109 0.132447109 0.132447109
0.145006895 0.145006895 0.145006895
0.157962382 0.157962382 0.157962382
0.169711843 0.169711843 0.169711843
0.181187779 0.181187779 0.181187779
0.194285199 0.194285199 0.194285199
0.211766928 0.211766928 0.211766928
0.236057222 0.236057222 0.236057222
0.266182601 0.266182601 0.266182601
0.298294425 0.298294425 0.298294425
0.330050558 0.330050558 0.330050558
0.361673176 0.361673176 0.361673176
0.393201143 0.393201143 0.393201143
0.423837870 0.423837870 0.423837870
0.447038323 0.447038323 0.447038323
0.135453984 0.135453984 0.135453984
0.148425817 0.148425817 0.148425817
0.163917437 0.163917437 0.163917437
0.182024315 0.182024315 0.182024315
0.199065387 0.199065387 0.199065387
0.214601293 0.214601293 0.214601293
0.231212720 0.231212720 0.231212720
0.251037002 0.251037002 0.251037002
0.276174456 0.276174456 0.276174456
0.307207555 0.307207555 0.307207555
0.341668814 0.341668814 0.341668814
0.376971424 0.376971424 0.376971424
0.411859632 0.411859632 0.411859632
0.445547819 0.445547819 0.445547819
0.477808207 0.477808207 0.477808207
0.502048194 0.502048194 0.502048194
0.160386026 0.160386026 0.160386026
0.173505813 0.173505813 0.173505813
0.188829258 0.188829258 0.188829258
0.208679363 0.208679363 0.208679363
0.229954213 0.229954213 0.229954213
0.249417216 0.249417216 0.249417216
0.268754423 0.268754423 0.268754423
0.291343898 0.291343898 0.291343898
0.318570107 0.318570107 0.318570107
0.350420415 0.350420415 0.350420415
0.385523885 0.385523885 0.385523885
0.422558933 0.422558933 0.422558933
0.459804177 0.459804177 0.459804177
0.494835109 0.494835109 0.494835109
0.526950955 0.526950955 0.526950955
0.551088154 0.551088154 0.551088154
0.196594015 0.196594015 0.196594015
0.209342822 0.209342822 0.209342822
0.223208636 0.223208636 0.223208636
0.242226064 0.242226064 0.242226064
0.266108871 0.266108871 0.266108871
0.289229721 0.289229721 0.289229721
0.310052335 0.310052335 0.310052335
0.332944989 0.332944989 0.332944989
0.361462206 0.361462206 0.361462206
0.395168871 0.395168871 0.395168871
0.431450158 0.431450158 0.431450158
0.468999624 0.468999624 0.468999624
0.507052124 0.507052124 0.507052124
0.542340338 0.542340338 0.542340338
0.572844088 0.572844088 0.572844088
0.595485032 0.595485032 0.595485032
0.236545607 0.236545607 0.236545607
0.249500036 0.249500036 0.249500036
0.263463676 0.263463676 0.263463676
0.281693608 0.281693608 0.281693608
0.306478739 0.306478739 0.306478739
0.332997471 0.332997471 0.332997471
0.356179208 0.356179208 0.356179208
0.378568172 0.378568172 0.378568172
0.405934900 0.405934900 0.405934900
0.439861745 0.439861745 0.439861745
0.477173567 0.477173567 0.477173567
0.515009046 0.515009046 0.515009046
0.552984953 0.552984953 0.552984953
0.588415325 0.588415325 0.588415325
0.617873728 0.617873728 0.617873728
0.639008343 0.639008343 0.639008343
0.279063433 0.279063433 0.279063433
0.292573571 0.292573571 0.292573571
0.307161748 0.307161748 0.307161748
0.324779570 0.324779570 0.324779570
0.348915696 0.348915696 0.348915696
0.377835900 0.377835900 0.377835900
0.404787093 0.404787093 0.404787093
0.428295910 0.428295910 0.428295910
0.453721255 0.453721255 0.453721255
0.485261500 0.485261500 0.485261500
0.521517575 0.521517575 0.521517575
0.558755934 0.558755934 0.558755934
0.596004307 0.596004307 0.596004307
0.631949067 0.631949067 0.631949067
0.662634015 0.662634015 0.662634015
0.684017837 0.684017837 0.684017837
0.324653536 0.324653536 0.324653536
0.338561118 0.338561118 0.338561118
0.353528172 0.353528172 0.353528172
0.370546877 0.370546877 0.370546877
0.393283010 0.393283010 0.393283010
0.423144281 0.423144281 0.423144281
0.453761727 0.453761727 0.453761727
0.479785413 0.479785413 0.479785413
0.504316330 0.504316330 0.504316330
0.532620490 0.532620490 0.532620490
0.565631986 0.565631986 0.565631986
0.600522995 0.600522995 0.600522995
0.635690331 0.635690331 0.635690331
0.671625257 0.671625257 0.671625257
0.705458879 0.705458879 0.705458879
0.729665160 0.729665160 0.729665160
0.371972263 0.371972263 0.371972263
0.386381269 0.386381269 0.386381269
0.401803434 0.401803434 0.401803434
0.418720633 0.418720633 0.418720633
0.440110326 0.440110326 0.440110326
0.469384938 0.469384938 0.469384938
0.502363622 0.502363622 0.502363622
0.531232893 0.531232893 0.531232893
0.556031406 0.556031406 0.556031406
0.582118690 0.582118690 0.582118690
0.611500382 0.611500382 0.611500382
0.642505109 0.642505109 0.642505109
0.673793733 0.673793733 0.673793733
0.707333863 0.707333863 0.707333863
0.743695498 0.743695498 0.743695498
0.772669852 0.772669852 0.772669852
0.419826895 0.419826895 0.419826895
0.434800893 0.434800893 0.434800893
0.451176971 0.451176971 0.451176971
0.468673766 0.468673766 0.468673766
0.489306927 0.489306927 0.489306927
0.517110109 0.517110109 0.517110109
0.550711870 0.550711870 0.550711870
0.581833780 0.581833780 0.581833780
0.607589960 0.607589960 0.607589960
0.632766187 0.632766187 0.632766187
0.660021305 0.660021305 0.660021305
0.687366009 0.687366009 0.687366009
0.713708460 0.713708460 0.713708460
0.741974473 0.741974473 0.741974473
0.776928425 0.776928425 0.776928425
0.809515536 0.809515536 0.809515536
0.467697293 0.467697293 0.467697293
0.483226746 0.483226746 0.483226746
0.500652730 0.500652730 0.500652730
0.519206524 0.519206524 0.519206524
0.539974034 0.539974034 0.539974034
0.566491008 0.566491008 0.566491008
0.599366069 0.599366069 0.599366069
0.631566346 0.631566346 0.631566346
0.658388317 0.658388317 0.658388317
0.683606744 0.683606744 0.683606744
0.710276902 0.710276902 0.710276902
0.735644639 0.735644639 0.735644639
0.757870138 0.757870138 0.757870138
0.780146778 0.780146778 0.780146778
0.809051633 0.809051633 0.809051633
0.840172887 0.840172887 0.840172887
0.515603304 0.515603304 0.515603304
0.531402886 0.531402886 0.531402886
0.549686790 0.549686790 0.549686790
0.569385469 0.569385469 0.569385469
0.590986133 0.590986133 0.590986133
0.616981149 0.616981149 0.616981149
0.648562253 0.648562253 0.648562253
0.680694282 0.680694282 0.680694282
0.708392620 0.708392620 0.708392620
0.734281600 0.734281600 0.734281600
0.761002839 0.761002839 0.761002839
0.785391033 0.785391033 0.785391033
0.805414021 0.805414021 0.805414021
0.823675573 0.823675573 0.823675573
0.845960557 0.845960557 0.845960557
0.871071458 0.871071458 0.871071458
0.563495874 0.563495874 0.563495874
0.579431355 0.579431355 0.579431355
0.598212063 0.598212063 0.598212063
0.618804097 0.618804097 0.618804097
0.641438127 0.641438127 0.641438127
0.667538941 0.667538941 0.667538941
0.697965622 0.697965622 0.697965622
0.729444742 0.729444742 0.729444742
0.757951856 0.757951856 0.757951856
0.784772873 0.784772873 0.784772873
0.811420262 0.811420262 0.811420262
0.835020423 0.835020423 0.835020423
0.853973627 0.853973627 0.853973627
0.870725691 0.870725691 0.870725691
0.889168680 0.889168680 0.889168680
0.908907294 0.908907294 0.908907294
0.611187994 0.611187994 0.611187994
0.627112448 0.627112448 0.627112448
0.645923197 0.645923197 0.645923197
0.666783631 0.666783631 0.666783631
0.689786315 0.689786315 0.689786315
0.715734601 0.715734601 0.715734601
0.745176136 0.745176136 0.745176136
0.776037216 0.776037216 0.776037216
0.805137873 0.805137873 0.805137873
0.832501054 0.832501054 0.832501054
0.859071434 0.859071434 0.859071434
0.882638514 0.882638514 0.882638514
0.901681781 0.901681781 0.901681781
0.918068230 0.918068230 0.918068230
0.935022116 0.935022116 0.935022116
0.953052640 0.953052640 0.953052640
0.023930967 0.023930967 0.023930967
0.038358498 0.038358498 0.038358498
0.052548390 0.052548390 0.052548390
0.064414203 0.064414203 0.064414203
0.074601293 0.074601293 0.074601293
0.085412696 0.085412696 0.085412696
0.096154854 0.096154854 0.096154854
0.106117859 0.106117859 0.106117859
0.118063867 0.118063867 0.118063867
0.134618059 0.134618059 0.134618059
0.155562356 0.155562356 0.155562356
0.179975495 0.179975495 0.179975495
0.206442192 0.206442192 0.206442192
0.233618334 0.233618334 0.233618334
0.261096776 0.261096776 0.261096776
0.283559978 0.283559978 0.283559978
0.064052694 0.064052694 0.064052694
0.078637421 0.078637421 0.078637421
0.093064308 0.093064308 0.093064308
0.105294205 0.105294205 0.105294205
0.115630977 0.115630977 0.115630977
0.126536563 0.126536563 0.126536563
0.138430536 0.138430536 0.138430536
0.150981292 0.150981292 0.150981292
0.165583223 0.165583223 0.165583223
0.183723658 0.183723658 0.183723658
0.205736786 0.205736786 0.205736786
0.231052712 0.231052712 0.231052712
0.258482844 0.258482844 0.258482844
0.286576629 0.286576629 0.286576629
0.314660639 0.314660639 0.314660639
0.337040663 0.337040663 0.337040663
0.099002160 0.099002160 0.099002160
0.113096356 0.113096356 0.113096356
0.127523869 0.127523869 0.127523869
0.140306681 0.140306681 0.140306681
0.151025385 0.151025385 0.151025385
0.161672056 0.161672056 0.161672056
0.174256161 0.174256161 0.174256161
0.190285400 0.190285400 0.190285400
0.210197002 0.210197002 0.210197002
0.233322591 0.233322591 0.233322591
0.258850753 0.258850753 0.258850753
0.286438465 0.286438465 0.286438465
0.315590173 0.315590173 0.315590173
0.345061988 0.345061988 0.345061988
0.373821080 0.373821080 0.373821080
0.396179795 0.396179795 0.396179795
0.126618952 0.126618952 0.126618952
0.139817655 0.139817655 0.139817655
0.154876128 0.154876128 0.154876128
0.170425832 0.170425832 0.170425832
0.183418512 0.183418512 0.183418512
0.194688633 0.194688633 0.194688633
0.207268432 0.207268432 0.207268432
0.224474654 0.224474654 0.224474654
0.247781098 0.247781098 0.247781098
0.276030600 0.276030600 0.276030600
0.307290971 0.307290971 0.307290971
0.339934856 0.339934856 0.339934856
0.372583300 0.372583300 0.372583300
0.404111296 0.404111296 0.404111296
0.433839798 0.433839798 0.433839798
0.456092060 0.456092060 0.456092060
0.147383228 0.147383228 0.147383228
0.160175070 0.160175070 0.160175070
0.175914228 0.175914228 0.175914228
0.194994211 0.194994211 0.194994211
0.212926671 0.212926671 0.212926671
0.227651194 0.227651194 0.227651194
0.242265821 0.242265821 0.242265821
0.260623664 0.260623664 0.260623664
0.284556359 0.284556359 0.284556359
0.314012259 0.314012259 0.314012259
0.348304510 0.348304510 0.348304510
0.386751831 0.386751831 0.386751831
0.426077724 0.426077724 0.426077724
0.462072968 0.462072968 0.462072968
0.493342370 0.493342370 0.493342370
0.515599966 0.515599966 0.515599966
0.172090337 0.172090337 0.172090337
0.184557870 0.184557870 0.184557870
0.198865831 0.198865831 0.198865831
0.218407333 0.218407333 0.218407333
0.240675718 0.240675718 0.240675718
0.260972947 0.260972947 0.260972947
0.279512912 0.279512912 0.279512912
0.300542176 0.300542176 0.300542176
0.325907737 0.325907737 0.325907737
0.354880869 0.354880869 0.354880869
0.387848377 0.387848377 0.387848377
0.427308589 0.427308589 0.427308589
0.472064137 0.472064137 0.472064137
0.514223099 0.514223099 0.514223099
0.548340380 0.548340380 0.548340380
0.571011007 0.571011007 0.571011007
0.206251651 0.206251651 0.206251651
0.218184128 0.218184128 0.218184128
0.230766907 0.230766907 0.230766907
0.248358101 0.248358101 0.248358101
0.271999598 0.271999598 0.271999598
0.296802193 0.296802193 0.296802193
0.319196194 0.319196194 0.319196194
0.342240065 0.342240065 0.342240065
0.369553357 0.369553357 0.369553357
0.400080919 0.400080919 0.400080919
0.432220280 0.432220280 0.432220280
0.468696833 0.468696833 0.468696833
0.512662888 0.512662888 0.512662888
0.557956636 0.557956636 0.557956636
0.595303178 0.595303178 0.595303178
0.619313359 0.619313359 0.619313359
0.245825201 0.245825201 0.245825201
0.257912278 0.257912278 0.257912278
0.270642847 0.270642847 0.270642847
0.287161976 0.287161976 0.287161976
0.309981972 0.309981972 0.309981972
0.337277889 0.337277889 0.337277889
0.363167971 0.363167971 0.363167971
0.387020648 0.387020648 0.387020648
0.413792491 0.413792491 0.413792491
0.445237875 0.445237875 0.445237875
0.478886694 0.478886694 0.478886694
0.513851404 0.513851404 0.513851404
0.553545475 0.553545475 0.553545475
0.596738636 0.596738636 0.596738636
0.635022104 0.635022104 0.635022104
0.660375714 0.660375714 0.660375714
0.288083017 0.288083017 0.288083017
0.300876975 0.300876975 0.300876975
0.314794868 0.314794868 0.314794868
0.331323862 0.331323862 0.331323862
0.352722555 0.352722555 0.352722555
0.380638719 0.380638719 0.380638719
0.410056800 0.410056800 0.410056800
0.435865372 0.435865372 0.435865372
0.460698277 0.460698277 0.460698277
0.489884287 0.489884287 0.489884287
0.523623645 0.523623645 0.523623645
0.559029043 0.559029043 0.559029043
0.596054912 0.596054912 0.596054912
0.635578811 0.635578811 0.635578811
0.672524929 0.672524929 0.672524929
0.698226273 0.698226273 0.698226273
0.333038718 0.333038718 0.333038718
0.346503258 0.346503258 0.346503258
0.361378491 0.361378491 0.361378491
0.378199339 0.378199339 0.378199339
0.398247987 0.398247987 0.398247987
0.425091177 0.425091177 0.425091177
