example_ofxGpuLutCube/bin/data/ofxGpuLutCube/LUT/Moonlight.cube
TITLE "16x16x16 Adobe/IRIDAS cube 3D LUT exported with GrossGrade v0.1.027.1 (beta) 64 bit"
DOMAIN_MIN 0 0 0
DOMAIN_MAX 1 1 1
LUT_3D_SIZE 16
0.000000000 0.000000000 0.000000000
0.012740001 0.000000000 0.000520001
0.030460004 0.000520001 0.010400002
0.057260007 0.004680001 0.028100003
0.090700008 0.006759999 0.035513338
0.120300002 0.007800002 0.047100000
0.141140014 0.021880008 0.047100000
0.163959995 0.033213332 0.052606668
0.184919998 0.039559998 0.063059993
0.203900009 0.050220005 0.071380004
0.224766657 0.052300002 0.071900003
0.248606667 0.053860001 0.082040004
0.270579994 0.064339995 0.092439994
0.291400015 0.073460005 0.104400016
0.316119939 0.078139998 0.113279983
0.345099986 0.086199999 0.121600002
0.000000000 0.013280001 0.012740001
0.012740001 0.012740002 0.012740000
0.031506673 0.017180001 0.021073334
0.067480005 0.016126666 0.032380000
0.093560003 0.014580002 0.037220001
0.121339999 0.022146670 0.044500001
0.143480003 0.035540007 0.047100000
0.160273328 0.041900001 0.048920002
0.181233332 0.048146669 0.057813328
0.205720022 0.056260001 0.072159998
0.228799999 0.064619996 0.083859995
0.246840000 0.064619996 0.089579999
0.269800007 0.072419994 0.099419996
0.291400015 0.078400001 0.108860001
0.316379935 0.082559995 0.113799989
0.337199986 0.090619996 0.122120000
0.000000000 0.039573338 0.028900001
0.008320001 0.039313335 0.029680002
0.030980004 0.032553338 0.028380001
0.061160009 0.042940002 0.034460001
0.093040004 0.037606671 0.040859997
0.119779997 0.048413340 0.042940006
0.140620023 0.055173337 0.048673335
0.160273328 0.058033336 0.051013336
0.181233332 0.061193332 0.061973330
0.203120008 0.066699997 0.076320007
0.225119978 0.072939999 0.086199991
0.246840000 0.076060005 0.095820002
0.269279987 0.079180002 0.098980002
0.291920006 0.086720005 0.109340020
0.319239974 0.090879992 0.117179990
0.337199986 0.098980002 0.129400000
0.000000000 0.072160006 0.041640002
0.001820001 0.068780012 0.041900001
0.028913336 0.070860006 0.051780000
0.060380004 0.071380004 0.040880010
0.090960003 0.074240007 0.054140002
0.114840001 0.072680004 0.056220010
0.137240022 0.075280011 0.059620008
0.158193335 0.080220006 0.064880006
0.180453330 0.081520006 0.072420001
0.206239998 0.083140008 0.082300007
0.226320013 0.084959999 0.090360001
0.244679987 0.088340007 0.096660003
0.268239975 0.093280002 0.105160005
0.294260025 0.100040011 0.116140015
0.316379964 0.101860009 0.120040007
0.337199986 0.108340003 0.131740019
0.000000000 0.100320004 0.058306672
0.005480004 0.100060008 0.057266671
0.032593336 0.096420005 0.060646676
0.066440001 0.092780001 0.061946675
0.088620007 0.095380001 0.065920010
0.109640002 0.095640004 0.072420001
0.130453348 0.098760001 0.077620000
0.158193335 0.099020004 0.081520006
0.179153323 0.101100005 0.084639996
0.198960006 0.101979993 0.089060009
0.224039972 0.106260002 0.096419998
0.247879997 0.108340003 0.104099996
0.270840019 0.112499997 0.110420004
0.294260025 0.117440000 0.117700011
0.315339983 0.121600002 0.129659981
0.339306653 0.122900009 0.141100004
0.006500003 0.122900009 0.082300007
0.019766668 0.122900009 0.081780009
0.038753334 0.120300002 0.079700008
0.063840002 0.120300002 0.083860010
0.088360004 0.117700003 0.087500006
0.112500004 0.116400003 0.082300007
0.133073330 0.117960006 0.091499999
0.151313335 0.122120008 0.093060002
0.177853316 0.123420008 0.101900004
0.197659999 0.120300002 0.103200004
0.220833302 0.124200009 0.107200004
0.247540012 0.128619999 0.114580005
0.270060003 0.132033318 0.120820008
0.292180032 0.135413334 0.127580002
0.313779980 0.139573336 0.135119990
0.345099986 0.145033330 0.145033330
0.019500000 0.141140014 0.094900005
0.028100001 0.140880004 0.102180012
0.037113339 0.140620008 0.095940009
0.066699997 0.141920015 0.097240008
0.083080009 0.142180011 0.104260013
0.110660002 0.142700016 0.104520015
0.134900019 0.138800010 0.105820015
0.153940007 0.141400009 0.109900013
0.174899995 0.146600008 0.112499997
0.196100011 0.142700016 0.115359999
0.220566645 0.144779995 0.122120000
0.247046664 0.148940012 0.130700007
0.272139996 0.152100012 0.131740019
0.295300007 0.156360015 0.142700016
0.319499969 0.160560012 0.147380009
0.346659988 0.167060003 0.156020001
0.014040000 0.163959995 0.113019995
0.026540002 0.162139997 0.113799997
0.041913334 0.160579994 0.110679999
0.063580006 0.166040003 0.114320002
0.081260003 0.163959995 0.115359999
0.103980005 0.166040003 0.121860005
0.129140019 0.166040003 0.122380011
0.156280011 0.163959995 0.123159997
0.177239984 0.164479986 0.129139990
0.197659999 0.167080000 0.130440012
0.223279983 0.168379992 0.135946661
0.244679987 0.170720011 0.143486664
0.267979980 0.174880013 0.147126660
0.296740025 0.179120004 0.154706687
0.323659986 0.183353350 0.161833331
0.345313340 0.185699999 0.168119997
0.003640002 0.186999992 0.131739989
0.029799996 0.187259987 0.130179986
0.040873338 0.186739996 0.131999999
0.064100005 0.186999992 0.129400000
0.085420012 0.188039988 0.133066654
0.103980005 0.189079985 0.139853328
0.127580017 0.189079985 0.136473328
0.152066678 0.189079985 0.143233329
0.179319993 0.189079985 0.139853314
0.203899994 0.191159979 0.151813328
0.222713307 0.194279969 0.153386652
0.251053333 0.194800004 0.158099994
0.270839989 0.200000003 0.164500013
0.295660049 0.202080011 0.169959992
0.323939979 0.206239998 0.174719989
0.345313340 0.210659981 0.184919998
0.016380005 0.212480009 0.151299998
0.032940000 0.214040011 0.152860001
0.037660003 0.213520020 0.152340010
0.068259999 0.210140005 0.150520012
0.087060004 0.211180001 0.149999991
0.109260008 0.214040011 0.158686668
0.133340016 0.214040011 0.159180000
0.155033335 0.214040011 0.154980004
0.177513331 0.218253314 0.166059986
0.206239998 0.218779996 0.165559992
0.230866641 0.220599994 0.176480010
0.251540005 0.223840013 0.181160003
0.272159994 0.224360019 0.180440009
0.300159991 0.230600014 0.187780008
0.328339964 0.231900007 0.194279999
0.353679985 0.239960000 0.203900009
0.029966665 0.241799980 0.171299979
0.031300001 0.239459991 0.171299979
0.033926670 0.241279989 0.171299979
0.061713349 0.238679990 0.169999987
0.086020008 0.239459977 0.169999987
0.112500004 0.241799980 0.173899978
0.135940015 0.241279960 0.177606657
0.161880001 0.241019979 0.180659980
0.182286650 0.241799995 0.179619968
0.202600002 0.246773317 0.191419989
0.231399983 0.244433314 0.186999977
0.256273329 0.252573311 0.197919995
0.276580006 0.253666639 0.204679966
0.304400027 0.257826656 0.208059996
0.334079951 0.261466622 0.216379970
0.354200006 0.264066637 0.219499990
0.028366666 0.265373319 0.188040003
0.042886667 0.269793332 0.196359992
0.045500007 0.268233329 0.193760008
0.067193337 0.267973334 0.193760008
0.089060009 0.270053357 0.194800004
0.109520011 0.268493354 0.196620002
0.137240022 0.270573318 0.195579991
0.160060003 0.269013345 0.199220002
0.186219975 0.271093339 0.204420000
0.213780001 0.275773317 0.209620014
0.233740002 0.275253356 0.211700007
0.262253314 0.276813328 0.215079993
0.281259984 0.277099997 0.218719989
0.309080034 0.286200017 0.229600012
0.332519948 0.290360004 0.237399995
0.361479998 0.296559989 0.240779996
0.052579999 0.295800000 0.207800016
0.051006667 0.297880024 0.216119990
0.061220001 0.302300006 0.212999985
0.076840006 0.299699992 0.216380015
0.095379993 0.299439996 0.217680007
0.112960003 0.297879994 0.217680007
0.141920000 0.300479978 0.219500005
0.166820005 0.301519990 0.221626669
0.192460001 0.301519990 0.227380008
0.214039996 0.302819967 0.231400013
0.245179966 0.307760000 0.240539998
0.266933352 0.307500005 0.240799993
0.292439997 0.314520001 0.248600006
0.322600007 0.317640036 0.252600014
0.341439962 0.319720000 0.261480004
0.371080011 0.327840000 0.265899986
0.052053321 0.332520038 0.242380038
0.049706668 0.329140007 0.239780024
0.075800024 0.330700010 0.237180009
0.079180010 0.333039999 0.242640018
0.101620004 0.333039999 0.240560025
0.120040014 0.332520038 0.242640033
0.149800017 0.333039999 0.247320011
0.175740018 0.336726665 0.251006693
0.198180005 0.338273346 0.251006693
0.221380010 0.338820010 0.253113329
0.251246661 0.343006700 0.264086694
0.281766683 0.341446698 0.264606684
0.306980014 0.347166717 0.270326734
0.328580052 0.348726690 0.278646708
0.357573330 0.352626681 0.286460042
0.386220008 0.360426724 0.294260025
0.072933301 0.366599947 0.272673309
0.074513301 0.366339952 0.272153288
0.101039968 0.366339952 0.268513292
0.104679957 0.367399961 0.269813269
0.116379984 0.370333314 0.272413313
0.136939973 0.368999988 0.269813299
0.153480023 0.369759947 0.271893322
0.181533352 0.372153282 0.280213296
0.208579987 0.372939974 0.282819957
0.234239981 0.374233305 0.286193281
0.258073300 0.377099931 0.290619940
0.292400002 0.381259948 0.295299977
0.316899955 0.381779969 0.299179971
0.344826698 0.385679960 0.307019979
0.373713255 0.393219978 0.311699957
0.406499952 0.404919952 0.330939949
0.086199999 0.400000006 0.297899991
0.087520003 0.403899997 0.297899991
0.106519997 0.403899997 0.298459977
0.113020003 0.403899997 0.302100003
0.131766662 0.404939979 0.303139985
0.154200003 0.406499982 0.303299993
0.177200019 0.405460000 0.301140010
0.201559991 0.407799989 0.305999994
0.218199998 0.407799989 0.312240005
0.243860006 0.410140008 0.317699999
0.275766641 0.416900009 0.320299983
0.300720006 0.419499993 0.330179989
0.327840000 0.425740033 0.336420000
0.353666663 0.430766702 0.337199986
0.382559985 0.435126662 0.351853311
0.415600002 0.443199992 0.352899998
0.000000000 0.000000000 0.021860002
0.001300001 0.000000000 0.029666668
0.033666667 0.000000000 0.034713339
0.060120009 0.000520001 0.050486669
0.090180010 0.004940001 0.059086673
0.120040007 0.010660002 0.067220002
0.139320001 0.021613341 0.072420001
0.157920003 0.035293333 0.076080009
0.179413334 0.041900001 0.082319997
0.200000003 0.047620002 0.086479999
0.223466635 0.053866666 0.090899989
0.245486647 0.055166669 0.100199997
0.272140026 0.064339995 0.112240002
0.291660011 0.076840013 0.118220009
0.312479973 0.078400001 0.126286656
0.341100007 0.086199999 0.134346664
0.000000000 0.017180001 0.034440007
0.000780001 0.013280002 0.042426672
0.022913337 0.016920000 0.051013339
0.062800005 0.017440002 0.062280003
0.089140005 0.020040002 0.068780005
0.117180005 0.022146670 0.069819994
0.140619993 0.035280008 0.074000008
0.158633322 0.043986667 0.078420006
0.177239984 0.049966663 0.082580000
0.202079996 0.053866673 0.090899996
0.224500000 0.063286647 0.100699991
0.245486647 0.067219995 0.106260009
0.266939968 0.073459990 0.113539994
0.291140020 0.078399993 0.118740007
0.315859944 0.082559995 0.126286656
0.336939991 0.094260000 0.141626671
0.000000000 0.039573338 0.054653335
0.000000000 0.039833337 0.051533338
0.027080003 0.035760004 0.051533341
0.056740005 0.036293339 0.059340004
0.088600002 0.040613335 0.063320003
0.115100004 0.048153341 0.072180003
0.136186689 0.055173341 0.079980001
0.157646671 0.057773337 0.082320005
0.179153323 0.062493332 0.091420002
0.200259984 0.069040000 0.098180003
0.222673297 0.070859998 0.104599990
0.245746672 0.075540006 0.105480000
0.269279987 0.079439998 0.115360007
0.294520020 0.083860010 0.120566674
0.312999964 0.090619989 0.133306637
0.340320021 0.103139997 0.139286652
0.000000000 0.071640000 0.067500010
0.000520001 0.072160006 0.070620000
0.023960007 0.074760012 0.071140006
0.056480005 0.068260007 0.071400009
0.087300003 0.072160006 0.080500007
0.111720011 0.072680004 0.076080009
0.129933372 0.075280011 0.080500014
0.151286677 0.077620007 0.088820010
0.177239984 0.082580008 0.092980005
0.201820016 0.084140003 0.095359996
0.222633362 0.086260006 0.101739995
0.247020006 0.090940014 0.109639995
0.268239975 0.093539998 0.118486673
0.293480039 0.099520005 0.132266685
0.316119969 0.101080008 0.137986660
0.334600002 0.108599998 0.143460006
0.000000000 0.096680000 0.082320005
0.002860003 0.100060008 0.080500007
0.031000003 0.099280000 0.086740002
0.060386676 0.095380001 0.086740002
0.083600007 0.095640004 0.086740002
0.108080000 0.099280000 0.089660004
0.131753355 0.099020004 0.095120005
0.153720006 0.100060008 0.096680000
0.174379990 0.100579992 0.101620004
0.199999988 0.103180006 0.104060009
0.223699987 0.105119996 0.108339995
0.246526659 0.109379999 0.113280006
0.270319998 0.110679999 0.122646675
0.291660011 0.115360014 0.133826673
0.316119939 0.119520001 0.140866682
0.339540035 0.122900009 0.150313348
0.000000000 0.121339999 0.094880007
0.009360000 0.123940006 0.099560000
0.033926666 0.122380003 0.098519996
0.061226673 0.116920002 0.098779999
0.086780004 0.117180005 0.099560000
0.106580004 0.117700003 0.099560000
0.127606675 0.121339999 0.110420004
0.151313335 0.122120008 0.111200005
0.177073330 0.123420008 0.110679999
0.196360022 0.122640006 0.113540001
0.219499975 0.124460004 0.117706664
0.244159997 0.127060011 0.125246674
0.268760026 0.129433334 0.132786661
0.291400015 0.136973351 0.139833346
0.316119939 0.142173335 0.151606664
0.336966664 0.145033330 0.154740006
0.001300002 0.143480003 0.113279998
0.011179998 0.143740013 0.114060007
0.034499999 0.138800010 0.108340010
0.057000007 0.141140014 0.111460008
0.080480017 0.139840007 0.110680006
0.107279994 0.142440006 0.116659999
0.133073360 0.141140014 0.114580005
0.155046672 0.145040020 0.123686671
0.173079982 0.146600008 0.128626689
0.195840001 0.145040020 0.127066687
0.218199998 0.146339998 0.129666686
0.245979995 0.149733350 0.137206659
0.270319998 0.152100012 0.144793361
0.292439997 0.154993355 0.149006680
0.316379935 0.160560012 0.160199985
0.343499988 0.167060003 0.167286664
0.002340000 0.163959995 0.125499994
0.010660000 0.162400007 0.123939998
0.039299998 0.162400007 0.122386664
0.053880006 0.162919998 0.126026660
0.078660004 0.163180009 0.123166665
0.103460006 0.165520012 0.129926667
0.127060011 0.166040003 0.131746665
0.153939977 0.163959995 0.133566663
0.177073330 0.164740011 0.136166677
0.195840001 0.167600006 0.142966673
0.220319986 0.168640003 0.145566672
0.241819993 0.172800004 0.150006682
0.269800007 0.175659999 0.155500010
0.293500006 0.175920010 0.159160003
0.318199962 0.181259990 0.168639988
0.344260007 0.185960010 0.177066669
0.000000000 0.187519982 0.140633330
0.015860001 0.187259987 0.140633330
0.038960006 0.186999977 0.140373319
0.056220014 0.186479986 0.141933322
0.081260003 0.187260002 0.141946673
0.101900011 0.186479986 0.141413346
0.126546666 0.189339995 0.146373317
0.151806667 0.189339995 0.146886662
0.178799987 0.190899983 0.152353331
0.200260013 0.187779993 0.152879998
0.221899986 0.191939980 0.161333337
0.248653322 0.195579976 0.170739979
0.271100014 0.200000003 0.172820002
0.293220013 0.201040000 0.174119994
0.323139995 0.206499994 0.181519970
0.348740011 0.210659981 0.193499997
0.002080001 0.212480009 0.159526661
0.019760000 0.214040011 0.161086679
0.029460004 0.211700007 0.159173340
0.055700008 0.212219998 0.160800010
0.084180005 0.212480009 0.158680022
0.107960008 0.212480009 0.162413359
0.131513357 0.215339988 0.166859999
0.150779977 0.216380015 0.169459999
0.173340008 0.216380015 0.167899996
0.203639999 0.218206674 0.173620000
0.229566664 0.218773350 0.178053334
0.249140009 0.223320007 0.183073312
0.276579976 0.225140020 0.190640002
0.300159991 0.228000000 0.192460015
0.327299953 0.233200014 0.198179990
0.349260002 0.235799998 0.208060011
0.004160000 0.241799980 0.179946661
0.034759983 0.239459991 0.179686651
0.038946655 0.238159969 0.178319991
0.064586662 0.240499973 0.182546660
0.082300007 0.241019994 0.179359987
0.106420003 0.240499988 0.179946661
0.135160029 0.240499988 0.183880001
0.158759996 0.242579997 0.188559964
0.180139974 0.243359983 0.188559994
0.199999988 0.245439976 0.192199975
0.229839981 0.245699987 0.198960006
0.258086652 0.250233293 0.202339992
0.274220020 0.253666639 0.203379989
0.302580029 0.257046670 0.213266686
0.330439955 0.261206627 0.219779983
0.354200006 0.263546616 0.225039989
0.014040001 0.265633315 0.194019988
0.024779996 0.267193347 0.194020003
0.048673332 0.267453343 0.196620002
0.072420008 0.270573348 0.200259998
0.087560013 0.269273311 0.201559991
0.107480004 0.270053357 0.201040000
0.134640008 0.270833343 0.204420015
0.160060003 0.271873325 0.209100008
0.186999977 0.271873325 0.211960003
0.213780031 0.273433328 0.212219998
0.233479992 0.277593315 0.222439989
0.261993349 0.283053339 0.222640008
0.286979973 0.281780034 0.225826681
0.308040053 0.286200017 0.235580027
0.331219971 0.290360004 0.239220008
0.364993364 0.297340006 0.251540005
0.033499997 0.296320021 0.218740001
0.034540001 0.296839982 0.218999997
0.050493333 0.299699992 0.222373337
0.083600000 0.299959987 0.225559980
0.091220006 0.296839982 0.221860006
0.112240009 0.298920006 0.220819995
0.142180026 0.302039981 0.227420017
0.169159994 0.303599983 0.232740015
0.188559994 0.302559972 0.234040007
0.213520005 0.302819967 0.234559998
0.242579967 0.304379970 0.238459989
0.266673356 0.310880005 0.247066647
0.289319992 0.313219965 0.250166655
0.320520043 0.315819979 0.257813364
0.341439962 0.319720000 0.262259990
0.371899992 0.328099996 0.275020003
0.044740006 0.329140007 0.241606683
0.062786698 0.326020032 0.241080046
0.068506695 0.330180019 0.245506674
0.079700001 0.333039999 0.246033356
0.098499998 0.331480026 0.246540010
0.121340021 0.330440015 0.243940040
0.150566697 0.333039999 0.253080040
0.172100008 0.333560020 0.256286681
0.194539994 0.337773353 0.259146661
0.225140020 0.338013381 0.262266695
0.252320021 0.339606673 0.263826698
0.280986696 0.343266696 0.270066679
0.303859979 0.347946703 0.278126717
0.327800065 0.351326704 0.279426664
0.363713324 0.355746686 0.290900052
0.382840037 0.360166699 0.298940033
0.059653308 0.362786651 0.276053280
0.074753314 0.369546622 0.276053280
0.079959989 0.369539946 0.276573300
0.099259980 0.366599947 0.276833326
0.117419980 0.366599947 0.277873278
0.136973307 0.366606623 0.278133243
0.157686666 0.369759947 0.276833326
0.183873326 0.373713285 0.282819957
0.205979973 0.373973280 0.286979973
0.231639996 0.374759942 0.288800001
0.263026655 0.376833290 0.296539992
0.290100008 0.378399938 0.300259978
0.316080004 0.384639978 0.301039964
0.343780011 0.389319956 0.317679971
0.370333284 0.393739939 0.319499999
0.401819974 0.404399931 0.328099996
0.086980000 0.403899997 0.298439980
0.109640002 0.404159993 0.302619994
0.105999999 0.400260001 0.298700005
0.111460008 0.401300013 0.299779981
0.133839995 0.407799989 0.306779981
0.153433338 0.406499982 0.306520015
0.168880016 0.405200005 0.308080018
0.192979991 0.407799989 0.310159981
0.220866650 0.409619987 0.315880001
0.249413341 0.415859967 0.323680013
0.278399974 0.419759989 0.328620017
0.303319991 0.422360003 0.334859997
0.326020002 0.426520020 0.340846688
0.353406698 0.430766702 0.345086694
0.382299989 0.434853315 0.352640003
0.422879994 0.443459988 0.361233324
0.000000000 0.000000000 0.059073340
0.000780001 0.000000000 0.067480005
0.020540001 0.000520001 0.068040006
0.049200017 0.000000000 0.072980002
0.085760005 0.002600002 0.088059999
0.113800004 0.011700002 0.098459996
0.135146677 0.023700004 0.102100007
0.153160006 0.034720004 0.104800001
0.177759990 0.046839997 0.111719996
0.201040015 0.050233334 0.115879998
0.222413301 0.054966658 0.121599995
0.242886662 0.059420001 0.125253335
0.263819963 0.065139994 0.128373340
0.286460012 0.076840013 0.135913342
0.311699927 0.078919999 0.147459999
0.340060025 0.086199999 0.151626676
0.000000000 0.016919998 0.075300008
0.000000000 0.014060002 0.075840011
0.017966671 0.013800001 0.072980009
0.049460012 0.017180001 0.087540001
0.087300003 0.017960003 0.097939998
0.110420011 0.022140004 0.100020006
0.136193365 0.034700014 0.104520001
0.154200017 0.046066672 0.109640002
0.174379990 0.051786665 0.111719996
0.198960021 0.055686671 0.115099989
0.222939968 0.063026659 0.124213323
0.244966656 0.069819994 0.128893316
0.266419977 0.077099994 0.132013336
0.287500024 0.079179995 0.142153352
0.312219948 0.082819991 0.144506678
0.333559990 0.090640001 0.152680010
0.000000000 0.042433333 0.083120003
0.000000000 0.040093340 0.080780014
0.014860003 0.040093340 0.091440007
0.038120013 0.039053336 0.098200001
0.077400006 0.041133340 0.099240005
0.108859994 0.045813341 0.102100000
0.131766692 0.054653335 0.104260005
0.154526666 0.058066670 0.109380007
0.178633332 0.064879999 0.115619995
0.199480012 0.065919995 0.120313339
0.219760016 0.072159991 0.124473333
0.241820008 0.077100001 0.128113329
0.267980009 0.082300000 0.135393336
0.293740034 0.087240003 0.144273341
0.312219948 0.090879992 0.147980019
0.333819985 0.098460004 0.151626676
0.000000000 0.072160006 0.099260002
0.000000000 0.072160006 0.098999999
0.004693339 0.075280011 0.099259995
0.054920010 0.071380004 0.098999999
0.079440013 0.071640007 0.100040004
0.104240000 0.072160006 0.104240008
0.125500008 0.074500009 0.112500004
0.150766686 0.080740012 0.118740000
0.176199988 0.079460010 0.120573342
0.198180005 0.084140003 0.125773340
0.218460009 0.087560013 0.133053333
0.240260005 0.090940006 0.134093344
0.265639991 0.096400000 0.135140002
0.289840043 0.100040011 0.145866692
0.312479973 0.101600006 0.149820015
0.336679995 0.115359999 0.167500004
0.000000000 0.099800006 0.107819997
0.000520001 0.100320004 0.111199997
0.012493337 0.098760001 0.111980006
0.048680015 0.095899999 0.108339995
0.082560003 0.096420005 0.111720011
0.101640001 0.099280000 0.114320002
0.127840012 0.098760001 0.112240009
0.149726659 0.100579999 0.118753329
0.173339993 0.104300000 0.122913338
0.197139993 0.106260002 0.125773326
0.218459979 0.106780007 0.130973354
0.241300002 0.108340003 0.139840007
0.267980009 0.113020003 0.146640003
0.290879995 0.117959999 0.153200015
0.312999964 0.119000003 0.157360017
0.337200016 0.125760004 0.165446669
0.000000000 0.122900009 0.119000003
0.002340001 0.122900009 0.118220001
0.019760000 0.120820001 0.112773336
0.048160005 0.117959991 0.119780004
0.082040004 0.116920002 0.119793341
0.103460006 0.120300002 0.121093333
0.125760019 0.120039999 0.120573342
0.144526690 0.119520001 0.126293331
0.171000004 0.122380003 0.135913342
0.195840016 0.124200009 0.136433348
0.217679992 0.126800001 0.140613362
0.243120015 0.130193338 0.145073339
0.265379995 0.133853346 0.152140006
0.292960018 0.135933340 0.156580001
0.315859973 0.139573336 0.164939985
0.340060025 0.145033330 0.173153341
0.000000000 0.141660005 0.125773340
0.009619998 0.141660005 0.125773355
0.018720005 0.142700016 0.124213345
0.050760005 0.143999994 0.132013351
0.076320007 0.139840007 0.133313343
0.105020002 0.139060006 0.129673347
0.126020029 0.141140014 0.135653347
0.145046666 0.142960027 0.135680005
0.171780005 0.146080017 0.140880018
0.195319995 0.145560011 0.146380007
0.219760001 0.146599993 0.148486689
0.243639991 0.151593357 0.154500008
0.266679972 0.152646676 0.161833346
0.289320022 0.155813351 0.166020006
0.317159951 0.160560012 0.174966663
0.341100007 0.167579994 0.178940013
0.001300000 0.163959995 0.133833349
0.005460000 0.162659988 0.137473330
0.015859999 0.166040003 0.140073329
0.047120009 0.163440004 0.141146675
0.072680004 0.163440004 0.144786671
0.099820003 0.166040003 0.146113336
0.127580017 0.163440004 0.144553334
0.150246665 0.163959995 0.147166669
0.172559991 0.166819990 0.152680010
0.192200005 0.168640003 0.156580016
0.217679992 0.168379992 0.157620013
0.242859989 0.172333360 0.166300029
0.267979980 0.176479995 0.173646674
0.291500032 0.179639995 0.180226669
0.318459958 0.181533352 0.185179994
0.341100007 0.187519997 0.192720011
0.001820001 0.190639988 0.153673321
0.003379999 0.187259987 0.153673321
0.011179996 0.188559994 0.153673321
0.043986674 0.187519982 0.153719991
0.069559999 0.188039988 0.159466669
0.097740002 0.189599976 0.159219995
0.128126681 0.190639988 0.162900016
0.150773332 0.191159979 0.164726660
0.172820002 0.189079985 0.165539995
0.199480012 0.191159979 0.166579992
0.217679992 0.193239987 0.173859999
0.243900001 0.194279999 0.180419996
0.270060033 0.200000003 0.184660003
0.294620007 0.204679981 0.192199990
0.318739951 0.206759989 0.198440000
0.343233347 0.212999970 0.208320007
0.000000000 0.215599999 0.170499995
0.001559999 0.214040011 0.170499995
0.016640002 0.213520020 0.169980004
0.046340004 0.210140005 0.169200018
0.072939999 0.210660011 0.172319993
0.099559993 0.214040011 0.177599996
