example_ofxGpuLutCube/bin/data/ofxGpuLutCube/LUT/Moonlight.cube
TITLE "16x16x16 Adobe/IRIDAS cube 3D LUT exported with GrossGrade v0.1.027.1 (beta) 64 bit"
DOMAIN_MIN 0 0 0
DOMAIN_MAX 1 1 1
LUT_3D_SIZE 6
0.000000000 0.000000000 0.000000000
0.057260007 0.004680001 0.028100003
0.141140014 0.021880008 0.047100000
0.203900009 0.050220005 0.071380004
0.270579994 0.064339995 0.092439994
0.345099986 0.086199999 0.121600002
0.000000000 0.072160006 0.041640002
0.060380004 0.071380004 0.040880010
0.137240022 0.075280011 0.059620008
0.206239998 0.083140008 0.082300007
0.268239975 0.093280002 0.105160005
0.337199986 0.108340003 0.131740019
0.019500000 0.141140014 0.094900005
0.066699997 0.141920015 0.097240008
0.134900019 0.138800010 0.105820015
0.196100011 0.142700016 0.115359999
0.272139996 0.152100012 0.131740019
0.346659988 0.167060003 0.156020001
0.016380005 0.212480009 0.151299998
0.068259999 0.210140005 0.150520012
0.133340016 0.214040011 0.159180000
0.206239998 0.218779996 0.165559992
0.272159994 0.224360019 0.180440009
0.353679985 0.239960000 0.203900009
0.052579999 0.295800000 0.207800016
0.076840006 0.299699992 0.216380015
0.141920000 0.300479978 0.219500005
0.214039996 0.302819967 0.231400013
0.292439997 0.314520001 0.248600006
0.371080011 0.327840000 0.265899986
0.086199999 0.400000006 0.297899991
0.113020003 0.403899997 0.302100003
0.177200019 0.405460000 0.301140010
0.243860006 0.410140008 0.317699999
0.327840000 0.425740033 0.336420000
0.415600002 0.443199992 0.352899998
0.000000000 0.000000000 0.092500009
0.035180010 0.004680001 0.109120004
0.133300006 0.026640011 0.127860010
0.194539994 0.053380005 0.144240007
0.267460018 0.066699997 0.158420026
0.333299994 0.086980000 0.174960002
0.000000000 0.068260007 0.120060004
0.038520005 0.074500009 0.131760001
0.122380018 0.076060012 0.138000011
0.193760008 0.085420005 0.151360005
0.261999995 0.097960003 0.164659992
0.335639983 0.106000006 0.174960017
0.000000000 0.141920015 0.150560006
0.028920002 0.145040020 0.152960002
0.117700011 0.141140014 0.154520020
0.192199990 0.147380009 0.167840019
0.264339983 0.153720021 0.182060018
0.334859997 0.167840004 0.203140005
0.000000000 0.214040011 0.189080015
0.015620005 0.210920006 0.188300014
0.116920024 0.216380000 0.197660014
0.196100011 0.217180014 0.203900009
0.268240005 0.225140020 0.214100018
0.345099986 0.239960000 0.236840010
0.004679999 0.297359973 0.242380008
0.026639998 0.302040011 0.245499998
0.127860010 0.301259995 0.250200003
0.211699978 0.303599983 0.257300019
0.286199987 0.314520001 0.273699999
0.362260044 0.327059984 0.294059992
0.052579988 0.407020003 0.323159993
0.108339995 0.405460000 0.325499982
0.167060003 0.404680014 0.328620017
0.241520002 0.414039999 0.339540005
0.325499982 0.424980015 0.353680015
0.414820015 0.443199992 0.382839978
0.000000000 0.007800000 0.191420019
0.010140004 0.010920005 0.202340022
0.104260013 0.037620008 0.216500014
0.176479995 0.056500003 0.225860015
0.250219971 0.075280011 0.236780003
0.322380006 0.093999997 0.258060038
0.000000000 0.075280011 0.218000025
0.000000000 0.076840013 0.217240006
0.096460007 0.082300007 0.218060017
0.173359990 0.089380004 0.228980005
0.247099996 0.098740011 0.244800016
0.322380006 0.116920002 0.263520002
0.000000000 0.145040005 0.226640016
0.000000000 0.142700016 0.225080043
0.084640011 0.145040020 0.236000016
0.165560007 0.147380009 0.249480024
0.246259987 0.154540017 0.258840024
0.323940009 0.166280016 0.278520048
0.000000000 0.215600014 0.261180013
0.000000000 0.214819998 0.260399997
0.072140016 0.215600014 0.266640007
0.174140006 0.219600007 0.274460018
0.251819998 0.228260010 0.285540044
0.334079981 0.237620011 0.303540021
0.000000000 0.302819997 0.310620040
0.000000000 0.300479978 0.308279991
0.075280018 0.301259995 0.311399996
0.182840005 0.306719989 0.322320014
0.276040018 0.312959999 0.332560033
0.353680015 0.330959976 0.354559988
0.000000000 0.407799989 0.377380013
0.027479984 0.410140008 0.380500019
0.124720007 0.409359992 0.382840008
0.220339999 0.418720007 0.396100014
0.307499975 0.428140014 0.409360021
0.396880001 0.443199992 0.435220033
0.000000000 0.017940000 0.287939996
0.000000000 0.029740002 0.294959992
0.043920018 0.051000003 0.299640000
0.155200005 0.063579999 0.306660026
0.234559998 0.076840006 0.315300047
0.305220008 0.100420006 0.339600027
0.000000000 0.080020010 0.301200002
0.000000000 0.084700003 0.304320008
0.024280008 0.087040007 0.306659997
0.144280016 0.095619999 0.315239996
0.228200018 0.106720001 0.325500011
0.306779981 0.120040007 0.344280005
0.000000000 0.148940012 0.320040017
0.000000000 0.145820022 0.314460009
0.001560003 0.148940012 0.319260031
0.132540002 0.151300013 0.325540006
0.228200004 0.160040021 0.340380013
0.310680002 0.174160004 0.360820025
0.000000000 0.216380000 0.337260008
0.000000000 0.217160001 0.340379983
0.000000000 0.219540000 0.343499988
0.137260005 0.224360004 0.355379999
0.228200004 0.229819998 0.367900014
0.314579964 0.247860000 0.394500017
0.000000000 0.303599983 0.383540004
0.000000000 0.303599983 0.384339958
0.000000005 0.305940002 0.389800042
0.146620005 0.311399996 0.396880031
0.248619989 0.320760012 0.413320005
0.334859997 0.334080011 0.427480012
0.000000000 0.409359992 0.449500024
0.000000000 0.408579975 0.452620029
0.037680022 0.415600002 0.456519991
0.170240015 0.420280010 0.463540018
0.288600028 0.432119995 0.486200005
0.382059991 0.445540011 0.505100012
0.000000000 0.052560002 0.383560002
0.000000000 0.054900002 0.382779986
0.000000000 0.063579999 0.385899991
0.101199999 0.076060012 0.396080017
0.201559991 0.092440009 0.410919994
0.283859968 0.105219997 0.425040036
0.000000000 0.088600002 0.387499988
0.000000000 0.090940006 0.387459964
0.000000000 0.095619999 0.392980009
0.086299993 0.104380004 0.399219990
0.196879998 0.113020003 0.414040059
0.282299995 0.130960032 0.429879993
0.000000000 0.153660014 0.404680014
0.000000000 0.151300013 0.400779992
0.000000000 0.152900010 0.407019973
0.059600007 0.161600009 0.415600002
0.192979991 0.164720014 0.424300045
0.287759990 0.176540017 0.440019995
0.000000000 0.218720019 0.427500039
0.000000000 0.221900001 0.429820001
0.000000000 0.222760022 0.432960033
0.047880009 0.229820013 0.439240009
0.196879983 0.235279992 0.454120010
0.295619994 0.248679996 0.469019979
0.000000000 0.306720018 0.463499993
0.000000000 0.307500005 0.461939991
0.000000000 0.308280021 0.468240023
0.063480005 0.316080004 0.478380024
0.214039996 0.325440019 0.498899966
0.309899986 0.338060021 0.523880005
0.000000000 0.414820015 0.534860015
0.000000000 0.414040029 0.534080029
0.000000000 0.416380018 0.537240028
0.123879999 0.424180031 0.549759984
0.243939966 0.435400009 0.562399983
0.356799990 0.447880000 0.580439985
0.000000000 0.066699997 0.470600009
0.000000000 0.074500002 0.470600009
0.000000000 0.078400001 0.473720014
0.000000000 0.086980000 0.480740011
0.155220002 0.101259999 0.497120023
0.254900008 0.121600002 0.509899974
0.000000000 0.100300007 0.475279987
0.000000000 0.098740004 0.472160012
0.000000000 0.106000006 0.482300013
0.000000000 0.111460000 0.485420018
0.153659999 0.122380003 0.505160034
0.262020022 0.138779998 0.510679960
0.000000000 0.158480018 0.490880013
0.000000000 0.160019994 0.490100026
0.000000000 0.156880021 0.493220001
0.000000000 0.163160011 0.499579996
0.136399999 0.172520012 0.513020098
0.256500006 0.185960010 0.529399991
0.000000000 0.225920007 0.512239993
0.000000000 0.225920007 0.513020039
0.000000000 0.231380001 0.523159981
0.000000000 0.236060008 0.526279986
0.133320004 0.247060001 0.545060039
0.261979997 0.254960030 0.559140027
0.000000000 0.311399996 0.553660035
0.000000000 0.309060007 0.554460049
0.000000000 0.315299988 0.560699999
0.000000000 0.319979995 0.570299983
0.149860010 0.330960006 0.584380090
0.283079982 0.343520015 0.607800007
0.000000000 0.415600002 0.611699998
0.000000000 0.415600002 0.612479985
0.000000000 0.423400015 0.621840000
0.035340011 0.429699987 0.632939994
0.184340000 0.439300001 0.646319985
0.329400003 0.458900005 0.678399980
