example_ofxGpuLutCube/bin/data/ofxGpuLutCube/LUT/Nashville.cube
TITLE "16x16x16 Adobe/IRIDAS cube 3D LUT exported with GrossGrade v0.1.027.1 (beta) 64 bit"
DOMAIN_MIN 0 0 0
DOMAIN_MAX 1 1 1
LUT_3D_SIZE 16
0.015699999 0.105899997 0.392199993
0.085013345 0.110060006 0.392459989
0.160033345 0.109279998 0.395046681
0.234480038 0.112920001 0.392980009
0.328340024 0.104080006 0.395060003
0.431366682 0.108499996 0.396100014
0.548240066 0.105899997 0.396100014
0.630093396 0.107720003 0.394019991
0.708766639 0.105899997 0.392199993
0.773340046 0.105899997 0.392199993
0.831366658 0.107200004 0.396100014
0.873173356 0.104860000 0.395060003
0.910560012 0.106679998 0.396100014
0.943006694 0.106419988 0.392719984
0.971720040 0.112919971 0.399479985
0.964699984 0.105899997 0.392199993
0.016220002 0.170693338 0.388726681
0.084746674 0.170433328 0.388466686
0.160553351 0.170693338 0.391933322
0.233960032 0.170173332 0.389260024
0.329380035 0.168873355 0.392459989
0.421940029 0.173033327 0.388726681
0.540086746 0.174333334 0.392459989
0.627960026 0.170693338 0.390066683
0.705079973 0.174073339 0.392199993
0.773866713 0.171993330 0.393759996
0.827986598 0.173033327 0.394800007
0.870573342 0.170693338 0.392459989
0.910820007 0.170693338 0.392459989
0.946386695 0.173813343 0.396100014
0.968339980 0.170433342 0.392193317
0.972500026 0.170433328 0.392199993
0.015699999 0.240526691 0.388733357
0.081546679 0.240786687 0.388993353
0.160553351 0.237146690 0.388733357
0.234480038 0.243646681 0.390300006
0.328340024 0.237666696 0.395046681
0.426946700 0.236366689 0.390053332
0.543780088 0.233246684 0.387693346
0.627179980 0.238446683 0.389253348
0.704813302 0.236626685 0.388733357
0.778080046 0.240526691 0.389253348
0.831366658 0.241046682 0.389253348
0.870313346 0.237146676 0.388733357
0.911080003 0.240526691 0.391400009
0.939626694 0.240526691 0.389253348
0.968599975 0.241046682 0.392719984
0.968599975 0.236626685 0.388733357
0.018819997 0.321540028 0.391399980
0.084746674 0.322340012 0.392199993
0.160813347 0.322340012 0.392460018
0.233700037 0.323880017 0.392199993
0.325220048 0.313500047 0.389000028
0.425060034 0.322060019 0.392719984
0.541980088 0.323880047 0.393739998
0.629313409 0.322340012 0.394280016
0.705613315 0.321540028 0.396100014
0.775680006 0.319200039 0.391399980
0.828246593 0.324160039 0.394800007
0.869273305 0.324420035 0.392199993
0.909780025 0.318420023 0.391399980
0.943006694 0.318940014 0.392719984
0.968599975 0.321819991 0.395573318
0.968599975 0.321540028 0.392199993
0.019600000 0.402840048 0.393240005
0.085013345 0.402580053 0.389526665
0.162893340 0.395560026 0.392720014
0.236900046 0.398940027 0.390046686
0.329380035 0.396860003 0.391133338
0.422460020 0.402326703 0.390833348
0.542220056 0.396340013 0.387680024
0.627960026 0.403380036 0.392199993
0.708766639 0.398940027 0.393240005
0.771740019 0.398940027 0.391133338
0.831366658 0.397640049 0.392199993
0.872133315 0.398940027 0.391133338
0.910320044 0.398160040 0.394280016
0.943006694 0.398940027 0.392199993
0.968079984 0.399980038 0.392199993
0.968599975 0.398940027 0.392199993
0.015699999 0.487566710 0.392199993
0.082346678 0.487566710 0.389533341
0.160813332 0.484186709 0.392980009
0.236366704 0.489646673 0.389000028
0.325480044 0.486526668 0.392459989
0.420900047 0.490166664 0.392199993
0.546120048 0.486006677 0.391933322
0.629573405 0.489646673 0.393746674
0.706946611 0.487566710 0.393500000
0.770439982 0.486266702 0.390866667
0.830066681 0.486266702 0.392199993
0.873173356 0.486266702 0.392199993
0.911360025 0.487566710 0.394800007
0.943006694 0.486266702 0.391386658
0.968079984 0.487566710 0.393206686
0.968599975 0.487566710 0.394800007
0.017260006 0.560000062 0.391360015
0.082873344 0.560000062 0.389800012
0.163413331 0.557360053 0.394540012
0.234500051 0.559200048 0.389800012
0.327040046 0.558933377 0.392199993
0.420900017 0.559733391 0.391933322
0.546640038 0.557660043 0.393759996
0.630093396 0.558400035 0.392413348
0.708766639 0.558400035 0.393759996
0.771740019 0.558400035 0.391400009
0.831366658 0.557099998 0.393759996
0.873173356 0.558400035 0.392199993
0.907440007 0.558400035 0.389800012
0.943006694 0.558400035 0.389800012
0.968079984 0.558400035 0.389800012
0.968599975 0.558400035 0.389800012
0.017520001 0.622766674 0.394280016
0.081280008 0.620633364 0.390333325
0.161333337 0.617253363 0.393746674
0.237680048 0.622766674 0.393993348
0.328600049 0.620633364 0.394280016
0.422733337 0.621673346 0.393466681
0.545080066 0.618553340 0.392680019
0.632173419 0.618553340 0.392413348
0.708766580 0.620633364 0.394019991
0.771220028 0.622233391 0.392199993
0.830586672 0.620633364 0.394019991
0.871093333 0.621700048 0.394019991
0.907959998 0.620633364 0.392199993
0.944306731 0.622453332 0.392199993
0.965999961 0.622500002 0.391933322
0.968599975 0.620946705 0.390333325
0.015699999 0.673466623 0.392199993
0.082880013 0.677106619 0.390333325
0.161853343 0.673466623 0.391666651
0.235566705 0.673466623 0.392199993
0.327300012 0.673466623 0.390066653
0.425886691 0.673466623 0.391886681
0.545326710 0.673986673 0.391886681
0.629826665 0.671646655 0.390066653
0.706946611 0.673466623 0.392199993
0.775160015 0.675026596 0.393759996
0.832666636 0.672166646 0.392199993
0.873973370 0.673466623 0.392199993
0.911360025 0.673466623 0.393240005
0.944826663 0.673466623 0.394019991
0.965999961 0.673466623 0.394019991
0.966519952 0.673466623 0.391886681
0.018040001 0.715319991 0.396100014
0.083413348 0.716880023 0.392459989
0.163413331 0.715319991 0.392199993
0.237680048 0.715319991 0.393759996
0.327560037 0.716359973 0.391640007
0.429026693 0.715319991 0.394540012
0.545860052 0.715319991 0.394540012
0.625353396 0.717140019 0.392720014
0.709026635 0.715053380 0.392199993
0.773340046 0.715319991 0.393759996
0.828766644 0.715319991 0.392459989
0.872133374 0.715319991 0.395060003
0.907440007 0.715319991 0.391400009
0.945346713 0.715319991 0.394540012
0.967819989 0.715319991 0.394540012
0.970939994 0.715319991 0.394540012
0.015699999 0.754266620 0.394800007
0.083680004 0.757906616 0.391126662
0.163413331 0.754786611 0.390866667
0.236346707 0.754266620 0.393466681
0.330973357 0.757906556 0.392199993
0.423533350 0.756866574 0.392199993
0.540400088 0.758166611 0.392199993
0.627473354 0.756866574 0.392980009
0.709546626 0.754266620 0.392946661
0.772006691 0.758166611 0.393466681
0.830066621 0.758166611 0.394800007
0.871873319 0.758166611 0.393733352
0.910040021 0.758166611 0.391400009
0.945086718 0.757386565 0.392199993
0.967819989 0.757906616 0.391933322
0.968599975 0.756866574 0.390866667
0.015699999 0.786946714 0.393240005
0.081013344 0.788013339 0.389533341
0.163413331 0.786946714 0.391666651
0.236613378 0.786946714 0.393240005
0.330160022 0.785080016 0.392199993
0.421706706 0.785346687 0.392199993
0.541146696 0.785346687 0.390599996
0.631913364 0.785880029 0.394280016
0.706946611 0.786946714 0.392199993
0.773340046 0.788013339 0.394279987
0.830326617 0.789546728 0.395840019
0.875066698 0.788013339 0.393240005
0.910560012 0.787213326 0.391400009
0.946386695 0.786946714 0.392199993
0.968079984 0.787746668 0.392980009
0.968599975 0.788013339 0.392199993
0.018820001 0.816460013 0.392199993
0.087073341 0.815679967 0.392199993
0.163153335 0.815679967 0.395580024
0.239220038 0.815679967 0.389780015
0.330420047 0.816460013 0.392979980
0.426666707 0.815680027 0.392199993
0.544300079 0.816459954 0.392979980
0.631113350 0.816460013 0.392979980
0.709026635 0.815679967 0.392199993
0.771740019 0.815679967 0.392199993
0.828766644 0.815679967 0.392979980
0.872133374 0.815679967 0.392199993
0.907440007 0.815679967 0.392199993
0.943006694 0.816199958 0.392199993
0.968079984 0.815679967 0.392199993
0.968599975 0.815679967 0.392199993
0.015699999 0.845526695 0.391666681
0.081546672 0.842060030 0.391666681
0.160553336 0.842593372 0.395060033
0.236900046 0.842060030 0.389000028
0.324960023 0.841540039 0.391666681
0.423500031 0.842060030 0.392199993
0.541960061 0.842060030 0.391666681
0.630093396 0.842060030 0.392199993
0.709026635 0.842060030 0.392199993
0.772806704 0.842060030 0.392199993
0.828766644 0.842060030 0.392199993
0.872133374 0.842060030 0.392199993
0.910560012 0.842060030 0.392199993
0.946386695 0.842060030 0.392199993
0.968079984 0.842060030 0.391933322
0.968599975 0.842060030 0.392199993
0.015699999 0.854640007 0.392199993
0.084746674 0.854640007 0.392199993
0.163673326 0.854640007 0.395046681
0.236900046 0.854640007 0.390046686
0.330940038 0.854640007 0.392199993
0.427200019 0.854380012 0.393500000
0.545640051 0.854640007 0.392199993
0.633733392 0.854640007 0.394280016
0.709286630 0.854640007 0.392199993
0.773340046 0.854640007 0.389800012
0.828766644 0.854640007 0.392199993
0.872133374 0.854640007 0.392199993
0.910826683 0.854640007 0.395580024
0.943006694 0.854640007 0.392199993
0.968079984 0.854640007 0.392199993
0.968599975 0.854640007 0.392199993
0.015699999 0.854900002 0.392199993
0.080753341 0.854900002 0.392199993
0.160033345 0.854900002 0.395580024
0.232920036 0.854900002 0.389780015
0.328340024 0.853080034 0.393240005
0.426166683 0.854900002 0.394800007
0.541960061 0.854900002 0.393759996
0.630093396 0.854900002 0.394280016
0.709026635 0.854900002 0.394280016
0.773340046 0.854900002 0.389800012
0.831366658 0.854900002 0.392199993
0.872133374 0.854900002 0.392199993
0.911360025 0.854900002 0.396100014
0.946386695 0.851520002 0.392199993
0.968079984 0.854900002 0.392199993
0.968599975 0.854900002 0.392199993
0.019339999 0.109540001 0.425073326
0.088653341 0.110059999 0.429326683
0.160553351 0.106160000 0.432446688
0.237420052 0.112139992 0.429066688
0.333873361 0.109020002 0.429066688
0.425326675 0.106940001 0.426660001
0.544826746 0.104599997 0.431406677
0.627960026 0.106419995 0.428493351
0.710586667 0.105899997 0.428806692
0.772000015 0.106419995 0.426933348
0.831366658 0.108239993 0.431406707
0.872400045 0.106160000 0.429326683
0.908760011 0.106160000 0.429326683
0.943006694 0.105899997 0.429066688
0.967819989 0.109019980 0.432180017
0.968599975 0.105899997 0.428806692
0.015960000 0.170693338 0.429066688
0.085013337 0.174333334 0.429066688
0.160813347 0.170953333 0.429066688
0.233960032 0.173813328 0.429846674
0.334133357 0.170953333 0.429326683
0.427466691 0.168093354 0.425593346
0.545900106 0.170693338 0.430333346
0.633473396 0.170693338 0.426933348
0.710846663 0.170693338 0.427460015
0.775946677 0.172773346 0.429326683
0.832926631 0.173033327 0.429326683
0.874799967 0.173293352 0.428000033
0.911620021 0.173553333 0.428266704
0.946126699 0.170693338 0.429066688
0.968079984 0.170693338 0.425333351
0.968859971 0.170693323 0.425333351
0.015960000 0.237146676 0.425600022
0.085273340 0.241046682 0.426120013
0.157346681 0.234026700 0.422480017
0.234220043 0.240006685 0.426386684
0.327300012 0.237406686 0.426653355
0.423240036 0.237933353 0.426120013
0.537740111 0.237146676 0.424300015
0.630093396 0.237406671 0.424040020
0.703786612 0.240526676 0.424040020
0.768620014 0.239226684 0.424300015
0.829026639 0.240526691 0.425600022
0.872400045 0.241046682 0.425080031
0.907700002 0.240006700 0.425080031
0.942746699 0.237406671 0.425340027
0.965219975 0.240526691 0.429060012
0.968859971 0.240266681 0.425600022
0.019600000 0.322073340 0.428273320
0.081813343 0.318166703 0.425333351
0.154493347 0.315573364 0.425606698
0.234220043 0.324660033 0.429066688
0.327820003 0.322600037 0.429326683
0.422720015 0.321286678 0.425333351
0.542760074 0.319200039 0.428273320
0.630873322 0.319726706 0.425866693
0.705646634 0.321820050 0.427980036
0.771740019 0.323633373 0.428273320
0.829806626 0.319986701 0.428793341
0.871873379 0.321540028 0.430886716
0.906400025 0.320513368 0.426693350
0.943266690 0.322593331 0.428533345
0.967819989 0.322080016 0.428266674
0.968599975 0.322073340 0.428806692
0.016979994 0.407593369 0.427740008
0.081280008 0.401280046 0.425873339
0.160553351 0.397900015 0.428806692
0.240013376 0.401280016 0.426126659
0.327560008 0.397640049 0.428006649
0.423240036 0.402060062 0.429846704
0.541446745 0.398940027 0.426140010
0.631913364 0.398940027 0.428266704
0.708739996 0.397120029 0.426139981
0.771780014 0.398940027 0.428006649
0.830586672 0.398420066 0.428266674
0.874526680 0.399200022 0.428526670
0.911360025 0.401800066 0.428006649
0.946126699 0.403113365 0.428786665
0.968079984 0.399200022 0.428266674
0.968339980 0.398680031 0.427740008
0.018559998 0.487566710 0.429066688
0.083680011 0.486526698 0.429066688
0.162633330 0.484186709 0.429846704
0.235846698 0.483666718 0.425866693
0.326260060 0.487306714 0.427180022
0.423500001 0.485226691 0.428000033
0.546906710 0.487566710 0.427440017
0.627740026 0.486526698 0.427726686
0.708246589 0.486786693 0.429326683
0.772780001 0.486786693 0.429066688
0.831366658 0.484966725 0.430106699
0.876106679 0.484966695 0.429066688
0.911360025 0.489386708 0.429326683
0.943006694 0.486526698 0.429066688
0.967819989 0.487306714 0.429066688
0.968599975 0.483926713 0.429066688
0.017000005 0.558400035 0.428806692
0.082613342 0.558400035 0.427733362
0.163933337 0.555286705 0.429060012
0.231360048 0.558666706 0.426126689
0.327820033 0.558933377 0.427473336
0.425846696 0.557626724 0.427993357
0.547973394 0.558400035 0.427473336
0.629540026 0.557653368 0.426433355
0.705126643 0.558400035 0.427460015
0.771740019 0.559960008 0.426933348
0.831366658 0.557099998 0.427993357
0.873440027 0.558400035 0.429326683
0.912140012 0.559960067 0.429066688
0.946126699 0.558400035 0.428533375
0.968079984 0.558400035 0.429066688
0.968599975 0.556060016 0.429066688
0.019339999 0.618553340 0.431146681
0.082880005 0.622193336 0.429066688
0.161853343 0.620373368 0.430880010
0.234793380 0.621673346 0.430080026
0.330420047 0.620113373 0.431926668
0.422460020 0.621726692 0.432706684
0.542740107 0.620633364 0.429326683
0.628273368 0.618293405 0.429066688
0.708760023 0.620633364 0.428760022
0.773600042 0.620893359 0.428493351
0.830066681 0.619333386 0.429293364
0.869533300 0.623260021 0.430366665
0.907700002 0.620633364 0.429066688
0.944306731 0.623026669 0.427466661
0.966259956 0.624326706 0.426933348
0.968599975 0.620633364 0.426933348
0.015440000 0.671646655 0.425073326
0.086566679 0.673466623 0.428760022
0.162113354 0.673466623 0.430093348
0.236086711 0.673466623 0.427473366
0.328340024 0.674246609 0.425900012
0.426900029 0.673466623 0.428266674
0.544333398 0.672166646 0.427200019
0.627966762 0.671646655 0.429026663
0.710586667 0.673466682 0.428806692
0.771740019 0.673466623 0.426939994
0.830586672 0.673466623 0.429326713
0.872133374 0.673466623 0.427720010
0.908739984 0.673466623 0.430106699
0.944306672 0.673466623 0.426939994
0.966259956 0.673466623 0.428760022
0.968599975 0.673466623 0.427200019
0.017780000 0.715319991 0.427726686
0.087093338 0.715319991 0.427726686
0.162633359 0.715319991 0.430886686
0.236080050 0.715319991 0.427986681
0.329640031 0.713986695 0.427466691
0.424020022 0.715319991 0.429326683
0.541960061 0.715546668 0.427726686
0.628493369 0.713186681 0.429846674
0.707206607 0.713760018 0.431406677
0.771520019 0.715319991 0.429066688
0.829286635 0.715319991 0.429066688
0.872133374 0.715319991 0.431146681
0.910560012 0.715319991 0.431146681
0.945346713 0.715319991 0.431146681
0.968079984 0.715319991 0.430880010
0.968339980 0.715053320 0.429066688
0.018039994 0.756866574 0.427733362
0.085013337 0.754526615 0.427993357
0.161299989 0.755306602 0.429546684
0.235013381 0.758166611 0.426906675
0.327560008 0.755306602 0.427473366
0.422460020 0.756866574 0.427733362
0.540626705 0.758166611 0.427473366
0.630353391 0.756866574 0.429846674
0.709546626 0.757646680 0.427200019
0.772006691 0.758166611 0.426933348
0.830066621 0.756866574 0.427733362
0.870833337 0.758166611 0.425333351
0.910040021 0.758166611 0.431666702
0.945606709 0.754526615 0.427733362
0.967819989 0.757906616 0.428800017
0.968599975 0.758166611 0.429326683
0.015699999 0.786946714 0.428000033
0.084746674 0.786946714 0.428260028
0.160553351 0.788013339 0.432446688
0.232660040 0.786946714 0.426386684
0.326780021 0.785906672 0.428000033
0.424046665 0.785080016 0.429066688
0.544040084 0.788013339 0.429326683
0.631393373 0.788506746 0.432706684
0.708766639 0.786946714 0.428000033
0.770726681 0.788013339 0.426673323
0.828766644 0.786946714 0.429066688
0.872133374 0.786946714 0.431666702
0.910040021 0.787213326 0.431406677
0.943526685 0.788013339 0.428806692
0.967819989 0.787746668 0.428806692
0.968599975 0.786946714 0.429066688
0.018820001 0.816460013 0.428266704
0.084213346 0.816460013 0.428266704
0.163153335 0.813080013 0.431406707
0.236880049 0.815680027 0.429046690
0.325740010 0.814379990 0.430626661
0.426666707 0.815679967 0.431666672
0.543786764 0.814379990 0.431406677
0.633213401 0.816459954 0.430626690
0.707726598 0.815679967 0.428266704
0.772540033 0.815679967 0.429066688
0.829546630 0.815679967 0.429586679
0.870313287 0.815419972 0.428266704
0.910300016 0.815679967 0.428266704
0.946126699 0.813080013 0.428800017
0.968079984 0.815679967 0.429060012
0.968599975 0.815679967 0.429066688
0.016219992 0.842060030 0.421953350
0.081546672 0.845260024 0.425333351
0.160553336 0.841540039 0.429059982
0.234753370 0.842060030 0.426919997
0.327560008 0.842060030 0.426133364
0.427466691 0.842060030 0.424826652
0.547973394 0.843926668 0.427733362
0.630093396 0.842060030 0.423773348
0.710586667 0.842060030 0.427200019
0.776460052 0.842060030 0.426933348
0.832146645 0.842060030 0.426666677
0.875320017 0.842060030 0.425866663
0.911360025 0.842060030 0.425606638
0.946386695 0.842060030 0.425866663
0.968079984 0.842060030 0.428806692
0.968599975 0.842060030 0.425866663
0.019079991 0.854640007 0.424813330
0.085013337 0.854900002 0.428800017
0.163933337 0.851520002 0.431926697
0.237680048 0.854640007 0.430366695
0.328600019 0.854640007 0.429580033
0.427726686 0.854380012 0.428800017
0.543526709 0.853339970 0.431146681
0.628793359 0.856200039 0.430360019
0.706946611 0.854640007 0.430886686
0.773073375 0.854640007 0.428806692
0.829026639 0.854640007 0.429066688
0.872133374 0.854640007 0.431666702
0.911100030 0.854640007 0.429066688
0.946646690 0.854640007 0.429066688
0.968079984 0.854380012 0.432446688
0.968599975 0.854640007 0.429066688
0.015699999 0.854900002 0.425073326
0.081013344 0.854900002 0.425073326
0.163413331 0.854900002 0.428539991
0.233700037 0.854900002 0.425866693
0.331200033 0.852039993 0.423273355
0.427206695 0.854900002 0.425333351
0.545633435 0.854900002 0.429066688
0.630093396 0.853080034 0.427206665
0.707206607 0.854900002 0.429066688
0.772000015 0.856980026 0.426933348
0.829026639 0.854900002 0.425333351
0.872400045 0.854900002 0.429066688
0.911360025 0.854900002 0.425073326
0.946386695 0.851779997 0.428806692
0.968079984 0.854900002 0.428806692
0.968599975 0.854900002 0.428806692
0.015699999 0.109279998 0.464273334
0.087860011 0.112659998 0.467479974
0.163413331 0.102519996 0.467739999
0.237160042 0.109020002 0.464533329
0.331720054 0.109280005 0.467726678
0.425319999 0.106420003 0.465593338
0.546120048 0.105379999 0.465633333
0.631393313 0.106420003 0.466406643
0.708506644 0.107460000 0.464053333
0.773860037 0.107460000 0.464273334
0.830066621 0.107979998 0.466926664
0.872133374 0.106420003 0.464793354
0.911360025 0.106420003 0.464793354
0.943006694 0.105899997 0.464273334
0.968079984 0.109539993 0.464273334
0.968079984 0.105899997 0.464273334
0.019080000 0.170693338 0.460893333
0.085006677 0.174333334 0.461153328
0.167053327 0.170953333 0.467999995
0.240806699 0.173813343 0.464533359
0.328080028 0.171213344 0.464793354
0.418560028 0.173553333 0.464533359
0.544306755 0.170693338 0.461153328
0.627720058 0.172253326 0.462713361
0.703786612 0.172513336 0.461153328
0.770440042 0.172513336 0.461153328
0.825906575 0.170693338 0.465060025
0.871093392 0.173033342 0.463493317
0.910300016 0.173293337 0.463493347
0.943786681 0.174333334 0.461413324
0.964959979 0.174333334 0.461413324
0.965479970 0.170953333 0.465060025
0.015699999 0.237146676 0.457513332
0.077633344 0.237146676 0.457253337
0.160033345 0.237146690 0.464273334
0.237160042 0.240006685 0.461153328
0.324440032 0.240006670 0.463753313
0.424800009 0.240800008 0.461413324
0.542740047 0.240526691 0.459853321
0.630613387 0.238966674 0.459333330
0.707466602 0.238966689 0.464793354
0.775160015 0.240526691 0.464273334
0.828766644 0.238446683 0.462193310
0.872133374 0.237146676 0.460893303
0.911360025 0.241046697 0.464793354
0.943526685 0.240006700 0.461413324
0.968079984 0.240526676 0.464273334
0.965219975 0.237146690 0.461413324
0.016220002 0.322340012 0.464273334
0.081546679 0.318686694 0.460373342
0.160813347 0.312453359 0.464273334
0.237420052 0.318686724 0.461420000
0.325740039 0.322860003 0.464793354
0.425646693 0.319980055 0.463493347
0.541980088 0.322853357 0.464793354
0.629566729 0.320760012 0.463493347
0.704313278 0.318953365 0.464793354
0.771740019 0.322340012 0.464013338
0.829286635 0.322073370 0.464533329
0.870586634 0.319993377 0.461933345
0.907440007 0.321280003 0.460893333
0.943786681 0.322073370 0.461153328
0.967819989 0.325200051 0.464013338
0.968859971 0.322340012 0.461153328
0.015699999 0.398940027 0.460373312
0.084746674 0.398940027 0.464273334
0.163413346 0.398940027 0.464273334
0.236900046 0.398160011 0.461153328
0.324960023 0.396600068 0.458033353
0.428246677 0.400253385 0.463753343
0.549513400 0.396600038 0.463246673
0.633473396 0.395820022 0.464846641
0.706946611 0.398420036 0.461413324
0.773860037 0.398940027 0.462453336
0.830846667 0.398940027 0.460893333
0.873186648 0.402866691 0.464273334
0.913959980 0.398940027 0.464013368
0.942486703 0.401280046 0.463753343
0.969120026 0.399720043 0.461933345
0.970939994 0.395040035 0.463753343
0.016220002 0.490166694 0.464273334
0.084746674 0.486266702 0.464013338
0.162633345 0.486786693 0.464273334
0.236900046 0.490166694 0.464793354
0.328340024 0.487826705 0.465860009
0.428246707 0.486266702 0.464793354
0.548486710 0.485746711 0.464273334
0.629573405 0.486006707 0.464273334
0.706946611 0.485226721 0.463493347
0.773340046 0.485746682 0.462453336
0.830066621 0.486266732 0.464273334
0.872666717 0.487566710 0.464273334
0.910560012 0.484446704 0.464793354
0.943526685 0.487046719 0.467460006
0.967299998 0.486006707 0.466413319
0.969900012 0.484966695 0.465593338
0.016220002 0.558400035 0.460893333
0.085013345 0.558140039 0.463753343
0.161593348 0.558933377 0.464273334
0.237420052 0.558400035 0.464793354
0.328340024 0.556593359 0.464806676
0.424020022 0.557880044 0.464273334
0.540093422 0.558400035 0.461933315
0.629313409 0.558673382 0.463493347
0.709806681 0.558400035 0.463519990
0.773340046 0.558400035 0.464013338
0.830326676 0.558400035 0.464560002
0.875066638 0.558400035 0.464819998
0.910040021 0.558400035 0.461153328
0.944566727 0.560000062 0.461933315
0.969120026 0.559206724 0.461673319
0.968599975 0.558400035 0.461413324
0.015179998 0.622766674 0.460373342
0.085780010 0.622453332 0.463006645
0.163413331 0.620633364 0.463233352
0.237940043 0.623806715 0.462193310
0.327820033 0.623286664 0.462193310
0.425373375 0.620893359 0.461673319
0.545613408 0.620373368 0.462193310
0.630340099 0.621673346 0.465606689
0.708246589 0.620633364 0.462453336
0.771740019 0.622766674 0.462973356
0.829286575 0.622766674 0.464273334
0.873466671 0.622246683 0.464273334
0.908480048 0.620633364 0.462713331
0.943006694 0.620633364 0.462193310
0.969380021 0.622240007 0.464013338
0.969119966 0.622766674 0.464273334
0.015700001 0.673466623 0.464059979
0.085006669 0.673726618 0.462193340
0.164453343 0.673466623 0.464060009
0.237680048 0.673466623 0.459593356
0.327300012 0.673466623 0.462193340
0.425886691 0.672686636 0.462713331
0.546120048 0.675806582 0.464579999
0.629573405 0.673986614 0.464320004
0.708506644 0.676846623 0.463753343
0.771780014 0.673726678 0.460633367
0.830846667 0.674766600 0.463526666
0.871613324 0.673466623 0.462193340
0.909280002 0.673986614 0.462713331
0.944306672 0.673466623 0.462193340
0.966519952 0.673466623 0.464313328
0.968599975 0.673466623 0.464273334
0.016220002 0.715319991 0.463233352
0.081540003 0.715319991 0.462713331
0.164453328 0.713226676 0.466139972
0.235820040 0.715319991 0.463500023
0.329640031 0.713986695 0.462713331
0.424826682 0.714519978 0.465339988
