example_ofxGpuLutCube/bin/data/ofxGpuLutCube/LUT/Nashville.cube
TITLE "16x16x16 Adobe/IRIDAS cube 3D LUT exported with GrossGrade v0.1.027.1 (beta) 64 bit"
DOMAIN_MIN 0 0 0
DOMAIN_MAX 1 1 1
LUT_3D_SIZE 6
0.015699999 0.105899997 0.392199993
0.234480038 0.112920001 0.392980009
0.548240066 0.105899997 0.396100014
0.773340046 0.105899997 0.392199993
0.910560012 0.106679998 0.396100014
0.964699984 0.105899997 0.392199993
0.018819997 0.321540028 0.391399980
0.233700037 0.323880017 0.392199993
0.541980088 0.323880047 0.393739998
0.775680006 0.319200039 0.391399980
0.909780025 0.318420023 0.391399980
0.968599975 0.321540028 0.392199993
0.017260006 0.560000062 0.391360015
0.234500051 0.559200048 0.389800012
0.546640038 0.557660043 0.393759996
0.771740019 0.558400035 0.391400009
0.907440007 0.558400035 0.389800012
0.968599975 0.558400035 0.389800012
0.018040001 0.715319991 0.396100014
0.237680048 0.715319991 0.393759996
0.545860052 0.715319991 0.394540012
0.773340046 0.715319991 0.393759996
0.907440007 0.715319991 0.391400009
0.970939994 0.715319991 0.394540012
0.018820001 0.816460013 0.392199993
0.239220038 0.815679967 0.389780015
0.544300079 0.816459954 0.392979980
0.771740019 0.815679967 0.392199993
0.907440007 0.815679967 0.392199993
0.968599975 0.815679967 0.392199993
0.015699999 0.854900002 0.392199993
0.232920036 0.854900002 0.389780015
0.541960061 0.854900002 0.393759996
0.773340046 0.854900002 0.389800012
0.911360025 0.854900002 0.396100014
0.968599975 0.854900002 0.392199993
0.016480003 0.106679998 0.501139998
0.234480038 0.105899997 0.501139998
0.545100093 0.105899997 0.500360012
0.774900019 0.106679991 0.501960039
0.908240020 0.105899997 0.499579996
0.968599975 0.105899997 0.503560007
0.015699999 0.316880047 0.500360012
0.233700037 0.325460017 0.499579996
0.542760074 0.323120028 0.501139998
0.774920046 0.322340012 0.500360012
0.908219993 0.322340041 0.500360012
0.965479970 0.322340012 0.500360012
0.019600000 0.558400035 0.500360012
0.235280052 0.561540008 0.500360012
0.542760074 0.559960008 0.501139998
0.770960033 0.558400035 0.501179993
0.909000039 0.557620049 0.499580026
0.968599975 0.558400035 0.499579996
0.015699999 0.715319991 0.499579996
0.236900046 0.715319991 0.501139998
0.548240066 0.715319991 0.501139998
0.775680006 0.715319991 0.502740026
0.910560012 0.715319991 0.501960039
0.969379961 0.715319991 0.500360012
0.014920000 0.814119995 0.500379980
0.236100048 0.814119995 0.504339993
0.541940093 0.815679967 0.503560007
0.775660038 0.815679967 0.501160026
0.908219993 0.815679967 0.501140058
0.967819989 0.815679967 0.500360012
0.014919996 0.854900002 0.502779961
0.236900046 0.854900002 0.503559947
0.539620101 0.854900002 0.500360012
0.773340046 0.854900002 0.501959980
0.911360025 0.854900002 0.496460021
0.968599975 0.854900002 0.499579996
0.017260006 0.109800003 0.573320031
0.235280052 0.107460007 0.570980012
0.548979998 0.108239993 0.575659990
0.774119973 0.107460007 0.573320031
0.911359966 0.107460000 0.574880004
0.968599975 0.105899997 0.573320031
0.017260006 0.322340012 0.574880004
0.236120030 0.319979995 0.573320031
0.539560080 0.320760012 0.572540045
0.773320019 0.321560055 0.574900031
0.912119985 0.322340012 0.574100018
0.968599975 0.320760012 0.573320031
0.019600000 0.558400035 0.572539985
0.237680048 0.558400035 0.575660050
0.541960120 0.558400035 0.570980012
0.771740079 0.558400035 0.572540045
0.908220053 0.559180021 0.574100018
0.968599975 0.558400035 0.574880064
0.016479995 0.715319991 0.577220023
0.236100033 0.715319991 0.574880004
0.544300079 0.715279996 0.573320031
0.775680065 0.715319991 0.575660050
0.910560012 0.715319991 0.575660050
0.968599975 0.715319991 0.574880004
0.018039994 0.816459954 0.573320031
0.235300049 0.816460013 0.574100018
0.545900106 0.814899981 0.573320031
0.772520065 0.815680027 0.573320031
0.909000039 0.815679967 0.574880004
0.968599975 0.814119995 0.574880004
0.018039994 0.854900002 0.573320031
0.236100033 0.854900002 0.576439977
0.545080006 0.854900002 0.575659990
0.772560000 0.854900002 0.574100018
0.909800053 0.854900002 0.574880004
0.968599975 0.854900002 0.575659990
0.018040001 0.105899997 0.634519994
0.235300034 0.108239993 0.630620003
0.544300020 0.104339994 0.632180035
0.774900019 0.107460000 0.633740008
0.909020007 0.106679991 0.632960021
0.968599975 0.105899997 0.630580008
0.016480003 0.322340012 0.632139981
0.235300049 0.323900044 0.631359994
0.540360034 0.323120028 0.630580008
0.773340046 0.323900044 0.632179976
0.908999979 0.322340041 0.633719981
0.967039943 0.322340012 0.630580008
0.018039994 0.558400035 0.632179976
0.237680048 0.558400035 0.631359994
0.542720079 0.557620049 0.630580008
0.771740019 0.558400035 0.630579948
0.908219993 0.558400035 0.631359994
0.968599975 0.559960008 0.630580008
0.015699999 0.715319991 0.631359994
0.235300049 0.715319991 0.632140040
0.544300079 0.715319991 0.631360054
0.775680006 0.715319991 0.634519994
0.910560012 0.715319991 0.632919967
0.968599975 0.712920010 0.632179976
0.016480017 0.815679967 0.632919967
0.236060068 0.817240000 0.632160008
0.543520093 0.815679967 0.632959962
0.775680065 0.817240000 0.632959962
0.909780025 0.816459954 0.631379962
0.968599975 0.815679967 0.631380022
0.015699999 0.854900002 0.632919967
0.234480038 0.856460035 0.632919967
0.538040102 0.855680048 0.632179976
0.771000028 0.854900002 0.630580008
0.908219993 0.854900002 0.633719981
0.968599975 0.854900002 0.630580008
0.019600000 0.109020002 0.677619994
0.236880049 0.105899997 0.676840007
0.545080066 0.105899997 0.672940016
0.775680006 0.108240001 0.676060021
0.907440007 0.105899997 0.672940016
0.968599975 0.106679998 0.672940016
0.013359999 0.319220036 0.671379983
0.236100048 0.321540028 0.676060021
0.541180074 0.320760012 0.672940016
0.773320019 0.323120028 0.675280035
0.910560012 0.320780039 0.676860034
0.969379961 0.322340012 0.676060021
0.017260006 0.558400035 0.679260015
0.235280037 0.558400035 0.676860034
0.538020074 0.558400035 0.674499989
0.771760046 0.558400035 0.673720002
0.908219993 0.560000062 0.674499989
0.968599975 0.558400035 0.679260015
0.014920009 0.715319991 0.674499989
0.234500036 0.716880023 0.676080048
0.549040079 0.712920010 0.676859975
0.775680006 0.715319991 0.676060021
0.909780025 0.715319991 0.676060021
0.968599975 0.715319991 0.674499989
0.018820001 0.816460013 0.676060021
0.237680033 0.815680027 0.674520016
0.541960061 0.816459954 0.676060021
0.774879992 0.815680027 0.675280035
0.910560012 0.815679967 0.676840007
0.968599975 0.815679967 0.676840007
0.015699999 0.854900002 0.672940016
0.234500036 0.854900002 0.673720002
0.539620042 0.854900002 0.672940016
0.773320019 0.854900002 0.676060021
0.911360025 0.854900002 0.676060021
0.968599975 0.854900002 0.676060021
0.019600000 0.105899997 0.682399988
0.238480046 0.109800003 0.683179975
0.545080066 0.108239993 0.682399988
0.774080038 0.108240001 0.680799961
0.910560012 0.106679998 0.682399988
0.968599975 0.105899997 0.682399988
0.022719996 0.321540028 0.685519993
0.236900046 0.320760012 0.682399988
0.544300079 0.322340012 0.683179975
0.770220041 0.319200039 0.680779994
0.908999979 0.320000023 0.680000007
0.968599975 0.318420023 0.681599975
0.019600000 0.558400035 0.682399988
0.237680048 0.558400035 0.683179975
0.541960120 0.558400035 0.682399988
0.774119973 0.558400035 0.683959961
0.911360025 0.560000062 0.683959961
0.968599975 0.558400035 0.682399988
0.017259998 0.715319991 0.682399988
0.233700037 0.715319991 0.681579947
0.550580025 0.713760018 0.682399988
0.773340046 0.716879964 0.682399988
0.909780025 0.715319991 0.684740007
0.968599975 0.712920010 0.682399988
0.016479999 0.815679967 0.682399988
0.236900032 0.816460013 0.682399988
0.541960061 0.818799973 0.683959961
0.774879992 0.816460013 0.682399988
0.907440007 0.816459954 0.682399988
0.971720040 0.812560022 0.682399988
0.019600000 0.854900002 0.686299980
0.236120030 0.858020008 0.682399988
0.540400088 0.857239962 0.682399988
0.771740019 0.854900002 0.682399988
0.907440007 0.854900002 0.682399988
0.968599975 0.854900002 0.686299980
