example_ofxGpuLutCube/bin/data/ofxGpuLutCube/LUT/S1 (B&W smooth).cube
LUT_3D_SIZE 16
0.000000 0.000000 0.000000
0.000013 0.000013 0.000013
0.004862 0.004858 0.004858
0.012861 0.012855 0.012855
0.027015 0.027007 0.027007
0.048777 0.048767 0.048767
0.079865 0.079853 0.079853
0.117354 0.117339 0.117339
0.163455 0.163439 0.163439
0.215901 0.215883 0.215883
0.271994 0.271973 0.271973
0.327823 0.327801 0.327801
0.390652 0.390627 0.390627
0.449761 0.449953 0.449873
0.514567 0.522321 0.518420
0.572249 0.580034 0.576143
0.000422 0.000424 0.000422
0.004470 0.004470 0.004468
0.018549 0.018547 0.018545
0.036724 0.036720 0.036718
0.057865 0.057859 0.057857
0.076954 0.076945 0.076943
0.105629 0.105619 0.105617
0.144660 0.144648 0.144646
0.190908 0.190894 0.190892
0.240201 0.240185 0.240183
0.293378 0.293359 0.293357
0.349188 0.349669 0.349418
0.404786 0.412283 0.408536
0.465105 0.472904 0.468959
0.523895 0.531710 0.527799
0.580930 0.588744 0.584859
0.008933 0.008937 0.008933
0.009843 0.009846 0.009841
0.017931 0.017931 0.017927
0.049805 0.049803 0.049799
0.106451 0.106447 0.106443
0.135485 0.135479 0.135475
0.163383 0.163375 0.163371
0.198422 0.198412 0.198408
0.240831 0.240818 0.240814
0.285669 0.285655 0.285651
0.334265 0.334249 0.334245
0.385362 0.385468 0.385429
0.437724 0.439531 0.438647
0.491636 0.493492 0.492519
0.544409 0.552224 0.548274
0.597957 0.605789 0.601841
0.028585 0.028592 0.028585
0.028418 0.028423 0.028416
0.036047 0.036049 0.036043
0.049493 0.049493 0.049488
0.089869 0.089867 0.089861
0.171636 0.171632 0.171626
0.242654 0.242648 0.242642
0.278669 0.278661 0.278655
0.313749 0.313741 0.313734
0.350967 0.350970 0.350956
0.393234 0.393354 0.393281
0.435784 0.436307 0.436036
0.478426 0.485608 0.482024
0.527009 0.534885 0.530935
0.572543 0.580365 0.576435
0.621056 0.628912 0.624976
0.065102 0.065110 0.065102
0.063360 0.063367 0.063358
0.067623 0.067627 0.067619
0.078722 0.078724 0.078716
0.096501 0.096501 0.096492
0.143682 0.143680 0.143672
0.237889 0.237885 0.237877
0.336888 0.336866 0.336867
0.398775 0.398608 0.398681
0.432303 0.432879 0.432573
0.460152 0.467153 0.463654
0.494479 0.501899 0.498170
0.527653 0.535602 0.531602
0.569258 0.577058 0.573128
0.609591 0.617428 0.613479
0.653214 0.661072 0.657104
0.108506 0.108517 0.108506
0.109917 0.109924 0.109915
0.111677 0.111683 0.111673
0.120417 0.120421 0.120411
0.138089 0.138091 0.138081
0.161537 0.161537 0.161527
0.210346 0.210344 0.210333
0.308311 0.308647 0.308469
0.409196 0.413161 0.411170
0.490029 0.494507 0.492275
0.529330 0.535817 0.532564
0.555019 0.561471 0.558221
0.585473 0.592585 0.589008
0.615537 0.623340 0.619404
0.648191 0.656016 0.652089
0.685520 0.693289 0.689391
0.166488 0.166500 0.166488
0.166442 0.166452 0.166440
0.167539 0.167548 0.167535
0.169936 0.169942 0.169929
0.189477 0.189481 0.189469
0.209636 0.209638 0.209626
0.236211 0.236211 0.236199
0.284926 0.285035 0.284966
0.377341 0.378357 0.377831
0.473433 0.475268 0.474326
0.550130 0.557476 0.553779
0.607119 0.614862 0.610968
0.638527 0.646474 0.642489
0.662380 0.670207 0.666272
0.689506 0.697370 0.693387
0.719763 0.727592 0.723681
0.232675 0.232690 0.232675
0.231738 0.231750 0.231736
0.233628 0.233652 0.233631
0.233880 0.233887 0.233873
0.243990 0.243996 0.243982
0.264456 0.264461 0.264446
0.287421 0.287555 0.287482
0.314846 0.315487 0.315165
0.357147 0.360946 0.359051
0.442034 0.446492 0.444274
0.529587 0.536509 0.533053
0.602338 0.609753 0.606019
0.661365 0.669201 0.665266
0.703482 0.711333 0.707376
0.726851 0.734678 0.730762
0.753028 0.760893 0.756959
0.299887 0.299902 0.299887
0.300277 0.300294 0.300276
0.299447 0.300716 0.300065
0.300642 0.300583 0.300600
0.304874 0.304884 0.304867
0.322970 0.322959 0.322952
0.341739 0.341555 0.341667
0.366980 0.367372 0.367178
0.391493 0.396878 0.394169
0.430261 0.436367 0.433316
0.504148 0.511107 0.507612
0.585712 0.593110 0.589404
0.651539 0.659390 0.655446
0.707095 0.714928 0.710977
0.752289 0.760149 0.756208
0.786945 0.794738 0.790822
0.371899 0.371529 0.371707
0.371897 0.371531 0.371706
0.369994 0.372032 0.370985
0.372840 0.372397 0.372605
0.371777 0.371953 0.371837
0.384176 0.384213 0.384180
0.400611 0.403158 0.401863
0.421483 0.424737 0.423130
0.444274 0.448435 0.446296
0.472027 0.476833 0.474390
0.501668 0.508927 0.505244
0.564914 0.572512 0.568642
0.638846 0.646690 0.642761
0.697551 0.705366 0.701436
0.748772 0.756579 0.752639
0.793714 0.801547 0.797638
0.441958 0.448427 0.445162
0.441531 0.447984 0.444714
0.443880 0.450779 0.447303
0.442037 0.447610 0.444815
0.445570 0.449190 0.447351
0.446317 0.449951 0.448093
0.462174 0.466676 0.464436
0.479997 0.484678 0.482318
0.499483 0.504149 0.501795
0.522078 0.527104 0.524576
0.544176 0.551889 0.547986
0.570446 0.578289 0.574338
0.622398 0.630186 0.626259
0.687381 0.695235 0.691262
0.741924 0.749790 0.745832
0.794404 0.802239 0.798266
0.512786 0.520710 0.516739
0.512638 0.520555 0.516618
0.515242 0.523165 0.519197
0.515209 0.519880 0.517510
0.515073 0.522588 0.518805
0.515429 0.522999 0.519201
0.522613 0.529986 0.526273
0.537613 0.544853 0.541216
0.554696 0.560502 0.557570
0.573267 0.579781 0.576517
0.592007 0.599778 0.595872
0.612230 0.620035 0.616108
0.633470 0.641281 0.637359
0.677544 0.685409 0.681451
0.734928 0.742751 0.738804
0.787482 0.795318 0.791365
0.578568 0.586411 0.582495
0.582204 0.590051 0.586115
0.581237 0.589096 0.585137
0.582657 0.590413 0.586520
0.582701 0.589812 0.586232
0.582451 0.590355 0.586388
0.584436 0.592342 0.588361
0.595684 0.603605 0.599626
0.608857 0.616660 0.612742
0.626565 0.634431 0.630452
0.640095 0.647936 0.644006
0.658713 0.666549 0.662628
0.676239 0.684076 0.680145
0.692461 0.700311 0.696331
0.728834 0.736659 0.732725
0.781436 0.789273 0.785329
0.645342 0.653229 0.649303
0.645171 0.653026 0.649086
0.645350 0.653236 0.649300
0.644948 0.652794 0.648856
0.645246 0.653086 0.649170
0.647592 0.655450 0.651501
0.648409 0.655970 0.652183
0.652212 0.659739 0.655978
0.664447 0.670342 0.667359
0.679245 0.686229 0.682689
0.691320 0.699168 0.695229
0.705260 0.713107 0.709162
0.719176 0.726990 0.723057
0.735003 0.742829 0.738887
0.748850 0.756716 0.752762
0.779100 0.786968 0.783027
0.706590 0.714499 0.710524
0.706696 0.714567 0.710631
0.704402 0.712241 0.708318
0.708689 0.716572 0.712600
0.709051 0.716931 0.712982
0.708321 0.716189 0.712235
0.710639 0.718520 0.714548
0.712978 0.720876 0.716875
0.720851 0.728717 0.724767
0.731829 0.739685 0.735726
0.742365 0.750181 0.746255
0.756888 0.764724 0.760763
0.765112 0.772951 0.768991
0.780243 0.788060 0.784115
0.796074 0.803935 0.799951
0.809620 0.817503 0.813492
0.772032 0.779926 0.776011
0.768394 0.776298 0.772287
0.768273 0.776175 0.772166
0.769456 0.777341 0.773349
0.771629 0.779478 0.775541
0.772164 0.780032 0.776098
0.774540 0.782367 0.778432
0.774545 0.782404 0.778469
0.778856 0.786671 0.782748
0.792296 0.800126 0.796171
0.801727 0.809572 0.805619
0.809801 0.817663 0.813677
0.824996 0.832834 0.828886
0.837756 0.845581 0.841640
0.857065 0.864890 0.860932
0.870192 0.878008 0.874049
0.003894 0.003894 0.003896
0.004111 0.004109 0.004111
0.004747 0.004743 0.004745
0.013579 0.013573 0.013575
0.026391 0.026383 0.026385
0.052869 0.052859 0.052861
0.083625 0.083613 0.083615
0.122687 0.122672 0.122675
0.168648 0.168632 0.168634
0.220887 0.220869 0.220871
0.272985 0.272962 0.272965
0.332548 0.332542 0.332536
0.391303 0.391278 0.391280
0.455282 0.455451 0.455381
0.510966 0.518791 0.514862
0.572321 0.580113 0.576210
0.005095 0.005097 0.005097
0.012298 0.012298 0.012298
0.018460 0.018458 0.018458
0.034573 0.034569 0.034569
0.054404 0.054398 0.054398
0.079165 0.079156 0.079156
0.108773 0.108756 0.108760
0.150131 0.150107 0.150113
0.195251 0.194837 0.195061
0.240813 0.246057 0.243407
0.296664 0.296950 0.296768
0.351039 0.351497 0.351259
0.405666 0.412241 0.408893
0.465480 0.472962 0.469216
0.523532 0.531403 0.527438
0.580740 0.588549 0.584618
0.026458 0.026462 0.026460
0.026811 0.026813 0.026811
0.032980 0.032980 0.032978
0.070792 0.070790 0.070788
0.104096 0.104092 0.104090
0.131017 0.131012 0.131009
0.164103 0.164098 0.164095
0.200565 0.200562 0.200555
0.241685 0.241717 0.241692
0.285255 0.285341 0.285295
0.334187 0.334171 0.334170
0.386207 0.386418 0.386286
0.438183 0.439049 0.438636
0.495018 0.495696 0.495336
0.544843 0.552601 0.548698
0.598110 0.605891 0.601977
0.052319 0.052325 0.052321
0.051791 0.051795 0.051791
0.054246 0.054248 0.054244
0.067678 0.067678 0.067674
0.110988 0.110986 0.110981
0.188353 0.188345 0.188342
0.242899 0.242879 0.242883
0.277952 0.277942 0.277949
0.311482 0.311203 0.311341
0.348472 0.352303 0.350386
0.391221 0.391586 0.391418
0.437399 0.438132 0.437746
0.476323 0.483977 0.480119
0.525029 0.533411 0.529217
0.574975 0.582735 0.578842
0.623285 0.631098 0.627208
0.083728 0.083736 0.083730
0.085566 0.085572 0.085566
0.084829 0.084833 0.084827
0.097686 0.097688 0.097683
0.114268 0.114268 0.114262
0.165183 0.165182 0.165176
0.255124 0.255123 0.255116
0.346673 0.346678 0.346671
0.398106 0.398255 0.398160
0.428143 0.428953 0.428527
0.457792 0.462059 0.459909
0.490787 0.495328 0.493035
0.530294 0.535630 0.532962
0.567113 0.574932 0.571011
0.611221 0.619029 0.615102
0.652583 0.660422 0.656455
0.131043 0.131052 0.131045
0.130354 0.130362 0.130354
0.129441 0.129454 0.129441
0.138103 0.138107 0.138099
0.154679 0.154681 0.154672
0.177281 0.177281 0.177273
0.227244 0.227242 0.227234
0.323569 0.323581 0.323575
0.421945 0.422398 0.422166
0.493539 0.496812 0.495158
0.526507 0.534439 0.530466
0.552001 0.560085 0.556049
0.581811 0.589807 0.585776
0.614553 0.622371 0.618437
0.649948 0.657824 0.653889
0.683544 0.691373 0.687439
0.186267 0.186283 0.186271
0.185861 0.185872 0.185861
0.185599 0.185777 0.185723
0.188980 0.188986 0.188976
0.203314 0.203320 0.203310
0.223870 0.223873 0.223862
0.250561 0.250562 0.250551
0.297984 0.298201 0.298090
0.389938 0.390377 0.390114
0.482177 0.483301 0.482711
0.556549 0.561826 0.559193
0.607264 0.612733 0.609981
0.636530 0.643549 0.640008
0.662921 0.670743 0.666798
0.689225 0.697079 0.693089
0.721556 0.729413 0.725485
0.250429 0.250389 0.250401
0.250051 0.250066 0.250052
0.248773 0.249640 0.249199
0.249723 0.249729 0.249717
0.257039 0.257003 0.256992
0.275881 0.275873 0.275866
0.299209 0.298982 0.299076
0.326899 0.327382 0.327128
0.368926 0.372681 0.370748
0.451793 0.457033 0.454376
0.535113 0.543079 0.539058
0.605219 0.613281 0.609260
0.664847 0.672778 0.668799
0.702691 0.710510 0.706593
0.724891 0.732714 0.728783
0.754871 0.762729 0.758751
0.314475 0.314208 0.314337
0.316249 0.315955 0.316080
0.314373 0.315517 0.314938
0.314731 0.314675 0.314694
0.317349 0.317117 0.317210
0.331829 0.331775 0.331779
0.351882 0.354901 0.353382
0.374855 0.379867 0.377381
0.400589 0.407950 0.404247
0.437936 0.445784 0.441835
0.510862 0.518706 0.514775
0.589707 0.597312 0.593506
0.655246 0.662543 0.658867
0.709032 0.716885 0.712944
0.753581 0.761414 0.757462
0.785205 0.793032 0.789128
0.383420 0.386694 0.385013
0.381670 0.384978 0.383327
0.383313 0.384033 0.383651
0.384091 0.383938 0.384006
0.383228 0.386210 0.384731
0.390923 0.394170 0.392536
0.408537 0.413105 0.410817
0.428340 0.434540 0.431430
0.451083 0.458511 0.454781
0.476005 0.483625 0.479790
0.507704 0.515511 0.511584
0.571029 0.578850 0.574920
0.642223 0.650103 0.646144
0.699536 0.707379 0.703420
0.750694 0.758532 0.754591
0.795925 0.803733 0.799805
0.449880 0.457312 0.453607
0.451664 0.459027 0.455351
0.452073 0.459079 0.455592
0.452224 0.458466 0.455303
0.452916 0.457905 0.455398
0.455087 0.460650 0.457858
0.469344 0.475552 0.472440
0.485871 0.493384 0.489615
0.504222 0.511997 0.508092
0.525024 0.532777 0.528887
0.547702 0.555560 0.551595
0.575812 0.583674 0.579742
0.626571 0.634402 0.630439
0.688031 0.695850 0.691916
0.746435 0.754283 0.750317
0.792438 0.800269 0.796318
0.520846 0.528679 0.524745
0.519528 0.527406 0.523444
0.521039 0.528855 0.524937
0.521096 0.528708 0.524860
0.522552 0.526489 0.524489
0.522778 0.526768 0.524749
0.529774 0.537345 0.533544
0.542897 0.550808 0.546841
0.559147 0.567026 0.563042
0.575906 0.583753 0.579810
0.594249 0.602114 0.598167
0.615934 0.623777 0.619837
0.637320 0.645157 0.641206
0.679545 0.687368 0.683435
0.736529 0.744380 0.740436
0.789924 0.797733 0.793817
0.586256 0.594168 0.590190
0.584846 0.592685 0.588765
0.586221 0.594063 0.590149
0.585029 0.592888 0.588956
0.586422 0.594069 0.590239
0.587160 0.594848 0.590966
0.590460 0.598144 0.594269
0.599319 0.607078 0.603181
0.614102 0.621961 0.617989
0.628960 0.636822 0.632883
0.643777 0.651652 0.647696
0.660473 0.668328 0.664348
0.674703 0.682510 0.678595
0.695219 0.703041 0.699105
0.732129 0.739962 0.736025
0.784027 0.791872 0.787905
0.646546 0.654396 0.650478
0.646420 0.654295 0.650370
0.647861 0.655698 0.651759
0.649852 0.657692 0.653760
0.648397 0.656270 0.652333
0.649407 0.657285 0.653358
0.651897 0.659805 0.655828
0.655666 0.663496 0.659555
0.666761 0.674594 0.670651
0.679834 0.687670 0.683727
0.692686 0.700498 0.696571
0.707088 0.714940 0.710990
0.720485 0.728319 0.724368
0.735284 0.743155 0.739187
0.754546 0.762402 0.758423
0.783978 0.791799 0.787850
0.710535 0.718400 0.714451
0.707721 0.715624 0.711656
0.707878 0.715787 0.711831
0.710754 0.718630 0.714704
0.710189 0.718073 0.714097
0.711409 0.719248 0.715308
0.710486 0.718342 0.714395
0.714627 0.722386 0.718488
0.720941 0.728772 0.724832
0.731621 0.739467 0.735495
0.743357 0.751212 0.747285
0.754998 0.762859 0.758895
0.765561 0.773404 0.769435
0.780479 0.788293 0.784354
0.797108 0.804979 0.800981
0.809630 0.817510 0.813517
0.768363 0.776235 0.772301
0.772159 0.780016 0.776067
0.771943 0.779795 0.775850
0.772083 0.779931 0.775985
0.774769 0.782648 0.778697
0.773594 0.781477 0.777501
0.772683 0.780538 0.776583
0.774692 0.782550 0.778598
0.780557 0.788430 0.784500
0.789583 0.797444 0.793474
0.799742 0.807615 0.803649
0.810314 0.818175 0.814201
0.825331 0.833181 0.829214
0.837369 0.845210 0.841257
0.854415 0.862226 0.858297
0.870363 0.878179 0.874224
0.007899 0.007899 0.007903
0.008955 0.008953 0.008957
0.009900 0.009896 0.009900
0.023141 0.023135 0.023139
0.040193 0.040186 0.040189
0.060532 0.060521 0.060526
0.085853 0.085841 0.085845
0.121576 0.121562 0.121566
0.168013 0.167997 0.168001
0.220294 0.220279 0.220281
0.274158 0.274570 0.274341
0.328296 0.333989 0.331121
0.391388 0.391380 0.391366
0.450890 0.451004 0.450955
0.513155 0.520914 0.517013
0.571217 0.579006 0.575115
0.013506 0.013508 0.013511
0.022328 0.022328 0.022331
0.027489 0.027487 0.027489
0.043832 0.043828 0.043830
0.057049 0.057043 0.057045
0.076913 0.076905 0.076907
0.107446 0.107435 0.107437
0.145781 0.145819 0.145799
0.191684 0.192264 0.191967
0.240945 0.243830 0.242398
0.295100 0.295501 0.295272
0.348059 0.351707 0.349894
0.402466 0.409427 0.405943
0.462038 0.469595 0.465823
0.524115 0.530822 0.527468
0.583300 0.584239 0.583730
0.032063 0.032066 0.032066
0.041201 0.041203 0.041203
0.061871 0.061871 0.061871
0.074797 0.074795 0.074795
0.097176 0.097172 0.097172
0.122583 0.122577 0.122577
0.155114 0.155106 0.155106
0.193084 0.193051 0.193062
0.236209 0.235881 0.236023
0.283878 0.284082 0.283972
0.330389 0.330786 0.330582
0.379483 0.384374 0.381922
0.435556 0.436086 0.435786
0.491246 0.491649 0.491455
0.544027 0.551607 0.547811
0.597449 0.605000 0.601194
0.070425 0.070431 0.070429
0.079194 0.079197 0.079195
0.085340 0.085342 0.085340
0.096547 0.096547 0.096545
0.146683 0.146681 0.146679
0.197847 0.197843 0.197841
0.233316 0.233310 0.233308
0.267167 0.267315 0.267238
0.303837 0.305543 0.304694
0.343758 0.346857 0.345308
0.385554 0.387412 0.386454
0.431016 0.434768 0.432898
0.475278 0.481526 0.478376
0.525115 0.532821 0.528957
0.572669 0.579686 0.576119
0.621744 0.624619 0.623188
0.118402 0.118411 0.118406
0.120041 0.120047 0.120043
0.117712 0.117716 0.117712
0.124807 0.124809 0.124805
0.143006 0.143006 0.143002
0.195811 0.195806 0.195803
0.284181 0.284177 0.284173
0.351775 0.352008 0.351881
0.390193 0.392798 0.391469
0.419603 0.423271 0.421423
0.454440 0.456595 0.455509
0.487784 0.492609 0.490179
0.523445 0.531282 0.527297
0.565840 0.573624 0.569697
0.606566 0.614360 0.610452
0.650854 0.658679 0.654716
0.162734 0.162743 0.162737
0.163741 0.163749 0.163743
0.162390 0.162396 0.162390
0.165149 0.165152 0.165146
0.180546 0.180567 0.180544
0.202551 0.202616 0.202571
0.255584 0.255584 0.255578
0.347208 0.347469 0.347334
0.438778 0.440619 0.439702
0.494432 0.498223 0.496303
0.523448 0.528776 0.526092
0.549416 0.556476 0.552925
0.579327 0.585518 0.582415
0.613494 0.621281 0.617375
0.647015 0.654851 0.650934
0.684228 0.692035 0.688149
0.216420 0.216432 0.216424
0.216241 0.216252 0.216243
0.218489 0.218469 0.218475
0.218455 0.218461 0.218453
0.227954 0.227967 0.227969
0.248068 0.248117 0.248107
0.273432 0.273897 0.273656
0.322004 0.322572 0.322282
0.409876 0.411721 0.410799
0.495940 0.499081 0.497481
0.564101 0.570610 0.567332
0.606542 0.614182 0.610329
0.633736 0.641850 0.637783
0.659714 0.667405 0.663547
0.687611 0.695460 0.691511
0.716453 0.724266 0.720360
0.276007 0.275926 0.275963
0.276470 0.276481 0.276472
0.276671 0.276987 0.276829
0.276920 0.276924 0.276913
0.281757 0.281965 0.281849
0.298118 0.298459 0.298286
0.321926 0.321698 0.321801
0.346623 0.346680 0.346650
0.388727 0.391454 0.390076
0.467830 0.471925 0.469847
0.546635 0.553214 0.549907
0.614745 0.622429 0.618588
0.667405 0.675233 0.671280
0.702538 0.710324 0.706422
0.725598 0.733408 0.729493
0.751694 0.759557 0.755597
0.338511 0.340064 0.339283
0.339127 0.339105 0.339099
0.339968 0.340190 0.340092
0.339696 0.339677 0.339682
0.339974 0.339763 0.339867
0.351641 0.351587 0.351613
0.369903 0.373476 0.371692
0.392637 0.396843 0.394732
0.417279 0.423781 0.420523
0.453826 0.460413 0.457112
0.524919 0.531910 0.528387
0.598139 0.605823 0.601960
0.661054 0.668929 0.664980
0.713436 0.721108 0.717260
0.755004 0.762832 0.758914
0.785503 0.793363 0.789440
0.404712 0.406643 0.405648
0.402855 0.404995 0.403882
0.404474 0.406370 0.405431
0.404534 0.406140 0.405303
0.402278 0.405897 0.404057
0.407389 0.411229 0.409302
0.425866 0.428559 0.427220
0.445178 0.447734 0.446455
0.467201 0.469731 0.468459
0.490241 0.493822 0.492019
0.519438 0.526875 0.523134
0.579067 0.586839 0.582942
0.648534 0.656369 0.652445
0.704787 0.712653 0.708707
0.753868 0.761706 0.757771
0.799687 0.807534 0.803607
0.467802 0.475748 0.471774
0.468734 0.475932 0.472321
0.468253 0.475352 0.471790
0.467485 0.474502 0.470995
0.469098 0.475815 0.472449
0.469159 0.475824 0.472476
0.480339 0.487569 0.483947
0.496624 0.503940 0.500250
0.515435 0.522787 0.519120
0.534911 0.542447 0.538641
0.557159 0.564944 0.561029
0.582461 0.590306 0.586364
0.633124 0.640980 0.637032
0.695893 0.703748 0.699820
0.745292 0.753143 0.749202
0.796382 0.804235 0.800299
0.530033 0.537906 0.533965
0.532188 0.539891 0.536035
0.532957 0.540782 0.536875
0.533291 0.541165 0.537216
0.531753 0.539511 0.535624
0.534229 0.541788 0.537982
0.538919 0.546556 0.542714
0.550574 0.558284 0.554407
0.567359 0.573228 0.570271
0.585247 0.591252 0.588235
0.602090 0.609824 0.605939
0.621161 0.629011 0.625079
0.643124 0.650956 0.647015
0.684721 0.692560 0.688631
0.740095 0.747919 0.743983
0.790414 0.798272 0.794315
0.595024 0.602927 0.598961
0.595254 0.603144 0.599235
0.594060 0.601942 0.598012
0.593987 0.601850 0.597897
0.595657 0.603558 0.599605
0.594785 0.602707 0.598725
0.596855 0.604708 0.600735
0.606398 0.614264 0.610328
0.621136 0.627702 0.624386
0.633676 0.640662 0.637176
0.649315 0.657128 0.653184
0.664433 0.672259 0.668310
0.682306 0.690146 0.686184
0.699359 0.707228 0.703268
0.735435 0.743292 0.739386
0.785409 0.793230 0.789305
0.654358 0.662272 0.658312
0.654464 0.662303 0.658373
0.656109 0.663997 0.660068
0.656374 0.664246 0.660314
0.656336 0.664113 0.660208
0.656297 0.663805 0.660027
0.657208 0.665113 0.661175
0.661108 0.668962 0.665036
0.672850 0.680665 0.676749
0.683064 0.690930 0.686985
0.697562 0.705444 0.701509
0.709282 0.717130 0.713171
0.724807 0.732673 0.728742
0.737002 0.744871 0.740901
0.753808 0.761639 0.757681
0.784357 0.792201 0.788250
0.715312 0.723221 0.719266
0.714915 0.722839 0.718851
0.714976 0.722849 0.718904
0.711474 0.719356 0.715439
0.714659 0.722520 0.718566
0.715116 0.723018 0.719040
0.715926 0.723803 0.719859
0.716752 0.724589 0.720660
0.723533 0.731373 0.727430
0.733419 0.741122 0.737249
0.748546 0.756397 0.752437
0.756453 0.764301 0.760342
0.772039 0.779869 0.775952
0.784797 0.792638 0.788681
0.794899 0.802698 0.798763
0.812913 0.820786 0.816863
0.776434 0.784291 0.780363
0.773005 0.780900 0.776975
0.775082 0.782990 0.779048
0.774676 0.782576 0.778628
0.774712 0.782581 0.778617
0.775881 0.783750 0.779817
0.776999 0.784847 0.780917
0.778495 0.786377 0.782429
0.781016 0.788886 0.784929
0.789857 0.797731 0.793772
0.802203 0.810053 0.806127
0.810540 0.818398 0.814458
0.827908 0.835801 0.831828
0.840690 0.848537 0.844595
0.854668 0.862478 0.858552
0.873732 0.881617 0.877631
0.013293 0.013293 0.013299
0.015821 0.015819 0.015826
0.023595 0.023591 0.023597
0.035164 0.035158 0.035164
0.052107 0.052099 0.052105
0.081615 0.081604 0.081611
0.108075 0.108062 0.108069
0.139567 0.139552 0.139558
0.174003 0.173987 0.173994
0.214446 0.214426 0.214433
0.267868 0.267601 0.267705
0.325737 0.326136 0.325941
0.381857 0.387722 0.384761
0.442581 0.448469 0.445501
0.503133 0.510955 0.507056
0.567076 0.574935 0.571063
0.032571 0.032573 0.032577
0.038959 0.038959 0.038963
0.046150 0.046148 0.046152
0.056771 0.056767 0.056771
0.073806 0.073801 0.073804
0.098410 0.098401 0.098405
0.124145 0.124135 0.124139
0.154360 0.154344 0.154348
0.188723 0.188701 0.188705
0.235005 0.234997 0.234993
0.287968 0.288011 0.287980
0.344377 0.345087 0.344697
0.400119 0.402948 0.401493
0.458071 0.464202 0.461149
0.515422 0.523226 0.519336
0.576144 0.583937 0.580005
0.050407 0.050411 0.050413
0.062208 0.062210 0.062212
0.077940 0.077940 0.077942
0.089467 0.089465 0.089467
0.105885 0.105881 0.105883
0.127792 0.127786 0.127788
0.152552 0.152544 0.152546
0.184466 0.184481 0.184483
0.225670 0.225705 0.225713
0.272180 0.272399 0.272290
0.324368 0.324134 0.324237
0.374629 0.375038 0.374834
0.427933 0.432869 0.430420
0.484148 0.489515 0.486831
0.536098 0.544175 0.540098
0.588999 0.597069 0.593016
0.080237 0.080243 0.080243
0.090547 0.090551 0.090551
0.108781 0.108783 0.108783
0.131421 0.131421 0.131421
0.155073 0.155071 0.155071
0.183053 0.183048 0.183048
0.214613 0.214607 0.214607
0.250328 0.250344 0.250328
0.290722 0.290756 0.290718
0.333861 0.333955 0.333907
0.377228 0.377592 0.377389
0.424076 0.424196 0.424102
0.469289 0.476079 0.472704
0.517494 0.524793 0.521175
0.565182 0.573250 0.569209
0.616928 0.625008 0.620967
0.132016 0.132024 0.132022
0.140511 0.140517 0.140515
0.158546 0.158550 0.158548
0.167213 0.167215 0.167213
0.184676 0.184676 0.184674
0.240151 0.240149 0.240147
0.302054 0.302050 0.302048
0.343128 0.343308 0.343227
0.375564 0.376676 0.376105
0.409737 0.411703 0.410716
0.441978 0.446211 0.444078
0.480690 0.485613 0.483121
0.518542 0.525880 0.522151
0.561639 0.568839 0.565173
0.604141 0.611994 0.608059
0.644781 0.652573 0.648657
0.195721 0.195732 0.195728
0.203368 0.203376 0.203372
0.210277 0.210283 0.210279
0.211144 0.211147 0.211143
0.219992 0.219991 0.219991
0.240730 0.240722 0.240725
0.296216 0.296228 0.296217
0.383990 0.384080 0.384032
0.452019 0.452963 0.452486
0.489132 0.492141 0.490610
0.514804 0.520199 0.517480
0.544462 0.550232 0.547357
0.573786 0.579787 0.577026
0.608508 0.614362 0.611532
0.643985 0.651847 0.647911
0.677686 0.685497 0.681582
0.260666 0.260631 0.260649
0.259529 0.259492 0.259510
0.262657 0.262672 0.262662
0.260968 0.261025 0.260994
0.265170 0.265186 0.265160
0.283016 0.283016 0.283005
0.306153 0.306066 0.306095
0.357159 0.358174 0.357658
0.439027 0.441600 0.440318
0.517461 0.521188 0.519310
0.572350 0.578045 0.575197
0.603432 0.609799 0.606619
0.628593 0.636342 0.632440
0.655079 0.662940 0.659001
0.685180 0.693019 0.689086
0.715842 0.723667 0.719734
0.317810 0.318435 0.318122
0.316502 0.317113 0.316804
0.318102 0.318091 0.318099
0.317344 0.317349 0.317342
0.317869 0.317888 0.317848
0.330573 0.330640 0.330597
0.351503 0.352082 0.351765
0.375368 0.375971 0.375658
