example_ofxGpuLutCube/bin/data/ofxGpuLutCube/LUT/S1 (B&W smooth).cube
LUT_3D_SIZE 6
0.000000 0.000000 0.000000
0.012861 0.012855 0.012855
0.079865 0.079853 0.079853
0.215901 0.215883 0.215883
0.390652 0.390627 0.390627
0.572249 0.580034 0.576143
0.028585 0.028592 0.028585
0.049493 0.049493 0.049488
0.242654 0.242648 0.242642
0.350967 0.350970 0.350956
0.478426 0.485608 0.482024
0.621056 0.628912 0.624976
0.166488 0.166500 0.166488
0.169936 0.169942 0.169929
0.236211 0.236211 0.236199
0.473433 0.475268 0.474326
0.638527 0.646474 0.642489
0.719763 0.727592 0.723681
0.371899 0.371529 0.371707
0.372840 0.372397 0.372605
0.400611 0.403158 0.401863
0.472027 0.476833 0.474390
0.638846 0.646690 0.642761
0.793714 0.801547 0.797638
0.578568 0.586411 0.582495
0.582657 0.590413 0.586520
0.584436 0.592342 0.588361
0.626565 0.634431 0.630452
0.676239 0.684076 0.680145
0.781436 0.789273 0.785329
0.772032 0.779926 0.776011
0.769456 0.777341 0.773349
0.774540 0.782367 0.778432
0.792296 0.800126 0.796171
0.824996 0.832834 0.828886
0.870192 0.878008 0.874049
0.013293 0.013293 0.013299
0.035164 0.035158 0.035164
0.108075 0.108062 0.108069
0.214446 0.214426 0.214433
0.381857 0.387722 0.384761
0.567076 0.574935 0.571063
0.080237 0.080243 0.080243
0.131421 0.131421 0.131421
0.214613 0.214607 0.214607
0.333861 0.333955 0.333907
0.469289 0.476079 0.472704
0.616928 0.625008 0.620967
0.260666 0.260631 0.260649
0.260968 0.261025 0.260994
0.306153 0.306066 0.306095
0.517461 0.521188 0.519310
0.628593 0.636342 0.632440
0.715842 0.723667 0.719734
0.432717 0.437089 0.434895
0.431880 0.438158 0.435014
0.445297 0.453219 0.449245
0.505753 0.512398 0.509070
0.657895 0.665477 0.661877
0.804303 0.812123 0.808175
0.605559 0.612892 0.609194
0.607589 0.615449 0.611505
0.609533 0.617395 0.613438
0.642964 0.650603 0.646769
0.688230 0.695630 0.693067
0.792432 0.800279 0.796340
0.777756 0.785600 0.781682
0.777471 0.785320 0.781399
0.782871 0.790713 0.786780
0.793248 0.801102 0.797136
0.829616 0.837428 0.833515
0.874018 0.881746 0.878021
0.096295 0.096295 0.096307
0.127368 0.127362 0.127374
0.191500 0.191488 0.191500
0.309239 0.309921 0.309569
0.426695 0.431838 0.429256
0.552641 0.557809 0.555195
0.197824 0.197830 0.197836
0.228568 0.228568 0.228574
0.277488 0.277475 0.277485
0.374480 0.375628 0.375059
0.469568 0.476083 0.472808
0.578777 0.585452 0.582092
0.318681 0.318725 0.318710
0.356880 0.357326 0.357127
0.443592 0.444063 0.443836
0.514724 0.521077 0.517913
0.594897 0.602716 0.598805
0.690013 0.697816 0.693896
0.521051 0.528406 0.524741
0.537916 0.545195 0.541560
0.549705 0.557475 0.553582
0.582266 0.589768 0.586004
0.704738 0.712536 0.708619
0.805458 0.813320 0.809370
0.663952 0.671828 0.667899
0.665001 0.672900 0.668964
0.666034 0.673844 0.669938
0.680092 0.687958 0.684017
0.717489 0.725333 0.721401
0.816229 0.824054 0.820137
0.799972 0.807849 0.803903
0.798670 0.806535 0.802595
0.801477 0.809344 0.805417
0.806992 0.814845 0.810918
0.839064 0.846910 0.842979
0.886973 0.894806 0.890889
0.259289 0.259289 0.259308
0.283328 0.283322 0.283340
0.341735 0.342876 0.342325
0.409821 0.410165 0.410002
0.503476 0.509423 0.506470
0.630896 0.638690 0.634784
0.349566 0.349504 0.349552
0.364960 0.364999 0.365019
0.408517 0.408646 0.408588
0.461880 0.463212 0.462543
0.541932 0.549751 0.545833
0.647609 0.655400 0.651519
0.442770 0.447163 0.444957
0.474419 0.478934 0.476645
0.527954 0.535409 0.531723
0.561102 0.568911 0.565005
0.622001 0.629836 0.625919
0.684952 0.692791 0.688881
0.555153 0.563064 0.559123
0.570967 0.578593 0.574314
0.611490 0.619030 0.615267
0.664329 0.672174 0.668250
0.711514 0.719361 0.715434
0.769646 0.777489 0.773583
0.697622 0.705496 0.701572
0.704033 0.711886 0.707939
0.723117 0.730997 0.727057
0.736558 0.744402 0.740475
0.758154 0.766005 0.762078
0.855969 0.863813 0.859872
0.830480 0.838361 0.834424
0.833351 0.841205 0.837274
0.837036 0.844928 0.840985
0.840185 0.848015 0.844084
0.858530 0.866376 0.862438
0.901997 0.909839 0.905896
0.483107 0.488489 0.485848
0.498530 0.499106 0.498863
0.529352 0.532359 0.530849
0.574756 0.582505 0.578665
0.615879 0.623716 0.619797
0.675851 0.683735 0.679834
0.530611 0.536685 0.533626
0.537265 0.544680 0.541014
0.562842 0.570293 0.566587
0.601191 0.608982 0.605087
0.637306 0.645124 0.641220
0.691897 0.699573 0.695734
0.608596 0.615130 0.611877
0.617150 0.625032 0.621126
0.632181 0.640065 0.636151
0.657721 0.665566 0.661664
0.684392 0.692038 0.688228
0.730595 0.738454 0.734521
0.651456 0.659305 0.655378
0.659593 0.667437 0.663529
0.685524 0.693374 0.689463
0.723720 0.731590 0.727615
0.744628 0.752487 0.748571
0.788149 0.796001 0.792051
0.720712 0.728560 0.724638
0.726842 0.734694 0.730762
0.744614 0.752463 0.748541
0.776467 0.784313 0.780414
0.818331 0.826164 0.822248
0.864092 0.871928 0.868012
0.846255 0.854160 0.850224
0.851522 0.859370 0.855456
0.861274 0.869118 0.865198
0.882846 0.890731 0.886795
0.896221 0.904091 0.900138
0.933064 0.940904 0.936976
0.717293 0.725081 0.721211
0.721757 0.729645 0.725733
0.734600 0.742425 0.738507
0.754171 0.761993 0.758101
0.777363 0.785207 0.781265
0.795769 0.803553 0.799670
0.730295 0.738097 0.734216
0.735640 0.743509 0.739587
0.746239 0.754091 0.750174
0.763999 0.771874 0.767959
0.786460 0.794289 0.790380
0.803955 0.811789 0.807915
0.758227 0.766093 0.762193
0.762776 0.770618 0.766688
0.771364 0.779221 0.775326
0.786820 0.794636 0.790746
0.806286 0.814116 0.810202
0.822947 0.830765 0.826875
0.781019 0.788873 0.784967
0.787428 0.795306 0.791413
0.805139 0.813001 0.809093
0.819218 0.827056 0.823144
0.836947 0.844806 0.840888
0.856201 0.864070 0.860121
0.820784 0.828625 0.824739
0.821521 0.829407 0.825512
0.832847 0.840703 0.836770
0.850811 0.858628 0.854726
0.886248 0.894104 0.890151
0.909983 0.917826 0.913928
0.881986 0.889884 0.885992
0.886011 0.893860 0.889959
0.894800 0.902667 0.898757
0.914428 0.922281 0.918357
0.943065 0.950906 0.946961
0.991810 0.999606 0.995705
