example_ofxGpuLutCube/bin/data/ofxGpuLutCube/LUT/S10 (violet sunset sky tone).cube
LUT_3D_SIZE 16
0.000000 0.015312 0.045670
0.080722 0.015312 0.045670
0.157585 0.015312 0.045670
0.229813 0.015312 0.045670
0.297666 0.015312 0.045670
0.363451 0.015312 0.045670
0.425606 0.015312 0.045670
0.486356 0.015312 0.045670
0.545666 0.015312 0.045670
0.603737 0.015312 0.045670
0.661097 0.015312 0.045670
0.716250 0.015312 0.045670
0.771283 0.015312 0.045670
0.826642 0.015312 0.045670
0.879704 0.015312 0.045670
0.932129 0.015312 0.045670
0.000000 0.075797 0.045670
0.080722 0.075797 0.045670
0.157585 0.075797 0.045670
0.229813 0.075797 0.045670
0.297666 0.075797 0.045670
0.363451 0.075797 0.045670
0.425606 0.075797 0.045670
0.486356 0.075797 0.045670
0.545666 0.075797 0.045670
0.603737 0.075797 0.045670
0.661097 0.075797 0.045670
0.716250 0.075797 0.045670
0.771283 0.075797 0.045670
0.826642 0.075797 0.045670
0.879704 0.075797 0.045670
0.932129 0.075797 0.045670
0.000000 0.136270 0.045670
0.080722 0.136270 0.045670
0.157585 0.136270 0.045670
0.229813 0.136270 0.045670
0.297666 0.136270 0.045670
0.363451 0.136270 0.045670
0.425606 0.136270 0.045670
0.486356 0.136270 0.045670
0.545666 0.136270 0.045670
0.603737 0.136270 0.045670
0.661097 0.136270 0.045670
0.716250 0.136270 0.045670
0.771283 0.136270 0.045670
0.826642 0.136270 0.045670
0.879704 0.136270 0.045670
0.932129 0.136270 0.045670
0.000000 0.196754 0.045670
0.080722 0.196754 0.045670
0.157585 0.196754 0.045670
0.229813 0.196754 0.045670
0.297666 0.196754 0.045670
0.363451 0.196754 0.045670
0.425606 0.196754 0.045670
0.486356 0.196754 0.045670
0.545666 0.196754 0.045670
0.603737 0.196754 0.045670
0.661097 0.196754 0.045670
0.716250 0.196754 0.045670
0.771283 0.196754 0.045670
0.826642 0.196754 0.045670
0.879704 0.196754 0.045670
0.932129 0.196754 0.045670
0.000000 0.257201 0.045670
0.080722 0.257201 0.045670
0.157585 0.257201 0.045670
0.229813 0.257201 0.045670
0.297666 0.257201 0.045670
0.363451 0.257201 0.045670
0.425606 0.257201 0.045670
0.486356 0.257201 0.045670
0.545666 0.257201 0.045670
0.603737 0.257201 0.045670
0.661097 0.257201 0.045670
0.716250 0.257201 0.045670
0.771283 0.257201 0.045670
0.826642 0.257201 0.045670
0.879704 0.257201 0.045670
0.932129 0.257201 0.045670
0.000000 0.317651 0.045670
0.080722 0.317651 0.045670
0.157585 0.317651 0.045670
0.229813 0.317651 0.045670
0.297666 0.317651 0.045670
0.363451 0.317651 0.045670
0.425606 0.317651 0.045670
0.486356 0.317651 0.045670
0.545666 0.317651 0.045670
0.603737 0.317651 0.045670
0.661097 0.317651 0.045670
0.716250 0.317651 0.045670
0.771283 0.317651 0.045670
0.826642 0.317651 0.045670
0.879704 0.317651 0.045670
0.932129 0.317651 0.045670
0.000000 0.378145 0.045670
0.080722 0.378145 0.045670
0.157585 0.378145 0.045670
0.229813 0.378145 0.045670
0.297666 0.378145 0.045670
0.363451 0.378145 0.045670
0.425606 0.378145 0.045670
0.486356 0.378145 0.045670
0.545666 0.378145 0.045670
0.603737 0.378145 0.045670
0.661097 0.378145 0.045670
0.716250 0.378145 0.045670
0.771283 0.378145 0.045670
0.826642 0.378145 0.045670
0.879704 0.378145 0.045670
0.932129 0.378145 0.045670
0.000000 0.438566 0.045670
0.080722 0.438566 0.045670
0.157585 0.438566 0.045670
0.229813 0.438566 0.045670
0.297666 0.438566 0.045670
0.363451 0.438566 0.045670
0.425606 0.438566 0.045670
0.486356 0.438566 0.045670
0.545666 0.438566 0.045670
0.603737 0.438566 0.045670
0.661097 0.438566 0.045670
0.716250 0.438566 0.045670
0.771283 0.438566 0.045670
0.826642 0.438566 0.045670
0.879704 0.438566 0.045670
0.932129 0.438566 0.045670
0.000000 0.499034 0.045670
0.080722 0.499034 0.045670
0.157585 0.499034 0.045670
0.229813 0.499034 0.045670
0.297666 0.499034 0.045670
0.363451 0.499034 0.045670
0.425606 0.499034 0.045670
0.486356 0.499034 0.045670
0.545666 0.499034 0.045670
0.603737 0.499034 0.045670
0.661097 0.499034 0.045670
0.716250 0.499034 0.045670
0.771283 0.499034 0.045670
0.826642 0.499034 0.045670
0.879704 0.499034 0.045670
0.932129 0.499034 0.045670
0.000000 0.559528 0.045670
0.080722 0.559528 0.045670
0.157585 0.559528 0.045670
0.229813 0.559528 0.045670
0.297666 0.559528 0.045670
0.363451 0.559528 0.045670
0.425606 0.559528 0.045670
0.486356 0.559528 0.045670
0.545666 0.559528 0.045670
0.603737 0.559528 0.045670
0.661097 0.559528 0.045670
0.716250 0.559528 0.045670
0.771283 0.559528 0.045670
0.826642 0.559528 0.045670
0.879704 0.559528 0.045670
0.932129 0.559528 0.045670
0.000000 0.619968 0.045670
0.080722 0.619968 0.045670
0.157585 0.619968 0.045670
0.229813 0.619968 0.045670
0.297666 0.619968 0.045670
0.363451 0.619968 0.045670
0.425606 0.619968 0.045670
0.486356 0.619968 0.045670
0.545666 0.619968 0.045670
0.603737 0.619968 0.045670
0.661097 0.619968 0.045670
0.716250 0.619968 0.045670
0.771283 0.619968 0.045670
0.826642 0.619968 0.045670
0.879704 0.619968 0.045670
0.932129 0.619968 0.045670
0.000000 0.680449 0.045670
0.080722 0.680449 0.045670
0.157585 0.680449 0.045670
0.229813 0.680449 0.045670
0.297666 0.680449 0.045670
0.363451 0.680449 0.045670
0.425606 0.680449 0.045670
0.486356 0.680449 0.045670
0.545666 0.680449 0.045670
0.603737 0.680449 0.045670
0.661097 0.680449 0.045670
0.716250 0.680449 0.045670
0.771283 0.680449 0.045670
0.826642 0.680449 0.045670
0.879704 0.680449 0.045670
0.932129 0.680449 0.045670
0.000000 0.740888 0.045670
0.080722 0.740888 0.045670
0.157585 0.740888 0.045670
0.229813 0.740888 0.045670
0.297666 0.740888 0.045670
0.363451 0.740888 0.045670
0.425606 0.740888 0.045670
0.486356 0.740888 0.045670
0.545666 0.740888 0.045670
0.603737 0.740888 0.045670
0.661097 0.740888 0.045670
0.716250 0.740888 0.045670
0.771283 0.740888 0.045670
0.826642 0.740888 0.045670
0.879704 0.740888 0.045670
0.932129 0.740888 0.045670
0.000000 0.801493 0.045670
0.080722 0.801493 0.045670
0.157585 0.801493 0.045670
0.229813 0.801493 0.045670
0.297666 0.801493 0.045670
0.363451 0.801493 0.045670
0.425606 0.801493 0.045670
0.486356 0.801493 0.045670
0.545666 0.801493 0.045670
0.603737 0.801493 0.045670
0.661097 0.801493 0.045670
0.716250 0.801493 0.045670
0.771283 0.801493 0.045670
0.826642 0.801493 0.045670
0.879704 0.801493 0.045670
0.932129 0.801493 0.045670
0.000000 0.861755 0.045670
0.080722 0.861755 0.045670
0.157585 0.861755 0.045670
0.229813 0.861755 0.045670
0.297666 0.861755 0.045670
0.363451 0.861755 0.045670
0.425606 0.861755 0.045670
0.486356 0.861755 0.045670
0.545666 0.861755 0.045670
0.603737 0.861755 0.045670
0.661097 0.861755 0.045670
0.716250 0.861755 0.045670
0.771283 0.861755 0.045670
0.826642 0.861755 0.045670
0.879704 0.861755 0.045670
0.932129 0.861755 0.045670
0.000000 0.921641 0.045670
0.080722 0.921641 0.045670
0.157585 0.921641 0.045670
0.229813 0.921641 0.045670
0.297666 0.921641 0.045670
0.363451 0.921641 0.045670
0.425606 0.921641 0.045670
0.486356 0.921641 0.045670
0.545666 0.921641 0.045670
0.603737 0.921641 0.045670
0.661097 0.921641 0.045670
0.716250 0.921641 0.045670
0.771283 0.921641 0.045670
0.826642 0.921641 0.045670
0.879704 0.921641 0.045670
0.932129 0.921641 0.045670
0.000000 0.015312 0.132856
0.080722 0.015312 0.132856
0.157585 0.015312 0.132856
0.229813 0.015312 0.132856
0.297666 0.015312 0.132856
0.363451 0.015312 0.132856
0.425606 0.015312 0.132856
0.486356 0.015312 0.132856
0.545666 0.015312 0.132856
0.603737 0.015312 0.132856
0.661097 0.015312 0.132856
0.716250 0.015312 0.132856
0.771283 0.015312 0.132856
0.826642 0.015312 0.132856
0.879704 0.015312 0.132856
0.932129 0.015312 0.132856
0.000000 0.075797 0.132856
0.080722 0.075797 0.132856
0.157585 0.075797 0.132856
0.229813 0.075797 0.132856
0.297666 0.075797 0.132856
0.363451 0.075797 0.132856
0.425606 0.075797 0.132856
0.486356 0.075797 0.132856
0.545666 0.075797 0.132856
0.603737 0.075797 0.132856
0.661097 0.075797 0.132856
0.716250 0.075797 0.132856
0.771283 0.075797 0.132856
0.826642 0.075797 0.132856
0.879704 0.075797 0.132856
0.932129 0.075797 0.132856
0.000000 0.136270 0.132856
0.080722 0.136270 0.132856
0.157585 0.136270 0.132856
0.229813 0.136270 0.132856
0.297666 0.136270 0.132856
0.363451 0.136270 0.132856
0.425606 0.136270 0.132856
0.486356 0.136270 0.132856
0.545666 0.136270 0.132856
0.603737 0.136270 0.132856
0.661097 0.136270 0.132856
0.716250 0.136270 0.132856
0.771283 0.136270 0.132856
0.826642 0.136270 0.132856
0.879704 0.136270 0.132856
0.932129 0.136270 0.132856
0.000000 0.196754 0.132856
0.080722 0.196754 0.132856
0.157585 0.196754 0.132856
0.229813 0.196754 0.132856
0.297666 0.196754 0.132856
0.363451 0.196754 0.132856
0.425606 0.196754 0.132856
0.486356 0.196754 0.132856
0.545666 0.196754 0.132856
0.603737 0.196754 0.132856
0.661097 0.196754 0.132856
0.716250 0.196754 0.132856
0.771283 0.196754 0.132856
0.826642 0.196754 0.132856
0.879704 0.196754 0.132856
0.932129 0.196754 0.132856
0.000000 0.257201 0.132856
0.080722 0.257201 0.132856
0.157585 0.257201 0.132856
0.229813 0.257201 0.132856
0.297666 0.257201 0.132856
0.363451 0.257201 0.132856
0.425606 0.257201 0.132856
0.486356 0.257201 0.132856
0.545666 0.257201 0.132856
0.603737 0.257201 0.132856
0.661097 0.257201 0.132856
0.716250 0.257201 0.132856
0.771283 0.257201 0.132856
0.826642 0.257201 0.132856
0.879704 0.257201 0.132856
0.932129 0.257201 0.132856
0.000000 0.317651 0.132856
0.080722 0.317651 0.132856
0.157585 0.317651 0.132856
0.229813 0.317651 0.132856
0.297666 0.317651 0.132856
0.363451 0.317651 0.132856
0.425606 0.317651 0.132856
0.486356 0.317651 0.132856
0.545666 0.317651 0.132856
0.603737 0.317651 0.132856
0.661097 0.317651 0.132856
0.716250 0.317651 0.132856
0.771283 0.317651 0.132856
0.826642 0.317651 0.132856
0.879704 0.317651 0.132856
0.932129 0.317651 0.132856
0.000000 0.378145 0.132856
0.080722 0.378145 0.132856
0.157585 0.378145 0.132856
0.229813 0.378145 0.132856
0.297666 0.378145 0.132856
0.363451 0.378145 0.132856
0.425606 0.378145 0.132856
0.486356 0.378145 0.132856
0.545666 0.378145 0.132856
0.603737 0.378145 0.132856
0.661097 0.378145 0.132856
0.716250 0.378145 0.132856
0.771283 0.378145 0.132856
0.826642 0.378145 0.132856
0.879704 0.378145 0.132856
0.932129 0.378145 0.132856
0.000000 0.438566 0.132856
0.080722 0.438566 0.132856
0.157585 0.438566 0.132856
0.229813 0.438566 0.132856
0.297666 0.438566 0.132856
0.363451 0.438566 0.132856
0.425606 0.438566 0.132856
0.486356 0.438566 0.132856
0.545666 0.438566 0.132856
0.603737 0.438566 0.132856
0.661097 0.438566 0.132856
0.716250 0.438566 0.132856
0.771283 0.438566 0.132856
0.826642 0.438566 0.132856
0.879704 0.438566 0.132856
0.932129 0.438566 0.132856
0.000000 0.499034 0.132856
0.080722 0.499034 0.132856
0.157585 0.499034 0.132856
0.229813 0.499034 0.132856
0.297666 0.499034 0.132856
0.363451 0.499034 0.132856
0.425606 0.499034 0.132856
0.486356 0.499034 0.132856
0.545666 0.499034 0.132856
0.603737 0.499034 0.132856
0.661097 0.499034 0.132856
0.716250 0.499034 0.132856
0.771283 0.499034 0.132856
0.826642 0.499034 0.132856
0.879704 0.499034 0.132856
0.932129 0.499034 0.132856
0.000000 0.559528 0.132856
0.080722 0.559528 0.132856
0.157585 0.559528 0.132856
0.229813 0.559528 0.132856
0.297666 0.559528 0.132856
0.363451 0.559528 0.132856
0.425606 0.559528 0.132856
0.486356 0.559528 0.132856
0.545666 0.559528 0.132856
0.603737 0.559528 0.132856
0.661097 0.559528 0.132856
0.716250 0.559528 0.132856
0.771283 0.559528 0.132856
0.826642 0.559528 0.132856
0.879704 0.559528 0.132856
0.932129 0.559528 0.132856
0.000000 0.619968 0.132856
0.080722 0.619968 0.132856
0.157585 0.619968 0.132856
0.229813 0.619968 0.132856
0.297666 0.619968 0.132856
0.363451 0.619968 0.132856
0.425606 0.619968 0.132856
0.486356 0.619968 0.132856
0.545666 0.619968 0.132856
0.603737 0.619968 0.132856
0.661097 0.619968 0.132856
0.716250 0.619968 0.132856
0.771283 0.619968 0.132856
0.826642 0.619968 0.132856
0.879704 0.619968 0.132856
0.932129 0.619968 0.132856
0.000000 0.680449 0.132856
0.080722 0.680449 0.132856
0.157585 0.680449 0.132856
0.229813 0.680449 0.132856
0.297666 0.680449 0.132856
0.363451 0.680449 0.132856
0.425606 0.680449 0.132856
0.486356 0.680449 0.132856
0.545666 0.680449 0.132856
0.603737 0.680449 0.132856
0.661097 0.680449 0.132856
0.716250 0.680449 0.132856
0.771283 0.680449 0.132856
0.826642 0.680449 0.132856
0.879704 0.680449 0.132856
0.932129 0.680449 0.132856
0.000000 0.740888 0.132856
0.080722 0.740888 0.132856
0.157585 0.740888 0.132856
0.229813 0.740888 0.132856
0.297666 0.740888 0.132856
0.363451 0.740888 0.132856
0.425606 0.740888 0.132856
0.486356 0.740888 0.132856
0.545666 0.740888 0.132856
0.603737 0.740888 0.132856
0.661097 0.740888 0.132856
0.716250 0.740888 0.132856
0.771283 0.740888 0.132856
0.826642 0.740888 0.132856
0.879704 0.740888 0.132856
0.932129 0.740888 0.132856
0.000000 0.801493 0.132856
0.080722 0.801493 0.132856
0.157585 0.801493 0.132856
0.229813 0.801493 0.132856
0.297666 0.801493 0.132856
0.363451 0.801493 0.132856
0.425606 0.801493 0.132856
0.486356 0.801493 0.132856
0.545666 0.801493 0.132856
0.603737 0.801493 0.132856
0.661097 0.801493 0.132856
0.716250 0.801493 0.132856
0.771283 0.801493 0.132856
0.826642 0.801493 0.132856
0.879704 0.801493 0.132856
0.932129 0.801493 0.132856
0.000000 0.861755 0.132856
0.080722 0.861755 0.132856
0.157585 0.861755 0.132856
0.229813 0.861755 0.132856
0.297666 0.861755 0.132856
0.363451 0.861755 0.132856
0.425606 0.861755 0.132856
0.486356 0.861755 0.132856
0.545666 0.861755 0.132856
0.603737 0.861755 0.132856
0.661097 0.861755 0.132856
0.716250 0.861755 0.132856
0.771283 0.861755 0.132856
0.826642 0.861755 0.132856
0.879704 0.861755 0.132856
0.932129 0.861755 0.132856
0.000000 0.921641 0.132856
0.080722 0.921641 0.132856
0.157585 0.921641 0.132856
0.229813 0.921641 0.132856
0.297666 0.921641 0.132856
0.363451 0.921641 0.132856
0.425606 0.921641 0.132856
0.486356 0.921641 0.132856
0.545666 0.921641 0.132856
0.603737 0.921641 0.132856
0.661097 0.921641 0.132856
0.716250 0.921641 0.132856
0.771283 0.921641 0.132856
0.826642 0.921641 0.132856
0.879704 0.921641 0.132856
0.932129 0.921641 0.132856
0.000000 0.015312 0.206619
0.080722 0.015312 0.206619
0.157585 0.015312 0.206619
0.229813 0.015312 0.206619
0.297666 0.015312 0.206619
0.363451 0.015312 0.206619
0.425606 0.015312 0.206619
0.486356 0.015312 0.206619
0.545666 0.015312 0.206619
0.603737 0.015312 0.206619
0.661097 0.015312 0.206619
0.716250 0.015312 0.206619
0.771283 0.015312 0.206619
0.826642 0.015312 0.206619
0.879704 0.015312 0.206619
0.932129 0.015312 0.206619
0.000000 0.075797 0.206619
0.080722 0.075797 0.206619
0.157585 0.075797 0.206619
0.229813 0.075797 0.206619
0.297666 0.075797 0.206619
0.363451 0.075797 0.206619
0.425606 0.075797 0.206619
0.486356 0.075797 0.206619
0.545666 0.075797 0.206619
0.603737 0.075797 0.206619
0.661097 0.075797 0.206619
0.716250 0.075797 0.206619
0.771283 0.075797 0.206619
0.826642 0.075797 0.206619
0.879704 0.075797 0.206619
0.932129 0.075797 0.206619
0.000000 0.136270 0.206619
0.080722 0.136270 0.206619
0.157585 0.136270 0.206619
0.229813 0.136270 0.206619
0.297666 0.136270 0.206619
0.363451 0.136270 0.206619
0.425606 0.136270 0.206619
0.486356 0.136270 0.206619
0.545666 0.136270 0.206619
0.603737 0.136270 0.206619
0.661097 0.136270 0.206619
0.716250 0.136270 0.206619
0.771283 0.136270 0.206619
0.826642 0.136270 0.206619
0.879704 0.136270 0.206619
0.932129 0.136270 0.206619
0.000000 0.196754 0.206619
0.080722 0.196754 0.206619
0.157585 0.196754 0.206619
0.229813 0.196754 0.206619
0.297666 0.196754 0.206619
0.363451 0.196754 0.206619
0.425606 0.196754 0.206619
0.486356 0.196754 0.206619
0.545666 0.196754 0.206619
0.603737 0.196754 0.206619
0.661097 0.196754 0.206619
0.716250 0.196754 0.206619
0.771283 0.196754 0.206619
0.826642 0.196754 0.206619
0.879704 0.196754 0.206619
0.932129 0.196754 0.206619
0.000000 0.257201 0.206619
0.080722 0.257201 0.206619
0.157585 0.257201 0.206619
0.229813 0.257201 0.206619
0.297666 0.257201 0.206619
0.363451 0.257201 0.206619
0.425606 0.257201 0.206619
0.486356 0.257201 0.206619
0.545666 0.257201 0.206619
0.603737 0.257201 0.206619
0.661097 0.257201 0.206619
0.716250 0.257201 0.206619
0.771283 0.257201 0.206619
0.826642 0.257201 0.206619
0.879704 0.257201 0.206619
0.932129 0.257201 0.206619
0.000000 0.317651 0.206619
0.080722 0.317651 0.206619
0.157585 0.317651 0.206619
0.229813 0.317651 0.206619
0.297666 0.317651 0.206619
0.363451 0.317651 0.206619
0.425606 0.317651 0.206619
0.486356 0.317651 0.206619
0.545666 0.317651 0.206619
0.603737 0.317651 0.206619
0.661097 0.317651 0.206619
0.716250 0.317651 0.206619
0.771283 0.317651 0.206619
0.826642 0.317651 0.206619
0.879704 0.317651 0.206619
0.932129 0.317651 0.206619
0.000000 0.378145 0.206619
0.080722 0.378145 0.206619
0.157585 0.378145 0.206619
0.229813 0.378145 0.206619
0.297666 0.378145 0.206619
0.363451 0.378145 0.206619
0.425606 0.378145 0.206619
0.486356 0.378145 0.206619
0.545666 0.378145 0.206619
0.603737 0.378145 0.206619
0.661097 0.378145 0.206619
0.716250 0.378145 0.206619
0.771283 0.378145 0.206619
0.826642 0.378145 0.206619
0.879704 0.378145 0.206619
0.932129 0.378145 0.206619
0.000000 0.438566 0.206619
0.080722 0.438566 0.206619
0.157585 0.438566 0.206619
0.229813 0.438566 0.206619
0.297666 0.438566 0.206619
0.363451 0.438566 0.206619
0.425606 0.438566 0.206619
0.486356 0.438566 0.206619
0.545666 0.438566 0.206619
0.603737 0.438566 0.206619
0.661097 0.438566 0.206619
0.716250 0.438566 0.206619
0.771283 0.438566 0.206619
0.826642 0.438566 0.206619
0.879704 0.438566 0.206619
0.932129 0.438566 0.206619
0.000000 0.499034 0.206619
0.080722 0.499034 0.206619
0.157585 0.499034 0.206619
0.229813 0.499034 0.206619
0.297666 0.499034 0.206619
0.363451 0.499034 0.206619
0.425606 0.499034 0.206619
0.486356 0.499034 0.206619
0.545666 0.499034 0.206619
0.603737 0.499034 0.206619
0.661097 0.499034 0.206619
0.716250 0.499034 0.206619
0.771283 0.499034 0.206619
0.826642 0.499034 0.206619
0.879704 0.499034 0.206619
0.932129 0.499034 0.206619
0.000000 0.559528 0.206619
0.080722 0.559528 0.206619
0.157585 0.559528 0.206619
0.229813 0.559528 0.206619
0.297666 0.559528 0.206619
0.363451 0.559528 0.206619
0.425606 0.559528 0.206619
0.486356 0.559528 0.206619
0.545666 0.559528 0.206619
0.603737 0.559528 0.206619
0.661097 0.559528 0.206619
0.716250 0.559528 0.206619
0.771283 0.559528 0.206619
0.826642 0.559528 0.206619
0.879704 0.559528 0.206619
0.932129 0.559528 0.206619
0.000000 0.619968 0.206619
0.080722 0.619968 0.206619
0.157585 0.619968 0.206619
0.229813 0.619968 0.206619
0.297666 0.619968 0.206619
0.363451 0.619968 0.206619
0.425606 0.619968 0.206619
0.486356 0.619968 0.206619
0.545666 0.619968 0.206619
0.603737 0.619968 0.206619
0.661097 0.619968 0.206619
0.716250 0.619968 0.206619
0.771283 0.619968 0.206619
0.826642 0.619968 0.206619
0.879704 0.619968 0.206619
0.932129 0.619968 0.206619
0.000000 0.680449 0.206619
0.080722 0.680449 0.206619
0.157585 0.680449 0.206619
0.229813 0.680449 0.206619
0.297666 0.680449 0.206619
0.363451 0.680449 0.206619
0.425606 0.680449 0.206619
0.486356 0.680449 0.206619
0.545666 0.680449 0.206619
0.603737 0.680449 0.206619
0.661097 0.680449 0.206619
0.716250 0.680449 0.206619
0.771283 0.680449 0.206619
0.826642 0.680449 0.206619
0.879704 0.680449 0.206619
0.932129 0.680449 0.206619
0.000000 0.740888 0.206619
0.080722 0.740888 0.206619
0.157585 0.740888 0.206619
0.229813 0.740888 0.206619
0.297666 0.740888 0.206619
0.363451 0.740888 0.206619
0.425606 0.740888 0.206619
0.486356 0.740888 0.206619
0.545666 0.740888 0.206619
0.603737 0.740888 0.206619
0.661097 0.740888 0.206619
0.716250 0.740888 0.206619
0.771283 0.740888 0.206619
0.826642 0.740888 0.206619
0.879704 0.740888 0.206619
0.932129 0.740888 0.206619
0.000000 0.801493 0.206619
0.080722 0.801493 0.206619
0.157585 0.801493 0.206619
0.229813 0.801493 0.206619
0.297666 0.801493 0.206619
0.363451 0.801493 0.206619
0.425606 0.801493 0.206619
0.486356 0.801493 0.206619
0.545666 0.801493 0.206619
0.603737 0.801493 0.206619
0.661097 0.801493 0.206619
0.716250 0.801493 0.206619
0.771283 0.801493 0.206619
0.826642 0.801493 0.206619
0.879704 0.801493 0.206619
0.932129 0.801493 0.206619
0.000000 0.861755 0.206619
0.080722 0.861755 0.206619
0.157585 0.861755 0.206619
0.229813 0.861755 0.206619
0.297666 0.861755 0.206619
0.363451 0.861755 0.206619
0.425606 0.861755 0.206619
0.486356 0.861755 0.206619
0.545666 0.861755 0.206619
0.603737 0.861755 0.206619
0.661097 0.861755 0.206619
0.716250 0.861755 0.206619
0.771283 0.861755 0.206619
0.826642 0.861755 0.206619
0.879704 0.861755 0.206619
0.932129 0.861755 0.206619
0.000000 0.921641 0.206619
0.080722 0.921641 0.206619
0.157585 0.921641 0.206619
0.229813 0.921641 0.206619
0.297666 0.921641 0.206619
0.363451 0.921641 0.206619
0.425606 0.921641 0.206619
0.486356 0.921641 0.206619
0.545666 0.921641 0.206619
0.603737 0.921641 0.206619
0.661097 0.921641 0.206619
0.716250 0.921641 0.206619
0.771283 0.921641 0.206619
0.826642 0.921641 0.206619
0.879704 0.921641 0.206619
0.932129 0.921641 0.206619
0.000000 0.015312 0.274169
0.080722 0.015312 0.274169
0.157585 0.015312 0.274169
0.229813 0.015312 0.274169
0.297666 0.015312 0.274169
0.363451 0.015312 0.274169
0.425606 0.015312 0.274169
0.486356 0.015312 0.274169
0.545666 0.015312 0.274169
0.603737 0.015312 0.274169
0.661097 0.015312 0.274169
0.716250 0.015312 0.274169
0.771283 0.015312 0.274169
0.826642 0.015312 0.274169
0.879704 0.015312 0.274169
0.932129 0.015312 0.274169
0.000000 0.075797 0.274169
0.080722 0.075797 0.274169
0.157585 0.075797 0.274169
0.229813 0.075797 0.274169
0.297666 0.075797 0.274169
0.363451 0.075797 0.274169
0.425606 0.075797 0.274169
0.486356 0.075797 0.274169
0.545666 0.075797 0.274169
0.603737 0.075797 0.274169
0.661097 0.075797 0.274169
0.716250 0.075797 0.274169
0.771283 0.075797 0.274169
0.826642 0.075797 0.274169
0.879704 0.075797 0.274169
0.932129 0.075797 0.274169
0.000000 0.136270 0.274169
0.080722 0.136270 0.274169
0.157585 0.136270 0.274169
0.229813 0.136270 0.274169
0.297666 0.136270 0.274169
0.363451 0.136270 0.274169
0.425606 0.136270 0.274169
0.486356 0.136270 0.274169
0.545666 0.136270 0.274169
0.603737 0.136270 0.274169
0.661097 0.136270 0.274169
0.716250 0.136270 0.274169
0.771283 0.136270 0.274169
0.826642 0.136270 0.274169
0.879704 0.136270 0.274169
0.932129 0.136270 0.274169
0.000000 0.196754 0.274169
0.080722 0.196754 0.274169
0.157585 0.196754 0.274169
0.229813 0.196754 0.274169
0.297666 0.196754 0.274169
0.363451 0.196754 0.274169
0.425606 0.196754 0.274169
0.486356 0.196754 0.274169
0.545666 0.196754 0.274169
0.603737 0.196754 0.274169
0.661097 0.196754 0.274169
0.716250 0.196754 0.274169
0.771283 0.196754 0.274169
0.826642 0.196754 0.274169
0.879704 0.196754 0.274169
0.932129 0.196754 0.274169
0.000000 0.257201 0.274169
0.080722 0.257201 0.274169
0.157585 0.257201 0.274169
0.229813 0.257201 0.274169
0.297666 0.257201 0.274169
0.363451 0.257201 0.274169
0.425606 0.257201 0.274169
0.486356 0.257201 0.274169
0.545666 0.257201 0.274169
0.603737 0.257201 0.274169
0.661097 0.257201 0.274169
0.716250 0.257201 0.274169
0.771283 0.257201 0.274169
0.826642 0.257201 0.274169
0.879704 0.257201 0.274169
0.932129 0.257201 0.274169
0.000000 0.317651 0.274169
0.080722 0.317651 0.274169
0.157585 0.317651 0.274169
0.229813 0.317651 0.274169
0.297666 0.317651 0.274169
0.363451 0.317651 0.274169
0.425606 0.317651 0.274169
0.486356 0.317651 0.274169
0.545666 0.317651 0.274169
0.603737 0.317651 0.274169
0.661097 0.317651 0.274169
0.716250 0.317651 0.274169
0.771283 0.317651 0.274169
0.826642 0.317651 0.274169
0.879704 0.317651 0.274169
0.932129 0.317651 0.274169
0.000000 0.378145 0.274169
0.080722 0.378145 0.274169
0.157585 0.378145 0.274169
0.229813 0.378145 0.274169
0.297666 0.378145 0.274169
0.363451 0.378145 0.274169
0.425606 0.378145 0.274169
0.486356 0.378145 0.274169
0.545666 0.378145 0.274169
0.603737 0.378145 0.274169
0.661097 0.378145 0.274169
0.716250 0.378145 0.274169
0.771283 0.378145 0.274169
0.826642 0.378145 0.274169
0.879704 0.378145 0.274169
0.932129 0.378145 0.274169
0.000000 0.438566 0.274169
0.080722 0.438566 0.274169
0.157585 0.438566 0.274169
0.229813 0.438566 0.274169
0.297666 0.438566 0.274169
0.363451 0.438566 0.274169
0.425606 0.438566 0.274169
0.486356 0.438566 0.274169
