example_ofxGpuLutCube/bin/data/ofxGpuLutCube/LUT/S10 (violet sunset sky tone).cube
LUT_3D_SIZE 6
0.000000 0.015312 0.045670
0.229813 0.015312 0.045670
0.425606 0.015312 0.045670
0.603737 0.015312 0.045670
0.771283 0.015312 0.045670
0.932129 0.015312 0.045670
0.000000 0.196754 0.045670
0.229813 0.196754 0.045670
0.425606 0.196754 0.045670
0.603737 0.196754 0.045670
0.771283 0.196754 0.045670
0.932129 0.196754 0.045670
0.000000 0.378145 0.045670
0.229813 0.378145 0.045670
0.425606 0.378145 0.045670
0.603737 0.378145 0.045670
0.771283 0.378145 0.045670
0.932129 0.378145 0.045670
0.000000 0.559528 0.045670
0.229813 0.559528 0.045670
0.425606 0.559528 0.045670
0.603737 0.559528 0.045670
0.771283 0.559528 0.045670
0.932129 0.559528 0.045670
0.000000 0.740888 0.045670
0.229813 0.740888 0.045670
0.425606 0.740888 0.045670
0.603737 0.740888 0.045670
0.771283 0.740888 0.045670
0.932129 0.740888 0.045670
0.000000 0.921641 0.045670
0.229813 0.921641 0.045670
0.425606 0.921641 0.045670
0.603737 0.921641 0.045670
0.771283 0.921641 0.045670
0.932129 0.921641 0.045670
0.000000 0.015312 0.274169
0.229813 0.015312 0.274169
0.425606 0.015312 0.274169
0.603737 0.015312 0.274169
0.771283 0.015312 0.274169
0.932129 0.015312 0.274169
0.000000 0.196754 0.274169
0.229813 0.196754 0.274169
0.425606 0.196754 0.274169
0.603737 0.196754 0.274169
0.771283 0.196754 0.274169
0.932129 0.196754 0.274169
0.000000 0.378145 0.274169
0.229813 0.378145 0.274169
0.425606 0.378145 0.274169
0.603737 0.378145 0.274169
0.771283 0.378145 0.274169
0.932129 0.378145 0.274169
0.000000 0.559528 0.274169
0.229813 0.559528 0.274169
0.425606 0.559528 0.274169
0.603737 0.559528 0.274169
0.771283 0.559528 0.274169
0.932129 0.559528 0.274169
0.000000 0.740888 0.274169
0.229813 0.740888 0.274169
0.425606 0.740888 0.274169
0.603737 0.740888 0.274169
0.771283 0.740888 0.274169
0.932129 0.740888 0.274169
0.000000 0.921641 0.274169
0.229813 0.921641 0.274169
0.425606 0.921641 0.274169
0.603737 0.921641 0.274169
0.771283 0.921641 0.274169
0.932129 0.921641 0.274169
0.000000 0.015312 0.456876
0.229813 0.015312 0.456876
0.425606 0.015312 0.456876
0.603737 0.015312 0.456876
0.771283 0.015312 0.456876
0.932129 0.015312 0.456876
0.000000 0.196754 0.456876
0.229813 0.196754 0.456876
0.425606 0.196754 0.456876
0.603737 0.196754 0.456876
0.771283 0.196754 0.456876
0.932129 0.196754 0.456876
0.000000 0.378145 0.456876
0.229813 0.378145 0.456876
0.425606 0.378145 0.456876
0.603737 0.378145 0.456876
0.771283 0.378145 0.456876
0.932129 0.378145 0.456876
0.000000 0.559528 0.456876
0.229813 0.559528 0.456876
0.425606 0.559528 0.456876
0.603737 0.559528 0.456876
0.771283 0.559528 0.456876
0.932129 0.559528 0.456876
0.000000 0.740888 0.456876
0.229813 0.740888 0.456876
0.425606 0.740888 0.456876
0.603737 0.740888 0.456876
0.771283 0.740888 0.456876
0.932129 0.740888 0.456876
0.000000 0.921641 0.456876
0.229813 0.921641 0.456876
0.425606 0.921641 0.456876
0.603737 0.921641 0.456876
0.771283 0.921641 0.456876
0.932129 0.921641 0.456876
0.000000 0.015312 0.622438
0.229813 0.015312 0.622438
0.425606 0.015312 0.622438
0.603737 0.015312 0.622438
0.771283 0.015312 0.622438
0.932129 0.015312 0.622438
0.000000 0.196754 0.622438
0.229813 0.196754 0.622438
0.425606 0.196754 0.622438
0.603737 0.196754 0.622438
0.771283 0.196754 0.622438
0.932129 0.196754 0.622438
0.000000 0.378145 0.622438
0.229813 0.378145 0.622438
0.425606 0.378145 0.622438
0.603737 0.378145 0.622438
0.771283 0.378145 0.622438
0.932129 0.378145 0.622438
0.000000 0.559528 0.622438
0.229813 0.559528 0.622438
0.425606 0.559528 0.622438
0.603737 0.559528 0.622438
0.771283 0.559528 0.622438
0.932129 0.559528 0.622438
0.000000 0.740888 0.622438
0.229813 0.740888 0.622438
0.425606 0.740888 0.622438
0.603737 0.740888 0.622438
0.771283 0.740888 0.622438
0.932129 0.740888 0.622438
0.000000 0.921641 0.622438
0.229813 0.921641 0.622438
0.425606 0.921641 0.622438
0.603737 0.921641 0.622438
0.771283 0.921641 0.622438
0.932129 0.921641 0.622438
0.000000 0.015312 0.777445
0.229813 0.015312 0.777445
0.425606 0.015312 0.777445
0.603737 0.015312 0.777445
0.771283 0.015312 0.777445
0.932129 0.015312 0.777445
0.000000 0.196754 0.777445
0.229813 0.196754 0.777445
0.425606 0.196754 0.777445
0.603737 0.196754 0.777445
0.771283 0.196754 0.777445
0.932129 0.196754 0.777445
0.000000 0.378145 0.777445
0.229813 0.378145 0.777445
0.425606 0.378145 0.777445
0.603737 0.378145 0.777445
0.771283 0.378145 0.777445
0.932129 0.378145 0.777445
0.000000 0.559528 0.777445
0.229813 0.559528 0.777445
0.425606 0.559528 0.777445
0.603737 0.559528 0.777445
0.771283 0.559528 0.777445
0.932129 0.559528 0.777445
0.000000 0.740888 0.777445
0.229813 0.740888 0.777445
0.425606 0.740888 0.777445
0.603737 0.740888 0.777445
0.771283 0.740888 0.777445
0.932129 0.740888 0.777445
0.000000 0.921641 0.777445
0.229813 0.921641 0.777445
0.425606 0.921641 0.777445
0.603737 0.921641 0.777445
0.771283 0.921641 0.777445
0.932129 0.921641 0.777445
0.000000 0.015312 0.924599
0.229813 0.015312 0.924599
0.425606 0.015312 0.924599
0.603737 0.015312 0.924599
0.771283 0.015312 0.924599
0.932129 0.015312 0.924599
0.000000 0.196754 0.924599
0.229813 0.196754 0.924599
0.425606 0.196754 0.924599
0.603737 0.196754 0.924599
0.771283 0.196754 0.924599
0.932129 0.196754 0.924599
0.000000 0.378145 0.924599
0.229813 0.378145 0.924599
0.425606 0.378145 0.924599
0.603737 0.378145 0.924599
0.771283 0.378145 0.924599
0.932129 0.378145 0.924599
0.000000 0.559528 0.924599
0.229813 0.559528 0.924599
0.425606 0.559528 0.924599
0.603737 0.559528 0.924599
0.771283 0.559528 0.924599
0.932129 0.559528 0.924599
0.000000 0.740888 0.924599
0.229813 0.740888 0.924599
0.425606 0.740888 0.924599
0.603737 0.740888 0.924599
0.771283 0.740888 0.924599
0.932129 0.740888 0.924599
0.000000 0.921641 0.924599
0.229813 0.921641 0.924599
0.425606 0.921641 0.924599
0.603737 0.921641 0.924599
0.771283 0.921641 0.924599
0.932129 0.921641 0.924599
