example_ofxGpuLutCube/bin/data/ofxGpuLutCube/LUT/S11 (blue tone).cube
LUT_3D_SIZE 6
-0.007700 -0.007700 0.051900
0.032660 -0.007700 0.051900
0.215340 -0.007700 0.051900
0.540080 -0.007700 0.051900
0.834760 -0.007700 0.051900
0.999777 -0.007700 0.051900
-0.007700 0.132060 0.051900
0.032660 0.132060 0.051900
0.215340 0.132060 0.051900
0.540080 0.132060 0.051900
0.834760 0.132060 0.051900
0.999777 0.132060 0.051900
-0.007700 0.333480 0.051900
0.032660 0.333480 0.051900
0.215340 0.333480 0.051900
0.540080 0.333480 0.051900
0.834760 0.333480 0.051900
0.999777 0.333480 0.051900
-0.007700 0.575000 0.051900
0.032660 0.575000 0.051900
0.215340 0.575000 0.051900
0.540080 0.575000 0.051900
0.834760 0.575000 0.051900
0.999777 0.575000 0.051900
-0.007700 0.805100 0.051900
0.032660 0.805100 0.051900
0.215340 0.805100 0.051900
0.540080 0.805100 0.051900
0.834760 0.805100 0.051900
0.999777 0.805100 0.051900
-0.007700 0.999696 0.051900
0.032660 0.999696 0.051900
0.215340 0.999696 0.051900
0.540080 0.999696 0.051900
0.834760 0.999696 0.051900
0.999777 0.999696 0.051900
-0.007700 -0.007700 0.199500
0.032660 -0.007700 0.199500
0.215340 -0.007700 0.199500
0.540080 -0.007700 0.199500
0.834760 -0.007700 0.199500
0.999777 -0.007700 0.199500
-0.007700 0.132060 0.199500
0.032660 0.132060 0.199500
0.215340 0.132060 0.199500
0.540080 0.132060 0.199500
0.834760 0.132060 0.199500
0.999777 0.132060 0.199500
-0.007700 0.333480 0.199500
0.032660 0.333480 0.199500
0.215340 0.333480 0.199500
0.540080 0.333480 0.199500
0.834760 0.333480 0.199500
0.999777 0.333480 0.199500
-0.007700 0.575000 0.199500
0.032660 0.575000 0.199500
0.215340 0.575000 0.199500
0.540080 0.575000 0.199500
0.834760 0.575000 0.199500
0.999777 0.575000 0.199500
-0.007700 0.805100 0.199500
0.032660 0.805100 0.199500
0.215340 0.805100 0.199500
0.540080 0.805100 0.199500
0.834760 0.805100 0.199500
0.999777 0.805100 0.199500
-0.007700 0.999696 0.199500
0.032660 0.999696 0.199500
0.215340 0.999696 0.199500
0.540080 0.999696 0.199500
0.834760 0.999696 0.199500
0.999777 0.999696 0.199500
-0.007700 -0.007700 0.358720
0.032660 -0.007700 0.358720
0.215340 -0.007700 0.358720
0.540080 -0.007700 0.358720
0.834760 -0.007700 0.358720
0.999777 -0.007700 0.358720
-0.007700 0.132060 0.358720
0.032660 0.132060 0.358720
0.215340 0.132060 0.358720
0.540080 0.132060 0.358720
0.834760 0.132060 0.358720
0.999777 0.132060 0.358720
-0.007700 0.333480 0.358720
0.032660 0.333480 0.358720
0.215340 0.333480 0.358720
0.540080 0.333480 0.358720
0.834760 0.333480 0.358720
0.999777 0.333480 0.358720
-0.007700 0.575000 0.358720
0.032660 0.575000 0.358720
0.215340 0.575000 0.358720
0.540080 0.575000 0.358720
0.834760 0.575000 0.358720
0.999777 0.575000 0.358720
-0.007700 0.805100 0.358720
0.032660 0.805100 0.358720
0.215340 0.805100 0.358720
0.540080 0.805100 0.358720
0.834760 0.805100 0.358720
0.999777 0.805100 0.358720
-0.007700 0.999696 0.358720
0.032660 0.999696 0.358720
0.215340 0.999696 0.358720
0.540080 0.999696 0.358720
0.834760 0.999696 0.358720
0.999777 0.999696 0.358720
-0.007700 -0.007700 0.524620
0.032660 -0.007700 0.524620
0.215340 -0.007700 0.524620
0.540080 -0.007700 0.524620
0.834760 -0.007700 0.524620
0.999777 -0.007700 0.524620
-0.007700 0.132060 0.524620
0.032660 0.132060 0.524620
0.215340 0.132060 0.524620
0.540080 0.132060 0.524620
0.834760 0.132060 0.524620
0.999777 0.132060 0.524620
-0.007700 0.333480 0.524620
0.032660 0.333480 0.524620
0.215340 0.333480 0.524620
0.540080 0.333480 0.524620
0.834760 0.333480 0.524620
0.999777 0.333480 0.524620
-0.007700 0.575000 0.524620
0.032660 0.575000 0.524620
0.215340 0.575000 0.524620
0.540080 0.575000 0.524620
0.834760 0.575000 0.524620
0.999777 0.575000 0.524620
-0.007700 0.805100 0.524620
0.032660 0.805100 0.524620
0.215340 0.805100 0.524620
0.540080 0.805100 0.524620
0.834760 0.805100 0.524620
0.999777 0.805100 0.524620
-0.007700 0.999696 0.524620
0.032660 0.999696 0.524620
0.215340 0.999696 0.524620
0.540080 0.999696 0.524620
0.834760 0.999696 0.524620
0.999777 0.999696 0.524620
-0.007700 -0.007700 0.695440
0.032660 -0.007700 0.695440
0.215340 -0.007700 0.695440
0.540080 -0.007700 0.695440
0.834760 -0.007700 0.695440
0.999777 -0.007700 0.695440
-0.007700 0.132060 0.695440
0.032660 0.132060 0.695440
0.215340 0.132060 0.695440
0.540080 0.132060 0.695440
0.834760 0.132060 0.695440
0.999777 0.132060 0.695440
-0.007700 0.333480 0.695440
0.032660 0.333480 0.695440
0.215340 0.333480 0.695440
0.540080 0.333480 0.695440
0.834760 0.333480 0.695440
0.999777 0.333480 0.695440
-0.007700 0.575000 0.695440
0.032660 0.575000 0.695440
0.215340 0.575000 0.695440
0.540080 0.575000 0.695440
0.834760 0.575000 0.695440
0.999777 0.575000 0.695440
-0.007700 0.805100 0.695440
0.032660 0.805100 0.695440
0.215340 0.805100 0.695440
0.540080 0.805100 0.695440
0.834760 0.805100 0.695440
0.999777 0.805100 0.695440
-0.007700 0.999696 0.695440
0.032660 0.999696 0.695440
0.215340 0.999696 0.695440
0.540080 0.999696 0.695440
0.834760 0.999696 0.695440
0.999777 0.999696 0.695440
-0.007700 -0.007700 0.869816
0.032660 -0.007700 0.869816
0.215340 -0.007700 0.869816
0.540080 -0.007700 0.869816
0.834760 -0.007700 0.869816
0.999777 -0.007700 0.869816
-0.007700 0.132060 0.869816
0.032660 0.132060 0.869816
0.215340 0.132060 0.869816
0.540080 0.132060 0.869816
0.834760 0.132060 0.869816
0.999777 0.132060 0.869816
-0.007700 0.333480 0.869816
0.032660 0.333480 0.869816
0.215340 0.333480 0.869816
0.540080 0.333480 0.869816
0.834760 0.333480 0.869816
0.999777 0.333480 0.869816
-0.007700 0.575000 0.869816
0.032660 0.575000 0.869816
0.215340 0.575000 0.869816
0.540080 0.575000 0.869816
0.834760 0.575000 0.869816
0.999777 0.575000 0.869816
-0.007700 0.805100 0.869816
0.032660 0.805100 0.869816
0.215340 0.805100 0.869816
0.540080 0.805100 0.869816
0.834760 0.805100 0.869816
0.999777 0.805100 0.869816
-0.007700 0.999696 0.869816
0.032660 0.999696 0.869816
0.215340 0.999696 0.869816
0.540080 0.999696 0.869816
0.834760 0.999696 0.869816
0.999777 0.999696 0.869816
