example_ofxGpuLutCube/bin/data/ofxGpuLutCube/LUT/S11 (blue tone).cube
LUT_3D_SIZE 16
-0.007700 -0.007700 0.051900
-0.000533 -0.007700 0.051900
0.010547 -0.007700 0.051900
0.032660 -0.007700 0.051900
0.071340 -0.007700 0.051900
0.132333 -0.007700 0.051900
0.215340 -0.007700 0.051900
0.315133 -0.007700 0.051900
0.425633 -0.007700 0.051900
0.540080 -0.007700 0.051900
0.651200 -0.007700 0.051900
0.751760 -0.007700 0.051900
0.834760 -0.007700 0.051900
0.900007 -0.007700 0.051900
0.953073 -0.007700 0.051900
0.999777 -0.007700 0.051900
-0.007700 0.031280 0.051900
-0.000533 0.031280 0.051900
0.010547 0.031280 0.051900
0.032660 0.031280 0.051900
0.071340 0.031280 0.051900
0.132333 0.031280 0.051900
0.215340 0.031280 0.051900
0.315133 0.031280 0.051900
0.425633 0.031280 0.051900
0.540080 0.031280 0.051900
0.651200 0.031280 0.051900
0.751760 0.031280 0.051900
0.834760 0.031280 0.051900
0.900007 0.031280 0.051900
0.953073 0.031280 0.051900
0.999777 0.031280 0.051900
-0.007700 0.078720 0.051900
-0.000533 0.078720 0.051900
0.010547 0.078720 0.051900
0.032660 0.078720 0.051900
0.071340 0.078720 0.051900
0.132333 0.078720 0.051900
0.215340 0.078720 0.051900
0.315133 0.078720 0.051900
0.425633 0.078720 0.051900
0.540080 0.078720 0.051900
0.651200 0.078720 0.051900
0.751760 0.078720 0.051900
0.834760 0.078720 0.051900
0.900007 0.078720 0.051900
0.953073 0.078720 0.051900
0.999777 0.078720 0.051900
-0.007700 0.132060 0.051900
-0.000533 0.132060 0.051900
0.010547 0.132060 0.051900
0.032660 0.132060 0.051900
0.071340 0.132060 0.051900
0.132333 0.132060 0.051900
0.215340 0.132060 0.051900
0.315133 0.132060 0.051900
0.425633 0.132060 0.051900
0.540080 0.132060 0.051900
0.651200 0.132060 0.051900
0.751760 0.132060 0.051900
0.834760 0.132060 0.051900
0.900007 0.132060 0.051900
0.953073 0.132060 0.051900
0.999777 0.132060 0.051900
-0.007700 0.192120 0.051900
-0.000533 0.192120 0.051900
0.010547 0.192120 0.051900
0.032660 0.192120 0.051900
0.071340 0.192120 0.051900
0.132333 0.192120 0.051900
0.215340 0.192120 0.051900
0.315133 0.192120 0.051900
0.425633 0.192120 0.051900
0.540080 0.192120 0.051900
0.651200 0.192120 0.051900
0.751760 0.192120 0.051900
0.834760 0.192120 0.051900
0.900007 0.192120 0.051900
0.953073 0.192120 0.051900
0.999777 0.192120 0.051900
-0.007700 0.259633 0.051900
-0.000533 0.259633 0.051900
0.010547 0.259633 0.051900
0.032660 0.259633 0.051900
0.071340 0.259633 0.051900
0.132333 0.259633 0.051900
0.215340 0.259633 0.051900
0.315133 0.259633 0.051900
0.425633 0.259633 0.051900
0.540080 0.259633 0.051900
0.651200 0.259633 0.051900
0.751760 0.259633 0.051900
0.834760 0.259633 0.051900
0.900007 0.259633 0.051900
0.953073 0.259633 0.051900
0.999777 0.259633 0.051900
-0.007700 0.333480 0.051900
-0.000533 0.333480 0.051900
0.010547 0.333480 0.051900
0.032660 0.333480 0.051900
0.071340 0.333480 0.051900
0.132333 0.333480 0.051900
0.215340 0.333480 0.051900
0.315133 0.333480 0.051900
0.425633 0.333480 0.051900
0.540080 0.333480 0.051900
0.651200 0.333480 0.051900
0.751760 0.333480 0.051900
0.834760 0.333480 0.051900
0.900007 0.333480 0.051900
0.953073 0.333480 0.051900
0.999777 0.333480 0.051900
-0.007700 0.411907 0.051900
-0.000533 0.411907 0.051900
0.010547 0.411907 0.051900
0.032660 0.411907 0.051900
0.071340 0.411907 0.051900
0.132333 0.411907 0.051900
0.215340 0.411907 0.051900
0.315133 0.411907 0.051900
0.425633 0.411907 0.051900
0.540080 0.411907 0.051900
0.651200 0.411907 0.051900
0.751760 0.411907 0.051900
0.834760 0.411907 0.051900
0.900007 0.411907 0.051900
0.953073 0.411907 0.051900
0.999777 0.411907 0.051900
-0.007700 0.493120 0.051900
-0.000533 0.493120 0.051900
0.010547 0.493120 0.051900
0.032660 0.493120 0.051900
0.071340 0.493120 0.051900
0.132333 0.493120 0.051900
0.215340 0.493120 0.051900
0.315133 0.493120 0.051900
0.425633 0.493120 0.051900
0.540080 0.493120 0.051900
0.651200 0.493120 0.051900
0.751760 0.493120 0.051900
0.834760 0.493120 0.051900
0.900007 0.493120 0.051900
0.953073 0.493120 0.051900
0.999777 0.493120 0.051900
-0.007700 0.575000 0.051900
-0.000533 0.575000 0.051900
0.010547 0.575000 0.051900
0.032660 0.575000 0.051900
0.071340 0.575000 0.051900
0.132333 0.575000 0.051900
0.215340 0.575000 0.051900
0.315133 0.575000 0.051900
0.425633 0.575000 0.051900
0.540080 0.575000 0.051900
0.651200 0.575000 0.051900
0.751760 0.575000 0.051900
0.834760 0.575000 0.051900
0.900007 0.575000 0.051900
0.953073 0.575000 0.051900
0.999777 0.575000 0.051900
-0.007700 0.655567 0.051900
-0.000533 0.655567 0.051900
0.010547 0.655567 0.051900
0.032660 0.655567 0.051900
0.071340 0.655567 0.051900
0.132333 0.655567 0.051900
0.215340 0.655567 0.051900
0.315133 0.655567 0.051900
0.425633 0.655567 0.051900
0.540080 0.655567 0.051900
0.651200 0.655567 0.051900
0.751760 0.655567 0.051900
0.834760 0.655567 0.051900
0.900007 0.655567 0.051900
0.953073 0.655567 0.051900
0.999777 0.655567 0.051900
-0.007700 0.732867 0.051900
-0.000533 0.732867 0.051900
0.010547 0.732867 0.051900
0.032660 0.732867 0.051900
0.071340 0.732867 0.051900
0.132333 0.732867 0.051900
0.215340 0.732867 0.051900
0.315133 0.732867 0.051900
0.425633 0.732867 0.051900
0.540080 0.732867 0.051900
0.651200 0.732867 0.051900
0.751760 0.732867 0.051900
0.834760 0.732867 0.051900
0.900007 0.732867 0.051900
0.953073 0.732867 0.051900
0.999777 0.732867 0.051900
-0.007700 0.805100 0.051900
-0.000533 0.805100 0.051900
0.010547 0.805100 0.051900
0.032660 0.805100 0.051900
0.071340 0.805100 0.051900
0.132333 0.805100 0.051900
0.215340 0.805100 0.051900
0.315133 0.805100 0.051900
0.425633 0.805100 0.051900
0.540080 0.805100 0.051900
0.651200 0.805100 0.051900
0.751760 0.805100 0.051900
0.834760 0.805100 0.051900
0.900007 0.805100 0.051900
0.953073 0.805100 0.051900
0.999777 0.805100 0.051900
-0.007700 0.872533 0.051900
-0.000533 0.872533 0.051900
0.010547 0.872533 0.051900
0.032660 0.872533 0.051900
0.071340 0.872533 0.051900
0.132333 0.872533 0.051900
0.215340 0.872533 0.051900
0.315133 0.872533 0.051900
0.425633 0.872533 0.051900
0.540080 0.872533 0.051900
0.651200 0.872533 0.051900
0.751760 0.872533 0.051900
0.834760 0.872533 0.051900
0.900007 0.872533 0.051900
0.953073 0.872533 0.051900
0.999777 0.872533 0.051900
-0.007700 0.936947 0.051900
-0.000533 0.936947 0.051900
0.010547 0.936947 0.051900
0.032660 0.936947 0.051900
0.071340 0.936947 0.051900
0.132333 0.936947 0.051900
0.215340 0.936947 0.051900
0.315133 0.936947 0.051900
0.425633 0.936947 0.051900
0.540080 0.936947 0.051900
0.651200 0.936947 0.051900
0.751760 0.936947 0.051900
0.834760 0.936947 0.051900
0.900007 0.936947 0.051900
0.953073 0.936947 0.051900
0.999777 0.936947 0.051900
-0.007700 0.999696 0.051900
-0.000533 0.999696 0.051900
0.010547 0.999696 0.051900
0.032660 0.999696 0.051900
0.071340 0.999696 0.051900
0.132333 0.999696 0.051900
0.215340 0.999696 0.051900
0.315133 0.999696 0.051900
0.425633 0.999696 0.051900
0.540080 0.999696 0.051900
0.651200 0.999696 0.051900
0.751760 0.999696 0.051900
0.834760 0.999696 0.051900
0.900007 0.999696 0.051900
0.953073 0.999696 0.051900
0.999777 0.999696 0.051900
-0.007700 -0.007700 0.099080
-0.000533 -0.007700 0.099080
0.010547 -0.007700 0.099080
0.032660 -0.007700 0.099080
0.071340 -0.007700 0.099080
0.132333 -0.007700 0.099080
0.215340 -0.007700 0.099080
0.315133 -0.007700 0.099080
0.425633 -0.007700 0.099080
0.540080 -0.007700 0.099080
0.651200 -0.007700 0.099080
0.751760 -0.007700 0.099080
0.834760 -0.007700 0.099080
0.900007 -0.007700 0.099080
0.953073 -0.007700 0.099080
0.999777 -0.007700 0.099080
-0.007700 0.031280 0.099080
-0.000533 0.031280 0.099080
0.010547 0.031280 0.099080
0.032660 0.031280 0.099080
0.071340 0.031280 0.099080
0.132333 0.031280 0.099080
0.215340 0.031280 0.099080
0.315133 0.031280 0.099080
0.425633 0.031280 0.099080
0.540080 0.031280 0.099080
0.651200 0.031280 0.099080
0.751760 0.031280 0.099080
0.834760 0.031280 0.099080
0.900007 0.031280 0.099080
0.953073 0.031280 0.099080
0.999777 0.031280 0.099080
-0.007700 0.078720 0.099080
-0.000533 0.078720 0.099080
0.010547 0.078720 0.099080
0.032660 0.078720 0.099080
0.071340 0.078720 0.099080
0.132333 0.078720 0.099080
0.215340 0.078720 0.099080
0.315133 0.078720 0.099080
0.425633 0.078720 0.099080
0.540080 0.078720 0.099080
0.651200 0.078720 0.099080
0.751760 0.078720 0.099080
0.834760 0.078720 0.099080
0.900007 0.078720 0.099080
0.953073 0.078720 0.099080
0.999777 0.078720 0.099080
-0.007700 0.132060 0.099080
-0.000533 0.132060 0.099080
0.010547 0.132060 0.099080
0.032660 0.132060 0.099080
0.071340 0.132060 0.099080
0.132333 0.132060 0.099080
0.215340 0.132060 0.099080
0.315133 0.132060 0.099080
0.425633 0.132060 0.099080
0.540080 0.132060 0.099080
0.651200 0.132060 0.099080
0.751760 0.132060 0.099080
0.834760 0.132060 0.099080
0.900007 0.132060 0.099080
0.953073 0.132060 0.099080
0.999777 0.132060 0.099080
-0.007700 0.192120 0.099080
-0.000533 0.192120 0.099080
0.010547 0.192120 0.099080
0.032660 0.192120 0.099080
0.071340 0.192120 0.099080
0.132333 0.192120 0.099080
0.215340 0.192120 0.099080
0.315133 0.192120 0.099080
0.425633 0.192120 0.099080
0.540080 0.192120 0.099080
0.651200 0.192120 0.099080
0.751760 0.192120 0.099080
0.834760 0.192120 0.099080
0.900007 0.192120 0.099080
0.953073 0.192120 0.099080
0.999777 0.192120 0.099080
-0.007700 0.259633 0.099080
-0.000533 0.259633 0.099080
0.010547 0.259633 0.099080
0.032660 0.259633 0.099080
0.071340 0.259633 0.099080
0.132333 0.259633 0.099080
0.215340 0.259633 0.099080
0.315133 0.259633 0.099080
0.425633 0.259633 0.099080
0.540080 0.259633 0.099080
0.651200 0.259633 0.099080
0.751760 0.259633 0.099080
0.834760 0.259633 0.099080
0.900007 0.259633 0.099080
0.953073 0.259633 0.099080
0.999777 0.259633 0.099080
-0.007700 0.333480 0.099080
-0.000533 0.333480 0.099080
0.010547 0.333480 0.099080
0.032660 0.333480 0.099080
0.071340 0.333480 0.099080
0.132333 0.333480 0.099080
0.215340 0.333480 0.099080
0.315133 0.333480 0.099080
0.425633 0.333480 0.099080
0.540080 0.333480 0.099080
0.651200 0.333480 0.099080
0.751760 0.333480 0.099080
0.834760 0.333480 0.099080
0.900007 0.333480 0.099080
0.953073 0.333480 0.099080
0.999777 0.333480 0.099080
-0.007700 0.411907 0.099080
-0.000533 0.411907 0.099080
0.010547 0.411907 0.099080
0.032660 0.411907 0.099080
0.071340 0.411907 0.099080
0.132333 0.411907 0.099080
0.215340 0.411907 0.099080
0.315133 0.411907 0.099080
0.425633 0.411907 0.099080
0.540080 0.411907 0.099080
0.651200 0.411907 0.099080
0.751760 0.411907 0.099080
0.834760 0.411907 0.099080
0.900007 0.411907 0.099080
0.953073 0.411907 0.099080
0.999777 0.411907 0.099080
-0.007700 0.493120 0.099080
-0.000533 0.493120 0.099080
0.010547 0.493120 0.099080
0.032660 0.493120 0.099080
0.071340 0.493120 0.099080
0.132333 0.493120 0.099080
0.215340 0.493120 0.099080
0.315133 0.493120 0.099080
0.425633 0.493120 0.099080
0.540080 0.493120 0.099080
0.651200 0.493120 0.099080
0.751760 0.493120 0.099080
0.834760 0.493120 0.099080
0.900007 0.493120 0.099080
0.953073 0.493120 0.099080
0.999777 0.493120 0.099080
-0.007700 0.575000 0.099080
-0.000533 0.575000 0.099080
0.010547 0.575000 0.099080
0.032660 0.575000 0.099080
0.071340 0.575000 0.099080
0.132333 0.575000 0.099080
0.215340 0.575000 0.099080
0.315133 0.575000 0.099080
0.425633 0.575000 0.099080
0.540080 0.575000 0.099080
0.651200 0.575000 0.099080
0.751760 0.575000 0.099080
0.834760 0.575000 0.099080
0.900007 0.575000 0.099080
0.953073 0.575000 0.099080
0.999777 0.575000 0.099080
-0.007700 0.655567 0.099080
-0.000533 0.655567 0.099080
0.010547 0.655567 0.099080
0.032660 0.655567 0.099080
0.071340 0.655567 0.099080
0.132333 0.655567 0.099080
0.215340 0.655567 0.099080
0.315133 0.655567 0.099080
0.425633 0.655567 0.099080
0.540080 0.655567 0.099080
0.651200 0.655567 0.099080
0.751760 0.655567 0.099080
0.834760 0.655567 0.099080
0.900007 0.655567 0.099080
0.953073 0.655567 0.099080
0.999777 0.655567 0.099080
-0.007700 0.732867 0.099080
-0.000533 0.732867 0.099080
0.010547 0.732867 0.099080
0.032660 0.732867 0.099080
0.071340 0.732867 0.099080
0.132333 0.732867 0.099080
0.215340 0.732867 0.099080
0.315133 0.732867 0.099080
0.425633 0.732867 0.099080
0.540080 0.732867 0.099080
0.651200 0.732867 0.099080
0.751760 0.732867 0.099080
0.834760 0.732867 0.099080
0.900007 0.732867 0.099080
0.953073 0.732867 0.099080
0.999777 0.732867 0.099080
-0.007700 0.805100 0.099080
-0.000533 0.805100 0.099080
0.010547 0.805100 0.099080
0.032660 0.805100 0.099080
0.071340 0.805100 0.099080
0.132333 0.805100 0.099080
0.215340 0.805100 0.099080
0.315133 0.805100 0.099080
0.425633 0.805100 0.099080
0.540080 0.805100 0.099080
0.651200 0.805100 0.099080
0.751760 0.805100 0.099080
0.834760 0.805100 0.099080
0.900007 0.805100 0.099080
0.953073 0.805100 0.099080
0.999777 0.805100 0.099080
-0.007700 0.872533 0.099080
-0.000533 0.872533 0.099080
0.010547 0.872533 0.099080
0.032660 0.872533 0.099080
0.071340 0.872533 0.099080
0.132333 0.872533 0.099080
0.215340 0.872533 0.099080
0.315133 0.872533 0.099080
0.425633 0.872533 0.099080
0.540080 0.872533 0.099080
0.651200 0.872533 0.099080
0.751760 0.872533 0.099080
0.834760 0.872533 0.099080
0.900007 0.872533 0.099080
0.953073 0.872533 0.099080
0.999777 0.872533 0.099080
-0.007700 0.936947 0.099080
-0.000533 0.936947 0.099080
0.010547 0.936947 0.099080
0.032660 0.936947 0.099080
0.071340 0.936947 0.099080
0.132333 0.936947 0.099080
0.215340 0.936947 0.099080
0.315133 0.936947 0.099080
0.425633 0.936947 0.099080
0.540080 0.936947 0.099080
0.651200 0.936947 0.099080
0.751760 0.936947 0.099080
0.834760 0.936947 0.099080
0.900007 0.936947 0.099080
0.953073 0.936947 0.099080
0.999777 0.936947 0.099080
-0.007700 0.999696 0.099080
-0.000533 0.999696 0.099080
0.010547 0.999696 0.099080
0.032660 0.999696 0.099080
0.071340 0.999696 0.099080
0.132333 0.999696 0.099080
0.215340 0.999696 0.099080
0.315133 0.999696 0.099080
0.425633 0.999696 0.099080
0.540080 0.999696 0.099080
0.651200 0.999696 0.099080
0.751760 0.999696 0.099080
0.834760 0.999696 0.099080
0.900007 0.999696 0.099080
0.953073 0.999696 0.099080
0.999777 0.999696 0.099080
-0.007700 -0.007700 0.148553
-0.000533 -0.007700 0.148553
0.010547 -0.007700 0.148553
0.032660 -0.007700 0.148553
0.071340 -0.007700 0.148553
0.132333 -0.007700 0.148553
0.215340 -0.007700 0.148553
0.315133 -0.007700 0.148553
0.425633 -0.007700 0.148553
0.540080 -0.007700 0.148553
0.651200 -0.007700 0.148553
0.751760 -0.007700 0.148553
0.834760 -0.007700 0.148553
0.900007 -0.007700 0.148553
0.953073 -0.007700 0.148553
0.999777 -0.007700 0.148553
-0.007700 0.031280 0.148553
-0.000533 0.031280 0.148553
0.010547 0.031280 0.148553
0.032660 0.031280 0.148553
0.071340 0.031280 0.148553
0.132333 0.031280 0.148553
0.215340 0.031280 0.148553
0.315133 0.031280 0.148553
0.425633 0.031280 0.148553
0.540080 0.031280 0.148553
0.651200 0.031280 0.148553
0.751760 0.031280 0.148553
0.834760 0.031280 0.148553
0.900007 0.031280 0.148553
0.953073 0.031280 0.148553
0.999777 0.031280 0.148553
-0.007700 0.078720 0.148553
-0.000533 0.078720 0.148553
0.010547 0.078720 0.148553
0.032660 0.078720 0.148553
0.071340 0.078720 0.148553
0.132333 0.078720 0.148553
0.215340 0.078720 0.148553
0.315133 0.078720 0.148553
0.425633 0.078720 0.148553
0.540080 0.078720 0.148553
0.651200 0.078720 0.148553
0.751760 0.078720 0.148553
0.834760 0.078720 0.148553
0.900007 0.078720 0.148553
0.953073 0.078720 0.148553
0.999777 0.078720 0.148553
-0.007700 0.132060 0.148553
-0.000533 0.132060 0.148553
0.010547 0.132060 0.148553
0.032660 0.132060 0.148553
0.071340 0.132060 0.148553
0.132333 0.132060 0.148553
0.215340 0.132060 0.148553
0.315133 0.132060 0.148553
0.425633 0.132060 0.148553
0.540080 0.132060 0.148553
0.651200 0.132060 0.148553
0.751760 0.132060 0.148553
0.834760 0.132060 0.148553
0.900007 0.132060 0.148553
0.953073 0.132060 0.148553
0.999777 0.132060 0.148553
-0.007700 0.192120 0.148553
-0.000533 0.192120 0.148553
0.010547 0.192120 0.148553
0.032660 0.192120 0.148553
0.071340 0.192120 0.148553
0.132333 0.192120 0.148553
0.215340 0.192120 0.148553
0.315133 0.192120 0.148553
0.425633 0.192120 0.148553
0.540080 0.192120 0.148553
0.651200 0.192120 0.148553
0.751760 0.192120 0.148553
0.834760 0.192120 0.148553
0.900007 0.192120 0.148553
0.953073 0.192120 0.148553
0.999777 0.192120 0.148553
-0.007700 0.259633 0.148553
-0.000533 0.259633 0.148553
0.010547 0.259633 0.148553
0.032660 0.259633 0.148553
0.071340 0.259633 0.148553
0.132333 0.259633 0.148553
0.215340 0.259633 0.148553
0.315133 0.259633 0.148553
0.425633 0.259633 0.148553
0.540080 0.259633 0.148553
0.651200 0.259633 0.148553
0.751760 0.259633 0.148553
0.834760 0.259633 0.148553
0.900007 0.259633 0.148553
0.953073 0.259633 0.148553
0.999777 0.259633 0.148553
-0.007700 0.333480 0.148553
-0.000533 0.333480 0.148553
0.010547 0.333480 0.148553
0.032660 0.333480 0.148553
0.071340 0.333480 0.148553
0.132333 0.333480 0.148553
0.215340 0.333480 0.148553
0.315133 0.333480 0.148553
0.425633 0.333480 0.148553
0.540080 0.333480 0.148553
0.651200 0.333480 0.148553
0.751760 0.333480 0.148553
0.834760 0.333480 0.148553
0.900007 0.333480 0.148553
0.953073 0.333480 0.148553
0.999777 0.333480 0.148553
-0.007700 0.411907 0.148553
-0.000533 0.411907 0.148553
0.010547 0.411907 0.148553
0.032660 0.411907 0.148553
0.071340 0.411907 0.148553
0.132333 0.411907 0.148553
0.215340 0.411907 0.148553
0.315133 0.411907 0.148553
0.425633 0.411907 0.148553
0.540080 0.411907 0.148553
0.651200 0.411907 0.148553
0.751760 0.411907 0.148553
0.834760 0.411907 0.148553
0.900007 0.411907 0.148553
0.953073 0.411907 0.148553
0.999777 0.411907 0.148553
-0.007700 0.493120 0.148553
-0.000533 0.493120 0.148553
0.010547 0.493120 0.148553
0.032660 0.493120 0.148553
0.071340 0.493120 0.148553
0.132333 0.493120 0.148553
0.215340 0.493120 0.148553
0.315133 0.493120 0.148553
0.425633 0.493120 0.148553
0.540080 0.493120 0.148553
0.651200 0.493120 0.148553
0.751760 0.493120 0.148553
0.834760 0.493120 0.148553
0.900007 0.493120 0.148553
0.953073 0.493120 0.148553
0.999777 0.493120 0.148553
-0.007700 0.575000 0.148553
-0.000533 0.575000 0.148553
0.010547 0.575000 0.148553
0.032660 0.575000 0.148553
0.071340 0.575000 0.148553
0.132333 0.575000 0.148553
0.215340 0.575000 0.148553
0.315133 0.575000 0.148553
0.425633 0.575000 0.148553
0.540080 0.575000 0.148553
0.651200 0.575000 0.148553
0.751760 0.575000 0.148553
0.834760 0.575000 0.148553
0.900007 0.575000 0.148553
0.953073 0.575000 0.148553
0.999777 0.575000 0.148553
-0.007700 0.655567 0.148553
-0.000533 0.655567 0.148553
0.010547 0.655567 0.148553
0.032660 0.655567 0.148553
0.071340 0.655567 0.148553
0.132333 0.655567 0.148553
0.215340 0.655567 0.148553
0.315133 0.655567 0.148553
0.425633 0.655567 0.148553
0.540080 0.655567 0.148553
0.651200 0.655567 0.148553
0.751760 0.655567 0.148553
0.834760 0.655567 0.148553
0.900007 0.655567 0.148553
0.953073 0.655567 0.148553
0.999777 0.655567 0.148553
-0.007700 0.732867 0.148553
-0.000533 0.732867 0.148553
0.010547 0.732867 0.148553
0.032660 0.732867 0.148553
0.071340 0.732867 0.148553
0.132333 0.732867 0.148553
0.215340 0.732867 0.148553
0.315133 0.732867 0.148553
0.425633 0.732867 0.148553
0.540080 0.732867 0.148553
0.651200 0.732867 0.148553
0.751760 0.732867 0.148553
0.834760 0.732867 0.148553
0.900007 0.732867 0.148553
0.953073 0.732867 0.148553
0.999777 0.732867 0.148553
-0.007700 0.805100 0.148553
-0.000533 0.805100 0.148553
0.010547 0.805100 0.148553
0.032660 0.805100 0.148553
0.071340 0.805100 0.148553
0.132333 0.805100 0.148553
0.215340 0.805100 0.148553
0.315133 0.805100 0.148553
0.425633 0.805100 0.148553
0.540080 0.805100 0.148553
0.651200 0.805100 0.148553
0.751760 0.805100 0.148553
0.834760 0.805100 0.148553
0.900007 0.805100 0.148553
0.953073 0.805100 0.148553
0.999777 0.805100 0.148553
-0.007700 0.872533 0.148553
-0.000533 0.872533 0.148553
0.010547 0.872533 0.148553
0.032660 0.872533 0.148553
0.071340 0.872533 0.148553
0.132333 0.872533 0.148553
0.215340 0.872533 0.148553
0.315133 0.872533 0.148553
0.425633 0.872533 0.148553
0.540080 0.872533 0.148553
0.651200 0.872533 0.148553
0.751760 0.872533 0.148553
0.834760 0.872533 0.148553
0.900007 0.872533 0.148553
0.953073 0.872533 0.148553
0.999777 0.872533 0.148553
-0.007700 0.936947 0.148553
-0.000533 0.936947 0.148553
0.010547 0.936947 0.148553
0.032660 0.936947 0.148553
0.071340 0.936947 0.148553
0.132333 0.936947 0.148553
0.215340 0.936947 0.148553
0.315133 0.936947 0.148553
0.425633 0.936947 0.148553
0.540080 0.936947 0.148553
0.651200 0.936947 0.148553
0.751760 0.936947 0.148553
0.834760 0.936947 0.148553
0.900007 0.936947 0.148553
0.953073 0.936947 0.148553
0.999777 0.936947 0.148553
-0.007700 0.999696 0.148553
-0.000533 0.999696 0.148553
0.010547 0.999696 0.148553
0.032660 0.999696 0.148553
0.071340 0.999696 0.148553
0.132333 0.999696 0.148553
0.215340 0.999696 0.148553
0.315133 0.999696 0.148553
0.425633 0.999696 0.148553
0.540080 0.999696 0.148553
0.651200 0.999696 0.148553
0.751760 0.999696 0.148553
0.834760 0.999696 0.148553
0.900007 0.999696 0.148553
0.953073 0.999696 0.148553
0.999777 0.999696 0.148553
-0.007700 -0.007700 0.199500
-0.000533 -0.007700 0.199500
0.010547 -0.007700 0.199500
0.032660 -0.007700 0.199500
0.071340 -0.007700 0.199500
0.132333 -0.007700 0.199500
0.215340 -0.007700 0.199500
0.315133 -0.007700 0.199500
0.425633 -0.007700 0.199500
0.540080 -0.007700 0.199500
0.651200 -0.007700 0.199500
0.751760 -0.007700 0.199500
0.834760 -0.007700 0.199500
0.900007 -0.007700 0.199500
0.953073 -0.007700 0.199500
0.999777 -0.007700 0.199500
-0.007700 0.031280 0.199500
-0.000533 0.031280 0.199500
0.010547 0.031280 0.199500
0.032660 0.031280 0.199500
0.071340 0.031280 0.199500
0.132333 0.031280 0.199500
0.215340 0.031280 0.199500
0.315133 0.031280 0.199500
0.425633 0.031280 0.199500
0.540080 0.031280 0.199500
0.651200 0.031280 0.199500
0.751760 0.031280 0.199500
0.834760 0.031280 0.199500
0.900007 0.031280 0.199500
0.953073 0.031280 0.199500
0.999777 0.031280 0.199500
-0.007700 0.078720 0.199500
-0.000533 0.078720 0.199500
0.010547 0.078720 0.199500
0.032660 0.078720 0.199500
0.071340 0.078720 0.199500
0.132333 0.078720 0.199500
0.215340 0.078720 0.199500
0.315133 0.078720 0.199500
0.425633 0.078720 0.199500
0.540080 0.078720 0.199500
0.651200 0.078720 0.199500
0.751760 0.078720 0.199500
0.834760 0.078720 0.199500
0.900007 0.078720 0.199500
0.953073 0.078720 0.199500
0.999777 0.078720 0.199500
-0.007700 0.132060 0.199500
-0.000533 0.132060 0.199500
0.010547 0.132060 0.199500
0.032660 0.132060 0.199500
0.071340 0.132060 0.199500
0.132333 0.132060 0.199500
0.215340 0.132060 0.199500
0.315133 0.132060 0.199500
0.425633 0.132060 0.199500
0.540080 0.132060 0.199500
0.651200 0.132060 0.199500
0.751760 0.132060 0.199500
0.834760 0.132060 0.199500
0.900007 0.132060 0.199500
0.953073 0.132060 0.199500
0.999777 0.132060 0.199500
-0.007700 0.192120 0.199500
-0.000533 0.192120 0.199500
0.010547 0.192120 0.199500
0.032660 0.192120 0.199500
0.071340 0.192120 0.199500
0.132333 0.192120 0.199500
0.215340 0.192120 0.199500
0.315133 0.192120 0.199500
0.425633 0.192120 0.199500
0.540080 0.192120 0.199500
0.651200 0.192120 0.199500
0.751760 0.192120 0.199500
0.834760 0.192120 0.199500
0.900007 0.192120 0.199500
0.953073 0.192120 0.199500
0.999777 0.192120 0.199500
-0.007700 0.259633 0.199500
-0.000533 0.259633 0.199500
0.010547 0.259633 0.199500
0.032660 0.259633 0.199500
0.071340 0.259633 0.199500
0.132333 0.259633 0.199500
0.215340 0.259633 0.199500
0.315133 0.259633 0.199500
0.425633 0.259633 0.199500
0.540080 0.259633 0.199500
0.651200 0.259633 0.199500
0.751760 0.259633 0.199500
0.834760 0.259633 0.199500
0.900007 0.259633 0.199500
0.953073 0.259633 0.199500
0.999777 0.259633 0.199500
-0.007700 0.333480 0.199500
-0.000533 0.333480 0.199500
0.010547 0.333480 0.199500
0.032660 0.333480 0.199500
0.071340 0.333480 0.199500
0.132333 0.333480 0.199500
0.215340 0.333480 0.199500
0.315133 0.333480 0.199500
0.425633 0.333480 0.199500
0.540080 0.333480 0.199500
0.651200 0.333480 0.199500
0.751760 0.333480 0.199500
0.834760 0.333480 0.199500
0.900007 0.333480 0.199500
0.953073 0.333480 0.199500
0.999777 0.333480 0.199500
-0.007700 0.411907 0.199500
