example_ofxGpuLutCube/bin/data/ofxGpuLutCube/LUT/S12 (green tone).cube
LUT_3D_SIZE 16
-0.007700 -0.007700 0.051900
-0.000533 -0.007700 0.051900
0.010547 -0.007700 0.051900
0.032660 -0.007700 0.051900
0.071340 -0.007700 0.051900
0.132333 -0.007700 0.051900
0.215340 -0.007700 0.051900
0.315133 -0.007700 0.051900
0.425633 -0.007700 0.051900
0.540080 -0.007700 0.051900
0.651200 -0.007700 0.051900
0.751760 -0.007700 0.051900
0.834760 -0.007700 0.051900
0.900007 -0.007700 0.051900
0.953073 -0.007700 0.051900
0.999777 -0.007700 0.051900
-0.007700 0.057027 0.051900
-0.000533 0.057027 0.051900
0.010547 0.057027 0.051900
0.032660 0.057027 0.051900
0.071340 0.057027 0.051900
0.132333 0.057027 0.051900
0.215340 0.057027 0.051900
0.315133 0.057027 0.051900
0.425633 0.057027 0.051900
0.540080 0.057027 0.051900
0.651200 0.057027 0.051900
0.751760 0.057027 0.051900
0.834760 0.057027 0.051900
0.900007 0.057027 0.051900
0.953073 0.057027 0.051900
0.999777 0.057027 0.051900
-0.007700 0.128807 0.051900
-0.000533 0.128807 0.051900
0.010547 0.128807 0.051900
0.032660 0.128807 0.051900
0.071340 0.128807 0.051900
0.132333 0.128807 0.051900
0.215340 0.128807 0.051900
0.315133 0.128807 0.051900
0.425633 0.128807 0.051900
0.540080 0.128807 0.051900
0.651200 0.128807 0.051900
0.751760 0.128807 0.051900
0.834760 0.128807 0.051900
0.900007 0.128807 0.051900
0.953073 0.128807 0.051900
0.999777 0.128807 0.051900
-0.007700 0.196120 0.051900
-0.000533 0.196120 0.051900
0.010547 0.196120 0.051900
0.032660 0.196120 0.051900
0.071340 0.196120 0.051900
0.132333 0.196120 0.051900
0.215340 0.196120 0.051900
0.315133 0.196120 0.051900
0.425633 0.196120 0.051900
0.540080 0.196120 0.051900
0.651200 0.196120 0.051900
0.751760 0.196120 0.051900
0.834760 0.196120 0.051900
0.900007 0.196120 0.051900
0.953073 0.196120 0.051900
0.999777 0.196120 0.051900
-0.007700 0.253620 0.051900
-0.000533 0.253620 0.051900
0.010547 0.253620 0.051900
0.032660 0.253620 0.051900
0.071340 0.253620 0.051900
0.132333 0.253620 0.051900
0.215340 0.253620 0.051900
0.315133 0.253620 0.051900
0.425633 0.253620 0.051900
0.540080 0.253620 0.051900
0.651200 0.253620 0.051900
0.751760 0.253620 0.051900
0.834760 0.253620 0.051900
0.900007 0.253620 0.051900
0.953073 0.253620 0.051900
0.999777 0.253620 0.051900
-0.007700 0.303800 0.051900
-0.000533 0.303800 0.051900
0.010547 0.303800 0.051900
0.032660 0.303800 0.051900
0.071340 0.303800 0.051900
0.132333 0.303800 0.051900
0.215340 0.303800 0.051900
0.315133 0.303800 0.051900
0.425633 0.303800 0.051900
0.540080 0.303800 0.051900
0.651200 0.303800 0.051900
0.751760 0.303800 0.051900
0.834760 0.303800 0.051900
0.900007 0.303800 0.051900
0.953073 0.303800 0.051900
0.999777 0.303800 0.051900
-0.007700 0.353160 0.051900
-0.000533 0.353160 0.051900
0.010547 0.353160 0.051900
0.032660 0.353160 0.051900
0.071340 0.353160 0.051900
0.132333 0.353160 0.051900
0.215340 0.353160 0.051900
0.315133 0.353160 0.051900
0.425633 0.353160 0.051900
0.540080 0.353160 0.051900
0.651200 0.353160 0.051900
0.751760 0.353160 0.051900
0.834760 0.353160 0.051900
0.900007 0.353160 0.051900
0.953073 0.353160 0.051900
0.999777 0.353160 0.051900
-0.007700 0.408860 0.051900
-0.000533 0.408860 0.051900
0.010547 0.408860 0.051900
0.032660 0.408860 0.051900
0.071340 0.408860 0.051900
0.132333 0.408860 0.051900
0.215340 0.408860 0.051900
0.315133 0.408860 0.051900
0.425633 0.408860 0.051900
0.540080 0.408860 0.051900
0.651200 0.408860 0.051900
0.751760 0.408860 0.051900
0.834760 0.408860 0.051900
0.900007 0.408860 0.051900
0.953073 0.408860 0.051900
0.999777 0.408860 0.051900
-0.007700 0.477993 0.051900
-0.000533 0.477993 0.051900
0.010547 0.477993 0.051900
0.032660 0.477993 0.051900
0.071340 0.477993 0.051900
0.132333 0.477993 0.051900
0.215340 0.477993 0.051900
0.315133 0.477993 0.051900
0.425633 0.477993 0.051900
0.540080 0.477993 0.051900
0.651200 0.477993 0.051900
0.751760 0.477993 0.051900
0.834760 0.477993 0.051900
0.900007 0.477993 0.051900
0.953073 0.477993 0.051900
0.999777 0.477993 0.051900
-0.007700 0.561240 0.051900
-0.000533 0.561240 0.051900
0.010547 0.561240 0.051900
0.032660 0.561240 0.051900
0.071340 0.561240 0.051900
0.132333 0.561240 0.051900
0.215340 0.561240 0.051900
0.315133 0.561240 0.051900
0.425633 0.561240 0.051900
0.540080 0.561240 0.051900
0.651200 0.561240 0.051900
0.751760 0.561240 0.051900
0.834760 0.561240 0.051900
0.900007 0.561240 0.051900
0.953073 0.561240 0.051900
0.999777 0.561240 0.051900
-0.007700 0.650800 0.051900
-0.000533 0.650800 0.051900
0.010547 0.650800 0.051900
0.032660 0.650800 0.051900
0.071340 0.650800 0.051900
0.132333 0.650800 0.051900
0.215340 0.650800 0.051900
0.315133 0.650800 0.051900
0.425633 0.650800 0.051900
0.540080 0.650800 0.051900
0.651200 0.650800 0.051900
0.751760 0.650800 0.051900
0.834760 0.650800 0.051900
0.900007 0.650800 0.051900
0.953073 0.650800 0.051900
0.999777 0.650800 0.051900
-0.007700 0.737500 0.051900
-0.000533 0.737500 0.051900
0.010547 0.737500 0.051900
0.032660 0.737500 0.051900
0.071340 0.737500 0.051900
0.132333 0.737500 0.051900
0.215340 0.737500 0.051900
0.315133 0.737500 0.051900
0.425633 0.737500 0.051900
0.540080 0.737500 0.051900
0.651200 0.737500 0.051900
0.751760 0.737500 0.051900
0.834760 0.737500 0.051900
0.900007 0.737500 0.051900
0.953073 0.737500 0.051900
0.999777 0.737500 0.051900
-0.007700 0.814140 0.051900
-0.000533 0.814140 0.051900
0.010547 0.814140 0.051900
0.032660 0.814140 0.051900
0.071340 0.814140 0.051900
0.132333 0.814140 0.051900
0.215340 0.814140 0.051900
0.315133 0.814140 0.051900
0.425633 0.814140 0.051900
0.540080 0.814140 0.051900
0.651200 0.814140 0.051900
0.751760 0.814140 0.051900
0.834760 0.814140 0.051900
0.900007 0.814140 0.051900
0.953073 0.814140 0.051900
0.999777 0.814140 0.051900
-0.007700 0.881327 0.051900
-0.000533 0.881327 0.051900
0.010547 0.881327 0.051900
0.032660 0.881327 0.051900
0.071340 0.881327 0.051900
0.132333 0.881327 0.051900
0.215340 0.881327 0.051900
0.315133 0.881327 0.051900
0.425633 0.881327 0.051900
0.540080 0.881327 0.051900
0.651200 0.881327 0.051900
0.751760 0.881327 0.051900
0.834760 0.881327 0.051900
0.900007 0.881327 0.051900
0.953073 0.881327 0.051900
0.999777 0.881327 0.051900
-0.007700 0.942180 0.051900
-0.000533 0.942180 0.051900
0.010547 0.942180 0.051900
0.032660 0.942180 0.051900
0.071340 0.942180 0.051900
0.132333 0.942180 0.051900
0.215340 0.942180 0.051900
0.315133 0.942180 0.051900
0.425633 0.942180 0.051900
0.540080 0.942180 0.051900
0.651200 0.942180 0.051900
0.751760 0.942180 0.051900
0.834760 0.942180 0.051900
0.900007 0.942180 0.051900
0.953073 0.942180 0.051900
0.999777 0.942180 0.051900
-0.007700 0.999722 0.051900
-0.000533 0.999722 0.051900
0.010547 0.999722 0.051900
0.032660 0.999722 0.051900
0.071340 0.999722 0.051900
0.132333 0.999722 0.051900
0.215340 0.999722 0.051900
0.315133 0.999722 0.051900
0.425633 0.999722 0.051900
0.540080 0.999722 0.051900
0.651200 0.999722 0.051900
0.751760 0.999722 0.051900
0.834760 0.999722 0.051900
0.900007 0.999722 0.051900
0.953073 0.999722 0.051900
0.999777 0.999722 0.051900
-0.007700 -0.007700 0.099080
-0.000533 -0.007700 0.099080
0.010547 -0.007700 0.099080
0.032660 -0.007700 0.099080
0.071340 -0.007700 0.099080
0.132333 -0.007700 0.099080
0.215340 -0.007700 0.099080
0.315133 -0.007700 0.099080
0.425633 -0.007700 0.099080
0.540080 -0.007700 0.099080
0.651200 -0.007700 0.099080
0.751760 -0.007700 0.099080
0.834760 -0.007700 0.099080
0.900007 -0.007700 0.099080
0.953073 -0.007700 0.099080
0.999777 -0.007700 0.099080
-0.007700 0.057027 0.099080
-0.000533 0.057027 0.099080
0.010547 0.057027 0.099080
0.032660 0.057027 0.099080
0.071340 0.057027 0.099080
0.132333 0.057027 0.099080
0.215340 0.057027 0.099080
0.315133 0.057027 0.099080
0.425633 0.057027 0.099080
0.540080 0.057027 0.099080
0.651200 0.057027 0.099080
0.751760 0.057027 0.099080
0.834760 0.057027 0.099080
0.900007 0.057027 0.099080
0.953073 0.057027 0.099080
0.999777 0.057027 0.099080
-0.007700 0.128807 0.099080
-0.000533 0.128807 0.099080
0.010547 0.128807 0.099080
0.032660 0.128807 0.099080
0.071340 0.128807 0.099080
0.132333 0.128807 0.099080
0.215340 0.128807 0.099080
0.315133 0.128807 0.099080
0.425633 0.128807 0.099080
0.540080 0.128807 0.099080
0.651200 0.128807 0.099080
0.751760 0.128807 0.099080
0.834760 0.128807 0.099080
0.900007 0.128807 0.099080
0.953073 0.128807 0.099080
0.999777 0.128807 0.099080
-0.007700 0.196120 0.099080
-0.000533 0.196120 0.099080
0.010547 0.196120 0.099080
0.032660 0.196120 0.099080
0.071340 0.196120 0.099080
0.132333 0.196120 0.099080
0.215340 0.196120 0.099080
0.315133 0.196120 0.099080
0.425633 0.196120 0.099080
0.540080 0.196120 0.099080
0.651200 0.196120 0.099080
0.751760 0.196120 0.099080
0.834760 0.196120 0.099080
0.900007 0.196120 0.099080
0.953073 0.196120 0.099080
0.999777 0.196120 0.099080
-0.007700 0.253620 0.099080
-0.000533 0.253620 0.099080
0.010547 0.253620 0.099080
0.032660 0.253620 0.099080
0.071340 0.253620 0.099080
0.132333 0.253620 0.099080
0.215340 0.253620 0.099080
0.315133 0.253620 0.099080
0.425633 0.253620 0.099080
0.540080 0.253620 0.099080
0.651200 0.253620 0.099080
0.751760 0.253620 0.099080
0.834760 0.253620 0.099080
0.900007 0.253620 0.099080
0.953073 0.253620 0.099080
0.999777 0.253620 0.099080
-0.007700 0.303800 0.099080
-0.000533 0.303800 0.099080
0.010547 0.303800 0.099080
0.032660 0.303800 0.099080
0.071340 0.303800 0.099080
0.132333 0.303800 0.099080
0.215340 0.303800 0.099080
0.315133 0.303800 0.099080
0.425633 0.303800 0.099080
0.540080 0.303800 0.099080
0.651200 0.303800 0.099080
0.751760 0.303800 0.099080
0.834760 0.303800 0.099080
0.900007 0.303800 0.099080
0.953073 0.303800 0.099080
0.999777 0.303800 0.099080
-0.007700 0.353160 0.099080
-0.000533 0.353160 0.099080
0.010547 0.353160 0.099080
0.032660 0.353160 0.099080
0.071340 0.353160 0.099080
0.132333 0.353160 0.099080
0.215340 0.353160 0.099080
0.315133 0.353160 0.099080
0.425633 0.353160 0.099080
0.540080 0.353160 0.099080
0.651200 0.353160 0.099080
0.751760 0.353160 0.099080
0.834760 0.353160 0.099080
0.900007 0.353160 0.099080
0.953073 0.353160 0.099080
0.999777 0.353160 0.099080
-0.007700 0.408860 0.099080
-0.000533 0.408860 0.099080
0.010547 0.408860 0.099080
0.032660 0.408860 0.099080
0.071340 0.408860 0.099080
0.132333 0.408860 0.099080
0.215340 0.408860 0.099080
0.315133 0.408860 0.099080
0.425633 0.408860 0.099080
0.540080 0.408860 0.099080
0.651200 0.408860 0.099080
0.751760 0.408860 0.099080
0.834760 0.408860 0.099080
0.900007 0.408860 0.099080
0.953073 0.408860 0.099080
0.999777 0.408860 0.099080
-0.007700 0.477993 0.099080
-0.000533 0.477993 0.099080
0.010547 0.477993 0.099080
0.032660 0.477993 0.099080
0.071340 0.477993 0.099080
0.132333 0.477993 0.099080
0.215340 0.477993 0.099080
0.315133 0.477993 0.099080
0.425633 0.477993 0.099080
0.540080 0.477993 0.099080
0.651200 0.477993 0.099080
0.751760 0.477993 0.099080
0.834760 0.477993 0.099080
0.900007 0.477993 0.099080
0.953073 0.477993 0.099080
0.999777 0.477993 0.099080
-0.007700 0.561240 0.099080
-0.000533 0.561240 0.099080
0.010547 0.561240 0.099080
0.032660 0.561240 0.099080
0.071340 0.561240 0.099080
0.132333 0.561240 0.099080
0.215340 0.561240 0.099080
0.315133 0.561240 0.099080
0.425633 0.561240 0.099080
0.540080 0.561240 0.099080
0.651200 0.561240 0.099080
0.751760 0.561240 0.099080
0.834760 0.561240 0.099080
0.900007 0.561240 0.099080
0.953073 0.561240 0.099080
0.999777 0.561240 0.099080
-0.007700 0.650800 0.099080
-0.000533 0.650800 0.099080
0.010547 0.650800 0.099080
0.032660 0.650800 0.099080
0.071340 0.650800 0.099080
0.132333 0.650800 0.099080
0.215340 0.650800 0.099080
0.315133 0.650800 0.099080
0.425633 0.650800 0.099080
0.540080 0.650800 0.099080
0.651200 0.650800 0.099080
0.751760 0.650800 0.099080
0.834760 0.650800 0.099080
0.900007 0.650800 0.099080
0.953073 0.650800 0.099080
0.999777 0.650800 0.099080
-0.007700 0.737500 0.099080
-0.000533 0.737500 0.099080
0.010547 0.737500 0.099080
0.032660 0.737500 0.099080
0.071340 0.737500 0.099080
0.132333 0.737500 0.099080
0.215340 0.737500 0.099080
0.315133 0.737500 0.099080
0.425633 0.737500 0.099080
0.540080 0.737500 0.099080
0.651200 0.737500 0.099080
0.751760 0.737500 0.099080
0.834760 0.737500 0.099080
0.900007 0.737500 0.099080
0.953073 0.737500 0.099080
0.999777 0.737500 0.099080
-0.007700 0.814140 0.099080
-0.000533 0.814140 0.099080
0.010547 0.814140 0.099080
0.032660 0.814140 0.099080
0.071340 0.814140 0.099080
0.132333 0.814140 0.099080
0.215340 0.814140 0.099080
0.315133 0.814140 0.099080
0.425633 0.814140 0.099080
0.540080 0.814140 0.099080
0.651200 0.814140 0.099080
0.751760 0.814140 0.099080
0.834760 0.814140 0.099080
0.900007 0.814140 0.099080
0.953073 0.814140 0.099080
0.999777 0.814140 0.099080
-0.007700 0.881327 0.099080
-0.000533 0.881327 0.099080
0.010547 0.881327 0.099080
0.032660 0.881327 0.099080
0.071340 0.881327 0.099080
0.132333 0.881327 0.099080
0.215340 0.881327 0.099080
0.315133 0.881327 0.099080
0.425633 0.881327 0.099080
0.540080 0.881327 0.099080
0.651200 0.881327 0.099080
0.751760 0.881327 0.099080
0.834760 0.881327 0.099080
0.900007 0.881327 0.099080
0.953073 0.881327 0.099080
0.999777 0.881327 0.099080
-0.007700 0.942180 0.099080
-0.000533 0.942180 0.099080
0.010547 0.942180 0.099080
0.032660 0.942180 0.099080
0.071340 0.942180 0.099080
0.132333 0.942180 0.099080
0.215340 0.942180 0.099080
0.315133 0.942180 0.099080
0.425633 0.942180 0.099080
0.540080 0.942180 0.099080
0.651200 0.942180 0.099080
0.751760 0.942180 0.099080
0.834760 0.942180 0.099080
0.900007 0.942180 0.099080
0.953073 0.942180 0.099080
0.999777 0.942180 0.099080
-0.007700 0.999722 0.099080
-0.000533 0.999722 0.099080
0.010547 0.999722 0.099080
0.032660 0.999722 0.099080
0.071340 0.999722 0.099080
0.132333 0.999722 0.099080
0.215340 0.999722 0.099080
0.315133 0.999722 0.099080
0.425633 0.999722 0.099080
0.540080 0.999722 0.099080
0.651200 0.999722 0.099080
0.751760 0.999722 0.099080
0.834760 0.999722 0.099080
0.900007 0.999722 0.099080
0.953073 0.999722 0.099080
0.999777 0.999722 0.099080
-0.007700 -0.007700 0.148553
-0.000533 -0.007700 0.148553
0.010547 -0.007700 0.148553
0.032660 -0.007700 0.148553
0.071340 -0.007700 0.148553
0.132333 -0.007700 0.148553
0.215340 -0.007700 0.148553
0.315133 -0.007700 0.148553
0.425633 -0.007700 0.148553
0.540080 -0.007700 0.148553
0.651200 -0.007700 0.148553
0.751760 -0.007700 0.148553
0.834760 -0.007700 0.148553
0.900007 -0.007700 0.148553
0.953073 -0.007700 0.148553
0.999777 -0.007700 0.148553
-0.007700 0.057027 0.148553
-0.000533 0.057027 0.148553
0.010547 0.057027 0.148553
0.032660 0.057027 0.148553
0.071340 0.057027 0.148553
0.132333 0.057027 0.148553
0.215340 0.057027 0.148553
0.315133 0.057027 0.148553
0.425633 0.057027 0.148553
0.540080 0.057027 0.148553
0.651200 0.057027 0.148553
0.751760 0.057027 0.148553
0.834760 0.057027 0.148553
0.900007 0.057027 0.148553
0.953073 0.057027 0.148553
0.999777 0.057027 0.148553
-0.007700 0.128807 0.148553
-0.000533 0.128807 0.148553
0.010547 0.128807 0.148553
0.032660 0.128807 0.148553
0.071340 0.128807 0.148553
0.132333 0.128807 0.148553
0.215340 0.128807 0.148553
0.315133 0.128807 0.148553
0.425633 0.128807 0.148553
0.540080 0.128807 0.148553
0.651200 0.128807 0.148553
0.751760 0.128807 0.148553
0.834760 0.128807 0.148553
0.900007 0.128807 0.148553
0.953073 0.128807 0.148553
0.999777 0.128807 0.148553
-0.007700 0.196120 0.148553
-0.000533 0.196120 0.148553
0.010547 0.196120 0.148553
0.032660 0.196120 0.148553
0.071340 0.196120 0.148553
0.132333 0.196120 0.148553
0.215340 0.196120 0.148553
0.315133 0.196120 0.148553
0.425633 0.196120 0.148553
0.540080 0.196120 0.148553
0.651200 0.196120 0.148553
0.751760 0.196120 0.148553
0.834760 0.196120 0.148553
0.900007 0.196120 0.148553
0.953073 0.196120 0.148553
0.999777 0.196120 0.148553
-0.007700 0.253620 0.148553
-0.000533 0.253620 0.148553
0.010547 0.253620 0.148553
0.032660 0.253620 0.148553
0.071340 0.253620 0.148553
0.132333 0.253620 0.148553
0.215340 0.253620 0.148553
0.315133 0.253620 0.148553
0.425633 0.253620 0.148553
0.540080 0.253620 0.148553
0.651200 0.253620 0.148553
0.751760 0.253620 0.148553
0.834760 0.253620 0.148553
0.900007 0.253620 0.148553
0.953073 0.253620 0.148553
0.999777 0.253620 0.148553
-0.007700 0.303800 0.148553
-0.000533 0.303800 0.148553
0.010547 0.303800 0.148553
0.032660 0.303800 0.148553
0.071340 0.303800 0.148553
0.132333 0.303800 0.148553
0.215340 0.303800 0.148553
0.315133 0.303800 0.148553
0.425633 0.303800 0.148553
0.540080 0.303800 0.148553
0.651200 0.303800 0.148553
0.751760 0.303800 0.148553
0.834760 0.303800 0.148553
0.900007 0.303800 0.148553
0.953073 0.303800 0.148553
0.999777 0.303800 0.148553
-0.007700 0.353160 0.148553
-0.000533 0.353160 0.148553
0.010547 0.353160 0.148553
0.032660 0.353160 0.148553
0.071340 0.353160 0.148553
0.132333 0.353160 0.148553
0.215340 0.353160 0.148553
0.315133 0.353160 0.148553
0.425633 0.353160 0.148553
0.540080 0.353160 0.148553
0.651200 0.353160 0.148553
0.751760 0.353160 0.148553
0.834760 0.353160 0.148553
0.900007 0.353160 0.148553
0.953073 0.353160 0.148553
0.999777 0.353160 0.148553
-0.007700 0.408860 0.148553
-0.000533 0.408860 0.148553
0.010547 0.408860 0.148553
0.032660 0.408860 0.148553
0.071340 0.408860 0.148553
0.132333 0.408860 0.148553
0.215340 0.408860 0.148553
0.315133 0.408860 0.148553
0.425633 0.408860 0.148553
0.540080 0.408860 0.148553
0.651200 0.408860 0.148553
0.751760 0.408860 0.148553
0.834760 0.408860 0.148553
0.900007 0.408860 0.148553
0.953073 0.408860 0.148553
0.999777 0.408860 0.148553
-0.007700 0.477993 0.148553
-0.000533 0.477993 0.148553
0.010547 0.477993 0.148553
0.032660 0.477993 0.148553
0.071340 0.477993 0.148553
0.132333 0.477993 0.148553
0.215340 0.477993 0.148553
0.315133 0.477993 0.148553
0.425633 0.477993 0.148553
0.540080 0.477993 0.148553
0.651200 0.477993 0.148553
0.751760 0.477993 0.148553
0.834760 0.477993 0.148553
0.900007 0.477993 0.148553
0.953073 0.477993 0.148553
0.999777 0.477993 0.148553
-0.007700 0.561240 0.148553
-0.000533 0.561240 0.148553
0.010547 0.561240 0.148553
0.032660 0.561240 0.148553
0.071340 0.561240 0.148553
0.132333 0.561240 0.148553
0.215340 0.561240 0.148553
0.315133 0.561240 0.148553
0.425633 0.561240 0.148553
0.540080 0.561240 0.148553
0.651200 0.561240 0.148553
0.751760 0.561240 0.148553
0.834760 0.561240 0.148553
0.900007 0.561240 0.148553
0.953073 0.561240 0.148553
0.999777 0.561240 0.148553
-0.007700 0.650800 0.148553
-0.000533 0.650800 0.148553
0.010547 0.650800 0.148553
0.032660 0.650800 0.148553
0.071340 0.650800 0.148553
0.132333 0.650800 0.148553
0.215340 0.650800 0.148553
0.315133 0.650800 0.148553
0.425633 0.650800 0.148553
0.540080 0.650800 0.148553
0.651200 0.650800 0.148553
0.751760 0.650800 0.148553
0.834760 0.650800 0.148553
0.900007 0.650800 0.148553
0.953073 0.650800 0.148553
0.999777 0.650800 0.148553
-0.007700 0.737500 0.148553
-0.000533 0.737500 0.148553
0.010547 0.737500 0.148553
0.032660 0.737500 0.148553
0.071340 0.737500 0.148553
0.132333 0.737500 0.148553
0.215340 0.737500 0.148553
0.315133 0.737500 0.148553
0.425633 0.737500 0.148553
0.540080 0.737500 0.148553
0.651200 0.737500 0.148553
0.751760 0.737500 0.148553
0.834760 0.737500 0.148553
0.900007 0.737500 0.148553
0.953073 0.737500 0.148553
0.999777 0.737500 0.148553
-0.007700 0.814140 0.148553
-0.000533 0.814140 0.148553
0.010547 0.814140 0.148553
0.032660 0.814140 0.148553
0.071340 0.814140 0.148553
0.132333 0.814140 0.148553
0.215340 0.814140 0.148553
0.315133 0.814140 0.148553
0.425633 0.814140 0.148553
0.540080 0.814140 0.148553
0.651200 0.814140 0.148553
0.751760 0.814140 0.148553
0.834760 0.814140 0.148553
0.900007 0.814140 0.148553
0.953073 0.814140 0.148553
0.999777 0.814140 0.148553
-0.007700 0.881327 0.148553
-0.000533 0.881327 0.148553
0.010547 0.881327 0.148553
0.032660 0.881327 0.148553
0.071340 0.881327 0.148553
0.132333 0.881327 0.148553
0.215340 0.881327 0.148553
0.315133 0.881327 0.148553
0.425633 0.881327 0.148553
0.540080 0.881327 0.148553
0.651200 0.881327 0.148553
0.751760 0.881327 0.148553
0.834760 0.881327 0.148553
0.900007 0.881327 0.148553
0.953073 0.881327 0.148553
0.999777 0.881327 0.148553
-0.007700 0.942180 0.148553
-0.000533 0.942180 0.148553
0.010547 0.942180 0.148553
0.032660 0.942180 0.148553
0.071340 0.942180 0.148553
0.132333 0.942180 0.148553
0.215340 0.942180 0.148553
0.315133 0.942180 0.148553
0.425633 0.942180 0.148553
0.540080 0.942180 0.148553
0.651200 0.942180 0.148553
0.751760 0.942180 0.148553
0.834760 0.942180 0.148553
0.900007 0.942180 0.148553
0.953073 0.942180 0.148553
0.999777 0.942180 0.148553
-0.007700 0.999722 0.148553
-0.000533 0.999722 0.148553
0.010547 0.999722 0.148553
0.032660 0.999722 0.148553
0.071340 0.999722 0.148553
0.132333 0.999722 0.148553
0.215340 0.999722 0.148553
0.315133 0.999722 0.148553
0.425633 0.999722 0.148553
0.540080 0.999722 0.148553
0.651200 0.999722 0.148553
0.751760 0.999722 0.148553
0.834760 0.999722 0.148553
0.900007 0.999722 0.148553
0.953073 0.999722 0.148553
0.999777 0.999722 0.148553
-0.007700 -0.007700 0.199500
-0.000533 -0.007700 0.199500
0.010547 -0.007700 0.199500
0.032660 -0.007700 0.199500
0.071340 -0.007700 0.199500
0.132333 -0.007700 0.199500
0.215340 -0.007700 0.199500
0.315133 -0.007700 0.199500
0.425633 -0.007700 0.199500
0.540080 -0.007700 0.199500
0.651200 -0.007700 0.199500
0.751760 -0.007700 0.199500
0.834760 -0.007700 0.199500
0.900007 -0.007700 0.199500
0.953073 -0.007700 0.199500
0.999777 -0.007700 0.199500
-0.007700 0.057027 0.199500
-0.000533 0.057027 0.199500
0.010547 0.057027 0.199500
0.032660 0.057027 0.199500
0.071340 0.057027 0.199500
0.132333 0.057027 0.199500
0.215340 0.057027 0.199500
0.315133 0.057027 0.199500
0.425633 0.057027 0.199500
0.540080 0.057027 0.199500
0.651200 0.057027 0.199500
0.751760 0.057027 0.199500
0.834760 0.057027 0.199500
0.900007 0.057027 0.199500
0.953073 0.057027 0.199500
0.999777 0.057027 0.199500
-0.007700 0.128807 0.199500
-0.000533 0.128807 0.199500
0.010547 0.128807 0.199500
0.032660 0.128807 0.199500
0.071340 0.128807 0.199500
0.132333 0.128807 0.199500
0.215340 0.128807 0.199500
0.315133 0.128807 0.199500
0.425633 0.128807 0.199500
0.540080 0.128807 0.199500
0.651200 0.128807 0.199500
0.751760 0.128807 0.199500
0.834760 0.128807 0.199500
0.900007 0.128807 0.199500
0.953073 0.128807 0.199500
0.999777 0.128807 0.199500
-0.007700 0.196120 0.199500
-0.000533 0.196120 0.199500
0.010547 0.196120 0.199500
0.032660 0.196120 0.199500
0.071340 0.196120 0.199500
0.132333 0.196120 0.199500
0.215340 0.196120 0.199500
0.315133 0.196120 0.199500
0.425633 0.196120 0.199500
0.540080 0.196120 0.199500
0.651200 0.196120 0.199500
0.751760 0.196120 0.199500
0.834760 0.196120 0.199500
0.900007 0.196120 0.199500
0.953073 0.196120 0.199500
0.999777 0.196120 0.199500
-0.007700 0.253620 0.199500
-0.000533 0.253620 0.199500
0.010547 0.253620 0.199500
0.032660 0.253620 0.199500
0.071340 0.253620 0.199500
0.132333 0.253620 0.199500
0.215340 0.253620 0.199500
0.315133 0.253620 0.199500
0.425633 0.253620 0.199500
0.540080 0.253620 0.199500
0.651200 0.253620 0.199500
0.751760 0.253620 0.199500
0.834760 0.253620 0.199500
0.900007 0.253620 0.199500
0.953073 0.253620 0.199500
0.999777 0.253620 0.199500
-0.007700 0.303800 0.199500
-0.000533 0.303800 0.199500
0.010547 0.303800 0.199500
0.032660 0.303800 0.199500
0.071340 0.303800 0.199500
0.132333 0.303800 0.199500
0.215340 0.303800 0.199500
0.315133 0.303800 0.199500
0.425633 0.303800 0.199500
0.540080 0.303800 0.199500
0.651200 0.303800 0.199500
0.751760 0.303800 0.199500
0.834760 0.303800 0.199500
0.900007 0.303800 0.199500
0.953073 0.303800 0.199500
0.999777 0.303800 0.199500
-0.007700 0.353160 0.199500
-0.000533 0.353160 0.199500
0.010547 0.353160 0.199500
0.032660 0.353160 0.199500
0.071340 0.353160 0.199500
0.132333 0.353160 0.199500
0.215340 0.353160 0.199500
0.315133 0.353160 0.199500
0.425633 0.353160 0.199500
0.540080 0.353160 0.199500
0.651200 0.353160 0.199500
0.751760 0.353160 0.199500
0.834760 0.353160 0.199500
0.900007 0.353160 0.199500
0.953073 0.353160 0.199500
0.999777 0.353160 0.199500
-0.007700 0.408860 0.199500
