example_ofxGpuLutCube/bin/data/ofxGpuLutCube/LUT/S12 (green tone).cube
LUT_3D_SIZE 6
-0.007700 -0.007700 0.051900
0.032660 -0.007700 0.051900
0.215340 -0.007700 0.051900
0.540080 -0.007700 0.051900
0.834760 -0.007700 0.051900
0.999777 -0.007700 0.051900
-0.007700 0.196120 0.051900
0.032660 0.196120 0.051900
0.215340 0.196120 0.051900
0.540080 0.196120 0.051900
0.834760 0.196120 0.051900
0.999777 0.196120 0.051900
-0.007700 0.353160 0.051900
0.032660 0.353160 0.051900
0.215340 0.353160 0.051900
0.540080 0.353160 0.051900
0.834760 0.353160 0.051900
0.999777 0.353160 0.051900
-0.007700 0.561240 0.051900
0.032660 0.561240 0.051900
0.215340 0.561240 0.051900
0.540080 0.561240 0.051900
0.834760 0.561240 0.051900
0.999777 0.561240 0.051900
-0.007700 0.814140 0.051900
0.032660 0.814140 0.051900
0.215340 0.814140 0.051900
0.540080 0.814140 0.051900
0.834760 0.814140 0.051900
0.999777 0.814140 0.051900
-0.007700 0.999722 0.051900
0.032660 0.999722 0.051900
0.215340 0.999722 0.051900
0.540080 0.999722 0.051900
0.834760 0.999722 0.051900
0.999777 0.999722 0.051900
-0.007700 -0.007700 0.199500
0.032660 -0.007700 0.199500
0.215340 -0.007700 0.199500
0.540080 -0.007700 0.199500
0.834760 -0.007700 0.199500
0.999777 -0.007700 0.199500
-0.007700 0.196120 0.199500
0.032660 0.196120 0.199500
0.215340 0.196120 0.199500
0.540080 0.196120 0.199500
0.834760 0.196120 0.199500
0.999777 0.196120 0.199500
-0.007700 0.353160 0.199500
0.032660 0.353160 0.199500
0.215340 0.353160 0.199500
0.540080 0.353160 0.199500
0.834760 0.353160 0.199500
0.999777 0.353160 0.199500
-0.007700 0.561240 0.199500
0.032660 0.561240 0.199500
0.215340 0.561240 0.199500
0.540080 0.561240 0.199500
0.834760 0.561240 0.199500
0.999777 0.561240 0.199500
-0.007700 0.814140 0.199500
0.032660 0.814140 0.199500
0.215340 0.814140 0.199500
0.540080 0.814140 0.199500
0.834760 0.814140 0.199500
0.999777 0.814140 0.199500
-0.007700 0.999722 0.199500
0.032660 0.999722 0.199500
0.215340 0.999722 0.199500
0.540080 0.999722 0.199500
0.834760 0.999722 0.199500
0.999777 0.999722 0.199500
-0.007700 -0.007700 0.358720
0.032660 -0.007700 0.358720
0.215340 -0.007700 0.358720
0.540080 -0.007700 0.358720
0.834760 -0.007700 0.358720
0.999777 -0.007700 0.358720
-0.007700 0.196120 0.358720
0.032660 0.196120 0.358720
0.215340 0.196120 0.358720
0.540080 0.196120 0.358720
0.834760 0.196120 0.358720
0.999777 0.196120 0.358720
-0.007700 0.353160 0.358720
0.032660 0.353160 0.358720
0.215340 0.353160 0.358720
0.540080 0.353160 0.358720
0.834760 0.353160 0.358720
0.999777 0.353160 0.358720
-0.007700 0.561240 0.358720
0.032660 0.561240 0.358720
0.215340 0.561240 0.358720
0.540080 0.561240 0.358720
0.834760 0.561240 0.358720
0.999777 0.561240 0.358720
-0.007700 0.814140 0.358720
0.032660 0.814140 0.358720
0.215340 0.814140 0.358720
0.540080 0.814140 0.358720
0.834760 0.814140 0.358720
0.999777 0.814140 0.358720
-0.007700 0.999722 0.358720
0.032660 0.999722 0.358720
0.215340 0.999722 0.358720
0.540080 0.999722 0.358720
0.834760 0.999722 0.358720
0.999777 0.999722 0.358720
-0.007700 -0.007700 0.524620
0.032660 -0.007700 0.524620
0.215340 -0.007700 0.524620
0.540080 -0.007700 0.524620
0.834760 -0.007700 0.524620
0.999777 -0.007700 0.524620
-0.007700 0.196120 0.524620
0.032660 0.196120 0.524620
0.215340 0.196120 0.524620
0.540080 0.196120 0.524620
0.834760 0.196120 0.524620
0.999777 0.196120 0.524620
-0.007700 0.353160 0.524620
0.032660 0.353160 0.524620
0.215340 0.353160 0.524620
0.540080 0.353160 0.524620
0.834760 0.353160 0.524620
0.999777 0.353160 0.524620
-0.007700 0.561240 0.524620
0.032660 0.561240 0.524620
0.215340 0.561240 0.524620
0.540080 0.561240 0.524620
0.834760 0.561240 0.524620
0.999777 0.561240 0.524620
-0.007700 0.814140 0.524620
0.032660 0.814140 0.524620
0.215340 0.814140 0.524620
0.540080 0.814140 0.524620
0.834760 0.814140 0.524620
0.999777 0.814140 0.524620
-0.007700 0.999722 0.524620
0.032660 0.999722 0.524620
0.215340 0.999722 0.524620
0.540080 0.999722 0.524620
0.834760 0.999722 0.524620
0.999777 0.999722 0.524620
-0.007700 -0.007700 0.695440
0.032660 -0.007700 0.695440
0.215340 -0.007700 0.695440
0.540080 -0.007700 0.695440
0.834760 -0.007700 0.695440
0.999777 -0.007700 0.695440
-0.007700 0.196120 0.695440
0.032660 0.196120 0.695440
0.215340 0.196120 0.695440
0.540080 0.196120 0.695440
0.834760 0.196120 0.695440
0.999777 0.196120 0.695440
-0.007700 0.353160 0.695440
0.032660 0.353160 0.695440
0.215340 0.353160 0.695440
0.540080 0.353160 0.695440
0.834760 0.353160 0.695440
0.999777 0.353160 0.695440
-0.007700 0.561240 0.695440
0.032660 0.561240 0.695440
0.215340 0.561240 0.695440
0.540080 0.561240 0.695440
0.834760 0.561240 0.695440
0.999777 0.561240 0.695440
-0.007700 0.814140 0.695440
0.032660 0.814140 0.695440
0.215340 0.814140 0.695440
0.540080 0.814140 0.695440
0.834760 0.814140 0.695440
0.999777 0.814140 0.695440
-0.007700 0.999722 0.695440
0.032660 0.999722 0.695440
0.215340 0.999722 0.695440
0.540080 0.999722 0.695440
0.834760 0.999722 0.695440
0.999777 0.999722 0.695440
-0.007700 -0.007700 0.869816
0.032660 -0.007700 0.869816
0.215340 -0.007700 0.869816
0.540080 -0.007700 0.869816
0.834760 -0.007700 0.869816
0.999777 -0.007700 0.869816
-0.007700 0.196120 0.869816
0.032660 0.196120 0.869816
0.215340 0.196120 0.869816
0.540080 0.196120 0.869816
0.834760 0.196120 0.869816
0.999777 0.196120 0.869816
-0.007700 0.353160 0.869816
0.032660 0.353160 0.869816
0.215340 0.353160 0.869816
0.540080 0.353160 0.869816
0.834760 0.353160 0.869816
0.999777 0.353160 0.869816
-0.007700 0.561240 0.869816
0.032660 0.561240 0.869816
0.215340 0.561240 0.869816
0.540080 0.561240 0.869816
0.834760 0.561240 0.869816
0.999777 0.561240 0.869816
-0.007700 0.814140 0.869816
0.032660 0.814140 0.869816
0.215340 0.814140 0.869816
0.540080 0.814140 0.869816
0.834760 0.814140 0.869816
0.999777 0.814140 0.869816
-0.007700 0.999722 0.869816
0.032660 0.999722 0.869816
0.215340 0.999722 0.869816
0.540080 0.999722 0.869816
0.834760 0.999722 0.869816
0.999777 0.999722 0.869816
