example_ofxGpuLutCube/bin/data/ofxGpuLutCube/LUT/S13 (magenta cold).cube
LUT_3D_SIZE 16
-0.039400 0.000000 0.000000
0.029633 0.005373 0.005373
0.092667 0.016933 0.016933
0.155700 0.028420 0.028420
0.218733 0.039893 0.039893
0.281733 0.051367 0.051367
0.344700 0.062900 0.062900
0.407733 0.074413 0.074413
0.470767 0.085887 0.085887
0.533800 0.097360 0.097360
0.596833 0.108867 0.108867
0.659767 0.120407 0.120407
0.722800 0.131880 0.131880
0.785833 0.143367 0.143367
0.848867 0.154833 0.154833
0.911595 0.166344 0.166344
-0.039400 0.057787 0.000000
0.035100 0.057787 0.000000
0.101884 0.057849 0.007716
0.159197 0.067295 0.024828
0.219167 0.079722 0.039458
0.281791 0.091376 0.051304
0.344700 0.102869 0.062900
0.407733 0.114384 0.074413
0.470767 0.125860 0.085887
0.533800 0.137371 0.097360
0.596833 0.148838 0.108867
0.659767 0.160375 0.120407
0.722800 0.171853 0.131880
0.785833 0.183339 0.143367
0.848867 0.194893 0.154833
0.911595 0.206311 0.166344
-0.039400 0.119893 0.000000
0.035100 0.119893 0.000000
0.109600 0.119893 0.000000
0.177959 0.118533 0.006144
0.235628 0.122014 0.022962
0.292956 0.131433 0.040149
0.350247 0.143760 0.057359
0.408797 0.156924 0.073349
0.471094 0.168659 0.085560
0.533800 0.180287 0.097360
0.596833 0.191793 0.108867
0.659767 0.203333 0.120407
0.722800 0.214807 0.131880
0.785833 0.226282 0.143367
0.848867 0.237760 0.154833
0.911595 0.249271 0.166344
-0.039400 0.183760 0.000000
0.035100 0.183760 0.000000
0.109600 0.183760 0.000000
0.184100 0.183760 0.000000
0.254189 0.182352 0.004432
0.312547 0.182073 0.020560
0.369844 0.187772 0.037788
0.427228 0.197073 0.054919
0.484344 0.208567 0.072267
0.541872 0.221244 0.089284
0.599413 0.234847 0.106280
0.660536 0.247083 0.119637
0.722848 0.258896 0.131836
0.785833 0.270404 0.143367
0.848867 0.281947 0.154833
0.911595 0.293364 0.166344
-0.039400 0.248753 0.000000
0.035100 0.248753 0.000000
0.109600 0.248753 0.000000
0.184100 0.248753 0.000000
0.258600 0.248753 0.000000
0.330640 0.247849 0.002469
0.389559 0.245216 0.018041
0.447154 0.248000 0.034980
0.504260 0.254615 0.052393
0.561844 0.263663 0.069329
0.618727 0.274616 0.086940
0.676562 0.286442 0.103631
0.733348 0.299653 0.121373
0.790714 0.313260 0.138509
0.850596 0.326076 0.153104
0.911922 0.338121 0.165991
-0.039400 0.314600 0.000000
0.035100 0.314600 0.000000
0.109600 0.314600 0.000000
0.184100 0.314600 0.000000
0.258600 0.314600 0.000000
0.333133 0.314600 0.000000
0.406067 0.313960 0.001573
0.467204 0.310500 0.014931
0.524565 0.310789 0.032071
0.581693 0.315047 0.049480
0.639278 0.322044 0.066389
0.696498 0.331007 0.083702
0.753720 0.341393 0.100980
0.811167 0.352887 0.118020
0.868476 0.365229 0.135282
0.925656 0.378103 0.152184
-0.039400 0.381160 0.000000
0.035100 0.381160 0.000000
0.109600 0.381160 0.000000
0.184100 0.381160 0.000000
0.258600 0.381160 0.000000
0.333133 0.381160 0.000000
0.407640 0.381160 0.000000
0.481307 0.380768 0.000812
0.544831 0.377255 0.011791
0.602104 0.375500 0.029036
0.659373 0.377707 0.046313
0.716624 0.382847 0.063549
0.774536 0.390024 0.080192
0.831689 0.398873 0.097511
0.888392 0.409100 0.115364
0.945884 0.419925 0.131956
-0.039400 0.448313 0.000000
0.035100 0.448313 0.000000
0.109600 0.448313 0.000000
0.184100 0.448313 0.000000
0.258600 0.448313 0.000000
0.333133 0.448313 0.000000
0.407640 0.448313 0.000000
0.482147 0.448313 0.000000
0.556653 0.448313 0.000000
0.622265 0.444935 0.008895
0.679936 0.441704 0.025747
0.737424 0.442182 0.042749
0.794585 0.445600 0.060115
0.852193 0.451203 0.077047
0.909312 0.458598 0.094384
0.966391 0.467196 0.111449
-0.039400 0.515993 0.000000
0.035100 0.515993 0.000000
0.109600 0.515993 0.000000
0.184100 0.515993 0.000000
0.258600 0.515993 0.000000
0.333133 0.515993 0.000000
0.407640 0.515993 0.000000
0.482147 0.515993 0.000000
0.556653 0.515993 0.000000
0.631160 0.515993 0.000000
0.699880 0.513571 0.005802
0.757935 0.509105 0.022251
0.815397 0.508099 0.039329
0.872819 0.509924 0.056381
0.929924 0.514089 0.073772
0.987207 0.520016 0.090632
-0.039400 0.584100 0.000000
0.035100 0.584100 0.000000
0.109600 0.584100 0.000000
0.184100 0.584100 0.000000
0.258600 0.584100 0.000000
0.333133 0.584100 0.000000
0.407640 0.584100 0.000000
0.482147 0.584100 0.000000
0.556653 0.584100 0.000000
0.631160 0.584100 0.000000
0.705667 0.584100 0.000000
0.777267 0.582812 0.002917
0.836304 0.577584 0.018384
0.893576 0.575113 0.035624
0.950888 0.575623 0.052865
1.008239 0.578384 0.069700
-0.039400 0.652600 0.000000
0.035100 0.652600 0.000000
0.109600 0.652600 0.000000
0.184100 0.652600 0.000000
0.258600 0.652600 0.000000
0.333133 0.652600 0.000000
0.407640 0.652600 0.000000
0.482147 0.652600 0.000000
0.556653 0.652600 0.000000
0.631160 0.652600 0.000000
0.705667 0.652600 0.000000
0.780173 0.652600 0.000000
0.853020 0.651827 0.001680
0.914493 0.646818 0.014793
0.971564 0.643124 0.032198
1.029390 0.642468 0.048449
-0.039400 0.721493 0.000000
0.035100 0.721493 0.000000
0.109600 0.721493 0.000000
0.184100 0.721493 0.000000
0.258600 0.721493 0.000000
0.333133 0.721493 0.000000
0.407640 0.721493 0.000000
0.482147 0.721493 0.000000
0.556653 0.721493 0.000000
0.631160 0.721493 0.000000
0.705667 0.721493 0.000000
0.780173 0.721493 0.000000
0.854700 0.721493 0.000000
0.928784 0.721285 0.000416
0.993132 0.717040 0.010568
1.049895 0.712111 0.028018
-0.039400 0.790680 0.000000
0.035100 0.790680 0.000000
0.109600 0.790680 0.000000
0.184100 0.790680 0.000000
0.258600 0.790680 0.000000
0.333133 0.790680 0.000000
0.407640 0.790680 0.000000
0.482147 0.790680 0.000000
0.556653 0.790680 0.000000
0.631160 0.790680 0.000000
0.705667 0.790680 0.000000
0.780173 0.790680 0.000000
0.854700 0.790680 0.000000
0.929200 0.790680 0.000000
1.003700 0.790680 0.000000
1.071589 0.787803 0.006251
-0.039400 0.860207 0.000000
0.035100 0.860207 0.000000
0.109600 0.860207 0.000000
0.184100 0.860207 0.000000
0.258600 0.860207 0.000000
0.333133 0.860207 0.000000
0.407640 0.860207 0.000000
0.482147 0.860207 0.000000
0.556653 0.860207 0.000000
0.631160 0.860207 0.000000
0.705667 0.860207 0.000000
0.780173 0.860207 0.000000
0.854700 0.860207 0.000000
0.929200 0.860207 0.000000
1.003700 0.860207 0.000000
1.077840 0.860207 0.000000
-0.039400 0.929947 0.000000
0.035100 0.929947 0.000000
0.109600 0.929947 0.000000
0.184100 0.929947 0.000000
0.258600 0.929947 0.000000
0.333133 0.929947 0.000000
0.407640 0.929947 0.000000
0.482147 0.929947 0.000000
0.556653 0.929947 0.000000
0.631160 0.929947 0.000000
0.705667 0.929947 0.000000
0.780173 0.929947 0.000000
0.854700 0.929947 0.000000
0.929200 0.929947 0.000000
1.003700 0.929947 0.000000
1.077840 0.929947 0.000000
-0.039400 0.999661 0.000000
0.035100 0.999661 0.000000
0.109600 0.999661 0.000000
0.184100 0.999661 0.000000
0.258600 0.999661 0.000000
0.333133 0.999661 0.000000
0.407640 0.999661 0.000000
0.482147 0.999661 0.000000
0.556653 0.999661 0.000000
0.631160 0.999661 0.000000
0.705667 0.999661 0.000000
0.780173 0.999661 0.000000
0.854700 0.999661 0.000000
0.929200 0.999661 0.000000
1.003700 0.999661 0.000000
1.077840 0.999661 0.000000
-0.039400 0.000000 0.092247
0.035199 0.001886 0.090361
0.100296 0.009582 0.085957
0.162639 0.021481 0.092368
0.223057 0.035500 0.102588
0.283587 0.049513 0.114416
0.345047 0.062556 0.126551
0.407916 0.074230 0.138059
0.470798 0.085856 0.149644
0.533800 0.097360 0.161133
0.596833 0.108867 0.172638
0.659767 0.120407 0.184107
0.722800 0.131880 0.195653
0.785833 0.143367 0.207127
0.848867 0.154833 0.218606
0.911595 0.166344 0.230111
-0.039400 0.057787 0.092247
0.035112 0.057827 0.092206
0.104522 0.063060 0.091071
0.165511 0.076394 0.100971
0.227887 0.088524 0.112512
0.290764 0.100209 0.124003
0.353663 0.111813 0.135580
0.416640 0.123290 0.147087
0.479673 0.134767 0.158567
0.542707 0.146277 0.170040
0.605740 0.157807 0.181547
0.668768 0.169282 0.193077
0.731707 0.180779 0.204560
0.794740 0.192246 0.216045
0.857773 0.203800 0.227513
0.920502 0.215217 0.239024
-0.039400 0.119893 0.092247
0.035100 0.119893 0.092247
0.109182 0.119901 0.092640
0.171992 0.125331 0.104008
0.233368 0.136741 0.117191
0.295762 0.148389 0.129234
0.358796 0.159870 0.140709
0.421829 0.171389 0.152232
0.484862 0.182909 0.163752
0.547892 0.194382 0.175229
0.610860 0.205887 0.186702
0.673862 0.217356 0.198201
0.736896 0.228902 0.209744
0.799929 0.240376 0.221222
0.862962 0.251855 0.232696
0.925685 0.263280 0.244114
-0.039400 0.183760 0.092247
0.035100 0.183760 0.092247
0.109600 0.183760 0.092247
0.183826 0.183664 0.092522
0.248183 0.183677 0.102609
0.305608 0.190996 0.119728
0.363191 0.202757 0.136603
0.423166 0.215222 0.151188
0.485172 0.227078 0.163722
0.548040 0.238672 0.175373
0.611007 0.250193 0.186847
0.674007 0.261667 0.198347
0.737040 0.273144 0.209888
0.800073 0.284644 0.221367
0.863107 0.296187 0.232840
0.925835 0.307604 0.244258
-0.039400 0.248753 0.092247
0.035100 0.248753 0.092247
0.109600 0.248753 0.092247
0.184100 0.248753 0.092247
0.258574 0.248742 0.092274
0.324987 0.247057 0.100321
0.382895 0.249498 0.116958
0.440049 0.257515 0.134301
0.497312 0.268465 0.151576
0.554956 0.280971 0.168415
0.613437 0.294094 0.184416
0.674790 0.306234 0.197563
0.737040 0.318081 0.209888
0.800073 0.329570 0.221367
0.863107 0.341107 0.232840
0.925835 0.352524 0.244258
-0.039400 0.314600 0.092247
0.035100 0.314600 0.092247
0.109600 0.314600 0.092247
0.184100 0.314600 0.092247
0.258600 0.314600 0.092247
0.333133 0.314600 0.092247
0.401916 0.312792 0.097898
0.460235 0.312091 0.114131
0.517575 0.316690 0.131312
0.574837 0.324835 0.148552
0.632241 0.335076 0.165615
0.689651 0.346871 0.182725
0.746660 0.359868 0.200268
0.804824 0.373058 0.216570
0.864753 0.385893 0.231193
0.925842 0.398081 0.244251
-0.039400 0.381160 0.092247
0.035100 0.381160 0.092247
0.109600 0.381160 0.092247
0.184100 0.381160 0.092247
0.258600 0.381160 0.092247
0.333133 0.381160 0.092247
0.407640 0.381160 0.092247
0.478789 0.379939 0.095550
0.537881 0.377124 0.110946
0.595230 0.378987 0.128133
0.652695 0.384600 0.145185
0.709774 0.392729 0.162663
0.767178 0.402627 0.179723
0.824273 0.413879 0.197091
0.882080 0.425896 0.213864
0.938946 0.438857 0.231146
-0.039400 0.448313 0.092247
0.035100 0.448313 0.092247
0.109600 0.448313 0.092247
0.184100 0.448313 0.092247
0.258600 0.448313 0.092247
0.333133 0.448313 0.092247
0.407640 0.448313 0.092247
0.482147 0.448313 0.092247
0.554689 0.447490 0.094211
0.615871 0.443841 0.107512
0.673356 0.443510 0.124497
0.730383 0.446861 0.142039
0.787779 0.452981 0.159077
0.845010 0.461107 0.176389
0.902658 0.470617 0.193289
0.959031 0.481488 0.211059
-0.039400 0.515993 0.092247
0.035100 0.515993 0.092247
0.109600 0.515993 0.092247
0.184100 0.515993 0.092247
0.258600 0.515993 0.092247
0.333133 0.515993 0.092247
0.407640 0.515993 0.092247
0.482147 0.515993 0.092247
0.556653 0.515993 0.092247
0.630257 0.515575 0.093124
0.693803 0.511834 0.104115
0.751194 0.509577 0.121233
0.808294 0.511099 0.138571
0.865990 0.515399 0.155413
0.923259 0.521820 0.172691
0.980393 0.529824 0.189700
-0.039400 0.584100 0.092247
0.035100 0.584100 0.092247
0.109600 0.584100 0.092247
0.184100 0.584100 0.092247
0.258600 0.584100 0.092247
0.333133 0.584100 0.092247
0.407640 0.584100 0.092247
0.482147 0.584100 0.092247
0.556653 0.584100 0.092247
0.631160 0.584100 0.092247
0.705624 0.584079 0.092289
0.771711 0.580773 0.100670
0.829515 0.577078 0.117419
0.886466 0.576852 0.134974
0.944041 0.579594 0.151908
1.001038 0.584401 0.169055
-0.039400 0.652600 0.092247
0.035100 0.652600 0.092247
0.109600 0.652600 0.092247
0.184100 0.652600 0.092247
0.258600 0.652600 0.092247
0.333133 0.652600 0.092247
0.407640 0.652600 0.092247
0.482147 0.652600 0.092247
0.556653 0.652600 0.092247
0.631160 0.652600 0.092247
0.705667 0.652600 0.092247
0.780173 0.652600 0.092247
0.849404 0.650329 0.097536
0.907145 0.645370 0.114295
0.964708 0.643849 0.131207
1.021953 0.645051 0.148140
-0.039400 0.721493 0.092247
0.035100 0.721493 0.092247
0.109600 0.721493 0.092247
0.184100 0.721493 0.092247
0.258600 0.721493 0.092247
0.333133 0.721493 0.092247
0.407640 0.721493 0.092247
0.482147 0.721493 0.092247
0.556653 0.721493 0.092247
0.631160 0.721493 0.092247
0.705667 0.721493 0.092247
0.780173 0.721493 0.092247
0.854700 0.721493 0.092247
0.926836 0.720436 0.094613
0.985490 0.714660 0.110454
1.042531 0.711794 0.127561
-0.039400 0.790680 0.092247
0.035100 0.790680 0.092247
0.109600 0.790680 0.092247
0.184100 0.790680 0.092247
0.258600 0.790680 0.092247
0.333133 0.790680 0.092247
0.407640 0.790680 0.092247
0.482147 0.790680 0.092247
0.556653 0.790680 0.092247
0.631160 0.790680 0.092247
0.705667 0.790680 0.092247
0.780173 0.790680 0.092247
0.854700 0.790680 0.092247
0.929200 0.790680 0.092247
1.002775 0.790249 0.093171
1.064051 0.785057 0.105969
-0.039400 0.860207 0.092247
0.035100 0.860207 0.092247
0.109600 0.860207 0.092247
0.184100 0.860207 0.092247
0.258600 0.860207 0.092247
0.333133 0.860207 0.092247
0.407640 0.860207 0.092247
0.482147 0.860207 0.092247
0.556653 0.860207 0.092247
0.631160 0.860207 0.092247
0.705667 0.860207 0.092247
0.780173 0.860207 0.092247
0.854700 0.860207 0.092247
0.929200 0.860207 0.092247
1.003700 0.860207 0.092247
1.077573 0.860068 0.092513
-0.039400 0.929947 0.092247
0.035100 0.929947 0.092247
0.109600 0.929947 0.092247
0.184100 0.929947 0.092247
0.258600 0.929947 0.092247
0.333133 0.929947 0.092247
0.407640 0.929947 0.092247
0.482147 0.929947 0.092247
0.556653 0.929947 0.092247
0.631160 0.929947 0.092247
0.705667 0.929947 0.092247
0.780173 0.929947 0.092247
0.854700 0.929947 0.092247
0.929200 0.929947 0.092247
1.003700 0.929947 0.092247
1.077840 0.929947 0.092247
-0.039400 0.999661 0.092247
0.035100 0.999661 0.092247
0.109600 0.999661 0.092247
0.184100 0.999661 0.092247
0.258600 0.999661 0.092247
0.333133 0.999661 0.092247
0.407640 0.999661 0.092247
0.482147 0.999661 0.092247
0.556653 0.999661 0.092247
0.631160 0.999661 0.092247
0.705667 0.999661 0.092247
0.780173 0.999661 0.092247
0.854700 0.999661 0.092247
0.929200 0.999661 0.092247
1.003700 0.999661 0.092247
1.077840 0.999661 0.092247
-0.039400 0.000000 0.179987
0.035153 0.000232 0.179754
0.107004 0.010300 0.169687
0.168960 0.015860 0.165613
0.234918 0.023682 0.170881
0.295880 0.037167 0.177231
0.356537 0.051155 0.186173
0.417025 0.065121 0.196650
0.477536 0.079064 0.208072
0.538680 0.092480 0.219852
0.598469 0.107231 0.232644
0.660436 0.119737 0.244569
0.723069 0.131613 0.256211
0.785844 0.143356 0.267826
0.848867 0.154833 0.279300
0.911595 0.166344 0.290797
-0.039400 0.057787 0.179987
0.035100 0.057787 0.179987
0.109568 0.061248 0.176618
0.173843 0.068744 0.170506
0.237835 0.078645 0.175841
0.298781 0.092186 0.184154
0.359557 0.105922 0.194706
0.419868 0.120076 0.206610
0.480839 0.133645 0.218823
0.543178 0.145801 0.230555
0.605831 0.157715 0.242252
0.668768 0.169282 0.253779
0.731707 0.180779 0.265253
0.794740 0.192246 0.276738
0.857773 0.203800 0.288282
0.920502 0.215217 0.299716
-0.039400 0.119893 0.179987
0.035100 0.119893 0.179987
0.109630 0.120054 0.179826
0.178795 0.125750 0.175912
0.241084 0.137436 0.182880
0.301900 0.151126 0.193911
0.363783 0.163753 0.205671
0.426507 0.175573 0.217254
0.489337 0.187297 0.228847
0.552275 0.198819 0.240358
0.615273 0.210291 0.251831
0.678297 0.221796 0.263332
0.741327 0.233333 0.274864
0.804360 0.244808 0.286348
0.867393 0.256281 0.297826
0.930036 0.267712 0.309250
-0.039400 0.183760 0.179987
0.035100 0.183760 0.179987
0.109600 0.183760 0.179987
0.183224 0.184526 0.180749
0.246816 0.193702 0.190746
0.308915 0.205514 0.202957
0.371795 0.217055 0.214455
0.434828 0.228539 0.225968
0.497861 0.240054 0.237442
0.560895 0.251568 0.248956
0.623921 0.263048 0.260424
0.686951 0.274527 0.271960
0.749895 0.286029 0.283441
0.812928 0.297559 0.294926
0.875961 0.309041 0.306475
0.938690 0.320459 0.317895
-0.039400 0.248753 0.179987
0.035100 0.248753 0.179987
0.109600 0.248753 0.179987
0.184100 0.248753 0.179987
0.257466 0.248645 0.181124
0.318935 0.251445 0.194163
0.376855 0.261625 0.210774
0.436930 0.273619 0.225204
0.498749 0.285551 0.237897
0.561567 0.297161 0.249628
0.624587 0.308648 0.261096
0.687620 0.320137 0.272630
0.750567 0.331623 0.284103
0.813600 0.343152 0.295598
0.876633 0.354635 0.307147
0.939348 0.366074 0.318564
-0.039400 0.314600 0.179987
0.035100 0.314600 0.179987
0.109600 0.314600 0.179987
0.184100 0.314600 0.179987
0.258600 0.314600 0.179987
0.332480 0.314366 0.180637
0.396293 0.313564 0.191353
0.453707 0.318422 0.208427
0.511103 0.328160 0.225581
0.568705 0.340230 0.242464
0.627240 0.353124 0.258434
0.688506 0.365246 0.271737
0.750567 0.377158 0.284103
0.813600 0.388683 0.295598
0.876633 0.400189 0.307147
0.939348 0.411611 0.318564
-0.039400 0.381160 0.179987
0.035100 0.381160 0.179987
0.109600 0.381160 0.179987
0.184100 0.381160 0.179987
0.258600 0.381160 0.179987
0.333133 0.381160 0.179987
0.407554 0.381125 0.180073
0.473613 0.379119 0.188548
0.531414 0.380107 0.205270
0.588630 0.386291 0.222527
0.646063 0.395597 0.239642
0.703011 0.406987 0.257216
0.760739 0.419435 0.273994
0.818499 0.432670 0.290699
0.878750 0.445195 0.305030
0.939393 0.457618 0.318520
-0.039400 0.448313 0.179987
0.035100 0.448313 0.179987
0.109600 0.448313 0.179987
0.184100 0.448313 0.179987
0.258600 0.448313 0.179987
0.333133 0.448313 0.179987
0.407640 0.448313 0.179987
0.482147 0.448313 0.179987
0.550642 0.446317 0.186023
0.609314 0.444738 0.201851
0.666688 0.447961 0.219025
0.723824 0.454668 0.236351
0.781263 0.463705 0.253427
0.838433 0.474407 0.270776
0.895701 0.486218 0.287991
0.953168 0.498767 0.304758
-0.039400 0.515993 0.179987
0.035100 0.515993 0.179987
0.109600 0.515993 0.179987
0.184100 0.515993 0.179987
0.258600 0.515993 0.179987
0.333133 0.515993 0.179987
0.407640 0.515993 0.179987
0.482147 0.515993 0.179987
0.556653 0.515993 0.179987
0.628049 0.514797 0.183113
0.687373 0.511361 0.198298
0.744292 0.512100 0.215899
0.801734 0.516542 0.232986
0.859217 0.523487 0.250044
0.916276 0.532381 0.267467
0.973687 0.542437 0.284226
-0.039400 0.584100 0.179987
0.035100 0.584100 0.179987
0.109600 0.584100 0.179987
0.184100 0.584100 0.179987
0.258600 0.584100 0.179987
0.333133 0.584100 0.179987
0.407640 0.584100 0.179987
0.482147 0.584100 0.179987
0.556653 0.584100 0.179987
0.631160 0.584100 0.179987
0.703844 0.583316 0.181809
0.765525 0.579424 0.194664
0.822870 0.578084 0.211843
0.879959 0.580505 0.229228
0.936826 0.585569 0.246866
0.994166 0.592654 0.263725
-0.039400 0.652600 0.179987
0.035100 0.652600 0.179987
0.109600 0.652600 0.179987
0.184100 0.652600 0.179987
0.258600 0.652600 0.179987
0.333133 0.652600 0.179987
0.407640 0.652600 0.179987
0.482147 0.652600 0.179987
0.556653 0.652600 0.179987
0.631160 0.652600 0.179987
0.705667 0.652600 0.179987
0.779476 0.652286 0.180684
0.843489 0.648417 0.191276
0.901055 0.645486 0.208142
0.958412 0.646123 0.225341
1.015217 0.649492 0.242651
-0.039400 0.721493 0.179987
0.035100 0.721493 0.179987
0.109600 0.721493 0.179987
0.184100 0.721493 0.179987
0.258600 0.721493 0.179987
0.333133 0.721493 0.179987
0.407640 0.721493 0.179987
0.482147 0.721493 0.179987
0.556653 0.721493 0.179987
0.631160 0.721493 0.179987
0.705667 0.721493 0.179987
0.780173 0.721493 0.179987
0.854649 0.721468 0.180038
0.921716 0.718372 0.187494
0.979571 0.714045 0.204125
1.036499 0.713111 0.221341
-0.039400 0.790680 0.179987
0.035100 0.790680 0.179987
0.109600 0.790680 0.179987
0.184100 0.790680 0.179987
0.258600 0.790680 0.179987
0.333133 0.790680 0.179987
0.407640 0.790680 0.179987
0.482147 0.790680 0.179987
0.556653 0.790680 0.179987
0.631160 0.790680 0.179987
0.705667 0.790680 0.179987
0.780173 0.790680 0.179987
0.854700 0.790680 0.179987
0.929200 0.790680 0.179987
1.000016 0.789039 0.183687
1.057755 0.783564 0.200161
-0.039400 0.860207 0.179987
0.035100 0.860207 0.179987
0.109600 0.860207 0.179987
0.184100 0.860207 0.179987
0.258600 0.860207 0.179987
0.333133 0.860207 0.179987
0.407640 0.860207 0.179987
0.482147 0.860207 0.179987
0.556653 0.860207 0.179987
0.631160 0.860207 0.179987
0.705667 0.860207 0.179987
0.780173 0.860207 0.179987
0.854700 0.860207 0.179987
0.929200 0.860207 0.179987
1.003700 0.860207 0.179987
1.076757 0.859702 0.181083
-0.039400 0.929947 0.179987
0.035100 0.929947 0.179987
0.109600 0.929947 0.179987
0.184100 0.929947 0.179987
0.258600 0.929947 0.179987
0.333133 0.929947 0.179987
0.407640 0.929947 0.179987
0.482147 0.929947 0.179987
0.556653 0.929947 0.179987
0.631160 0.929947 0.179987
0.705667 0.929947 0.179987
0.780173 0.929947 0.179987
0.854700 0.929947 0.179987
0.929200 0.929947 0.179987
1.003700 0.929947 0.179987
1.077840 0.929947 0.179987
-0.039400 0.999661 0.179987
0.035100 0.999661 0.179987
0.109600 0.999661 0.179987
0.184100 0.999661 0.179987
0.258600 0.999661 0.179987
0.333133 0.999661 0.179987
0.407640 0.999661 0.179987
0.482147 0.999661 0.179987
0.556653 0.999661 0.179987
0.631160 0.999661 0.179987
0.705667 0.999661 0.179987
0.780173 0.999661 0.179987
0.854700 0.999661 0.179987
0.929200 0.999661 0.179987
1.003700 0.999661 0.179987
1.077840 0.999661 0.179987
-0.039400 0.000000 0.266180
0.035105 0.000005 0.266175
0.110487 0.006536 0.259655
0.176564 0.018800 0.247396
0.237991 0.022849 0.244371
0.304947 0.028187 0.249400
0.368640 0.038968 0.254532
0.429228 0.052919 0.260928
0.490136 0.066555 0.269245
0.550796 0.080360 0.278900
0.611147 0.094520 0.289540
0.671679 0.108495 0.300796
0.731588 0.123108 0.312752
0.792923 0.136267 0.324513
0.853388 0.150311 0.336871
0.914142 0.163797 0.349161
-0.039400 0.057787 0.266180
0.035100 0.057787 0.266180
0.109721 0.058423 0.265554
0.181065 0.069784 0.254272
0.242857 0.075804 0.249216
0.309218 0.081690 0.254098
0.371331 0.094138 0.259565
0.431991 0.107943 0.267346
0.492943 0.121532 0.276902
0.553275 0.135717 0.287681
0.613823 0.149712 0.299144
0.674297 0.163754 0.311148
0.734541 0.177944 0.323660
0.795870 0.191142 0.335875
0.858345 0.203229 0.347587
0.920856 0.214863 0.359085
-0.039400 0.119893 0.266180
0.035100 0.119893 0.266180
0.109600 0.119893 0.266180
0.183947 0.124211 0.261935
0.248167 0.132524 0.254604
0.313112 0.139972 0.259033
0.374339 0.153195 0.266034
0.434847 0.167188 0.275598
0.495512 0.181077 0.286633
0.556185 0.194903 0.298443
0.616971 0.208657 0.310753
0.679066 0.221042 0.322614
0.741618 0.233042 0.334287
0.804362 0.244806 0.345923
0.867393 0.256281 0.357473
0.930036 0.267712 0.368891
-0.039400 0.183760 0.266180
0.035100 0.183760 0.266180
0.109600 0.183760 0.266180
0.184148 0.184086 0.265866
0.253440 0.190665 0.260329
0.316489 0.200377 0.265085
0.377402 0.213990 0.274649
0.438170 0.227698 0.286201
0.499956 0.240463 0.298011
0.562499 0.252446 0.309638
0.625145 0.264303 0.321308
0.688147 0.275792 0.332792
0.751160 0.287280 0.344280
0.814193 0.298764 0.355764
0.877227 0.310307 0.367307
0.939955 0.321724 0.378724
-0.039400 0.248753 0.266180
0.035100 0.248753 0.266180
0.109600 0.248753 0.266180
0.184100 0.248753 0.266180
0.257473 0.250178 0.266033
0.320485 0.260452 0.273640
0.383030 0.272401 0.284793
0.445741 0.284232 0.296339
0.508704 0.295788 0.307854
0.571734 0.307293 0.319370
0.634692 0.318811 0.330891
0.697704 0.330290 0.342364
0.760737 0.341780 0.353842
0.823771 0.353267 0.365342
0.886804 0.364804 0.376884
0.949454 0.376222 0.388301
-0.039400 0.314600 0.266180
0.035100 0.314600 0.266180
0.109600 0.314600 0.266180
0.184100 0.314600 0.266180
0.258600 0.314600 0.266180
0.330640 0.315151 0.268667
0.390656 0.321199 0.283165
0.450625 0.332469 0.297702
0.512158 0.344355 0.310713
0.574880 0.355977 0.322548
0.637893 0.367491 0.334033
0.700847 0.378987 0.345507
0.763880 0.390471 0.357000
0.826913 0.401946 0.368536
0.889947 0.413476 0.380027
0.952675 0.424924 0.391444
-0.039400 0.381160 0.266180
0.035100 0.381160 0.266180
0.109600 0.381160 0.266180
0.184100 0.381160 0.266180
0.258600 0.381160 0.266180
0.333133 0.381160 0.266180
0.406051 0.380814 0.267769
0.467549 0.381401 0.280815
0.524822 0.388689 0.298053
0.582666 0.399690 0.314711
0.641096 0.412303 0.330809
0.702007 0.424514 0.344355
0.763906 0.436501 0.356974
0.826913 0.447993 0.368536
0.889947 0.459471 0.380027
0.952675 0.470933 0.391444
-0.039400 0.448313 0.266180
0.035100 0.448313 0.266180
0.109600 0.448313 0.266180
0.184100 0.448313 0.266180
0.258600 0.448313 0.266180
0.333133 0.448313 0.266180
