example_ofxGpuLutCube/bin/data/ofxGpuLutCube/LUT/S13 (magenta cold).cube
LUT_3D_SIZE 6
-0.039400 0.000000 0.000000
0.155700 0.028420 0.028420
0.344700 0.062900 0.062900
0.533800 0.097360 0.097360
0.722800 0.131880 0.131880
0.911595 0.166344 0.166344
-0.039400 0.183760 0.000000
0.184100 0.183760 0.000000
0.369844 0.187772 0.037788
0.541872 0.221244 0.089284
0.722848 0.258896 0.131836
0.911595 0.293364 0.166344
-0.039400 0.381160 0.000000
0.184100 0.381160 0.000000
0.407640 0.381160 0.000000
0.602104 0.375500 0.029036
0.774536 0.390024 0.080192
0.945884 0.419925 0.131956
-0.039400 0.584100 0.000000
0.184100 0.584100 0.000000
0.407640 0.584100 0.000000
0.631160 0.584100 0.000000
0.836304 0.577584 0.018384
1.008239 0.578384 0.069700
-0.039400 0.790680 0.000000
0.184100 0.790680 0.000000
0.407640 0.790680 0.000000
0.631160 0.790680 0.000000
0.854700 0.790680 0.000000
1.071589 0.787803 0.006251
-0.039400 0.999661 0.000000
0.184100 0.999661 0.000000
0.407640 0.999661 0.000000
0.631160 0.999661 0.000000
0.854700 0.999661 0.000000
1.077840 0.999661 0.000000
-0.039400 0.000000 0.266180
0.176564 0.018800 0.247396
0.368640 0.038968 0.254532
0.550796 0.080360 0.278900
0.731588 0.123108 0.312752
0.914142 0.163797 0.349161
-0.039400 0.183760 0.266180
0.184148 0.184086 0.265866
0.377402 0.213990 0.274649
0.562499 0.252446 0.309638
0.751160 0.287280 0.344280
0.939955 0.321724 0.378724
-0.039400 0.381160 0.266180
0.184100 0.381160 0.266180
0.406051 0.380814 0.267769
0.582666 0.399690 0.314711
0.763906 0.436501 0.356974
0.952675 0.470933 0.391444
-0.039400 0.584100 0.266180
0.184100 0.584100 0.266180
0.407640 0.584100 0.266180
0.631160 0.584100 0.266180
0.816055 0.581400 0.304825
0.988196 0.603793 0.355912
-0.039400 0.790680 0.266180
0.184100 0.790680 0.266180
0.407640 0.790680 0.266180
0.631160 0.790680 0.266180
0.854700 0.790680 0.266180
1.051309 0.783050 0.292807
-0.039400 0.999661 0.266180
0.184100 0.999661 0.266180
0.407640 0.999661 0.266180
0.631160 0.999661 0.266180
0.854700 0.999661 0.266180
1.077840 0.999661 0.266180
-0.039400 0.000000 0.519660
0.186284 0.008128 0.511532
0.383120 0.042892 0.476768
0.578160 0.053000 0.485380
0.767992 0.086708 0.501068
0.949206 0.128634 0.524397
-0.039400 0.183760 0.519660
0.184100 0.183760 0.519660
0.399591 0.206490 0.496922
0.592522 0.222398 0.500426
0.776254 0.262190 0.519754
0.957408 0.304240 0.549730
-0.039400 0.381160 0.519660
0.184100 0.381160 0.519660
0.407774 0.382024 0.518796
0.603874 0.408470 0.517340
0.785690 0.450178 0.548602
0.970734 0.488326 0.584259
-0.039400 0.584100 0.519660
0.184100 0.584100 0.519660
0.407640 0.584100 0.519660
0.624538 0.585077 0.526278
0.803686 0.615579 0.570662
0.991775 0.650329 0.605824
-0.039400 0.790680 0.519660
0.184100 0.790680 0.519660
0.407640 0.790680 0.519660
0.631160 0.790680 0.519660
0.854034 0.790408 0.520326
1.032091 0.792301 0.565497
-0.039400 0.999661 0.519660
0.184100 0.999661 0.519660
0.407640 0.999661 0.519660
0.631160 0.999661 0.519660
0.854700 0.999661 0.519660
1.077840 0.999661 0.519660
-0.039400 0.000000 0.768540
0.184288 0.000412 0.768116
0.405300 0.034692 0.733788
0.589680 0.064540 0.703960
0.782900 0.071800 0.711208
0.984569 0.093370 0.728857
-0.039400 0.183760 0.768540
0.184100 0.183760 0.768540
0.410134 0.195530 0.756731
0.605632 0.231599 0.720666
0.798336 0.240120 0.726640
0.992287 0.269361 0.742276
-0.039400 0.381160 0.768540
0.184100 0.381160 0.768540
0.407640 0.381160 0.768540
0.623433 0.406257 0.743427
0.814912 0.420940 0.743200
1.001642 0.457382 0.760189
-0.039400 0.584100 0.768540
0.184100 0.584100 0.768540
0.407640 0.584100 0.768540
0.631438 0.585430 0.767186
0.829562 0.609262 0.759792
1.011623 0.650317 0.785552
-0.039400 0.790680 0.768540
0.184100 0.790680 0.768540
0.407640 0.790680 0.768540
0.631160 0.790680 0.768540
0.843609 0.796700 0.778858
1.029771 0.831180 0.815880
-0.039400 0.999661 0.768540
0.184100 0.999661 0.768540
0.407640 0.999661 0.768540
0.631160 0.999661 0.768540
0.854700 0.999661 0.768540
1.076674 0.999103 0.769706
-0.039400 0.000000 1.014400
0.184100 0.000000 1.014400
0.412160 0.023704 0.990664
0.615940 0.061796 0.952604
0.796340 0.085220 0.929180
0.987370 0.090569 0.934510
-0.039400 0.183760 1.014400
0.184100 0.183760 1.014400
0.408403 0.185680 1.012480
0.627996 0.222668 0.975497
0.811760 0.253544 0.944616
1.002790 0.258889 0.949946
-0.039400 0.381160 1.014400
0.184100 0.381160 1.014400
0.407640 0.381160 1.014400
0.633838 0.395067 1.000474
0.829312 0.432125 0.963429
1.019350 0.439709 0.966569
-0.039400 0.584100 1.014400
0.184100 0.584100 1.014400
0.407640 0.584100 1.014400
0.631160 0.584100 1.014400
0.847581 0.610661 0.987801
1.036390 0.625550 0.983578
-0.039400 0.790680 1.014400
0.184100 0.790680 1.014400
0.407640 0.790680 1.014400
0.631160 0.790680 1.014400
0.855186 0.792290 1.012729
1.053132 0.815391 1.000744
-0.039400 0.999661 1.014400
0.184100 0.999661 1.014400
0.407640 0.999661 1.014400
0.631160 0.999661 1.014400
0.854700 0.999661 1.014400
1.065827 1.010704 1.021162
-0.039400 0.000000 1.257708
0.184100 0.000000 1.257708
0.412024 0.012839 1.244928
0.630903 0.051148 1.206620
0.822936 0.088233 1.169475
1.002467 0.105667 1.152141
-0.039400 0.183760 1.257708
0.184100 0.183760 1.257708
0.407640 0.183760 1.257708
0.635721 0.211774 1.229694
0.838292 0.249225 1.192244
1.017887 0.273987 1.167561
-0.039400 0.381160 1.257708
0.184100 0.381160 1.257708
0.407640 0.381160 1.257708
0.632629 0.384919 1.254009
0.851297 0.422199 1.216682
1.034451 0.454799 1.184129
-0.039400 0.584100 1.257708
0.184100 0.584100 1.257708
0.407640 0.584100 1.257708
0.631160 0.584100 1.257708
0.857634 0.599765 1.242011
1.053089 0.637204 1.204604
-0.039400 0.790680 1.257708
0.184100 0.790680 1.257708
0.407640 0.790680 1.257708
0.631160 0.790680 1.257708
0.854700 0.790680 1.257708
1.071450 0.818416 1.229972
-0.039400 0.999661 1.257708
0.184100 0.999661 1.257708
0.407640 0.999661 1.257708
0.631160 0.999661 1.257708
0.854700 0.999661 1.257708
1.078640 1.001499 1.255870
