example_ofxGpuLutCube/bin/data/ofxGpuLutCube/LUT/S14 (high contrasty).cube
LUT_3D_SIZE 6
0.003090 0.000000 0.003090
0.072124 0.013643 0.009492
0.224666 0.036683 0.008636
0.417282 0.056538 0.000000
0.547845 0.068375 0.012296
0.627084 0.074555 0.009350
0.015529 0.096099 0.030440
0.086528 0.102066 0.029930
0.271982 0.130944 0.016622
0.485498 0.157052 0.000158
0.622162 0.170099 0.003778
0.697345 0.189506 0.019739
0.002995 0.227978 0.073857
0.045909 0.241405 0.062756
0.304684 0.289621 0.003762
0.556142 0.324409 0.003565
0.703689 0.340477 0.014692
0.778851 0.363301 0.009961
0.000000 0.398663 0.125546
0.051810 0.423414 0.115979
0.334341 0.511923 0.007390
0.630421 0.569234 0.003648
0.795956 0.592055 0.014306
0.870000 0.613542 0.012363
0.007479 0.511669 0.149109
0.058928 0.551588 0.135875
0.368308 0.656560 0.000406
0.685156 0.736065 0.008712
0.857527 0.769142 0.048967
0.929122 0.779634 0.053626
0.000000 0.605309 0.186329
0.066892 0.690926 0.089361
0.457464 0.765500 0.004933
0.739711 0.826631 0.025424
0.910973 0.856852 0.073154
0.984311 0.866323 0.077552
0.009349 0.012582 0.077607
0.077100 0.019887 0.080944
0.248999 0.036778 0.085444
0.469979 0.021382 0.074282
0.604098 0.027974 0.081270
0.684298 0.004643 0.082567
0.016895 0.103832 0.101803
0.089692 0.114235 0.105482
0.295830 0.141390 0.103775
0.533273 0.166721 0.108059
0.693183 0.149272 0.075006
0.773882 0.155813 0.068333
0.000627 0.243310 0.147534
0.104337 0.255349 0.151085
0.335488 0.312988 0.127834
0.611385 0.347980 0.132037
0.777389 0.352047 0.092457
0.860049 0.374623 0.048774
0.010262 0.430301 0.211732
0.117412 0.455504 0.214555
0.367709 0.558652 0.165048
0.692605 0.618473 0.173785
0.868598 0.639464 0.131700
0.946625 0.659126 0.073966
0.010157 0.543348 0.258858
0.045158 0.587452 0.257317
0.351683 0.716870 0.100301
0.746609 0.789447 0.132478
0.923271 0.816388 0.174288
0.995581 0.825924 0.138954
0.027631 0.648157 0.354372
0.041544 0.730810 0.354773
0.402967 0.823927 0.303790
0.767309 0.885562 0.268627
0.955946 0.908071 0.269355
1.000000 0.906066 0.355987
0.000000 0.032912 0.225395
0.083489 0.017319 0.240059
0.265279 0.031362 0.256728
0.493874 0.024992 0.264547
0.630979 0.025163 0.270670
0.707294 0.023763 0.282520
0.000000 0.139621 0.250774
0.095686 0.143441 0.259254
0.308102 0.161336 0.301957
0.567591 0.178062 0.313722
0.733275 0.126776 0.309459
0.818445 0.088081 0.321599
0.004516 0.285001 0.310167
0.116932 0.296434 0.320189
0.345220 0.348767 0.359330
0.667091 0.366932 0.358019
0.833362 0.362103 0.352797
0.904098 0.389805 0.367505
0.001673 0.481635 0.391288
0.145312 0.508860 0.406541
0.363187 0.612161 0.423304
0.716265 0.675433 0.446662
0.926133 0.690239 0.382624
0.992501 0.708903 0.390966
0.000000 0.596793 0.447236
0.079823 0.638422 0.467781
0.247325 0.769703 0.463390
0.756078 0.851317 0.449729
0.942366 0.868523 0.479549
1.000000 0.873186 0.496825
0.000000 0.693002 0.532168
0.041618 0.770477 0.569430
0.328812 0.864713 0.576576
0.750890 0.923452 0.573593
0.953480 0.947897 0.568869
1.000000 0.945886 0.617676
0.000000 0.100669 0.348305
0.059758 0.028304 0.420242
0.274365 0.014816 0.455106
0.509302 0.040267 0.471402
0.651154 0.033153 0.480399
0.727182 0.032306 0.496716
0.000323 0.195912 0.408668
0.093610 0.199891 0.426694
0.316987 0.179443 0.536679
0.583637 0.205175 0.549459
0.751273 0.133446 0.569271
0.831695 0.103878 0.590402
0.001255 0.341079 0.490784
0.108348 0.353867 0.510940
0.318035 0.378142 0.634263
0.668608 0.399534 0.651581
0.840067 0.388410 0.653335
0.908756 0.419591 0.667595
0.007603 0.539814 0.584452
0.157173 0.568310 0.611099
0.411967 0.659933 0.678941
0.723327 0.728566 0.723129
0.919443 0.736209 0.723428
0.985192 0.755298 0.729855
0.003410 0.650716 0.635010
0.063979 0.694767 0.672272
0.217308 0.813037 0.747985
0.729981 0.896618 0.768340
0.940812 0.918085 0.777827
1.000000 0.921012 0.785399
0.009887 0.735908 0.689337
0.041544 0.807200 0.747030
0.188477 0.895509 0.803889
0.725609 0.957549 0.820490
0.938512 0.981598 0.822875
1.000000 0.983107 0.837786
0.001410 0.135466 0.443295
0.050425 0.112131 0.486367
0.281923 0.028497 0.590506
0.524726 0.030304 0.613596
0.668337 0.045585 0.624276
0.743962 0.042351 0.640719
0.000000 0.231708 0.519909
0.050686 0.236991 0.548888
0.318475 0.141343 0.717136
0.609859 0.155578 0.731976
0.761884 0.160679 0.734229
0.842287 0.120148 0.762029
0.000000 0.372159 0.604760
0.042086 0.384656 0.635703
0.279970 0.389478 0.798285
0.667216 0.406188 0.825642
0.841701 0.400351 0.832899
0.910513 0.431520 0.842823
0.004671 0.569063 0.697848
0.120898 0.596196 0.729214
0.278318 0.689677 0.841250
0.705781 0.745066 0.897927
0.911534 0.753262 0.904317
0.978081 0.772328 0.908424
0.028719 0.676463 0.737466
0.091533 0.718552 0.779223
0.220289 0.828177 0.876161
0.706594 0.914238 0.924316
0.934826 0.937935 0.932053
1.000000 0.942753 0.934828
0.004888 0.751360 0.773790
0.079022 0.821370 0.836547
0.190517 0.904551 0.905574
0.709358 0.969569 0.934961
0.931204 0.995232 0.943532
1.000000 0.998855 0.947739
0.000000 0.164573 0.530710
0.065561 0.145180 0.576881
0.305495 0.024999 0.712713
0.568200 0.045398 0.735215
0.716464 0.062084 0.741807
0.791735 0.062114 0.763703
0.000000 0.265807 0.597759
0.041542 0.269686 0.636873
0.317423 0.207920 0.810229
0.631042 0.199011 0.839572
0.796432 0.169906 0.847191
0.868797 0.210928 0.860722
0.000000 0.393676 0.671231
0.041542 0.409329 0.706759
0.252909 0.420009 0.872232
0.668143 0.439106 0.902624
0.848794 0.433910 0.911630
0.920401 0.465796 0.920942
0.000000 0.578308 0.754432
0.045905 0.609154 0.793069
0.122962 0.694547 0.910662
0.696181 0.752403 0.964580
0.908430 0.762327 0.974386
0.976338 0.778273 0.979463
0.021801 0.680681 0.787634
0.081250 0.724827 0.834042
0.151752 0.831444 0.933057
0.695496 0.915339 0.984927
0.931025 0.939684 0.996143
0.999847 0.945575 0.996908
0.027838 0.757541 0.822795
0.044155 0.824495 0.885558
0.164250 0.904750 0.957673
0.696967 0.969657 0.988195
0.924480 0.995785 0.998875
0.999999 1.000000 1.000000
