example_ofxGpuLutCube/bin/data/ofxGpuLutCube/LUT/S14 (high contrasty).cube
LUT_3D_SIZE 16
0.003090 0.000000 0.003090
0.023587 0.003518 0.006613
0.047206 0.007009 0.009349
0.072124 0.013643 0.009492
0.107194 0.020510 0.012671
0.158686 0.030054 0.015529
0.224666 0.036683 0.008636
0.294148 0.043312 0.000000
0.360080 0.049904 0.000000
0.417282 0.056538 0.000000
0.469492 0.061746 0.000000
0.514006 0.066716 0.007458
0.547845 0.068375 0.012296
0.579112 0.071401 0.012439
0.603561 0.074201 0.012439
0.627084 0.074555 0.009350
0.012814 0.030628 0.012814
0.030184 0.030633 0.012814
0.050749 0.033382 0.012887
0.076729 0.037664 0.015978
0.114318 0.044368 0.017383
0.170523 0.052761 0.018464
0.238236 0.060978 0.013138
0.307775 0.067712 0.004906
0.374680 0.076721 0.000824
0.437979 0.084053 0.004574
0.490157 0.090682 0.014837
0.536780 0.090281 0.006164
0.574107 0.091658 0.000040
0.602543 0.092783 0.000000
0.623532 0.104381 0.020795
0.647409 0.108314 0.017821
0.017864 0.061230 0.019511
0.032915 0.061230 0.019511
0.054229 0.061994 0.019920
0.083106 0.065664 0.022694
0.122661 0.073811 0.024236
0.182523 0.083924 0.023823
0.253989 0.092355 0.016436
0.325703 0.101755 0.012154
0.395273 0.111501 0.011942
0.460754 0.118230 0.004754
0.516749 0.124449 0.010157
0.559211 0.128491 0.018708
0.597221 0.127694 0.004761
0.628259 0.129869 0.000018
0.648110 0.139239 0.017897
0.670811 0.145983 0.011120
0.015529 0.096099 0.030440
0.031410 0.096242 0.030221
0.052754 0.097060 0.029378
0.086528 0.102066 0.029930
0.131729 0.111761 0.032287
0.195100 0.121822 0.029251
0.271982 0.130944 0.016622
0.348013 0.140851 0.004115
0.418955 0.150303 0.005216
0.485498 0.157052 0.000158
0.543661 0.162303 0.000000
0.588730 0.166263 0.000000
0.622162 0.170099 0.003778
0.652423 0.174872 0.000795
0.678360 0.181093 0.004891
0.697345 0.189506 0.019739
0.012465 0.134930 0.043935
0.023559 0.136859 0.043575
0.040128 0.138838 0.040278
0.079123 0.145636 0.038407
0.135689 0.153987 0.037513
0.203445 0.165547 0.027725
0.283964 0.176242 0.014430
0.363995 0.186535 0.007458
0.440203 0.196403 0.007005
0.507810 0.205060 0.007695
0.567496 0.209465 0.003726
0.614385 0.214233 0.004887
0.648621 0.217051 0.000258
0.678299 0.221841 0.000000
0.700331 0.232059 0.021538
0.723869 0.236201 0.000126
0.004146 0.179021 0.060056
0.014062 0.180706 0.057237
0.035549 0.182937 0.056136
0.049671 0.191577 0.046169
0.127537 0.203023 0.037562
0.208354 0.215828 0.024570
0.295322 0.228175 0.003724
0.380196 0.239581 0.000000
0.460585 0.251027 0.000000
0.532301 0.259640 0.011277
0.592473 0.266675 0.013337
0.638963 0.270961 0.019092
0.675705 0.272950 0.003861
0.705184 0.277727 0.000000
0.727177 0.285254 0.011282
0.750395 0.293947 0.000084
0.002995 0.227978 0.073857
0.020972 0.228159 0.073773
0.031886 0.232102 0.071564
0.045909 0.241405 0.062756
0.106611 0.258228 0.037643
0.209588 0.273957 0.017420
0.304684 0.289621 0.003762
0.396626 0.303340 0.003911
0.482162 0.315290 0.001050
0.556142 0.324409 0.003565
0.618833 0.330965 0.012386
0.667418 0.336836 0.019196
0.703689 0.340477 0.014692
0.731688 0.344303 0.000385
0.756066 0.352413 0.007350
0.778851 0.363301 0.009961
0.005704 0.281894 0.091874
0.032795 0.282184 0.090374
0.040839 0.286635 0.088850
0.042311 0.298398 0.082582
0.091597 0.318681 0.049215
0.207838 0.341129 0.006099
0.315245 0.360404 0.003207
0.412417 0.377171 0.001617
0.502217 0.390411 0.011597
0.581355 0.399967 0.001568
0.645137 0.406599 0.016559
0.695470 0.413230 0.023861
0.732384 0.417046 0.029756
0.762020 0.422774 0.003818
0.785152 0.430475 0.020231
0.808674 0.440409 0.013283
0.000000 0.342122 0.109378
0.034452 0.342527 0.109240
0.036482 0.348961 0.108032
0.052456 0.362800 0.101549
0.079453 0.386908 0.061978
0.203271 0.415497 0.004634
0.325114 0.437056 0.003882
0.429566 0.457103 0.000000
0.523089 0.472961 0.002386
0.605523 0.484456 0.005552
0.673854 0.492435 0.005296
0.725829 0.498305 0.018790
0.763121 0.503121 0.013290
0.793284 0.509227 0.015974
0.817174 0.517278 0.016987
0.839428 0.527163 0.016641
0.000000 0.398663 0.125546
0.021883 0.401665 0.125489
0.028079 0.409096 0.122341
0.051810 0.423414 0.115979
0.077582 0.452980 0.080095
0.198834 0.486084 0.009951
0.334341 0.511923 0.007390
0.445829 0.535487 0.006094
0.544601 0.554624 0.002109
0.630421 0.569234 0.003648
0.702198 0.579696 0.007273
0.755965 0.586536 0.017845
0.795956 0.592055 0.014306
0.824622 0.596687 0.007942
0.848730 0.603733 0.005594
0.870000 0.613542 0.012363
0.016559 0.446727 0.137383
0.014286 0.451667 0.134827
0.033469 0.459463 0.134829
0.041542 0.477700 0.125715
0.077277 0.509124 0.084289
0.200272 0.546045 0.008706
0.345158 0.574956 0.004627
0.461640 0.601641 0.013712
0.565208 0.625681 0.012303
0.653432 0.642782 0.002546
0.726089 0.655284 0.012016
0.782506 0.663596 0.020672
0.822295 0.669466 0.018471
0.852168 0.673949 0.015429
0.875207 0.680373 0.020612
0.897036 0.687340 0.022105
0.033942 0.482901 0.147218
0.013868 0.489546 0.143753
0.029766 0.499005 0.140926
0.048757 0.518796 0.132418
0.102948 0.550721 0.095887
0.210563 0.590930 0.014723
0.356315 0.621540 0.000473
0.475076 0.652396 0.003602
0.580699 0.679057 0.011193
0.671449 0.698654 0.004851
0.746790 0.713118 0.009692
0.802713 0.721718 0.025272
0.841811 0.728348 0.036443
0.872472 0.732401 0.039444
0.896733 0.738499 0.039699
0.914454 0.740571 0.043273
0.007479 0.511669 0.149109
0.014735 0.518675 0.148849
0.030912 0.531140 0.145595
0.058928 0.551588 0.135875
0.093053 0.585638 0.089186
0.227436 0.623462 0.013052
0.368308 0.656560 0.000406
0.486905 0.687928 0.010087
0.592673 0.715413 0.006573
0.685156 0.736065 0.008712
0.760881 0.752875 0.022010
0.817464 0.763275 0.039690
0.857527 0.769142 0.048967
0.887308 0.773849 0.053843
0.911413 0.777339 0.058308
0.929122 0.779634 0.053626
0.000000 0.533418 0.151513
0.036144 0.543449 0.152183
0.052944 0.558141 0.147425
0.044774 0.582162 0.129983
0.092382 0.615161 0.080297
0.250722 0.651655 0.017489
0.383787 0.684787 0.000000
0.501241 0.715735 0.001471
0.605022 0.742295 0.003823
0.695544 0.764361 0.010991
0.771434 0.780295 0.031998
0.829033 0.791762 0.048273
0.869383 0.798493 0.054658
0.900626 0.802787 0.058207
0.921980 0.805924 0.064075
0.942385 0.809084 0.066710
0.000000 0.562779 0.163814
0.017194 0.581796 0.157632
0.058522 0.602061 0.149660
0.085149 0.626764 0.118269
0.135674 0.659698 0.047781
0.291099 0.689852 0.001773
0.413325 0.719963 0.000000
0.524284 0.747951 0.008587
0.624553 0.772275 0.017715
0.713181 0.791838 0.024930
0.787174 0.808503 0.038754
0.846473 0.818899 0.055123
0.887342 0.825603 0.063550
0.916787 0.829897 0.064833
0.940998 0.833034 0.070636
0.961452 0.836188 0.068371
0.000000 0.605309 0.186329
0.016361 0.635212 0.172624
0.066052 0.664415 0.149362
0.066892 0.690926 0.089361
0.216676 0.716028 0.013870
0.347152 0.740891 0.000000
0.457464 0.765500 0.004933
0.559412 0.787977 0.015295
0.653773 0.807893 0.014424
0.739711 0.826631 0.025424
0.812927 0.840415 0.049657
0.869571 0.850833 0.062129
0.910973 0.856852 0.073154
0.942499 0.862337 0.076832
0.963862 0.863261 0.074544
0.984311 0.866323 0.077552
0.006613 0.003111 0.020497
0.023827 0.006216 0.020689
0.047447 0.007411 0.023611
0.073161 0.013664 0.026526
0.108807 0.020755 0.028140
0.163892 0.030061 0.029818
0.233071 0.036349 0.023970
0.303126 0.043239 0.014528
0.370201 0.052328 0.014671
0.428793 0.058728 0.014684
0.481811 0.062593 0.020233
0.525994 0.066111 0.026895
0.561356 0.069503 0.030247
0.589750 0.070638 0.031267
0.616861 0.073658 0.031267
0.640821 0.076418 0.025494
0.015737 0.030836 0.027146
0.030375 0.031016 0.027107
0.051430 0.033680 0.027862
0.077300 0.037908 0.030345
0.117733 0.044850 0.033295
0.174697 0.054348 0.032842
0.247159 0.061445 0.026716
0.318622 0.070573 0.018835
0.387074 0.078225 0.014768
0.448609 0.086663 0.021776
0.500998 0.093116 0.032127
0.547769 0.091274 0.019446
0.586388 0.092636 0.014473
0.613216 0.095181 0.014665
0.637312 0.096483 0.015278
0.661107 0.110748 0.034052
0.017840 0.062145 0.036839
0.035495 0.061699 0.034500
0.055131 0.062750 0.036704
0.083727 0.068735 0.037252
0.126125 0.075796 0.039929
0.189070 0.085919 0.038092
0.264156 0.094810 0.026667
0.337848 0.102161 0.015442
0.405599 0.111989 0.020947
0.471571 0.119125 0.022388
0.527629 0.124848 0.027111
0.574391 0.126036 0.019052
0.610777 0.127867 0.015295
0.639612 0.131018 0.014831
0.661093 0.141873 0.034893
0.685410 0.145770 0.030413
0.014184 0.098488 0.044736
0.030234 0.098574 0.044732
0.053896 0.100224 0.044593
0.087571 0.104179 0.046455
0.133796 0.112255 0.046535
0.199810 0.123899 0.043549
0.279014 0.133839 0.029396
0.356747 0.143412 0.020629
0.428747 0.153480 0.023924
0.496607 0.160479 0.016864
0.557294 0.165552 0.015339
0.602563 0.169718 0.015006
0.635608 0.173671 0.021185
0.666344 0.177918 0.019455
0.693120 0.184054 0.015642
0.714229 0.188561 0.017110
0.009480 0.138202 0.059404
0.024349 0.138434 0.058217
0.032454 0.142102 0.055533
0.079970 0.148243 0.053279
0.139146 0.156644 0.051866
0.210206 0.167700 0.041786
0.292906 0.178778 0.027782
0.374818 0.190166 0.022239
0.451477 0.201028 0.028015
0.522604 0.209188 0.024211
0.582306 0.215556 0.025808
0.629886 0.218619 0.021563
0.665047 0.220795 0.014145
0.692795 0.226313 0.014982
0.718412 0.232965 0.020258
0.739375 0.242261 0.024548
0.004787 0.182451 0.074440
0.025531 0.182621 0.074262
0.036512 0.186377 0.071204
0.051146 0.195025 0.062287
0.132124 0.206807 0.051787
0.215753 0.220801 0.038418
0.306029 0.233897 0.016976
0.391827 0.245281 0.025301
0.474154 0.256034 0.026522
0.548609 0.264746 0.016222
0.608976 0.271788 0.025718
0.656484 0.276366 0.030452
0.691377 0.278555 0.022745
0.719470 0.282799 0.019603
0.742672 0.291651 0.030436
0.767552 0.300175 0.017194
0.000089 0.229999 0.089735
0.025671 0.232044 0.089656
0.033395 0.235966 0.087646
0.044810 0.246351 0.078974
0.108229 0.264204 0.051785
0.219389 0.281021 0.031366
0.316781 0.296542 0.020553
0.409990 0.311067 0.021899
0.496016 0.322034 0.032022
0.573138 0.331427 0.026402
0.637054 0.338216 0.017509
0.686235 0.342279 0.015765
0.721260 0.346915 0.022009
0.748623 0.350757 0.024994
0.773156 0.359149 0.026973
0.796045 0.370334 0.032243
0.000000 0.285445 0.107121
0.023345 0.288777 0.106449
0.046124 0.293129 0.106311
0.043629 0.304770 0.097282
0.084986 0.326234 0.063027
0.216066 0.349086 0.026083
0.327254 0.368623 0.021503
0.427016 0.386281 0.020334
0.517481 0.398105 0.030419
0.598608 0.409495 0.031218
0.665815 0.417126 0.018755
0.715964 0.422849 0.023920
0.753354 0.426502 0.016000
0.780023 0.430394 0.021674
0.802955 0.438803 0.030369
0.828453 0.452312 0.032126
0.000000 0.348238 0.126751
0.026636 0.350210 0.126053
0.039742 0.356117 0.125298
0.043453 0.369395 0.116520
0.081744 0.393917 0.079281
0.210479 0.422915 0.018113
0.337007 0.447574 0.023825
0.444947 0.467672 0.018268
0.540199 0.483618 0.023409
0.625301 0.496593 0.032642
0.695009 0.505864 0.029155
0.748359 0.512457 0.032735
0.786462 0.516946 0.020406
0.813176 0.520378 0.021500
0.835865 0.526916 0.029772
0.862402 0.540357 0.015599
0.001896 0.406666 0.143287
0.023872 0.410108 0.143246
0.029953 0.417022 0.140097
0.044458 0.432883 0.133041
0.081438 0.462053 0.094937
0.209378 0.496401 0.024636
0.348498 0.523501 0.025254
0.463294 0.549289 0.024491
0.564186 0.568452 0.018534
0.652148 0.584076 0.023178
0.724564 0.593534 0.025586
0.779074 0.601440 0.026249
0.819499 0.608179 0.019987
0.847989 0.611716 0.023433
0.869314 0.617733 0.036015
0.893159 0.628395 0.016059
0.001340 0.455312 0.156571
0.035515 0.459042 0.156549
0.028692 0.469092 0.152860
0.045207 0.486350 0.143894
0.084302 0.517899 0.105288
0.214668 0.556827 0.031883
0.361051 0.588203 0.026236
0.479864 0.615298 0.026955
0.585059 0.639714 0.021026
0.676222 0.658053 0.018681
0.749988 0.671029 0.024026
0.806576 0.678530 0.032853
0.846429 0.685419 0.034506
0.876692 0.690193 0.035948
0.898271 0.694360 0.044427
0.919070 0.700802 0.039891
0.008059 0.490143 0.165661
0.024414 0.498191 0.163840
0.048529 0.507866 0.162956
0.048495 0.527711 0.151721
0.103295 0.559909 0.112160
0.221161 0.600691 0.041040
0.370950 0.634700 0.030191
0.492717 0.665932 0.027958
0.601243 0.691840 0.024325
0.694099 0.712006 0.027299
0.770440 0.727221 0.038549
0.826818 0.736504 0.059857
0.866752 0.742001 0.061869
0.895820 0.745944 0.059463
0.918234 0.750198 0.065681
0.938903 0.754060 0.062557
0.004411 0.518436 0.172423
0.015674 0.528304 0.169591
0.054257 0.539590 0.170870
0.041875 0.561894 0.155551
0.092086 0.595923 0.107244
0.232309 0.635586 0.035614
0.380220 0.670119 0.031454
0.502662 0.700983 0.029115
0.613469 0.728867 0.023218
0.708133 0.749630 0.030493
0.784166 0.765400 0.049006
0.841370 0.776506 0.076273
0.881764 0.782911 0.078726
0.910359 0.786376 0.076693
0.932105 0.789675 0.077952
0.952243 0.791254 0.072420
0.028271 0.540425 0.181714
0.014744 0.550591 0.179356
0.047956 0.566867 0.175824
0.045092 0.591765 0.160700
0.100440 0.627820 0.105417
0.246928 0.667448 0.020578
0.393432 0.698587 0.030701
0.515351 0.730553 0.035447
0.624638 0.757390 0.030422
0.718385 0.778025 0.035214
0.795644 0.793750 0.056798
0.853905 0.805204 0.070119
0.894386 0.812129 0.081498
0.923710 0.816357 0.086446
0.945350 0.819496 0.082560
0.963358 0.819636 0.083665
0.014949 0.572519 0.204553
0.015958 0.591902 0.200889
0.030132 0.612226 0.191348
0.049109 0.639672 0.173605
0.125381 0.675087 0.117882
0.269254 0.711286 0.036140
0.412670 0.739845 0.019871
0.534749 0.767495 0.031737
0.641467 0.791060 0.036919
0.734572 0.810035 0.043840
0.811691 0.826048 0.063539
0.870204 0.835479 0.076402
0.911587 0.842055 0.082475
0.940360 0.845958 0.083213
0.964027 0.848947 0.088775
0.981351 0.849775 0.094011
0.000065 0.618536 0.240251
0.044426 0.648109 0.236513
0.029597 0.677701 0.220170
0.052848 0.705525 0.192367
0.151389 0.738795 0.129435
0.299926 0.769702 0.056333
0.442244 0.791754 0.045555
0.560506 0.814172 0.027306
0.666726 0.834175 0.034005
0.757515 0.847897 0.049966
0.834195 0.860338 0.069924
0.892662 0.870695 0.085454
0.934279 0.875728 0.091568
0.962026 0.878829 0.097277
0.985267 0.879628 0.101635
0.999905 0.882675 0.112557
0.009349 0.007009 0.044935
0.026661 0.009590 0.044935
0.047961 0.010886 0.045334
0.075722 0.016847 0.046420
0.112592 0.023594 0.049839
0.170334 0.031016 0.051604
0.242065 0.035333 0.043071
0.315086 0.037544 0.035721
0.382839 0.046563 0.041110
0.446090 0.055981 0.042851
0.501845 0.052708 0.035721
0.547820 0.050182 0.031108
0.582133 0.052501 0.031128
0.612730 0.050999 0.031064
0.639895 0.051605 0.031128
0.663848 0.051605 0.031819
0.015703 0.034240 0.051569
0.032935 0.034263 0.049230
0.052065 0.037011 0.049608
0.081173 0.041053 0.052393
0.121872 0.047767 0.055199
0.179919 0.056240 0.055357
0.256369 0.062197 0.049396
0.333379 0.068833 0.040619
0.402389 0.078314 0.043566
0.467820 0.082898 0.038392
0.523507 0.086129 0.033173
0.569770 0.087101 0.035536
0.605824 0.087147 0.034519
0.634144 0.089280 0.038922
0.658679 0.090556 0.039526
0.685210 0.093184 0.028990
0.018243 0.064841 0.058257
0.035463 0.064895 0.058604
0.057263 0.066163 0.058691
0.086749 0.069886 0.059144
0.129684 0.077730 0.060607
0.193811 0.087684 0.060530
0.272918 0.095928 0.050051
0.351330 0.102842 0.039326
0.423701 0.112852 0.044296
0.490856 0.119403 0.041057
0.548830 0.122308 0.036559
0.595947 0.123830 0.035869
0.631198 0.126239 0.038823
0.660789 0.129652 0.039781
0.685270 0.131677 0.036297
0.711862 0.136207 0.030270
0.012760 0.100099 0.066860
0.028989 0.100333 0.066856
0.054771 0.103385 0.066809
0.088484 0.107987 0.067221
0.137690 0.116124 0.068756
0.207863 0.127627 0.066444
0.289662 0.136849 0.055025
0.370389 0.145184 0.044710
0.445091 0.155323 0.052342
0.515836 0.163915 0.055126
0.577602 0.167092 0.047510
0.625458 0.167069 0.038167
0.661852 0.168173 0.031253
0.690517 0.173154 0.030997
0.713142 0.182047 0.052403
0.736761 0.186264 0.045044
0.012104 0.141523 0.080997
0.022358 0.141823 0.080233
0.040851 0.144652 0.078561
0.084384 0.152373 0.077011
0.141829 0.160955 0.076121
0.217996 0.172332 0.070705
0.304437 0.183232 0.055979
0.389828 0.193112 0.047433
0.468674 0.204049 0.058475
0.542783 0.212772 0.062597
0.606254 0.216553 0.048014
0.653407 0.218952 0.046553
0.689501 0.220503 0.035877
0.719071 0.224443 0.035425
0.742016 0.234052 0.046406
0.766712 0.239215 0.027795
0.012191 0.186076 0.097391
0.015302 0.186425 0.096485
0.050429 0.189930 0.096015
0.074059 0.198361 0.090309
0.136103 0.212650 0.078803
0.223670 0.225404 0.070034
0.317326 0.238819 0.054279
0.408802 0.250859 0.045463
0.492176 0.262137 0.061771
0.569542 0.270232 0.062551
0.632645 0.275324 0.055398
0.679945 0.278177 0.053673
0.717727 0.281138 0.036182
0.744927 0.286620 0.043624
0.770942 0.293518 0.049050
0.795674 0.301232 0.027780
0.005035 0.235588 0.113188
0.019745 0.237609 0.113122
0.049300 0.240025 0.112178
0.073558 0.250865 0.107184
0.114343 0.270572 0.082675
0.226093 0.288863 0.068927
0.328414 0.304061 0.060347
0.425318 0.317515 0.056903
0.514505 0.329817 0.063444
0.593922 0.338773 0.063678
0.659965 0.344034 0.048376
0.708088 0.347438 0.049484
0.746219 0.351374 0.039726
0.775727 0.357428 0.030416
0.798619 0.366609 0.051023
0.824505 0.375647 0.037031
0.000000 0.293145 0.132121
0.023136 0.295701 0.132121
0.046880 0.300249 0.132086
0.081699 0.311033 0.127609
0.104723 0.334255 0.100249
0.221968 0.359504 0.070138
0.338300 0.378921 0.071644
0.442550 0.395475 0.069494
0.536341 0.408131 0.071381
0.620218 0.419450 0.067420
0.689144 0.426353 0.052534
0.740421 0.430831 0.045367
0.778787 0.435204 0.043671
0.807149 0.440251 0.028938
0.829672 0.448852 0.051585
0.853209 0.459207 0.054369
0.001430 0.358185 0.152048
0.022043 0.359481 0.152048
0.045688 0.365749 0.152072
0.078320 0.379168 0.147641
0.110986 0.404783 0.121223
0.214863 0.436565 0.075995
0.348972 0.460313 0.078710
0.461340 0.481323 0.082241
0.560579 0.497967 0.080773
0.647900 0.510767 0.073561
0.720240 0.519388 0.052934
0.774584 0.525807 0.046620
0.811801 0.529547 0.059858
0.839492 0.533319 0.038306
0.862451 0.540260 0.039652
0.885697 0.552240 0.054503
0.017704 0.416981 0.171940
0.021471 0.420386 0.170045
0.050989 0.427471 0.169888
0.087188 0.442968 0.165265
0.117457 0.473233 0.138401
0.213318 0.511404 0.085382
0.360624 0.540205 0.088931
0.480182 0.565930 0.093362
0.585420 0.586493 0.091944
0.675839 0.601178 0.089695
0.748282 0.611473 0.079741
0.805158 0.619187 0.066861
0.845732 0.623919 0.063311
0.874008 0.627615 0.038317
0.895912 0.632932 0.033438
0.918261 0.643020 0.058251
0.012284 0.466752 0.185986
0.018848 0.470362 0.185384
0.036101 0.479456 0.183003
0.085093 0.496884 0.179509
0.117059 0.530646 0.146493
0.205813 0.573351 0.080522
0.371212 0.604634 0.092551
0.495727 0.633845 0.095057
0.605801 0.657627 0.090574
0.698877 0.675472 0.096184
0.773060 0.687829 0.106988
0.828746 0.696123 0.108456
0.870069 0.701289 0.100425
0.900245 0.705926 0.068630
0.922975 0.710572 0.063574
0.943612 0.717342 0.074218
0.016109 0.503189 0.198655
0.014143 0.507139 0.196508
0.028119 0.519434 0.194417
0.051754 0.539780 0.190086
0.095952 0.573953 0.152719
0.191070 0.618700 0.072979
0.376353 0.652856 0.072205
0.506240 0.683427 0.070397
0.619054 0.709227 0.084700
0.714640 0.729283 0.099264
0.791922 0.743870 0.118167
0.846987 0.751923 0.131329
0.887491 0.757302 0.120829
0.919234 0.762470 0.087730
0.941712 0.766967 0.087462
0.960775 0.770244 0.089161
0.029571 0.528989 0.210435
0.018641 0.538566 0.210361
0.029859 0.551297 0.209021
0.041792 0.573464 0.199086
0.072736 0.608998 0.163040
0.189930 0.655203 0.081352
0.379459 0.690731 0.062309
0.512980 0.721030 0.055743
0.629125 0.746712 0.058987
0.728600 0.767918 0.063011
0.807516 0.782701 0.094306
0.864651 0.792790 0.121327
0.901913 0.797399 0.141729
0.931310 0.801291 0.126741
0.957397 0.804884 0.096356
0.975166 0.808028 0.097850
0.010388 0.552940 0.223648
0.017490 0.563342 0.223731
0.030669 0.578707 0.223320
0.054828 0.603414 0.211765
0.064602 0.642720 0.171972
0.183896 0.688663 0.081213
0.383004 0.723091 0.043376
0.520281 0.751895 0.047378
0.637605 0.777334 0.049706
0.737484 0.797994 0.057245
0.818027 0.813602 0.078473
0.877664 0.823432 0.094948
0.917971 0.828910 0.104340
0.946283 0.832652 0.107662
0.967959 0.835939 0.106839
0.987557 0.836453 0.108064
0.025882 0.585841 0.254344
0.039922 0.603006 0.255093
0.054047 0.625414 0.251942
0.042780 0.652985 0.239982
0.072018 0.691964 0.202642
0.197509 0.734748 0.126357
0.389949 0.766436 0.066417
0.532634 0.791520 0.051111
0.651707 0.813726 0.047225
0.752251 0.831593 0.056628
0.833028 0.845267 0.082643
0.895350 0.854849 0.099704
0.936297 0.859241 0.105939
0.964069 0.862495 0.118478
0.984529 0.865229 0.126655
0.999186 0.865816 0.161672
0.004319 0.632552 0.297343
0.041481 0.661342 0.297475
0.068378 0.688184 0.293923
0.047525 0.720395 0.277854
0.124492 0.752435 0.249677
0.261378 0.786035 0.210706
0.422883 0.810646 0.196091
0.552812 0.835325 0.176715
0.669465 0.856068 0.150087
0.771146 0.872247 0.088937
0.853016 0.881833 0.089331
0.914098 0.888791 0.117810
0.954525 0.892775 0.136387
0.972259 0.892874 0.204005
0.986148 0.894847 0.231828
1.000000 0.895193 0.264484
0.009349 0.012582 0.077607
0.026682 0.012765 0.077607
0.048694 0.016092 0.078108
0.077100 0.019887 0.080944
0.117544 0.025205 0.083984
0.175636 0.033287 0.085841
0.248999 0.036778 0.085444
0.328796 0.028313 0.080026
0.403558 0.016228 0.074204
0.469979 0.021382 0.074282
0.523516 0.033435 0.078077
0.568301 0.029680 0.079320
0.604098 0.027974 0.081270
0.634445 0.009000 0.079994
0.660584 0.004647 0.082430
0.684298 0.004643 0.082567
0.014346 0.037712 0.084178
0.032068 0.037726 0.084186
0.054242 0.040227 0.084517
0.083641 0.044216 0.086227
0.125735 0.050990 0.089491
0.186504 0.058608 0.091341
0.265279 0.063135 0.089529
0.348373 0.061628 0.084633
0.422726 0.065075 0.084102
0.488475 0.072455 0.084789
0.543623 0.080627 0.089480
0.592575 0.071981 0.084420
0.632783 0.048235 0.070900
0.661571 0.043719 0.068848
0.687645 0.045992 0.068782
0.712369 0.045685 0.070011
0.014540 0.068636 0.090950
0.031612 0.068726 0.091485
0.056262 0.071389 0.092671
0.087439 0.075617 0.095647
0.133951 0.082699 0.098452
0.200020 0.090923 0.098231
0.280300 0.099327 0.096985
0.360884 0.108157 0.098705
0.437198 0.117065 0.099723
0.506347 0.123114 0.101015
0.570024 0.120421 0.097100
0.623021 0.106997 0.083223
0.664076 0.090320 0.061373
0.692867 0.089353 0.055746
0.719958 0.089735 0.055291
0.744424 0.088380 0.056107
0.016895 0.103832 0.101803
0.031308 0.106768 0.101883
0.052020 0.107633 0.102776
0.089692 0.114235 0.105482
0.141156 0.121752 0.106754
0.213449 0.131668 0.107218
0.295830 0.141390 0.103775
0.378528 0.151633 0.105106
0.457445 0.161356 0.107483
0.533273 0.166721 0.108059
0.601211 0.162967 0.099740
0.655412 0.154017 0.082554
0.693183 0.149272 0.075006
0.722513 0.149649 0.071493
0.749575 0.152391 0.068527
0.773882 0.155813 0.068333
0.010780 0.147389 0.115066
0.024709 0.147592 0.115266
0.044970 0.150654 0.115707
0.093585 0.155688 0.117291
0.144949 0.166836 0.115420
0.222921 0.178639 0.113918
0.311063 0.189391 0.110720
0.398394 0.200125 0.111610
0.480460 0.210917 0.115947
0.560768 0.216532 0.114159
0.630134 0.216140 0.103555
0.684013 0.210365 0.083608
0.722061 0.207186 0.073936
0.753191 0.210123 0.068905
0.779753 0.215198 0.064019
0.803093 0.220666 0.050030
0.005826 0.192702 0.130094
0.016804 0.193101 0.130210
0.055343 0.195393 0.131128
0.099020 0.201990 0.132867
0.142186 0.217738 0.126257
0.228661 0.232640 0.119787
0.325615 0.246170 0.116618
0.418402 0.257979 0.118435
0.504909 0.270021 0.124278
0.586465 0.277348 0.121675
0.655691 0.278905 0.110742
0.711407 0.275191 0.091242
0.750498 0.274999 0.078359
0.782511 0.278288 0.062517
0.806886 0.285164 0.059699
0.832678 0.292311 0.045727
0.000627 0.243310 0.147534
0.019637 0.244940 0.148057
0.058880 0.247512 0.148518
0.104337 0.255349 0.151085
0.149824 0.272983 0.145185
0.228424 0.296552 0.126780
0.335488 0.312988 0.127834
0.435934 0.327794 0.129662
0.528274 0.338956 0.133229
0.611385 0.347980 0.132037
0.681113 0.352230 0.124858
0.736334 0.351222 0.108883
0.777389 0.352047 0.092457
0.811347 0.356636 0.060950
0.836953 0.365522 0.057595
0.860049 0.374623 0.048774
0.000000 0.303477 0.168660
0.027888 0.305381 0.168728
0.061590 0.309219 0.169239
0.110882 0.317726 0.171235
0.157523 0.338709 0.166280
0.225594 0.370374 0.137866
0.345865 0.390540 0.140383
0.453495 0.407419 0.142921
