example_ofxGpuLutCube/bin/data/ofxGpuLutCube/LUT/S15 (pink highlights).cube
LUT_3D_SIZE 16
0.000000 0.000000 0.000000
0.019730 0.002339 0.003302
0.074502 0.006944 0.009137
0.161860 0.013810 0.017377
0.244655 0.022875 0.027855
0.324872 0.033147 0.039402
0.397009 0.043945 0.051291
0.466190 0.056070 0.064417
0.531702 0.068966 0.078172
0.593462 0.082382 0.092310
0.650802 0.096344 0.106862
0.703618 0.109348 0.120290
0.751271 0.122560 0.133829
0.793554 0.134409 0.145753
0.825341 0.143766 0.154800
0.842155 0.148700 0.159552
0.002345 0.034298 0.007206
0.020853 0.034769 0.008518
0.075019 0.036404 0.013317
0.161100 0.040520 0.020664
0.244844 0.046065 0.029751
0.325021 0.054400 0.040499
0.397138 0.062652 0.052787
0.466339 0.072935 0.065718
0.531839 0.084258 0.079317
0.593503 0.096296 0.093319
0.650974 0.109248 0.108132
0.703631 0.121393 0.121410
0.751231 0.133021 0.134398
0.793589 0.144061 0.146237
0.825417 0.152028 0.155358
0.842174 0.155824 0.160032
0.008936 0.107485 0.020957
0.025465 0.107765 0.021708
0.079189 0.108576 0.024719
0.163289 0.111045 0.030222
0.246707 0.113436 0.038517
0.325694 0.118952 0.047490
0.397928 0.124752 0.058926
0.466955 0.131639 0.071118
0.532275 0.139465 0.084114
0.593896 0.147813 0.097623
0.652229 0.156000 0.111277
0.704079 0.164136 0.124973
0.751418 0.171296 0.136836
0.793767 0.178168 0.149453
0.825615 0.182603 0.157741
0.842290 0.182687 0.162056
0.019511 0.200325 0.039076
0.034215 0.200489 0.039605
0.086263 0.201413 0.042148
0.168924 0.202671 0.045864
0.248384 0.203226 0.051830
0.327921 0.207363 0.061767
0.399419 0.208656 0.070427
0.468138 0.211685 0.081433
0.533261 0.215087 0.093415
0.594705 0.218748 0.106038
0.652302 0.222602 0.119259
0.703979 0.225156 0.131807
0.751860 0.228104 0.142787
0.794087 0.231090 0.154696
0.825931 0.230243 0.162353
0.842597 0.225764 0.166070
0.033859 0.284724 0.060658
0.047078 0.284832 0.061074
0.096489 0.285743 0.063334
0.175633 0.286852 0.066477
0.255162 0.287003 0.071386
0.331874 0.288918 0.079466
0.401913 0.288994 0.086920
0.470021 0.289919 0.096608
0.534783 0.290892 0.107309
0.595934 0.291858 0.118784
0.653751 0.291887 0.129696
0.705145 0.292850 0.141891
0.753217 0.291363 0.152407
0.794541 0.290747 0.162102
0.826595 0.286351 0.169437
0.843050 0.277661 0.172238
0.051753 0.362473 0.085089
0.063781 0.362595 0.085441
0.110212 0.362473 0.087091
0.184729 0.363518 0.089466
0.259924 0.364612 0.093970
0.335748 0.366138 0.100901
0.405316 0.365532 0.107719
0.472719 0.365229 0.116093
0.536925 0.364622 0.125494
0.597690 0.363755 0.135665
0.655824 0.362754 0.146469
0.706921 0.360925 0.155452
0.754031 0.357194 0.164348
0.795251 0.352565 0.172771
0.827347 0.345704 0.178875
0.843720 0.333352 0.180551
0.072934 0.435311 0.111873
0.083960 0.435332 0.112172
0.127878 0.435311 0.112979
0.194932 0.435332 0.115480
0.266796 0.436189 0.119660
0.339517 0.438585 0.125449
0.409767 0.438905 0.132252
0.476241 0.437672 0.139417
0.539713 0.436061 0.147331
0.600081 0.433906 0.155691
0.656830 0.431514 0.163375
0.708339 0.427566 0.171533
0.755087 0.422349 0.179528
0.796980 0.415168 0.186456
0.828384 0.405787 0.190506
0.844704 0.390202 0.190807
0.097012 0.503736 0.140454
0.107229 0.503805 0.140714
0.147521 0.504627 0.141630
0.207560 0.503805 0.144230
0.274658 0.504811 0.147178
0.343172 0.506059 0.150810
0.412363 0.506566 0.157540
0.480570 0.507807 0.164505
0.543299 0.505332 0.170628
0.602962 0.502200 0.177179
0.659477 0.498303 0.183928
0.710341 0.492540 0.190362
0.757395 0.486074 0.195312
0.798954 0.477572 0.201742
0.829796 0.465673 0.203940
0.845827 0.447197 0.202823
0.123660 0.568248 0.168435
0.133012 0.568252 0.168630
0.168155 0.568248 0.169563
0.220999 0.569119 0.171996
0.283764 0.568820 0.174372
0.349141 0.569854 0.176821
0.415197 0.570514 0.182125
0.481673 0.571552 0.187832
0.547553 0.572729 0.194524
0.606524 0.568767 0.199569
0.661847 0.563365 0.204239
0.712887 0.556845 0.210282
0.759048 0.548156 0.213621
0.800414 0.539275 0.217385
0.831465 0.524903 0.218899
0.847251 0.503677 0.216323
0.150774 0.628840 0.194350
0.158462 0.628833 0.194541
0.187368 0.628840 0.194350
0.234857 0.628833 0.196714
0.291979 0.629081 0.199193
0.354935 0.629919 0.200756
0.418210 0.630731 0.205621
0.482639 0.631538 0.210378
0.546918 0.632529 0.216032
0.610693 0.633788 0.222489
0.666321 0.628386 0.226530
0.716058 0.620510 0.229793
0.761832 0.610070 0.232978
0.802884 0.599215 0.235148
0.833413 0.583198 0.235037
0.848950 0.559481 0.230996
0.175716 0.685165 0.218257
0.182088 0.685193 0.218416
0.207075 0.685165 0.219311
0.248645 0.685997 0.220517
0.300811 0.685908 0.221378
0.359285 0.685864 0.224396
0.420901 0.686709 0.227658
0.483109 0.687407 0.231695
0.545546 0.688272 0.236492
0.607780 0.689234 0.242028
0.670882 0.691532 0.248820
0.719098 0.681927 0.250222
0.764173 0.670901 0.252085
0.804910 0.658226 0.253773
0.835674 0.640514 0.252085
0.850910 0.614437 0.246635
0.198539 0.737055 0.240141
0.203914 0.737093 0.240247
0.225002 0.737055 0.241170
0.262137 0.737093 0.241280
0.310098 0.737570 0.242976
0.364794 0.738122 0.245416
0.423156 0.738360 0.248102
0.482919 0.738962 0.251549
0.543305 0.739654 0.255645
0.603707 0.740516 0.260454
0.663665 0.741208 0.265739
0.724363 0.742849 0.271508
0.767590 0.730092 0.272829
0.808840 0.716428 0.273037
0.838222 0.697144 0.269829
0.853192 0.668680 0.263007
0.218881 0.783669 0.259683
0.223449 0.783694 0.259790
0.241794 0.783669 0.260694
0.274745 0.783694 0.260797
0.319264 0.783954 0.262469
0.369901 0.783731 0.264445
0.424405 0.784777 0.266496
0.481498 0.785254 0.269455
0.539596 0.785884 0.273017
0.598029 0.786584 0.277174
0.655865 0.787494 0.281952
0.714704 0.788916 0.287065
0.772972 0.789799 0.292962
0.811422 0.773626 0.291745
0.841124 0.752764 0.288034
0.855736 0.721991 0.279917
0.236377 0.823898 0.276496
0.240332 0.823870 0.276568
0.255905 0.823898 0.276496
0.284998 0.823870 0.277564
0.325573 0.824805 0.278380
0.372927 0.824528 0.280984
0.423940 0.824805 0.282347
0.478071 0.825237 0.284948
0.533716 0.825789 0.288016
0.589937 0.826380 0.291615
0.645991 0.826571 0.294897
0.702734 0.827932 0.300446
0.758370 0.828671 0.304698
0.815856 0.831009 0.311852
0.844446 0.807658 0.306656
0.858518 0.774859 0.297277
0.250059 0.855348 0.289619
0.253465 0.855369 0.289687
0.267372 0.855348 0.290596
0.293747 0.855369 0.290682
0.329728 0.855428 0.291751
0.372649 0.856590 0.293016
0.420474 0.856193 0.294697
0.471474 0.856590 0.296931
0.524268 0.856965 0.299599
0.577910 0.857508 0.302783
0.631762 0.857747 0.306413
0.686903 0.858290 0.310552
0.740677 0.860169 0.314895
0.794788 0.860656 0.319726
0.848037 0.861731 0.325472
0.861765 0.826662 0.314917
0.257101 0.871522 0.296383
0.260031 0.871541 0.296459
0.272299 0.871522 0.296383
0.295161 0.871541 0.297437
0.326821 0.871524 0.297856
0.365787 0.872661 0.298767
0.410300 0.872300 0.300773
0.457647 0.872661 0.302687
0.507045 0.873015 0.305018
0.557573 0.873424 0.307757
0.608316 0.873718 0.310853
0.660521 0.874954 0.314520
0.711568 0.875449 0.319018
0.763079 0.876460 0.322295
0.814180 0.877017 0.327655
0.865143 0.878004 0.332805
0.000371 0.001118 0.039078
0.019847 0.002861 0.039613
0.074703 0.007403 0.041371
0.161018 0.014336 0.045870
0.244675 0.022398 0.051743
0.324886 0.032563 0.060800
0.397041 0.044091 0.070332
0.466212 0.056192 0.081349
0.531717 0.069069 0.093335
0.593472 0.082481 0.105963
0.650813 0.096461 0.119170
0.703629 0.109462 0.131728
0.751278 0.122622 0.142748
0.793560 0.134466 0.154652
0.825348 0.143834 0.162316
0.842162 0.148757 0.166018
0.002533 0.034459 0.040860
0.020967 0.034932 0.041384
0.076010 0.037282 0.043978
0.161352 0.040691 0.047729
0.244873 0.046677 0.054268
0.325066 0.054374 0.062592
0.397182 0.063341 0.072192
0.466392 0.073840 0.083331
0.531865 0.085387 0.095451
0.593523 0.097692 0.108262
0.650994 0.110501 0.121477
0.703654 0.124070 0.135373
0.751268 0.135196 0.146508
0.793639 0.146963 0.157884
0.825456 0.155341 0.165969
0.842158 0.159835 0.170311
0.009075 0.107565 0.048002
0.025592 0.107858 0.048513
0.079586 0.108656 0.050469
0.163541 0.111143 0.054358
0.246739 0.115015 0.060763
0.325723 0.120702 0.068745
0.397971 0.125239 0.077415
0.466990 0.132296 0.088095
0.532301 0.140318 0.099792
0.593881 0.148909 0.112216
0.652249 0.157992 0.125058
0.704047 0.166344 0.137286
0.751456 0.173936 0.148709
0.793813 0.180401 0.160911
0.825617 0.185202 0.168102
0.842338 0.186006 0.172174
0.019622 0.200365 0.060895
0.034395 0.200531 0.061422
0.086487 0.201473 0.062676
0.169243 0.202718 0.066831
0.248416 0.202387 0.070938
0.327960 0.206622 0.079192
0.399461 0.208928 0.087448
0.468170 0.212044 0.097349
0.533286 0.215580 0.108309
0.594693 0.219377 0.120024
0.653237 0.223084 0.133086
0.704013 0.226845 0.144355
0.751897 0.230039 0.154273
0.794133 0.231448 0.164698
0.825970 0.232165 0.172377
0.842644 0.228240 0.175892
0.033956 0.284788 0.078669
0.047325 0.284854 0.079232
0.096641 0.285782 0.080617
0.176007 0.286873 0.084136
0.255193 0.287133 0.088805
0.331913 0.289133 0.095218
0.401914 0.289141 0.102302
0.470029 0.290133 0.111222
0.534808 0.291185 0.121213
0.595953 0.292238 0.132001
0.653770 0.293181 0.143246
0.705166 0.293250 0.152995
0.753254 0.292733 0.163308
0.794585 0.291578 0.172761
0.826633 0.287721 0.178978
0.843096 0.279508 0.181642
0.051839 0.362523 0.100322
0.064105 0.362600 0.100940
0.111431 0.362523 0.102444
0.184076 0.363523 0.104126
0.259953 0.364627 0.109334
0.335773 0.366238 0.115814
0.405356 0.365589 0.121545
0.472748 0.365278 0.129416
0.536948 0.364826 0.138304
0.597708 0.364047 0.147782
0.655051 0.362887 0.156876
0.706941 0.360258 0.166076
0.754070 0.358120 0.174576
0.795297 0.353862 0.182824
0.827388 0.346691 0.187808
0.843768 0.334693 0.189407
0.073009 0.435308 0.124992
0.084399 0.435358 0.125703
0.127992 0.435308 0.127284
0.195421 0.435358 0.129140
0.266831 0.436212 0.132825
0.339492 0.437718 0.138297
0.409800 0.438928 0.144558
0.476211 0.437718 0.151127
0.539749 0.436127 0.158374
0.600098 0.434085 0.166079
0.656847 0.431606 0.174151
0.708367 0.427718 0.181686
0.755121 0.422144 0.187895
0.797011 0.416160 0.194748
0.828420 0.406540 0.198756
0.844736 0.391268 0.199072
0.097100 0.503758 0.151587
0.107775 0.503771 0.152299
0.147618 0.503758 0.153879
0.207031 0.503771 0.154605
0.274721 0.504836 0.157575
0.343212 0.506082 0.162977
0.412419 0.506591 0.167751
0.480593 0.507831 0.174212
0.543318 0.505376 0.179931
0.602978 0.502277 0.186083
0.659463 0.499250 0.193077
0.710365 0.492643 0.198052
0.757357 0.486650 0.202951
0.798994 0.477435 0.208349
0.829833 0.466237 0.211506
0.845869 0.447952 0.210470
0.123720 0.568258 0.177268
0.133733 0.568265 0.178059
0.168220 0.569125 0.178375
0.220584 0.569132 0.180288
0.282903 0.568811 0.183045
0.349259 0.569865 0.186308
0.415339 0.570505 0.190713
0.481756 0.571563 0.196106
0.547569 0.572740 0.202413
0.606563 0.568816 0.207222
0.661859 0.563376 0.212022
0.712909 0.556860 0.215732
0.758992 0.549403 0.220521
0.800452 0.539849 0.224383
0.831406 0.525292 0.225770
0.847241 0.504262 0.223327
0.150835 0.628850 0.201619
0.159206 0.628847 0.202429
0.187403 0.628850 0.203754
0.235554 0.628847 0.204593
0.292141 0.629094 0.206579
0.354141 0.629931 0.210111
0.418360 0.630744 0.212967
0.482763 0.631550 0.217519
0.547006 0.632541 0.222906
0.610704 0.633799 0.229106
0.666371 0.628397 0.233349
0.716076 0.620521 0.236369
0.761782 0.611219 0.239191
0.802920 0.598827 0.241517
0.833352 0.583494 0.241254
0.848987 0.559926 0.237393
0.175775 0.685175 0.224278
0.182939 0.685208 0.225181
0.207134 0.685175 0.225329
0.248428 0.686011 0.226228
0.302043 0.685922 0.228876
0.360363 0.685876 0.230704
0.421115 0.686683 0.234076
0.483225 0.687419 0.237951
0.545640 0.688284 0.242580
0.607830 0.689245 0.247921
0.670954 0.691545 0.254837
0.719179 0.681939 0.256066
0.764198 0.671172 0.257685
0.804943 0.658544 0.258532
0.835658 0.640814 0.257685
0.850943 0.614752 0.252436
0.198563 0.737068 0.245233
0.204854 0.737118 0.246215
0.226103 0.737068 0.246259
0.263035 0.737118 0.247236
0.311383 0.737496 0.249713
0.364947 0.738141 0.251042
0.423440 0.738380 0.253788
0.483077 0.738981 0.257140
0.543443 0.739672 0.261102
0.603866 0.740533 0.265748
0.663828 0.741226 0.270154
0.724502 0.742867 0.276737
0.768434 0.731067 0.277874
0.808869 0.716648 0.277287
0.838231 0.697257 0.274894
0.853222 0.668889 0.268302
0.218927 0.783678 0.264019
0.224530 0.783709 0.265106
0.242872 0.783678 0.266027
0.274765 0.783709 0.266114
0.318707 0.783948 0.267634
0.370239 0.783729 0.269526
0.424807 0.784791 0.271635
0.481750 0.785268 0.274510
0.539764 0.785898 0.277943
0.598195 0.786597 0.282027
0.656064 0.787507 0.286875
0.714845 0.788929 0.291889
0.772977 0.789067 0.297529
0.811446 0.773847 0.296518
0.841144 0.752840 0.292631
0.855762 0.722227 0.284715
0.236409 0.823856 0.280227
0.241527 0.823833 0.281431
0.256962 0.823856 0.281205
0.286153 0.823833 0.282420
0.326105 0.824821 0.283122
0.372444 0.824543 0.285669
0.424426 0.824821 0.287064
0.478466 0.825252 0.289586
0.533923 0.825803 0.292586
0.590102 0.826393 0.296141
0.647075 0.826586 0.300437
0.702048 0.827946 0.304931
0.758385 0.828751 0.309831
0.815877 0.831120 0.316190
0.844462 0.807737 0.310795
0.858539 0.774866 0.301672
0.250077 0.855355 0.292852
0.254868 0.855387 0.294232
0.269405 0.855355 0.294805
0.294086 0.855387 0.295206
0.330382 0.855446 0.296193
0.373204 0.856609 0.297418
0.421100 0.856211 0.299134
0.471970 0.856609 0.301318
0.524606 0.856981 0.303937
0.578283 0.857524 0.307035
0.632156 0.857764 0.310741
0.686470 0.858306 0.314798
0.740692 0.860179 0.318742
0.794775 0.860677 0.324653
0.848047 0.861741 0.329268
0.861781 0.826682 0.318894
0.257126 0.871528 0.299170
0.261753 0.871562 0.300852
0.274338 0.871528 0.301110
0.295847 0.871562 0.300852
0.328653 0.871544 0.302131
0.366493 0.872680 0.303073
0.411114 0.872319 0.305071
0.458346 0.872680 0.306971
0.507569 0.872980 0.309237
0.557925 0.873442 0.311966
0.608820 0.873737 0.315045
0.660877 0.874971 0.318691
0.711695 0.875461 0.322789
0.763088 0.876470 0.325981
0.814271 0.877029 0.331395
0.865153 0.878014 0.336453
0.001411 0.003493 0.113692
0.020302 0.004736 0.113988
0.075799 0.009063 0.115909
0.160948 0.015570 0.117316
0.244758 0.024046 0.120422
0.324982 0.033675 0.126253
0.397115 0.044684 0.131867
0.466307 0.056719 0.139065
0.531738 0.069530 0.146995
0.593469 0.082902 0.155388
0.650897 0.095951 0.164178
0.703625 0.109937 0.171230
0.751308 0.122868 0.179334
0.793587 0.134673 0.186312
0.825380 0.144092 0.190321
0.842190 0.148969 0.190680
0.003301 0.035098 0.114685
0.021444 0.035608 0.114984
0.076984 0.037939 0.116905
0.161315 0.041408 0.118329
0.244973 0.047124 0.120572
0.324196 0.054781 0.127631
0.397285 0.063844 0.133185
0.466486 0.074303 0.140481
0.531864 0.085813 0.148557
0.593567 0.098086 0.157085
0.650988 0.110970 0.165689
0.702907 0.123356 0.174020
0.751271 0.135396 0.181241
0.793666 0.147163 0.187707
0.825460 0.155531 0.193282
0.842186 0.160029 0.194250
0.009656 0.107989 0.118897
0.026056 0.108267 0.119176
0.079347 0.109082 0.120020
0.163390 0.112657 0.123692
0.246848 0.115888 0.127002
0.325813 0.121139 0.132383
0.398073 0.127293 0.138654
0.467062 0.135114 0.146433
0.532379 0.143958 0.154981
0.593990 0.153363 0.164052
0.652319 0.163843 0.174197
0.704160 0.172969 0.183029
0.751539 0.181523 0.191331
0.793915 0.189477 0.199036
0.825704 0.195982 0.205351
0.842397 0.199395 0.208679
0.020107 0.200602 0.126886
0.034822 0.200766 0.127207
0.086500 0.201693 0.128023
0.168882 0.202950 0.130663
0.249571 0.203461 0.135357
0.328035 0.207069 0.139200
0.399605 0.209996 0.145909
0.468247 0.213566 0.153153
0.533352 0.217650 0.161177
0.594766 0.222057 0.169688
0.653281 0.226188 0.178011
0.704064 0.230580 0.187413
0.751863 0.234894 0.194667
0.794233 0.238525 0.201940
0.826053 0.240145 0.208650
0.842701 0.238525 0.211565
0.034384 0.284909 0.138936
0.047717 0.285011 0.139332
0.097345 0.284909 0.141288
0.175493 0.286022 0.142849
0.256311 0.288683 0.146289
0.331078 0.289000 0.151775
0.402014 0.289684 0.156666
0.470163 0.290998 0.163204
0.534876 0.292419 0.170457
0.596019 0.293924 0.178243
0.653892 0.295426 0.185973
0.706145 0.295905 0.193602
0.753329 0.296515 0.200981
0.794779 0.296138 0.208631
0.826638 0.293537 0.213794
0.843249 0.287145 0.216056
0.052226 0.362621 0.154327
0.064465 0.362705 0.154764
0.110892 0.363586 0.155471
0.185619 0.363661 0.158209
0.260044 0.363013 0.161567
0.335870 0.366702 0.166188
0.405450 0.365842 0.170569
0.472839 0.365784 0.176271
0.536976 0.365543 0.182665
0.597772 0.365119 0.189544
0.655067 0.364622 0.196856
0.706965 0.362296 0.203606
0.754222 0.360439 0.210228
0.795462 0.356649 0.215927
0.827473 0.350904 0.220812
0.843962 0.340411 0.222246
0.073352 0.435358 0.171815
0.084738 0.435402 0.172296
0.129599 0.435358 0.174055
0.196888 0.436318 0.175672
0.266929 0.436303 0.178221
0.339580 0.437081 0.183102
0.409862 0.439028 0.187051
0.476308 0.437998 0.191857
0.539794 0.436571 0.197306
0.600138 0.434768 0.203223
0.656960 0.432943 0.210185
0.708430 0.428389 0.214938
0.755266 0.423446 0.221276
0.797144 0.418583 0.226938
0.828537 0.409698 0.229656
0.844826 0.395521 0.230043
0.097422 0.503799 0.190586
0.108090 0.503870 0.191127
0.149109 0.503799 0.192758
0.208417 0.503870 0.194376
0.274967 0.504899 0.196884
0.344242 0.506138 0.199787
0.412647 0.506668 0.204413
0.480663 0.507901 0.209425
0.543392 0.505607 0.213987
0.603044 0.502683 0.218927
0.659503 0.498625 0.224505
0.710473 0.493909 0.228359
0.757372 0.487194 0.233954
0.798344 0.479763 0.238412
0.829848 0.468584 0.240161
0.846002 0.451193 0.239444
0.124026 0.568275 0.209863
0.133996 0.568308 0.210492
0.170726 0.569143 0.213070
0.222937 0.569172 0.213676
0.284324 0.568862 0.216276
0.349470 0.569893 0.219626
0.415719 0.570556 0.222597
0.481950 0.571591 0.226975
0.547640 0.572787 0.232186
0.606565 0.569004 0.236193
0.661911 0.564287 0.240446
0.712912 0.557880 0.244434
0.759892 0.550329 0.247081
0.800616 0.540553 0.251233
0.831506 0.527056 0.252182
0.847411 0.506762 0.250216
0.151081 0.628856 0.229127
0.159440 0.628890 0.229826
0.189802 0.628856 0.232245
0.237851 0.628890 0.233995
0.293795 0.629093 0.235831
0.355492 0.629956 0.237612
0.418960 0.630743 0.240979
0.483086 0.631603 0.244815
0.547186 0.632592 0.249380
0.610712 0.633807 0.254655
0.665746 0.628448 0.257522
0.716089 0.620506 0.260726
0.761895 0.610844 0.263459
0.803063 0.599849 0.265262
0.833479 0.584802 0.265465
0.849136 0.561790 0.262244
0.175985 0.685215 0.247780
0.183140 0.685248 0.248552
0.210500 0.685215 0.251860
0.251677 0.686093 0.252625
0.303006 0.685978 0.254939
0.361045 0.686592 0.256279
0.422025 0.686781 0.258989
0.483882 0.687373 0.262343
0.546026 0.688295 0.266346
0.608012 0.689233 0.270999
0.670487 0.691555 0.276330
0.720163 0.681987 0.278965
0.764114 0.671311 0.279870
0.805056 0.659143 0.280307
0.835680 0.641760 0.279870
0.851088 0.616191 0.275344
0.198734 0.737126 0.265428
0.205020 0.737173 0.266282
0.229402 0.737126 0.269440
0.265219 0.737173 0.270296
0.312671 0.737585 0.271229
0.366854 0.738178 0.273174
0.424681 0.738465 0.276223
0.483948 0.738972 0.279168
0.543999 0.739751 0.282667
0.604185 0.740516 0.286785
0.663517 0.741305 0.291538
0.723972 0.742941 0.296597
0.768529 0.730909 0.297099
0.808115 0.717753 0.297181
0.838286 0.697951 0.295148
0.853243 0.669929 0.289304
0.219071 0.783713 0.281523
0.224695 0.783728 0.282496
0.247131 0.783713 0.286461
0.278947 0.783728 0.287445
0.321329 0.784010 0.288152
0.371406 0.784532 0.290754
0.426375 0.784854 0.292097
0.482934 0.785328 0.294663
0.540625 0.785887 0.297800
0.598844 0.786651 0.301436
0.656879 0.787496 0.305583
0.714698 0.788984 0.310163
0.772323 0.789584 0.315956
0.811554 0.773793 0.314668
0.841227 0.753251 0.311120
0.855873 0.722891 0.304010
0.236516 0.823834 0.295445
0.241666 0.823866 0.296530
0.262148 0.823834 0.301294
0.290265 0.823866 0.301442
0.329208 0.824823 0.303142
0.375949 0.824609 0.304422
0.426473 0.824823 0.306036
0.479987 0.825317 0.308329
0.535186 0.825866 0.311055
0.590971 0.826416 0.314255
0.647364 0.826649 0.317813
0.702896 0.828005 0.322890
0.759191 0.828923 0.326779
0.815959 0.830842 0.331839
0.844426 0.807990 0.327724
0.858624 0.775401 0.319407
0.250187 0.855385 0.306080
0.254972 0.855418 0.307418
0.274557 0.855385 0.312880
0.299158 0.855418 0.313237
0.334088 0.855466 0.314159
0.376283 0.856584 0.316149
0.423719 0.856249 0.317053
0.474051 0.856584 0.319037
0.526260 0.857051 0.321435
0.579466 0.857494 0.324272
0.633698 0.858597 0.327176
0.687593 0.858277 0.330948
0.740656 0.860222 0.335289
0.794786 0.860913 0.339929
0.848091 0.861783 0.344767
0.861792 0.826932 0.335209
0.257208 0.871556 0.310681
0.261853 0.871589 0.312277
0.280450 0.871556 0.318393
0.301882 0.871589 0.319969
0.333254 0.871519 0.320581
0.371313 0.872653 0.321350
0.414623 0.872295 0.322497
0.461119 0.872653 0.324230
0.509797 0.873059 0.326331
0.559726 0.873517 0.328763
0.610135 0.873815 0.332034
0.660898 0.875047 0.334462
0.712651 0.875514 0.338243
0.764006 0.876516 0.342048
0.814439 0.877083 0.346752
0.865201 0.878060 0.351456
0.003077 0.006795 0.202814
0.021216 0.007747 0.202994
0.075944 0.011277 0.203895
0.161917 0.017414 0.205138
0.244939 0.024987 0.205050
0.325129 0.035232 0.209305
0.397233 0.045879 0.211453
0.466448 0.057773 0.214607
0.531857 0.070485 0.218171
0.593544 0.083749 0.221993
0.651021 0.097015 0.225511
0.702881 0.109786 0.228252
0.751258 0.123354 0.231563
0.793615 0.135111 0.234807
0.825446 0.144586 0.234671
0.842200 0.149394 0.230661
0.004738 0.036374 0.203398
0.022404 0.036966 0.203552
0.076545 0.038527 0.204459
0.162342 0.042847 0.205686
0.246167 0.048033 0.206834
0.325270 0.055611 0.210106
0.397443 0.064865 0.212164
0.466546 0.075241 0.215424
0.531951 0.086673 0.219082
0.593623 0.098867 0.223027
0.651930 0.110818 0.226422
0.703857 0.123054 0.230344
0.751251 0.135877 0.233763
0.793627 0.147576 0.236523
0.825439 0.156005 0.236874
0.842145 0.160434 0.233404
0.010781 0.108536 0.205686
0.026948 0.108870 0.205850
0.079572 0.108536 0.206757
0.165205 0.112170 0.207997
0.247015 0.116614 0.208786
0.326905 0.121822 0.213510
0.398200 0.128047 0.215169
0.467204 0.135827 0.218790
0.532443 0.144631 0.222906
0.594092 0.153969 0.227389
0.652402 0.163335 0.232305
0.704223 0.172428 0.235703
0.751598 0.181866 0.239818
0.793952 0.189778 0.244659
0.825768 0.196315 0.245982
0.842456 0.199697 0.244659
0.021082 0.201084 0.210303
0.035675 0.201235 0.210455
0.087475 0.202181 0.211361
0.169288 0.202345 0.211512
0.249774 0.204559 0.213681
0.328232 0.207999 0.217013
0.399784 0.212158 0.221061
0.468430 0.216631 0.225416
0.533538 0.221756 0.230415
0.594965 0.227392 0.235905
0.652625 0.233453 0.241781
0.705056 0.239025 0.247216
0.752090 0.244995 0.253035
0.794419 0.250538 0.258435
0.826254 0.255386 0.263155
0.842902 0.257778 0.265500
0.035233 0.285213 0.216714
0.048504 0.285299 0.216901
0.097722 0.285213 0.216714
0.175587 0.286326 0.217960
0.256508 0.288824 0.221203
0.331230 0.289735 0.224278
0.402183 0.290814 0.227490
0.470290 0.292733 0.231581
0.535021 0.294885 0.236265
0.596160 0.297257 0.241432
0.653997 0.298868 0.247575
0.705413 0.301224 0.252688
0.752723 0.302861 0.257780
0.794849 0.304848 0.262722
0.826852 0.304862 0.266851
0.843443 0.301862 0.268751
0.052987 0.362849 0.225240
0.065195 0.362925 0.225473
0.111992 0.363743 0.226286
0.185462 0.362925 0.227559
0.261259 0.364478 0.231004
0.336004 0.366726 0.232709
0.405615 0.366410 0.236179
0.472959 0.366726 0.239946
0.537163 0.367015 0.244257
0.597902 0.367237 0.248991
0.655281 0.367015 0.254464
0.706269 0.366340 0.258135
0.753550 0.365004 0.263943
0.796398 0.362948 0.268246
0.827657 0.359319 0.271982
0.844096 0.351564 0.273241
0.074051 0.435521 0.235631
0.085407 0.435565 0.235936
0.129339 0.435521 0.236672
0.197609 0.436481 0.239038
0.268113 0.436467 0.240885
0.339710 0.438440 0.244274
0.410025 0.439166 0.247037
0.476422 0.438440 0.250411
0.539937 0.437439 0.254257
0.600219 0.436127 0.258515
0.657106 0.434719 0.262345
0.708514 0.430687 0.267587
0.755484 0.427886 0.271523
0.797389 0.423348 0.276087
0.828766 0.415978 0.278492
0.845062 0.404102 0.279080
0.098046 0.503893 0.247510
0.108737 0.503966 0.247852
0.149782 0.503893 0.249551
0.211163 0.503966 0.251934
0.277507 0.504991 0.254130
0.345306 0.506250 0.256717
0.413106 0.506760 0.259204
0.480773 0.507971 0.262783
