example_ofxGpuLutCube/bin/data/ofxGpuLutCube/LUT/S15 (pink highlights).cube
LUT_3D_SIZE 6
0.000000 0.000000 0.000000
0.161860 0.013810 0.017377
0.397009 0.043945 0.051291
0.593462 0.082382 0.092310
0.751271 0.122560 0.133829
0.842155 0.148700 0.159552
0.019511 0.200325 0.039076
0.168924 0.202671 0.045864
0.399419 0.208656 0.070427
0.594705 0.218748 0.106038
0.751860 0.228104 0.142787
0.842597 0.225764 0.166070
0.072934 0.435311 0.111873
0.194932 0.435332 0.115480
0.409767 0.438905 0.132252
0.600081 0.433906 0.155691
0.755087 0.422349 0.179528
0.844704 0.390202 0.190807
0.150774 0.628840 0.194350
0.234857 0.628833 0.196714
0.418210 0.630731 0.205621
0.610693 0.633788 0.222489
0.761832 0.610070 0.232978
0.848950 0.559481 0.230996
0.218881 0.783669 0.259683
0.274745 0.783694 0.260797
0.424405 0.784777 0.266496
0.598029 0.786584 0.277174
0.772972 0.789799 0.292962
0.855736 0.721991 0.279917
0.257101 0.871522 0.296383
0.295161 0.871541 0.297437
0.410300 0.872300 0.300773
0.557573 0.873424 0.307757
0.711568 0.875449 0.319018
0.865143 0.878004 0.332805
0.003077 0.006795 0.202814
0.161917 0.017414 0.205138
0.397233 0.045879 0.211453
0.593544 0.083749 0.221993
0.751258 0.123354 0.231563
0.842200 0.149394 0.230661
0.021082 0.201084 0.210303
0.169288 0.202345 0.211512
0.399784 0.212158 0.221061
0.594965 0.227392 0.235905
0.752090 0.244995 0.253035
0.842902 0.257778 0.265500
0.074051 0.435521 0.235631
0.197609 0.436481 0.239038
0.410025 0.439166 0.247037
0.600219 0.436127 0.258515
0.755484 0.427886 0.271523
0.845062 0.404102 0.279080
0.151575 0.629029 0.273944
0.240347 0.629064 0.280416
0.420309 0.630922 0.286488
0.610833 0.633872 0.297153
0.762055 0.612609 0.304369
0.849302 0.565683 0.303897
0.219339 0.783719 0.312701
0.285216 0.783750 0.323155
0.429569 0.784958 0.327836
0.600063 0.786716 0.335640
0.772383 0.789597 0.346811
0.855931 0.724472 0.338120
0.257389 0.871614 0.332162
0.313860 0.871647 0.350594
0.421569 0.872427 0.353804
0.563249 0.873675 0.359145
0.713955 0.875615 0.367362
0.865230 0.878078 0.378967
0.011498 0.020923 0.427976
0.162063 0.028197 0.428919
0.398348 0.053728 0.431705
0.594112 0.089506 0.427252
0.751487 0.127833 0.416487
0.842384 0.152338 0.386285
0.026926 0.201266 0.430361
0.172583 0.206003 0.431294
0.400832 0.215056 0.434135
0.595448 0.229903 0.431571
0.752421 0.247703 0.423993
0.843147 0.259236 0.402010
0.078802 0.436502 0.440298
0.200521 0.437479 0.441252
0.411026 0.440154 0.443860
0.601089 0.445500 0.449122
0.756692 0.451807 0.455285
0.846474 0.457287 0.460660
0.154898 0.629479 0.448569
0.242215 0.630353 0.451379
0.429066 0.631449 0.461091
0.611341 0.634351 0.465971
0.763023 0.621360 0.470448
0.850479 0.591568 0.471671
0.221313 0.783980 0.454782
0.287042 0.784011 0.459544
0.450927 0.785444 0.481959
0.608240 0.787155 0.485978
0.773818 0.790627 0.491991
0.856715 0.734703 0.488424
0.258647 0.871836 0.441633
0.315042 0.872644 0.453063
0.466394 0.873032 0.496694
0.587343 0.874138 0.499618
0.723980 0.876013 0.504034
0.865555 0.878390 0.510681
0.024009 0.039212 0.614149
0.162822 0.044118 0.614999
0.389627 0.065569 0.616066
0.595161 0.100719 0.619107
0.752042 0.136902 0.596709
0.842826 0.158118 0.548257
0.036971 0.200873 0.615358
0.178066 0.211476 0.615426
0.394199 0.219812 0.617355
0.596544 0.234841 0.620451
0.752914 0.252091 0.599563
0.843582 0.262168 0.555642
0.084156 0.427787 0.620500
0.203919 0.429784 0.621312
0.412928 0.441963 0.622846
0.602148 0.447269 0.625750
0.757129 0.453998 0.612839
0.846909 0.458429 0.585781
0.161377 0.630575 0.630700
0.246892 0.630608 0.630731
0.430812 0.632510 0.632627
0.612382 0.635393 0.635456
0.764245 0.638898 0.638895
0.852980 0.641955 0.641895
0.225258 0.784643 0.618947
0.290685 0.784673 0.621535
0.452377 0.786028 0.629936
0.625236 0.788028 0.647626
0.774295 0.790961 0.651565
0.858431 0.756189 0.650649
0.261203 0.872214 0.580895
0.316459 0.872246 0.587121
0.467459 0.873426 0.610312
0.634655 0.875241 0.656515
0.745000 0.876637 0.659771
0.866131 0.878926 0.662634
0.038204 0.058284 0.763122
0.159519 0.062921 0.763968
0.372498 0.079043 0.764234
0.569071 0.108707 0.766164
0.753663 0.149529 0.769021
0.843489 0.166858 0.704423
0.048813 0.197450 0.763946
0.185960 0.218619 0.764734
0.381165 0.225616 0.765216
0.572457 0.238630 0.767119
0.754528 0.258317 0.769584
0.844320 0.266730 0.707687
0.089508 0.410728 0.766975
0.207198 0.417625 0.767836
0.415315 0.444320 0.769129
0.586603 0.448975 0.770900
0.758687 0.456096 0.773946
0.847536 0.460280 0.721174
0.158462 0.604804 0.773250
0.245375 0.606617 0.774069
0.431080 0.616901 0.775018
0.613715 0.636674 0.777734
0.765775 0.640740 0.780772
0.853529 0.642746 0.748122
0.231402 0.785682 0.783122
0.294396 0.785711 0.783151
0.454649 0.786976 0.784390
0.626516 0.788985 0.786354
0.774701 0.790689 0.788022
0.861245 0.793461 0.790764
0.265212 0.872852 0.725754
0.320231 0.872887 0.728359
0.469101 0.873994 0.738490
0.635626 0.875750 0.759366
0.781133 0.877547 0.794797
0.866866 0.879637 0.796975
0.048071 0.070905 0.847880
0.144066 0.073910 0.847810
0.334191 0.086105 0.848612
0.513352 0.108794 0.849840
0.682149 0.141249 0.851976
0.844420 0.178387 0.854466
0.055979 0.181886 0.848299
0.189459 0.223515 0.849114
0.351915 0.228990 0.849390
0.521354 0.238967 0.850617
0.685404 0.253828 0.852650
0.845232 0.273003 0.855221
0.087339 0.372473 0.850362
0.207337 0.387728 0.851100
0.417157 0.446078 0.852756
0.554069 0.449620 0.853860
0.700457 0.455579 0.855743
0.848483 0.462868 0.858207
0.143389 0.549909 0.854406
0.237530 0.557258 0.854460
0.429126 0.584394 0.856528
0.614698 0.637632 0.859955
0.730179 0.640248 0.861341
0.854301 0.644132 0.863686
0.207311 0.716017 0.860773
0.277180 0.718499 0.860767
0.447341 0.729807 0.862497
0.624009 0.753017 0.865100
0.774181 0.790973 0.868744
0.861835 0.794075 0.870756
0.270762 0.873756 0.869724
0.323536 0.873785 0.869752
0.471471 0.874869 0.870805
0.636875 0.876509 0.872412
0.782002 0.878843 0.874682
0.866866 0.879637 0.875438
