example_ofxGpuLutCube/bin/data/ofxGpuLutCube/LUT/S16 (deep violet tone).cube
LUT_3D_SIZE 6
-0.046825 0.000000 0.000000
0.274342 0.000000 0.000000
0.481855 0.000000 0.000000
0.666073 0.000000 0.000000
0.837401 0.000000 0.000000
0.999826 0.000000 0.000000
-0.046825 0.114234 0.000000
0.274342 0.114234 0.000000
0.481855 0.114234 0.000000
0.666073 0.114234 0.000000
0.837401 0.114234 0.000000
0.999826 0.114234 0.000000
-0.046825 0.329941 0.000000
0.274342 0.329941 0.000000
0.481855 0.329941 0.000000
0.666073 0.329941 0.000000
0.837401 0.329941 0.000000
0.999826 0.329941 0.000000
-0.046825 0.636541 0.000000
0.274342 0.636541 0.000000
0.481855 0.636541 0.000000
0.666073 0.636541 0.000000
0.837401 0.636541 0.000000
0.999826 0.636541 0.000000
-0.046825 1.028879 0.000000
0.274342 1.028879 0.000000
0.481855 1.028879 0.000000
0.666073 1.028879 0.000000
0.837401 1.028879 0.000000
0.999826 1.028879 0.000000
-0.046825 1.502852 0.000000
0.274342 1.502852 0.000000
0.481855 1.502852 0.000000
0.666073 1.502852 0.000000
0.837401 1.502852 0.000000
0.999826 1.502852 0.000000
-0.046825 0.000000 0.376319
0.274342 0.000000 0.376319
0.481855 0.000000 0.376319
0.666073 0.000000 0.376319
0.837401 0.000000 0.376319
0.999826 0.000000 0.376319
-0.046825 0.114234 0.376319
0.274342 0.114234 0.376319
0.481855 0.114234 0.376319
0.666073 0.114234 0.376319
0.837401 0.114234 0.376319
0.999826 0.114234 0.376319
-0.046825 0.329941 0.376319
0.274342 0.329941 0.376319
0.481855 0.329941 0.376319
0.666073 0.329941 0.376319
0.837401 0.329941 0.376319
0.999826 0.329941 0.376319
-0.046825 0.636541 0.376319
0.274342 0.636541 0.376319
0.481855 0.636541 0.376319
0.666073 0.636541 0.376319
0.837401 0.636541 0.376319
0.999826 0.636541 0.376319
-0.046825 1.028879 0.376319
0.274342 1.028879 0.376319
0.481855 1.028879 0.376319
0.666073 1.028879 0.376319
0.837401 1.028879 0.376319
0.999826 1.028879 0.376319
-0.046825 1.502852 0.376319
0.274342 1.502852 0.376319
0.481855 1.502852 0.376319
0.666073 1.502852 0.376319
0.837401 1.502852 0.376319
0.999826 1.502852 0.376319
-0.046825 0.000000 0.628923
0.274342 0.000000 0.628923
0.481855 0.000000 0.628923
0.666073 0.000000 0.628923
0.837401 0.000000 0.628923
0.999826 0.000000 0.628923
-0.046825 0.114234 0.628923
0.274342 0.114234 0.628923
0.481855 0.114234 0.628923
0.666073 0.114234 0.628923
0.837401 0.114234 0.628923
0.999826 0.114234 0.628923
-0.046825 0.329941 0.628923
0.274342 0.329941 0.628923
0.481855 0.329941 0.628923
0.666073 0.329941 0.628923
0.837401 0.329941 0.628923
0.999826 0.329941 0.628923
-0.046825 0.636541 0.628923
0.274342 0.636541 0.628923
0.481855 0.636541 0.628923
0.666073 0.636541 0.628923
0.837401 0.636541 0.628923
0.999826 0.636541 0.628923
-0.046825 1.028879 0.628923
0.274342 1.028879 0.628923
0.481855 1.028879 0.628923
0.666073 1.028879 0.628923
0.837401 1.028879 0.628923
0.999826 1.028879 0.628923
-0.046825 1.502852 0.628923
0.274342 1.502852 0.628923
0.481855 1.502852 0.628923
0.666073 1.502852 0.628923
0.837401 1.502852 0.628923
0.999826 1.502852 0.628923
-0.046825 0.000000 0.851698
0.274342 0.000000 0.851698
0.481855 0.000000 0.851698
0.666073 0.000000 0.851698
0.837401 0.000000 0.851698
0.999826 0.000000 0.851698
-0.046825 0.114234 0.851698
0.274342 0.114234 0.851698
0.481855 0.114234 0.851698
0.666073 0.114234 0.851698
0.837401 0.114234 0.851698
0.999826 0.114234 0.851698
-0.046825 0.329941 0.851698
0.274342 0.329941 0.851698
0.481855 0.329941 0.851698
0.666073 0.329941 0.851698
0.837401 0.329941 0.851698
0.999826 0.329941 0.851698
-0.046825 0.636541 0.851698
0.274342 0.636541 0.851698
0.481855 0.636541 0.851698
0.666073 0.636541 0.851698
0.837401 0.636541 0.851698
0.999826 0.636541 0.851698
-0.046825 1.028879 0.851698
0.274342 1.028879 0.851698
0.481855 1.028879 0.851698
0.666073 1.028879 0.851698
0.837401 1.028879 0.851698
0.999826 1.028879 0.851698
-0.046825 1.502852 0.851698
0.274342 1.502852 0.851698
0.481855 1.502852 0.851698
0.666073 1.502852 0.851698
0.837401 1.502852 0.851698
0.999826 1.502852 0.851698
-0.046825 0.000000 1.057507
0.274342 0.000000 1.057507
0.481855 0.000000 1.057507
0.666073 0.000000 1.057507
0.837401 0.000000 1.057507
0.999826 0.000000 1.057507
-0.046825 0.114234 1.057507
0.274342 0.114234 1.057507
0.481855 0.114234 1.057507
0.666073 0.114234 1.057507
0.837401 0.114234 1.057507
0.999826 0.114234 1.057507
-0.046825 0.329941 1.057507
0.274342 0.329941 1.057507
0.481855 0.329941 1.057507
0.666073 0.329941 1.057507
0.837401 0.329941 1.057507
0.999826 0.329941 1.057507
-0.046825 0.636541 1.057507
0.274342 0.636541 1.057507
0.481855 0.636541 1.057507
0.666073 0.636541 1.057507
0.837401 0.636541 1.057507
0.999826 0.636541 1.057507
-0.046825 1.028879 1.057507
0.274342 1.028879 1.057507
0.481855 1.028879 1.057507
0.666073 1.028879 1.057507
0.837401 1.028879 1.057507
0.999826 1.028879 1.057507
-0.046825 1.502852 1.057507
0.274342 1.502852 1.057507
0.481855 1.502852 1.057507
0.666073 1.502852 1.057507
0.837401 1.502852 1.057507
0.999826 1.502852 1.057507
-0.046825 0.000000 1.251682
0.274342 0.000000 1.251682
0.481855 0.000000 1.251682
0.666073 0.000000 1.251682
0.837401 0.000000 1.251682
0.999826 0.000000 1.251682
-0.046825 0.114234 1.251682
0.274342 0.114234 1.251682
0.481855 0.114234 1.251682
0.666073 0.114234 1.251682
0.837401 0.114234 1.251682
0.999826 0.114234 1.251682
-0.046825 0.329941 1.251682
0.274342 0.329941 1.251682
0.481855 0.329941 1.251682
0.666073 0.329941 1.251682
0.837401 0.329941 1.251682
0.999826 0.329941 1.251682
-0.046825 0.636541 1.251682
0.274342 0.636541 1.251682
0.481855 0.636541 1.251682
0.666073 0.636541 1.251682
0.837401 0.636541 1.251682
0.999826 0.636541 1.251682
-0.046825 1.028879 1.251682
0.274342 1.028879 1.251682
0.481855 1.028879 1.251682
0.666073 1.028879 1.251682
0.837401 1.028879 1.251682
0.999826 1.028879 1.251682
-0.046825 1.502852 1.251682
0.274342 1.502852 1.251682
0.481855 1.502852 1.251682
0.666073 1.502852 1.251682
0.837401 1.502852 1.251682
0.999826 1.502852 1.251682
