example_ofxGpuLutCube/bin/data/ofxGpuLutCube/LUT/S16 (deep violet tone).cube
LUT_3D_SIZE 16
-0.046825 0.000000 0.000000
0.102487 0.000000 0.000000
0.194714 0.000000 0.000000
0.274342 0.000000 0.000000
0.347395 0.000000 0.000000
0.416191 0.000000 0.000000
0.481855 0.000000 0.000000
0.545133 0.000000 0.000000
0.606391 0.000000 0.000000
0.666073 0.000000 0.000000
0.724333 0.000000 0.000000
0.781428 0.000000 0.000000
0.837401 0.000000 0.000000
0.892425 0.000000 0.000000
0.946576 0.000000 0.000000
0.999826 0.000000 0.000000
-0.046825 0.025399 0.000000
0.102487 0.025399 0.000000
0.194714 0.025399 0.000000
0.274342 0.025399 0.000000
0.347395 0.025399 0.000000
0.416191 0.025399 0.000000
0.481855 0.025399 0.000000
0.545133 0.025399 0.000000
0.606391 0.025399 0.000000
0.666073 0.025399 0.000000
0.724333 0.025399 0.000000
0.781428 0.025399 0.000000
0.837401 0.025399 0.000000
0.892425 0.025399 0.000000
0.946576 0.025399 0.000000
0.999826 0.025399 0.000000
-0.046825 0.063921 0.000000
0.102487 0.063921 0.000000
0.194714 0.063921 0.000000
0.274342 0.063921 0.000000
0.347395 0.063921 0.000000
0.416191 0.063921 0.000000
0.481855 0.063921 0.000000
0.545133 0.063921 0.000000
0.606391 0.063921 0.000000
0.666073 0.063921 0.000000
0.724333 0.063921 0.000000
0.781428 0.063921 0.000000
0.837401 0.063921 0.000000
0.892425 0.063921 0.000000
0.946576 0.063921 0.000000
0.999826 0.063921 0.000000
-0.046825 0.114234 0.000000
0.102487 0.114234 0.000000
0.194714 0.114234 0.000000
0.274342 0.114234 0.000000
0.347395 0.114234 0.000000
0.416191 0.114234 0.000000
0.481855 0.114234 0.000000
0.545133 0.114234 0.000000
0.606391 0.114234 0.000000
0.666073 0.114234 0.000000
0.724333 0.114234 0.000000
0.781428 0.114234 0.000000
0.837401 0.114234 0.000000
0.892425 0.114234 0.000000
0.946576 0.114234 0.000000
0.999826 0.114234 0.000000
-0.046825 0.175581 0.000000
0.102487 0.175581 0.000000
0.194714 0.175581 0.000000
0.274342 0.175581 0.000000
0.347395 0.175581 0.000000
0.416191 0.175581 0.000000
0.481855 0.175581 0.000000
0.545133 0.175581 0.000000
0.606391 0.175581 0.000000
0.666073 0.175581 0.000000
0.724333 0.175581 0.000000
0.781428 0.175581 0.000000
0.837401 0.175581 0.000000
0.892425 0.175581 0.000000
0.946576 0.175581 0.000000
0.999826 0.175581 0.000000
-0.046825 0.247611 0.000000
0.102487 0.247611 0.000000
0.194714 0.247611 0.000000
0.274342 0.247611 0.000000
0.347395 0.247611 0.000000
0.416191 0.247611 0.000000
0.481855 0.247611 0.000000
0.545133 0.247611 0.000000
0.606391 0.247611 0.000000
0.666073 0.247611 0.000000
0.724333 0.247611 0.000000
0.781428 0.247611 0.000000
0.837401 0.247611 0.000000
0.892425 0.247611 0.000000
0.946576 0.247611 0.000000
0.999826 0.247611 0.000000
-0.046825 0.329941 0.000000
0.102487 0.329941 0.000000
0.194714 0.329941 0.000000
0.274342 0.329941 0.000000
0.347395 0.329941 0.000000
0.416191 0.329941 0.000000
0.481855 0.329941 0.000000
0.545133 0.329941 0.000000
0.606391 0.329941 0.000000
0.666073 0.329941 0.000000
0.724333 0.329941 0.000000
0.781428 0.329941 0.000000
0.837401 0.329941 0.000000
0.892425 0.329941 0.000000
0.946576 0.329941 0.000000
0.999826 0.329941 0.000000
-0.046825 0.422351 0.000000
0.102487 0.422351 0.000000
0.194714 0.422351 0.000000
0.274342 0.422351 0.000000
0.347395 0.422351 0.000000
0.416191 0.422351 0.000000
0.481855 0.422351 0.000000
0.545133 0.422351 0.000000
0.606391 0.422351 0.000000
0.666073 0.422351 0.000000
0.724333 0.422351 0.000000
0.781428 0.422351 0.000000
0.837401 0.422351 0.000000
0.892425 0.422351 0.000000
0.946576 0.422351 0.000000
0.999826 0.422351 0.000000
-0.046825 0.524606 0.000000
0.102487 0.524606 0.000000
0.194714 0.524606 0.000000
0.274342 0.524606 0.000000
0.347395 0.524606 0.000000
0.416191 0.524606 0.000000
0.481855 0.524606 0.000000
0.545133 0.524606 0.000000
0.606391 0.524606 0.000000
0.666073 0.524606 0.000000
0.724333 0.524606 0.000000
0.781428 0.524606 0.000000
0.837401 0.524606 0.000000
0.892425 0.524606 0.000000
0.946576 0.524606 0.000000
0.999826 0.524606 0.000000
-0.046825 0.636541 0.000000
0.102487 0.636541 0.000000
0.194714 0.636541 0.000000
0.274342 0.636541 0.000000
0.347395 0.636541 0.000000
0.416191 0.636541 0.000000
0.481855 0.636541 0.000000
0.545133 0.636541 0.000000
0.606391 0.636541 0.000000
0.666073 0.636541 0.000000
0.724333 0.636541 0.000000
0.781428 0.636541 0.000000
0.837401 0.636541 0.000000
0.892425 0.636541 0.000000
0.946576 0.636541 0.000000
0.999826 0.636541 0.000000
-0.046825 0.757995 0.000000
0.102487 0.757995 0.000000
0.194714 0.757995 0.000000
0.274342 0.757995 0.000000
0.347395 0.757995 0.000000
0.416191 0.757995 0.000000
0.481855 0.757995 0.000000
0.545133 0.757995 0.000000
0.606391 0.757995 0.000000
0.666073 0.757995 0.000000
0.724333 0.757995 0.000000
0.781428 0.757995 0.000000
0.837401 0.757995 0.000000
0.892425 0.757995 0.000000
0.946576 0.757995 0.000000
0.999826 0.757995 0.000000
-0.046825 0.888823 0.000000
0.102487 0.888823 0.000000
0.194714 0.888823 0.000000
0.274342 0.888823 0.000000
0.347395 0.888823 0.000000
0.416191 0.888823 0.000000
0.481855 0.888823 0.000000
0.545133 0.888823 0.000000
0.606391 0.888823 0.000000
0.666073 0.888823 0.000000
0.724333 0.888823 0.000000
0.781428 0.888823 0.000000
0.837401 0.888823 0.000000
0.892425 0.888823 0.000000
0.946576 0.888823 0.000000
0.999826 0.888823 0.000000
-0.046825 1.028879 0.000000
0.102487 1.028879 0.000000
0.194714 1.028879 0.000000
0.274342 1.028879 0.000000
0.347395 1.028879 0.000000
0.416191 1.028879 0.000000
0.481855 1.028879 0.000000
0.545133 1.028879 0.000000
0.606391 1.028879 0.000000
0.666073 1.028879 0.000000
0.724333 1.028879 0.000000
0.781428 1.028879 0.000000
0.837401 1.028879 0.000000
0.892425 1.028879 0.000000
0.946576 1.028879 0.000000
0.999826 1.028879 0.000000
-0.046825 1.178121 0.000000
0.102487 1.178121 0.000000
0.194714 1.178121 0.000000
0.274342 1.178121 0.000000
0.347395 1.178121 0.000000
0.416191 1.178121 0.000000
0.481855 1.178121 0.000000
0.545133 1.178121 0.000000
0.606391 1.178121 0.000000
0.666073 1.178121 0.000000
0.724333 1.178121 0.000000
0.781428 1.178121 0.000000
0.837401 1.178121 0.000000
0.892425 1.178121 0.000000
0.946576 1.178121 0.000000
0.999826 1.178121 0.000000
-0.046825 1.336318 0.000000
0.102487 1.336318 0.000000
0.194714 1.336318 0.000000
0.274342 1.336318 0.000000
0.347395 1.336318 0.000000
0.416191 1.336318 0.000000
0.481855 1.336318 0.000000
0.545133 1.336318 0.000000
0.606391 1.336318 0.000000
0.666073 1.336318 0.000000
0.724333 1.336318 0.000000
0.781428 1.336318 0.000000
0.837401 1.336318 0.000000
0.892425 1.336318 0.000000
0.946576 1.336318 0.000000
0.999826 1.336318 0.000000
-0.046825 1.502852 0.000000
0.102487 1.502852 0.000000
0.194714 1.502852 0.000000
0.274342 1.502852 0.000000
0.347395 1.502852 0.000000
0.416191 1.502852 0.000000
0.481855 1.502852 0.000000
0.545133 1.502852 0.000000
0.606391 1.502852 0.000000
0.666073 1.502852 0.000000
0.724333 1.502852 0.000000
0.781428 1.502852 0.000000
0.837401 1.502852 0.000000
0.892425 1.502852 0.000000
0.946576 1.502852 0.000000
0.999826 1.502852 0.000000
-0.046825 0.000000 0.168437
0.102487 0.000000 0.168437
0.194714 0.000000 0.168437
0.274342 0.000000 0.168437
0.347395 0.000000 0.168437
0.416191 0.000000 0.168437
0.481855 0.000000 0.168437
0.545133 0.000000 0.168437
0.606391 0.000000 0.168437
0.666073 0.000000 0.168437
0.724333 0.000000 0.168437
0.781428 0.000000 0.168437
0.837401 0.000000 0.168437
0.892425 0.000000 0.168437
0.946576 0.000000 0.168437
0.999826 0.000000 0.168437
-0.046825 0.025399 0.168437
0.102487 0.025399 0.168437
0.194714 0.025399 0.168437
0.274342 0.025399 0.168437
0.347395 0.025399 0.168437
0.416191 0.025399 0.168437
0.481855 0.025399 0.168437
0.545133 0.025399 0.168437
0.606391 0.025399 0.168437
0.666073 0.025399 0.168437
0.724333 0.025399 0.168437
0.781428 0.025399 0.168437
0.837401 0.025399 0.168437
0.892425 0.025399 0.168437
0.946576 0.025399 0.168437
0.999826 0.025399 0.168437
-0.046825 0.063921 0.168437
0.102487 0.063921 0.168437
0.194714 0.063921 0.168437
0.274342 0.063921 0.168437
0.347395 0.063921 0.168437
0.416191 0.063921 0.168437
0.481855 0.063921 0.168437
0.545133 0.063921 0.168437
0.606391 0.063921 0.168437
0.666073 0.063921 0.168437
0.724333 0.063921 0.168437
0.781428 0.063921 0.168437
0.837401 0.063921 0.168437
0.892425 0.063921 0.168437
0.946576 0.063921 0.168437
0.999826 0.063921 0.168437
-0.046825 0.114234 0.168437
0.102487 0.114234 0.168437
0.194714 0.114234 0.168437
0.274342 0.114234 0.168437
0.347395 0.114234 0.168437
0.416191 0.114234 0.168437
0.481855 0.114234 0.168437
0.545133 0.114234 0.168437
0.606391 0.114234 0.168437
0.666073 0.114234 0.168437
0.724333 0.114234 0.168437
0.781428 0.114234 0.168437
0.837401 0.114234 0.168437
0.892425 0.114234 0.168437
0.946576 0.114234 0.168437
0.999826 0.114234 0.168437
-0.046825 0.175581 0.168437
0.102487 0.175581 0.168437
0.194714 0.175581 0.168437
0.274342 0.175581 0.168437
0.347395 0.175581 0.168437
0.416191 0.175581 0.168437
0.481855 0.175581 0.168437
0.545133 0.175581 0.168437
0.606391 0.175581 0.168437
0.666073 0.175581 0.168437
0.724333 0.175581 0.168437
0.781428 0.175581 0.168437
0.837401 0.175581 0.168437
0.892425 0.175581 0.168437
0.946576 0.175581 0.168437
0.999826 0.175581 0.168437
-0.046825 0.247611 0.168437
0.102487 0.247611 0.168437
0.194714 0.247611 0.168437
0.274342 0.247611 0.168437
0.347395 0.247611 0.168437
0.416191 0.247611 0.168437
0.481855 0.247611 0.168437
0.545133 0.247611 0.168437
0.606391 0.247611 0.168437
0.666073 0.247611 0.168437
0.724333 0.247611 0.168437
0.781428 0.247611 0.168437
0.837401 0.247611 0.168437
0.892425 0.247611 0.168437
0.946576 0.247611 0.168437
0.999826 0.247611 0.168437
-0.046825 0.329941 0.168437
0.102487 0.329941 0.168437
0.194714 0.329941 0.168437
0.274342 0.329941 0.168437
0.347395 0.329941 0.168437
0.416191 0.329941 0.168437
0.481855 0.329941 0.168437
0.545133 0.329941 0.168437
0.606391 0.329941 0.168437
0.666073 0.329941 0.168437
0.724333 0.329941 0.168437
0.781428 0.329941 0.168437
0.837401 0.329941 0.168437
0.892425 0.329941 0.168437
0.946576 0.329941 0.168437
0.999826 0.329941 0.168437
-0.046825 0.422351 0.168437
0.102487 0.422351 0.168437
0.194714 0.422351 0.168437
0.274342 0.422351 0.168437
0.347395 0.422351 0.168437
0.416191 0.422351 0.168437
0.481855 0.422351 0.168437
0.545133 0.422351 0.168437
0.606391 0.422351 0.168437
0.666073 0.422351 0.168437
0.724333 0.422351 0.168437
0.781428 0.422351 0.168437
0.837401 0.422351 0.168437
0.892425 0.422351 0.168437
0.946576 0.422351 0.168437
0.999826 0.422351 0.168437
-0.046825 0.524606 0.168437
0.102487 0.524606 0.168437
0.194714 0.524606 0.168437
0.274342 0.524606 0.168437
0.347395 0.524606 0.168437
0.416191 0.524606 0.168437
0.481855 0.524606 0.168437
0.545133 0.524606 0.168437
0.606391 0.524606 0.168437
0.666073 0.524606 0.168437
0.724333 0.524606 0.168437
0.781428 0.524606 0.168437
0.837401 0.524606 0.168437
0.892425 0.524606 0.168437
0.946576 0.524606 0.168437
0.999826 0.524606 0.168437
-0.046825 0.636541 0.168437
0.102487 0.636541 0.168437
0.194714 0.636541 0.168437
0.274342 0.636541 0.168437
0.347395 0.636541 0.168437
0.416191 0.636541 0.168437
0.481855 0.636541 0.168437
0.545133 0.636541 0.168437
0.606391 0.636541 0.168437
0.666073 0.636541 0.168437
0.724333 0.636541 0.168437
0.781428 0.636541 0.168437
0.837401 0.636541 0.168437
0.892425 0.636541 0.168437
0.946576 0.636541 0.168437
0.999826 0.636541 0.168437
-0.046825 0.757995 0.168437
0.102487 0.757995 0.168437
0.194714 0.757995 0.168437
0.274342 0.757995 0.168437
0.347395 0.757995 0.168437
0.416191 0.757995 0.168437
0.481855 0.757995 0.168437
0.545133 0.757995 0.168437
0.606391 0.757995 0.168437
0.666073 0.757995 0.168437
0.724333 0.757995 0.168437
0.781428 0.757995 0.168437
0.837401 0.757995 0.168437
0.892425 0.757995 0.168437
0.946576 0.757995 0.168437
0.999826 0.757995 0.168437
-0.046825 0.888823 0.168437
0.102487 0.888823 0.168437
0.194714 0.888823 0.168437
0.274342 0.888823 0.168437
0.347395 0.888823 0.168437
0.416191 0.888823 0.168437
0.481855 0.888823 0.168437
0.545133 0.888823 0.168437
0.606391 0.888823 0.168437
0.666073 0.888823 0.168437
0.724333 0.888823 0.168437
0.781428 0.888823 0.168437
0.837401 0.888823 0.168437
0.892425 0.888823 0.168437
0.946576 0.888823 0.168437
0.999826 0.888823 0.168437
-0.046825 1.028879 0.168437
0.102487 1.028879 0.168437
0.194714 1.028879 0.168437
0.274342 1.028879 0.168437
0.347395 1.028879 0.168437
0.416191 1.028879 0.168437
0.481855 1.028879 0.168437
0.545133 1.028879 0.168437
0.606391 1.028879 0.168437
0.666073 1.028879 0.168437
0.724333 1.028879 0.168437
0.781428 1.028879 0.168437
0.837401 1.028879 0.168437
0.892425 1.028879 0.168437
0.946576 1.028879 0.168437
0.999826 1.028879 0.168437
-0.046825 1.178121 0.168437
0.102487 1.178121 0.168437
0.194714 1.178121 0.168437
0.274342 1.178121 0.168437
0.347395 1.178121 0.168437
0.416191 1.178121 0.168437
0.481855 1.178121 0.168437
0.545133 1.178121 0.168437
0.606391 1.178121 0.168437
0.666073 1.178121 0.168437
0.724333 1.178121 0.168437
0.781428 1.178121 0.168437
0.837401 1.178121 0.168437
0.892425 1.178121 0.168437
0.946576 1.178121 0.168437
0.999826 1.178121 0.168437
-0.046825 1.336318 0.168437
0.102487 1.336318 0.168437
0.194714 1.336318 0.168437
0.274342 1.336318 0.168437
0.347395 1.336318 0.168437
0.416191 1.336318 0.168437
0.481855 1.336318 0.168437
0.545133 1.336318 0.168437
0.606391 1.336318 0.168437
0.666073 1.336318 0.168437
0.724333 1.336318 0.168437
0.781428 1.336318 0.168437
0.837401 1.336318 0.168437
0.892425 1.336318 0.168437
0.946576 1.336318 0.168437
0.999826 1.336318 0.168437
-0.046825 1.502852 0.168437
0.102487 1.502852 0.168437
0.194714 1.502852 0.168437
0.274342 1.502852 0.168437
0.347395 1.502852 0.168437
0.416191 1.502852 0.168437
0.481855 1.502852 0.168437
0.545133 1.502852 0.168437
0.606391 1.502852 0.168437
0.666073 1.502852 0.168437
0.724333 1.502852 0.168437
0.781428 1.502852 0.168437
0.837401 1.502852 0.168437
0.892425 1.502852 0.168437
0.946576 1.502852 0.168437
0.999826 1.502852 0.168437
-0.046825 0.000000 0.279350
0.102487 0.000000 0.279350
0.194714 0.000000 0.279350
0.274342 0.000000 0.279350
0.347395 0.000000 0.279350
0.416191 0.000000 0.279350
0.481855 0.000000 0.279350
0.545133 0.000000 0.279350
0.606391 0.000000 0.279350
0.666073 0.000000 0.279350
0.724333 0.000000 0.279350
0.781428 0.000000 0.279350
0.837401 0.000000 0.279350
0.892425 0.000000 0.279350
0.946576 0.000000 0.279350
0.999826 0.000000 0.279350
-0.046825 0.025399 0.279350
0.102487 0.025399 0.279350
0.194714 0.025399 0.279350
0.274342 0.025399 0.279350
0.347395 0.025399 0.279350
0.416191 0.025399 0.279350
0.481855 0.025399 0.279350
0.545133 0.025399 0.279350
0.606391 0.025399 0.279350
0.666073 0.025399 0.279350
0.724333 0.025399 0.279350
0.781428 0.025399 0.279350
0.837401 0.025399 0.279350
0.892425 0.025399 0.279350
0.946576 0.025399 0.279350
0.999826 0.025399 0.279350
-0.046825 0.063921 0.279350
0.102487 0.063921 0.279350
0.194714 0.063921 0.279350
0.274342 0.063921 0.279350
0.347395 0.063921 0.279350
0.416191 0.063921 0.279350
0.481855 0.063921 0.279350
0.545133 0.063921 0.279350
0.606391 0.063921 0.279350
0.666073 0.063921 0.279350
0.724333 0.063921 0.279350
0.781428 0.063921 0.279350
0.837401 0.063921 0.279350
0.892425 0.063921 0.279350
0.946576 0.063921 0.279350
0.999826 0.063921 0.279350
-0.046825 0.114234 0.279350
0.102487 0.114234 0.279350
0.194714 0.114234 0.279350
0.274342 0.114234 0.279350
0.347395 0.114234 0.279350
0.416191 0.114234 0.279350
0.481855 0.114234 0.279350
0.545133 0.114234 0.279350
0.606391 0.114234 0.279350
0.666073 0.114234 0.279350
0.724333 0.114234 0.279350
0.781428 0.114234 0.279350
0.837401 0.114234 0.279350
0.892425 0.114234 0.279350
0.946576 0.114234 0.279350
0.999826 0.114234 0.279350
-0.046825 0.175581 0.279350
0.102487 0.175581 0.279350
0.194714 0.175581 0.279350
0.274342 0.175581 0.279350
0.347395 0.175581 0.279350
0.416191 0.175581 0.279350
0.481855 0.175581 0.279350
0.545133 0.175581 0.279350
0.606391 0.175581 0.279350
0.666073 0.175581 0.279350
0.724333 0.175581 0.279350
0.781428 0.175581 0.279350
0.837401 0.175581 0.279350
0.892425 0.175581 0.279350
0.946576 0.175581 0.279350
0.999826 0.175581 0.279350
-0.046825 0.247611 0.279350
0.102487 0.247611 0.279350
0.194714 0.247611 0.279350
0.274342 0.247611 0.279350
0.347395 0.247611 0.279350
0.416191 0.247611 0.279350
0.481855 0.247611 0.279350
0.545133 0.247611 0.279350
0.606391 0.247611 0.279350
0.666073 0.247611 0.279350
0.724333 0.247611 0.279350
0.781428 0.247611 0.279350
0.837401 0.247611 0.279350
0.892425 0.247611 0.279350
0.946576 0.247611 0.279350
0.999826 0.247611 0.279350
-0.046825 0.329941 0.279350
0.102487 0.329941 0.279350
0.194714 0.329941 0.279350
0.274342 0.329941 0.279350
0.347395 0.329941 0.279350
0.416191 0.329941 0.279350
0.481855 0.329941 0.279350
0.545133 0.329941 0.279350
0.606391 0.329941 0.279350
0.666073 0.329941 0.279350
0.724333 0.329941 0.279350
0.781428 0.329941 0.279350
0.837401 0.329941 0.279350
0.892425 0.329941 0.279350
0.946576 0.329941 0.279350
0.999826 0.329941 0.279350
-0.046825 0.422351 0.279350
0.102487 0.422351 0.279350
0.194714 0.422351 0.279350
0.274342 0.422351 0.279350
0.347395 0.422351 0.279350
0.416191 0.422351 0.279350
0.481855 0.422351 0.279350
0.545133 0.422351 0.279350
0.606391 0.422351 0.279350
0.666073 0.422351 0.279350
0.724333 0.422351 0.279350
0.781428 0.422351 0.279350
0.837401 0.422351 0.279350
0.892425 0.422351 0.279350
0.946576 0.422351 0.279350
0.999826 0.422351 0.279350
-0.046825 0.524606 0.279350
0.102487 0.524606 0.279350
0.194714 0.524606 0.279350
0.274342 0.524606 0.279350
0.347395 0.524606 0.279350
0.416191 0.524606 0.279350
0.481855 0.524606 0.279350
0.545133 0.524606 0.279350
0.606391 0.524606 0.279350
0.666073 0.524606 0.279350
0.724333 0.524606 0.279350
0.781428 0.524606 0.279350
0.837401 0.524606 0.279350
0.892425 0.524606 0.279350
0.946576 0.524606 0.279350
0.999826 0.524606 0.279350
-0.046825 0.636541 0.279350
0.102487 0.636541 0.279350
0.194714 0.636541 0.279350
0.274342 0.636541 0.279350
0.347395 0.636541 0.279350
0.416191 0.636541 0.279350
0.481855 0.636541 0.279350
0.545133 0.636541 0.279350
0.606391 0.636541 0.279350
0.666073 0.636541 0.279350
0.724333 0.636541 0.279350
0.781428 0.636541 0.279350
0.837401 0.636541 0.279350
0.892425 0.636541 0.279350
0.946576 0.636541 0.279350
0.999826 0.636541 0.279350
-0.046825 0.757995 0.279350
0.102487 0.757995 0.279350
0.194714 0.757995 0.279350
0.274342 0.757995 0.279350
0.347395 0.757995 0.279350
0.416191 0.757995 0.279350
0.481855 0.757995 0.279350
0.545133 0.757995 0.279350
0.606391 0.757995 0.279350
0.666073 0.757995 0.279350
0.724333 0.757995 0.279350
0.781428 0.757995 0.279350
0.837401 0.757995 0.279350
0.892425 0.757995 0.279350
0.946576 0.757995 0.279350
0.999826 0.757995 0.279350
-0.046825 0.888823 0.279350
0.102487 0.888823 0.279350
0.194714 0.888823 0.279350
0.274342 0.888823 0.279350
0.347395 0.888823 0.279350
0.416191 0.888823 0.279350
0.481855 0.888823 0.279350
0.545133 0.888823 0.279350
0.606391 0.888823 0.279350
0.666073 0.888823 0.279350
0.724333 0.888823 0.279350
0.781428 0.888823 0.279350
0.837401 0.888823 0.279350
0.892425 0.888823 0.279350
0.946576 0.888823 0.279350
0.999826 0.888823 0.279350
-0.046825 1.028879 0.279350
0.102487 1.028879 0.279350
0.194714 1.028879 0.279350
0.274342 1.028879 0.279350
0.347395 1.028879 0.279350
0.416191 1.028879 0.279350
0.481855 1.028879 0.279350
0.545133 1.028879 0.279350
0.606391 1.028879 0.279350
0.666073 1.028879 0.279350
0.724333 1.028879 0.279350
0.781428 1.028879 0.279350
0.837401 1.028879 0.279350
0.892425 1.028879 0.279350
0.946576 1.028879 0.279350
0.999826 1.028879 0.279350
-0.046825 1.178121 0.279350
0.102487 1.178121 0.279350
0.194714 1.178121 0.279350
0.274342 1.178121 0.279350
0.347395 1.178121 0.279350
0.416191 1.178121 0.279350
0.481855 1.178121 0.279350
0.545133 1.178121 0.279350
0.606391 1.178121 0.279350
0.666073 1.178121 0.279350
0.724333 1.178121 0.279350
0.781428 1.178121 0.279350
0.837401 1.178121 0.279350
0.892425 1.178121 0.279350
0.946576 1.178121 0.279350
0.999826 1.178121 0.279350
-0.046825 1.336318 0.279350
0.102487 1.336318 0.279350
0.194714 1.336318 0.279350
0.274342 1.336318 0.279350
0.347395 1.336318 0.279350
0.416191 1.336318 0.279350
0.481855 1.336318 0.279350
0.545133 1.336318 0.279350
0.606391 1.336318 0.279350
0.666073 1.336318 0.279350
0.724333 1.336318 0.279350
0.781428 1.336318 0.279350
0.837401 1.336318 0.279350
0.892425 1.336318 0.279350
0.946576 1.336318 0.279350
0.999826 1.336318 0.279350
-0.046825 1.502852 0.279350
0.102487 1.502852 0.279350
0.194714 1.502852 0.279350
0.274342 1.502852 0.279350
0.347395 1.502852 0.279350
0.416191 1.502852 0.279350
0.481855 1.502852 0.279350
0.545133 1.502852 0.279350
0.606391 1.502852 0.279350
0.666073 1.502852 0.279350
0.724333 1.502852 0.279350
0.781428 1.502852 0.279350
0.837401 1.502852 0.279350
0.892425 1.502852 0.279350
0.946576 1.502852 0.279350
0.999826 1.502852 0.279350
-0.046825 0.000000 0.376319
0.102487 0.000000 0.376319
0.194714 0.000000 0.376319
0.274342 0.000000 0.376319
0.347395 0.000000 0.376319
0.416191 0.000000 0.376319
0.481855 0.000000 0.376319
0.545133 0.000000 0.376319
0.606391 0.000000 0.376319
0.666073 0.000000 0.376319
0.724333 0.000000 0.376319
0.781428 0.000000 0.376319
0.837401 0.000000 0.376319
0.892425 0.000000 0.376319
0.946576 0.000000 0.376319
0.999826 0.000000 0.376319
-0.046825 0.025399 0.376319
0.102487 0.025399 0.376319
0.194714 0.025399 0.376319
0.274342 0.025399 0.376319
0.347395 0.025399 0.376319
0.416191 0.025399 0.376319
0.481855 0.025399 0.376319
0.545133 0.025399 0.376319
0.606391 0.025399 0.376319
0.666073 0.025399 0.376319
0.724333 0.025399 0.376319
0.781428 0.025399 0.376319
0.837401 0.025399 0.376319
0.892425 0.025399 0.376319
0.946576 0.025399 0.376319
0.999826 0.025399 0.376319
-0.046825 0.063921 0.376319
0.102487 0.063921 0.376319
0.194714 0.063921 0.376319
0.274342 0.063921 0.376319
0.347395 0.063921 0.376319
0.416191 0.063921 0.376319
0.481855 0.063921 0.376319
0.545133 0.063921 0.376319
0.606391 0.063921 0.376319
0.666073 0.063921 0.376319
0.724333 0.063921 0.376319
0.781428 0.063921 0.376319
0.837401 0.063921 0.376319
0.892425 0.063921 0.376319
0.946576 0.063921 0.376319
0.999826 0.063921 0.376319
-0.046825 0.114234 0.376319
0.102487 0.114234 0.376319
0.194714 0.114234 0.376319
0.274342 0.114234 0.376319
0.347395 0.114234 0.376319
0.416191 0.114234 0.376319
0.481855 0.114234 0.376319
0.545133 0.114234 0.376319
0.606391 0.114234 0.376319
0.666073 0.114234 0.376319
0.724333 0.114234 0.376319
0.781428 0.114234 0.376319
0.837401 0.114234 0.376319
0.892425 0.114234 0.376319
0.946576 0.114234 0.376319
0.999826 0.114234 0.376319
-0.046825 0.175581 0.376319
0.102487 0.175581 0.376319
0.194714 0.175581 0.376319
0.274342 0.175581 0.376319
0.347395 0.175581 0.376319
0.416191 0.175581 0.376319
0.481855 0.175581 0.376319
0.545133 0.175581 0.376319
0.606391 0.175581 0.376319
0.666073 0.175581 0.376319
0.724333 0.175581 0.376319
0.781428 0.175581 0.376319
0.837401 0.175581 0.376319
0.892425 0.175581 0.376319
0.946576 0.175581 0.376319
0.999826 0.175581 0.376319
-0.046825 0.247611 0.376319
0.102487 0.247611 0.376319
0.194714 0.247611 0.376319
0.274342 0.247611 0.376319
0.347395 0.247611 0.376319
0.416191 0.247611 0.376319
0.481855 0.247611 0.376319
0.545133 0.247611 0.376319
0.606391 0.247611 0.376319
0.666073 0.247611 0.376319
0.724333 0.247611 0.376319
0.781428 0.247611 0.376319
0.837401 0.247611 0.376319
0.892425 0.247611 0.376319
0.946576 0.247611 0.376319
0.999826 0.247611 0.376319
-0.046825 0.329941 0.376319
0.102487 0.329941 0.376319
0.194714 0.329941 0.376319
0.274342 0.329941 0.376319
0.347395 0.329941 0.376319
0.416191 0.329941 0.376319
0.481855 0.329941 0.376319
0.545133 0.329941 0.376319
0.606391 0.329941 0.376319
0.666073 0.329941 0.376319
0.724333 0.329941 0.376319
0.781428 0.329941 0.376319
0.837401 0.329941 0.376319
0.892425 0.329941 0.376319
0.946576 0.329941 0.376319
0.999826 0.329941 0.376319
-0.046825 0.422351 0.376319
0.102487 0.422351 0.376319
0.194714 0.422351 0.376319
0.274342 0.422351 0.376319
0.347395 0.422351 0.376319
0.416191 0.422351 0.376319
