example_ofxGpuLutCube/bin/data/ofxGpuLutCube/LUT/S17 (deep yellow tone).cube
LUT_3D_SIZE 16
0.108878 0.096447 -1.044515
0.178875 0.093546 -1.046240
0.246775 0.090598 -1.047965
0.314053 0.087674 -1.049690
0.380914 0.084717 -1.051452
0.447493 0.081766 -1.053173
0.513846 0.078790 -1.054864
0.580075 0.076002 -1.057819
0.646630 0.074442 -1.069142
0.713133 0.073084 -1.081977
0.779512 0.071743 -1.094823
0.845773 0.070394 -1.107669
0.911926 0.069036 -1.120515
0.977996 0.067704 -1.133386
1.043982 0.066346 -1.146258
1.111662 0.066346 -1.152813
0.105669 0.160797 -1.046240
0.176005 0.158050 -1.047964
0.244041 0.155258 -1.049690
0.311393 0.152421 -1.051452
0.378303 0.149548 -1.053173
0.444909 0.146653 -1.054864
0.511373 0.143929 -1.057895
0.578114 0.142389 -1.069143
0.644790 0.141083 -1.081977
0.711291 0.139754 -1.094823
0.777684 0.138425 -1.107669
0.843947 0.137096 -1.120516
0.910125 0.135770 -1.133388
0.976195 0.134458 -1.146259
1.044267 0.134603 -1.152171
1.120013 0.140436 -1.131380
0.102593 0.225104 -1.047965
0.173061 0.222203 -1.049690
0.241279 0.219327 -1.051453
0.308709 0.216474 -1.053173
0.375674 0.213678 -1.054864
0.442410 0.211183 -1.057945
0.509390 0.209734 -1.069144
0.576232 0.208503 -1.081977
0.642923 0.207226 -1.094823
0.709462 0.205973 -1.107669
0.775848 0.204689 -1.120517
0.842137 0.203424 -1.133389
0.908319 0.202147 -1.146260
0.976664 0.202379 -1.151621
1.052509 0.207914 -1.131280
1.128393 0.213453 -1.109894
0.099595 0.289988 -1.049690
0.170087 0.287038 -1.051452
0.238513 0.284083 -1.053173
0.306024 0.281150 -1.054864
0.373124 0.278419 -1.057970
0.440392 0.276871 -1.069144
0.507486 0.275566 -1.081977
0.574366 0.274255 -1.094823
0.641057 0.272947 -1.107669
0.707612 0.271639 -1.120518
0.774021 0.270350 -1.133390
0.840315 0.269065 -1.146261
0.908911 0.269428 -1.151163
0.984772 0.274976 -1.131284
1.060919 0.280922 -1.109794
1.136749 0.286882 -1.088413
0.096657 0.355129 -1.051452
0.167014 0.352144 -1.053173
0.235722 0.349150 -1.054864
0.303420 0.346369 -1.057970
0.371083 0.344789 -1.069144
0.438467 0.343444 -1.081977
0.505584 0.342102 -1.094823
0.572486 0.340767 -1.107669
0.639200 0.339427 -1.120518
0.705769 0.338103 -1.133390
0.772193 0.336760 -1.146262
0.841020 0.337223 -1.150796
0.916951 0.342834 -1.131287
0.993235 0.348909 -1.109797
1.069321 0.354999 -1.088314
1.145097 0.361093 -1.066972
0.093760 0.420423 -1.053173
0.163832 0.417394 -1.054864
0.232985 0.414564 -1.057945
0.301303 0.412979 -1.069144
0.369110 0.411631 -1.081977
0.436543 0.410273 -1.094823
0.503683 0.408916 -1.107669
0.570600 0.407562 -1.120519
0.637337 0.406200 -1.133391
0.703916 0.404853 -1.146263
0.772987 0.405371 -1.150521
0.848999 0.410999 -1.131289
0.925447 0.417139 -1.109800
1.001675 0.423310 -1.088318
1.077702 0.429480 -1.066871
1.153401 0.435654 -1.045545
0.090888 0.485809 -1.054864
0.160381 0.482968 -1.057894
0.230758 0.481360 -1.069144
0.299270 0.479994 -1.081977
0.367133 0.478631 -1.094823
0.434611 0.477252 -1.107669
0.501777 0.475894 -1.120519
0.568717 0.474532 -1.133391
0.635479 0.473161 -1.146263
0.704775 0.473731 -1.150338
0.780930 0.479364 -1.131291
0.857560 0.485562 -1.109802
0.933931 0.491772 -1.088321
1.010092 0.497996 -1.066872
1.086050 0.504235 -1.045443
1.161714 0.510440 -1.024146
0.088135 0.551485 -1.057819
0.157805 0.549873 -1.069143
0.228624 0.548512 -1.081977
0.297248 0.547130 -1.094823
0.365161 0.545759 -1.107669
0.432662 0.544375 -1.120519
0.499856 0.542997 -1.133391
0.566837 0.541627 -1.146263
0.636362 0.542212 -1.150246
0.712725 0.547872 -1.131292
0.789556 0.554106 -1.109803
0.866086 0.560356 -1.088323
0.942396 0.566621 -1.066874
1.018478 0.572885 -1.045445
1.094391 0.579165 -1.024045
1.170007 0.585413 -1.002777
0.085952 0.618519 -1.069142
0.155460 0.617136 -1.081977
0.226468 0.615751 -1.094823
0.295208 0.614377 -1.107669
0.363174 0.612982 -1.120518
0.430721 0.611608 -1.133391
0.497950 0.610221 -1.146263
0.567727 0.610812 -1.150246
0.644366 0.616513 -1.131292
0.721427 0.622774 -1.109804
0.798159 0.629054 -1.088324
0.874617 0.635339 -1.066875
0.950838 0.641646 -1.045446
1.026862 0.647939 -1.024048
1.102723 0.654247 -1.002676
1.170573 0.653971 -1.002153
0.083863 0.685849 -1.081977
0.153181 0.684465 -1.094823
0.224297 0.683080 -1.107669
0.293150 0.681683 -1.120518
0.361193 0.680296 -1.133390
0.428781 0.678904 -1.146263
0.498841 0.679474 -1.150338
0.575814 0.685215 -1.131292
0.653138 0.691510 -1.109804
0.730079 0.697817 -1.088325
0.806717 0.704123 -1.066875
0.883090 0.710453 -1.045447
0.959262 0.716772 -1.024049
1.035222 0.723116 -1.002679
1.103164 0.722765 -1.002383
1.164930 0.717304 -1.018249
0.081791 0.753259 -1.094823
0.150907 0.751866 -1.107669
0.222100 0.750464 -1.120517
0.291095 0.749080 -1.133390
0.359201 0.747670 -1.146262
0.429606 0.748205 -1.150521
0.507056 0.754019 -1.131291
0.584673 0.760333 -1.109803
0.661867 0.766661 -1.088324
0.738701 0.773001 -1.066875
0.815263 0.779344 -1.045447
0.891555 0.785689 -1.024050
0.967661 0.792031 -1.002680
1.035625 0.791642 -1.002506
1.097557 0.786178 -1.018329
1.159263 0.780651 -1.034380
0.079730 0.820716 -1.107669
0.148681 0.819314 -1.120516
0.219871 0.817922 -1.133389
0.289018 0.816518 -1.146261
0.359960 0.816989 -1.150796
0.438040 0.822867 -1.131289
0.516029 0.829214 -1.109802
0.593483 0.835556 -1.088323
0.670554 0.841924 -1.066875
0.747310 0.848277 -1.045447
0.823767 0.854659 -1.024050
0.900005 0.861023 -1.002680
0.968045 0.860609 -1.002567
1.030041 0.855139 -1.018330
1.091849 0.849576 -1.034459
1.153590 0.844034 -1.050516
0.077668 0.888220 -1.120515
0.146494 0.886830 -1.133388
0.217597 0.885420 -1.146260
0.289678 0.885818 -1.151163
0.368658 0.891800 -1.131287
0.447134 0.898165 -1.109800
0.524938 0.904524 -1.088321
0.602261 0.910903 -1.066874
0.679223 0.917294 -1.045446
0.755869 0.923665 -1.024049
0.832268 0.930053 -1.002680
0.900389 0.929646 -1.002567
0.962441 0.924170 -1.018330
1.024321 0.918580 -1.034459
1.086156 0.912994 -1.050594
1.147904 0.907435 -1.066662
0.075631 0.955789 -1.133386
0.144318 0.954396 -1.146259
0.218126 0.954675 -1.151621
0.298803 0.960777 -1.131284
0.377948 0.967154 -1.109797
0.456152 0.973548 -1.088318
0.533798 0.979933 -1.066872
0.610990 0.986329 -1.045445
0.687854 0.992725 -1.024048
0.764407 0.999135 -1.002679
0.832671 0.998746 -1.002506
0.894774 0.993237 -1.018330
0.956692 0.987621 -1.034459
1.018584 0.982033 -1.050594
1.080462 0.976421 -1.066739
1.142213 0.970861 -1.082813
0.073595 1.023411 -1.146258
0.144721 1.023564 -1.152171
0.228131 1.029812 -1.131280
0.308344 1.036211 -1.109794
0.387117 1.042609 -1.088314
0.465135 1.049007 -1.066871
0.542605 1.055428 -1.045443
0.619688 1.061837 -1.024046
0.696456 1.068260 -1.002676
0.764863 1.067910 -1.002383
0.826992 1.062331 -1.018329
0.888998 1.056717 -1.034459
0.950947 1.051102 -1.050594
1.012862 1.045488 -1.066739
1.074745 1.039896 -1.082891
1.136497 1.034312 -1.099048
0.073694 1.092379 -1.152813
0.154917 1.098777 -1.131380
0.238092 1.105176 -1.109894
0.317677 1.111599 -1.088413
0.396178 1.118022 -1.066972
0.473998 1.124445 -1.045545
0.551341 1.130868 -1.024146
0.628303 1.137303 -1.002777
0.696996 1.137048 -1.002153
0.759139 1.131432 -1.018249
0.821215 1.125809 -1.034380
0.883237 1.120177 -1.050516
0.945206 1.114538 -1.066662
1.007142 1.108945 -1.082813
1.069030 1.103309 -1.099048
1.130830 1.097722 -1.115158
0.105669 0.093546 -0.922611
0.176005 0.090598 -0.924335
0.244041 0.087674 -0.926036
0.311393 0.084718 -0.927759
0.378303 0.081766 -0.929484
0.444909 0.078790 -0.931184
0.511373 0.076012 -0.934183
0.578114 0.074442 -0.945409
0.644790 0.073084 -0.958200
0.711291 0.071742 -0.970992
0.777684 0.070394 -0.983784
0.843947 0.069038 -0.996578
0.910125 0.067704 -1.009396
0.976195 0.066346 -1.022235
1.044267 0.066494 -1.028104
1.120013 0.072433 -1.007412
0.102594 0.158050 -0.924335
0.173061 0.155258 -0.926036
0.241279 0.152421 -0.927759
0.308709 0.149549 -0.929483
0.375674 0.146653 -0.931186
0.442411 0.143936 -0.934239
0.509391 0.142389 -0.945409
0.576232 0.141083 -0.958200
0.642923 0.139753 -0.970992
0.709462 0.138424 -0.983784
0.775848 0.137095 -0.996579
0.842137 0.135771 -1.009397
0.908326 0.134462 -1.022212
0.976666 0.134722 -1.027552
1.052509 0.140463 -1.007311
1.128393 0.146377 -0.985986
0.099595 0.222203 -0.926036
0.170086 0.219327 -0.927759
0.238513 0.216475 -0.929483
0.306025 0.213680 -0.931187
0.373125 0.211188 -0.934273
0.440392 0.209735 -0.945409
0.507486 0.208502 -0.958200
0.574366 0.207226 -0.970992
0.641057 0.205972 -0.983784
0.707612 0.204690 -0.996580
0.774021 0.203424 -1.009398
0.840328 0.202154 -1.022194
0.908916 0.202478 -1.027085
0.984772 0.207910 -1.007314
1.060919 0.213486 -0.985887
1.136749 0.219196 -0.964607
0.096657 0.287038 -0.927759
0.167013 0.284083 -0.929483
0.235723 0.281150 -0.931187
0.303422 0.278423 -0.934285
0.371083 0.276871 -0.945409
0.438467 0.275565 -0.958200
0.505583 0.274255 -0.970992
0.572486 0.272947 -0.983784
0.639200 0.271640 -0.996581
0.705769 0.270351 -1.009398
0.772210 0.269077 -1.022179
0.841031 0.269513 -1.026703
0.916950 0.274976 -1.007316
0.993235 0.280921 -0.985892
1.069321 0.286911 -0.964507
1.145097 0.292928 -0.943254
0.093760 0.352144 -0.929484
0.163828 0.349150 -0.931186
0.232989 0.346372 -0.934273
0.301304 0.344789 -0.945409
0.369110 0.343444 -0.958200
0.436543 0.342102 -0.970992
0.503683 0.340767 -0.983784
0.570601 0.339437 -0.996575
0.637337 0.338103 -1.009399
0.703937 0.336775 -1.022167
0.773006 0.337295 -1.026406
0.848999 0.342834 -1.007318
0.925447 0.348909 -0.985896
1.001675 0.354999 -0.964510
1.077702 0.361123 -0.943153
1.153401 0.367236 -0.921909
0.090888 0.417394 -0.931184
0.160387 0.414566 -0.934239
0.230758 0.412979 -0.945409
0.299269 0.411631 -0.958200
0.367133 0.410273 -0.970992
0.434611 0.408916 -0.983784
0.501777 0.407563 -0.996575
0.568717 0.406200 -1.009382
0.635502 0.404868 -1.022160
0.704804 0.405431 -1.026194
0.780930 0.410999 -1.007319
0.857560 0.417140 -0.985899
0.933931 0.423310 -0.964513
1.010092 0.429482 -0.943155
1.086051 0.435685 -0.921808
1.161713 0.441869 -0.900609
0.088140 0.482968 -0.934183
0.157805 0.481360 -0.945409
0.228624 0.479994 -0.958200
0.297248 0.478631 -0.970992
0.365162 0.477252 -0.983784
0.432662 0.475894 -0.996575
0.499856 0.474531 -1.009382
0.566861 0.473178 -1.022122
0.636402 0.473780 -1.026066
0.712726 0.479365 -1.007320
0.789555 0.485563 -0.985901
0.866086 0.491773 -0.964515
0.942395 0.497997 -0.943157
1.018479 0.504235 -0.921811
1.094391 0.510472 -0.900508
1.169896 0.516623 -0.879608
0.085952 0.549873 -0.945409
0.155459 0.548512 -0.958200
0.226468 0.547130 -0.970992
0.295209 0.545759 -0.983784
0.363183 0.544375 -0.996575
0.430722 0.542997 -1.009383
0.497980 0.541645 -1.022122
0.567775 0.542250 -1.026025
0.644366 0.547872 -1.007321
0.721422 0.554106 -0.985902
0.798150 0.560356 -0.964516
0.874614 0.566620 -0.943158
0.950837 0.572885 -0.921813
1.026862 0.579165 -0.900509
1.102601 0.585341 -0.879533
1.170572 0.585169 -0.878697
0.083863 0.617136 -0.958200
0.153181 0.615751 -0.970992
0.224297 0.614377 -0.983784
0.293150 0.612982 -0.996581
0.361193 0.611608 -1.009399
0.428804 0.610237 -1.022160
0.498911 0.610841 -1.026066
0.575813 0.616501 -1.007321
0.653137 0.622775 -0.985886
0.730078 0.629054 -0.964501
0.806718 0.635338 -0.943150
0.883090 0.641645 -0.921795
0.959262 0.647939 -0.900504
1.035093 0.654138 -0.879552
1.103158 0.653892 -0.878940
1.164931 0.648459 -0.894695
0.081790 0.684465 -0.970992
0.150908 0.683080 -0.983784
0.222100 0.681683 -0.996580
0.291095 0.680296 -1.009398
0.359223 0.678919 -1.022167
0.429695 0.679494 -1.026194
0.507055 0.685215 -1.007320
0.584672 0.691510 -0.985902
0.661866 0.697818 -0.964501
0.738701 0.704124 -0.943150
0.815262 0.710453 -0.921795
0.891556 0.716773 -0.900504
0.967527 0.723003 -0.879565
1.035613 0.722715 -0.879082
1.097555 0.717276 -0.894772
1.159263 0.711754 -0.910791
0.079728 0.751866 -0.983784
0.148681 0.750464 -0.996579
0.219869 0.749080 -1.009398
0.289038 0.747682 -1.022179
0.360072 0.748219 -1.026406
0.438038 0.754019 -1.007319
0.516027 0.760332 -0.985901
0.593483 0.766656 -0.964516
0.670555 0.773001 -0.943150
0.747308 0.779343 -0.921795
0.823767 0.785689 -0.900504
0.899868 0.791916 -0.879571
0.968022 0.791605 -0.879167
1.030040 0.786179 -0.894772
1.091849 0.780625 -0.910870
1.153589 0.775089 -0.926870
0.077668 0.819314 -0.996578
0.146493 0.817922 -1.009397
0.217611 0.816527 -1.022194
0.289818 0.816997 -1.026703
0.368658 0.822867 -1.007318
0.447132 0.829214 -0.985899
0.524937 0.835557 -0.964515
0.602260 0.841923 -0.943158
0.679223 0.848278 -0.921795
0.755868 0.854658 -0.900504
0.832128 0.860906 -0.879571
0.900356 0.860580 -0.879195
0.962441 0.855140 -0.894772
1.024320 0.849576 -0.910871
1.086156 0.844007 -0.926948
1.147904 0.838454 -0.942949
0.075631 0.886830 -1.009396
0.144327 0.885425 -1.022212
0.218303 0.885822 -1.027085
0.298801 0.891800 -1.007316
0.377946 0.898165 -0.985896
0.456152 0.904525 -0.964513
0.533798 0.910903 -0.943157
0.610991 0.917272 -0.921813
0.687854 0.923665 -0.900504
0.764270 0.929938 -0.879565
0.832625 0.929627 -0.879167
0.894773 0.924169 -0.894772
0.956692 0.918578 -0.910871
1.018585 0.912992 -0.926949
1.080461 0.907407 -0.943026
1.142213 0.901848 -0.959035
0.073595 0.954396 -1.022235
0.144923 0.954676 -1.027552
0.228125 0.960777 -1.007314
0.308342 0.967153 -0.985892
0.387115 0.973547 -0.964510
0.465134 0.979934 -0.943155
0.542605 0.986330 -0.921811
0.619687 0.992726 -0.900509
0.696322 0.999023 -0.879552
0.764803 0.998734 -0.879082
0.826991 0.993237 -0.894772
0.888997 0.987621 -0.910871
0.950947 0.982032 -0.926949
1.012862 0.976421 -0.943026
1.074744 0.970833 -0.959113
1.136498 0.965273 -0.975190
0.073924 1.023564 -1.028104
0.154986 1.029812 -1.007311
0.238133 1.036211 -0.985887
0.317722 1.042608 -0.964507
0.396221 1.049007 -0.943153
0.474041 1.055428 -0.921808
0.551384 1.061836 -0.900508
0.628219 1.068157 -0.879533
0.696903 1.067905 -0.878940
0.759111 1.062332 -0.894772
0.821185 1.056718 -0.910870
0.883209 1.051103 -0.926948
0.945179 1.045489 -0.943026
1.007115 1.039896 -0.959113
1.069004 1.034286 -0.975267
1.130896 1.028809 -0.991059
0.083351 1.098777 -1.007412
0.166510 1.105176 -0.985986
0.247797 1.111599 -0.964607
0.326965 1.118022 -0.943254
0.405217 1.124445 -0.921909
0.482874 1.130868 -0.900609
0.559967 1.137207 -0.879608
0.628897 1.137060 -0.878697
0.691146 1.131432 -0.894695
0.753281 1.125808 -0.910791
0.815393 1.120177 -0.926870
0.877434 1.114539 -0.942949
0.939435 1.108944 -0.959035
1.001398 1.103310 -0.975190
1.063403 1.097782 -0.991059
1.130969 1.097544 -0.990993
0.102593 0.090598 -0.801006
0.173061 0.087674 -0.802723
0.241279 0.084718 -0.804421
0.308709 0.081766 -0.806126
0.375674 0.078790 -0.807843
0.442410 0.076019 -0.810864
0.509390 0.074442 -0.821998
0.576232 0.073084 -0.834700
0.642923 0.071742 -0.847460
0.709462 0.070394 -0.860156
0.775848 0.069039 -0.872910
0.842137 0.067704 -0.885671
0.908319 0.066346 -0.898478
0.976664 0.066616 -0.903784
1.052509 0.072464 -0.883618
1.128393 0.078514 -0.862400
0.099595 0.155258 -0.802723
0.170086 0.152421 -0.804422
0.238513 0.149549 -0.806125
0.306025 0.146654 -0.807848
0.373125 0.143941 -0.810906
0.440392 0.142389 -0.821998
0.507486 0.141082 -0.834698
0.574366 0.139753 -0.847437
0.641057 0.138423 -0.860157
0.707612 0.137095 -0.872915
0.774021 0.135772 -0.885674
0.840328 0.134465 -0.898433
0.908916 0.134822 -0.903309
0.984772 0.140462 -0.883619
1.060919 0.146404 -0.862298
1.136749 0.152246 -0.841124
0.096657 0.219327 -0.804421
0.167013 0.216475 -0.806125
0.235723 0.213680 -0.807849
0.303422 0.211191 -0.810928
0.371083 0.209735 -0.821998
0.438467 0.208502 -0.834696
0.505583 0.207226 -0.847435
0.572486 0.205972 -0.860159
0.639200 0.204691 -0.872918
0.705769 0.203424 -0.885676
0.772216 0.202160 -0.898396
0.841035 0.202561 -0.902912
0.916950 0.207907 -0.883620
0.993235 0.213492 -0.862299
1.069321 0.219224 -0.841020
1.145097 0.225051 -0.819853
0.093760 0.284083 -0.806126
0.163827 0.281150 -0.807848
0.232990 0.278424 -0.810928
0.301304 0.276871 -0.821998
0.369110 0.275565 -0.834695
0.436543 0.274255 -0.847434
0.503684 0.272947 -0.860159
0.570601 0.271640 -0.872917
0.637337 0.270352 -0.885678
0.703947 0.269086 -0.898367
0.773015 0.269581 -0.902595
0.848999 0.274976 -0.883620
0.925447 0.280921 -0.862299
1.001675 0.286911 -0.841019
1.077702 0.292956 -0.819750
1.153401 0.298997 -0.798605
0.090889 0.349150 -0.807843
0.160390 0.346372 -0.810906
0.230758 0.344789 -0.821998
0.299269 0.343444 -0.834695
0.367133 0.342102 -0.847433
0.434611 0.340768 -0.860160
0.501777 0.339436 -0.872918
0.568717 0.338102 -0.885662
0.635516 0.336787 -0.898346
0.704821 0.337352 -0.902357
0.780930 0.342834 -0.883621
0.857560 0.348909 -0.862300
0.933931 0.355000 -0.841018
1.010093 0.361124 -0.819749
1.086051 0.367267 -0.798500
1.161712 0.373405 -0.777391
0.088143 0.414564 -0.810864
0.157804 0.412979 -0.821998
0.228623 0.411631 -0.834696
0.297248 0.410273 -0.847434
0.365163 0.408916 -0.860160
0.432662 0.407563 -0.872918
0.499856 0.406200 -0.885662
0.566877 0.404880 -0.898313
0.636429 0.405478 -0.902199
0.712726 0.410999 -0.883621
0.789555 0.417140 -0.862300
0.866087 0.423311 -0.841017
0.942395 0.429484 -0.819749
1.018479 0.435686 -0.798498
1.094390 0.441899 -0.777287
1.169823 0.447923 -0.756687
0.085952 0.481360 -0.821998
0.155458 0.479994 -0.834698
0.226467 0.478631 -0.847435
0.295209 0.477252 -0.860159
0.363184 0.475894 -0.872918
0.430722 0.474531 -0.885662
0.497998 0.473190 -0.898309
0.567813 0.473817 -0.902131
0.644366 0.479365 -0.883621
0.721422 0.485563 -0.862301
0.798150 0.491773 -0.841016
0.874613 0.497997 -0.819749
0.950837 0.504235 -0.798497
1.026862 0.510473 -0.777285
1.102514 0.516570 -0.756649
1.170572 0.516459 -0.755600
0.083863 0.548512 -0.834700
0.153180 0.547130 -0.847437
0.224299 0.545759 -0.860159
0.293151 0.544375 -0.872917
0.361193 0.542997 -0.885662
0.428822 0.541657 -0.898313
0.498963 0.542277 -0.902131
0.575808 0.547866 -0.883638
0.653129 0.554106 -0.862301
0.730078 0.560356 -0.841016
0.806714 0.566619 -0.819749
0.883090 0.572885 -0.798496
0.959260 0.579165 -0.777284
1.034994 0.585254 -0.756694
1.103154 0.585088 -0.755852
1.164932 0.579683 -0.771527
0.081790 0.615751 -0.847460
0.150909 0.614377 -0.860157
0.222100 0.612983 -0.872918
0.291095 0.611608 -0.885678
0.359241 0.610247 -0.898346
0.429765 0.610860 -0.902199
0.507054 0.616501 -0.883621
0.584671 0.622774 -0.862301
0.661866 0.629054 -0.841000
0.738700 0.635338 -0.819741
0.815261 0.641644 -0.798470
0.891556 0.647939 -0.777283
0.967422 0.654047 -0.756706
1.035603 0.653839 -0.756009
1.097553 0.648433 -0.771605
1.159263 0.642926 -0.787506
0.079728 0.683080 -0.860156
0.148681 0.681683 -0.872915
0.219868 0.680296 -0.885676
0.289054 0.678927 -0.898367
0.360162 0.679506 -0.902357
0.438037 0.685215 -0.883621
0.516026 0.691510 -0.862301
0.593482 0.697811 -0.841016
0.670555 0.704125 -0.819741
0.747307 0.710453 -0.798471
0.823766 0.716774 -0.777282
0.899758 0.722908 -0.756727
0.968003 0.722672 -0.756113
1.030039 0.717276 -0.771605
1.091849 0.711727 -0.787584
1.153588 0.706218 -0.803484
0.077668 0.750464 -0.872910
0.146492 0.749080 -0.885674
0.217622 0.747687 -0.898396
0.289933 0.748226 -0.902595
0.368658 0.754018 -0.883621
0.447130 0.760332 -0.862300
0.524937 0.766656 -0.841016
0.602260 0.772988 -0.819749
0.679223 0.779342 -0.798470
0.755867 0.785689 -0.777282
0.832015 0.791822 -0.756733
0.900329 0.791573 -0.756166
0.962441 0.786180 -0.771605
1.024319 0.780626 -0.787584
1.086156 0.775063 -0.803561
1.147904 0.769538 -0.819543
0.075631 0.817922 -0.885671
0.144334 0.816527 -0.898433
0.218450 0.817000 -0.902912
0.298800 0.822867 -0.883620
0.377944 0.829213 -0.862300
0.456152 0.835557 -0.841017
0.533797 0.841923 -0.819749
0.610992 0.848279 -0.798496
0.687853 0.854658 -0.777283
0.764155 0.860813 -0.756727
0.832586 0.860557 -0.756166
0.894773 0.855141 -0.771605
0.956693 0.849576 -0.787584
1.018586 0.844006 -0.803561
1.080460 0.838427 -0.819620
1.142213 0.832892 -0.835575
0.073595 0.885420 -0.898478
0.145093 0.885822 -0.903309
0.228119 0.891800 -0.883620
0.308340 0.898165 -0.862299
0.387114 0.904526 -0.841018
0.465133 0.910903 -0.819749
0.542605 0.917272 -0.798497
0.619687 0.923665 -0.777284
0.696209 0.929848 -0.756706
0.764753 0.929613 -0.756113
0.826991 0.924169 -0.771605
0.888997 0.918576 -0.787584
0.950947 0.912990 -0.803561
1.012862 0.907405 -0.819620
1.074742 0.901821 -0.835653
1.136500 0.896270 -0.851650
0.074112 0.954675 -0.903784
0.155000 0.960777 -0.883619
0.238127 0.967153 -0.862299
0.317721 0.973547 -0.841019
0.396220 0.979934 -0.819749
0.474042 0.986330 -0.798498
0.551384 0.992727 -0.777285
0.628112 0.998940 -0.756694
0.696836 0.998725 -0.756009
0.759111 0.993237 -0.771605
0.821184 0.987621 -0.787584
0.883209 0.982031 -0.803561
0.945180 0.976422 -0.819620
1.007115 0.970833 -0.835653
1.069005 0.965246 -0.851727
1.130976 0.959847 -0.867211
0.083403 1.029812 -0.883618
0.166531 1.036211 -0.862298
0.247841 1.042608 -0.841020
0.327009 1.049007 -0.819750
0.405260 1.055428 -0.798500
0.482916 1.061836 -0.777287
0.559907 1.068083 -0.756649
0.628800 1.067901 -0.755852
0.691117 1.062333 -0.771605
0.753254 1.056718 -0.787584
0.815364 1.051104 -0.803561
0.877406 1.045491 -0.819620
0.939406 1.039896 -0.835653
1.001370 1.034287 -0.851727
1.063458 1.028858 -0.867282
1.130987 1.028562 -0.867337
0.093340 1.105176 -0.862400
0.177060 1.111599 -0.841124
0.257343 1.118022 -0.819853
0.336159 1.124445 -0.798605
0.414195 1.130868 -0.777391
0.491501 1.137142 -0.756687
0.560687 1.137060 -0.755600
0.623008 1.131432 -0.771527
0.685259 1.125807 -0.787506
0.747432 1.120177 -0.803484
0.809560 1.114540 -0.819543
0.871638 1.108943 -0.835575
0.933658 1.103312 -0.851650
0.995802 1.097856 -0.867211
1.063490 1.097556 -0.867337
1.133864 1.099893 -0.859524
0.099595 0.087674 -0.679734
0.170087 0.084718 -0.681439
0.238513 0.081766 -0.683134
0.306024 0.078790 -0.684828
0.373124 0.076022 -0.687873
0.440392 0.074442 -0.698884
0.507486 0.073084 -0.711546
0.574366 0.071741 -0.724215
0.641057 0.070394 -0.736895
0.707612 0.069039 -0.749598
0.774021 0.067704 -0.762300
0.840315 0.066346 -0.775011
0.908911 0.066717 -0.779847
0.984772 0.072465 -0.760275
1.060919 0.078544 -0.738991
1.136749 0.084567 -0.717950
0.096657 0.152421 -0.681439
0.167013 0.149549 -0.683135
0.235723 0.146654 -0.684833
0.303422 0.143942 -0.687902
0.371083 0.142389 -0.698885
0.438467 0.141082 -0.711547
0.505583 0.139752 -0.724215
0.572486 0.138423 -0.736895
0.639200 0.137095 -0.749598
0.705769 0.135773 -0.762301
0.772210 0.134467 -0.774956
0.841031 0.134904 -0.779451
0.916950 0.140461 -0.760272
0.993235 0.146403 -0.738995
1.069321 0.152272 -0.717845
1.145097 0.158023 -0.696738
0.093760 0.216474 -0.683134
0.163827 0.213680 -0.684833
0.232990 0.211191 -0.687911
0.301304 0.209735 -0.698885
0.369110 0.208502 -0.711547
0.436543 0.207226 -0.724215
0.503684 0.205971 -0.736894
0.570601 0.204693 -0.749593
0.637337 0.203424 -0.762301
0.703947 0.202165 -0.774913
0.773015 0.202627 -0.779127
0.848999 0.207905 -0.760270
0.925447 0.213497 -0.738999
1.001675 0.219225 -0.717842
1.077702 0.225081 -0.696638
1.153401 0.231012 -0.675649
0.090889 0.281150 -0.684828
0.160391 0.278423 -0.687902
0.230758 0.276871 -0.698885
0.299269 0.275565 -0.711547
0.367133 0.274255 -0.724215
0.434611 0.272946 -0.736894
0.501777 0.271641 -0.749593
0.568716 0.270353 -0.762300
0.635521 0.269094 -0.774880
0.704827 0.269635 -0.778875
0.780930 0.274976 -0.760268
0.857560 0.280921 -0.739002
0.933931 0.286911 -0.717840
1.010093 0.292955 -0.696641
1.086051 0.299026 -0.675544
1.161712 0.305095 -0.654500
0.088145 0.346369 -0.687873
0.157804 0.344789 -0.698885
0.228623 0.343444 -0.711547
0.297248 0.342102 -0.724215
0.365163 0.340768 -0.736894
0.432662 0.339436 -0.749593
0.499857 0.338101 -0.762299
0.566884 0.336795 -0.774854
0.636443 0.337395 -0.778695
0.712726 0.342834 -0.760267
0.789554 0.348909 -0.739004
0.866087 0.355000 -0.717838
0.942394 0.361125 -0.696643
1.018479 0.367268 -0.675542
1.094390 0.373435 -0.654400
1.169786 0.379401 -0.634038
0.085952 0.412979 -0.698884
0.155458 0.411631 -0.711547
0.226467 0.410273 -0.724215
0.295209 0.408916 -0.736894
0.363184 0.407563 -0.749593
0.430722 0.406200 -0.762299
0.498009 0.404888 -0.774843
0.567836 0.405511 -0.778612
