example_ofxGpuLutCube/bin/data/ofxGpuLutCube/LUT/S17 (deep yellow tone).cube
LUT_3D_SIZE 6
0.108878 0.096447 -1.044515
0.314053 0.087674 -1.049690
0.513846 0.078790 -1.054864
0.713133 0.073084 -1.081977
0.911926 0.069036 -1.120515
1.111662 0.066346 -1.152813
0.099595 0.289988 -1.049690
0.306024 0.281150 -1.054864
0.507486 0.275566 -1.081977
0.707612 0.271639 -1.120518
0.908911 0.269428 -1.151163
1.136749 0.286882 -1.088413
0.090888 0.485809 -1.054864
0.299270 0.479994 -1.081977
0.501777 0.475894 -1.120519
0.704775 0.473731 -1.150338
0.933931 0.491772 -1.088321
1.161714 0.510440 -1.024146
0.083863 0.685849 -1.081977
0.293150 0.681683 -1.120518
0.498841 0.679474 -1.150338
0.730079 0.697817 -1.088325
0.959262 0.716772 -1.024049
1.164930 0.717304 -1.018249
0.077668 0.888220 -1.120515
0.289678 0.885818 -1.151163
0.524938 0.904524 -1.088321
0.755869 0.923665 -1.024049
0.962441 0.924170 -1.018330
1.147904 0.907435 -1.066662
0.073694 1.092379 -1.152813
0.317677 1.111599 -1.088413
0.551341 1.130868 -1.024146
0.759139 1.131432 -1.018249
0.945206 1.114538 -1.066662
1.130830 1.097722 -1.115158
0.099595 0.087674 -0.679734
0.306024 0.078790 -0.684828
0.507486 0.073084 -0.711546
0.707612 0.069039 -0.749598
0.908911 0.066717 -0.779847
1.136749 0.084567 -0.717950
0.090889 0.281150 -0.684828
0.299269 0.275565 -0.711547
0.501777 0.271641 -0.749593
0.704827 0.269635 -0.778875
0.933931 0.286911 -0.717840
1.161712 0.305095 -0.654500
0.083863 0.479994 -0.711546
0.293151 0.475894 -0.749593
0.498998 0.473841 -0.778576
0.730078 0.491773 -0.717836
0.959260 0.510474 -0.654405
1.164932 0.511002 -0.648687
0.077668 0.681683 -0.749598
0.290022 0.679510 -0.778875
0.524937 0.697811 -0.717836
0.755866 0.716775 -0.654407
0.962441 0.717275 -0.648766
1.147904 0.700683 -0.696451
0.074268 0.885818 -0.779847
0.317721 0.904526 -0.717840
0.551384 0.923665 -0.654404
0.759111 0.924168 -0.648766
0.945180 0.907405 -0.696525
1.131043 0.890908 -0.743752
0.103753 1.111599 -0.717950
0.345268 1.130868 -0.654500
0.554733 1.131432 -0.648687
0.741573 1.114541 -0.696451
0.928101 1.097919 -0.743752
1.136731 1.102243 -0.728480
0.090888 0.078790 -0.318062
0.299270 0.073084 -0.344339
0.501777 0.069052 -0.381799
0.704775 0.066899 -0.410791
0.933931 0.084593 -0.350532
1.161714 0.102402 -0.288295
0.083863 0.275566 -0.344339
0.293151 0.271641 -0.381800
0.498998 0.269703 -0.410319
0.730078 0.286912 -0.350531
0.959260 0.305125 -0.288185
1.164932 0.305625 -0.282532
0.077677 0.475894 -0.381799
0.290135 0.473841 -0.410319
0.524922 0.491767 -0.350549
0.755865 0.510476 -0.288179
0.962441 0.510974 -0.282609
1.147904 0.494609 -0.329498
0.074549 0.679474 -0.410791
0.317721 0.697811 -0.350531
0.551384 0.716776 -0.288179
0.759111 0.717274 -0.282610
0.945182 0.700656 -0.329573
1.131163 0.684462 -0.375679
0.103835 0.904524 -0.350532
0.345312 0.923665 -0.288185
0.554706 0.924167 -0.282609
0.741546 0.907403 -0.329573
0.928224 0.891019 -0.375682
1.136742 0.895217 -0.360952
0.136094 1.130868 -0.288295
0.348791 1.131432 -0.282532
0.536732 1.114542 -0.329499
0.724249 1.098031 -0.375679
0.933878 1.102255 -0.360952
1.145327 1.109268 -0.338011
0.083863 0.073084 0.018844
0.293150 0.069039 -0.017808
0.498841 0.066899 -0.046236
0.730079 0.084592 0.012812
0.959262 0.102428 0.073787
1.164930 0.102894 0.079277
0.077668 0.271639 -0.017808
0.290022 0.269635 -0.046080
0.524937 0.286912 0.012784
0.755866 0.305125 0.073783
0.962441 0.305598 0.079208
1.147904 0.289647 0.033368
0.074549 0.473731 -0.046236
0.317721 0.491773 0.012784
0.551384 0.510476 0.073775
0.759111 0.510973 0.079210
0.945182 0.494582 0.033299
1.131163 0.478621 -0.011833
0.103849 0.697817 0.012812
0.345320 0.716775 0.073783
0.554706 0.717274 0.079210
0.741535 0.700656 0.033290
0.928273 0.684502 -0.011705
1.136741 0.688599 0.002587
0.136138 0.923665 0.073787
0.348761 0.924168 0.079208
0.536704 0.907403 0.033299
0.724298 0.891065 -0.011705
0.933905 0.895229 0.002620
1.145341 0.902214 0.025067
0.139894 1.131432 0.079277
0.330096 1.114541 0.033368
0.518945 1.098031 -0.011833
0.730038 1.102255 0.002587
0.942617 1.109279 0.025067
1.151082 1.115749 0.043931
0.077668 0.069036 0.340977
0.289678 0.066717 0.312603
0.524938 0.084593 0.370693
0.755869 0.102428 0.429646
0.962441 0.102869 0.434904
1.147904 0.087330 0.390630
0.074268 0.269428 0.312603
0.317721 0.286911 0.370694
0.551384 0.305125 0.429646
0.759111 0.305598 0.434904
0.945180 0.289622 0.390559
1.131043 0.274147 0.346491
0.103835 0.491772 0.370693
0.345312 0.510474 0.429646
0.554706 0.510974 0.434904
0.741546 0.494582 0.390559
0.928224 0.478620 0.346801
1.136742 0.482688 0.360802
0.136138 0.716772 0.429646
0.348761 0.717275 0.434904
0.536704 0.700656 0.390559
0.724298 0.684502 0.346921
0.933905 0.688610 0.360832
1.145341 0.695514 0.382602
0.139861 0.924170 0.434904
0.330066 0.907405 0.390559
0.518946 0.891019 0.346801
0.730053 0.895229 0.360832
0.942631 0.902225 0.382637
1.151049 0.908616 0.400821
0.119116 1.114538 0.390630
0.311288 1.097919 0.346491
0.524880 1.102255 0.360802
0.738930 1.109279 0.382602
0.948399 1.115750 0.400821
1.145923 1.119980 0.405814
0.073694 0.066346 0.663138
0.317677 0.084567 0.719654
0.551341 0.102402 0.774714
0.759139 0.102894 0.779682
0.945206 0.087330 0.738459
1.130830 0.071433 0.696306
0.103753 0.286882 0.719654
0.345268 0.305095 0.774713
0.554733 0.305625 0.779682
0.741573 0.289647 0.738450
0.928101 0.274147 0.696830
1.136731 0.278142 0.710343
0.136094 0.510440 0.774714
0.348791 0.511002 0.779682
0.536732 0.494609 0.738465
0.724249 0.478621 0.697126
0.933878 0.482688 0.710380
1.145327 0.489496 0.730914
0.139894 0.717304 0.779682
0.330096 0.700683 0.738450
0.518945 0.684462 0.697126
0.730038 0.688599 0.710381
0.942617 0.695514 0.730946
1.151082 0.701865 0.748043
0.119116 0.907435 0.738459
0.311288 0.890908 0.696830
0.524880 0.895217 0.710380
0.738930 0.902214 0.730946
0.948399 0.908616 0.748025
1.145923 0.912812 0.752679
0.096288 1.097722 0.696306
0.317656 1.102243 0.710343
0.534011 1.109268 0.730914
0.744846 1.115749 0.748043
0.943214 1.119980 0.752679
1.140781 1.124203 0.757277
