example_ofxGpuLutCube/bin/data/ofxGpuLutCube/LUT/S18 (red tone).cube
LUT_3D_SIZE 16
0.000000 0.000000 0.000000
0.032021 0.000840 0.000840
0.064042 0.001743 0.001743
0.096137 0.002593 0.002593
0.128158 0.003433 0.003433
0.160179 0.004346 0.004346
0.192200 0.005186 0.005186
0.224295 0.006099 0.006099
0.256316 0.006939 0.006939
0.288337 0.007852 0.007852
0.320359 0.008692 0.008692
0.352453 0.009605 0.009605
0.384474 0.010445 0.010445
0.416559 0.011295 0.011295
0.448590 0.012198 0.012198
0.480542 0.013034 0.013034
0.028394 0.019238 0.001679
0.060484 0.020142 0.002583
0.092510 0.020987 0.003428
0.124531 0.021831 0.004272
0.156552 0.022740 0.005181
0.188645 0.023583 0.006024
0.220668 0.024493 0.006934
0.252689 0.025335 0.007776
0.284747 0.026246 0.008687
0.316805 0.027086 0.009527
0.348826 0.027999 0.010440
0.380898 0.028839 0.011280
0.412942 0.029693 0.012135
0.444963 0.030592 0.013033
0.476985 0.031432 0.013873
0.509009 0.032341 0.014782
0.056862 0.038541 0.003423
0.088883 0.039380 0.004263
0.120913 0.040285 0.005167
0.152997 0.041133 0.006016
0.185020 0.042027 0.006909
0.217041 0.042887 0.007769
0.249088 0.043771 0.008653
0.281157 0.044640 0.009522
0.313178 0.045480 0.010362
0.345238 0.046387 0.011269
0.377294 0.047233 0.012115
0.409315 0.048092 0.012974
0.441336 0.048986 0.013868
0.473430 0.049827 0.014709
0.505452 0.050739 0.015621
0.537403 0.051574 0.016457
0.085256 0.057774 0.005097
0.117336 0.058684 0.006007
0.149372 0.059527 0.006851
0.181393 0.060426 0.007749
0.213430 0.061280 0.008604
0.245509 0.062159 0.009483
0.277530 0.063033 0.010357
0.309579 0.063873 0.011197
0.341638 0.064755 0.012079
0.373667 0.065626 0.012950
0.405688 0.066500 0.013824
0.437768 0.067380 0.014703
0.469801 0.068234 0.015557
0.501825 0.069133 0.016456
0.533846 0.069973 0.017297
0.565871 0.070823 0.018146
0.113724 0.077081 0.006846
0.145745 0.077921 0.007685
0.177773 0.078825 0.008589
0.209857 0.079674 0.009439
0.241882 0.080528 0.010293
0.273921 0.081427 0.011192
0.305958 0.082267 0.012031
0.338019 0.083155 0.012920
0.370040 0.084020 0.013785
0.402094 0.084901 0.014666
0.434150 0.085773 0.015538
0.466177 0.086633 0.016397
0.498198 0.087526 0.017291
0.530244 0.088369 0.018133
0.562313 0.089229 0.018994
0.594265 0.090115 0.019880
0.142118 0.096315 0.008520
0.174165 0.097223 0.009429
0.206234 0.098068 0.010273
0.238265 0.098927 0.011133
0.270314 0.099821 0.012026
0.302371 0.100677 0.012883
0.334392 0.101554 0.013760
0.366436 0.102427 0.014632
0.398496 0.103301 0.015507
0.430529 0.104167 0.016373
0.462550 0.105031 0.017237
0.494602 0.105920 0.018126
0.526661 0.106765 0.018970
0.558687 0.107631 0.019836
0.590708 0.108515 0.020720
0.622709 0.109373 0.021579
0.170586 0.115622 0.010268
0.202610 0.116461 0.011108
0.234663 0.117327 0.011973
0.266723 0.118215 0.012861
0.298744 0.119076 0.013723
0.330780 0.119953 0.014600
0.362842 0.120825 0.015472
0.394881 0.121700 0.016347
0.426902 0.122561 0.017207
0.458959 0.123430 0.018077
0.491008 0.124314 0.018961
0.523039 0.125161 0.019808
0.555060 0.126032 0.020678
0.587126 0.126907 0.021553
0.619176 0.127779 0.022426
0.651171 0.128655 0.023302
0.199014 0.134855 0.011943
0.231075 0.135729 0.012817
0.263096 0.136608 0.013696
0.295156 0.137476 0.014563
0.327186 0.138351 0.015439
0.359233 0.139224 0.016312
0.391254 0.140099 0.017187
0.423330 0.140954 0.018042
0.455354 0.141829 0.018916
0.487391 0.142708 0.019795
0.519412 0.143559 0.020647
0.551473 0.144461 0.021548
0.583528 0.145300 0.022388
0.615583 0.146214 0.023302
0.647610 0.147054 0.024141
0.679595 0.147890 0.024977
0.227448 0.154128 0.013657
0.259503 0.155002 0.014531
0.291529 0.155876 0.015405
0.323585 0.156748 0.016277
0.355606 0.157624 0.017153
0.387661 0.158497 0.018026
0.419698 0.159348 0.018877
0.451743 0.160227 0.019756
0.483782 0.161101 0.020630
0.515819 0.161957 0.021486
0.547880 0.162854 0.022383
0.579926 0.163694 0.023223
0.611956 0.164608 0.024136
0.644017 0.165447 0.024976
0.676038 0.166292 0.025821
0.708023 0.167196 0.026725
0.255871 0.173396 0.015366
0.287937 0.174277 0.016247
0.319962 0.175145 0.017115
0.351985 0.175989 0.017959
0.384041 0.176894 0.018864
0.416095 0.177742 0.019712
0.448128 0.178626 0.020596
0.480166 0.179495 0.021465
0.512232 0.180369 0.022339
0.544271 0.181248 0.023218
0.576303 0.182088 0.024058
0.608369 0.183001 0.024971
0.640390 0.183841 0.025811
0.672411 0.184691 0.026661
0.704462 0.185594 0.027564
0.736457 0.186430 0.028400
0.284310 0.192678 0.017090
0.316332 0.193543 0.017954
0.348383 0.194382 0.018794
0.380447 0.195291 0.019702
0.412474 0.196136 0.020547
0.444505 0.197024 0.021436
0.476584 0.197889 0.022300
0.508616 0.198768 0.023179
0.540650 0.199642 0.024053
0.572721 0.200482 0.024893
0.604742 0.201395 0.025806
0.636769 0.202235 0.026646
0.668809 0.203128 0.027540
0.700879 0.203988 0.028399
0.732900 0.204833 0.029244
0.764876 0.205737 0.030148
0.312777 0.211936 0.018789
0.344798 0.212776 0.019628
0.376822 0.213690 0.020542
0.408856 0.214529 0.021382
0.440935 0.215423 0.022275
0.472963 0.216282 0.023135
0.504997 0.217166 0.024019
0.537072 0.218036 0.024888
0.569094 0.218875 0.025728
0.601123 0.219789 0.026641
0.633192 0.220628 0.027481
0.665231 0.221527 0.028380
0.697252 0.222382 0.029234
0.729293 0.223278 0.030130
0.761363 0.224135 0.030987
0.793319 0.224971 0.031823
0.341171 0.231170 0.020463
0.373206 0.232083 0.021377
0.405287 0.232923 0.022216
0.437311 0.233822 0.023115
0.469360 0.234676 0.023970
0.501424 0.235565 0.024858
0.533446 0.236429 0.025723
0.565475 0.237300 0.026594
0.597534 0.238182 0.027476
0.629583 0.239046 0.028339
0.661604 0.239926 0.029219
0.693640 0.240775 0.030069
0.725705 0.241674 0.030967
0.757741 0.242528 0.031822
0.789762 0.243372 0.032666
0.821728 0.244263 0.033556
0.369639 0.250477 0.022211
0.401661 0.251317 0.023051
0.433691 0.252220 0.023955
0.465776 0.253070 0.024804
0.497797 0.253964 0.025698
0.529818 0.254823 0.026557
0.561875 0.255701 0.027436
0.593934 0.256576 0.028311
0.625956 0.257446 0.029180
0.657986 0.258323 0.030058
0.690047 0.259169 0.030904
0.722093 0.260073 0.031807
0.754114 0.260922 0.032657
0.786143 0.261770 0.033505
0.818230 0.262666 0.034401
0.850181 0.263511 0.035246
0.398033 0.269710 0.023886
0.430128 0.270623 0.024799
0.462149 0.271464 0.025639
0.494170 0.272376 0.026552
0.526215 0.273217 0.027392
0.558286 0.274102 0.028278
0.590307 0.274968 0.029144
0.622331 0.275846 0.030022
0.654391 0.276720 0.030896
0.686444 0.277563 0.031738
0.718466 0.278471 0.032647
0.750490 0.279316 0.033492
0.782582 0.280169 0.034345
0.814603 0.281069 0.035245
0.846628 0.281913 0.036089
0.878649 0.282813 0.036989
0.426363 0.289009 0.025626
0.458384 0.289849 0.026466
0.490416 0.290762 0.027379
0.522500 0.291602 0.028219
0.554522 0.292496 0.029112
0.586543 0.293355 0.029972
0.618594 0.294239 0.030856
0.650659 0.295108 0.031725
0.682680 0.295948 0.032565
0.714701 0.296861 0.033478
0.746796 0.297702 0.034318
0.778817 0.298561 0.035177
0.810838 0.299455 0.036071
0.842933 0.300304 0.036921
0.874954 0.301208 0.037825
0.906906 0.302043 0.038660
0.005485 0.000304 0.017863
0.037575 0.001213 0.018772
0.069596 0.002058 0.019617
0.101632 0.002901 0.020460
0.133644 0.003811 0.021370
0.165733 0.004651 0.022209
0.197756 0.005536 0.023095
0.229776 0.006404 0.023963
0.261834 0.007280 0.024839
0.293892 0.008157 0.025716
0.325913 0.009021 0.026580
0.357939 0.009910 0.027469
0.390015 0.010764 0.028323
0.422050 0.011663 0.029222
0.454080 0.012503 0.030062
0.486095 0.013412 0.030971
0.033948 0.019612 0.019612
0.065974 0.020452 0.020452
0.097995 0.021300 0.021300
0.130085 0.022204 0.022204
0.162104 0.023048 0.023048
0.194129 0.023936 0.023936
0.226218 0.024800 0.024800
0.258241 0.025681 0.025681
0.290265 0.026551 0.026551
0.322290 0.027423 0.027423
0.354358 0.028304 0.028304
0.386402 0.029163 0.029163
0.418427 0.030057 0.030057
0.450508 0.030897 0.030897
0.482534 0.031810 0.031810
0.514490 0.032645 0.032645
0.062347 0.038846 0.021287
0.094437 0.039699 0.022140
0.126450 0.040598 0.023039
0.158480 0.041449 0.023890
0.190565 0.042351 0.024792
0.222589 0.043192 0.025633
0.254616 0.044104 0.026546
0.286642 0.044945 0.027386
0.318700 0.045821 0.028262
0.350753 0.046697 0.029139
0.382779 0.047565 0.030006
0.414867 0.048451 0.030892
0.446881 0.049291 0.031732
0.478912 0.050204 0.032645
0.510938 0.051043 0.033485
0.542948 0.051893 0.034335
0.090810 0.058152 0.023034
0.122832 0.058992 0.023874
0.154864 0.059896 0.024778
0.186936 0.060745 0.025627
0.218968 0.061588 0.026471
0.250991 0.062498 0.027380
0.283043 0.063341 0.028223
0.315105 0.064219 0.029102
0.347130 0.065091 0.029973
0.379216 0.065961 0.030843
0.411238 0.066844 0.031726
0.443264 0.067689 0.032571
0.475289 0.068597 0.033480
0.507366 0.069439 0.034321
0.539401 0.070299 0.035181
0.571352 0.071186 0.036068
0.119209 0.077386 0.024709
0.151282 0.078294 0.025618
0.183320 0.079139 0.026462
0.215342 0.079982 0.027306
0.247386 0.080892 0.028215
0.279457 0.081734 0.029057
0.311482 0.082618 0.029941
0.343563 0.083485 0.030808
0.375586 0.084360 0.031683
0.407615 0.085238 0.032561
0.439641 0.086086 0.033410
0.471713 0.086991 0.034314
0.503752 0.087836 0.035159
0.535774 0.088701 0.036024
0.567799 0.089585 0.036909
0.599801 0.090440 0.037763
0.147672 0.096693 0.026457
0.179693 0.097533 0.027297
0.211728 0.098377 0.028141
0.243809 0.099286 0.029050
0.275833 0.100127 0.029891
0.307910 0.101024 0.030788
0.339932 0.101879 0.031643
0.371967 0.102769 0.032533
0.403993 0.103632 0.033396
0.436060 0.104484 0.034248
0.468104 0.105385 0.035149
0.500125 0.106232 0.035997
0.532151 0.107101 0.036866
0.564221 0.107978 0.037742
0.596261 0.108842 0.038607
0.628215 0.109726 0.039491
0.176071 0.115926 0.028132
0.208161 0.116796 0.029002
0.240185 0.117679 0.029885
0.272255 0.118521 0.030726
0.304278 0.119422 0.031627
0.336319 0.120274 0.032479
0.368344 0.121168 0.033374
0.400419 0.122026 0.034232
0.432456 0.122881 0.035087
0.464477 0.123754 0.035959
0.496503 0.124629 0.036835
0.528573 0.125501 0.037707
0.560614 0.126372 0.038577
0.592637 0.127241 0.039447
0.624700 0.128125 0.040330
0.656681 0.128962 0.041168
0.204537 0.135197 0.029843
0.236627 0.136073 0.030720
0.268622 0.136943 0.031589
0.300671 0.137819 0.032466
0.332694 0.138691 0.033338
0.364764 0.139566 0.034213
0.396808 0.140420 0.035067
0.428829 0.141280 0.035926
0.460854 0.142153 0.036799
0.492912 0.143027 0.037674
0.524966 0.143901 0.038548
0.556989 0.144766 0.039412
0.589043 0.145647 0.040294
0.621103 0.146518 0.041165
0.653126 0.147365 0.042012
0.685114 0.148267 0.042914
0.232965 0.154467 0.031555
0.265023 0.155343 0.032431
0.297047 0.156216 0.033303
0.329107 0.157062 0.034150
0.361133 0.157940 0.035028
0.393182 0.158815 0.035902
0.425205 0.159679 0.036766
0.457259 0.160566 0.037654
0.489318 0.161424 0.038512
0.521341 0.162300 0.039388
0.553387 0.163160 0.040248
0.585455 0.164049 0.041137
0.617478 0.164912 0.042000
0.649527 0.165766 0.042854
0.681556 0.166665 0.043753
0.713543 0.167501 0.044589
0.261399 0.173744 0.033273
0.293448 0.174612 0.034141
0.325476 0.175456 0.034985
0.357533 0.176339 0.035868
0.389556 0.177209 0.036738
0.421606 0.178078 0.037607
0.453670 0.178960 0.038489
0.485692 0.179823 0.039352
0.517732 0.180713 0.040242
0.549807 0.181554 0.041083
0.581831 0.182448 0.041977
0.613879 0.183306 0.042835
0.645905 0.184164 0.043693
0.677965 0.185059 0.044588
0.709988 0.185904 0.045432
0.741967 0.186808 0.046337
0.289818 0.193007 0.034977
0.321885 0.193850 0.035820
0.353908 0.194757 0.036727
0.385955 0.195600 0.037570
0.418022 0.196478 0.038448
0.450044 0.197353 0.039323
0.482078 0.198224 0.040194
0.514159 0.199107 0.041077
0.546182 0.199949 0.041919
0.578226 0.200860 0.042830
0.610258 0.201699 0.043669
0.642317 0.202562 0.044532
0.674340 0.203453 0.045423
0.706384 0.204302 0.046272
0.738451 0.205206 0.047176
0.770405 0.206042 0.048012
0.318259 0.212244 0.036656
0.350302 0.213153 0.037564
0.382374 0.213994 0.038405
0.414395 0.214894 0.039305
0.446426 0.215747 0.040158
0.478511 0.216636 0.041047
0.510532 0.217500 0.041911
0.542574 0.218343 0.042754
0.574639 0.219253 0.043665
0.606669 0.220093 0.044504
0.638691 0.220961 0.045372
0.670729 0.221846 0.046257
0.702796 0.222700 0.047111
0.734827 0.223599 0.048011
0.766849 0.224446 0.048857
0.798854 0.225330 0.049741
0.346726 0.231548 0.038400
0.378747 0.232388 0.039240
0.410782 0.233292 0.040144
0.442863 0.234141 0.040993
0.474884 0.235035 0.041887
0.506921 0.235894 0.042746
0.538958 0.236737 0.043589
0.571021 0.237641 0.044493
0.603042 0.238487 0.045339
0.635075 0.239392 0.046244
0.667139 0.240240 0.047092
0.699179 0.241139 0.047991
0.731201 0.241993 0.048845
0.763227 0.242844 0.049696
0.795312 0.243734 0.050586
0.827267 0.244582 0.051435
0.375125 0.250781 0.040075
0.407214 0.251690 0.040984
0.439236 0.252535 0.041828
0.471266 0.253433 0.042727
0.503301 0.254288 0.043581
0.535373 0.255131 0.044424
0.567394 0.256037 0.045331
0.599422 0.256883 0.046176
0.631482 0.257789 0.047083
0.663531 0.258635 0.047929
0.695553 0.259538 0.048831
0.727577 0.260387 0.049680
0.759656 0.261243 0.050536
0.791689 0.262132 0.051425
0.823723 0.262984 0.052277
0.855735 0.263879 0.053172
0.403587 0.270088 0.041823
0.435613 0.270928 0.042663
0.467644 0.271829 0.043563
0.499725 0.272681 0.044416
0.531746 0.273572 0.045306
0.563773 0.274433 0.046168
0.595823 0.275316 0.047050
0.627883 0.276185 0.047920
0.659904 0.277030 0.048764
0.691931 0.277936 0.049671
0.723998 0.278781 0.050515
0.756041 0.279642 0.051377
0.788070 0.280530 0.052265
0.820157 0.281383 0.053117
0.852178 0.282282 0.054017
0.884134 0.283122 0.054857
0.431849 0.289314 0.043490
0.463939 0.290222 0.044398
0.495960 0.291067 0.045243
0.527983 0.291966 0.046142
0.560026 0.292820 0.046996
0.592097 0.293709 0.047884
0.624118 0.294573 0.048749
0.656142 0.295416 0.049591
0.688202 0.296326 0.050501
0.720255 0.297166 0.051342
0.752281 0.298034 0.052209
0.784371 0.298919 0.053094
0.816392 0.299774 0.053949
0.848414 0.300672 0.054848
0.880440 0.301513 0.055688
0.912459 0.302353 0.056529
0.011035 0.000683 0.035800
0.043056 0.001522 0.036640
0.075142 0.002371 0.037488
0.107172 0.003275 0.038393
0.139193 0.004115 0.039233
0.171224 0.005007 0.040125
0.203270 0.005868 0.040986
0.235330 0.006747 0.041865
0.267351 0.007622 0.042739
0.299416 0.008465 0.043583
0.331445 0.009375 0.044492
0.363488 0.010217 0.045335
0.395517 0.011128 0.046246
0.427595 0.011968 0.047085
0.459625 0.012881 0.047999
0.491576 0.013716 0.048834
0.039438 0.019917 0.037476
0.071523 0.020769 0.038328
0.103545 0.021669 0.039228
0.135568 0.022513 0.040072
0.167613 0.023406 0.040965
0.199679 0.024263 0.041821
0.231703 0.025148 0.042707
0.263728 0.026016 0.043574
0.295786 0.026862 0.044421
0.327840 0.027768 0.045327
0.359867 0.028613 0.046172
0.391939 0.029522 0.047080
0.423973 0.030363 0.047922
0.455998 0.031275 0.048834
0.488029 0.032114 0.049673
0.520039 0.032960 0.050519
0.067888 0.039168 0.039168
0.099918 0.040059 0.040059
0.131956 0.040911 0.040911
0.164027 0.041805 0.041805
0.196055 0.042657 0.042657
0.228079 0.043551 0.043551
0.260128 0.044409 0.044409
0.292192 0.045289 0.045289
0.324218 0.046162 0.046162
0.356304 0.047031 0.047031
0.388323 0.047915 0.047915
0.420350 0.048758 0.048758
0.452381 0.049668 0.049668
0.484457 0.050508 0.050508
0.516487 0.051362 0.051362
0.548446 0.052257 0.052257
0.096300 0.058457 0.040898
0.128373 0.059310 0.041751
0.160406 0.060210 0.042651
0.192429 0.061051 0.043492
0.224471 0.061949 0.044390
0.256544 0.062803 0.045244
0.288573 0.063691 0.046132
0.320652 0.064556 0.046997
0.352681 0.065430 0.047871
0.384705 0.066309 0.048750
0.416732 0.067152 0.049593
0.448805 0.068062 0.050503
0.480839 0.068902 0.051343
0.512867 0.069771 0.052212
0.544889 0.070655 0.053096
0.576906 0.071505 0.053946
0.124758 0.077717 0.042599
0.156787 0.078604 0.043486
0.188817 0.079446 0.044328
0.220895 0.080357 0.045239
0.252924 0.081196 0.046079
0.284998 0.082089 0.046971
0.317032 0.082950 0.047832
0.349057 0.083829 0.048711
0.381083 0.084703 0.049585
0.413152 0.085546 0.050429
0.445191 0.086456 0.051338
0.477217 0.087296 0.052179
0.509241 0.088172 0.053054
0.541325 0.089049 0.053931
0.573354 0.089909 0.054791
0.605300 0.090797 0.055680
0.153159 0.096997 0.044321
0.185247 0.097846 0.045169
0.217275 0.098750 0.046074
0.249344 0.099590 0.046913
0.281384 0.100486 0.047810
0.313405 0.101343 0.048667
0.345434 0.102229 0.049552
0.377500 0.103096 0.050420
0.409542 0.103951 0.051274
0.441567 0.104824 0.052147
0.473591 0.105697 0.053021
0.505679 0.106571 0.053895
0.537696 0.107443 0.054766
0.569722 0.108308 0.055631
0.601753 0.109196 0.056519
0.633767 0.110034 0.057358
0.181624 0.116241 0.046005
0.213688 0.117144 0.046909
0.245714 0.117984 0.047748
0.277757 0.118890 0.048654
0.309785 0.119737 0.049501
0.341845 0.120627 0.050392
0.373894 0.121490 0.051255
0.405915 0.122351 0.052115
0.437943 0.123223 0.052987
0.470016 0.124097 0.053862
0.502044 0.124971 0.054735
0.534074 0.125837 0.055602
0.566101 0.126707 0.056471
0.598186 0.127589 0.057354
0.630216 0.128435 0.058199
0.662206 0.129300 0.059065
0.210058 0.135538 0.047743
0.242109 0.136382 0.048587
0.274136 0.137286 0.049492
0.306192 0.138131 0.050336
0.338246 0.139009 0.051214
0.370267 0.139884 0.052089
0.402294 0.140749 0.052955
0.434369 0.141621 0.053827
0.466390 0.142493 0.054698
0.498429 0.143367 0.055572
0.530476 0.144231 0.056437
0.562533 0.145105 0.057311
0.594567 0.145983 0.058189
0.626619 0.146832 0.059038
0.658677 0.147736 0.059942
0.690630 0.148572 0.060777
0.238487 0.154777 0.049423
0.270538 0.155683 0.050329
0.302598 0.156529 0.051176
0.334620 0.157407 0.052054
0.366653 0.158278 0.052924
0.398724 0.159145 0.053792
0.430736 0.160019 0.054665
0.462779 0.160891 0.055538
0.494821 0.161766 0.056412
0.526880 0.162626 0.057272
0.558917 0.163504 0.058151
0.590963 0.164377 0.059023
0.623024 0.165229 0.059876
0.655051 0.166130 0.060777
0.687077 0.166970 0.061617
0.719097 0.167879 0.062525
0.266950 0.174078 0.051166
0.298971 0.174924 0.052011
0.330999 0.175805 0.052893
0.363079 0.176671 0.053759
0.395080 0.177545 0.054633
0.427131 0.178416 0.055504
0.459168 0.179291 0.056378
0.491225 0.180166 0.057253
0.523268 0.181020 0.058108
0.555319 0.181913 0.059001
0.587369 0.182770 0.059858
0.619403 0.183634 0.060722
0.651428 0.184524 0.061611
0.683514 0.185365 0.062452
0.715502 0.186277 0.063365
0.747491 0.187112 0.064200
0.295347 0.193318 0.052847
0.327436 0.194204 0.053733
0.359460 0.195065 0.054594
0.391482 0.195945 0.055474
0.423516 0.196818 0.056347
0.455569 0.197691 0.057220
0.487622 0.198563 0.058092
0.519664 0.199415 0.058943
0.551714 0.200290 0.059819
0.583755 0.201164 0.060693
0.615780 0.202035 0.061564
0.647829 0.202917 0.062446
0.679884 0.203759 0.063288
0.711913 0.204670 0.064199
0.743938 0.205511 0.065040
0.775917 0.206398 0.065927
0.323812 0.212602 0.054572
0.355833 0.213459 0.055429
0.387859 0.214348 0.056319
0.419911 0.215212 0.057182
0.451972 0.216057 0.058027
0.484013 0.216965 0.058935
0.516058 0.217809 0.059779
0.548107 0.218688 0.060658
0.580131 0.219558 0.061528
0.612169 0.220433 0.062403
0.644228 0.221311 0.063281
0.676265 0.222166 0.064136
0.708288 0.223064 0.065034
0.740333 0.223905 0.065875
0.772399 0.224801 0.066771
0.804353 0.225653 0.067623
0.352208 0.231852 0.056264
0.384253 0.232750 0.057161
0.416323 0.233606 0.058017
0.448359 0.234453 0.058864
0.480391 0.235359 0.059770
0.512459 0.236205 0.060616
0.544482 0.237086 0.061497
0.576516 0.237952 0.062363
0.608572 0.238831 0.063242
0.640617 0.239705 0.064116
0.672642 0.240565 0.064976
0.704670 0.241458 0.065869
0.736744 0.242309 0.066721
0.768775 0.243200 0.067611
0.800804 0.244055 0.068466
0.832821 0.244945 0.069356
0.380674 0.251160 0.058012
0.412705 0.251999 0.058852
0.444734 0.252848 0.059700
0.476811 0.253752 0.060605
0.508833 0.254593 0.061445
0.540865 0.255503 0.062355
0.572915 0.256345 0.063198
0.604969 0.257228 0.064081
0.636995 0.258098 0.064951
0.669054 0.258969 0.065822
0.701088 0.259852 0.066704
0.733127 0.260715 0.067567
0.765155 0.261598 0.068450
0.797236 0.262453 0.069305
0.829265 0.263349 0.070201
0.861278 0.264193 0.071046
0.409137 0.270393 0.059686
0.441163 0.271242 0.060535
0.473184 0.272146 0.061440
0.505263 0.272993 0.062287
0.537256 0.273898 0.063192
0.569321 0.274745 0.064039
0.601348 0.275651 0.064944
0.633398 0.276492 0.065786
0.665430 0.277401 0.066694
0.697479 0.278245 0.067539
0.729506 0.279114 0.068408
0.761579 0.279995 0.069289
0.793617 0.280840 0.070133
0.825646 0.281747 0.071040
0.857672 0.282592 0.071885
0.889683 0.283436 0.072730
0.437398 0.289691 0.061426
0.469420 0.290532 0.062266
0.501459 0.291380 0.063114
0.533535 0.292285 0.064019
0.565556 0.293132 0.064866
0.597602 0.294038 0.065772
0.629634 0.294884 0.066618
0.661693 0.295790 0.067525
0.693719 0.296631 0.068365
0.725784 0.297506 0.069240
0.757830 0.298384 0.070118
0.789851 0.299226 0.070961
0.821883 0.300137 0.071871
0.853967 0.300978 0.072713
0.885988 0.301831 0.073565
0.917940 0.302726 0.074460
0.016589 0.000987 0.053664
0.048610 0.001841 0.054517
0.080631 0.002740 0.055417
0.112667 0.003580 0.056257
0.144704 0.004478 0.057154
0.176768 0.005333 0.058010
0.208789 0.006182 0.058858
0.240845 0.007086 0.059763
0.272905 0.007933 0.060610
0.304926 0.008804 0.061481
0.336957 0.009679 0.062356
0.368979 0.010549 0.063226
0.401063 0.011432 0.064109
0.433097 0.012282 0.064959
0.465119 0.013185 0.065862
0.497130 0.014022 0.066698
0.044983 0.020239 0.055357
0.077018 0.021130 0.056248
0.109046 0.021978 0.057096
0.141119 0.022876 0.057994
0.173141 0.023728 0.058845
0.205185 0.024581 0.059698
0.237219 0.025480 0.060598
0.269278 0.026323 0.061441
0.301306 0.027233 0.062351
0.333329 0.028075 0.063193
0.365415 0.028950 0.064067
0.397446 0.029826 0.064944
0.429471 0.030695 0.065813
0.461551 0.031579 0.066697
0.493573 0.032438 0.067555
0.525524 0.033328 0.068446
0.073390 0.039528 0.057087
0.105471 0.040377 0.057936
0.137504 0.041274 0.058833
0.169527 0.042122 0.059681
0.201563 0.042979 0.060538
0.233630 0.043874 0.061433
0.265656 0.044728 0.062287
0.297679 0.045627 0.063186
0.329767 0.046477 0.064036
0.361796 0.047380 0.064939
0.393823 0.048220 0.065779
0.425902 0.049133 0.066692
0.457923 0.049973 0.067532
0.489946 0.050835 0.068394
0.521985 0.051726 0.069285
0.553992 0.052561 0.070120
0.101856 0.058776 0.058776
0.133870 0.059671 0.059671
0.165908 0.060517 0.060517
0.197982 0.061416 0.061416
0.230006 0.062267 0.062267
0.262031 0.063157 0.063157
0.294119 0.064021 0.064021
0.326145 0.064874 0.064874
0.358174 0.065774 0.065774
0.390251 0.066619 0.066619
0.422273 0.067519 0.067519
0.454298 0.068367 0.068367
0.486343 0.069233 0.069233
0.518412 0.070120 0.070120
0.550435 0.070964 0.070964
0.582386 0.071868 0.071868
0.130253 0.078068 0.060509
0.162334 0.078912 0.061353
0.194356 0.079816 0.062257
0.226379 0.080661 0.063102
0.258471 0.081556 0.063997
0.290492 0.082414 0.064855
0.322525 0.083289 0.065730
0.354599 0.084167 0.066609
0.386621 0.085014 0.067455
0.418650 0.085885 0.068326
0.450698 0.086760 0.069201
0.482762 0.087631 0.070072
0.514787 0.088513 0.070955
0.546808 0.089361 0.071802
0.578884 0.090267 0.072708
0.610838 0.091106 0.073547
0.158707 0.097307 0.062189
0.190729 0.098212 0.063095
0.222822 0.099055 0.063937
0.254844 0.099956 0.064839
0.286876 0.100808 0.065690
0.318953 0.101658 0.066540
0.350969 0.102561 0.067443
0.383002 0.103409 0.068291
0.415035 0.104293 0.069176
0.447110 0.105156 0.070038
0.479132 0.106035 0.070917
0.511160 0.106907 0.071789
0.543227 0.107773 0.072656
0.575256 0.108660 0.073543
0.607297 0.109506 0.074389
0.639263 0.110370 0.075252
0.187174 0.116609 0.063932
0.219195 0.117449 0.064772
0.251226 0.118354 0.065677
0.283307 0.119202 0.066525
0.315315 0.120070 0.067393
0.347354 0.120955 0.068278
0.379387 0.121818 0.069141
0.411470 0.122692 0.070015
0.443480 0.123551 0.070874
0.475512 0.124435 0.071758
0.507548 0.125303 0.072626
0.539620 0.126172 0.073496
0.571649 0.127054 0.074377
0.603704 0.127903 0.075226
0.635763 0.128774 0.076098
0.667716 0.129643 0.076966
0.215576 0.135842 0.065607
0.247661 0.136752 0.066516
0.279684 0.137595 0.067360
0.311705 0.138470 0.068235
0.343740 0.139349 0.069113
0.375821 0.140211 0.069976
0.407826 0.141089 0.070854
0.439867 0.141960 0.071724
