example_ofxGpuLutCube/bin/data/ofxGpuLutCube/LUT/S18 (red tone).cube
LUT_3D_SIZE 6
0.000000 0.000000 0.000000
0.096137 0.002593 0.002593
0.192200 0.005186 0.005186
0.288337 0.007852 0.007852
0.384474 0.010445 0.010445
0.480542 0.013034 0.013034
0.085256 0.057774 0.005097
0.181393 0.060426 0.007749
0.277530 0.063033 0.010357
0.373667 0.065626 0.012950
0.469801 0.068234 0.015557
0.565871 0.070823 0.018146
0.170586 0.115622 0.010268
0.266723 0.118215 0.012861
0.362842 0.120825 0.015472
0.458959 0.123430 0.018077
0.555060 0.126032 0.020678
0.651171 0.128655 0.023302
0.255871 0.173396 0.015366
0.351985 0.175989 0.017959
0.448128 0.178626 0.020596
0.544271 0.181248 0.023218
0.640390 0.183841 0.025811
0.736457 0.186430 0.028400
0.341171 0.231170 0.020463
0.437311 0.233822 0.023115
0.533446 0.236429 0.025723
0.629583 0.239046 0.028339
0.725705 0.241674 0.030967
0.821728 0.244263 0.033556
0.426363 0.289009 0.025626
0.522500 0.291602 0.028219
0.618594 0.294239 0.030856
0.714701 0.296861 0.033478
0.810838 0.299455 0.036071
0.906906 0.302043 0.038660
0.016589 0.000987 0.053664
0.112667 0.003580 0.056257
0.208789 0.006182 0.058858
0.304926 0.008804 0.061481
0.401063 0.011432 0.064109
0.497130 0.014022 0.066698
0.101856 0.058776 0.058776
0.197982 0.061416 0.061416
0.294119 0.064021 0.064021
0.390251 0.066619 0.066619
0.486343 0.069233 0.069233
0.582386 0.071868 0.071868
0.187174 0.116609 0.063932
0.283307 0.119202 0.066525
0.379387 0.121818 0.069141
0.475512 0.124435 0.071758
0.571649 0.127054 0.074377
0.667716 0.129643 0.076966
0.272436 0.174392 0.069038
0.368569 0.177013 0.071660
0.464704 0.179631 0.074277
0.560842 0.182235 0.076882
0.656943 0.184830 0.079477
0.753010 0.187432 0.082079
0.357760 0.232216 0.074186
0.453897 0.234821 0.076791
0.550006 0.237416 0.079386
0.646119 0.240015 0.081985
0.742238 0.242666 0.084636
0.838305 0.245264 0.087234
0.442894 0.289997 0.079290
0.539019 0.292589 0.081883
0.635153 0.295232 0.084525
0.731289 0.297848 0.087142
0.827426 0.300442 0.089735
0.923494 0.303031 0.092324
0.033104 0.001974 0.107327
0.129241 0.004591 0.109944
0.225378 0.007216 0.112569
0.321488 0.009826 0.115180
0.417616 0.012419 0.117773
0.513645 0.015008 0.120361
0.118389 0.059786 0.112463
0.214503 0.062403 0.115080
0.310660 0.065008 0.117684
0.406785 0.067606 0.120283
0.502927 0.070232 0.122908
0.598975 0.072856 0.125532
0.203707 0.117596 0.117596
0.299830 0.120189 0.120189
0.395970 0.122799 0.122799
0.492100 0.125432 0.125432
0.588229 0.128041 0.128041
0.684304 0.130642 0.130642
0.289019 0.175370 0.122693
0.385135 0.178011 0.125334
0.481266 0.180622 0.127946
0.577412 0.183229 0.130553
0.673534 0.185838 0.133161
0.769590 0.188460 0.135783
0.374304 0.233209 0.127855
0.470457 0.235809 0.130455
0.566579 0.238418 0.133064
0.662686 0.241022 0.135669
0.758816 0.243663 0.138310
0.854890 0.246251 0.140898
0.459496 0.290984 0.132954
0.555604 0.293576 0.135547
0.651741 0.296214 0.138184
0.747878 0.298836 0.140806
0.844015 0.301435 0.143405
0.940038 0.304047 0.146017
0.049692 0.002961 0.160991
0.145829 0.005613 0.163643
0.241937 0.008221 0.166251
0.338056 0.010814 0.168844
0.434202 0.013415 0.171445
0.530234 0.016039 0.174069
0.134984 0.060809 0.166162
0.231092 0.063397 0.168750
0.327236 0.066000 0.171353
0.423359 0.068599 0.173952
0.519490 0.071207 0.176560
0.615548 0.073843 0.179196
0.220278 0.118583 0.171260
0.316415 0.121190 0.173867
0.412540 0.123809 0.176486
0.508652 0.126435 0.179112
0.604811 0.129028 0.181705
0.700846 0.131617 0.184294
0.305590 0.176383 0.176383
0.401703 0.179012 0.179012
0.497843 0.181616 0.181616
0.593952 0.184220 0.184220
0.690082 0.186850 0.186850
0.786149 0.189453 0.189453
0.390908 0.234205 0.181528
0.487001 0.236798 0.184121
0.583138 0.239412 0.186735
0.679275 0.242032 0.189355
0.775407 0.244650 0.191973
0.871420 0.247238 0.194562
0.476056 0.291971 0.186617
0.572187 0.294599 0.189245
0.668300 0.297218 0.191865
0.764437 0.299823 0.194470
0.860530 0.302416 0.197063
0.956597 0.305048 0.199695
0.066266 0.003948 0.214655
0.162344 0.006588 0.217295
0.258481 0.009208 0.219914
0.354618 0.011801 0.222507
0.450755 0.014408 0.225115
0.546822 0.017041 0.227748
0.151534 0.061796 0.219826
0.247674 0.064389 0.222419
0.343809 0.066982 0.225012
0.439937 0.069608 0.227638
0.536058 0.072232 0.230262
0.632137 0.074830 0.232860
0.236861 0.119570 0.224923
0.332978 0.122186 0.227540
0.429112 0.124806 0.230160
0.525218 0.127422 0.232776
0.621369 0.130020 0.235373
0.717408 0.132663 0.238016
0.322122 0.177388 0.230065
0.418260 0.180008 0.232684
0.514406 0.182604 0.235280
0.610534 0.185196 0.237873
0.706662 0.187832 0.240509
0.802694 0.190451 0.243128
0.407452 0.235192 0.235192
0.503589 0.237785 0.237785
0.599713 0.240413 0.240413
0.695817 0.243034 0.243034
0.791976 0.245635 0.245635
0.888005 0.248226 0.248226
0.492629 0.293016 0.240339
0.588719 0.295621 0.242944
0.684868 0.298217 0.245540
0.780982 0.300810 0.248133
0.877119 0.303415 0.250738
0.973186 0.306050 0.253374
0.082769 0.004934 0.268317
0.178906 0.007585 0.270968
0.275043 0.010193 0.273576
0.371180 0.012786 0.276169
0.467317 0.015394 0.278777
0.563311 0.018041 0.281425
0.168099 0.062782 0.273488
0.264236 0.065374 0.276081
0.360364 0.068011 0.278718
0.456460 0.070633 0.281340
0.552573 0.073227 0.283933
0.648640 0.075815 0.286522
0.253399 0.120556 0.278586
0.349492 0.123207 0.281237
0.445629 0.125797 0.283827
0.541766 0.128408 0.286438
0.637903 0.131007 0.289037
0.733941 0.133619 0.291649
0.338685 0.178374 0.283727
0.434822 0.180990 0.286344
0.530959 0.183589 0.288942
0.627051 0.186211 0.291564
0.723182 0.188848 0.294201
0.819226 0.191437 0.296790
0.424014 0.236177 0.288854
0.520092 0.238770 0.291447
0.616229 0.241407 0.294084
0.712352 0.244030 0.296706
0.808489 0.246623 0.299299
0.904556 0.249269 0.301946
0.509133 0.293943 0.293943
0.605270 0.296610 0.296610
0.701407 0.299203 0.299203
0.797544 0.301796 0.301796
0.893680 0.304403 0.304403
0.989675 0.307051 0.307051
