example_ofxGpuLutCube/bin/data/ofxGpuLutCube/LUT/S19 (high saturation fade).cube
LUT_3D_SIZE 6
0.128479 0.128754 0.128967
0.147278 0.128754 0.128967
0.178082 0.128876 0.128967
0.378455 0.129517 0.128662
0.684393 0.131189 0.128534
0.864782 0.132475 0.128754
0.128479 0.146790 0.128967
0.147170 0.146818 0.128967
0.178918 0.146828 0.128976
0.394685 0.147629 0.128642
0.692557 0.149260 0.128539
0.866274 0.150499 0.128760
0.128479 0.170227 0.128961
0.148097 0.170812 0.128957
0.186691 0.173254 0.128828
0.504268 0.170979 0.128479
0.777177 0.170443 0.128658
0.871021 0.170118 0.128784
0.129816 0.275897 0.129681
0.153230 0.314377 0.130035
0.230519 0.420497 0.131132
0.600332 0.422327 0.131060
0.820952 0.398961 0.130256
0.893789 0.370026 0.129360
0.135950 0.589313 0.132409
0.179869 0.665126 0.133353
0.318043 0.732670 0.133987
0.686096 0.744290 0.134059
0.842227 0.715199 0.133898
0.915039 0.705281 0.133407
0.155054 0.825317 0.134489
0.219455 0.867668 0.135209
0.391816 0.893342 0.135575
0.725042 0.898715 0.135588
0.857479 0.886397 0.135508
0.928175 0.872879 0.135283
0.128510 0.128754 0.150842
0.146882 0.128754 0.150832
0.172283 0.128834 0.150825
0.349894 0.129387 0.150575
0.672325 0.131059 0.150714
0.866577 0.132482 0.151573
0.128504 0.146802 0.150850
0.146763 0.146817 0.150821
0.174883 0.146816 0.150690
0.381272 0.147573 0.150445
0.693332 0.149271 0.150682
0.867396 0.150527 0.151292
0.128479 0.170616 0.151039
0.147690 0.171293 0.150987
0.181043 0.175609 0.150940
0.503532 0.172583 0.149865
0.777287 0.171374 0.149899
0.871700 0.170945 0.150437
0.129579 0.293225 0.152415
0.152565 0.321028 0.152645
0.218260 0.447690 0.154275
0.594043 0.458822 0.154691
0.822246 0.433656 0.153005
0.896057 0.395909 0.151910
0.135963 0.613648 0.158921
0.179999 0.680399 0.160581
0.296802 0.752829 0.163834
0.680975 0.768637 0.163937
0.839336 0.742542 0.163194
0.917682 0.729429 0.161200
0.155518 0.836606 0.165694
0.220339 0.877407 0.168262
0.360064 0.906532 0.170821
0.714954 0.912558 0.170076
0.865390 0.911781 0.170032
0.931330 0.889175 0.168958
0.128479 0.128796 0.191956
0.146592 0.128815 0.192911
0.170408 0.128796 0.197058
0.306444 0.129495 0.202382
0.629352 0.131016 0.211990
0.848563 0.132578 0.225031
0.128479 0.146898 0.196015
0.146616 0.146871 0.195969
0.170908 0.146919 0.202241
0.340656 0.147771 0.207506
0.669451 0.149490 0.219117
0.858977 0.150783 0.229482
0.128479 0.172386 0.213273
0.147773 0.173103 0.213676
0.171150 0.180063 0.222458
0.457445 0.180667 0.222819
0.765945 0.179160 0.226804
0.871883 0.176923 0.225914
0.129637 0.312900 0.243034
0.152352 0.340130 0.249769
0.200976 0.476216 0.273636
0.553072 0.526007 0.278855
0.817102 0.494046 0.237427
0.901196 0.459763 0.208943
0.134990 0.635517 0.294914
0.173986 0.692733 0.305033
0.259996 0.772054 0.319778
0.633816 0.790382 0.315991
0.829704 0.775751 0.312332
0.921289 0.762183 0.280014
0.150892 0.844459 0.314675
0.212957 0.883440 0.325952
0.316374 0.918577 0.346455
0.670646 0.925084 0.345368
0.855072 0.923365 0.335638
0.932569 0.906217 0.330472
0.128479 0.128857 0.358038
0.146515 0.128867 0.364994
0.169183 0.129039 0.392668
0.280689 0.129637 0.437284
0.593749 0.131786 0.500858
0.806497 0.133689 0.544520
0.128479 0.146990 0.389587
0.146533 0.147084 0.395998
0.169569 0.147157 0.434282
0.321982 0.148262 0.488610
0.643871 0.151074 0.547837
0.833793 0.152620 0.584717
0.128479 0.174532 0.475923
0.147352 0.175694 0.484708
0.170890 0.186691 0.526668
0.390417 0.201833 0.586125
0.714099 0.213217 0.623067
0.862963 0.218957 0.640714
0.129356 0.357779 0.572121
0.153101 0.385029 0.585208
0.200670 0.497056 0.615403
0.462522 0.569637 0.650663
0.780128 0.558903 0.644110
0.895748 0.537185 0.636031
0.134911 0.646266 0.599859
0.173316 0.701077 0.622584
0.255598 0.780453 0.651695
0.549427 0.806457 0.670023
0.804680 0.803607 0.668418
0.920642 0.790243 0.636349
0.149820 0.847208 0.617610
0.209240 0.885708 0.640828
0.307239 0.923083 0.661711
0.594375 0.933533 0.676131
0.829763 0.930689 0.672843
0.927028 0.919280 0.669667
0.128479 0.129333 0.633765
0.146515 0.129420 0.644258
0.168373 0.129543 0.674360
0.277382 0.130208 0.704895
0.588670 0.132336 0.750844
0.819571 0.134153 0.791461
0.128479 0.147662 0.671224
0.146515 0.147702 0.679951
0.169144 0.147761 0.710631
0.317147 0.149171 0.743261
0.649787 0.151869 0.785617
0.842487 0.153312 0.813978
0.128479 0.178608 0.731818
0.146823 0.180963 0.740212
0.171388 0.197063 0.768038
0.375018 0.212733 0.797912
0.712504 0.236690 0.822500
0.866049 0.245432 0.835694
0.128753 0.383234 0.785519
0.153523 0.414069 0.795098
0.203787 0.536261 0.820682
0.455814 0.588990 0.834609
0.754992 0.599298 0.840861
0.893910 0.602115 0.845497
0.135683 0.689314 0.810388
0.176568 0.731318 0.820134
0.256825 0.784792 0.825059
0.527432 0.810071 0.836592
0.780523 0.816036 0.843718
0.908846 0.809159 0.841851
0.150346 0.850581 0.801861
0.209036 0.886551 0.814388
0.306012 0.923620 0.828607
0.563471 0.934584 0.838886
0.800142 0.935394 0.846236
0.918924 0.927577 0.842189
0.128479 0.130003 0.818541
0.146515 0.129986 0.825326
0.168810 0.130047 0.843095
0.296203 0.130888 0.860723
0.596032 0.132757 0.880104
0.820739 0.134367 0.906419
0.128479 0.148608 0.837062
0.146515 0.148725 0.843262
0.169060 0.148747 0.860982
0.334059 0.150423 0.880694
0.648707 0.152422 0.899387
0.839636 0.154265 0.919666
0.128479 0.184196 0.867439
0.146586 0.188396 0.874407
0.172776 0.212029 0.893092
0.387465 0.225985 0.911002
0.704307 0.250048 0.923179
0.864230 0.271728 0.935019
0.128479 0.402842 0.900728
0.153939 0.438700 0.908302
0.207708 0.560892 0.926468
0.464571 0.601755 0.935302
0.748010 0.605997 0.937956
0.891012 0.613943 0.940421
0.136034 0.702720 0.918280
0.179100 0.745829 0.925974
0.263959 0.806221 0.934721
0.529536 0.820882 0.939023
0.777084 0.821103 0.940580
0.899590 0.821084 0.941663
0.154019 0.876601 0.922394
0.215037 0.904523 0.927892
0.306145 0.924128 0.927846
0.564442 0.934980 0.935311
0.793781 0.936309 0.939705
0.910288 0.932761 0.940639
