example_ofxGpuLutCube/bin/data/ofxGpuLutCube/LUT/S19 (high saturation fade).cube
LUT_3D_SIZE 16
0.128479 0.128754 0.128967
0.134472 0.128754 0.128967
0.140493 0.128754 0.128967
0.147278 0.128754 0.128967
0.154777 0.128807 0.128967
0.163625 0.128744 0.128957
0.178082 0.128876 0.128967
0.213220 0.128916 0.128953
0.280107 0.129203 0.128843
0.378455 0.129517 0.128662
0.487549 0.129994 0.128489
0.592989 0.130573 0.128502
0.684393 0.131189 0.128534
0.759420 0.131742 0.128654
0.820402 0.132158 0.128693
0.864782 0.132475 0.128754
0.128479 0.134747 0.128967
0.134472 0.134747 0.128967
0.140493 0.134747 0.128967
0.147246 0.134751 0.128967
0.154737 0.134837 0.128967
0.163501 0.134759 0.128967
0.177370 0.134881 0.128974
0.211169 0.134870 0.128968
0.277027 0.135131 0.128858
0.376035 0.135519 0.128694
0.486885 0.135999 0.128489
0.591985 0.136629 0.128502
0.683991 0.137146 0.128534
0.758828 0.137715 0.128654
0.820569 0.138143 0.128693
0.864799 0.138469 0.128754
0.128479 0.140768 0.128967
0.134472 0.140768 0.128967
0.140493 0.140768 0.128967
0.147159 0.140812 0.128967
0.154725 0.140865 0.128967
0.163466 0.140817 0.128966
0.177864 0.140877 0.128992
0.212327 0.140971 0.128953
0.277496 0.141173 0.128847
0.375690 0.141505 0.128699
0.486860 0.142059 0.128489
0.592468 0.142635 0.128502
0.684075 0.143172 0.128534
0.758605 0.143697 0.128654
0.819744 0.144141 0.128693
0.865025 0.144489 0.128754
0.128479 0.146790 0.128967
0.134472 0.146790 0.128967
0.140493 0.146790 0.128967
0.147170 0.146818 0.128967
0.154645 0.146820 0.128990
0.163501 0.146816 0.128957
0.178918 0.146828 0.128976
0.217668 0.147024 0.128953
0.290995 0.147216 0.128835
0.394685 0.147629 0.128642
0.503874 0.148124 0.128479
0.606766 0.148700 0.128497
0.692557 0.149260 0.128539
0.764071 0.149721 0.128655
0.823335 0.150240 0.128693
0.866274 0.150499 0.128760
0.128502 0.153536 0.128990
0.134495 0.153504 0.128990
0.140517 0.153535 0.128991
0.147212 0.153610 0.128965
0.154707 0.153556 0.128969
0.163570 0.153437 0.128958
0.180745 0.153307 0.128963
0.226727 0.153260 0.128923
0.312322 0.153466 0.128794
0.424457 0.153951 0.128556
0.539334 0.154432 0.128482
0.639947 0.155037 0.128510
0.720831 0.155605 0.128573
0.786863 0.156036 0.128666
0.836155 0.156391 0.128721
0.869012 0.156566 0.128784
0.128479 0.161367 0.128988
0.134472 0.161367 0.128988
0.140543 0.161364 0.128986
0.147532 0.161513 0.128969
0.154914 0.161815 0.128956
0.163781 0.161780 0.128957
0.182985 0.161556 0.128898
0.238013 0.161401 0.128868
0.338614 0.161326 0.128716
0.461755 0.161607 0.128499
0.577918 0.162011 0.128486
0.675549 0.162334 0.128525
0.752397 0.162618 0.128630
0.807997 0.162792 0.128690
0.847324 0.162912 0.128752
0.869857 0.162994 0.128784
0.128479 0.170227 0.128961
0.134495 0.170284 0.128948
0.140696 0.170346 0.128960
0.148097 0.170812 0.128957
0.155545 0.171893 0.128925
0.164527 0.173039 0.128913
0.186691 0.173254 0.128828
0.253093 0.172457 0.128792
0.373518 0.171531 0.128553
0.504268 0.170979 0.128479
0.619014 0.170679 0.128504
0.710048 0.170576 0.128570
0.777177 0.170443 0.128658
0.822090 0.170431 0.128693
0.849581 0.170323 0.128752
0.871021 0.170118 0.128784
0.128479 0.185102 0.128920
0.134496 0.185115 0.128919
0.141588 0.186112 0.128904
0.149131 0.189582 0.128908
0.157110 0.195082 0.128912
0.166408 0.202311 0.128998
0.196553 0.209004 0.129059
0.271951 0.208470 0.128921
0.408604 0.204843 0.128723
0.548929 0.202386 0.128656
0.660532 0.199194 0.128658
0.742654 0.197969 0.128727
0.794335 0.196009 0.128690
0.829865 0.194338 0.128721
0.854159 0.191780 0.128766
0.875141 0.189285 0.128798
0.128577 0.217493 0.129144
0.135549 0.217981 0.129144
0.142891 0.221815 0.129178
0.150855 0.232090 0.129272
0.159459 0.250190 0.129514
0.172459 0.271396 0.129689
0.209837 0.293995 0.129907
0.308987 0.301573 0.130029
0.441619 0.296197 0.129754
0.579828 0.292782 0.129693
0.685331 0.286361 0.129550
0.763702 0.279596 0.129375
0.809082 0.274225 0.129338
0.838778 0.265734 0.129118
0.862346 0.258676 0.128812
0.882440 0.250151 0.128705
0.129816 0.275897 0.129681
0.137034 0.280576 0.129729
0.144904 0.291377 0.129858
0.153230 0.314377 0.130035
0.165296 0.350212 0.130412
0.182558 0.388647 0.130784
0.230519 0.420497 0.131132
0.352566 0.437305 0.131321
0.476766 0.421862 0.131243
0.600332 0.422327 0.131060
0.699856 0.415865 0.130784
0.773362 0.407482 0.130470
0.820952 0.398961 0.130256
0.850967 0.390146 0.130002
0.873919 0.381827 0.129725
0.893789 0.370026 0.129360
0.131134 0.367594 0.130462
0.139058 0.375984 0.130597
0.147054 0.396461 0.130753
0.158362 0.432652 0.131138
0.174811 0.477106 0.131618
0.196411 0.516012 0.132039
0.257200 0.544800 0.132316
0.391058 0.563624 0.132514
0.524592 0.560164 0.132535
0.620282 0.540599 0.132446
0.711273 0.537154 0.132270
0.781354 0.532835 0.132036
0.829140 0.527763 0.131771
0.860301 0.520958 0.131392
0.882892 0.513490 0.131027
0.902555 0.505822 0.130678
0.133331 0.477254 0.131362
0.141176 0.493559 0.131584
0.151721 0.519527 0.131881
0.167464 0.555946 0.132306
0.188223 0.596169 0.132727
0.213391 0.625690 0.133095
0.286614 0.648890 0.133324
0.427634 0.662662 0.133384
0.566502 0.669909 0.133542
0.653118 0.651423 0.133429
0.723470 0.637914 0.133342
0.787619 0.634434 0.133162
0.837661 0.632046 0.133025
0.868302 0.626962 0.132871
0.890051 0.622895 0.132548
0.909753 0.619161 0.132296
0.135950 0.589313 0.132409
0.146992 0.608454 0.132652
0.161736 0.635693 0.133018
0.179869 0.665126 0.133353
0.202792 0.693104 0.133624
0.232269 0.715951 0.133846
0.318043 0.732670 0.133987
0.458171 0.741221 0.134028
0.593381 0.747000 0.134054
0.686096 0.744290 0.134059
0.740414 0.723051 0.133954
0.795218 0.716584 0.133888
0.842227 0.715199 0.133898
0.874788 0.712898 0.133726
0.895980 0.709850 0.133688
0.915039 0.705281 0.133407
0.141668 0.688351 0.133396
0.155011 0.705993 0.133548
0.172280 0.728898 0.133818
0.193527 0.752168 0.134061
0.218558 0.770955 0.134232
0.252574 0.786408 0.134557
0.347845 0.798114 0.134638
0.491025 0.804181 0.134652
0.614720 0.807221 0.134730
0.706007 0.808471 0.134745
0.760705 0.796981 0.134650
0.803547 0.783861 0.134442
0.845222 0.780719 0.134437
0.878695 0.779389 0.134422
0.901340 0.777296 0.134404
0.920168 0.773519 0.134278
0.148069 0.766713 0.134013
0.163739 0.782957 0.134149
0.183442 0.800431 0.134349
0.206844 0.817601 0.134754
0.233754 0.831524 0.134951
0.272100 0.842586 0.135116
0.370853 0.850872 0.135128
0.512690 0.854846 0.135145
0.632062 0.856593 0.135191
0.718664 0.857754 0.135178
0.780471 0.857650 0.135205
0.815787 0.844861 0.135100
0.849735 0.835721 0.135007
0.881583 0.832650 0.134973
0.905975 0.831197 0.134969
0.924728 0.828717 0.134933
0.155054 0.825317 0.134489
0.172545 0.839237 0.134829
0.193971 0.853771 0.134993
0.219455 0.867668 0.135209
0.247344 0.878459 0.135398
0.290334 0.886828 0.135527
0.391816 0.893342 0.135575
0.529894 0.897046 0.135555
0.642171 0.897775 0.135572
0.725042 0.898715 0.135588
0.785837 0.899727 0.135568
0.829527 0.898408 0.135587
0.857479 0.886397 0.135508
0.884106 0.877342 0.135356
0.908591 0.874880 0.135402
0.928175 0.872879 0.135283
0.128481 0.128754 0.135614
0.134476 0.128754 0.135614
0.140496 0.128762 0.135611
0.147099 0.128782 0.135652
0.154617 0.128801 0.135528
0.163235 0.128768 0.135510
0.176645 0.128835 0.135489
0.210552 0.128903 0.135378
0.276983 0.129169 0.135263
0.374673 0.129475 0.135150
0.484315 0.130021 0.135021
0.589882 0.130520 0.135145
0.683696 0.131192 0.135345
0.759381 0.131670 0.135521
0.819571 0.132157 0.135713
0.864778 0.132447 0.135979
0.128481 0.134747 0.135528
0.134476 0.134747 0.135608
0.140497 0.134747 0.135597
0.147167 0.134772 0.135492
0.154613 0.134844 0.135425
0.163278 0.134748 0.135443
0.176762 0.134806 0.135384
0.210298 0.134950 0.135333
0.276403 0.135137 0.135251
0.374482 0.135466 0.135152
0.484964 0.136083 0.135052
0.591104 0.136586 0.135142
0.681830 0.137194 0.135340
0.758438 0.137690 0.135560
0.820292 0.138098 0.135734
0.864783 0.138441 0.135972
0.128481 0.140768 0.135528
0.134500 0.140770 0.135442
0.140500 0.140770 0.135506
0.147160 0.140784 0.135356
0.154645 0.140838 0.135211
0.163279 0.140778 0.135223
0.176669 0.140886 0.135171
0.210134 0.140916 0.135113
0.275206 0.141184 0.135000
0.373108 0.141529 0.134889
0.484204 0.142016 0.134738
0.591763 0.142589 0.134821
0.683521 0.143171 0.135099
0.759060 0.143753 0.135322
0.819715 0.144179 0.135651
0.865041 0.144482 0.135786
0.128485 0.146792 0.135505
0.134501 0.146792 0.135437
0.140521 0.146792 0.135437
0.147056 0.146822 0.135426
0.154578 0.146825 0.135366
0.163313 0.146800 0.135102
0.178063 0.146917 0.135044
0.216285 0.146964 0.135017
0.287358 0.147243 0.134873
0.388297 0.147552 0.134712
0.497174 0.148172 0.134561
0.602343 0.148614 0.134658
0.691281 0.149215 0.134834
0.763371 0.149762 0.134967
0.823083 0.150258 0.135166
0.866274 0.150481 0.135311
0.128480 0.153550 0.135404
0.134513 0.153488 0.135461
0.140534 0.153491 0.135483
0.147115 0.153615 0.135435
0.154587 0.153583 0.135473
0.163402 0.153426 0.135344
0.179868 0.153329 0.135144
0.224553 0.153286 0.135004
0.310191 0.153427 0.134835
0.423420 0.153890 0.134611
0.537653 0.154452 0.134509
0.636954 0.155062 0.134533
0.719407 0.155533 0.134659
0.784930 0.155964 0.134902
0.835719 0.156377 0.135119
0.869041 0.156566 0.135241
0.128481 0.161348 0.135487
0.134477 0.161352 0.135493
0.140581 0.161411 0.135574
0.147394 0.161540 0.135530
0.154808 0.161830 0.135462
0.163564 0.161901 0.135473
0.182026 0.161748 0.135353
0.235341 0.161484 0.135119
0.336043 0.161419 0.134835
0.459669 0.161692 0.134570
0.577746 0.162062 0.134511
0.674325 0.162384 0.134576
0.751293 0.162602 0.134693
0.807588 0.162816 0.134752
0.847766 0.162945 0.134890
0.870005 0.163036 0.134982
0.128480 0.170313 0.135549
0.134505 0.170340 0.135636
0.140657 0.170445 0.135627
0.147991 0.170887 0.135642
0.155474 0.172006 0.135663
0.164361 0.173302 0.135626
0.185533 0.173673 0.135611
0.250416 0.173049 0.135486
0.369250 0.171775 0.135146
0.501015 0.171221 0.134885
0.617578 0.170902 0.134844
0.709331 0.170790 0.134802
0.776542 0.170537 0.134790
0.821676 0.170492 0.134761
0.849574 0.170375 0.134788
0.871258 0.170182 0.134817
0.128494 0.185730 0.135770
0.134509 0.185763 0.135842
0.141497 0.186618 0.135848
0.149121 0.189880 0.135899
0.156962 0.195782 0.136073
0.166302 0.203135 0.136161
0.194569 0.209901 0.136301
0.270200 0.210049 0.136183
0.403933 0.206995 0.135983
0.544364 0.204122 0.135865
0.658532 0.200838 0.135727
0.742328 0.199384 0.135737
0.794340 0.196973 0.135519
0.829544 0.194786 0.135247
0.854318 0.192665 0.135110
0.875257 0.189893 0.134946
0.128558 0.219015 0.136311
0.135418 0.219574 0.136356
0.142836 0.222882 0.136409
0.150715 0.232958 0.136512
0.159406 0.251992 0.136741
0.171908 0.274000 0.136981
0.207055 0.297051 0.137235
0.306056 0.307631 0.137381
0.439239 0.301403 0.137130
0.577934 0.298352 0.137003
0.685744 0.291600 0.136866
0.763696 0.285010 0.136734
0.809267 0.276974 0.136573
0.838468 0.267853 0.136331
0.862534 0.261404 0.136045
0.882724 0.253407 0.135831
0.129698 0.280911 0.136983
0.136935 0.283396 0.137009
0.144846 0.294180 0.137182
0.153116 0.315507 0.137351
0.165286 0.353880 0.137756
0.182308 0.393828 0.138152
0.227289 0.426346 0.138474
0.349762 0.445756 0.138736
0.475310 0.430001 0.138681
0.600281 0.429845 0.138476
0.700559 0.423899 0.138201
0.773694 0.416582 0.137945
0.821213 0.406507 0.137651
0.851130 0.395014 0.137305
0.874281 0.385579 0.137029
0.894209 0.375862 0.136712
0.131083 0.374226 0.137832
0.139039 0.381262 0.137876
0.147168 0.402872 0.138175
0.158488 0.437920 0.138529
0.174832 0.481552 0.138952
0.196755 0.521083 0.139335
0.253781 0.550601 0.139623
0.386228 0.569400 0.139915
0.523676 0.568042 0.139995
0.620702 0.547895 0.139788
0.711312 0.546332 0.139725
0.780362 0.541473 0.139485
0.829446 0.535296 0.139205
0.860626 0.528029 0.138789
0.883274 0.519639 0.138442
0.903096 0.511921 0.138122
0.133387 0.485320 0.138820
0.141118 0.498699 0.138927
0.151829 0.525498 0.139267
0.168129 0.562978 0.139628
0.188872 0.602056 0.140191
0.213904 0.631874 0.140528
0.283886 0.654769 0.140815
0.422312 0.668551 0.140914
0.564121 0.675556 0.141004
0.653989 0.658879 0.140971
0.723224 0.646180 0.140839
0.787186 0.642984 0.140765
0.837547 0.639267 0.140556
0.868663 0.634601 0.140455
0.890671 0.629380 0.140084
0.910164 0.626343 0.139847
0.135868 0.596724 0.139770
0.147080 0.614826 0.140038
0.161593 0.640549 0.140435
0.180736 0.671597 0.140834
0.203672 0.699276 0.141169
0.232280 0.721281 0.141440
0.313259 0.738492 0.141640
0.455977 0.748004 0.141735
0.591409 0.752387 0.141795
0.688226 0.753135 0.141832
0.742181 0.732019 0.141639
0.793638 0.723819 0.141542
0.841642 0.722506 0.141543
0.874738 0.719467 0.141491
0.896594 0.715537 0.141269
0.915641 0.711063 0.141031
0.141639 0.694388 0.140811
0.155608 0.712039 0.140989
0.172431 0.733595 0.141326
0.194762 0.758180 0.141722
0.220330 0.777252 0.142206
0.254157 0.791990 0.142506
0.342297 0.803064 0.142740
0.484768 0.809382 0.142842
0.613279 0.812834 0.142961
0.706295 0.814142 0.143093
0.766724 0.809536 0.142934
0.804504 0.792275 0.142555
0.845008 0.787440 0.142484
0.879099 0.785490 0.142521
0.902111 0.782681 0.142363
0.920863 0.779052 0.142191
0.148486 0.771732 0.141548
0.164668 0.787319 0.141807
0.183855 0.804486 0.142371
0.208180 0.822790 0.143018
0.235386 0.836732 0.143547
0.272792 0.847266 0.143820
0.368731 0.855572 0.143955
0.509576 0.859926 0.144080
0.628008 0.861481 0.144110
0.716966 0.862451 0.144082
0.779970 0.863207 0.144220
0.821902 0.858121 0.144144
0.849718 0.842091 0.143737
0.881915 0.838133 0.143615
0.906818 0.836421 0.143606
0.925424 0.833542 0.143445
0.154901 0.828804 0.142369
0.172943 0.842888 0.142979
0.194467 0.857228 0.143614
0.220683 0.871967 0.144315
0.249430 0.883607 0.144702
0.290288 0.891416 0.145125
0.382912 0.897569 0.145252
0.522069 0.901573 0.145208
0.638569 0.902596 0.145210
0.723699 0.903153 0.145211
0.785220 0.904195 0.145223
0.830920 0.904318 0.145297
0.863085 0.897984 0.145183
0.884471 0.883276 0.144830
0.908946 0.880072 0.144696
0.929117 0.877604 0.144712
0.128483 0.128807 0.143066
0.134476 0.128807 0.143072
0.140501 0.128807 0.142987
0.147037 0.128754 0.143065
0.154374 0.128811 0.143020
0.162474 0.128795 0.143054
0.173983 0.128787 0.143022
0.203537 0.128892 0.142951
0.266304 0.129127 0.142814
0.363669 0.129411 0.142700
0.476175 0.129913 0.142543
0.585688 0.130518 0.142753
0.680708 0.131190 0.142867
0.757860 0.131657 0.143123
0.819410 0.132198 0.143316
0.865093 0.132472 0.143471
0.128483 0.134800 0.142987
0.134480 0.134800 0.142987
0.140501 0.134800 0.142987
0.146857 0.134787 0.143002
0.154284 0.134867 0.143018
0.162579 0.134774 0.142969
0.174316 0.134826 0.142923
0.204441 0.134897 0.142883
0.266789 0.135157 0.142753
0.365880 0.135402 0.142699
0.479849 0.135984 0.142580
0.587527 0.136592 0.142664
0.681358 0.137216 0.142822
0.758484 0.137701 0.143128
0.819883 0.138159 0.143247
0.865281 0.138440 0.143443
0.128483 0.140820 0.142987
0.134480 0.140820 0.142987
0.140501 0.140820 0.142987
0.146962 0.140768 0.142986
0.154409 0.140817 0.142944
0.162780 0.140833 0.142934
0.175300 0.140809 0.142811
0.207739 0.141024 0.142811
0.272477 0.141116 0.142692
0.371682 0.141461 0.142640
0.483461 0.141983 0.142474
0.590149 0.142610 0.142627
0.683188 0.143162 0.142756
0.759012 0.143697 0.143035
0.819924 0.144162 0.143213
0.865625 0.144441 0.143383
0.128483 0.146843 0.142977
0.134480 0.146843 0.142975
0.140501 0.146843 0.142934
0.146881 0.146832 0.142937
0.154428 0.146837 0.142855
0.163055 0.146813 0.142694
0.176718 0.146843 0.142590
0.213207 0.147009 0.142552
0.283882 0.147194 0.142407
0.384611 0.147583 0.142294
0.495292 0.148091 0.142128
0.601290 0.148678 0.142306
0.691041 0.149264 0.142433
0.763182 0.149737 0.142636
0.823005 0.150231 0.142896
0.866492 0.150502 0.143167
0.128499 0.153581 0.142957
0.134492 0.153585 0.142958
0.140533 0.153594 0.142876
0.146920 0.153611 0.142931
0.154425 0.153686 0.142920
0.163145 0.153586 0.142731
0.179023 0.153362 0.142481
0.223417 0.153314 0.142337
0.307740 0.153468 0.142143
0.416914 0.153917 0.141954
0.530376 0.154427 0.141972
0.633039 0.155039 0.142043
0.718432 0.155628 0.142232
0.784156 0.156078 0.142410
0.835354 0.156376 0.142552
0.869062 0.156576 0.142699
0.128558 0.161381 0.142976
0.134578 0.161381 0.142976
0.140562 0.161488 0.142957
0.147205 0.161568 0.143008
0.154646 0.161903 0.142973
0.163325 0.162025 0.142917
0.180859 0.161871 0.142709
0.233770 0.161687 0.142482
0.333955 0.161509 0.142217
0.458576 0.161739 0.141876
0.576940 0.162081 0.141819
0.673803 0.162429 0.141933
0.751220 0.162682 0.142131
0.805592 0.162864 0.142317
0.846725 0.163046 0.142590
0.870024 0.163100 0.142599
0.128490 0.170471 0.143074
0.134502 0.170470 0.143010
0.140618 0.170603 0.143119
0.147796 0.171039 0.143174
0.155308 0.172231 0.143148
0.163982 0.173724 0.143089
0.183742 0.174531 0.143066
0.247424 0.173838 0.142799
0.369709 0.172510 0.142486
0.502811 0.171696 0.142286
0.618609 0.171284 0.142163
0.710368 0.171042 0.142171
0.776772 0.170797 0.142200
0.821303 0.170718 0.142196
0.849550 0.170485 0.142280
0.871287 0.170342 0.142290
0.128493 0.186773 0.143103
0.134542 0.186700 0.143180
0.141400 0.187423 0.143239
0.148800 0.190295 0.143365
0.156873 0.196745 0.143402
0.165900 0.204931 0.143547
0.191950 0.213043 0.143701
0.266595 0.214981 0.143639
0.402634 0.211407 0.143402
0.545043 0.207539 0.143220
0.660562 0.203527 0.143088
0.743780 0.201733 0.143064
0.794194 0.198819 0.142893
0.829892 0.196272 0.142724
0.854405 0.193387 0.142493
0.875423 0.190794 0.142361
0.128548 0.222150 0.143718
0.135407 0.221949 0.143725
0.142705 0.224928 0.143706
0.150579 0.235001 0.143893
0.159305 0.254377 0.144127
0.171791 0.279116 0.144452
0.203667 0.302631 0.144671
0.302407 0.318656 0.144869
0.436585 0.312165 0.144661
0.576947 0.308751 0.144471
0.686265 0.299845 0.144239
0.764550 0.291423 0.144141
0.809641 0.284229 0.144050
0.839194 0.273931 0.143765
0.863044 0.265962 0.143505
0.883140 0.257156 0.143228
0.129676 0.286712 0.144344
0.136799 0.287937 0.144390
0.144599 0.296738 0.144457
0.153096 0.320425 0.144729
0.165080 0.358445 0.145157
0.182197 0.401157 0.145660
0.222970 0.435567 0.146086
0.343988 0.457244 0.146367
0.475025 0.446367 0.146375
0.598588 0.443286 0.146230
0.699726 0.435769 0.145923
0.773009 0.427633 0.145569
0.821674 0.417836 0.145162
0.851650 0.405429 0.144844
0.875135 0.394995 0.144452
0.894822 0.383566 0.144172
0.131081 0.382415 0.145173
0.138975 0.388564 0.145248
0.146998 0.407098 0.145550
0.158316 0.441645 0.145977
0.174916 0.488214 0.146546
0.197023 0.531157 0.147077
0.248894 0.560019 0.147444
0.382978 0.579594 0.147700
0.522964 0.581545 0.147791
0.620167 0.560949 0.147684
0.710365 0.559104 0.147586
0.778818 0.554918 0.147381
0.829290 0.548879 0.147046
0.861076 0.537819 0.146516
0.884231 0.530598 0.146190
0.903831 0.520658 0.145732
0.133424 0.494072 0.146353
0.141139 0.506490 0.146478
0.151984 0.531264 0.146836
0.167667 0.566065 0.147314
0.188887 0.607873 0.147946
0.215005 0.641190 0.148750
0.277911 0.663682 0.149449
0.415651 0.677515 0.149677
0.560857 0.684891 0.149862
0.654600 0.670785 0.149791
0.723249 0.655892 0.149456
0.786306 0.653801 0.149357
0.836313 0.650846 0.149014
0.868892 0.645338 0.148688
0.891698 0.640114 0.148039
0.910911 0.634415 0.147533
0.135957 0.605627 0.147553
0.146950 0.621337 0.147736
0.161401 0.645187 0.148344
0.180414 0.675296 0.149228
0.204596 0.706161 0.150238
0.233796 0.729725 0.150919
0.308193 0.745882 0.151473
0.447945 0.755106 0.151669
0.585836 0.759701 0.151770
0.686309 0.760658 0.151937
0.742686 0.741800 0.151570
0.793192 0.733662 0.151241
0.840480 0.732019 0.151319
0.875249 0.728898 0.151094
0.897704 0.724619 0.150646
0.916598 0.719317 0.149937
0.141849 0.700348 0.149144
0.155304 0.715996 0.149595
0.172661 0.737300 0.150420
0.194094 0.761247 0.151498
0.221527 0.782965 0.152399
0.254797 0.798170 0.152884
0.336655 0.810015 0.153214
0.478536 0.815960 0.153360
0.608851 0.818862 0.153534
0.703736 0.820541 0.153570
0.768816 0.819379 0.153555
0.804119 0.801125 0.153095
0.844036 0.795401 0.152846
0.879572 0.793315 0.152932
0.903163 0.790404 0.152770
0.921828 0.786250 0.152333
0.148677 0.775926 0.150855
0.164429 0.790717 0.151586
0.183567 0.807154 0.152376
0.208422 0.825840 0.153365
0.237119 0.842000 0.154134
0.273234 0.852667 0.154667
0.358645 0.861033 0.154972
0.498108 0.865488 0.154949
0.624387 0.867011 0.155042
0.714977 0.867711 0.154944
0.778529 0.869268 0.155159
0.824493 0.867928 0.155109
0.849228 0.849520 0.154542
0.882411 0.845412 0.154392
0.907955 0.843457 0.154292
0.926485 0.840409 0.154075
0.155783 0.833131 0.152511
0.172968 0.845273 0.153107
0.194464 0.859843 0.154075
0.221562 0.875343 0.154947
0.251218 0.887822 0.155670
0.290005 0.896362 0.156297
0.374272 0.902196 0.156419
0.513920 0.906073 0.156454
0.634992 0.907427 0.156567
0.720849 0.907581 0.156357
0.783030 0.908544 0.156424
0.830288 0.909584 0.156571
0.866374 0.906434 0.156496
0.885275 0.889949 0.155852
0.909405 0.886183 0.155852
0.930201 0.883754 0.155665
0.128510 0.128754 0.150842
0.134531 0.128755 0.150837
0.140548 0.128754 0.150842
0.146882 0.128754 0.150832
0.154223 0.128756 0.150807
0.162166 0.128791 0.150838
0.172283 0.128834 0.150825
0.197254 0.128899 0.150741
0.254628 0.129103 0.150660
0.349894 0.129387 0.150575
0.463428 0.129879 0.150478
0.574831 0.130475 0.150565
0.672325 0.131059 0.150714
0.753747 0.131643 0.150907
0.817945 0.132176 0.151274
0.866577 0.132482 0.151573
0.128532 0.134747 0.150791
0.134534 0.134747 0.150832
0.140580 0.134747 0.150789
0.146782 0.134768 0.150814
0.154116 0.134777 0.150807
0.162153 0.134792 0.150836
0.172493 0.134846 0.150798
0.198025 0.134910 0.150716
0.256684 0.135186 0.150597
0.353461 0.135488 0.150518
0.467926 0.135926 0.150449
0.577486 0.136504 0.150547
0.674700 0.137086 0.150687
0.754839 0.137701 0.150926
0.818448 0.138171 0.151136
0.866944 0.138509 0.151510
0.128504 0.140780 0.150844
0.134531 0.140768 0.150837
0.140571 0.140769 0.150800
0.146759 0.140795 0.150819
0.154096 0.140810 0.150810
0.162142 0.140836 0.150816
0.173188 0.140792 0.150781
0.201685 0.140980 0.150695
0.263143 0.141230 0.150598
0.361326 0.141487 0.150483
0.474548 0.141987 0.150398
0.584718 0.142632 0.150506
0.680501 0.143225 0.150702
0.758321 0.143709 0.150900
0.820021 0.144131 0.151061
0.867159 0.144481 0.151394
0.128504 0.146802 0.150850
0.134520 0.146802 0.150845
0.140541 0.146802 0.150848
0.146763 0.146817 0.150821
0.154102 0.146830 0.150869
0.162466 0.146842 0.150760
0.174883 0.146816 0.150690
0.208994 0.146949 0.150614
0.278763 0.147252 0.150490
0.381272 0.147573 0.150445
0.493990 0.148098 0.150312
0.601741 0.148645 0.150476
0.693332 0.149271 0.150682
0.765067 0.149829 0.150829
0.824035 0.150219 0.151093
0.867396 0.150527 0.151292
0.128499 0.153610 0.150809
0.134474 0.153587 0.150809
0.140528 0.153642 0.150854
0.146784 0.153701 0.150818
0.154129 0.153705 0.150841
0.162697 0.153660 0.150650
0.177484 0.153527 0.150307
0.218880 0.153500 0.150256
0.303249 0.153620 0.150116
0.416201 0.153939 0.149964
0.531744 0.154537 0.149932
0.634130 0.155087 0.150053
0.720189 0.155760 0.150272
0.785274 0.156108 0.150545
0.836570 0.156492 0.150746
0.869211 0.156642 0.150979
0.128479 0.161493 0.150899
0.134520 0.161463 0.150955
0.140526 0.161571 0.150925
0.147080 0.161689 0.150832
0.154342 0.161942 0.150908
0.162608 0.162241 0.150904
0.178834 0.162104 0.150506
0.230700 0.161791 0.150057
0.333584 0.161626 0.149803
0.459333 0.161829 0.149595
0.575392 0.162210 0.149697
0.671824 0.162539 0.149847
0.750351 0.162768 0.149993
0.805118 0.162947 0.150164
0.846225 0.163098 0.150356
0.870062 0.163171 0.150593
0.128479 0.170616 0.151039
0.134472 0.170623 0.151032
0.140615 0.170777 0.151043
0.147690 0.171293 0.150987
0.155043 0.172391 0.151059
0.163455 0.174265 0.151036
0.181043 0.175609 0.150940
0.240726 0.174989 0.150536
0.364969 0.173544 0.150088
0.503532 0.172583 0.149865
0.620034 0.171895 0.149749
0.712108 0.171430 0.149828
0.777287 0.171374 0.149899
0.821327 0.171278 0.150073
0.849010 0.171207 0.150249
0.871700 0.170945 0.150437
0.128479 0.187764 0.151180
0.134495 0.187859 0.151114
0.141413 0.188868 0.151137
0.148722 0.191293 0.151170
0.156579 0.197153 0.151283
0.165333 0.207213 0.151376
0.188065 0.217120 0.151402
0.259189 0.220678 0.151356
