example_ofxGpuLutCube/bin/data/ofxGpuLutCube/LUT/S2 (smooth desat).cube
LUT_3D_SIZE 6
-0.089656 -0.089656 -0.089656
-0.014654 -0.034982 -0.034982
0.060384 0.019728 0.019728
0.135440 0.074456 0.074456
0.210442 0.129130 0.129130
0.285445 0.183805 0.183805
0.017734 0.038062 0.017734
0.092754 0.092754 0.072426
0.167785 0.147457 0.127129
0.242841 0.202185 0.181857
0.317850 0.256866 0.236538
0.392835 0.311524 0.291196
0.125124 0.165779 0.125124
0.200162 0.220490 0.179834
0.275185 0.275185 0.234530
0.350241 0.329913 0.289258
0.425258 0.384602 0.343946
0.500225 0.439242 0.398586
0.232514 0.293497 0.232514
0.307570 0.348225 0.287242
0.382586 0.402914 0.341930
0.457642 0.457642 0.396659
0.532666 0.512338 0.451354
0.607615 0.566960 0.505976
0.339904 0.421215 0.339904
0.414978 0.475961 0.394650
0.489987 0.530643 0.449331
0.565043 0.585371 0.504059
0.640074 0.640074 0.558762
0.715006 0.694678 0.613366
0.447121 0.548761 0.447121
0.522212 0.603524 0.501884
0.597215 0.658198 0.556559
0.672271 0.712927 0.611287
0.747308 0.767636 0.665997
0.822223 0.822223 0.720584
-0.068850 -0.068850 -0.048522
0.006224 -0.014104 0.006224
0.081233 0.040577 0.060905
0.156289 0.095305 0.115633
0.231320 0.150008 0.170336
0.306252 0.204612 0.224940
0.038558 0.058886 0.058886
0.113620 0.113620 0.113620
0.188639 0.168312 0.168312
0.263688 0.223033 0.223033
0.338725 0.277741 0.277741
0.413660 0.332348 0.332348
0.145966 0.186621 0.166294
0.221017 0.241344 0.221017
0.296046 0.296046 0.275718
0.371088 0.350760 0.330432
0.446130 0.405474 0.385146
0.521068 0.460084 0.439756
0.253374 0.314357 0.273702
0.328413 0.369069 0.328413
0.403453 0.423780 0.383125
0.478487 0.478487 0.437831
0.553535 0.533207 0.492552
0.628476 0.587820 0.547164
0.360782 0.442093 0.381110
0.435810 0.496793 0.435810
0.510859 0.551515 0.490531
0.585886 0.606214 0.545231
0.660940 0.660940 0.599957
0.735884 0.715556 0.654572
0.468016 0.569656 0.488344
0.543033 0.624345 0.543033
0.618092 0.679076 0.597764
0.693113 0.733769 0.652457
0.768172 0.788500 0.707188
0.843118 0.843118 0.761807
-0.047990 -0.047990 -0.007335
0.027058 0.006731 0.047386
0.102104 0.061448 0.102104
0.177127 0.116144 0.156799
0.252187 0.170875 0.211531
0.327112 0.225472 0.266128
0.059418 0.079745 0.100073
0.134464 0.134464 0.154792
0.209512 0.189184 0.209512
0.284535 0.243880 0.264207
0.359586 0.298603 0.318931
0.434520 0.353208 0.373536
0.166826 0.207481 0.207481
0.241870 0.262198 0.262198
0.316920 0.316920 0.316920
0.391943 0.371615 0.371615
0.466986 0.426330 0.426330
0.541928 0.480944 0.480944
0.274234 0.335217 0.314889
0.349276 0.389932 0.369604
0.424328 0.444655 0.424328
0.499351 0.499351 0.479023
0.574385 0.554057 0.533729
0.649336 0.608680 0.588352
0.381642 0.462953 0.422297
0.456682 0.517665 0.477010
0.531736 0.572391 0.531736
0.606759 0.627087 0.586431
0.681784 0.681784 0.641129
0.756744 0.736416 0.695760
0.488876 0.590515 0.529532
0.563914 0.645226 0.584242
0.638970 0.699954 0.638970
0.713994 0.754650 0.693666
0.789011 0.809339 0.748355
0.863978 0.863978 0.802995
-0.027113 -0.027113 0.033871
0.047900 0.027572 0.088556
0.122960 0.082304 0.143288
0.197984 0.137000 0.197984
0.273040 0.191728 0.252712
0.347989 0.246350 0.307333
0.080295 0.100623 0.141279
0.155308 0.155308 0.195964
0.230365 0.210037 0.250693
0.305392 0.264736 0.305392
0.380445 0.319462 0.360118
0.455390 0.374079 0.414734
0.187703 0.228359 0.248687
0.262716 0.283044 0.303372
0.337770 0.337770 0.358098
0.412800 0.392472 0.412800
0.487851 0.447196 0.467523
0.562791 0.501807 0.522135
0.295111 0.356095 0.356095
0.370124 0.410780 0.410780
0.445175 0.465503 0.465503
0.520208 0.520208 0.520208
0.595257 0.574929 0.574929
0.670192 0.629536 0.629536
0.402520 0.483831 0.463503
0.477532 0.538516 0.518188
0.552580 0.593236 0.572908
0.627616 0.647943 0.627616
0.702663 0.702663 0.682335
0.777593 0.757265 0.736937
0.509754 0.611393 0.570738
0.584767 0.666078 0.625423
0.659812 0.720796 0.680140
0.734850 0.775506 0.734850
0.809896 0.830223 0.789568
0.884821 0.884821 0.844165
-0.006253 -0.006253 0.075059
0.068767 0.048440 0.129751
0.143841 0.103186 0.184497
0.218854 0.157871 0.239182
0.293864 0.212552 0.293864
0.368850 0.267210 0.348522
0.101155 0.121483 0.182467
0.176176 0.176176 0.237159
0.251241 0.230913 0.291897
0.326260 0.285604 0.346588
0.401272 0.340288 0.401272
0.476257 0.394946 0.455930
0.208563 0.249219 0.289875
0.283584 0.303911 0.344567
0.358640 0.358640 0.399296
0.433666 0.413338 0.453994
0.508680 0.468024 0.508680
0.583665 0.522682 0.563337
0.315971 0.376955 0.397283
0.390992 0.431647 0.451975
0.466040 0.486367 0.506695
0.541072 0.541072 0.561400
0.616088 0.595760 0.616088
0.691073 0.650417 0.670745
0.423379 0.504691 0.504691
0.498400 0.559383 0.559383
0.573439 0.614095 0.614095
0.648478 0.668806 0.668806
0.723496 0.723496 0.723496
0.798481 0.778153 0.778153
0.530614 0.632253 0.611925
0.605634 0.686946 0.666618
0.680665 0.741649 0.721321
0.755710 0.796366 0.776038
0.830730 0.851058 0.830730
0.905715 0.905715 0.885388
0.014609 0.014609 0.116248
0.089611 0.069284 0.170923
0.164614 0.123959 0.225598
0.239705 0.178722 0.280361
0.314708 0.233397 0.335036
0.389622 0.287983 0.389622
0.121999 0.142327 0.223639
0.197019 0.197019 0.278331
0.272022 0.251694 0.333006
0.347106 0.306450 0.387762
0.422116 0.361133 0.442444
0.497030 0.415719 0.497030
0.229390 0.270045 0.331029
0.304427 0.324755 0.385739
0.379430 0.379430 0.440414
0.454507 0.434179 0.495163
0.529524 0.488868 0.549852
0.604438 0.543455 0.604438
0.336780 0.397763 0.438419
0.411835 0.452491 0.493147
0.486838 0.507166 0.547822
0.561908 0.561908 0.602564
0.636932 0.616604 0.657260
0.711846 0.671191 0.711846
0.444170 0.525481 0.545809
0.519243 0.580227 0.600555
0.594246 0.634902 0.655230
0.669309 0.689637 0.709965
0.744340 0.744340 0.764668
0.819254 0.798926 0.819254
0.551388 0.653027 0.653027
0.626478 0.707789 0.707789
0.701481 0.762464 0.762464
0.776537 0.817192 0.817192
0.851575 0.871903 0.871903
0.926489 0.926489 0.926489
