example_ofxGpuLutCube/bin/data/ofxGpuLutCube/LUT/S2 (smooth desat).cube
LUT_3D_SIZE 16
-0.089656 -0.089656 -0.089656
-0.064686 -0.071462 -0.071462
-0.039703 -0.053255 -0.053255
-0.014654 -0.034982 -0.034982
0.010340 -0.016763 -0.016763
0.035377 0.001497 0.001497
0.060384 0.019728 0.019728
0.085408 0.037977 0.037977
0.110379 0.056172 0.056172
0.135440 0.074456 0.074456
0.160410 0.092651 0.092651
0.185471 0.110936 0.110936
0.210442 0.129130 0.129130
0.235490 0.147403 0.147403
0.260473 0.165610 0.165610
0.285445 0.183805 0.183805
-0.053914 -0.047138 -0.053914
-0.028853 -0.028853 -0.035629
-0.003882 -0.010658 -0.017434
0.021174 0.007622 0.000846
0.046149 0.025821 0.019045
0.071150 0.044046 0.037270
0.096180 0.062301 0.055525
0.121190 0.080535 0.073759
0.146212 0.098780 0.092004
0.171233 0.117025 0.110249
0.196243 0.135260 0.128484
0.221214 0.153454 0.146678
0.246273 0.171738 0.164962
0.271245 0.189934 0.183158
0.296305 0.208218 0.201442
0.321189 0.226325 0.219549
-0.018081 -0.004529 -0.018081
0.006895 0.013671 0.000119
0.031950 0.031950 0.018398
0.056921 0.050145 0.036593
0.081982 0.068430 0.054878
0.106952 0.086625 0.073073
0.132006 0.104902 0.091350
0.156984 0.123104 0.109552
0.182039 0.141383 0.127831
0.207015 0.159583 0.146032
0.232038 0.177830 0.164278
0.257046 0.196063 0.182511
0.282080 0.214320 0.200768
0.307078 0.232542 0.218990
0.332049 0.250737 0.237185
0.357021 0.268934 0.255382
0.017734 0.038062 0.017734
0.042722 0.056274 0.035946
0.067705 0.074481 0.054153
0.092754 0.092754 0.072426
0.117744 0.110968 0.090640
0.142785 0.129233 0.108905
0.167785 0.147457 0.127129
0.192816 0.165713 0.145385
0.217787 0.183907 0.163580
0.242841 0.202185 0.181857
0.267819 0.220387 0.200059
0.292874 0.238667 0.218339
0.317850 0.256866 0.236538
0.342883 0.275123 0.254795
0.367881 0.293346 0.273018
0.392835 0.311524 0.291196
0.053494 0.080598 0.053494
0.078555 0.098883 0.071779
0.103526 0.117078 0.089974
0.128567 0.135343 0.108239
0.153557 0.153557 0.126453
0.178558 0.171782 0.144678
0.203588 0.190037 0.162933
0.228590 0.208262 0.181158
0.253620 0.226516 0.199412
0.278630 0.244750 0.217646
0.303651 0.262995 0.235892
0.328622 0.281190 0.254086
0.353678 0.299470 0.272366
0.378653 0.317670 0.290566
0.403712 0.335953 0.308849
0.428597 0.354061 0.326957
0.089327 0.123207 0.089327
0.114302 0.141406 0.107526
0.139358 0.159686 0.125806
0.164329 0.177881 0.144001
0.189390 0.196166 0.162286
0.214360 0.214360 0.180481
0.239403 0.232627 0.198747
0.264392 0.250840 0.216960
0.289438 0.269111 0.235231
0.314423 0.287319 0.253440
0.339434 0.305554 0.271674
0.364454 0.323799 0.289919
0.389473 0.342041 0.308162
0.414486 0.360278 0.326398
0.439457 0.378473 0.344593
0.464429 0.396669 0.362790
0.125124 0.165779 0.125124
0.150130 0.184010 0.143354
0.175113 0.202217 0.161561
0.200162 0.220490 0.179834
0.225147 0.238699 0.198043
0.250193 0.256969 0.216313
0.275185 0.275185 0.234530
0.300224 0.293448 0.252793
0.325195 0.311643 0.270988
0.350241 0.329913 0.289258
0.375226 0.348123 0.307467
0.400277 0.366398 0.325742
0.425258 0.384602 0.343946
0.450275 0.402844 0.362188
0.475289 0.421082 0.380426
0.500225 0.439242 0.398586
0.160902 0.208334 0.160902
0.185963 0.226619 0.179187
0.210934 0.244814 0.197382
0.235961 0.263065 0.215633
0.260965 0.281293 0.233861
0.285966 0.299518 0.252086
0.310996 0.317772 0.270341
0.335990 0.335990 0.288558
0.361028 0.354252 0.306820
0.386027 0.372475 0.325044
0.411059 0.390731 0.343300
0.436030 0.408926 0.361494
0.461082 0.427202 0.379771
0.486061 0.445405 0.397974
0.511119 0.463687 0.416256
0.536005 0.481797 0.434365
0.196735 0.250943 0.196735
0.221709 0.269140 0.214933
0.246766 0.287422 0.233214
0.271737 0.305617 0.251409
0.296798 0.323902 0.269694
0.321768 0.342096 0.287889
0.346800 0.360352 0.306145
0.371800 0.378576 0.324368
0.396838 0.396838 0.342630
0.421831 0.415055 0.360848
0.446830 0.433278 0.379070
0.471862 0.451535 0.397327
0.496867 0.469763 0.415555
0.521894 0.488014 0.433806
0.546865 0.506209 0.452001
0.571837 0.524405 0.470197
0.232514 0.293497 0.232514
0.257538 0.311746 0.250762
0.282521 0.329953 0.268969
0.307570 0.348225 0.287242
0.332550 0.366430 0.305446
0.357601 0.384705 0.323721
0.382586 0.402914 0.341930
0.407632 0.421184 0.360201
0.432603 0.439379 0.378396
0.457642 0.457642 0.396659
0.482634 0.475859 0.414875
0.507681 0.494129 0.433145
0.532666 0.512338 0.451354
0.557668 0.530564 0.469580
0.582697 0.548817 0.487834
0.607615 0.566960 0.505976
0.268310 0.336070 0.268310
0.293371 0.354355 0.286595
0.318342 0.372549 0.304790
0.343354 0.390786 0.323027
0.368373 0.409029 0.341269
0.393394 0.427274 0.359514
0.418404 0.445508 0.377749
0.443389 0.463717 0.395957
0.468436 0.481988 0.414228
0.493425 0.500200 0.432441
0.518467 0.518467 0.450708
0.543438 0.536662 0.468902
0.568487 0.554935 0.487175
0.593469 0.573141 0.505382
0.618526 0.591422 0.523662
0.643413 0.609533 0.541773
0.304143 0.378679 0.304143
0.329115 0.396875 0.322339
0.354174 0.415158 0.340622
0.379145 0.433353 0.358817
0.404206 0.451637 0.377102
0.429176 0.469832 0.395297
0.454198 0.488077 0.413542
0.479208 0.506312 0.431776
0.504238 0.524566 0.450030
0.529239 0.542791 0.468256
0.554226 0.561002 0.486466
0.579270 0.579270 0.504735
0.604260 0.597484 0.522949
0.629302 0.615750 0.541214
0.654273 0.633945 0.559409
0.679244 0.652141 0.577605
0.339904 0.421215 0.339904
0.364946 0.439482 0.358170
0.389929 0.457689 0.376377
0.414978 0.475961 0.394650
0.439953 0.494161 0.412849
0.465009 0.512441 0.431129
0.489987 0.530643 0.449331
0.515040 0.548920 0.467609
0.540011 0.567115 0.485803
0.565043 0.585371 0.504059
0.590043 0.603594 0.522283
0.615084 0.621860 0.540548
0.640074 0.640074 0.558762
0.665060 0.658284 0.576973
0.690105 0.676553 0.595242
0.715006 0.694678 0.613366
0.375718 0.463806 0.375718
0.400779 0.482090 0.394003
0.425750 0.500285 0.412198
0.450748 0.518508 0.430420
0.475781 0.536765 0.448677
0.500790 0.554997 0.466910
0.525812 0.573244 0.485157
0.550789 0.591444 0.503357
0.575844 0.609724 0.521636
0.600822 0.627926 0.539838
0.625875 0.646203 0.558116
0.650846 0.664398 0.576310
0.675891 0.682667 0.594579
0.700877 0.700877 0.612790
0.725933 0.719157 0.631069
0.750821 0.737269 0.649181
0.411551 0.506414 0.411551
0.436522 0.524610 0.429746
0.461582 0.542894 0.448030
0.486553 0.561089 0.466225
0.511614 0.579373 0.484510
0.536584 0.597568 0.502705
0.561595 0.615802 0.520939
0.586616 0.634048 0.539184
0.611637 0.652293 0.557430
0.636647 0.670527 0.575664
0.661622 0.688726 0.593862
0.686679 0.707006 0.612143
0.711654 0.725206 0.630343
0.736710 0.743486 0.648622
0.761681 0.761681 0.666817
0.786652 0.779876 0.685013
0.447121 0.548761 0.447121
0.472181 0.567044 0.465405
0.497164 0.585251 0.483612
0.522212 0.603524 0.501884
0.547183 0.621719 0.520079
0.572244 0.640003 0.538364
0.597215 0.658198 0.556559
0.622275 0.676483 0.574843
0.647246 0.694677 0.593038
0.672271 0.712927 0.611287
0.697277 0.731157 0.629518
0.722314 0.749418 0.647778
0.747308 0.767636 0.665997
0.772280 0.785832 0.684193
0.797340 0.804116 0.702476
0.822223 0.822223 0.720584
-0.082781 -0.082781 -0.076005
-0.057726 -0.064502 -0.057726
-0.032738 -0.046290 -0.039514
-0.007694 -0.028022 -0.021246
0.017304 -0.009800 -0.003024
0.042336 0.008457 0.015233
0.067313 0.026657 0.033433
0.092368 0.044936 0.051712
0.117344 0.063137 0.069913
0.142399 0.081415 0.088191
0.167374 0.099614 0.106390
0.192408 0.117873 0.124648
0.217406 0.136094 0.142870
0.242451 0.154363 0.161139
0.267432 0.172569 0.179345
0.292321 0.190682 0.197458
-0.046949 -0.040173 -0.040173
-0.021899 -0.021899 -0.021899
0.003083 -0.003693 -0.003693
0.028133 0.014581 0.014581
0.053110 0.032782 0.032782
0.078111 0.051007 0.051007
0.103142 0.069262 0.069262
0.128153 0.087497 0.087497
0.153171 0.105739 0.105739
0.178148 0.123940 0.123940
0.203201 0.142217 0.142217
0.228179 0.160419 0.160419
0.253233 0.178697 0.178697
0.278209 0.196898 0.196898
0.303254 0.215167 0.215167
0.328153 0.233290 0.233290
-0.011122 0.002430 -0.004346
0.013860 0.020636 0.013860
0.038910 0.038910 0.032134
0.063886 0.057110 0.050334
0.088933 0.075381 0.068605
0.113917 0.093589 0.086813
0.138966 0.111862 0.105086
0.163945 0.130066 0.123290
0.188959 0.148303 0.141527
0.213978 0.166546 0.159770
0.239000 0.184792 0.178016
0.264006 0.203022 0.196246
0.288982 0.221223 0.214447
0.314036 0.239500 0.232724
0.339014 0.257702 0.250926
0.363980 0.275893 0.269117
0.024627 0.044955 0.031403
0.049682 0.063234 0.049682
0.074667 0.081443 0.067891
0.099714 0.099714 0.086162
0.124708 0.117932 0.104380
0.149744 0.136192 0.122641
0.174720 0.154393 0.140841
0.199767 0.172663 0.159111
0.224752 0.190872 0.177320
0.249800 0.209145 0.195593
0.274781 0.227349 0.213797
0.299804 0.245596 0.232044
0.324813 0.263829 0.250277
0.349844 0.282084 0.268533
0.374840 0.300305 0.286753
0.399729 0.318418 0.304866
0.060458 0.087562 0.067234
0.085493 0.105821 0.085493
0.110490 0.124042 0.103714
0.135528 0.142304 0.121976
0.160518 0.160518 0.140190
0.185514 0.178738 0.158410
0.210549 0.196998 0.176670
0.235553 0.215225 0.194897
0.260579 0.233475 0.213147
0.285555 0.251675 0.231348
0.310603 0.269947 0.249619
0.335587 0.288155 0.267827
0.360637 0.306430 0.286102
0.385616 0.324633 0.304305
0.410647 0.342887 0.322559
0.435560 0.361025 0.340697
0.096286 0.130166 0.103062
0.121267 0.148371 0.121267
0.146318 0.166646 0.139542
0.171293 0.184845 0.157741
0.196329 0.203104 0.176001
0.221324 0.221324 0.194221
0.246364 0.239588 0.212484
0.271353 0.257801 0.230697
0.296358 0.276030 0.248926
0.321385 0.294281 0.267177
0.346396 0.312517 0.285413
0.371414 0.330758 0.303654
0.396390 0.348958 0.321855
0.421441 0.367234 0.340130
0.446422 0.385438 0.358334
0.471388 0.403629 0.376525
0.132035 0.172691 0.138811
0.157090 0.190970 0.157090
0.182073 0.209177 0.175297
0.207122 0.227450 0.193570
0.232111 0.245663 0.211783
0.257152 0.263928 0.230049
0.282128 0.282128 0.248248
0.307166 0.300390 0.266510
0.332159 0.318607 0.284728
0.357202 0.336874 0.302994
0.382188 0.355084 0.321205
0.407199 0.373320 0.339440
0.432220 0.391564 0.357685
0.457238 0.409806 0.375926
0.482248 0.428041 0.394161
0.507137 0.446154 0.412274
0.167865 0.215297 0.174641
0.192886 0.233542 0.192886
0.217897 0.251776 0.211121
0.242922 0.270026 0.229370
0.267925 0.288253 0.247597
0.292916 0.306468 0.265812
0.317957 0.324733 0.284077
0.342953 0.342953 0.302298
0.367987 0.361211 0.320555
0.392963 0.379411 0.338755
0.418005 0.397678 0.357022
0.442994 0.415891 0.375235
0.468042 0.434162 0.393506
0.493023 0.452368 0.411712
0.518039 0.470607 0.429952
0.542967 0.488759 0.448104
0.203694 0.257902 0.210470
0.228674 0.276105 0.228674
0.253726 0.294381 0.246950
0.278700 0.312580 0.265148
0.303724 0.330828 0.283396
0.328732 0.349060 0.301628
0.353762 0.367313 0.319882
0.378760 0.385536 0.338105
0.403757 0.403757 0.356325
0.428792 0.422016 0.374584
0.453793 0.440241 0.392810
0.478822 0.458494 0.411062
0.503798 0.476694 0.429262
0.528847 0.494967 0.447536
0.553830 0.513174 0.465742
0.578796 0.531364 0.483933
0.239443 0.300427 0.246219
0.264498 0.318705 0.264498
0.289479 0.336911 0.282703
0.314530 0.355185 0.300978
0.339515 0.373394 0.319187
0.364560 0.391664 0.337457
0.389535 0.409863 0.355655
0.414565 0.428117 0.373909
0.439567 0.446343 0.392135
0.464603 0.464603 0.410395
0.489595 0.482819 0.428612
0.514595 0.501043 0.446836
0.539627 0.519299 0.465092
0.564631 0.537527 0.483319
0.589656 0.555777 0.501569
0.614545 0.573889 0.519682
0.275272 0.343031 0.282048
0.300278 0.361262 0.300278
0.325304 0.379511 0.318528
0.350317 0.397749 0.336765
0.375333 0.415989 0.355005
0.400318 0.434198 0.373215
0.425365 0.452468 0.391485
0.450354 0.470681 0.409698
0.475395 0.488947 0.427963
0.500370 0.507146 0.446163
0.525408 0.525408 0.464424
0.550402 0.543626 0.482643
0.575447 0.561895 0.500911
0.600430 0.580102 0.519119
0.625431 0.598328 0.537344
0.650374 0.616494 0.555510
0.311102 0.385638 0.317878
0.336081 0.403840 0.336081
0.361134 0.422117 0.354358
0.386107 0.440315 0.372555
0.411120 0.458552 0.390792
0.436139 0.476795 0.409035
0.461159 0.495039 0.427280
0.486168 0.513272 0.445512
0.511156 0.531484 0.463724
0.536199 0.549751 0.481992
0.561190 0.567966 0.500207
0.586230 0.586230 0.518470
0.611206 0.604430 0.536670
0.636253 0.622701 0.554941
0.661238 0.640910 0.573150
0.686204 0.659100 0.591340
0.346851 0.428163 0.353627
0.371906 0.446441 0.371906
0.396885 0.464644 0.390109
0.421937 0.482921 0.408385
0.446918 0.501126 0.426590
0.471968 0.519400 0.444865
0.496942 0.537598 0.463062
0.521964 0.555844 0.481308
0.546974 0.574078 0.499543
0.572004 0.592332 0.517797
0.597003 0.610555 0.536019
0.621991 0.628767 0.554231
0.647034 0.647034 0.572499
0.672024 0.665249 0.590713
0.697064 0.683513 0.608977
0.721953 0.701625 0.627090
0.382678 0.470766 0.389454
0.407670 0.488982 0.407670
0.432711 0.507246 0.425935
0.457711 0.525471 0.444160
0.482741 0.543724 0.462413
0.507721 0.561929 0.480617
0.532772 0.580204 0.498892
0.557754 0.598409 0.517098
0.582803 0.616683 0.535371
0.607778 0.634881 0.553570
0.632810 0.653138 0.571827
0.657810 0.671362 0.590050
0.682851 0.689627 0.608316
0.707837 0.707837 0.626526
0.732824 0.726048 0.644736
0.757781 0.744229 0.662917
0.418510 0.513374 0.425286
0.443487 0.531575 0.443487
0.468542 0.549853 0.461766
0.493514 0.568049 0.479962
0.518516 0.586275 0.498188
0.543546 0.604530 0.516442
0.568557 0.622765 0.534678
0.593575 0.641007 0.552920
0.618555 0.659211 0.571123
0.643607 0.677486 0.589399
0.668587 0.695691 0.607603
0.693638 0.713966 0.625878
0.718613 0.732165 0.644078
0.743659 0.750435 0.662347
0.768646 0.768646 0.680558
0.793612 0.786836 0.698748
0.454086 0.555725 0.460862
0.479140 0.574004 0.479140
0.504117 0.592205 0.497341
0.529172 0.610483 0.515620
0.554149 0.628684 0.533821
0.579203 0.646963 0.552099
0.604176 0.665160 0.570296
0.629190 0.683398 0.588534
0.654208 0.701640 0.606777
0.679232 0.719888 0.625025
0.704237 0.738116 0.643253
0.729214 0.756318 0.661454
0.754268 0.774596 0.679732
0.779245 0.792797 0.697934
0.804299 0.811075 0.716212
0.829188 0.829188 0.734324
-0.075816 -0.075816 -0.062264
-0.050766 -0.057542 -0.043990
-0.025774 -0.039326 -0.025774
-0.000736 -0.021064 -0.007512
0.024247 -0.002857 0.010695
0.049296 0.015416 0.028968
0.074278 0.033623 0.047175
0.099327 0.051895 0.065447
0.124304 0.070097 0.083648
0.149327 0.088344 0.101896
0.174337 0.106578 0.120129
0.199369 0.124833 0.138385
0.224360 0.143049 0.156601
0.249343 0.161256 0.174808
0.274392 0.179528 0.193080
0.299286 0.197647 0.211199
-0.039984 -0.033208 -0.026432
-0.014939 -0.014939 -0.008163
0.010038 0.003262 0.010038
0.035034 0.021482 0.028258
0.060071 0.039743 0.046519
0.085075 0.057971 0.064747
0.110099 0.076219 0.082995
0.135081 0.094426 0.101202
0.160128 0.112696 0.119472
0.185113 0.130905 0.137681
0.210160 0.149176 0.155952
0.235141 0.167381 0.174157
0.260173 0.185638 0.192414
0.285173 0.203862 0.210638
0.310214 0.222127 0.228903
0.335107 0.240244 0.247020
-0.004162 0.009390 0.009390
0.020819 0.027595 0.027595
0.045860 0.045860 0.045860
0.070850 0.064074 0.064074
0.095893 0.082341 0.082341
0.120875 0.100547 0.100547
0.145881 0.118777 0.118777
0.170907 0.137027 0.137027
0.195921 0.155265 0.155265
0.220934 0.173502 0.173502
0.245916 0.191708 0.191708
0.270962 0.209979 0.209979
0.295947 0.228188 0.228188
0.320995 0.246460 0.246460
0.345977 0.264665 0.264665
0.370929 0.282841 0.282841
0.031592 0.051920 0.045144
0.056642 0.070194 0.063418
0.081632 0.088408 0.081632
0.106672 0.106672 0.099896
0.131653 0.124877 0.118101
0.156693 0.143141 0.136365
0.181685 0.161357 0.154581
0.206727 0.179623 0.172847
0.231711 0.197831 0.191055
0.256726 0.216070 0.209294
0.281743 0.234312 0.227536
0.306765 0.252558 0.245782
0.331768 0.270785 0.264009
0.356751 0.288991 0.282215
0.381799 0.307263 0.300487
0.406694 0.325383 0.318607
0.067422 0.094526 0.080974
0.092454 0.112782 0.099230
0.117446 0.130997 0.117446
0.142439 0.149214 0.135663
0.167478 0.167478 0.153926
0.192477 0.185702 0.172150
0.217507 0.203955 0.190403
0.242488 0.222160 0.208608
0.267529 0.240425 0.226873
0.292520 0.258640 0.245088
0.317563 0.276907 0.263355
0.342547 0.295115 0.281563
0.367569 0.313361 0.299809
0.392579 0.331596 0.318044
0.417608 0.349848 0.336296
0.442515 0.367980 0.354428
0.103246 0.137125 0.116798
0.128225 0.155328 0.135001
0.153254 0.173582 0.153254
0.178256 0.191808 0.171481
0.203289 0.210065 0.189737
0.228282 0.228282 0.207954
0.253283 0.246507 0.226179
0.278314 0.264762 0.244434
0.303321 0.282993 0.262665
0.328342 0.301238 0.280910
0.353323 0.319443 0.299115
0.378366 0.337710 0.317383
0.403355 0.355923 0.335595
0.428401 0.374193 0.353865
0.453383 0.392399 0.372071
0.478321 0.410562 0.390234
0.139000 0.179656 0.152552
0.164049 0.197929 0.170825
0.189038 0.216142 0.189038
0.214080 0.234408 0.207304
0.239060 0.252611 0.225508
0.264091 0.270867 0.243763
0.289092 0.289092 0.261988
0.314126 0.307350 0.280247
0.339118 0.325566 0.298462
0.364125 0.343797 0.316693
0.389150 0.362046 0.334942
0.414162 0.380282 0.353178
0.439176 0.398521 0.371417
0.464159 0.416727 0.389623
0.489206 0.434998 0.407894
0.514102 0.453119 0.426015
0.174827 0.222259 0.188379
0.199848 0.240503 0.206624
0.224853 0.258733 0.224853
0.249843 0.276947 0.243067
0.274885 0.295213 0.261333
0.299880 0.313432 0.279552
0.324915 0.331691 0.297811
0.349895 0.349895 0.316015
0.374929 0.368153 0.334274
0.399927 0.386375 0.352495
0.424966 0.404638 0.370758
0.449953 0.422849 0.388970
0.474964 0.441085 0.407205
0.499985 0.459330 0.425450
0.525001 0.477570 0.443690
0.549923 0.495715 0.461836
0.210654 0.264861 0.224206
0.235630 0.283062 0.242406
0.260649 0.301305 0.260649
0.285663 0.319542 0.278887
0.310686 0.337790 0.297134
0.335689 0.356017 0.315361
0.360684 0.374236 0.333581
0.385721 0.392497 0.351841
0.410721 0.410721 0.370065
0.435750 0.428974 0.388318
0.460730 0.447178 0.406523
0.485770 0.465442 0.424786
0.510763 0.483659 0.443003
0.535807 0.501927 0.461271
0.560788 0.520133 0.479477
0.585714 0.538282 0.497626
0.246408 0.307392 0.259960
0.271457 0.325665 0.278233
0.296444 0.343876 0.296444
0.321488 0.362144 0.314712
0.346466 0.380346 0.332914
0.371489 0.398592 0.351161
0.396498 0.416826 0.369394
0.421526 0.435078 0.387646
0.446524 0.453300 0.405869
0.471523 0.471523 0.424092
0.496556 0.489780 0.442349
0.521559 0.508007 0.460575
0.546584 0.526257 0.478825
0.571566 0.544462 0.497031
0.596613 0.562733 0.515301
0.621510 0.580855 0.533423
0.282233 0.349993 0.295785
0.307241 0.368225 0.314017
0.332261 0.386469 0.332261
0.357248 0.404680 0.350472
0.382293 0.422948 0.368741
0.407283 0.441163 0.386955
0.432323 0.459427 0.405219
0.457302 0.477629 0.423422
0.482330 0.495882 0.441674
0.507334 0.514110 0.459902
0.532368 0.532368 0.478161
0.557359 0.550583 0.496376
0.582360 0.568808 0.514600
0.607391 0.587063 0.532856
0.632395 0.605291 0.551083
0.657331 0.623451 0.569244
0.318062 0.392597 0.331614
0.343036 0.410796 0.349812
0.368043 0.429027 0.368043
0.393069 0.447276 0.386293
0.418082 0.465514 0.404531
0.443096 0.483752 0.422768
0.468086 0.501966 0.440982
0.493128 0.520232 0.459248
0.518120 0.538448 0.477464
0.543158 0.556710 0.495726
0.568138 0.574914 0.513930
0.593174 0.593174 0.532190
0.618170 0.611394 0.550411
0.643213 0.629661 0.568677
0.668194 0.647866 0.586883
0.693106 0.666003 0.605019
0.353816 0.435128 0.367368
0.378865 0.453401 0.385641
0.403850 0.471609 0.403850
0.428896 0.489880 0.422120
0.453872 0.508080 0.440320
0.478886 0.526318 0.458558
0.503905 0.544560 0.476801
0.528926 0.562806 0.495046
0.553931 0.581035 0.513275
0.578922 0.599250 0.531490
0.603963 0.617515 0.549755
0.628955 0.635731 0.567972
0.653992 0.653992 0.586233
0.678974 0.672198 0.604438
0.704020 0.690468 0.622708
0.728918 0.708591 0.640831
0.389639 0.477726 0.403190
0.414635 0.495946 0.421411
0.439669 0.514204 0.439669
0.464653 0.532413 0.457877
0.489700 0.550684 0.476148
0.514686 0.568894 0.494358
0.539731 0.587163 0.512627
0.564708 0.605364 0.530828
0.589731 0.623611 0.549075
0.614741 0.641845 0.567309
0.639771 0.660099 0.585564
0.664766 0.678318 0.603782
0.689756 0.696532 0.621996
0.714797 0.714797 0.640262
0.739788 0.733012 0.658477
0.764739 0.751187 0.676652
0.425470 0.520333 0.439022
0.450442 0.538529 0.457218
0.475438 0.556749 0.475438
0.500475 0.575010 0.493699
0.525479 0.593239 0.511927
0.550503 0.611487 0.530176
0.575488 0.629696 0.548384
0.600535 0.647967 0.566655
0.625520 0.666176 0.584864
0.650566 0.684446 0.603134
0.675545 0.702649 0.621337
0.700578 0.720906 0.639594
0.725578 0.739130 0.657818
0.750619 0.757395 0.676083
0.775600 0.775600 0.694288
0.800499 0.793723 0.712412
0.461051 0.562690 0.474603
0.486100 0.580963 0.492876
0.511082 0.599170 0.511082
0.536131 0.617442 0.529355
0.561105 0.635641 0.547553
0.586111 0.653870 0.565783
0.611138 0.672122 0.584034
0.636153 0.690360 0.602273
0.661164 0.708596 0.620509
0.686148 0.726803 0.638716
0.711196 0.745076 0.656988
0.736179 0.763283 0.675195
0.761227 0.781555 0.693467
0.786208 0.799760 0.711673
0.811253 0.818029 0.729942
0.836153 0.836153 0.748066
-0.068850 -0.068850 -0.048522
-0.043808 -0.050584 -0.030256
-0.018819 -0.032371 -0.012043
0.006224 -0.014104 0.006224
0.031212 0.004109 0.024436
0.056255 0.022375 0.042703
0.081233 0.040577 0.060905
0.106248 0.058816 0.079144
0.131267 0.077059 0.097387
0.156289 0.095305 0.115633
0.181288 0.113529 0.133857
0.206277 0.131742 0.152069
0.231320 0.150008 0.170336
0.256308 0.168221 0.188549
0.281351 0.186488 0.206816
0.306252 0.204612 0.224940
-0.033036 -0.026260 -0.012708
-0.008043 -0.008043 0.005509
0.016998 0.010222 0.023774
0.041998 0.028446 0.041998
0.067027 0.046699 0.060251
0.092015 0.064911 0.078463
0.117055 0.083176 0.096728
0.142046 0.101391 0.114943
0.167087 0.119656 0.133208
0.192070 0.137863 0.151415
0.217094 0.156110 0.169662
0.242104 0.174345 0.187896
0.267134 0.192599 0.206151
0.292123 0.210812 0.224364
0.317112 0.229024 0.242576
0.342066 0.247203 0.260755
0.002787 0.016339 0.023115
0.027783 0.034559 0.041335
0.052820 0.052820 0.059596
0.077802 0.071026 0.077802
0.102804 0.089252 0.096028
0.127836 0.107508 0.114284
0.152844 0.125740 0.132516
0.177862 0.143982 0.150758
0.202849 0.162194 0.168970
0.227889 0.180458 0.187233
0.252881 0.198673 0.205449
0.277922 0.216938 0.223714
0.302908 0.235148 0.241924
0.327938 0.253402 0.260178
0.352941 0.271630 0.278405
0.377889 0.289801 0.296577
0.038558 0.058886 0.058886
0.063600 0.077152 0.077152
0.088586 0.095362 0.095362
0.113620 0.113620 0.113620
0.138618 0.131842 0.131842
0.163653 0.150101 0.150101
0.188639 0.168312 0.168312
0.213649 0.186545 0.186545
0.238673 0.204793 0.204793
0.263688 0.223033 0.223033
0.288696 0.241265 0.241265
0.313684 0.259477 0.259477
0.338725 0.277741 0.277741
0.363716 0.295956 0.295956
0.388758 0.314223 0.314223
0.413660 0.332348 0.332348
0.074372 0.101476 0.094700
0.099365 0.119692 0.112916
0.124405 0.137957 0.131181
0.149403 0.156179 0.149403
0.174435 0.174435 0.167659
0.199421 0.192645 0.185869
0.224455 0.210903 0.204127
0.249453 0.229125 0.222349
0.274489 0.247385 0.240609
0.299476 0.265597 0.258821
0.324492 0.283837 0.277061
0.349509 0.302078 0.295302
0.374531 0.320323 0.313547
0.399531 0.338548 0.331772
0.424520 0.356760 0.349984
0.449474 0.374939 0.368163
0.110181 0.144061 0.130509
0.135188 0.162292 0.148740
0.160215 0.180543 0.166991
0.185209 0.198761 0.185209
0.210209 0.216984 0.203433
0.235242 0.235242 0.221690
0.260246 0.253470 0.239918
0.285270 0.271718 0.258166
0.310256 0.289928 0.276376
0.335291 0.308188 0.294636
0.360288 0.326408 0.312856
0.385326 0.344670 0.331118
0.410313 0.362881 0.349329
0.435333 0.381126 0.367574
0.460346 0.399362 0.385810
0.485283 0.417523 0.403971
0.145966 0.186621 0.166294
0.171008 0.204888 0.184560
0.195991 0.223095 0.202767
0.221017 0.241344 0.221017
0.246023 0.259575 0.239247
0.271052 0.277828 0.257500
0.296046 0.296046 0.275718
0.321051 0.314275 0.293947
0.346079 0.332527 0.312199
0.371088 0.350760 0.330432
0.396104 0.369001 0.348673
0.421091 0.387211 0.366884
0.446130 0.405474 0.385146
0.471124 0.423692 0.403364
0.496165 0.441958 0.421630
0.521068 0.460084 0.439756
0.181780 0.229212 0.202108
0.206772 0.247427 0.220323
0.231813 0.265693 0.238589
0.256808 0.283912 0.256808
0.281843 0.302171 0.275067
