example_ofxGpuLutCube/bin/data/ofxGpuLutCube/LUT/S20 (high saturation).cube
LUT_3D_SIZE 6
0.000000 0.001129 0.025238
0.179120 0.000000 0.019013
0.559183 0.000000 0.000000
0.950860 0.000000 0.000000
1.000000 0.000000 0.000000
1.000000 0.000000 0.000000
0.000000 0.135710 0.000000
0.109027 0.113919 0.000000
0.436025 0.056604 0.000000
0.889767 0.000000 0.000000
1.000000 0.000000 0.000000
1.000000 0.000000 0.000000
0.000000 0.318557 0.000000
0.001918 0.306652 0.000000
0.274864 0.282981 0.000000
0.831362 0.205103 0.000000
1.000000 0.215058 0.000000
1.000000 0.238811 0.000000
0.000000 0.636200 0.000000
0.000000 0.666192 0.000000
0.078803 0.682576 0.000000
0.614092 0.625982 0.000000
0.995933 0.607685 0.000000
1.000000 0.627473 0.000000
0.000000 0.980624 0.000000
0.000000 0.991949 0.000000
0.071615 1.000000 0.000000
0.494370 0.988561 0.000000
0.938548 0.943524 0.000000
1.000000 0.933104 0.000000
0.000000 1.000000 0.000000
0.000000 1.000000 0.000000
0.070617 1.000000 0.000000
0.387812 1.000000 0.000000
0.860846 1.000000 0.000000
1.000000 1.000000 0.000000
0.000000 0.000000 0.254551
0.173114 0.000000 0.229362
0.539905 0.000000 0.159949
0.941866 0.000000 0.073040
1.000000 0.000000 0.041511
1.000000 0.000000 0.015498
0.000000 0.125714 0.157926
0.089163 0.110111 0.137817
0.408504 0.052410 0.099416
0.879698 0.000000 0.011498
1.000000 0.000000 0.004113
1.000000 0.000000 0.002236
0.000000 0.310689 0.014973
0.001799 0.301896 0.015040
0.274777 0.282868 0.011824
0.830831 0.209831 0.000000
1.000000 0.221661 0.003676
1.000000 0.244703 0.020780
0.000000 0.641271 0.000000
0.000000 0.672063 0.000000
0.085704 0.687330 0.000000
0.618986 0.630803 0.000000
0.998613 0.612432 0.000000
1.000000 0.631464 0.000000
0.000000 0.982603 0.000000
0.000000 0.994451 0.000000
0.075618 1.000000 0.000000
0.490092 0.989716 0.000000
0.935609 0.940771 0.000000
1.000000 0.927247 0.000000
0.000000 1.000000 0.000000
0.000000 1.000000 0.000000
0.063701 1.000000 0.000000
0.374603 1.000000 0.000000
0.849013 1.000000 0.000000
1.000000 1.000000 0.000000
0.000000 0.000000 0.759616
0.142921 0.000000 0.711702
0.503687 0.000000 0.608392
0.916040 0.000000 0.485345
1.000000 0.000000 0.415745
1.000000 0.000000 0.356416
0.000000 0.096651 0.600633
0.073205 0.078074 0.558043
0.383752 0.030750 0.480248
0.859049 0.000000 0.358849
1.000000 0.000000 0.314472
1.000000 0.000000 0.295372
0.000000 0.291374 0.349960
0.000977 0.286849 0.344430
0.248566 0.279818 0.341161
0.815743 0.208560 0.281015
1.000000 0.220276 0.288832
1.000000 0.242974 0.307941
0.000000 0.640093 0.082491
0.000000 0.670744 0.109383
0.090536 0.685704 0.131419
0.619382 0.631030 0.109587
0.999281 0.612075 0.115107
1.000000 0.630206 0.155678
0.000000 0.983166 0.063924
0.000000 0.995328 0.093498
0.074484 1.000000 0.107405
0.477387 0.989430 0.067506
0.927964 0.933376 0.007962
1.000000 0.917139 0.001963
0.000000 1.000000 0.111988
0.000000 1.000000 0.107412
0.052962 1.000000 0.085308
0.355012 1.000000 0.035428
0.831223 1.000000 0.000000
1.000000 1.000000 0.000000
0.000000 0.000000 1.000000
0.117921 0.000000 1.000000
0.469431 0.000000 1.000000
0.890283 0.000000 0.941048
1.000000 0.000000 0.921334
1.000000 0.000000 0.897304
0.000000 0.068670 1.000000
0.044067 0.048849 0.999147
0.344946 0.007867 0.967143
0.828034 0.000000 0.889287
1.000000 0.000000 0.879751
1.000000 0.000000 0.878550
0.000000 0.254491 0.913475
0.000000 0.252924 0.917146
0.238347 0.245783 0.917835
0.795575 0.181246 0.870990
1.000000 0.191987 0.893516
1.000000 0.214220 0.912687
0.000000 0.610915 0.673249
0.000000 0.640596 0.703603
0.076448 0.655653 0.721110
0.574624 0.610969 0.676260
0.994170 0.586867 0.685162
1.000000 0.603846 0.698422
0.000000 0.968908 0.579171
0.000000 0.987657 0.602236
0.052075 0.994948 0.595512
0.440576 0.980637 0.517411
0.906183 0.912104 0.405861
1.000000 0.894780 0.364037
0.000000 1.000000 0.545643
0.000000 1.000000 0.525320
0.029485 1.000000 0.475451
0.323098 1.000000 0.388911
0.802148 1.000000 0.253880
1.000000 1.000000 0.198180
0.000000 0.000000 1.000000
0.104164 0.000000 1.000000
0.443005 0.000000 1.000000
0.884532 0.000000 1.000000
1.000000 0.000000 1.000000
1.000000 0.000000 1.000000
0.000000 0.056712 1.000000
0.032863 0.037626 1.000000
0.324429 0.004744 1.000000
0.825072 0.000000 1.000000
1.000000 0.000000 1.000000
1.000000 0.000000 1.000000
0.000000 0.244720 1.000000
0.000000 0.247038 1.000000
0.237646 0.244929 1.000000
0.803417 0.180956 1.000000
1.000000 0.190682 1.000000
1.000000 0.212533 1.000000
0.000000 0.604909 0.989769
0.000000 0.633554 0.999017
0.078982 0.647550 1.000000
0.587949 0.599115 1.000000
0.997939 0.573492 1.000000
1.000000 0.586048 1.000000
0.000000 0.958973 0.982066
0.000000 0.983463 0.995754
0.034531 0.988864 0.999591
0.403527 0.960550 0.984553
0.847979 0.888817 0.925860
1.000000 0.859764 0.893811
0.000000 1.000000 0.998616
0.000000 1.000000 0.994595
0.001849 1.000000 0.983322
0.276976 1.000000 0.932440
0.750614 1.000000 0.814012
0.999866 0.999977 0.747579
0.000000 0.000000 1.000000
0.091604 0.000000 1.000000
0.418747 0.000000 1.000000
0.873842 0.000000 1.000000
1.000000 0.000000 1.000000
1.000000 0.000000 1.000000
0.000000 0.045694 1.000000
0.022707 0.027468 1.000000
0.306709 0.002256 1.000000
0.815109 0.000000 1.000000
1.000000 0.000000 1.000000
1.000000 0.000000 1.000000
0.000000 0.237689 1.000000
0.000000 0.243712 1.000000
0.239159 0.246282 1.000000
0.804458 0.184541 1.000000
1.000000 0.191643 1.000000
1.000000 0.213755 1.000000
0.000000 0.605661 1.000000
0.000000 0.633359 1.000000
0.087276 0.647441 1.000000
0.590662 0.601734 1.000000
0.999386 0.572009 1.000000
1.000000 0.581345 1.000000
0.000000 0.962185 1.000000
0.000000 0.984254 1.000000
0.032296 0.988365 1.000000
0.389119 0.957242 1.000000
0.866547 0.873742 1.000000
1.000000 0.848166 1.000000
0.000000 1.000000 1.000000
0.000000 1.000000 1.000000
0.000025 1.000000 1.000000
0.259131 1.000000 1.000000
0.725999 1.000000 1.000000
0.993746 0.999841 0.999985
