example_ofxGpuLutCube/bin/data/ofxGpuLutCube/LUT/S20 (high saturation).cube
LUT_3D_SIZE 16
0.000000 0.001129 0.025238
0.055882 0.000000 0.018707
0.116359 0.000000 0.015697
0.179120 0.000000 0.019013
0.268261 0.000000 0.006594
0.393515 0.000000 0.000000
0.559183 0.000000 0.000000
0.736948 0.000000 0.000000
0.867261 0.000000 0.000000
0.950860 0.000000 0.000000
1.000000 0.000000 0.000000
1.000000 0.000000 0.000000
1.000000 0.000000 0.000000
1.000000 0.000000 0.000000
1.000000 0.000000 0.000000
1.000000 0.000000 0.000000
0.000000 0.044584 0.003028
0.032521 0.037388 0.000000
0.094347 0.030213 0.000000
0.153547 0.022627 0.000000
0.233673 0.009845 0.000000
0.349981 0.001040 0.000000
0.512320 0.000000 0.000000
0.691098 0.000000 0.000000
0.836392 0.000000 0.000000
0.928169 0.000000 0.000000
0.994016 0.000000 0.000000
1.000000 0.000000 0.000000
1.000000 0.000000 0.000000
1.000000 0.000000 0.000000
1.000000 0.000000 0.000000
1.000000 0.000000 0.000000
0.000000 0.089738 0.000000
0.009340 0.082447 0.000000
0.070485 0.075188 0.000000
0.135090 0.067106 0.000000
0.211019 0.055773 0.000000
0.315826 0.036608 0.000000
0.470865 0.007549 0.000000
0.648411 0.000015 0.000000
0.805790 0.000000 0.000000
0.907541 0.000000 0.000000
0.981687 0.000000 0.000000
1.000000 0.000000 0.000000
1.000000 0.000000 0.000000
1.000000 0.000000 0.000000
1.000000 0.000000 0.000000
1.000000 0.000000 0.000000
0.000000 0.135710 0.000000
0.001030 0.128412 0.000000
0.044899 0.121201 0.000000
0.109027 0.113919 0.000000
0.184148 0.103837 0.000000
0.286396 0.086565 0.000000
0.436025 0.056604 0.000000
0.611174 0.020050 0.000000
0.777034 0.001316 0.000000
0.889767 0.000000 0.000000
0.969638 0.000000 0.000000
1.000000 0.000000 0.000000
1.000000 0.000000 0.000000
1.000000 0.000000 0.000000
1.000000 0.000000 0.000000
1.000000 0.000000 0.000000
0.000000 0.186043 0.000000
0.000000 0.178887 0.000000
0.014615 0.172260 0.000000
0.078842 0.165559 0.000000
0.151672 0.157219 0.000000
0.249285 0.142825 0.000000
0.397908 0.115112 0.000000
0.576702 0.079821 0.000000
0.749585 0.046916 0.000000
0.875277 0.028006 0.000000
0.960305 0.021413 0.000000
1.000000 0.018425 0.000000
1.000000 0.017933 0.000000
1.000000 0.018551 0.000000
1.000000 0.020084 0.000000
1.000000 0.022554 0.000000
0.000000 0.245019 0.000000
0.000000 0.238589 0.000000
0.000831 0.232696 0.000000
0.038618 0.227216 0.000000
0.111137 0.220994 0.000000
0.203766 0.210140 0.000000
0.345443 0.187340 0.000000
0.531998 0.153491 0.000000
0.716558 0.121966 0.000000
0.861032 0.102810 0.000000
0.955367 0.098872 0.000000
1.000000 0.100658 0.000000
1.000000 0.103723 0.000000
1.000000 0.108742 0.000000
1.000000 0.115559 0.000000
1.000000 0.122844 0.000000
0.000000 0.318557 0.000000
0.000000 0.313669 0.000000
0.000000 0.309819 0.000000
0.001918 0.306652 0.000000
0.053455 0.303913 0.000000
0.142980 0.298491 0.000000
0.274864 0.282981 0.000000
0.462209 0.254370 0.000000
0.657660 0.225956 0.000000
0.831362 0.205103 0.000000
0.944201 0.202680 0.000000
1.000000 0.208275 0.000000
1.000000 0.215058 0.000000
1.000000 0.222957 0.000000
1.000000 0.230927 0.000000
1.000000 0.238811 0.000000
0.000000 0.408309 0.000000
0.000000 0.407185 0.000000
0.000000 0.407506 0.000000
0.000000 0.409429 0.000000
0.001117 0.411489 0.000000
0.071898 0.412580 0.000000
0.195864 0.406024 0.000000
0.374569 0.385418 0.000000
0.575526 0.360795 0.000000
0.771530 0.338765 0.000000
0.911143 0.332057 0.000000
0.993817 0.337466 0.000000
1.000000 0.343843 0.000000
1.000000 0.349863 0.000000
1.000000 0.356464 0.000000
1.000000 0.362899 0.000000
0.000000 0.513787 0.000000
0.000000 0.517694 0.000000
0.000000 0.523905 0.000000
0.000000 0.531045 0.000000
0.000000 0.538465 0.000000
0.020209 0.544723 0.000000
0.132751 0.543764 0.000000
0.297347 0.530053 0.000000
0.495939 0.507285 0.000000
0.695296 0.483521 0.000000
0.859578 0.469405 0.000000
0.966185 0.470130 0.000000
1.000000 0.475521 0.000000
1.000000 0.481264 0.000000
1.000000 0.486933 0.000000
1.000000 0.493867 0.000000
0.000000 0.636200 0.000000
0.000000 0.645809 0.000000
0.000000 0.655674 0.000000
0.000000 0.666192 0.000000
0.000000 0.675568 0.000000
0.000000 0.682033 0.000000
0.078803 0.682576 0.000000
0.227526 0.671961 0.000000
0.416142 0.650218 0.000000
0.614092 0.625982 0.000000
0.798267 0.605339 0.000000
0.921518 0.602123 0.000000
0.995933 0.607685 0.000000
1.000000 0.614234 0.000000
1.000000 0.621106 0.000000
1.000000 0.627473 0.000000
0.000000 0.763302 0.000000
0.000000 0.773599 0.000000
0.000000 0.783695 0.000000
0.000000 0.793064 0.000000
0.000000 0.801301 0.000000
0.000000 0.807779 0.000000
0.044581 0.809680 0.000000
0.176059 0.803933 0.000000
0.348157 0.787906 0.000000
0.541331 0.766431 0.000000
0.734358 0.745457 0.000000
0.876812 0.738012 0.000000
0.974687 0.741715 0.000000
1.000000 0.747248 0.000000
1.000000 0.751186 0.000000
1.000000 0.754300 0.000000
0.000000 0.876001 0.000000
0.000000 0.885380 0.000000
0.000000 0.894462 0.000000
0.000000 0.903527 0.000000
0.000000 0.912024 0.000000
0.000000 0.919118 0.000000
0.048869 0.923732 0.000000
0.169139 0.923020 0.000000
0.323968 0.912580 0.000000
0.508455 0.893372 0.000000
0.696528 0.871643 0.000000
0.850213 0.857655 0.000000
0.950390 0.856617 0.000000
1.000000 0.858055 0.000000
1.000000 0.858538 0.000000
1.000000 0.857207 0.000000
0.000000 0.980624 0.000000
0.000000 0.984156 0.000000
0.000000 0.988003 0.000000
0.000000 0.991949 0.000000
0.000000 0.995725 0.000000
0.000000 0.998922 0.000000
0.071615 1.000000 0.000000
0.182340 1.000000 0.000000
0.320707 0.996844 0.000000
0.494370 0.988561 0.000000
0.673999 0.973450 0.000000
0.834564 0.951831 0.000000
0.938548 0.943524 0.000000
0.997570 0.940872 0.000000
1.000000 0.937444 0.000000
1.000000 0.933104 0.000000
0.000000 1.000000 0.000000
0.000000 1.000000 0.000000
0.000000 1.000000 0.000000
0.000000 1.000000 0.000000
0.000000 1.000000 0.000000
0.004326 1.000000 0.000000
0.086563 1.000000 0.000000
0.187769 1.000000 0.000000
0.309798 1.000000 0.000000
0.471369 1.000000 0.000000
0.643939 1.000000 0.000000
0.809752 0.999744 0.000000
0.923105 0.997336 0.000000
0.993554 0.995870 0.000000
1.000000 0.994442 0.000000
1.000000 0.992473 0.000000
0.000000 1.000000 0.000000
0.000000 1.000000 0.000000
0.000000 1.000000 0.000000
0.000000 1.000000 0.000000
0.000000 1.000000 0.000000
0.006172 1.000000 0.000000
0.085272 1.000000 0.000000
0.178647 1.000000 0.000000
0.287081 1.000000 0.000000
0.433328 1.000000 0.000000
0.600872 1.000000 0.000000
0.768943 1.000000 0.000000
0.896456 1.000000 0.000000
0.978682 1.000000 0.000000
1.000000 1.000000 0.000000
1.000000 1.000000 0.000000
0.000000 1.000000 0.000000
0.000000 1.000000 0.000000
0.000000 1.000000 0.000000
0.000000 1.000000 0.000000
0.000000 1.000000 0.000000
0.000031 1.000000 0.000000
0.070617 1.000000 0.000000
0.159809 1.000000 0.000000
0.257071 1.000000 0.000000
0.387812 1.000000 0.000000
0.550342 1.000000 0.000000
0.716900 1.000000 0.000000
0.860846 1.000000 0.000000
0.952422 1.000000 0.000000
0.999343 1.000000 0.000000
1.000000 1.000000 0.000000
0.000000 0.004602 0.093262
0.053028 0.000000 0.085397
0.114059 0.000000 0.081010
0.174990 0.000000 0.086467
0.263143 0.000000 0.074177
0.387682 0.000000 0.050815
0.553168 0.000000 0.015849
0.731108 0.000000 0.000564
0.863406 0.000000 0.000000
0.947971 0.000000 0.000000
1.000000 0.000000 0.000000
1.000000 0.000000 0.000000
1.000000 0.000000 0.000000
1.000000 0.000000 0.000000
1.000000 0.000000 0.000000
1.000000 0.000000 0.000000
0.000000 0.057993 0.065171
0.021076 0.037209 0.060711
0.091363 0.027140 0.054858
0.154053 0.019003 0.052908
0.228065 0.007178 0.053964
0.344089 0.000733 0.032121
0.505924 0.000000 0.004604
0.685145 0.000000 0.000032
0.832231 0.000000 0.000000
0.925286 0.000000 0.000000
0.992380 0.000000 0.000000
1.000000 0.000000 0.000000
1.000000 0.000000 0.000000
1.000000 0.000000 0.000000
1.000000 0.000000 0.000000
1.000000 0.000000 0.000000
0.000000 0.086893 0.045294
0.006887 0.079247 0.038207
0.067156 0.071945 0.030876
0.133254 0.064468 0.021735
0.205229 0.054991 0.023680
0.304907 0.035002 0.011618
0.461474 0.006951 0.001037
0.640579 0.000000 0.000000
0.800359 0.000000 0.000000
0.904244 0.000000 0.000000
0.979563 0.000000 0.000000
1.000000 0.000000 0.000000
1.000000 0.000000 0.000000
1.000000 0.000000 0.000000
1.000000 0.000000 0.000000
1.000000 0.000000 0.000000
0.000000 0.132616 0.018641
0.000800 0.125292 0.012089
0.042201 0.118253 0.007697
0.106019 0.110927 0.003623
0.182774 0.101813 0.001129
0.277848 0.084815 0.001445
0.424785 0.055471 0.000060
0.601773 0.019012 0.000000
0.769819 0.000787 0.000000
0.885526 0.000000 0.000000
0.966566 0.000000 0.000000
1.000000 0.000000 0.000000
1.000000 0.000000 0.000000
1.000000 0.000000 0.000000
1.000000 0.000000 0.000000
1.000000 0.000000 0.000000
0.000000 0.182948 0.001631
0.000000 0.175932 0.001006
0.013177 0.169269 0.000659
0.076507 0.162721 0.000310
0.149229 0.154632 0.000000
0.245896 0.140548 0.000000
0.391658 0.113746 0.000000
0.568292 0.078984 0.000000
0.742235 0.046084 0.000000
0.870842 0.026871 0.000000
0.957476 0.020381 0.000000
1.000000 0.018072 0.000000
1.000000 0.017945 0.000000
1.000000 0.018717 0.000000
1.000000 0.020668 0.000000
1.000000 0.023462 0.000000
0.000000 0.242005 0.000000
0.000000 0.235580 0.000000
0.000689 0.230000 0.000000
0.037255 0.224658 0.000000
0.109758 0.218752 0.000000
0.202038 0.208373 0.000000
0.343068 0.186089 0.000000
0.529131 0.152968 0.000000
0.712251 0.121977 0.000000
0.858167 0.102821 0.000000
0.953906 0.099222 0.000000
1.000000 0.101279 0.000000
1.000000 0.105039 0.000000
1.000000 0.110419 0.000000
1.000000 0.117255 0.000000
1.000000 0.125225 0.000000
0.000000 0.315852 0.000000
0.000000 0.311245 0.000000
0.000000 0.307625 0.000000
0.001881 0.305080 0.000000
0.053407 0.302553 0.000000
0.142852 0.297560 0.000000
0.274810 0.282927 0.000000
0.462384 0.254806 0.000000
0.657877 0.226552 0.000000
0.832200 0.206523 0.000000
0.944957 0.204273 0.000000
1.000000 0.210097 0.000000
1.000000 0.217371 0.000000
1.000000 0.224877 0.000000
1.000000 0.233049 0.000000
1.000000 0.240881 0.000000
0.000000 0.406695 0.000000
0.000000 0.405730 0.000000
0.000000 0.406905 0.000000
0.000000 0.409121 0.000000
0.001160 0.411858 0.000000
0.073333 0.413551 0.000000
0.197245 0.407163 0.000000
0.376476 0.387322 0.000000
0.577557 0.362904 0.000000
0.773734 0.340576 0.000000
0.913870 0.334133 0.000000
0.995098 0.339001 0.000000
1.000000 0.345259 0.000000
1.000000 0.351878 0.000000
1.000000 0.358025 0.000000
1.000000 0.364520 0.000000
0.000000 0.513422 0.000000
0.000000 0.518386 0.000000
0.000000 0.524732 0.000000
0.000000 0.532321 0.000000
0.000000 0.540357 0.000000
0.021789 0.546318 0.000000
0.135217 0.545909 0.000000
0.299696 0.532387 0.000000
0.497679 0.508915 0.000000
0.697371 0.485410 0.000000
0.861749 0.470762 0.000000
0.968919 0.471606 0.000000
1.000000 0.477111 0.000000
1.000000 0.482284 0.000000
1.000000 0.488559 0.000000
1.000000 0.495378 0.000000
0.000000 0.637872 0.000000
0.000000 0.647397 0.000000
0.000000 0.657873 0.000000
0.000000 0.668130 0.000000
0.000000 0.677323 0.000000
0.000000 0.683906 0.000000
0.081000 0.684032 0.000000
0.229170 0.673384 0.000000
0.417807 0.651918 0.000000
0.615777 0.627545 0.000000
0.800514 0.606943 0.000000
0.924212 0.603672 0.000000
0.997051 0.609015 0.000000
1.000000 0.615993 0.000000
1.000000 0.622596 0.000000
1.000000 0.628875 0.000000
0.000000 0.765138 0.000000
0.000000 0.775690 0.000000
0.000000 0.785468 0.000000
0.000000 0.794815 0.000000
0.000000 0.803079 0.000000
0.000000 0.809091 0.000000
0.046527 0.811326 0.000000
0.177784 0.805897 0.000000
0.349392 0.789916 0.000000
0.543051 0.768678 0.000000
0.736238 0.747416 0.000000
0.879137 0.739463 0.000000
0.977316 0.743232 0.000000
1.000000 0.748116 0.000000
1.000000 0.751868 0.000000
1.000000 0.754653 0.000000
0.000000 0.878027 0.000000
0.000000 0.887087 0.000000
0.000000 0.896213 0.000000
0.000000 0.905262 0.000000
0.000000 0.913715 0.000000
0.000000 0.921333 0.000000
0.050949 0.925836 0.000000
0.170586 0.925061 0.000000
0.324915 0.914760 0.000000
0.508843 0.895103 0.000000
0.696854 0.873133 0.000000
0.851098 0.858632 0.000000
0.951224 0.856775 0.000000
1.000000 0.858031 0.000000
1.000000 0.857635 0.000000
1.000000 0.856047 0.000000
0.000000 0.981188 0.000000
0.000000 0.984794 0.000000
0.000000 0.988826 0.000000
0.000000 0.992780 0.000000
0.000000 0.996650 0.000000
0.000000 0.999609 0.000000
0.073130 1.000000 0.000000
0.182997 1.000000 0.000000
0.320083 0.997306 0.000000
0.492973 0.988964 0.000000
0.671981 0.973721 0.000000
0.833009 0.951441 0.000000
0.937809 0.942866 0.000000
0.997318 0.939504 0.000000
1.000000 0.935777 0.000000
1.000000 0.931303 0.000000
0.000000 1.000000 0.000000
0.000000 1.000000 0.000000
0.000000 1.000000 0.000000
0.000000 1.000000 0.000000
0.000000 1.000000 0.000000
0.004657 1.000000 0.000000
0.086482 1.000000 0.000000
0.186972 1.000000 0.000000
0.308372 1.000000 0.000000
0.468392 1.000000 0.000000
0.640293 1.000000 0.000000
0.806790 0.999627 0.000000
0.920694 0.996941 0.000000
0.993009 0.995353 0.000000
1.000000 0.993940 0.000000
1.000000 0.990087 0.000000
0.000000 1.000000 0.000000
0.000000 1.000000 0.000000
0.000000 1.000000 0.000000
0.000000 1.000000 0.000000
0.000000 1.000000 0.000000
0.005387 1.000000 0.000000
0.083921 1.000000 0.000000
0.177175 1.000000 0.000000
0.284212 1.000000 0.000000
0.429407 1.000000 0.000000
0.596558 1.000000 0.000000
0.764308 1.000000 0.000000
0.893395 1.000000 0.000000
0.976081 1.000000 0.000000
1.000000 1.000000 0.000000
1.000000 1.000000 0.000000
0.000000 1.000000 0.000000
0.000000 1.000000 0.000000
0.000000 1.000000 0.000000
0.000000 1.000000 0.000000
0.000000 1.000000 0.000000
0.000018 1.000000 0.000000
0.068417 1.000000 0.000000
0.157204 1.000000 0.000000
0.254017 1.000000 0.000000
0.383329 1.000000 0.000000
0.545427 1.000000 0.000000
0.711963 1.000000 0.000000
0.856908 1.000000 0.000000
0.949551 1.000000 0.000000
0.999009 1.000000 0.000000
1.000000 1.000000 0.000000
0.000000 0.000000 0.163973
0.049554 0.000000 0.155914
0.109614 0.000000 0.152387
0.170902 0.000000 0.155852
0.258195 0.000000 0.142992
0.381899 0.000000 0.118647
0.547093 0.000000 0.082792
0.725404 0.000000 0.043841
0.859661 0.000000 0.016908
0.944963 0.000000 0.006947
1.000000 0.000000 0.004240
1.000000 0.000000 0.001669
1.000000 0.000000 0.000000
1.000000 0.000000 0.000000
1.000000 0.000000 0.000000
1.000000 0.000000 0.000000
0.000000 0.054341 0.144437
0.006178 0.040983 0.133282
0.088158 0.023962 0.122059
0.151435 0.015850 0.118424
0.223971 0.005356 0.120380
0.338421 0.000497 0.098476
0.500191 0.000000 0.064241
0.679255 0.000000 0.025553
0.828089 0.000000 0.004785
0.922331 0.000000 0.000832
0.990487 0.000000 0.000000
1.000000 0.000000 0.000000
1.000000 0.000000 0.000000
1.000000 0.000000 0.000000
1.000000 0.000000 0.000000
1.000000 0.000000 0.000000
0.000000 0.083366 0.112034
0.000509 0.091231 0.106680
0.052847 0.072186 0.097213
0.132034 0.062186 0.087674
0.217951 0.053513 0.084668
0.298829 0.032789 0.078873
0.455462 0.006118 0.046936
0.634798 0.000000 0.010149
0.796133 0.000000 0.000370
0.901200 0.000000 0.000000
0.977887 0.000000 0.000000
1.000000 0.000000 0.000000
1.000000 0.000000 0.000000
1.000000 0.000000 0.000000
1.000000 0.000000 0.000000
1.000000 0.000000 0.000000
0.000000 0.129400 0.084963
0.000536 0.122742 0.078364
0.039302 0.115099 0.071697
0.104426 0.108705 0.064412
0.206315 0.108503 0.042222
0.273209 0.084868 0.052824
0.414842 0.054375 0.029686
0.593909 0.017631 0.004721
0.764164 0.000306 0.000000
0.882321 0.000000 0.000000
0.964238 0.000000 0.000000
1.000000 0.000000 0.000000
1.000000 0.000000 0.000000
1.000000 0.000000 0.000000
1.000000 0.000000 0.000000
1.000000 0.000000 0.000000
0.000000 0.179864 0.052006
0.000000 0.172792 0.046767
0.011661 0.166360 0.041896
0.074285 0.159940 0.036841
0.146667 0.152110 0.030458
0.242238 0.138844 0.019286
0.382374 0.112892 0.008357
0.559335 0.078360 0.000758
0.735265 0.045494 0.000000
0.867063 0.025846 0.000000
0.955130 0.019458 0.000000
1.000000 0.017843 0.000000
1.000000 0.018015 0.000000
1.000000 0.019170 0.000000
1.000000 0.021129 0.000000
1.000000 0.024645 0.000000
0.000000 0.238869 0.011583
0.000000 0.232842 0.009917
0.000529 0.227418 0.008313
0.035968 0.222263 0.006812
0.108423 0.216641 0.005242
0.200420 0.206731 0.003409
0.340686 0.184976 0.000410
0.524675 0.152618 0.000000
0.706664 0.122294 0.000000
0.855322 0.103221 0.000000
0.952521 0.099853 0.000000
1.000000 0.102149 0.000000
1.000000 0.106472 0.000000
1.000000 0.112112 0.000000
1.000000 0.119251 0.000000
1.000000 0.127385 0.000000
0.000000 0.313342 0.000000
0.000000 0.308885 0.000000
0.000000 0.305725 0.000000
0.001847 0.303451 0.000000
0.053457 0.301325 0.000000
0.143035 0.297092 0.000000
0.274717 0.282824 0.000000
0.462796 0.255391 0.000000
0.658526 0.227816 0.000000
0.831908 0.207931 0.000000
0.945376 0.206233 0.000000
1.000000 0.212246 0.000000
1.000000 0.219386 0.000000
1.000000 0.227429 0.000000
1.000000 0.235000 0.000000
1.000000 0.242610 0.000000
0.000000 0.405121 0.000000
0.000000 0.404898 0.000000
0.000000 0.406376 0.000000
0.000000 0.408918 0.000000
0.001833 0.412499 0.000000
0.074922 0.414461 0.000000
0.198926 0.408727 0.000000
0.378427 0.389273 0.000000
0.579499 0.364829 0.000000
0.776284 0.342772 0.000000
0.916532 0.336168 0.000000
0.996250 0.340750 0.000000
1.000000 0.347184 0.000000
1.000000 0.353328 0.000000
1.000000 0.359695 0.000000
1.000000 0.366199 0.000000
0.000000 0.513776 0.000000
0.000000 0.518927 0.000000
0.000000 0.525719 0.000000
0.000000 0.533975 0.000000
0.000000 0.541970 0.000000
0.023711 0.548507 0.000000
0.137575 0.547874 0.000000
0.301586 0.534289 0.000000
0.499903 0.511118 0.000000
0.699225 0.487111 0.000000
0.864027 0.472251 0.000000
0.971478 0.473140 0.000000
1.000000 0.478300 0.000000
1.000000 0.483974 0.000000
1.000000 0.490223 0.000000
1.000000 0.496899 0.000000
0.000000 0.639519 0.000000
0.000000 0.649442 0.000000
0.000000 0.659823 0.000000
0.000000 0.670041 0.000000
0.000000 0.679307 0.000000
0.000000 0.685513 0.000000
0.083464 0.685884 0.000000
0.231245 0.675376 0.000000
0.419283 0.653429 0.000000
0.617526 0.629300 0.000000
0.802819 0.608598 0.000000
0.927041 0.605281 0.000000
0.998234 0.610925 0.000000
1.000000 0.617530 0.000000
1.000000 0.624045 0.000000
1.000000 0.630507 0.000000
0.000000 0.767532 0.000000
0.000000 0.777461 0.000000
0.000000 0.787176 0.000000
0.000000 0.796615 0.000000
0.000000 0.804681 0.000000
0.000000 0.810821 0.000000
0.048465 0.812932 0.000000
0.179282 0.807598 0.000000
0.351052 0.792205 0.000000
0.544574 0.770739 0.000000
0.738204 0.749432 0.000000
0.881670 0.741202 0.000000
0.978877 0.744362 0.000000
1.000000 0.749133 0.000000
1.000000 0.752547 0.000000
1.000000 0.754546 0.000000
0.000000 0.879617 0.000000
0.000000 0.888852 0.000000
0.000000 0.898066 0.000000
0.000000 0.907054 0.000000
0.000000 0.915770 0.000000
0.000000 0.923195 0.000000
0.052907 0.927789 0.000000
0.172414 0.927321 0.000000
0.325551 0.916711 0.000000
0.509413 0.896955 0.000000
0.697129 0.874424 0.000000
0.851663 0.859271 0.000000
0.951986 0.856965 0.000000
1.000000 0.857720 0.000000
1.000000 0.856993 0.000000
1.000000 0.855139 0.000000
0.000000 0.981979 0.000000
0.000000 0.985629 0.000000
0.000000 0.989527 0.000000
0.000000 0.993686 0.000000
0.000000 0.997467 0.000000
0.000000 0.999890 0.000000
0.074494 1.000000 0.000000
0.183453 1.000000 0.000000
0.319734 0.997929 0.000000
0.491635 0.989414 0.000000
0.670256 0.974112 0.000000
0.831735 0.951207 0.000000
0.936674 0.941782 0.000000
0.997014 0.938171 0.000000
1.000000 0.934257 0.000000
1.000000 0.929249 0.000000
0.000000 1.000000 0.000000
0.000000 1.000000 0.000000
0.000000 1.000000 0.000000
0.000000 1.000000 0.000000
0.000000 1.000000 0.000000
0.004840 1.000000 0.000000
0.086585 1.000000 0.000000
0.186560 1.000000 0.000000
0.306238 1.000000 0.000000
0.465471 1.000000 0.000000
0.637056 1.000000 0.000000
0.803373 0.999467 0.000000
0.918535 0.996497 0.000000
0.992463 0.994884 0.000000
1.000000 0.993325 0.000000
1.000000 0.987719 0.000000
0.000000 1.000000 0.000000
0.000000 1.000000 0.000000
0.000000 1.000000 0.000000
0.000000 1.000000 0.000000
0.000000 1.000000 0.000000
0.004765 1.000000 0.000000
0.082708 1.000000 0.000000
0.175181 1.000000 0.000000
0.281632 1.000000 0.000000
0.425380 1.000000 0.000000
0.592123 1.000000 0.000000
0.760144 1.000000 0.000000
0.890192 1.000000 0.000000
0.973507 1.000000 0.000000
1.000000 1.000000 0.000000
1.000000 1.000000 0.000000
0.000000 1.000000 0.000000
0.000000 1.000000 0.000000
0.000000 1.000000 0.000000
0.000000 1.000000 0.000000
0.000000 1.000000 0.000000
0.000008 1.000000 0.000000
0.066003 1.000000 0.000000
0.154927 1.000000 0.000000
0.250787 1.000000 0.000000
0.379008 1.000000 0.000000
0.540874 1.000000 0.000000
0.706702 1.000000 0.000000
0.853100 1.000000 0.000000
0.946665 1.000000 0.000000
0.998633 1.000000 0.000000
1.000000 1.000000 0.000000
0.000000 0.000000 0.254551
0.044940 0.000000 0.244401
0.107652 0.000000 0.234318
0.173114 0.000000 0.229362
0.252846 0.000000 0.225299
0.374662 0.000000 0.199078
0.539905 0.000000 0.159949
0.718674 0.000000 0.117945
0.855217 0.000000 0.088309
0.941866 0.000000 0.073040
1.000000 0.000000 0.061711
1.000000 0.000000 0.051398
1.000000 0.000000 0.041511
1.000000 0.000000 0.032315
1.000000 0.000000 0.023734
1.000000 0.000000 0.015498
0.000000 0.033892 0.221013
0.020817 0.028128 0.212839
0.083907 0.019749 0.201642
0.147560 0.011821 0.195851
0.219439 0.003248 0.196609
0.332261 0.000354 0.173696
0.493324 0.000000 0.136981
0.672437 0.000000 0.096283
0.823508 0.000000 0.064178
0.919320 0.000000 0.047567
0.988721 0.000000 0.037067
1.000000 0.000000 0.027921
1.000000 0.000000 0.019298
1.000000 0.000000 0.012470
1.000000 0.000000 0.009226
1.000000 0.000000 0.006617
0.000000 0.079380 0.189406
0.000000 0.086174 0.193973
0.028561 0.074711 0.181206
0.124661 0.057530 0.162202
0.195651 0.047384 0.159082
0.293499 0.029928 0.150249
0.449352 0.005147 0.117090
0.628851 0.000000 0.078026
0.791371 0.000000 0.044484
0.898333 0.000000 0.026184
0.976045 0.000000 0.017027
1.000000 0.000000 0.011244
1.000000 0.000000 0.008417
1.000000 0.000000 0.005965
1.000000 0.000000 0.003844
1.000000 0.000000 0.002245
0.000000 0.125714 0.157926
0.000000 0.120407 0.151582
0.007040 0.126157 0.153446
0.089163 0.110111 0.137817
0.208687 0.108743 0.120033
0.300767 0.089181 0.118085
0.408504 0.052410 0.099416
0.588272 0.015746 0.062332
0.759808 0.000000 0.028534
0.879698 0.000000 0.011498
0.962268 0.000000 0.008079
1.000000 0.000000 0.005866
1.000000 0.000000 0.004113
1.000000 0.000000 0.002936
1.000000 0.000000 0.002324
1.000000 0.000000 0.002236
0.000000 0.176340 0.121783
0.000000 0.169639 0.116192
0.009230 0.163886 0.111287
0.071948 0.157043 0.105486
0.148367 0.151844 0.097573
0.283373 0.152696 0.071419
0.374779 0.113329 0.077618
0.551262 0.077655 0.047938
0.729372 0.044598 0.016515
0.863955 0.024630 0.006566
0.953452 0.018503 0.004256
1.000000 0.017644 0.003636
1.000000 0.018092 0.003656
1.000000 0.019451 0.004342
1.000000 0.021736 0.005586
1.000000 0.025795 0.007707
0.000000 0.235925 0.075668
0.000000 0.229901 0.072584
0.000373 0.224648 0.069805
0.034687 0.219825 0.067303
0.107048 0.214412 0.064448
0.198690 0.205052 0.058210
0.337767 0.184444 0.042661
0.517532 0.152910 0.022424
0.700570 0.123016 0.008606
0.851951 0.103478 0.002323
0.951157 0.100422 0.002062
1.000000 0.103210 0.003908
1.000000 0.107682 0.006353
1.000000 0.113909 0.009255
1.000000 0.121225 0.012519
1.000000 0.129295 0.019193
0.000000 0.310689 0.014973
0.000000 0.306502 0.014650
0.000000 0.303805 0.014629
0.001799 0.301896 0.015040
0.053714 0.300390 0.015586
0.143271 0.296553 0.015578
0.274777 0.282868 0.011824
0.463118 0.256032 0.003565
0.657672 0.229032 0.000371
0.830831 0.209831 0.000000
0.945252 0.208075 0.000000
1.000000 0.214209 0.000431
1.000000 0.221661 0.003676
1.000000 0.229370 0.008414
1.000000 0.237047 0.012701
1.000000 0.244703 0.020780
0.000000 0.403660 0.000000
0.000000 0.403853 0.000000
0.000000 0.405799 0.000000
0.000000 0.409108 0.000000
0.002522 0.412934 0.000000
0.076630 0.415513 0.000007
0.200661 0.410262 0.000004
0.380055 0.390905 0.000000
