example_ofxGpuLutCube/bin/data/ofxGpuLutCube/LUT/S3 (smooth desat_1).cube
LUT_3D_SIZE 16
0.059921 0.059921 0.059921
0.077914 0.070905 0.070671
0.102538 0.085482 0.081966
0.123891 0.100041 0.093735
0.145244 0.114613 0.107540
0.166568 0.125681 0.120949
0.187915 0.142354 0.133155
0.209262 0.156644 0.147726
0.230610 0.172857 0.162298
0.251921 0.183876 0.178271
0.269771 0.199616 0.194944
0.291993 0.216523 0.213019
0.311705 0.230394 0.226872
0.333753 0.245666 0.242150
0.355101 0.260237 0.259998
0.376342 0.278206 0.271234
0.088980 0.092252 0.081739
0.110109 0.106823 0.093035
0.131686 0.121161 0.107067
0.153068 0.132696 0.121270
0.174369 0.149599 0.133161
0.195716 0.161779 0.145552
0.215048 0.177429 0.162444
0.236386 0.190783 0.177109
0.256319 0.205463 0.193619
0.277419 0.221903 0.211621
0.297770 0.236786 0.226557
0.317809 0.250050 0.239917
0.341507 0.267205 0.256722
0.359620 0.281781 0.268387
0.381331 0.296374 0.282964
0.405520 0.310656 0.300063
0.118128 0.127710 0.107528
0.139040 0.139233 0.120999
0.160823 0.156437 0.132762
0.181787 0.170838 0.147738
0.203167 0.185926 0.162310
0.222154 0.197285 0.177029
0.242650 0.212199 0.193275
0.263499 0.228000 0.210938
0.283648 0.242992 0.225895
0.306661 0.259230 0.242138
0.327538 0.273797 0.258420
0.345944 0.288348 0.268658
0.368101 0.302926 0.283276
0.392028 0.317493 0.299965
0.413308 0.331997 0.312075
0.435078 0.346991 0.329438
0.144474 0.161209 0.130370
0.167954 0.175132 0.145128
0.186858 0.190034 0.162316
0.208304 0.204222 0.177013
0.228326 0.218233 0.193041
0.249720 0.233365 0.209522
0.268965 0.248637 0.224752
0.291807 0.264704 0.240824
0.313754 0.280575 0.256326
0.332540 0.295118 0.269131
0.355211 0.309696 0.283936
0.377720 0.324260 0.299115
0.399202 0.338218 0.312561
0.421810 0.354051 0.329133
0.445774 0.370584 0.344551
0.467932 0.383144 0.362059
0.172833 0.196433 0.162322
0.194293 0.210942 0.176933
0.215536 0.225576 0.192684
0.235940 0.240661 0.210034
0.255404 0.255404 0.224730
0.278074 0.271298 0.240647
0.299968 0.287351 0.256320
0.318701 0.301888 0.269106
0.341728 0.316466 0.284004
0.363507 0.330655 0.298794
0.386216 0.345561 0.312921
0.407564 0.360132 0.327881
0.431901 0.376946 0.344312
0.453762 0.389614 0.360882
0.477570 0.407174 0.376565
0.496412 0.420926 0.391243
0.200814 0.231190 0.191381
0.219981 0.243631 0.207282
0.241147 0.261474 0.224039
0.262682 0.276234 0.238850
0.283248 0.291200 0.253809
0.303198 0.306702 0.267741
0.326472 0.322757 0.282313
0.347820 0.335513 0.296962
0.370335 0.350007 0.311286
0.394018 0.366914 0.325991
0.415755 0.381875 0.341736
0.438184 0.396360 0.358338
0.461564 0.411545 0.374161
0.483063 0.427531 0.391308
0.505187 0.440855 0.406975
0.529015 0.457752 0.423872
0.227591 0.268246 0.224033
0.248984 0.282863 0.238704
0.269309 0.297814 0.253464
0.289908 0.313747 0.267747
0.312926 0.329622 0.282319
0.334992 0.343170 0.298058
0.357863 0.357863 0.312701
0.380472 0.373696 0.325985
0.402473 0.388921 0.341964
0.425409 0.403665 0.358644
0.448485 0.418794 0.374622
0.469542 0.434074 0.391302
0.491816 0.448077 0.407001
0.515551 0.464616 0.423960
0.538213 0.480502 0.439846
0.563057 0.498570 0.457914
0.255051 0.304117 0.253182
0.274529 0.318692 0.266227
0.299131 0.336297 0.282325
0.320728 0.349326 0.296569
0.342511 0.362839 0.311110
0.365808 0.379360 0.325979
0.388273 0.395049 0.341211
0.409598 0.407963 0.355986
0.433577 0.424150 0.373215
0.454167 0.439849 0.389542
0.476514 0.453277 0.405845
0.500296 0.469658 0.422226
0.523347 0.485930 0.438498
0.546335 0.502098 0.454666
0.569557 0.518429 0.472671
0.590817 0.533039 0.487524
0.285834 0.343546 0.282331
0.307182 0.356139 0.296778
0.330398 0.371054 0.312631
0.351847 0.385727 0.325973
0.374727 0.401831 0.341049
0.397756 0.416215 0.357386
0.420926 0.431668 0.373956
0.440379 0.446261 0.389524
0.463812 0.461072 0.406864
0.486660 0.476352 0.422144
0.509789 0.492702 0.438494
0.533011 0.509114 0.454906
0.557681 0.526662 0.474361
0.577529 0.539891 0.487355
0.600366 0.556207 0.501999
0.625319 0.574336 0.520129
0.314983 0.375967 0.309324
0.336514 0.390721 0.324659
0.359936 0.407368 0.340545
0.382486 0.421039 0.355392
0.405765 0.436662 0.372175
0.426122 0.452268 0.389164
0.448619 0.466823 0.405265
0.471374 0.481380 0.420397
0.495484 0.498708 0.437724
0.518846 0.515288 0.454305
0.542441 0.531401 0.472556
0.563195 0.545739 0.486183
0.586478 0.562646 0.501663
0.609740 0.579133 0.518149
0.636731 0.599263 0.538280
0.659634 0.615386 0.554402
0.346438 0.414197 0.340539
0.369083 0.427731 0.355350
0.392484 0.443448 0.372185
0.412798 0.459271 0.389865
0.435295 0.473599 0.405520
0.459373 0.489720 0.421960
0.482206 0.505770 0.438011
0.505117 0.521899 0.454139
0.529974 0.538884 0.473492
0.549734 0.552521 0.485947
0.573087 0.569584 0.501824
0.597827 0.587503 0.519744
0.622939 0.605812 0.538052
0.646005 0.622096 0.554336
0.670940 0.642513 0.574753
0.689929 0.656037 0.588278
0.376695 0.447727 0.369687
0.398942 0.465808 0.387764
0.419744 0.478149 0.403486
0.443511 0.494197 0.419661
0.466297 0.510201 0.435665
0.489824 0.526968 0.452432
0.514765 0.542536 0.470570
0.534079 0.557170 0.483580
0.557548 0.574373 0.499837
0.581901 0.591949 0.517414
0.606752 0.610024 0.535489
0.631651 0.628099 0.553564
0.653904 0.645661 0.571125
0.675357 0.661680 0.587145
0.699040 0.676138 0.606636
0.721360 0.693296 0.625848
0.405843 0.484352 0.402340
0.430046 0.501072 0.419761
0.452332 0.516671 0.435360
0.476767 0.534233 0.452921
0.501062 0.549692 0.471202
0.520294 0.563516 0.482905
0.543738 0.580890 0.499578
0.568589 0.598965 0.517653
0.593440 0.617040 0.535728
0.618053 0.634835 0.553523
0.641051 0.652956 0.571645
0.662434 0.669023 0.587711
0.685276 0.682459 0.606264
0.707791 0.699938 0.625621
0.731848 0.718249 0.644029
0.753312 0.735759 0.661526
0.438496 0.523080 0.434992
0.462912 0.540719 0.452631
0.487741 0.555726 0.470675
0.504082 0.570297 0.482677
0.530425 0.587905 0.499818
0.553252 0.603904 0.515817
0.578305 0.622234 0.534146
0.603395 0.640511 0.552423
0.626799 0.658788 0.570701
0.648140 0.675057 0.586970
0.671512 0.688777 0.605829
0.691987 0.704259 0.623066
0.715686 0.722368 0.641298
0.737438 0.740070 0.659057
0.761884 0.758581 0.683252
0.786198 0.776180 0.702157
0.474418 0.562508 0.470915
0.492512 0.577079 0.482232
0.516911 0.594921 0.500058
0.539161 0.610121 0.515258
0.566644 0.630895 0.536032
0.589280 0.646732 0.551869
0.613109 0.665119 0.570255
0.634485 0.681792 0.586929
0.657686 0.695032 0.605267
0.678597 0.710933 0.622845
0.704164 0.731190 0.643390
0.724359 0.747085 0.659290
0.748104 0.765112 0.682561
0.772924 0.783640 0.702382
0.797791 0.801295 0.720535
0.819348 0.819313 0.738554
0.500121 0.598203 0.496563
0.525206 0.616481 0.514842
0.549828 0.634411 0.532771
0.575392 0.653183 0.551543
0.598609 0.670566 0.568927
0.620896 0.688632 0.586993
0.642255 0.699716 0.601599
0.665452 0.717774 0.623107
0.688434 0.735850 0.641218
0.709765 0.752502 0.657958
0.734628 0.772000 0.682052
0.758519 0.789150 0.701572
0.783600 0.807449 0.719914
0.805696 0.825758 0.738223
0.830279 0.844149 0.756531
0.851829 0.858837 0.771301
0.063658 0.063658 0.070434
0.085223 0.078011 0.081284
0.106820 0.089692 0.095326
0.128334 0.107113 0.107004
0.151445 0.120710 0.118119
0.172675 0.132923 0.131367
0.195098 0.147493 0.145810
0.214871 0.162064 0.161676
0.235873 0.178146 0.176363
0.256956 0.191174 0.190890
0.277042 0.205751 0.209021
0.295733 0.220326 0.223537
0.318831 0.237519 0.240912
0.340605 0.252517 0.255717
0.359056 0.267468 0.270750
0.383352 0.281979 0.285216
0.092801 0.096213 0.095538
0.114285 0.113619 0.106605
0.138344 0.127759 0.118080
0.157007 0.137088 0.129312
0.179114 0.151877 0.143928
0.199601 0.168851 0.159526
0.220935 0.183327 0.174392
0.241919 0.194648 0.189582
0.261799 0.210993 0.208910
0.282524 0.225218 0.223548
0.302760 0.241777 0.238266
0.324007 0.256419 0.252915
0.343461 0.271600 0.268092
0.366638 0.288629 0.281813
0.387793 0.302773 0.296609
0.409530 0.314667 0.313945
0.124778 0.134281 0.117652
0.143442 0.143405 0.129120
0.167580 0.161030 0.146386
0.185909 0.175460 0.158930
0.207247 0.189794 0.174098
0.228060 0.202220 0.191056
0.247859 0.217275 0.208870
0.269157 0.232410 0.223450
0.290605 0.249949 0.239738
0.310296 0.263144 0.252874
0.330666 0.278929 0.268267
0.353090 0.295442 0.281807
0.374424 0.309553 0.296732
0.396596 0.322061 0.313751
0.420428 0.339117 0.325257
0.442378 0.354290 0.340449
0.151014 0.164989 0.143686
0.172362 0.182233 0.158485
0.193329 0.196334 0.173490
0.214445 0.208118 0.190861
0.233318 0.223077 0.208096
0.255864 0.239674 0.223488
0.275508 0.255180 0.238122
0.295382 0.268605 0.252967
0.317926 0.286217 0.268565
0.338393 0.301134 0.281725
0.360170 0.315418 0.296985
0.382746 0.328538 0.312687
0.406505 0.345522 0.324904
0.426523 0.358764 0.340478
0.453052 0.377843 0.357924
0.472346 0.387598 0.370528
0.180163 0.202805 0.173707
0.200544 0.214919 0.191564
0.220028 0.230132 0.208486
0.241762 0.246128 0.222775
0.261321 0.261321 0.238128
0.282997 0.276532 0.252699
0.304491 0.292890 0.268760
0.324087 0.307188 0.281670
0.347310 0.322712 0.296837
0.368662 0.334782 0.311439
0.392044 0.351388 0.324613
0.414825 0.367393 0.340038
0.438261 0.383293 0.356855
0.458458 0.394268 0.370458
0.483778 0.413609 0.390534
0.501084 0.425614 0.405091
0.203383 0.235939 0.203307
0.225970 0.250744 0.220282
0.245222 0.265550 0.235886
0.267659 0.281227 0.252581
0.289297 0.297884 0.266886
0.308895 0.312437 0.280455
0.331383 0.326945 0.295315
0.355032 0.341480 0.309761
0.376949 0.356622 0.323095
0.399348 0.372244 0.339472
0.422647 0.387962 0.354641
0.444835 0.401233 0.370658
0.467217 0.417405 0.387655
0.487660 0.432430 0.404731
0.512361 0.448090 0.420837
0.534935 0.463825 0.436721
0.231364 0.272020 0.235944
0.254160 0.288133 0.252580
0.275851 0.304666 0.266984
0.295776 0.319603 0.281327
0.318626 0.334246 0.296257
0.341500 0.348276 0.309524
0.363669 0.363669 0.323339
0.386675 0.379900 0.339984
0.409090 0.394746 0.355275
0.431272 0.408203 0.370861
0.453893 0.424653 0.388140
0.474691 0.439758 0.404857
0.498579 0.454880 0.420598
0.522216 0.471391 0.437511
0.545319 0.487603 0.453723
0.568911 0.503036 0.470544
0.262342 0.311448 0.267138
0.281677 0.324454 0.279898
0.303333 0.339084 0.294573
0.325261 0.352365 0.307805
0.349329 0.369657 0.322388
0.370665 0.384217 0.337107
0.394348 0.400469 0.353479
0.416798 0.414288 0.369178
0.439173 0.430505 0.386381
0.459482 0.444905 0.401829
0.483784 0.460521 0.419269
0.505755 0.475125 0.434469
0.528402 0.491009 0.450354
0.553588 0.508000 0.468762
0.575271 0.522484 0.483681
0.596213 0.538503 0.497865
0.291443 0.347289 0.296239
0.312680 0.360112 0.308937
0.335776 0.376432 0.322219
0.357501 0.391381 0.337201
0.381889 0.408494 0.354633
0.403245 0.421157 0.369175
0.425334 0.437235 0.386275
0.446010 0.451848 0.402539
0.470098 0.467286 0.419124
0.492209 0.481896 0.434464
0.516515 0.499431 0.452000
0.540276 0.515052 0.468990
0.561738 0.529457 0.483707
0.582935 0.545561 0.498338
0.607691 0.563531 0.516100
0.632583 0.581647 0.534216
0.320823 0.381806 0.321899
0.343572 0.397779 0.336604
0.366620 0.413771 0.353190
0.389696 0.427968 0.369170
0.411080 0.443558 0.385860
0.430998 0.457401 0.400420
0.454707 0.472316 0.417303
0.477515 0.488590 0.434382
0.501108 0.504363 0.450155
0.525528 0.520761 0.467815
0.548264 0.536367 0.483795
0.567890 0.550439 0.496606
0.592221 0.568349 0.514141
0.617059 0.586452 0.532244
0.642010 0.604626 0.550418
0.665488 0.621328 0.567120
0.353553 0.421312 0.353449
0.376152 0.434721 0.369164
0.397551 0.450590 0.386100
0.418919 0.465759 0.402036
0.442602 0.480512 0.418709
0.463522 0.495331 0.434347
0.487458 0.511042 0.450058
0.512375 0.528093 0.468199
0.534848 0.543215 0.483946
0.555823 0.558648 0.498132
0.580389 0.576885 0.515901
0.603378 0.593097 0.532113
0.628313 0.611256 0.550272
0.653254 0.629415 0.568432
0.675775 0.647574 0.586590
0.696038 0.659789 0.601174
0.383854 0.455057 0.383710
0.402855 0.469629 0.398517
0.426180 0.484466 0.415895
0.448701 0.501319 0.433559
0.472172 0.516735 0.448975
0.496800 0.533891 0.466188
0.519888 0.549370 0.483529
0.540458 0.563959 0.496698
0.564339 0.581118 0.513359
0.589197 0.599231 0.531471
0.614055 0.617325 0.549565
0.638226 0.634721 0.566961
0.660509 0.652799 0.585040
0.682528 0.666696 0.601217
0.706298 0.682508 0.620620
0.728655 0.700617 0.639856
0.412389 0.490893 0.415656
0.434630 0.508098 0.433562
0.458973 0.523790 0.449255
0.484016 0.540931 0.466956
0.506729 0.556147 0.483682
0.526625 0.570312 0.496245
0.551014 0.588133 0.513598
0.575500 0.605866 0.531331
0.600404 0.624002 0.549466
0.624261 0.641085 0.566549
0.647408 0.660259 0.585723
0.668276 0.672948 0.600517
0.692579 0.689202 0.620324
0.714129 0.706637 0.639037
0.738456 0.724904 0.657392
0.757941 0.740482 0.672971
0.445275 0.530289 0.448978
0.467293 0.545087 0.463789
0.494066 0.562948 0.484276
0.511136 0.575106 0.494169
0.535463 0.592921 0.511610
0.560211 0.610912 0.529600
0.585583 0.629510 0.548199
0.608978 0.646128 0.564816
0.630935 0.664348 0.583036
0.653302 0.678580 0.599094
0.676778 0.693702 0.617888
0.698088 0.711165 0.636807
0.722847 0.729623 0.655378
0.744279 0.747379 0.673095
0.768461 0.765456 0.696664
0.793388 0.783482 0.716233
0.481291 0.569515 0.484703
0.496675 0.581050 0.493181
0.521518 0.599315 0.511227
0.546420 0.617451 0.529363
0.571448 0.635703 0.547615
0.596527 0.654001 0.565914
0.618328 0.672302 0.584215
0.639965 0.685868 0.599309
0.663212 0.700431 0.617628
0.684537 0.718180 0.637065
0.709151 0.736255 0.655233
0.730670 0.754326 0.673272
0.755347 0.772601 0.697907
0.780171 0.790536 0.716476
0.804878 0.808401 0.734418
0.826535 0.826610 0.752627
0.507362 0.605497 0.510634
0.532236 0.623591 0.528727
0.557080 0.641653 0.546790
0.581944 0.659747 0.564884
0.603321 0.677822 0.582958
0.626805 0.693406 0.599701
0.649516 0.706983 0.617166
0.670723 0.723168 0.635334
0.694151 0.741583 0.653774
0.716952 0.759831 0.671978
0.740705 0.778298 0.695073
0.764915 0.796449 0.715670
0.790923 0.814762 0.734003
0.809469 0.830070 0.749311
0.834292 0.848154 0.767394
0.859076 0.866166 0.785406
0.070431 0.070431 0.080947
0.092252 0.081967 0.092217
0.113531 0.096943 0.103420
0.135566 0.111717 0.117582
0.156288 0.124404 0.131204
0.177635 0.139032 0.143203
0.200805 0.154583 0.157775
0.220289 0.169347 0.173966
0.241636 0.181790 0.190172
0.260653 0.196159 0.206592
0.283971 0.213019 0.223068
0.302002 0.226636 0.237490
0.323458 0.242147 0.252192
0.347442 0.259355 0.269806
0.365929 0.274569 0.281275
0.386893 0.288842 0.295302
0.100047 0.103320 0.103010
0.118344 0.114727 0.116930
0.142364 0.131613 0.131096
0.163903 0.143686 0.140593
0.185380 0.159025 0.157609
0.206133 0.173691 0.172222
0.226002 0.188977 0.188306
0.245965 0.201632 0.201994
0.268730 0.217931 0.221264
0.286423 0.231053 0.235454
0.307857 0.246873 0.252052
0.331017 0.263494 0.266737
0.349159 0.278184 0.280808
0.371047 0.292984 0.295463
0.395020 0.307150 0.309985
0.416703 0.321840 0.321705
0.129134 0.138361 0.131213
0.150156 0.150256 0.140323
0.174107 0.167500 0.157427
0.192469 0.180312 0.172377
0.211995 0.195850 0.187590
0.233959 0.208373 0.203799
0.254515 0.224288 0.220986
0.273178 0.237859 0.235941
0.294726 0.254070 0.251965
0.317199 0.270241 0.266688
0.335646 0.284967 0.280964
0.357984 0.300061 0.295423
0.381596 0.314444 0.309964
0.403380 0.328844 0.322645
0.427268 0.345956 0.339348
0.449064 0.360977 0.354458
0.158171 0.171576 0.157403
0.178581 0.186881 0.172307
0.197962 0.202438 0.187040
0.220298 0.215356 0.202353
0.239886 0.229850 0.219968
0.260061 0.244593 0.236383
0.281668 0.261340 0.252025
0.301932 0.275537 0.265205
0.322095 0.290576 0.280858
0.343949 0.306382 0.294470
0.367208 0.320710 0.309204
0.389554 0.335347 0.322474
0.413331 0.352347 0.338970
0.432870 0.365029 0.352201
0.457333 0.382096 0.369358
0.478913 0.394792 0.384451
0.184710 0.209727 0.186860
0.206283 0.221158 0.201514
0.226363 0.236515 0.220219
0.246201 0.251150 0.236031
0.267860 0.267860 0.251392
0.289325 0.282950 0.266385
0.308395 0.298371 0.280540
0.329739 0.312482 0.293383
0.353271 0.327366 0.308640
0.375800 0.341920 0.322516
0.398762 0.358106 0.338008
0.421092 0.373661 0.353778
0.443478 0.388062 0.370737
0.464947 0.401265 0.384160
0.486339 0.418288 0.401337
0.508387 0.432557 0.416741
0.209520 0.240852 0.217168
0.230806 0.257612 0.234149
0.252163 0.272490 0.248925
0.273619 0.287530 0.264507
0.294492 0.303033 0.279814
0.316089 0.318528 0.292344
0.338147 0.332773 0.307540
0.360498 0.346946 0.321966
0.383652 0.363324 0.336492
0.405662 0.378558 0.352090
0.429330 0.394282 0.368623
0.451178 0.407874 0.384005
0.472584 0.424559 0.400862
0.493903 0.438254 0.415857
0.518523 0.453959 0.433631
0.540080 0.468762 0.448434
0.238605 0.279260 0.248653
0.259909 0.294059 0.264583
0.281032 0.309905 0.279618
0.302647 0.326199 0.292707
0.325371 0.340464 0.308368
0.347957 0.354733 0.322794
0.370174 0.370174 0.336744
0.392065 0.385289 0.352209
0.416137 0.401184 0.368582
0.437707 0.414712 0.384076
0.459712 0.431767 0.401324
0.481225 0.445712 0.416752
0.504845 0.460624 0.433520
0.526592 0.475612 0.448508
0.552470 0.494681 0.467577
0.576056 0.510271 0.484573
0.265869 0.315185 0.277750
0.287292 0.331268 0.290575
0.310448 0.345947 0.306848
0.332093 0.359197 0.320091
0.355234 0.375562 0.335829
0.376692 0.390244 0.350573
0.399939 0.405065 0.366757
0.422933 0.419528 0.382969
0.444507 0.436857 0.399572
0.465583 0.450393 0.414741
0.488697 0.465803 0.431923
0.511576 0.482147 0.448267
0.535660 0.498267 0.464388
0.560464 0.515005 0.482577
0.582096 0.529575 0.497570
0.603437 0.545725 0.511846
0.296902 0.352745 0.306873
0.319658 0.367090 0.321041
0.341440 0.382095 0.336010
0.363397 0.397277 0.350959
0.386543 0.411778 0.367213
0.409418 0.426321 0.383080
0.431030 0.443597 0.399585
0.453056 0.457960 0.415766
0.476368 0.473706 0.433050
0.498476 0.489039 0.448383
0.522673 0.505610 0.464954
0.547307 0.521750 0.482967
0.568116 0.536338 0.497322
0.589962 0.552573 0.511917
0.614929 0.570761 0.530105
0.639836 0.588889 0.548233
0.325966 0.386950 0.334608
0.349517 0.403724 0.350582
0.372176 0.417499 0.366732
0.393889 0.431091 0.381117
0.417557 0.450082 0.399136
0.437716 0.462715 0.414005
0.461057 0.478606 0.431174
0.484034 0.494644 0.447212
0.508379 0.511644 0.464213
0.531549 0.526664 0.480606
0.553395 0.542827 0.496395
0.574423 0.557679 0.510247
0.599367 0.575520 0.528089
0.624150 0.593538 0.546107
0.649267 0.611873 0.564441
0.670653 0.628570 0.581138
0.358618 0.424041 0.367183
0.382367 0.439861 0.383089
0.404218 0.457275 0.399830
0.423935 0.469029 0.413778
0.448994 0.486683 0.432476
0.470415 0.501125 0.446917
0.494644 0.518239 0.464032
0.519447 0.535131 0.482183
0.539841 0.549734 0.496696
0.560784 0.564440 0.510232
0.587062 0.583532 0.529325
0.610644 0.600355 0.546147
0.635580 0.618515 0.564307
0.657466 0.635655 0.581448
0.681545 0.654364 0.600156
0.703125 0.666909 0.615354
0.388572 0.462173 0.397686
0.409282 0.474472 0.412553
0.433106 0.490631 0.429647
0.455754 0.506619 0.445636
0.479475 0.523402 0.462418
0.504079 0.540143 0.480244
0.524122 0.555376 0.494841
0.546771 0.570772 0.509789
0.571621 0.588409 0.527426
0.595445 0.605462 0.544478
0.621215 0.624482 0.563498
0.643607 0.641986 0.581002
0.666734 0.659771 0.598787
0.688924 0.672801 0.614388
0.711087 0.689650 0.634870
0.732428 0.705314 0.651342
0.419714 0.497522 0.429762
0.441943 0.512981 0.445221
0.465913 0.530168 0.462409
0.491189 0.547795 0.480895
0.510009 0.562239 0.494735
0.533396 0.577334 0.509990
0.558253 0.595357 0.527598
0.582579 0.612954 0.545194
0.607689 0.631277 0.563517
0.629723 0.648223 0.580463
0.653836 0.667154 0.599395
0.674793 0.678763 0.614090
0.696901 0.695627 0.634194
0.720968 0.713570 0.652828
0.743097 0.732161 0.671481
0.764987 0.747555 0.687555
0.452195 0.536779 0.462244
0.474618 0.552159 0.477826
0.495878 0.567086 0.495006
0.517613 0.582234 0.507699
0.542721 0.600185 0.525650
0.566493 0.617151 0.542615
0.592435 0.636316 0.561780
0.616076 0.653411 0.578875
0.637861 0.671522 0.596987
0.659424 0.683487 0.611992
0.683630 0.700701 0.632771
0.705343 0.718470 0.650963
0.728841 0.735941 0.668439
0.751485 0.754586 0.687771
0.773324 0.772509 0.711249
0.800337 0.790691 0.730259
0.481780 0.576405 0.495093
0.503685 0.588282 0.507164
0.528576 0.606374 0.525062
0.553728 0.624701 0.543390
0.578758 0.642954 0.561642
0.602588 0.660210 0.578899
0.625436 0.679422 0.598111
0.645623 0.689779 0.611744
0.670044 0.707395 0.632891
0.691800 0.725463 0.651190
0.716161 0.743556 0.669285
0.737953 0.761593 0.687938
0.759690 0.779015 0.711384
0.787250 0.797717 0.730509
0.809087 0.815648 0.748436
0.833591 0.833832 0.766614
0.514615 0.612738 0.524651
0.539545 0.630833 0.542745
0.564398 0.648915 0.560827
0.589160 0.667060 0.578972
0.610626 0.685128 0.597041
0.629603 0.695898 0.609276
0.656328 0.713940 0.632878
0.676274 0.730448 0.649416
0.701082 0.748760 0.667728
0.722944 0.767076 0.686589
0.745996 0.785388 0.711336
0.770514 0.801147 0.727164
0.795029 0.821650 0.747652
0.816756 0.837323 0.763340
0.841612 0.855400 0.781417
0.866364 0.873372 0.799389
0.074726 0.074726 0.091478
0.096240 0.088559 0.105799
0.119772 0.103314 0.117006
0.141513 0.117653 0.128110
0.163366 0.129418 0.141751
0.184882 0.143989 0.157016
0.205943 0.160242 0.171799
0.224067 0.174402 0.184503
0.248545 0.187662 0.202242
0.265325 0.201959 0.217899
0.287612 0.216768 0.235449
0.308446 0.233910 0.250721
0.330028 0.248717 0.266087
0.348418 0.260938 0.280191
0.373171 0.281162 0.295317
0.391182 0.293046 0.306324
0.104019 0.107945 0.114251
0.125368 0.121630 0.127464
0.147073 0.133366 0.141658
0.168521 0.150244 0.154309
0.189906 0.165374 0.169267
0.210363 0.179710 0.183099
0.231685 0.191107 0.199754
0.249876 0.207101 0.216181
0.272630 0.223315 0.233711
0.292317 0.238110 0.248233
0.313743 0.252790 0.263835
0.335403 0.268358 0.280140
0.355688 0.284659 0.291888
0.377801 0.299411 0.306607
0.401723 0.313636 0.324056
0.423799 0.328935 0.335607
0.132933 0.139852 0.141586
0.154509 0.156977 0.153927
0.175940 0.172062 0.168707
0.196968 0.186672 0.183874
0.218449 0.198779 0.201015
0.236415 0.214306 0.216390
0.259252 0.230077 0.233593
0.278772 0.244892 0.248363
0.300287 0.259681 0.264286
0.322125 0.275526 0.279974
0.342789 0.291982 0.292652
0.364411 0.306468 0.307370
0.387807 0.320048 0.323404
0.409934 0.335399 0.335746
0.432079 0.350767 0.352777
0.455981 0.367431 0.367956
0.162082 0.178835 0.168306
0.183416 0.192753 0.183578
0.204011 0.204944 0.200700
0.223107 0.221525 0.216673
0.245938 0.236953 0.233599
0.263357 0.249805 0.246637
0.286601 0.266329 0.263352
0.307651 0.281517 0.278618
0.327918 0.297550 0.292096
0.349311 0.310596 0.305460
0.373895 0.326463 0.322807
0.393934 0.339726 0.333715
0.416404 0.355420 0.350638
0.440116 0.371746 0.365345
0.462287 0.384421 0.382856
0.485422 0.401294 0.397928
0.190220 0.211985 0.201145
0.208990 0.227778 0.216072
0.231751 0.243006 0.232778
0.249886 0.256662 0.246474
0.272977 0.273027 0.264440
0.293253 0.287586 0.277635
0.314014 0.303525 0.291829
0.336747 0.317892 0.306380
0.359461 0.332357 0.321763
0.380056 0.346176 0.333768
0.404537 0.363881 0.351450
0.426081 0.377965 0.365441
0.448382 0.391177 0.382130
0.471920 0.408356 0.398231
0.492875 0.424243 0.415315
0.515620 0.437602 0.430804
0.215619 0.247163 0.230083
0.235658 0.262762 0.245857
0.258796 0.279124 0.262442
0.279543 0.294361 0.277398
0.299285 0.308895 0.290875
0.321579 0.323308 0.304823
0.344807 0.338031 0.320347
0.366134 0.352582 0.333546
0.389192 0.368864 0.349533
0.411399 0.383595 0.364256
0.435079 0.398463 0.382028
0.456992 0.413730 0.396665
0.479167 0.430427 0.414669
0.500899 0.443498 0.429633
0.524742 0.460316 0.446764
0.545011 0.473767 0.460215
0.245515 0.286171 0.262688
0.265820 0.301136 0.277274
0.286016 0.315665 0.291347
0.309569 0.330654 0.306387
0.331251 0.344803 0.320379
0.352586 0.359362 0.333592
0.375923 0.375923 0.349408
0.398786 0.391356 0.365154
0.421664 0.405572 0.381850
0.443864 0.420962 0.397283
0.465569 0.437531 0.414912
0.487094 0.450269 0.429378
0.510913 0.466974 0.446646
0.533582 0.482869 0.462541
0.558578 0.500604 0.480538
0.578624 0.514818 0.494921
0.271491 0.322108 0.290183
0.292950 0.336349 0.302996
0.314660 0.349835 0.318842
0.337543 0.364647 0.333525
0.360384 0.380712 0.347040
0.383447 0.396890 0.363375
0.406582 0.410955 0.379797
0.428627 0.426040 0.395410
