example_ofxGpuLutCube/bin/data/ofxGpuLutCube/LUT/S3 (smooth desat_1).cube
LUT_3D_SIZE 6
0.059921 0.059921 0.059921
0.123891 0.100041 0.093735
0.187915 0.142354 0.133155
0.251921 0.183876 0.178271
0.311705 0.230394 0.226872
0.376342 0.278206 0.271234
0.144474 0.161209 0.130370
0.208304 0.204222 0.177013
0.268965 0.248637 0.224752
0.332540 0.295118 0.269131
0.399202 0.338218 0.312561
0.467932 0.383144 0.362059
0.227591 0.268246 0.224033
0.289908 0.313747 0.267747
0.357863 0.357863 0.312701
0.425409 0.403665 0.358644
0.491816 0.448077 0.407001
0.563057 0.498570 0.457914
0.314983 0.375967 0.309324
0.382486 0.421039 0.355392
0.448619 0.466823 0.405265
0.518846 0.515288 0.454305
0.586478 0.562646 0.501663
0.659634 0.615386 0.554402
0.405843 0.484352 0.402340
0.476767 0.534233 0.452921
0.543738 0.580890 0.499578
0.618053 0.634835 0.553523
0.685276 0.682459 0.606264
0.753312 0.735759 0.661526
0.500121 0.598203 0.496563
0.575392 0.653183 0.551543
0.642255 0.699716 0.601599
0.709765 0.752502 0.657958
0.783600 0.807449 0.719914
0.851829 0.858837 0.771301
0.074726 0.074726 0.091478
0.141513 0.117653 0.128110
0.205943 0.160242 0.171799
0.265325 0.201959 0.217899
0.330028 0.248717 0.266087
0.391182 0.293046 0.306324
0.162082 0.178835 0.168306
0.223107 0.221525 0.216673
0.286601 0.266329 0.263352
0.349311 0.310596 0.305460
0.416404 0.355420 0.350638
0.485422 0.401294 0.397928
0.245515 0.286171 0.262688
0.309569 0.330654 0.306387
0.375923 0.375923 0.349408
0.443864 0.420962 0.397283
0.510913 0.466974 0.446646
0.578624 0.514818 0.494921
0.333292 0.394275 0.346530
0.400838 0.438353 0.394179
0.468081 0.485154 0.444498
0.537327 0.533036 0.494424
0.606680 0.582791 0.542135
0.677957 0.635899 0.595244
0.426394 0.504763 0.443779
0.496800 0.552124 0.493843
0.565160 0.602287 0.541304
0.636429 0.655151 0.594167
0.704047 0.702895 0.648839
0.771626 0.754814 0.706470
0.521933 0.620069 0.538757
0.593021 0.671523 0.590211
0.660563 0.719431 0.645141
0.728109 0.772254 0.702166
0.799741 0.826501 0.759294
0.873606 0.880702 0.813494
0.093034 0.089477 0.128695
0.157004 0.130359 0.163257
0.221029 0.176309 0.208362
0.281531 0.218413 0.256805
0.343137 0.264628 0.302061
0.409526 0.307887 0.347120
0.179270 0.195375 0.206242
0.240070 0.237483 0.254637
0.302885 0.284273 0.300751
0.368227 0.327571 0.344345
0.435882 0.374276 0.388288
0.501052 0.419040 0.438230
0.262821 0.304900 0.300799
0.326252 0.346580 0.342509
0.394928 0.394362 0.388230
0.459279 0.437886 0.436701
0.528446 0.484278 0.484278
0.596205 0.531726 0.531739
0.351600 0.412584 0.385195
0.416878 0.456441 0.433107
0.485819 0.503126 0.482798
0.553711 0.550342 0.530581
0.626839 0.603007 0.582679
0.696251 0.653482 0.635267
0.445012 0.523071 0.482416
0.511151 0.568140 0.528045
0.585016 0.622163 0.581508
0.652806 0.671435 0.632478
0.722426 0.722342 0.688743
0.793450 0.776957 0.750109
0.540277 0.638413 0.577429
0.611322 0.691916 0.631633
0.678864 0.739835 0.685894
0.749054 0.794067 0.747170
0.820270 0.847649 0.800769
0.895472 0.902480 0.852167
0.107803 0.105647 0.161726
0.175313 0.148672 0.201908
0.237095 0.191653 0.245582
0.298578 0.237595 0.296315
0.361445 0.282516 0.339289
0.431268 0.329629 0.383605
0.194488 0.208427 0.244177
0.255797 0.255797 0.292939
0.319682 0.302021 0.336483
0.386075 0.345419 0.379320
0.454424 0.390474 0.427922
0.519372 0.434823 0.475479
0.275488 0.319690 0.334337
0.344000 0.364328 0.378310
0.411976 0.408958 0.426530
0.478429 0.455096 0.475424
0.549860 0.504555 0.526004
0.616596 0.552108 0.572436
0.369068 0.427950 0.423864
0.436334 0.473917 0.473457
0.506346 0.522288 0.523129
0.573435 0.569932 0.569932
0.647489 0.623649 0.623649
0.713173 0.669004 0.674619
0.463626 0.541380 0.521052
0.531696 0.589175 0.568847
0.605756 0.642885 0.622557
0.672429 0.689530 0.675261
0.740834 0.743637 0.730333
0.812933 0.796116 0.789892
0.562107 0.660190 0.619534
0.629636 0.707465 0.672693
0.697202 0.761668 0.728074
0.770365 0.814524 0.787973
0.842119 0.869465 0.842902
0.913850 0.920859 0.890803
0.126148 0.122626 0.196859
0.190679 0.166283 0.239858
0.254142 0.209983 0.287780
0.316747 0.255763 0.333571
0.381493 0.300883 0.377929
0.446108 0.344469 0.418762
0.209997 0.226933 0.284916
0.271137 0.271728 0.329314
0.336389 0.317751 0.373619
0.402792 0.362136 0.417521
0.471174 0.408722 0.466748
0.537769 0.453437 0.514421
0.295244 0.338013 0.373002
0.361608 0.381936 0.417254
0.430344 0.428888 0.466025
0.496427 0.472822 0.513478
0.566428 0.521609 0.564318
0.636327 0.571840 0.612496
0.388218 0.447800 0.464624
0.453633 0.490995 0.511323
0.522872 0.540122 0.561270
0.593627 0.590107 0.610435
0.664088 0.643256 0.663584
0.731752 0.690804 0.718140
0.480429 0.560461 0.561036
0.552445 0.609913 0.609913
0.623780 0.663957 0.663957
0.690464 0.710085 0.717128
0.760936 0.764903 0.777129
0.830278 0.816812 0.830916
0.580470 0.682074 0.661746
0.645187 0.726463 0.713200
0.715802 0.781677 0.775106
0.786586 0.834270 0.828046
0.861156 0.888509 0.882286
0.939056 0.945447 0.936363
0.144421 0.140917 0.231956
0.205589 0.181067 0.275677
0.266831 0.226154 0.324257
0.329414 0.271935 0.367935
0.396213 0.314901 0.410935
0.464382 0.359309 0.460843
0.225471 0.242952 0.323517
0.286517 0.290002 0.366560
0.353485 0.333158 0.411086
0.422149 0.380786 0.457427
0.487984 0.424080 0.505363
0.559501 0.474685 0.555996
0.312148 0.352804 0.410928
0.379928 0.398855 0.454617
0.445916 0.443668 0.504630
0.516129 0.492245 0.553228
0.583342 0.539182 0.600166
0.658179 0.593639 0.654622
0.403002 0.461883 0.501137
0.472927 0.510072 0.550728
0.540187 0.557019 0.597675
0.613925 0.610389 0.651045
0.681870 0.659430 0.703906
0.749082 0.710487 0.758238
0.496776 0.575205 0.595540
0.572008 0.629473 0.649801
0.639551 0.677361 0.700534
0.707939 0.729931 0.757317
0.780213 0.783740 0.818169
0.851195 0.837945 0.872307
0.595203 0.693409 0.696843
0.666214 0.748212 0.755309
0.737281 0.801822 0.815925
0.808370 0.856033 0.870138
0.882222 0.909629 0.920193
0.964466 0.967970 0.974980
