example_ofxGpuLutCube/bin/data/ofxGpuLutCube/LUT/S4 (smooth choco tone).cube
LUT_3D_SIZE 16
0.000000 0.000000 0.000000
0.017268 0.000000 0.000000
0.034536 0.000000 0.000000
0.051803 0.000000 0.000000
0.069071 0.000000 0.000000
0.086339 0.000000 0.000000
0.103607 0.000000 0.000000
0.120874 0.000000 0.000000
0.138744 0.000602 0.000602
0.161005 0.005596 0.005596
0.188473 0.015796 0.015796
0.219715 0.029770 0.029770
0.254340 0.047127 0.047127
0.290995 0.066514 0.066514
0.328765 0.087017 0.087017
0.364255 0.105239 0.105239
0.000514 0.017782 0.000514
0.017849 0.017849 0.000581
0.035477 0.018210 0.000942
0.056443 0.021908 0.004640
0.084362 0.032559 0.015291
0.109418 0.040347 0.023079
0.128427 0.042088 0.024821
0.147985 0.044378 0.027111
0.170426 0.049552 0.032284
0.195880 0.057738 0.040470
0.225439 0.070029 0.052761
0.258996 0.086318 0.069051
0.295963 0.106017 0.088749
0.335250 0.128037 0.110769
0.376006 0.151525 0.134257
0.414815 0.173067 0.155799
0.008117 0.042652 0.008117
0.026413 0.043681 0.009146
0.047233 0.047233 0.012698
0.074975 0.057707 0.023172
0.103309 0.068774 0.034238
0.131022 0.079218 0.044683
0.156014 0.086943 0.052407
0.182096 0.095757 0.061221
0.212250 0.108644 0.074108
0.244838 0.123963 0.089428
0.278844 0.140702 0.106167
0.315007 0.159597 0.125062
0.354188 0.181510 0.146975
0.395828 0.205883 0.171347
0.439147 0.231934 0.197398
0.479885 0.255404 0.220868
0.013849 0.065652 0.013849
0.031693 0.066228 0.014425
0.057262 0.074530 0.022727
0.082881 0.082881 0.031078
0.110668 0.093400 0.041597
0.139917 0.105382 0.053579
0.171970 0.120166 0.068363
0.205490 0.136419 0.084616
0.241394 0.155055 0.103252
0.279929 0.176322 0.124519
0.320441 0.199567 0.147764
0.362951 0.224809 0.173006
0.407828 0.252418 0.200615
0.454043 0.281365 0.229562
0.499970 0.310024 0.258221
0.540846 0.333633 0.281830
0.033088 0.102159 0.033088
0.047729 0.099532 0.030461
0.074199 0.108734 0.039663
0.098301 0.115569 0.046498
0.124138 0.124138 0.055067
0.157305 0.140038 0.070966
0.196759 0.162224 0.093153
0.237333 0.185530 0.116459
0.277245 0.208174 0.139103
0.316907 0.230568 0.161497
0.357440 0.253834 0.184763
0.400224 0.279350 0.210279
0.446390 0.308248 0.239177
0.495264 0.339854 0.270783
0.545048 0.372370 0.303299
0.589425 0.399479 0.330408
0.061472 0.147810 0.061472
0.073434 0.142505 0.056166
0.098915 0.150719 0.064380
0.126767 0.161303 0.074964
0.156490 0.173758 0.087419
0.188968 0.188968 0.102629
0.228521 0.211253 0.124914
0.272785 0.238250 0.151911
0.317892 0.266089 0.179750
0.361335 0.292264 0.205925
0.403103 0.316765 0.230426
0.444786 0.341179 0.254841
0.487215 0.366341 0.280002
0.530744 0.392602 0.306263
0.577850 0.422440 0.336101
0.624508 0.451831 0.365492
0.092018 0.195625 0.092018
0.103891 0.190230 0.086623
0.128130 0.197201 0.093595
0.160312 0.212115 0.108509
0.196544 0.231080 0.127473
0.232512 0.249780 0.146173
0.270404 0.270404 0.166797
0.313276 0.296008 0.192402
0.359238 0.324703 0.221096
0.404887 0.353084 0.249477
0.448788 0.379717 0.276110
0.492062 0.405723 0.302117
0.534581 0.430975 0.327368
0.573959 0.453084 0.349478
0.613401 0.475259 0.371652
0.653089 0.497679 0.394072
0.125715 0.246589 0.125715
0.138987 0.242594 0.121719
0.163391 0.249730 0.128856
0.197590 0.266661 0.145787
0.237965 0.289768 0.168894
0.279094 0.313629 0.192755
0.318367 0.335634 0.214760
0.358415 0.358415 0.237541
0.400861 0.383593 0.262719
0.444835 0.410300 0.289425
0.488600 0.436797 0.315923
0.532849 0.463778 0.342903
0.577330 0.490991 0.370116
0.617532 0.513926 0.393052
0.652317 0.531443 0.410569
0.683331 0.545189 0.424315
0.163757 0.301899 0.163757
0.179432 0.300306 0.162164
0.204501 0.308108 0.169966
0.238782 0.325120 0.186978
0.279300 0.348371 0.210229
0.323838 0.375641 0.237499
0.365475 0.400011 0.261868
0.404222 0.421489 0.283347
0.442523 0.442523 0.304381
0.481733 0.464465 0.326323
0.522009 0.487473 0.349331
0.564637 0.512834 0.374692
0.610308 0.541237 0.403095
0.654082 0.567743 0.429601
0.689740 0.586133 0.447991
0.717762 0.596887 0.458745
0.205452 0.360862 0.205452
0.223641 0.361783 0.206374
0.249107 0.369981 0.214571
0.283163 0.386770 0.231360
0.321176 0.407515 0.252105
0.365204 0.434275 0.278865
0.408537 0.460341 0.304931
0.447069 0.481605 0.326195
0.483379 0.500647 0.345237
0.518435 0.518435 0.363025
0.553606 0.536338 0.380928
0.591437 0.556901 0.401491
0.635456 0.583652 0.428243
0.682690 0.613619 0.458209
0.723345 0.637007 0.481597
0.753010 0.649403 0.493993
0.249155 0.421833 0.249155
0.269299 0.424709 0.252031
0.294841 0.432983 0.260305
0.328513 0.449387 0.276710
0.363641 0.467247 0.294569
0.404201 0.490540 0.317862
0.447285 0.516356 0.343678
0.485721 0.537525 0.364847
0.521027 0.555563 0.382885
0.554915 0.572183 0.399505
0.587498 0.587498 0.414820
0.620964 0.603696 0.431018
0.660100 0.625564 0.452887
0.706964 0.655161 0.482483
0.752729 0.683658 0.510980
0.787545 0.701206 0.528528
0.292112 0.482057 0.292112
0.313348 0.486025 0.296080
0.339015 0.494425 0.304480
0.371656 0.509798 0.319852
0.404630 0.525504 0.335559
0.441007 0.544613 0.354668
0.481529 0.567867 0.377922
0.519944 0.589015 0.399069
0.555328 0.607132 0.417186
0.589713 0.624249 0.434303
0.622817 0.640085 0.450139
0.655371 0.655371 0.465425
0.689735 0.672467 0.482522
0.731678 0.697143 0.507197
0.779094 0.727291 0.537346
0.818742 0.749671 0.559726
0.331663 0.538876 0.331663
0.353465 0.543411 0.336197
0.379339 0.552016 0.344803
0.410713 0.566123 0.358910
0.442055 0.580197 0.372983
0.475244 0.596119 0.388905
0.512578 0.616185 0.408971
0.551049 0.637388 0.430175
0.587759 0.656831 0.449617
0.623287 0.675091 0.467877
0.658094 0.692629 0.485416
0.691609 0.708877 0.501664
0.724223 0.724223 0.517010
0.759922 0.742654 0.535441
0.804745 0.770209 0.562996
0.847331 0.795528 0.588315
0.366775 0.591255 0.366775
0.389078 0.596291 0.371810
0.415288 0.605233 0.380752
0.445686 0.618364 0.393883
0.476074 0.631484 0.407003
0.507633 0.645775 0.421294
0.542752 0.663626 0.439145
0.581114 0.684721 0.460240
0.619381 0.705720 0.481239
0.656720 0.725791 0.501310
0.693291 0.745094 0.520613
0.727791 0.762326 0.537846
0.760356 0.777623 0.553142
0.792856 0.792856 0.568375
0.831617 0.814349 0.589869
0.874077 0.839541 0.615060
0.397475 0.639224 0.397475
0.420421 0.644902 0.403153
0.447639 0.654852 0.413104
0.477979 0.667924 0.426175
0.508108 0.680786 0.439037
0.538900 0.694310 0.452562
0.572724 0.710866 0.469118
0.610780 0.731655 0.489906
0.650697 0.754303 0.512555
0.690688 0.777027 0.535278
0.729112 0.798183 0.556434
0.764502 0.816306 0.574557
0.797345 0.831880 0.590132
0.829110 0.846378 0.604629
0.862438 0.862438 0.620690
0.898591 0.881324 0.639575
0.418639 0.677655 0.418639
0.441163 0.682912 0.423896
0.468566 0.693046 0.434030
0.499212 0.706425 0.447409
0.529889 0.719834 0.460818
0.560901 0.733578 0.474562
0.594312 0.749722 0.490706
0.631830 0.769972 0.510955
0.672848 0.793722 0.534706
0.714909 0.818516 0.559499
0.753451 0.839789 0.580773
0.789814 0.858885 0.599869
0.824030 0.875833 0.616817
0.855742 0.890277 0.631261
0.888706 0.905974 0.646958
0.921086 0.921086 0.662070
0.000000 0.000000 0.017268
0.017268 0.000000 0.017268
0.034536 0.000000 0.017268
0.051803 0.000000 0.017268
0.069071 0.000000 0.017268
0.086339 0.000000 0.017268
0.103642 0.000035 0.017303
0.121828 0.000954 0.018221
0.143423 0.005281 0.022549
0.169262 0.013853 0.031120
0.199117 0.026440 0.043708
0.232910 0.042965 0.060233
0.269818 0.062605 0.079873
0.308217 0.083736 0.101003
0.347091 0.105342 0.122610
0.383626 0.124609 0.141877
0.000363 0.017631 0.017631
0.018016 0.018016 0.018016
0.035824 0.018556 0.018556
0.056503 0.021968 0.021968
0.081412 0.029608 0.029608
0.107509 0.038438 0.038438
0.131728 0.045390 0.045390
0.155845 0.052238 0.052238
0.181400 0.060526 0.060526
0.209731 0.071589 0.071589
0.241656 0.086246 0.086246
0.277240 0.104562 0.104562
0.316171 0.126226 0.126226
0.357028 0.149815 0.149815
0.398702 0.174222 0.174222
0.440639 0.198890 0.198890
0.006654 0.041189 0.023921
0.029381 0.046648 0.029381
0.050319 0.050319 0.033052
0.074918 0.057650 0.040383
0.101947 0.067411 0.050143
0.132113 0.080310 0.063042
0.162380 0.093309 0.076041
0.192443 0.106104 0.088836
0.223610 0.120004 0.102736
0.256169 0.135294 0.118026
0.290761 0.152619 0.135352
0.328594 0.173184 0.155916
0.369869 0.197191 0.179923
0.413249 0.223304 0.206036
0.457664 0.250450 0.233183
0.500344 0.275863 0.258595
0.017464 0.069267 0.034732
0.038395 0.072930 0.038395
0.061336 0.078604 0.044069
0.086553 0.086553 0.052018
0.115332 0.098065 0.063529
0.146103 0.111568 0.077032
0.179739 0.127935 0.093400
0.216376 0.147305 0.112770
0.255529 0.169190 0.134655
0.295853 0.192246 0.157711
0.336827 0.215953 0.181417
0.379416 0.241274 0.206739
0.424344 0.268935 0.234399
0.469982 0.297304 0.262769
0.514631 0.324686 0.290150
0.555072 0.347859 0.313324
0.036014 0.105085 0.053282
0.056306 0.108110 0.056306
0.077672 0.112208 0.060404
0.104161 0.121429 0.069626
0.132764 0.132764 0.080960
0.166822 0.149554 0.097751
0.204678 0.170142 0.118339
0.244166 0.192363 0.140559
0.285546 0.216475 0.164671
0.328318 0.241979 0.190176
0.372349 0.268742 0.216939
0.418712 0.297838 0.246034
0.467902 0.329760 0.277957
0.517545 0.362135 0.310332
0.564618 0.391940 0.340137
0.604750 0.414805 0.363002
0.064276 0.150615 0.081544
0.083799 0.152871 0.083799
0.101848 0.153651 0.084580
0.131353 0.165889 0.096818
0.163119 0.180387 0.111316
0.197016 0.197016 0.127945
0.236890 0.219622 0.150551
0.280394 0.245859 0.176788
0.324502 0.272699 0.203628
0.367819 0.298748 0.229676
0.410967 0.324628 0.255557
0.455880 0.352274 0.283203
0.503463 0.382589 0.313518
0.552358 0.414216 0.345145
0.601243 0.445834 0.376763
0.644333 0.471656 0.402585
0.095881 0.199488 0.113149
0.115406 0.201745 0.115406
0.131907 0.200978 0.114640
0.163663 0.215466 0.129127
0.201332 0.235867 0.149528
0.238498 0.255766 0.169427
0.277014 0.277014 0.190675
0.320767 0.303499 0.217161
0.367070 0.332535 0.246196
0.411804 0.360001 0.273662
0.454547 0.385476 0.299137
0.497852 0.411513 0.325174
0.542390 0.438784 0.352445
0.586185 0.465310 0.378972
0.630279 0.492136 0.405798
0.672120 0.516710 0.430372
0.130405 0.251279 0.147673
0.151584 0.255191 0.151584
0.169541 0.255880 0.152273
0.200791 0.269862 0.166255
0.241850 0.293653 0.190047
0.284352 0.318887 0.215281
0.323865 0.341133 0.237527
0.363967 0.363967 0.260360
0.407722 0.390454 0.286847
0.452505 0.417970 0.314363
0.495483 0.443680 0.340074
0.538155 0.469084 0.365477
0.581761 0.495422 0.391816
0.622971 0.519365 0.415758
0.660559 0.539685 0.436078
0.694919 0.556777 0.453171
0.169121 0.307263 0.186389
0.193024 0.313898 0.193024
0.213430 0.317037 0.196163
0.243050 0.329389 0.208515
0.283230 0.352301 0.231427
0.328509 0.380313 0.259438
0.370732 0.405267 0.284393
0.408544 0.425812 0.304938
0.447048 0.447048 0.326174
0.488153 0.470885 0.350010
0.529663 0.495128 0.374254
0.571181 0.519378 0.398504
0.614670 0.545599 0.424724
0.657124 0.570786 0.449911
0.693381 0.589775 0.468900
0.722515 0.601640 0.480766
0.211557 0.366966 0.228824
0.238012 0.376154 0.238012
0.260603 0.381477 0.243335
0.288712 0.392318 0.254176
0.325820 0.412159 0.274017
0.369428 0.438499 0.300357
0.413558 0.465361 0.327219
0.451575 0.486111 0.347969
0.486757 0.504025 0.365883
0.522776 0.522776 0.384633
0.560229 0.542962 0.404820
0.598975 0.564439 0.426297
0.641105 0.589302 0.451160
0.685743 0.616672 0.478530
0.725543 0.639205 0.501063
0.754974 0.651367 0.513225
0.255793 0.428471 0.273061
0.283951 0.439361 0.283951
0.307933 0.446075 0.290665
0.334903 0.455778 0.300368
0.369210 0.472817 0.317407
0.408625 0.494964 0.339554
0.451812 0.520883 0.365473
0.490605 0.542408 0.386999
0.524867 0.559403 0.403993
0.558538 0.575806 0.420396
0.592713 0.592713 0.437303
0.628109 0.610841 0.455432
0.666922 0.632387 0.476977
0.711257 0.659453 0.504044
0.755503 0.686432 0.531022
0.788941 0.702602 0.547192
0.298835 0.488781 0.316103
0.327678 0.500356 0.327678
0.352397 0.507807 0.335129
0.378755 0.516897 0.344219
0.410998 0.531872 0.359195
0.446224 0.549830 0.377153
0.485906 0.572245 0.399567
0.524870 0.593941 0.421264
0.559939 0.611743 0.439065
0.593731 0.628267 0.455589
0.627834 0.645101 0.472424
0.661981 0.661981 0.489303
0.696819 0.679551 0.506873
0.737268 0.702733 0.530055
0.783177 0.731374 0.558696
0.820330 0.751259 0.578582
0.338270 0.545483 0.355538
0.367233 0.557178 0.367233
0.392328 0.565006 0.375060
0.418242 0.573652 0.383707
0.448836 0.586978 0.397032
0.481291 0.602165 0.412220
0.517635 0.621242 0.431297
0.556192 0.642530 0.452585
0.592739 0.661810 0.471864
0.627939 0.679742 0.489796
0.663555 0.698090 0.508145
0.698338 0.715605 0.525660
0.731566 0.731566 0.541620
0.766548 0.749280 0.559335
0.810219 0.775683 0.585738
0.849472 0.797669 0.607723
0.373153 0.597634 0.390420
0.402128 0.609341 0.402128
0.427585 0.617531 0.410318
0.453205 0.625883 0.418670
0.482916 0.638326 0.431113
0.514160 0.652302 0.445089
0.548543 0.669417 0.462204
0.586352 0.689959 0.482746
0.624313 0.710652 0.503439
0.661580 0.730651 0.523438
0.698862 0.750665 0.543452
0.734494 0.769029 0.561816
0.767644 0.784912 0.577699
0.799837 0.799837 0.592624
0.837696 0.820428 0.613215
0.876486 0.841950 0.634737
0.403775 0.645523 0.421043
0.432264 0.656745 0.432264
0.458869 0.666082 0.441601
0.485053 0.674998 0.450517
0.514787 0.687464 0.462983
0.545766 0.701175 0.476695
0.578842 0.716984 0.492503
0.615329 0.736203 0.511722
0.654464 0.758071 0.533590
0.694238 0.780577 0.556096
0.733161 0.802232 0.577751
0.769321 0.821124 0.596643
0.802451 0.836986 0.612505
0.833802 0.851070 0.626589
0.866403 0.866403 0.641922
0.900035 0.882767 0.658287
0.424180 0.683197 0.441448
0.450528 0.692276 0.450528
0.478103 0.702584 0.460835
0.505686 0.712899 0.471151
0.535832 0.725777 0.484028
0.566470 0.739148 0.497399
0.598888 0.754298 0.512549
0.634961 0.773103 0.531355
0.674859 0.795734 0.553985
0.715997 0.819603 0.577855
0.754397 0.840736 0.598987
0.791084 0.860155 0.618407
0.825280 0.877084 0.635335
0.856663 0.891198 0.649450
0.888750 0.906017 0.664269
0.920520 0.920520 0.678771
0.000000 0.000000 0.034536
0.017268 0.000000 0.034536
0.034536 0.000000 0.034536
0.051803 0.000000 0.034536
0.069071 0.000000 0.034536
0.086358 0.000020 0.034555
0.104367 0.000761 0.035296
0.125386 0.004512 0.039048
0.150089 0.011947 0.046482
0.178533 0.023123 0.057659
0.211747 0.039070 0.073605
0.249112 0.059167 0.093702
0.288908 0.081695 0.116230
0.328888 0.104407 0.138942
0.369020 0.127271 0.161807
0.407438 0.148422 0.182957
0.000305 0.017573 0.034840
0.018333 0.018333 0.035600
0.038247 0.020980 0.038247
0.061093 0.026557 0.043825
0.085482 0.033679 0.050946
0.110714 0.041643 0.058911
0.136600 0.050262 0.067529
0.163188 0.059581 0.076849
0.191124 0.070250 0.087518
0.222283 0.084141 0.101409
0.257701 0.102291 0.119559
0.296670 0.123992 0.141260
0.337887 0.147942 0.165210
0.379490 0.172277 0.189545
0.421227 0.196746 0.214014
0.462902 0.221154 0.238422
0.006108 0.040643 0.040643
0.030421 0.047689 0.047689
0.055832 0.055832 0.055832
0.080497 0.063229 0.063229
0.108103 0.073568 0.073568
0.138255 0.086452 0.086452
0.170648 0.101577 0.101577
0.204579 0.118240 0.118240
0.239083 0.135476 0.135476
0.274870 0.153996 0.153996
0.312998 0.174856 0.174856
0.353730 0.198320 0.198320
0.396448 0.223770 0.223770
0.439857 0.249912 0.249912
0.484265 0.277052 0.277052
0.525514 0.301033 0.301033
0.019169 0.070972 0.053704
0.042022 0.076557 0.059289
0.068386 0.085653 0.068386
0.094616 0.094616 0.077348
0.123414 0.106146 0.088879
0.155757 0.121221 0.103954
0.191296 0.139493 0.122225
0.230375 0.161304 0.144036
0.272093 0.185755 0.168487
0.314634 0.211027 0.193760
0.357340 0.236466 0.219198
0.401567 0.263425 0.246157
0.447107 0.291697 0.274430
0.492206 0.319528 0.302260
0.536388 0.346442 0.329175
0.575951 0.368738 0.351470
0.038100 0.107171 0.072636
0.060704 0.112507 0.077972
0.086349 0.120885 0.086349
0.114124 0.131392 0.096856
0.143423 0.143423 0.108887
0.178950 0.161683 0.127147
0.217574 0.183039 0.148503
0.257033 0.205229 0.170694
0.299988 0.230917 0.196381
0.345770 0.259431 0.224896
0.393063 0.289456 0.254921
0.442594 0.321719 0.287184
0.492534 0.354392 0.319856
0.540002 0.384592 0.350057
0.583568 0.410891 0.376355
0.620657 0.430712 0.396176
0.066096 0.152435 0.100632
0.088535 0.157606 0.105803
0.112831 0.164635 0.112831
0.140636 0.175171 0.123368
0.172178 0.189445 0.137642
0.207584 0.207584 0.155781
0.249436 0.232169 0.180365
0.293158 0.258622 0.206819
0.336635 0.284831 0.233028
0.380869 0.311798 0.259995
0.426597 0.340258 0.288455
0.475963 0.372356 0.320553
0.528450 0.407576 0.355772
0.579019 0.440877 0.389073
0.624522 0.469112 0.417309
0.661644 0.488966 0.437163
0.099434 0.203041 0.133970
0.121980 0.208319 0.139248
0.145889 0.214960 0.145889
0.173526 0.225329 0.156258
0.209372 0.243907 0.174836
0.246667 0.263935 0.194864
0.286489 0.286489 0.217418
0.331542 0.314274 0.245203
0.377899 0.343363 0.274292
0.422190 0.370386 0.301315
0.465056 0.395985 0.326914
0.509932 0.423593 0.354522
0.558718 0.455111 0.386040
0.608233 0.487359 0.418288
0.655466 0.517324 0.448253
0.695298 0.539888 0.470817
0.136871 0.257745 0.171406
0.160629 0.264235 0.177897
0.185467 0.271806 0.185467
0.212465 0.281536 0.195197
0.250730 0.302533 0.216194
0.292878 0.327413 0.241074
0.332049 0.349317 0.262978
0.372312 0.372312 0.285973
0.416656 0.399388 0.313049
0.461443 0.426907 0.340568
0.503871 0.452068 0.365729
0.545504 0.476433 0.390094
0.589057 0.502719 0.416380
0.634127 0.530521 0.444182
0.679273 0.558399 0.472060
0.719212 0.581070 0.494731
0.178405 0.316547 0.212940
0.204019 0.324893 0.221287
0.230517 0.334123 0.230517
0.257001 0.343340 0.239733
0.293235 0.362306 0.258700
0.338076 0.389880 0.286273
0.379568 0.414104 0.310497
0.416288 0.433556 0.329950
0.454466 0.454466 0.350859
0.495773 0.478505 0.374898
0.537259 0.502723 0.399117
0.577574 0.525771 0.422165
0.618233 0.549162 0.445555
0.660017 0.573679 0.470072
0.701963 0.598356 0.494750
0.738982 0.618107 0.514501
0.222649 0.378059 0.257185
0.249818 0.387960 0.267086
0.277684 0.398559 0.277684
0.303868 0.407474 0.286600
0.336085 0.422424 0.301549
0.378841 0.447912 0.327038
0.422603 0.474407 0.353532
0.459517 0.494052 0.373178
0.493354 0.510622 0.389748
0.528830 0.528830 0.407956
0.566653 0.549385 0.428511
0.605564 0.571028 0.450154
0.645256 0.593452 0.472578
0.686016 0.616945 0.496071
0.726406 0.640068 0.519193
0.761342 0.657736 0.536861
0.267346 0.440023 0.301881
0.295432 0.450842 0.312700
0.324017 0.462159 0.324017
0.349933 0.470807 0.332665
0.379158 0.482765 0.344623
0.417132 0.503470 0.365328
0.459499 0.528571 0.390428
0.498041 0.549844 0.411702
0.531236 0.565772 0.427630
0.563519 0.580787 0.442645
0.597427 0.597427 0.459285
0.633908 0.616641 0.478498
0.672539 0.638004 0.499862
0.712993 0.661190 0.523048
0.753990 0.684919 0.546777
0.788691 0.702352 0.564210
0.309856 0.499801 0.344392
0.338236 0.510913 0.355503
0.367156 0.522566 0.367156
0.392948 0.531091 0.375681
0.420573 0.541448 0.386038
0.454113 0.557720 0.402310
0.492294 0.578633 0.423223
0.530974 0.600045 0.444635
0.565906 0.617710 0.462300
0.598617 0.633153 0.477743
0.631766 0.649034 0.493624
0.666314 0.666314 0.510904
0.702562 0.685294 0.529884
0.741184 0.706649 0.551239
0.782895 0.731092 0.575682
0.818636 0.749565 0.594155
0.348625 0.555838 0.383160
0.376951 0.566896 0.394219
0.405814 0.578492 0.405814
0.431266 0.586676 0.413999
0.458038 0.596180 0.423502
0.489202 0.610076 0.437399
0.523957 0.627563 0.454886
0.561186 0.647525 0.474848
0.597852 0.666923 0.494246
0.632898 0.684701 0.512023
0.667546 0.702081 0.529404
0.702126 0.719394 0.546716
0.736276 0.736276 0.563599
0.771251 0.753983 0.581306
0.811180 0.776644 0.603967
0.848097 0.796293 0.623616
0.383097 0.607578 0.417632
0.411406 0.618619 0.428674
0.439430 0.629375 0.439430
0.464860 0.637537 0.447592
0.491696 0.647106 0.457161
0.522098 0.660240 0.470295
0.554858 0.675732 0.485787
0.590262 0.693868 0.503923
0.627870 0.714209 0.524264
0.665516 0.734587 0.544642
0.702261 0.754064 0.564119
0.737486 0.772021 0.582076
0.770621 0.787888 0.597943
0.802638 0.802638 0.612692
0.838285 0.821017 0.631072
0.875190 0.840655 0.650709
0.413796 0.655545 0.448332
0.441764 0.666245 0.459032
0.469831 0.677044 0.469831
0.496074 0.686020 0.478807
0.523302 0.695979 0.488766
0.552855 0.708264 0.501051
0.584399 0.722541 0.515328
0.618426 0.739300 0.532087
0.656384 0.759991 0.552778
0.696519 0.782858 0.575645
0.735389 0.804460 0.597247
0.770926 0.822729 0.615516
0.803229 0.837764 0.630551
0.833860 0.851128 0.643915
0.865523 0.865523 0.658310
0.897846 0.880578 0.673365
0.434513 0.693529 0.469049
0.460869 0.702618 0.478137
0.489693 0.714174 0.489693
0.516953 0.724166 0.499685
0.544471 0.734416 0.509936
0.573307 0.745984 0.521503
0.604351 0.759761 0.535280
0.637727 0.775869 0.551389
0.675583 0.796458 0.571977
0.716958 0.820564 0.596083
0.755736 0.842075 0.617594
0.791853 0.860924 0.636443
0.824990 0.876793 0.652312
0.855699 0.890235 0.665754
0.886799 0.904067 0.679586
0.917454 0.917454 0.692973
0.000000 0.000000 0.051803
0.017268 0.000000 0.051803
0.034689 0.000153 0.051956
0.053058 0.001255 0.053058
0.070737 0.001666 0.053470
0.088183 0.001844 0.053648
0.107712 0.004105 0.055908
0.130689 0.009814 0.061618
0.156546 0.018404 0.070207
0.187064 0.031654 0.083457
0.222537 0.049859 0.101662
0.262111 0.072166 0.123969
0.303542 0.096329 0.148132
0.344546 0.120065 0.171868
0.386673 0.144924 0.196727
0.427982 0.168966 0.220769
0.001226 0.018493 0.053029
0.021860 0.021860 0.056396
0.047139 0.029872 0.064407
0.070665 0.036130 0.070665
0.094744 0.042941 0.077476
0.118397 0.049326 0.083862
0.142876 0.056537 0.091073
0.169390 0.065784 0.100319
0.198503 0.077629 0.112164
0.231744 0.093602 0.128138
0.269741 0.114331 0.148867
0.311118 0.138440 0.172976
0.353965 0.164020 0.198555
0.396244 0.189031 0.223566
0.439010 0.214529 0.249064
0.481873 0.240125 0.274660
0.012484 0.047020 0.064287
0.037399 0.054667 0.071935
0.065314 0.065314 0.082581
0.090819 0.073552 0.090819
0.119774 0.085238 0.102506
0.150077 0.098273 0.115541
0.180617 0.111546 0.128814
0.213061 0.126722 0.143990
0.248107 0.144501 0.161769
0.286043 0.165169 0.182437
0.327346 0.189204 0.206471
0.371164 0.215754 0.233022
0.415329 0.242651 0.259919
0.458686 0.268741 0.286009
0.502449 0.295236 0.312504
0.543323 0.318842 0.336110
0.024101 0.075904 0.075904
0.047405 0.081941 0.081941
0.076268 0.093536 0.093536
0.108298 0.108298 0.108298
0.137991 0.120723 0.120723
0.171665 0.137129 0.137129
0.208087 0.156284 0.156284
0.246198 0.177127 0.177127
0.287157 0.200818 0.200818
0.330672 0.227065 0.227065
0.376455 0.255580 0.255580
0.424031 0.285888 0.285888
0.471042 0.315633 0.315633
0.516018 0.343340 0.343340
0.559021 0.369076 0.369076
0.597515 0.390301 0.390301
0.043379 0.112450 0.095182
0.066814 0.118618 0.101350
0.095010 0.129546 0.112278
0.129391 0.146659 0.129391
0.161301 0.161301 0.144034
0.196561 0.179294 0.162026
0.236370 0.201835 0.184567
0.276488 0.224685 0.207417
0.318110 0.249039 0.231771
0.363328 0.276989 0.259722
0.412585 0.308979 0.291711
0.464275 0.343401 0.326133
0.514805 0.376663 0.359395
0.561967 0.406557 0.389289
0.604749 0.432071 0.414803
0.641031 0.451085 0.433817
0.070807 0.157146 0.122611
0.095069 0.164140 0.129604
0.122941 0.174745 0.140209
0.157162 0.191697 0.157162
0.191311 0.208579 0.174043
0.227118 0.227118 0.192583
0.268889 0.251622 0.217086
0.312250 0.277714 0.243179
0.354022 0.302218 0.267683
0.396819 0.327748 0.293213
0.443527 0.357189 0.322653
0.495741 0.392135 0.357599
0.550339 0.429465 0.394929
0.600147 0.462005 0.427469
0.643292 0.487882 0.453347
0.678214 0.505537 0.471001
0.104435 0.208042 0.156238
0.129689 0.216028 0.164225
0.158012 0.227083 0.175280
0.191493 0.243296 0.191493
0.227149 0.261685 0.209882
0.264318 0.281586 0.229782
0.303450 0.303450 0.251647
0.347146 0.329878 0.278075
0.392359 0.357824 0.306020
0.435683 0.383880 0.332077
0.478381 0.409310 0.357506
0.524849 0.438510 0.386707
0.577259 0.473652 0.421849
0.629795 0.508921 0.457117
0.676401 0.538259 0.486456
0.712332 0.556923 0.505119
0.144195 0.265069 0.195998
0.171049 0.274656 0.205585
0.199886 0.286225 0.217154
0.231760 0.300831 0.231760
0.268087 0.319890 0.250819
0.307426 0.341961 0.272890
0.344375 0.361642 0.292571
0.382977 0.382977 0.313906
