example_ofxGpuLutCube/bin/data/ofxGpuLutCube/LUT/S4 (smooth choco tone).cube
LUT_3D_SIZE 6
0.000000 0.000000 0.000000
0.051803 0.000000 0.000000
0.103607 0.000000 0.000000
0.161005 0.005596 0.005596
0.254340 0.047127 0.047127
0.364255 0.105239 0.105239
0.013849 0.065652 0.013849
0.082881 0.082881 0.031078
0.171970 0.120166 0.068363
0.279929 0.176322 0.124519
0.407828 0.252418 0.200615
0.540846 0.333633 0.281830
0.092018 0.195625 0.092018
0.160312 0.212115 0.108509
0.270404 0.270404 0.166797
0.404887 0.353084 0.249477
0.534581 0.430975 0.327368
0.653089 0.497679 0.394072
0.205452 0.360862 0.205452
0.283163 0.386770 0.231360
0.408537 0.460341 0.304931
0.518435 0.518435 0.363025
0.635456 0.583652 0.428243
0.753010 0.649403 0.493993
0.331663 0.538876 0.331663
0.410713 0.566123 0.358910
0.512578 0.616185 0.408971
0.623287 0.675091 0.467877
0.724223 0.724223 0.517010
0.847331 0.795528 0.588315
0.418639 0.677655 0.418639
0.499212 0.706425 0.447409
0.594312 0.749722 0.490706
0.714909 0.818516 0.559499
0.824030 0.875833 0.616817
0.921086 0.921086 0.662070
0.000000 0.000000 0.051803
0.053058 0.001255 0.053058
0.107712 0.004105 0.055908
0.187064 0.031654 0.083457
0.303542 0.096329 0.148132
0.427982 0.168966 0.220769
0.024101 0.075904 0.075904
0.108298 0.108298 0.108298
0.208087 0.156284 0.156284
0.330672 0.227065 0.227065
0.471042 0.315633 0.315633
0.597515 0.390301 0.390301
0.104435 0.208042 0.156238
0.191493 0.243296 0.191493
0.303450 0.303450 0.251647
0.435683 0.383880 0.332077
0.577259 0.473652 0.421849
0.712332 0.556923 0.505119
0.236029 0.391438 0.287832
0.324630 0.428236 0.324630
0.434198 0.486001 0.382394
0.537437 0.537437 0.433831
0.653156 0.601353 0.497746
0.781648 0.678042 0.574435
0.362018 0.569231 0.413821
0.445238 0.600648 0.445238
0.532957 0.636564 0.481154
0.639664 0.691467 0.536057
0.739709 0.739709 0.584299
0.845674 0.793871 0.638461
0.447307 0.706324 0.499110
0.528487 0.735701 0.528487
0.610090 0.765500 0.558286
0.717355 0.820962 0.613749
0.824454 0.876257 0.669044
0.912586 0.912586 0.705373
0.000000 0.000000 0.103607
0.083246 0.031443 0.135050
0.178312 0.074706 0.178312
0.251863 0.096453 0.200059
0.359316 0.152103 0.255710
0.487259 0.228242 0.331849
0.074545 0.126348 0.178151
0.181705 0.181705 0.233509
0.288378 0.236574 0.288378
0.404597 0.300990 0.352794
0.520506 0.365096 0.416899
0.634458 0.427245 0.479048
0.155251 0.258858 0.258858
0.261479 0.313282 0.313282
0.398368 0.398368 0.398368
0.510313 0.458510 0.458510
0.610705 0.507099 0.507099
0.750250 0.594840 0.594840
0.281015 0.436425 0.384622
0.375393 0.479000 0.427197
0.494699 0.546503 0.494699
0.583965 0.583965 0.532162
0.678047 0.626243 0.574440
0.825148 0.721541 0.669738
0.395682 0.602895 0.499289
0.486014 0.641424 0.537817
0.571312 0.674919 0.571312
0.659194 0.710997 0.607391
0.752769 0.752769 0.649163
0.863611 0.811808 0.708201
0.483646 0.742663 0.587253
0.567980 0.775193 0.619783
0.648668 0.804078 0.648668
0.722617 0.826223 0.670813
0.829352 0.881155 0.725745
0.904912 0.904912 0.749502
0.001435 0.001435 0.156845
0.112161 0.060358 0.215768
0.280428 0.176821 0.332231
0.377479 0.222070 0.377479
0.441290 0.234077 0.389487
0.542508 0.283492 0.438902
0.157601 0.209405 0.313011
0.260821 0.260821 0.364427
0.399653 0.347849 0.451456
0.491422 0.387816 0.491422
0.579693 0.424283 0.527889
0.665672 0.458459 0.562065
0.243059 0.346665 0.398468
0.346346 0.398149 0.449953
0.486172 0.486172 0.537975
0.566587 0.514784 0.566587
0.663436 0.559829 0.611632
0.765811 0.610401 0.662204
0.348855 0.504265 0.504265
0.435875 0.539482 0.539482
0.553866 0.605669 0.605669
0.632677 0.632677 0.632677
0.729175 0.677371 0.677371
0.825917 0.722310 0.722310
0.438811 0.646024 0.594221
0.529713 0.685123 0.633319
0.607181 0.710787 0.658984
0.701373 0.753176 0.701373
0.783373 0.783373 0.731570
0.881200 0.829397 0.777594
0.520299 0.779315 0.675709
0.603252 0.810465 0.706859
0.681241 0.836651 0.733044
0.755897 0.859503 0.755897
0.834738 0.886542 0.782935
0.915923 0.915923 0.812317
0.044045 0.044045 0.251258
0.166554 0.114751 0.321964
0.337415 0.233809 0.441022
0.470528 0.315118 0.522332
0.534039 0.326825 0.534039
0.581149 0.322132 0.529345
0.231597 0.283400 0.438810
0.337070 0.337070 0.492480
0.470497 0.418694 0.574104
0.584437 0.480831 0.636241
0.635743 0.480333 0.635743
0.689900 0.482687 0.638097
0.329868 0.433475 0.537081
0.423456 0.475259 0.578866
0.542496 0.542496 0.646102
0.607972 0.556169 0.659776
0.702272 0.598665 0.702272
0.786857 0.631447 0.735053
0.399232 0.554641 0.606445
0.491351 0.594958 0.646761
0.608272 0.660075 0.711879
0.696359 0.696359 0.748162
0.763726 0.711923 0.763726
0.854117 0.750510 0.802313
0.491416 0.698629 0.698629
0.582080 0.737489 0.737489
0.658087 0.761693 0.761693
0.744292 0.796095 0.796095
0.824207 0.824207 0.824207
0.903223 0.851420 0.851420
0.574822 0.833838 0.782035
0.654253 0.861466 0.809663
0.723936 0.879345 0.827542
0.782118 0.885725 0.833922
0.862332 0.914135 0.862332
0.934371 0.934371 0.882568
0.089702 0.089702 0.348719
0.214152 0.162348 0.421365
0.363905 0.260298 0.519314
0.501869 0.346459 0.605475
0.589152 0.381939 0.640955
0.635885 0.376869 0.635885
0.278822 0.330625 0.537839
0.387012 0.387012 0.594225
0.498523 0.446720 0.653933
0.617035 0.513429 0.720642
0.699857 0.544447 0.751660
0.742320 0.535106 0.742320
0.396646 0.500252 0.655662
0.489714 0.541518 0.696928
0.605627 0.605627 0.761037
0.667226 0.615422 0.770832
0.767862 0.664256 0.819666
0.823983 0.668573 0.823983
0.444420 0.599830 0.703436
0.544685 0.648292 0.751898
0.640404 0.692208 0.795814
0.754454 0.754454 0.858061
0.798791 0.746988 0.850595
0.884689 0.781082 0.884689
0.518654 0.725867 0.777671
0.608404 0.763813 0.815617
0.709783 0.813389 0.865193
0.782390 0.834194 0.885997
0.860553 0.860553 0.912356
0.922278 0.870475 0.922278
0.603389 0.862406 0.862406
0.684739 0.891952 0.891952
0.758459 0.913869 0.913869
0.814250 0.917857 0.917857
0.880188 0.931991 0.931991
0.950612 0.950612 0.950612
