example_ofxGpuLutCube/bin/data/ofxGpuLutCube/LUT/S5 (B&W contrasty).cube
LUT_3D_SIZE 6
0.110648 0.110648 0.110648
0.116621 0.116621 0.116621
0.115613 0.115613 0.115613
0.125726 0.125726 0.125726
0.143671 0.143671 0.143671
0.177881 0.177881 0.177881
0.118625 0.118625 0.118625
0.124373 0.124373 0.124373
0.144750 0.144750 0.144750
0.175876 0.175876 0.175876
0.230949 0.230949 0.230949
0.324452 0.324452 0.324452
0.142607 0.142607 0.142607
0.177463 0.177463 0.177463
0.232334 0.232334 0.232334
0.326047 0.326047 0.326047
0.443199 0.443199 0.443199
0.562779 0.562779 0.562779
0.231238 0.231238 0.231238
0.316194 0.316194 0.316194
0.437061 0.437061 0.437061
0.560065 0.560065 0.560065
0.661653 0.661653 0.661653
0.735145 0.735145 0.735145
0.433541 0.433541 0.433541
0.556078 0.556078 0.556078
0.657341 0.657341 0.657341
0.733243 0.733243 0.733243
0.786085 0.786085 0.786085
0.815628 0.815628 0.815628
0.651029 0.651029 0.651029
0.731622 0.731622 0.731622
0.782934 0.782934 0.782934
0.814349 0.814349 0.814349
0.836681 0.836681 0.836681
0.849397 0.849397 0.849397
0.110648 0.110648 0.110648
0.116621 0.116621 0.116621
0.120636 0.120636 0.120636
0.130890 0.130891 0.130891
0.155822 0.155822 0.155822
0.195321 0.195321 0.195321
0.120636 0.120636 0.120636
0.129827 0.129827 0.129827
0.154441 0.154441 0.154441
0.193825 0.193825 0.193825
0.263635 0.263635 0.263635
0.370109 0.370109 0.370109
0.153320 0.153320 0.153320
0.193331 0.193331 0.193331
0.262456 0.262456 0.262456
0.366096 0.366096 0.366096
0.487336 0.487336 0.487336
0.605907 0.605907 0.605907
0.257875 0.257875 0.257875
0.358681 0.358681 0.358681
0.482506 0.482506 0.482506
0.598455 0.598455 0.598455
0.691699 0.691699 0.691699
0.753482 0.753482 0.753482
0.478118 0.478118 0.478118
0.598973 0.598973 0.598973
0.689407 0.689407 0.689407
0.754286 0.754286 0.754286
0.798810 0.798810 0.798810
0.825291 0.825291 0.825291
0.686370 0.686370 0.686370
0.751893 0.751893 0.751893
0.797610 0.797610 0.797610
0.825575 0.825575 0.825575
0.842763 0.842763 0.842763
0.854445 0.854445 0.854445
0.110648 0.110648 0.110648
0.115613 0.115613 0.115613
0.122474 0.122474 0.122474
0.136241 0.136241 0.136241
0.167467 0.167467 0.167467
0.215871 0.215871 0.215871
0.123659 0.123659 0.123659
0.136249 0.136249 0.136249
0.166470 0.166470 0.166470
0.214901 0.214901 0.214901
0.299314 0.299314 0.299314
0.410459 0.410459 0.410459
0.164622 0.164622 0.164622
0.214154 0.214154 0.214154
0.295367 0.295367 0.295367
0.408406 0.408406 0.408406
0.533203 0.533203 0.533203
0.638313 0.638313 0.638313
0.294025 0.294025 0.294025
0.403700 0.403700 0.403700
0.525493 0.525493 0.525493
0.635514 0.635514 0.635514
0.717002 0.717002 0.717002
0.774097 0.774097 0.774097
0.528018 0.528018 0.528018
0.631777 0.631777 0.631777
0.714371 0.714371 0.714371
0.773582 0.773582 0.773582
0.809712 0.809712 0.809712
0.831513 0.831513 0.831513
0.713972 0.713972 0.713972
0.771187 0.771187 0.771187
0.808097 0.808097 0.808097
0.832796 0.832796 0.832796
0.847905 0.847905 0.847905
0.856379 0.856379 0.856379
0.119615 0.119615 0.119615
0.118046 0.118046 0.118046
0.129829 0.129829 0.129829
0.146694 0.146694 0.146694
0.182903 0.182903 0.182903
0.242595 0.242595 0.242595
0.125726 0.125726 0.125726
0.144890 0.144890 0.144890
0.181176 0.181176 0.181176
0.240064 0.240064 0.240064
0.340540 0.340540 0.340540
0.460625 0.460625 0.460625
0.178878 0.178878 0.178878
0.240832 0.240832 0.240832
0.334061 0.334061 0.334061
0.451665 0.451665 0.451665
0.576161 0.576161 0.576161
0.670433 0.670433 0.670433
0.329219 0.329219 0.329219
0.449378 0.449378 0.449378
0.571083 0.571083 0.571083
0.667642 0.667642 0.667642
0.740890 0.740890 0.740890
0.787525 0.787525 0.787525
0.567023 0.567023 0.567023
0.667120 0.667120 0.667120
0.738599 0.738599 0.738599
0.787583 0.787583 0.787583
0.820387 0.820387 0.820387
0.839429 0.839429 0.839429
0.736964 0.736964 0.736964
0.786314 0.786314 0.786314
0.820245 0.820245 0.820245
0.839352 0.839352 0.839352
0.851848 0.851848 0.851848
0.858733 0.858733 0.858733
0.115613 0.115613 0.115613
0.120503 0.120503 0.120503
0.134511 0.134511 0.134511
0.158640 0.158640 0.158640
0.200641 0.200641 0.200641
0.272481 0.272481 0.272481
0.130891 0.130891 0.130891
0.158542 0.158542 0.158542
0.199810 0.199810 0.199810
0.272878 0.272878 0.272878
0.378269 0.378269 0.378269
0.505270 0.505270 0.505270
0.198632 0.198632 0.198632
0.269710 0.269710 0.269710
0.376070 0.376070 0.376070
0.501290 0.501290 0.501290
0.613097 0.613097 0.613097
0.702120 0.702120 0.702120
0.372913 0.372913 0.372913
0.495428 0.495428 0.495428
0.610424 0.610424 0.610424
0.699942 0.699942 0.699942
0.759230 0.759230 0.759230
0.803505 0.803505 0.803505
0.607382 0.607382 0.607382
0.695850 0.695850 0.695850
0.758822 0.758822 0.758822
0.801667 0.801667 0.801667
0.828652 0.828652 0.828652
0.844290 0.844290 0.844290
0.757813 0.757813 0.757813
0.800537 0.800537 0.800537
0.827351 0.827351 0.827351
0.844590 0.844590 0.844590
0.856167 0.856167 0.856167
0.861961 0.861961 0.861961
0.115613 0.115613 0.115613
0.125635 0.125635 0.125635
0.141486 0.141486 0.141486
0.171852 0.171852 0.171852
0.221910 0.221910 0.221910
0.309273 0.309273 0.309273
0.141520 0.141520 0.141520
0.168930 0.168930 0.168930
0.224079 0.224079 0.224079
0.305733 0.305733 0.305733
0.424593 0.424593 0.424593
0.548823 0.548823 0.548823
0.222210 0.222210 0.222210
0.305033 0.305033 0.305033
0.418259 0.418259 0.418259
0.544215 0.544215 0.544215
0.649342 0.649342 0.649342
0.725922 0.725922 0.725922
0.416618 0.416618 0.416618
0.541494 0.541494 0.541494
0.647555 0.647555 0.647555
0.723858 0.723858 0.723858
0.778007 0.778007 0.778007
0.813712 0.813712 0.813712
0.641169 0.641169 0.641169
0.720065 0.720065 0.720065
0.775923 0.775923 0.775923
0.813121 0.813121 0.813121
0.834946 0.834946 0.834946
0.849397 0.849397 0.849397
0.775898 0.775898 0.775898
0.812864 0.812864 0.812864
0.834141 0.834141 0.834141
0.849347 0.849347 0.849347
0.858742 0.858742 0.858742
0.865249 0.865249 0.865249
