example_ofxGpuLutCube/bin/data/ofxGpuLutCube/LUT/S5 (B&W contrasty).cube
LUT_3D_SIZE 16
0.110648 0.110648 0.110648
0.110648 0.110648 0.110648
0.110648 0.110648 0.110648
0.116621 0.116621 0.116621
0.115613 0.115613 0.115613
0.115741 0.115741 0.115741
0.115613 0.115613 0.115613
0.120636 0.120636 0.120636
0.123659 0.123659 0.123659
0.125726 0.125726 0.125726
0.131314 0.131314 0.131314
0.136097 0.136097 0.136097
0.143671 0.143671 0.143671
0.152362 0.152362 0.152362
0.162781 0.162781 0.162781
0.177881 0.177881 0.177881
0.110648 0.110648 0.110648
0.112444 0.112444 0.112444
0.116621 0.116621 0.116621
0.116034 0.116034 0.116034
0.116732 0.116732 0.116732
0.120720 0.120720 0.120720
0.121638 0.121638 0.121638
0.125726 0.125726 0.125726
0.131510 0.131510 0.131510
0.137087 0.137087 0.137087
0.143524 0.143524 0.143524
0.153458 0.153458 0.153458
0.163161 0.163161 0.163161
0.176936 0.176936 0.176936
0.193492 0.193492 0.193492
0.213106 0.213106 0.213106
0.115613 0.115613 0.115613
0.115613 0.115613 0.115613
0.115613 0.115613 0.115613
0.120503 0.120503 0.120503
0.121988 0.121989 0.121989
0.122887 0.122887 0.122887
0.130890 0.130891 0.130891
0.137087 0.137087 0.137087
0.143680 0.143680 0.143680
0.153341 0.153341 0.153341
0.165487 0.165487 0.165487
0.177485 0.177485 0.177485
0.191032 0.191032 0.191032
0.215112 0.215112 0.215112
0.236530 0.236530 0.236530
0.260722 0.260722 0.260722
0.118625 0.118625 0.118625
0.120636 0.120636 0.120636
0.123588 0.123588 0.123588
0.124373 0.124373 0.124373
0.130084 0.130084 0.130084
0.135930 0.135930 0.135930
0.144750 0.144750 0.144750
0.152271 0.152271 0.152271
0.163814 0.163814 0.163814
0.175876 0.175876 0.175876
0.194110 0.194110 0.194110
0.212087 0.212087 0.212087
0.230949 0.230949 0.230949
0.259827 0.259827 0.259827
0.291263 0.291263 0.291263
0.324452 0.324452 0.324452
0.120636 0.120636 0.120636
0.125726 0.125726 0.125726
0.132052 0.132052 0.132052
0.136097 0.136097 0.136097
0.145049 0.145049 0.145049
0.151652 0.151652 0.151652
0.162781 0.162781 0.162781
0.178496 0.178496 0.178496
0.191213 0.191213 0.191213
0.208738 0.208738 0.208738
0.231785 0.231785 0.231785
0.259468 0.259468 0.259468
0.293969 0.293969 0.293969
0.324682 0.324682 0.324682
0.362548 0.362548 0.362548
0.401728 0.401728 0.401728
0.130891 0.130890 0.130891
0.136241 0.136241 0.136241
0.141493 0.141493 0.141493
0.152590 0.152590 0.152590
0.161804 0.161804 0.161804
0.178339 0.178339 0.178339
0.193492 0.193492 0.193492
0.213180 0.213180 0.213180
0.234747 0.234747 0.234747
0.259034 0.259034 0.259034
0.289011 0.289011 0.289011
0.325979 0.325979 0.325979
0.362295 0.362295 0.362295
0.402410 0.402410 0.402410
0.440812 0.440812 0.440812
0.485441 0.485441 0.485441
0.142607 0.142607 0.142607
0.153320 0.153320 0.153320
0.163080 0.163080 0.163080
0.177463 0.177463 0.177463
0.193090 0.193090 0.193090
0.211964 0.211964 0.211964
0.232334 0.232334 0.232334
0.257697 0.257697 0.257697
0.290463 0.290463 0.290463
0.326047 0.326047 0.326047
0.359204 0.359204 0.359204
0.400818 0.400818 0.400818
0.443199 0.443199 0.443199
0.484939 0.484939 0.484939
0.522543 0.522543 0.522543
0.562779 0.562779 0.562779
0.159696 0.159696 0.159696
0.175890 0.175890 0.175890
0.191466 0.191466 0.191466
0.208292 0.208292 0.208292
0.231835 0.231835 0.231835
0.255986 0.255986 0.255986
0.288592 0.288592 0.288592
0.321952 0.321952 0.321952
0.358574 0.358574 0.358574
0.400367 0.400367 0.400367
0.438298 0.438298 0.438298
0.479308 0.479308 0.479308
0.522557 0.522557 0.522557
0.562545 0.562545 0.562545
0.597169 0.597169 0.597169
0.634964 0.634964 0.634964
0.190600 0.190600 0.190600
0.208533 0.208533 0.208533
0.229946 0.229946 0.229946
0.260484 0.260484 0.260484
0.286449 0.286449 0.286449
0.322201 0.322201 0.322201
0.358748 0.358748 0.358748
0.400441 0.400441 0.400441
0.437938 0.437938 0.437938
0.478447 0.478447 0.478447
0.522626 0.522626 0.522626
0.561561 0.561561 0.561561
0.600047 0.600047 0.600047
0.633768 0.633768 0.633768
0.659864 0.659864 0.659864
0.687034 0.687034 0.687034
0.231238 0.231238 0.231238
0.254781 0.254781 0.254781
0.286828 0.286828 0.286828
0.316194 0.316194 0.316194
0.358381 0.358381 0.358381
0.397981 0.397981 0.397981
0.437061 0.437061 0.437061
0.479114 0.479114 0.479114
0.521450 0.521450 0.521450
0.560065 0.560065 0.560065
0.598073 0.598073 0.598073
0.632625 0.632625 0.632625
0.661653 0.661653 0.661653
0.686491 0.686491 0.686491
0.713513 0.713513 0.713513
0.735145 0.735145 0.735145
0.285054 0.285054 0.285054
0.318887 0.318887 0.318887
0.352940 0.352940 0.352940
0.397300 0.397300 0.397300
0.432702 0.432702 0.432702
0.478607 0.478607 0.478607
0.519630 0.519630 0.519630
0.558727 0.558727 0.558727
0.596446 0.596446 0.596446
0.626379 0.626379 0.626379
0.661187 0.661187 0.661187
0.686566 0.686566 0.686566
0.709984 0.709984 0.709984
0.734589 0.734589 0.734589
0.752611 0.752611 0.752611
0.769400 0.769400 0.769400
0.353293 0.353293 0.353293
0.395168 0.395168 0.395168
0.435410 0.435410 0.435410
0.474374 0.474374 0.474374
0.517329 0.517329 0.517329
0.559671 0.559671 0.559671
0.595106 0.595106 0.595106
0.626329 0.626329 0.626329
0.660564 0.660564 0.660564
0.686474 0.686474 0.686474
0.709628 0.709628 0.709628
0.733218 0.733218 0.733218
0.753125 0.753125 0.753125
0.768513 0.768513 0.768513
0.783059 0.783059 0.783059
0.796425 0.796425 0.796425
0.433541 0.433541 0.433541
0.471714 0.471714 0.471714
0.518420 0.518420 0.518420
0.556078 0.556078 0.556078
0.592456 0.592456 0.592456
0.625255 0.625255 0.625255
0.657341 0.657341 0.657341
0.684499 0.684499 0.684499
0.708959 0.708959 0.708959
0.733243 0.733243 0.733243
0.751565 0.751565 0.751565
0.770843 0.770843 0.770843
0.786085 0.786085 0.786085
0.797154 0.797154 0.797154
0.807460 0.807460 0.807460
0.815628 0.815628 0.815628
0.517429 0.517429 0.517429
0.552820 0.552820 0.552820
0.593184 0.593184 0.593184
0.625571 0.625571 0.625571
0.657355 0.657355 0.657355
0.682906 0.682906 0.682906
0.710307 0.710307 0.710307
0.732484 0.732484 0.732484
0.751357 0.751357 0.751357
0.767827 0.767827 0.767827
0.783187 0.783187 0.783187
0.795733 0.795733 0.795733
0.807713 0.807713 0.807713
0.818389 0.818389 0.818389
0.825291 0.825291 0.825291
0.832293 0.832293 0.832293
0.593790 0.593790 0.593790
0.625158 0.625158 0.625158
0.657654 0.657654 0.657654
0.683420 0.683420 0.683420
0.710413 0.710413 0.710413
0.732410 0.732410 0.732410
0.752050 0.752050 0.752050
0.767271 0.767271 0.767271
0.783059 0.783059 0.783059
0.796973 0.796973 0.796973
0.807174 0.807174 0.807174
0.817338 0.817338 0.817338
0.824088 0.824088 0.824088
0.832061 0.832061 0.832061
0.836054 0.836054 0.836054
0.843030 0.843030 0.843030
0.651029 0.651029 0.651029
0.682968 0.682968 0.682968
0.708792 0.708792 0.708792
0.731622 0.731622 0.731622
0.749222 0.749222 0.749222
0.768519 0.768519 0.768519
0.782934 0.782934 0.782934
0.796535 0.796535 0.796535
0.806756 0.806756 0.806756
0.814349 0.814349 0.814349
0.823333 0.823333 0.823333
0.830913 0.830913 0.830913
0.836681 0.836681 0.836681
0.842919 0.842919 0.842919
0.848635 0.848635 0.848635
0.849397 0.849397 0.849397
0.110648 0.110648 0.110648
0.110648 0.110648 0.110648
0.110648 0.110648 0.110648
0.116621 0.116621 0.116621
0.115741 0.115741 0.115741
0.115741 0.115741 0.115741
0.120636 0.120636 0.120636
0.120636 0.120636 0.120636
0.125726 0.125726 0.125726
0.125726 0.125726 0.125726
0.134772 0.134772 0.134772
0.137425 0.137425 0.137425
0.147304 0.147304 0.147304
0.159207 0.159207 0.159207
0.167684 0.167684 0.167684
0.181873 0.181873 0.181873
0.111461 0.111461 0.111461
0.115613 0.115613 0.115613
0.116247 0.116247 0.116247
0.115613 0.115613 0.115613
0.119991 0.119991 0.119991
0.121111 0.121111 0.121111
0.122474 0.122474 0.122474
0.126129 0.126129 0.126129
0.132461 0.132461 0.132461
0.138140 0.138140 0.138140
0.147274 0.147274 0.147274
0.155899 0.155899 0.155899
0.166952 0.166952 0.166952
0.183984 0.183984 0.183984
0.198418 0.198418 0.198418
0.218611 0.218611 0.218611
0.115613 0.115613 0.115613
0.115613 0.115613 0.115613
0.118046 0.118046 0.118046
0.120503 0.120503 0.120503
0.122787 0.122787 0.122787
0.127811 0.127811 0.127811
0.133013 0.133013 0.133013
0.139620 0.139620 0.139620
0.147931 0.147931 0.147931
0.154614 0.154614 0.154614
0.169602 0.169602 0.169602
0.181361 0.181361 0.181361
0.200237 0.200237 0.200237
0.217927 0.217927 0.217927
0.242852 0.242852 0.242852
0.274191 0.274191 0.274191
0.118625 0.118625 0.118625
0.120636 0.120636 0.120636
0.122330 0.122330 0.122330
0.126911 0.126911 0.126911
0.131108 0.131108 0.131108
0.139062 0.139062 0.139062
0.145832 0.145832 0.145832
0.155474 0.155474 0.155474
0.166693 0.166693 0.166693
0.183219 0.183219 0.183219
0.199474 0.199474 0.199474
0.220372 0.220373 0.220373
0.243977 0.243977 0.243977
0.271196 0.271196 0.271196
0.305947 0.305947 0.305947
0.339789 0.339789 0.339789
0.124882 0.124882 0.124882
0.127184 0.127184 0.127184
0.135221 0.135221 0.135221
0.137622 0.137622 0.137622
0.145975 0.145975 0.145975
0.156378 0.156379 0.156379
0.167709 0.167709 0.167709
0.183058 0.183058 0.183058
0.197370 0.197370 0.197370
0.220862 0.220862 0.220862
0.243789 0.243789 0.243789
0.274599 0.274599 0.274599
0.303080 0.303080 0.303080
0.337617 0.337617 0.337617
0.373466 0.373466 0.373466
0.417284 0.417284 0.417284
0.130891 0.130890 0.130891
0.137294 0.137294 0.137294
0.146984 0.146984 0.146984
0.155036 0.155036 0.155036
0.168092 0.168092 0.168092
0.178193 0.178193 0.178193
0.198223 0.198223 0.198223
0.218087 0.218087 0.218087
0.243592 0.243592 0.243592
0.270926 0.270926 0.270926
0.302096 0.302096 0.302096
0.336131 0.336131 0.336131
0.377433 0.377433 0.377433
0.417284 0.417284 0.417284
0.458476 0.458476 0.458476
0.499718 0.499718 0.499718
0.147767 0.147767 0.147767
0.154566 0.154566 0.154566
0.166779 0.166778 0.166779
0.182614 0.182614 0.182614
0.198374 0.198374 0.198374
0.218817 0.218817 0.218817
0.239836 0.239836 0.239836
0.270256 0.270256 0.270256
0.300331 0.300331 0.300331
0.333006 0.333006 0.333006
0.376383 0.376383 0.376383
0.413949 0.413949 0.413949
0.456308 0.456308 0.456308
0.496269 0.496269 0.496269
0.538225 0.538225 0.538225
0.577742 0.577742 0.577742
0.167074 0.167074 0.167074
0.178882 0.178882 0.178882
0.197239 0.197239 0.197239
0.217489 0.217489 0.217489
0.240082 0.240082 0.240082
0.267848 0.267848 0.267848
0.299928 0.299928 0.299928
0.336628 0.336628 0.336628
0.372338 0.372338 0.372338
0.411335 0.411335 0.411335
0.457790 0.457790 0.457790
0.497160 0.497160 0.497160
0.537975 0.537975 0.537975
0.575415 0.575415 0.575415
0.611090 0.611090 0.611090
0.642625 0.642625 0.642625
0.194445 0.194445 0.194445
0.217765 0.217765 0.217765
0.239782 0.239782 0.239782
0.268054 0.268054 0.268054
0.303187 0.303187 0.303187
0.335501 0.335501 0.335501
0.372452 0.372452 0.372452
0.412023 0.412023 0.412023
0.455032 0.455032 0.455032
0.497554 0.497554 0.497554
0.534938 0.534938 0.534938
0.574960 0.574960 0.574960
0.611225 0.611225 0.611225
0.644220 0.644220 0.644220
0.673694 0.673694 0.673694
0.696412 0.696412 0.696412
0.240192 0.240192 0.240192
0.268067 0.268067 0.268067
0.298844 0.298844 0.298844
0.331129 0.331129 0.331129
0.370462 0.370462 0.370462
0.412979 0.412979 0.412979
0.452837 0.452837 0.452837
0.496615 0.496615 0.496615
0.534348 0.534348 0.534348
0.573069 0.573069 0.573069
0.606631 0.606631 0.606631
0.641335 0.641335 0.641335
0.669981 0.669981 0.669981
0.697207 0.697207 0.697207
0.721806 0.721806 0.721806
0.739055 0.739055 0.739055
0.297233 0.297233 0.297233
0.332245 0.332245 0.332245
0.369017 0.369017 0.369017
0.406716 0.406716 0.406716
0.449101 0.449101 0.449101
0.493090 0.493090 0.493090
0.534336 0.534336 0.534336
0.572656 0.572656 0.572656
0.607675 0.607675 0.607675
0.640476 0.640476 0.640476
0.668315 0.668315 0.668315
0.697559 0.697559 0.697559
0.718970 0.718970 0.718970
0.741084 0.741084 0.741084
0.759616 0.759616 0.759616
0.775932 0.775932 0.775932
0.369305 0.369305 0.369305
0.408487 0.408487 0.408487
0.450677 0.450677 0.450677
0.491278 0.491278 0.491278
0.532243 0.532243 0.532243
0.570102 0.570102 0.570102
0.606585 0.606585 0.606585
0.638429 0.638429 0.638429
0.668592 0.668592 0.668592
0.696204 0.696204 0.696204
0.720336 0.720336 0.720336
0.739856 0.739856 0.739856
0.759515 0.759515 0.759515
0.775452 0.775452 0.775452
0.789435 0.789435 0.789435
0.799597 0.799597 0.799597
0.446506 0.446506 0.446506
0.488141 0.488141 0.488141
0.530872 0.530872 0.530872
0.571913 0.571913 0.571913
0.605993 0.605993 0.605993
0.638195 0.638195 0.638195
0.668558 0.668558 0.668558
0.694385 0.694385 0.694385
0.719279 0.719279 0.719279
0.740309 0.740309 0.740309
0.757976 0.757976 0.757976
0.774122 0.774122 0.774122
0.789914 0.789914 0.789914
0.800492 0.800492 0.800492
0.812178 0.812178 0.812178
0.818073 0.818073 0.818073
0.533899 0.533899 0.533899
0.569655 0.569655 0.569655
0.603232 0.603232 0.603232
0.638010 0.638010 0.638010
0.668128 0.668128 0.668128
0.693778 0.693778 0.693778
0.718017 0.718017 0.718017
0.741341 0.741341 0.741341
0.758029 0.758029 0.758029
0.774664 0.774664 0.774664
0.789692 0.789692 0.789692
0.800724 0.800724 0.800724
0.811786 0.811786 0.811786
0.820118 0.820118 0.820118
0.828382 0.828382 0.828382
0.833908 0.833908 0.833908
0.601897 0.601897 0.601897
0.636090 0.636090 0.636090
0.665605 0.665605 0.665605
0.694203 0.694203 0.694203
0.718194 0.718194 0.718194
0.739253 0.739253 0.739253
0.756004 0.756004 0.756004
0.775945 0.775945 0.775945
0.787241 0.787241 0.787241
0.800347 0.800347 0.800347
0.810422 0.810422 0.810422
0.819736 0.819736 0.819736
0.827467 0.827467 0.827467
0.832510 0.832510 0.832510
0.839369 0.839369 0.839369
0.843543 0.843543 0.843543
0.665019 0.665019 0.665019
0.692934 0.692934 0.692934
0.716842 0.716842 0.716842
0.738708 0.738708 0.738708
0.756851 0.756851 0.756851
0.774008 0.774008 0.774008
0.786820 0.786820 0.786820
0.800097 0.800097 0.800097
0.810152 0.810152 0.810152
0.820834 0.820834 0.820834
0.827731 0.827731 0.827731
0.833709 0.833709 0.833709
0.840454 0.840454 0.840454
0.843447 0.843447 0.843447
0.848675 0.848675 0.848675
0.852617 0.852617 0.852617
0.110648 0.110648 0.110648
0.110648 0.110648 0.110648
0.111829 0.111829 0.111829
0.116621 0.116621 0.116621
0.115741 0.115741 0.115741
0.115741 0.115741 0.115741
0.120636 0.120636 0.120636
0.120636 0.120636 0.120636
0.125726 0.125726 0.125726
0.127375 0.127375 0.127375
0.136097 0.136097 0.136097
0.141871 0.141871 0.141871
0.151330 0.151330 0.151330
0.162553 0.162553 0.162553
0.172909 0.172909 0.172909
0.187717 0.187717 0.187717
0.115613 0.115613 0.115613
0.115613 0.115613 0.115613
0.115613 0.115613 0.115613
0.115613 0.115613 0.115613
0.120720 0.120720 0.120720
0.121664 0.121664 0.121664
0.125726 0.125726 0.125726
0.127973 0.127973 0.127973
0.134765 0.134765 0.134765
0.142480 0.142480 0.142480
0.149695 0.149695 0.149695
0.160260 0.160260 0.160260
0.172545 0.172545 0.172545
0.189702 0.189702 0.189702
0.207623 0.207623 0.207623
0.229073 0.229073 0.229073
0.115613 0.115613 0.115613
0.116017 0.116017 0.116017
0.120503 0.120503 0.120503
0.120904 0.120904 0.120904
0.125864 0.125864 0.125864
0.127873 0.127873 0.127873
0.136241 0.136241 0.136241
0.142398 0.142398 0.142398
0.149827 0.149827 0.149827
0.160688 0.160688 0.160688
0.171460 0.171460 0.171460
0.187208 0.187208 0.187208
0.207082 0.207082 0.207082
0.229991 0.229991 0.229991
0.254270 0.254270 0.254270
0.283276 0.283276 0.283276
0.120636 0.120636 0.120636
0.120873 0.120873 0.120873
0.125635 0.125635 0.125635
0.128432 0.128432 0.128432
0.135434 0.135434 0.135434
0.140828 0.140828 0.140828
0.149008 0.149008 0.149008
0.159960 0.159960 0.159960
0.175114 0.175114 0.175114
0.187741 0.187741 0.187741
0.203718 0.203718 0.203718
0.227186 0.227186 0.227186
0.252965 0.252965 0.252965
0.284040 0.284040 0.284040
0.316789 0.316789 0.316789
0.353114 0.353114 0.353114
0.125087 0.125087 0.125087
0.127963 0.127963 0.127963
0.135433 0.135433 0.135433
0.141134 0.141134 0.141134
0.148460 0.148460 0.148460
0.162821 0.162821 0.162821
0.172804 0.172804 0.172804
0.187963 0.187963 0.187963
0.205387 0.205387 0.205387
0.230040 0.230040 0.230040
0.251431 0.251431 0.251431
0.282153 0.282153 0.282153
0.315919 0.315919 0.315919
0.351163 0.351163 0.351163
0.391202 0.391202 0.391202
0.432307 0.432307 0.432307
0.136241 0.136241 0.136241
0.141540 0.141540 0.141540
0.148468 0.148468 0.148468
0.160678 0.160678 0.160678
0.172863 0.172863 0.172863
0.188107 0.188107 0.188107
0.205388 0.205388 0.205388
0.227556 0.227556 0.227556
0.250683 0.250683 0.250683
0.281369 0.281369 0.281369
0.312306 0.312306 0.312306
0.351711 0.351711 0.351711
0.388202 0.388202 0.388202
0.432411 0.432411 0.432411
0.472937 0.472937 0.472937
0.515260 0.515260 0.515260
0.150545 0.150545 0.150545
0.159063 0.159063 0.159063
0.170805 0.170805 0.170805
0.186952 0.186952 0.186952
0.206217 0.206217 0.206217
0.227355 0.227355 0.227355
0.252236 0.252236 0.252236
0.280768 0.280768 0.280768
0.315696 0.315696 0.315696
0.350871 0.350871 0.350871
0.388766 0.388766 0.388766
0.432024 0.432024 0.432024
0.473211 0.473211 0.473211
0.513606 0.513606 0.513606
0.552489 0.552489 0.552489
0.590493 0.590493 0.590493
0.171926 0.171926 0.171926
0.186913 0.186913 0.186913
0.204472 0.204472 0.204472
0.225163 0.225163 0.225163
0.253231 0.253231 0.253231
0.280373 0.280373 0.280373
0.314720 0.314720 0.314720
0.348522 0.348522 0.348522
0.386770 0.386770 0.386770
0.429895 0.429895 0.429895
0.472622 0.472622 0.472622
0.513889 0.513889 0.513889
0.550673 0.550673 0.550673
0.589361 0.589361 0.589361
0.623440 0.623440 0.623440
0.655252 0.655252 0.655252
0.202989 0.202989 0.202989
0.225695 0.225695 0.225695
0.250364 0.250364 0.250364
0.280373 0.280373 0.280373
0.310945 0.310945 0.310945
0.346494 0.346494 0.346494
0.387540 0.387540 0.387540
0.427872 0.427872 0.427872
0.468853 0.468853 0.468853
0.513161 0.513161 0.513160
0.550312 0.550312 0.550311
0.588055 0.588055 0.588055
0.622184 0.622184 0.622184
0.653712 0.653712 0.653712
0.682537 0.682537 0.682537
0.707651 0.707651 0.707651
0.247069 0.247069 0.247069
0.277032 0.277032 0.277032
0.311186 0.311186 0.311186
0.346456 0.346456 0.346456
0.386134 0.386134 0.386134
0.425574 0.425574 0.425574
0.468873 0.468873 0.468873
0.508696 0.508696 0.508696
0.551387 0.551387 0.551387
0.587734 0.587734 0.587734
0.618257 0.618257 0.618257
0.652696 0.652696 0.652696
0.681767 0.681767 0.681767
0.707631 0.707631 0.707631
0.728628 0.728628 0.728628
0.749461 0.749461 0.749461
0.309422 0.309422 0.309422
0.344120 0.344120 0.344120
0.383891 0.383891 0.383891
0.424533 0.424533 0.424533
0.470232 0.470232 0.470232
0.510995 0.510995 0.510995
0.548614 0.548614 0.548614
0.584967 0.584967 0.584967
0.619523 0.619523 0.619523
0.651214 0.651214 0.651214
0.680853 0.680853 0.680853
0.707078 0.707078 0.707078
0.728740 0.728740 0.728740
0.747692 0.747692 0.747692
0.765547 0.765547 0.765547
0.782356 0.782356 0.782356
0.382637 0.382637 0.382637
0.423725 0.423725 0.423725
0.462356 0.462356 0.462356
0.507946 0.507946 0.507946
0.547827 0.547827 0.547827
0.587436 0.587436 0.587436
0.618710 0.618710 0.618710
0.652382 0.652382 0.652382
0.680337 0.680337 0.680337
0.702821 0.702821 0.702821
0.727101 0.727101 0.727101
0.749305 0.749305 0.749305
0.765269 0.765269 0.765269
0.780782 0.780782 0.780782
0.793265 0.793265 0.793265
0.805876 0.805876 0.805876
0.464878 0.464878 0.464878
0.506391 0.506391 0.506391
0.548486 0.548486 0.548486
0.584496 0.584496 0.584496
0.618439 0.618439 0.618439
0.648214 0.648214 0.648214
0.677865 0.677865 0.677865
0.704151 0.704151 0.704151
0.726098 0.726098 0.726098
0.746535 0.746535 0.746535
0.764718 0.764718 0.764718
0.780348 0.780348 0.780348
0.794854 0.794854 0.794854
0.805273 0.805273 0.805273
0.815166 0.815166 0.815166
0.822778 0.822778 0.822778
0.545525 0.545525 0.545525
0.584949 0.584949 0.584949
0.618443 0.618443 0.618443
0.646102 0.646102 0.646102
0.678293 0.678293 0.678293
0.703991 0.703991 0.703991
0.727055 0.727055 0.727055
0.746643 0.746643 0.746643
0.764656 0.764656 0.764656
0.779920 0.779920 0.779920
0.793531 0.793531 0.793531
0.804171 0.804171 0.804171
0.814369 0.814369 0.814369
0.822606 0.822606 0.822606
0.830097 0.830097 0.830097
0.835516 0.835516 0.835516
0.618906 0.618906 0.618906
0.649190 0.649190 0.649190
0.678303 0.678303 0.678303
0.705108 0.705108 0.705108
0.726078 0.726078 0.726078
0.745167 0.745167 0.745167
0.763778 0.763778 0.763778
0.778052 0.778052 0.778052
0.792619 0.792619 0.792619
0.804841 0.804841 0.804841
0.813931 0.813931 0.813931
0.823315 0.823315 0.823315
0.830105 0.830105 0.830105
0.836398 0.836398 0.836398
0.842011 0.842011 0.842011
0.845496 0.845496 0.845496
0.674466 0.674466 0.674466
0.702884 0.702884 0.702884
0.726102 0.726102 0.726102
0.745626 0.745626 0.745626
0.763669 0.763669 0.763669
0.779267 0.779267 0.779267
0.792613 0.792613 0.792613
0.805327 0.805327 0.805327
0.814326 0.814326 0.814326
0.823298 0.823298 0.823298
0.830053 0.830053 0.830053
0.837146 0.837146 0.837146
0.841109 0.841109 0.841109
0.846141 0.846141 0.846141
0.849388 0.849388 0.849388
0.852541 0.852541 0.852541
0.110648 0.110648 0.110648
0.110648 0.110648 0.110648
0.116621 0.116621 0.116621
0.116621 0.116621 0.116621
0.115741 0.115741 0.115741
0.116493 0.116493 0.116493
0.120636 0.120636 0.120636
0.122639 0.122639 0.122639
0.125726 0.125726 0.125726
0.130890 0.130891 0.130891
0.136097 0.136097 0.136097
0.144225 0.144225 0.144225
0.155822 0.155822 0.155822
0.167743 0.167743 0.167743
0.179886 0.179886 0.179886
0.195321 0.195321 0.195321
0.114034 0.114034 0.114034
0.115613 0.115613 0.115613
0.116447 0.116447 0.116447
0.115613 0.115613 0.115613
0.120787 0.120787 0.120787
0.120510 0.120510 0.120510
0.125798 0.125798 0.125798
0.131934 0.131934 0.131934
0.136188 0.136188 0.136188
0.146046 0.146046 0.146046
0.152537 0.152537 0.152537
0.165103 0.165103 0.165103
0.180123 0.180123 0.180123
0.195049 0.195049 0.195049
0.214890 0.214890 0.214890
0.237897 0.237897 0.237897
0.114411 0.114411 0.114411
0.116954 0.116954 0.116954
0.120499 0.120499 0.120499
0.121870 0.121870 0.121870
0.125959 0.125959 0.125959
0.131911 0.131911 0.131911
0.137680 0.137680 0.137680
0.143940 0.143940 0.143940
0.153525 0.153525 0.153525
0.164064 0.164064 0.164064
0.176367 0.176367 0.176367
0.194345 0.194345 0.194345
0.212773 0.212773 0.212773
0.238016 0.238016 0.238016
0.264515 0.264515 0.264515
0.295628 0.295628 0.295628
0.120636 0.120636 0.120636
0.120973 0.120973 0.120973
0.125635 0.125635 0.125635
0.129827 0.129827 0.129827
0.136715 0.136715 0.136715
0.142690 0.142690 0.142690
0.154441 0.154441 0.154441
0.165838 0.165838 0.165838
0.178127 0.178127 0.178127
0.193825 0.193825 0.193825
0.212968 0.212968 0.212968
0.236729 0.236729 0.236729
0.263635 0.263635 0.263635
0.296060 0.296060 0.296060
0.329204 0.329204 0.329204
0.370109 0.370109 0.370109
0.125726 0.125726 0.125726
0.130891 0.130890 0.130891
0.134772 0.134772 0.134772
0.142853 0.142853 0.142853
0.151472 0.151472 0.151472
0.166398 0.166398 0.166398
0.177022 0.177022 0.177022
0.194028 0.194028 0.194028
0.214450 0.214450 0.214450
0.238151 0.238151 0.238151
0.264918 0.264918 0.264918
0.293401 0.293401 0.293401
0.329003 0.329003 0.329003
0.366561 0.366561 0.366561
0.406888 0.406888 0.406888
0.448052 0.448052 0.448052
0.136241 0.136241 0.136241
0.142607 0.142607 0.142607
0.152590 0.152590 0.152590
0.161736 0.161736 0.161736
0.177056 0.177056 0.177056
0.190099 0.190099 0.190099
0.214488 0.214488 0.214488
0.235671 0.235671 0.235671
0.261813 0.261813 0.261813
0.294044 0.294044 0.294044
0.329764 0.329764 0.329764
0.364865 0.364865 0.364865
0.404006 0.404006 0.404006
0.445713 0.445713 0.445713
0.489068 0.489068 0.489068
0.530088 0.530088 0.530088
0.153320 0.153320 0.153320
0.164344 0.164344 0.164344
0.178789 0.178789 0.178789
0.193331 0.193331 0.193331
0.211865 0.211865 0.211865
0.236565 0.236565 0.236565
0.262456 0.262456 0.262456
0.294225 0.294225 0.294225
0.327044 0.327044 0.327044
0.366096 0.366096 0.366096
0.405058 0.405058 0.405058
0.445466 0.445466 0.445466
0.487336 0.487336 0.487336
0.527496 0.527496 0.527496
0.567108 0.567108 0.567108
0.605907 0.605907 0.605907
0.174888 0.174888 0.174888
0.191032 0.191032 0.191032
0.212412 0.212412 0.212412
0.232805 0.232805 0.232805
0.261886 0.261886 0.261886
0.292170 0.292170 0.292170
0.326404 0.326404 0.326404
0.363064 0.363064 0.363064
