example_ofxGpuLutCube/bin/data/ofxGpuLutCube/LUT/S6 (B&W contrasty_1).cube
LUT_3D_SIZE 16
0.000000 0.000000 0.000000
0.000013 0.000013 0.000013
0.004524 0.004524 0.004524
0.012097 0.012086 0.012086
0.026574 0.026572 0.026572
0.048893 0.048876 0.048876
0.083422 0.083415 0.083415
0.130279 0.130248 0.130248
0.190927 0.190908 0.190908
0.251725 0.251700 0.251700
0.310449 0.310432 0.310432
0.366584 0.366554 0.366554
0.426800 0.426522 0.427151
0.482167 0.481941 0.481533
0.539526 0.546412 0.542915
0.590146 0.596887 0.593514
0.000411 0.000413 0.000411
0.004309 0.004309 0.004307
0.018183 0.018200 0.018183
0.036159 0.036159 0.036152
0.058733 0.058719 0.058716
0.079749 0.079736 0.079734
0.114981 0.114962 0.114957
0.167131 0.167116 0.167112
0.223559 0.223561 0.223556
0.277989 0.277951 0.277948
0.332977 0.332978 0.332975
0.387401 0.387403 0.387400
0.440820 0.447018 0.443416
0.495265 0.502337 0.498806
0.547777 0.554669 0.551300
0.597691 0.604470 0.601094
0.008608 0.008613 0.008608
0.009489 0.009490 0.009488
0.017219 0.017228 0.017219
0.050133 0.050133 0.050131
0.115635 0.115653 0.115649
0.155815 0.155785 0.155777
0.190825 0.190844 0.190840
0.232195 0.232165 0.232155
0.278674 0.278656 0.278650
0.325056 0.325034 0.325028
0.372607 0.372624 0.372617
0.422649 0.422624 0.422617
0.470305 0.472269 0.470721
0.518870 0.520706 0.520293
0.565838 0.572722 0.569229
0.612430 0.619119 0.615768
0.027929 0.027934 0.027929
0.027758 0.027765 0.027757
0.035293 0.035297 0.035293
0.049112 0.049123 0.049106
0.095736 0.095724 0.095711
0.200588 0.200591 0.200576
0.280569 0.280560 0.280549
0.317928 0.317930 0.317921
0.353078 0.353065 0.353054
0.389258 0.389266 0.389232
0.428759 0.429819 0.429807
0.468693 0.468699 0.468696
0.507343 0.513324 0.510856
0.550728 0.557595 0.553143
0.590410 0.597185 0.593805
0.632303 0.639007 0.635651
0.066516 0.066532 0.066516
0.064590 0.064588 0.064587
0.069174 0.069183 0.069174
0.082148 0.082142 0.082145
0.103181 0.103177 0.103165
0.166776 0.166762 0.166763
0.275508 0.275502 0.275489
0.375655 0.375654 0.375655
0.434484 0.434282 0.434344
0.465450 0.466001 0.465687
0.491416 0.497445 0.494418
0.521522 0.528215 0.524828
0.551662 0.557578 0.555081
0.587956 0.594755 0.590337
0.622481 0.629173 0.625801
0.659715 0.666343 0.662983
0.118681 0.118679 0.118681
0.120477 0.120484 0.120479
0.122390 0.122389 0.122390
0.133206 0.133212 0.134513
0.158349 0.158346 0.158330
0.189154 0.188199 0.189304
0.245559 0.245556 0.245542
0.347689 0.348026 0.347825
0.444168 0.447832 0.445971
0.517665 0.521710 0.519683
0.552992 0.558445 0.555725
0.574447 0.580399 0.577435
0.601501 0.607263 0.604862
0.626836 0.634523 0.631197
0.655456 0.662104 0.658730
0.687010 0.693573 0.690311
0.194636 0.194663 0.194636
0.194579 0.194600 0.194575
0.195934 0.194663 0.195934
0.199728 0.199750 0.199724
0.222487 0.222487 0.222464
0.243849 0.243983 0.243913
0.273761 0.273761 0.273732
0.324293 0.324403 0.324345
0.414358 0.415285 0.414781
0.502722 0.504498 0.503609
0.570321 0.577224 0.573767
0.620645 0.627223 0.623446
0.646909 0.653606 0.651200
0.666820 0.674406 0.671178
0.690452 0.697040 0.693635
0.715768 0.722265 0.718980
0.269954 0.269975 0.269954
0.268963 0.268968 0.268960
0.271155 0.271176 0.271155
0.271356 0.271361 0.271353
0.281423 0.281604 0.281503
0.303847 0.303359 0.304237
0.326824 0.326982 0.326866
0.354096 0.354764 0.354493
0.395176 0.398796 0.397018
0.474319 0.478418 0.476389
0.552586 0.558965 0.555229
0.616408 0.622246 0.619314
0.666088 0.672838 0.670460
0.701675 0.708403 0.705956
0.721728 0.728313 0.725012
0.743466 0.750029 0.746760
0.339297 0.339322 0.339297
0.339725 0.339704 0.339723
0.338156 0.340459 0.339297
0.339725 0.339704 0.339723
0.343513 0.344423 0.344565
0.361519 0.361881 0.361756
0.380383 0.380188 0.380307
0.404516 0.404873 0.404737
0.427654 0.432641 0.430144
0.463537 0.469130 0.466363
0.530184 0.535926 0.533582
0.601332 0.608552 0.604982
0.658713 0.665373 0.661118
0.705445 0.711023 0.708739
0.742848 0.749435 0.746213
0.771579 0.777976 0.774794
0.409203 0.408849 0.409039
0.409197 0.408827 0.409037
0.407041 0.408849 0.407966
0.410253 0.408827 0.409037
0.409254 0.409509 0.409342
0.421281 0.421135 0.420732
0.436172 0.438547 0.437316
0.455464 0.458494 0.457043
0.476389 0.480188 0.478269
0.501520 0.505855 0.503614
0.528096 0.533836 0.530960
0.583790 0.590979 0.586845
0.647972 0.654568 0.651214
0.696769 0.703385 0.701087
0.739987 0.746453 0.743156
0.777157 0.783581 0.780416
0.474266 0.480165 0.477181
0.473878 0.479763 0.476766
0.476381 0.482248 0.479263
0.473878 0.479763 0.476766
0.477082 0.481060 0.480071
0.478610 0.481797 0.479626
0.492720 0.496660 0.494645
0.508736 0.512897 0.510759
0.526134 0.530283 0.528215
0.546205 0.550603 0.548384
0.565728 0.572789 0.568738
0.588398 0.595746 0.591570
0.633282 0.640020 0.636692
0.688627 0.695281 0.691897
0.734339 0.740839 0.737548
0.777595 0.784014 0.780761
0.537971 0.545001 0.541442
0.537859 0.544863 0.541335
0.539980 0.547033 0.543487
0.540863 0.544863 0.542368
0.540587 0.546123 0.543807
0.540643 0.547073 0.543829
0.546693 0.553166 0.549847
0.559888 0.566242 0.563068
0.574887 0.579931 0.577394
0.591070 0.596753 0.593855
0.607708 0.614683 0.610224
0.624699 0.631298 0.628424
0.642815 0.649606 0.646229
0.680882 0.686670 0.683323
0.728407 0.734972 0.731611
0.771959 0.778530 0.775276
0.595650 0.602475 0.599068
0.598808 0.605581 0.602211
0.597642 0.604451 0.602061
0.599808 0.605581 0.602211
0.599765 0.605596 0.602141
0.598564 0.605476 0.603000
0.600741 0.607585 0.604128
0.610462 0.617327 0.613902
0.621811 0.628523 0.625091
0.637019 0.643741 0.640334
0.649224 0.655841 0.651532
0.664254 0.670927 0.668519
0.678520 0.685101 0.682677
0.693096 0.699728 0.696377
0.723485 0.729894 0.726607
0.766993 0.773489 0.770208
0.653043 0.659792 0.656433
0.652904 0.659625 0.656279
0.653043 0.659792 0.656433
0.652904 0.659625 0.656279
0.652766 0.659145 0.656842
0.654977 0.661313 0.658179
0.655676 0.662091 0.658783
0.658819 0.665239 0.662097
0.669180 0.674257 0.671715
0.681742 0.687724 0.684765
0.692336 0.698298 0.694845
0.703870 0.710670 0.706854
0.715504 0.721934 0.718665
0.728306 0.734978 0.731581
0.740057 0.746524 0.743370
0.765095 0.771643 0.768352
0.704761 0.711458 0.708016
0.704874 0.711476 0.708138
0.702845 0.709549 0.707075
0.706831 0.713363 0.709139
0.706238 0.712792 0.710570
0.706283 0.712107 0.709563
0.708148 0.714843 0.711551
0.710104 0.716729 0.713359
0.716737 0.723351 0.719961
0.725810 0.732424 0.729075
0.733889 0.740457 0.737926
0.746652 0.753129 0.749847
0.752829 0.759259 0.756928
0.765915 0.772399 0.769087
0.779049 0.785496 0.782235
0.790158 0.796684 0.793335
0.759223 0.765767 0.762479
0.756268 0.762757 0.759448
0.755457 0.762011 0.759695
0.757247 0.763662 0.760463
0.758551 0.764921 0.762653
0.759424 0.765985 0.762705
0.761299 0.767801 0.764526
0.761308 0.767853 0.764579
0.764789 0.771315 0.768044
0.775934 0.782485 0.779146
0.783530 0.790960 0.786730
0.790867 0.797336 0.793101
0.802112 0.809453 0.806139
0.813659 0.819161 0.815950
0.828809 0.835215 0.832021
0.839412 0.845766 0.842656
0.003756 0.003756 0.003758
0.003964 0.003963 0.003964
0.004631 0.004631 0.004633
0.013360 0.013356 0.013360
0.025743 0.025733 0.025733
0.052982 0.052974 0.052969
0.087842 0.087815 0.087818
0.137449 0.137440 0.137428
0.197248 0.197255 0.197260
0.257183 0.257171 0.257174
0.311479 0.311485 0.311489
0.370484 0.370458 0.370461
0.427708 0.427507 0.428139
0.486415 0.487279 0.486760
0.536364 0.543252 0.539800
0.590234 0.597023 0.593546
0.004910 0.004911 0.004911
0.011867 0.011867 0.011867
0.017552 0.017555 0.017555
0.034063 0.034063 0.034063
0.054991 0.054982 0.054979
0.082017 0.081993 0.081996
0.119019 0.118986 0.118989
0.174206 0.174168 0.174179
0.228556 0.228067 0.228341
0.278670 0.284174 0.281392
0.336373 0.335956 0.336179
0.389153 0.389889 0.389491
0.440484 0.446748 0.444120
0.495094 0.502193 0.499616
0.547441 0.554438 0.550931
0.597508 0.604314 0.600895
0.025795 0.025800 0.025798
0.026148 0.026151 0.026148
0.032264 0.032269 0.032267
0.073009 0.073015 0.073009
0.112875 0.112866 0.112859
0.148879 0.148897 0.148876
0.191717 0.191706 0.191699
0.234569 0.234564 0.234564
0.279585 0.279633 0.279596
0.324624 0.324760 0.324670
0.373482 0.373514 0.373471
0.422218 0.423432 0.422275
0.470728 0.471545 0.471118
0.522074 0.522908 0.522495
0.566237 0.573034 0.569623
0.612522 0.619282 0.615899
0.052547 0.052544 0.052547
0.051971 0.051976 0.051971
0.054863 0.054864 0.054867
0.069320 0.069328 0.069320
0.122779 0.122753 0.122758
0.221333 0.221306 0.221323
0.280831 0.280823 0.280828
0.317201 0.317170 0.317195
0.350834 0.350573 0.350658
0.386848 0.390501 0.388696
0.427715 0.427449 0.427554
0.470601 0.470936 0.470252
0.505389 0.511394 0.508893
0.548620 0.556553 0.552131
0.592496 0.599286 0.595900
0.634230 0.640878 0.637627
0.087977 0.087987 0.087980
0.090155 0.090161 0.090155
0.089011 0.089014 0.089015
0.104317 0.104330 0.104317
0.126396 0.126395 0.126462
0.192522 0.192533 0.192520
0.293680 0.293679 0.293741
0.385145 0.385127 0.385143
0.433825 0.433983 0.433867
0.461570 0.462392 0.461977
0.488669 0.491986 0.490805
0.517776 0.521618 0.520197
0.553099 0.558940 0.555516
0.585393 0.592288 0.588834
0.623890 0.630556 0.627165
0.659152 0.665887 0.662520
0.148936 0.148957 0.148939
0.147996 0.148000 0.147996
0.147563 0.147578 0.147566
0.158917 0.158936 0.158917
0.180093 0.180122 0.180111
0.207651 0.207664 0.207665
0.264094 0.264121 0.264109
0.362721 0.362749 0.362734
0.455888 0.456355 0.456155
0.520826 0.523808 0.522278
0.550989 0.556549 0.553287
0.572525 0.579455 0.575941
0.599008 0.605903 0.601457
0.626115 0.632884 0.630443
0.656969 0.663656 0.660258
0.685373 0.692015 0.688652
0.218237 0.218245 0.218247
0.217737 0.217762 0.217738
0.216955 0.218245 0.216965
0.220260 0.220267 0.220261
0.238374 0.238375 0.238358
0.260278 0.260534 0.260417
0.288914 0.288915 0.288896
0.337405 0.337674 0.337560
0.426206 0.426590 0.426361
0.510618 0.511700 0.511128
0.576349 0.580690 0.578485
0.620276 0.625234 0.622738
0.645650 0.651362 0.648944
0.668343 0.675089 0.670641
0.690152 0.696770 0.693407
0.717231 0.723856 0.720497
0.288817 0.288736 0.288760
0.288367 0.288411 0.288369
0.287626 0.287581 0.287578
0.287210 0.287219 0.287212
0.296041 0.295818 0.295881
0.314985 0.315467 0.315221
0.338657 0.338462 0.338508
0.365963 0.366407 0.366193
0.406375 0.409918 0.408140
0.483231 0.488002 0.485544
0.557906 0.564232 0.561529
0.618923 0.625369 0.622078
0.669254 0.675932 0.672642
0.701359 0.707887 0.704573
0.720043 0.726592 0.723386
0.745047 0.751466 0.748254
0.353820 0.353529 0.353647
0.355520 0.355244 0.355346
0.353820 0.355786 0.353647
0.354394 0.354117 0.354219
0.356908 0.356451 0.356104
0.371444 0.370714 0.370511
0.390156 0.393009 0.391576
0.412042 0.416734 0.414379
0.436157 0.442966 0.439513
0.470650 0.477801 0.474194
0.536262 0.543733 0.539435
0.606051 0.611791 0.608401
0.661748 0.667501 0.664076
0.706810 0.713332 0.710053
0.743956 0.750490 0.747136
0.770071 0.776569 0.773294
0.420034 0.423148 0.421576
0.418447 0.421507 0.419982
0.420034 0.419929 0.420499
0.421685 0.420442 0.419982
0.419916 0.422079 0.421041
0.426679 0.430293 0.428521
0.443505 0.447749 0.445670
0.461803 0.467470 0.464673
0.482629 0.489380 0.485979
0.505068 0.511976 0.508489
0.533188 0.540804 0.537487
0.588242 0.595914 0.592485
0.650590 0.657291 0.653899
0.698568 0.706095 0.701798
0.741658 0.748097 0.744756
0.778823 0.785245 0.782056
0.481523 0.488166 0.484914
0.483179 0.489726 0.486440
0.483603 0.490251 0.487004
0.484211 0.488664 0.486440
0.483500 0.489203 0.487284
0.485998 0.490782 0.489395
0.499060 0.504750 0.501841
0.513966 0.520708 0.517290
0.530356 0.537259 0.533821
0.548803 0.555600 0.552255
0.568864 0.575624 0.571226
0.593932 0.599676 0.596304
0.637186 0.643777 0.639536
0.689847 0.696511 0.692152
0.738065 0.744454 0.741292
0.776020 0.782531 0.779239
0.545105 0.551986 0.548564
0.543992 0.550889 0.547393
0.545105 0.553034 0.548564
0.544976 0.551885 0.548395
0.546908 0.550575 0.548203
0.546332 0.550338 0.548835
0.552971 0.559621 0.556306
0.564521 0.571496 0.567997
0.578776 0.585628 0.582158
0.593339 0.600152 0.596746
0.609614 0.616369 0.612897
0.627929 0.634613 0.631290
0.646238 0.652990 0.649580
0.682014 0.688729 0.685399
0.729836 0.736295 0.733030
0.773990 0.780528 0.777310
0.602293 0.609146 0.605752
0.601079 0.607859 0.604487
0.602293 0.609146 0.605752
0.602083 0.608828 0.604487
0.602954 0.609643 0.605310
0.602731 0.609456 0.607037
0.605923 0.612558 0.609227
0.613628 0.620274 0.616883
0.626313 0.633032 0.629602
0.639050 0.645713 0.642380
0.651708 0.658381 0.655015
0.666286 0.671930 0.669594
0.678283 0.684976 0.680694
0.695316 0.701959 0.698609
0.726140 0.732635 0.729406
0.769114 0.775646 0.772326
0.654066 0.660737 0.657422
0.653962 0.660591 0.657236
0.656012 0.661746 0.658354
0.656834 0.663548 0.660193
0.655727 0.662502 0.658980
0.656865 0.663576 0.659236
0.658644 0.665382 0.661889
0.661795 0.668394 0.665032
0.671281 0.677907 0.674539
0.682222 0.688847 0.685484
0.693395 0.700004 0.695718
0.705337 0.711864 0.708528
0.716309 0.722903 0.719539
0.728704 0.735105 0.731776
0.744689 0.751280 0.747997
0.769148 0.775546 0.772348
0.708031 0.714684 0.711427
0.705702 0.712410 0.709126
0.706156 0.712633 0.709446
0.708590 0.715192 0.711045
0.707932 0.714586 0.711332
0.708705 0.715172 0.711949
0.707932 0.714586 0.711332
0.711577 0.718133 0.714770
0.716836 0.723372 0.720016
0.725805 0.732192 0.728996
0.734867 0.741389 0.738986
0.745608 0.751136 0.748852
0.753727 0.760297 0.756919
0.765929 0.772410 0.769123
0.779963 0.786390 0.783179
0.790173 0.796695 0.793371
0.756224 0.762776 0.759467
0.759270 0.765897 0.762529
0.759089 0.765564 0.762259
0.759270 0.765897 0.762529
0.761637 0.768105 0.764814
0.760499 0.767071 0.763768
0.759824 0.766234 0.762941
0.761476 0.767975 0.764745
0.766241 0.772819 0.769572
0.773641 0.780132 0.776848
0.782146 0.788639 0.784491
0.790460 0.796867 0.794564
0.803688 0.809152 0.805971
0.812965 0.819354 0.816204
0.826747 0.833085 0.829946
0.839693 0.845997 0.842867
0.007611 0.007611 0.007615
0.008630 0.008629 0.008633
0.009463 0.009463 0.009468
0.022433 0.022431 0.022439
0.039888 0.039879 0.039884
0.060854 0.060849 0.060854
0.090506 0.090488 0.090491
0.135934 0.135927 0.135934
0.196504 0.196498 0.196507
0.256562 0.256546 0.256548
0.313104 0.314258 0.313106
0.367658 0.373184 0.369924
0.427602 0.427371 0.427978
0.482272 0.483095 0.482677
0.538328 0.545157 0.541666
0.589263 0.596018 0.592642
0.013037 0.013039 0.013042
0.021688 0.021688 0.021692
0.027140 0.027147 0.027150
0.043881 0.043881 0.043884
0.057850 0.057852 0.057855
0.079845 0.079885 0.079861
0.117292 0.117299 0.117304
0.168601 0.168653 0.168619
0.224489 0.225147 0.224797
0.278798 0.281823 0.280308
0.334956 0.334403 0.335245
0.385983 0.389917 0.388467
0.438904 0.445120 0.442011
0.492217 0.499296 0.495754
0.548038 0.553904 0.550903
0.599760 0.600575 0.600153
0.031434 0.031440 0.031440
0.040809 0.040812 0.040812
0.063131 0.063142 0.063142
0.076919 0.076922 0.076922
0.104084 0.104071 0.104071
0.138215 0.138134 0.138173
0.180546 0.180532 0.180532
0.226109 0.226024 0.226078
0.273757 0.273399 0.273526
0.323279 0.323441 0.323323
0.370201 0.369921 0.370005
0.416676 0.421103 0.418848
0.467885 0.469567 0.469283
0.519421 0.519039 0.518684
0.565506 0.572163 0.568852
0.611944 0.618489 0.615234
0.072530 0.072535 0.072531
0.082614 0.082616 0.082616
0.090195 0.090210 0.090205
0.103858 0.103862 0.103858
0.170121 0.170126 0.170122
0.231945 0.232022 0.232014
0.270666 0.270659 0.270656
0.306207 0.306287 0.306281
0.343260 0.344945 0.344130
0.382298 0.385308 0.383831
0.422625 0.423176 0.423460
0.464146 0.468071 0.465608
0.504347 0.509676 0.507431
0.548213 0.555812 0.552593
0.590520 0.596641 0.593492
0.632850 0.635296 0.634153
0.131681 0.131682 0.131679
0.133882 0.133892 0.133886
0.131681 0.131682 0.131679
0.140544 0.140554 0.140547
0.165047 0.165056 0.165047
0.229865 0.228889 0.229999
0.323536 0.323541 0.323535
0.389978 0.390280 0.390137
0.426450 0.428870 0.427595
0.453757 0.457152 0.455469
0.485688 0.488050 0.486823
0.516326 0.519608 0.517979
0.547947 0.554893 0.550356
0.584916 0.591769 0.587270
0.619837 0.626595 0.623149
0.657752 0.664375 0.660956
0.190038 0.190058 0.190045
0.191270 0.191287 0.191274
0.190038 0.190058 0.190045
0.192579 0.192597 0.192584
0.211486 0.211486 0.211501
0.237287 0.236362 0.237458
0.294158 0.294158 0.294187
0.385600 0.385870 0.385801
0.471327 0.473070 0.472236
0.521603 0.525026 0.523300
0.547631 0.552358 0.549514
0.570273 0.576662 0.573949
0.596455 0.601317 0.598917
0.626726 0.632500 0.629152
0.654406 0.661090 0.657819
0.685961 0.692637 0.689353
0.252275 0.252291 0.252281
0.252087 0.252102 0.252089
0.253489 0.253507 0.253496
0.254524 0.254528 0.254527
0.264348 0.264855 0.264530
0.286684 0.286039 0.286915
0.312651 0.313106 0.312834
0.361189 0.361755 0.361458
0.444762 0.446441 0.445638
0.522957 0.525771 0.524333
0.582672 0.588254 0.585487
0.619296 0.625955 0.623581
0.643290 0.650048 0.646698
0.665025 0.671699 0.668334
0.688775 0.695402 0.692117
0.712998 0.719515 0.716227
0.315235 0.315166 0.315224
0.315667 0.315674 0.315670
0.315235 0.316304 0.315224
0.316820 0.316827 0.316823
0.321436 0.321289 0.321332
0.337035 0.338210 0.337034
0.361066 0.360910 0.360954
0.385108 0.385129 0.385107
0.425060 0.427617 0.426302
0.497729 0.501523 0.499575
0.567239 0.573653 0.570422
0.627705 0.633235 0.630408
0.671801 0.678372 0.675158
0.701617 0.707168 0.704879
0.720701 0.727090 0.723933
0.742433 0.748860 0.745701
0.377257 0.378758 0.377999
0.377843 0.377802 0.377792
0.378385 0.378758 0.379083
0.378983 0.378942 0.378931
0.378847 0.378999 0.378389
0.389673 0.389244 0.389411
0.407337 0.410694 0.409053
0.428739 0.432625 0.430652
0.451674 0.457597 0.454577
0.485098 0.491035 0.488042
0.549022 0.554699 0.551761
0.612767 0.619374 0.615556
0.665809 0.673444 0.670158
0.710957 0.717531 0.713227
0.745138 0.751593 0.748357
0.770425 0.776870 0.773613
0.439978 0.441767 0.440835
0.438263 0.440249 0.439200
0.439978 0.441767 0.440835
0.439335 0.441300 0.440295
0.437223 0.440800 0.439556
0.442353 0.445840 0.443553
0.459523 0.462017 0.460788
0.477200 0.479571 0.478381
0.497150 0.499484 0.498341
0.517889 0.521128 0.519445
0.543355 0.550686 0.547527
0.595633 0.602710 0.600136
0.655200 0.662868 0.659528
0.702832 0.709371 0.707037
0.744196 0.750659 0.747518
0.782063 0.788516 0.785255
0.497692 0.504863 0.501304
0.498580 0.504992 0.501806
0.498750 0.504863 0.501304
0.497548 0.503970 0.500780
0.499673 0.504128 0.501871
0.498864 0.504424 0.501112
0.508987 0.515506 0.512211
0.523583 0.530135 0.526835
0.540297 0.546824 0.543585
0.557523 0.564157 0.560747
0.576625 0.584023 0.580841
0.598540 0.606064 0.602744
0.642941 0.649722 0.646360
0.696124 0.702737 0.699473
0.737041 0.743630 0.740360
0.779283 0.785759 0.782485
0.553214 0.560130 0.556621
0.555111 0.561870 0.558442
0.555243 0.562161 0.559648
0.555111 0.562851 0.559510
0.554987 0.561691 0.558336
0.556190 0.563927 0.560556
0.561009 0.567729 0.564367
0.571269 0.577997 0.574617
0.585890 0.591039 0.588463
0.601406 0.606677 0.604011
0.616610 0.622693 0.619179
0.631954 0.639143 0.636499
0.650262 0.657980 0.654553
0.686374 0.692897 0.689621
0.732822 0.739278 0.736052
0.774466 0.780774 0.777644
0.609850 0.616705 0.613279
0.610083 0.616893 0.613558
0.609850 0.615701 0.612254
0.608114 0.615923 0.612559
0.610526 0.617309 0.613860
0.609845 0.616603 0.613184
0.611493 0.618285 0.614858
0.619700 0.626453 0.623054
0.632347 0.638021 0.635128
0.643079 0.649021 0.646057
0.656724 0.663276 0.659519
0.669359 0.676154 0.672244
0.685014 0.691599 0.687304
0.699369 0.705960 0.701645
0.728866 0.735415 0.732135
0.770335 0.776724 0.773531
0.660705 0.667438 0.664061
0.660736 0.667500 0.664144
0.662619 0.669410 0.665031
0.662650 0.669439 0.666052
0.662186 0.668833 0.665578
0.662516 0.669176 0.664911
0.663127 0.669805 0.666548
0.666371 0.673073 0.669777
0.676388 0.682992 0.679612
0.685030 0.691636 0.688265
0.697537 0.704094 0.700779
0.707025 0.713602 0.710287
0.719449 0.726947 0.723747
0.730790 0.737407 0.733078
0.744073 0.750635 0.747475
0.769356 0.775902 0.772607
0.712173 0.718577 0.715406
0.711738 0.718376 0.714991
0.711116 0.717699 0.715406
0.708891 0.715546 0.712208
0.711652 0.718332 0.714977
0.712359 0.717932 0.715537
0.712627 0.719209 0.715898
0.713245 0.719809 0.716544
0.718914 0.725486 0.722207
0.727101 0.733563 0.730392
0.739767 0.746300 0.743023
0.746034 0.753386 0.749266
0.759251 0.764778 0.762523
0.769605 0.776044 0.772817
0.777969 0.784422 0.781181
0.792887 0.799290 0.796104
0.762927 0.769365 0.766091
0.760020 0.766604 0.763328
0.761949 0.768493 0.765185
0.761901 0.768485 0.764235
0.761483 0.767949 0.764754
0.762729 0.769180 0.765005
0.763358 0.769818 0.766624
0.764610 0.771057 0.767884
0.766671 0.773190 0.769930
0.773932 0.780525 0.777246
0.783532 0.790957 0.787641
0.790750 0.797256 0.793991
0.805665 0.812140 0.808007
0.815666 0.822167 0.818959
0.826922 0.833295 0.830145
0.842348 0.848822 0.845545
0.012831 0.012831 0.012837
0.015296 0.015292 0.015298
0.022883 0.022883 0.022891
0.034599 0.034595 0.034604
0.052122 0.052104 0.052110
0.084717 0.084705 0.084712
0.118126 0.118098 0.118109
0.160439 0.160414 0.160425
0.203713 0.203693 0.203706
0.250109 0.250082 0.250091
0.306879 0.305692 0.305676
0.365091 0.365059 0.365070
0.419294 0.424480 0.420804
0.475379 0.480449 0.477947
0.529373 0.536356 0.532875
0.585674 0.592489 0.589128
0.031953 0.031956 0.031962
0.038491 0.038491 0.038494
0.045985 0.045982 0.045990
0.057150 0.057150 0.057156
0.076527 0.076521 0.076521
0.105542 0.105516 0.105522
0.139441 0.139432 0.139433
0.179577 0.179579 0.179586
0.221046 0.221016 0.221027
0.272465 0.272453 0.272436
0.327238 0.327221 0.327228
0.383399 0.383384 0.383377
0.436129 0.438054 0.437658
0.488806 0.493863 0.492364
0.540281 0.547164 0.543770
0.593514 0.600340 0.596892
0.050485 0.050489 0.050492
0.063296 0.063299 0.063299
0.081570 0.081574 0.081577
0.095035 0.095041 0.095040
0.115220 0.115206 0.115210
0.145005 0.145026 0.145029
0.177289 0.177275 0.177279
0.216084 0.216095 0.216099
0.262391 0.262416 0.262427
0.311302 0.311539 0.311411
0.363007 0.363050 0.363064
0.411902 0.412149 0.412023
0.461673 0.465902 0.464268
0.512900 0.517036 0.514422
0.558552 0.565615 0.562057
0.604758 0.611656 0.608152
0.083855 0.083861 0.083861
0.096161 0.096162 0.096162
0.118283 0.118298 0.118298
0.149465 0.149467 0.149467
0.180878 0.180868 0.180868
0.214393 0.214430 0.214394
0.250284 0.250276 0.250276
0.288672 0.288675 0.288673
0.330134 0.330197 0.330127
0.372751 0.372882 0.372798
0.414467 0.414541 0.414503
0.457123 0.457232 0.457184
0.499683 0.505959 0.502261
0.541925 0.548090 0.545514
0.584017 0.591057 0.587507
0.628741 0.635659 0.632236
0.150277 0.150288 0.150279
0.161676 0.161687 0.161684
0.185069 0.185084 0.185080
0.195935 0.194658 0.194654
0.215412 0.215400 0.215395
0.277736 0.277920 0.277857
0.341496 0.341489 0.341486
0.381711 0.381863 0.381807
0.412643 0.413705 0.413165
0.444653 0.446487 0.445567
0.474440 0.478557 0.475967
0.509567 0.513406 0.511490
0.543761 0.549735 0.546252
0.580588 0.586381 0.583989
0.617746 0.624566 0.621153
0.652578 0.659147 0.655836
0.229103 0.229131 0.229121
0.237744 0.237753 0.237749
0.245144 0.245164 0.245157
0.246337 0.246346 0.246342
0.255978 0.255991 0.255981
0.278554 0.277468 0.278622
0.335651 0.335670 0.335654
0.420598 0.420700 0.420667
0.483463 0.484264 0.483856
0.516860 0.519591 0.518223
0.539049 0.544936 0.542525
0.565629 0.570359 0.569010
0.591870 0.596725 0.594287
0.621062 0.626802 0.624442
0.651900 0.658528 0.655251
0.680396 0.686974 0.683724
0.299449 0.299452 0.299458
0.298265 0.298216 0.298254
0.301790 0.301794 0.301799
0.299459 0.300541 0.300591
0.304283 0.304200 0.304240
0.322399 0.322282 0.322887
0.345549 0.345463 0.345500
0.395183 0.396108 0.395667
0.471587 0.473954 0.472753
0.542068 0.545365 0.543734
0.591038 0.595282 0.593141
0.617120 0.622252 0.619693
0.639342 0.644992 0.641632
0.661596 0.668223 0.663909
0.686809 0.693405 0.690004
0.712568 0.719038 0.715718
0.357033 0.357665 0.357370
0.355765 0.356345 0.356075
0.357033 0.357665 0.357370
0.356896 0.356345 0.356075
0.357644 0.357022 0.357846
0.369722 0.370224 0.369945
0.389797 0.390259 0.390011
0.412512 0.413000 0.412743
