example_ofxGpuLutCube/bin/data/ofxGpuLutCube/LUT/S6 (B&W contrasty_1).cube
LUT_3D_SIZE 6
0.000000 0.000000 0.000000
0.012097 0.012086 0.012086
0.083422 0.083415 0.083415
0.251725 0.251700 0.251700
0.426800 0.426522 0.427151
0.590146 0.596887 0.593514
0.027929 0.027934 0.027929
0.049112 0.049123 0.049106
0.280569 0.280560 0.280549
0.389258 0.389266 0.389232
0.507343 0.513324 0.510856
0.632303 0.639007 0.635651
0.194636 0.194663 0.194636
0.199728 0.199750 0.199724
0.273761 0.273761 0.273732
0.502722 0.504498 0.503609
0.646909 0.653606 0.651200
0.715768 0.722265 0.718980
0.409203 0.408849 0.409039
0.410253 0.408827 0.409037
0.436172 0.438547 0.437316
0.501520 0.505855 0.503614
0.647972 0.654568 0.651214
0.777157 0.783581 0.780416
0.595650 0.602475 0.599068
0.599808 0.605581 0.602211
0.600741 0.607585 0.604128
0.637019 0.643741 0.640334
0.678520 0.685101 0.682677
0.766993 0.773489 0.770208
0.759223 0.765767 0.762479
0.757247 0.763662 0.760463
0.761299 0.767801 0.764526
0.775934 0.782485 0.779146
0.802112 0.809453 0.806139
0.839412 0.845766 0.842656
0.012831 0.012831 0.012837
0.034599 0.034595 0.034604
0.118126 0.118098 0.118109
0.250109 0.250082 0.250091
0.419294 0.424480 0.420804
0.585674 0.592489 0.589128
0.083855 0.083861 0.083861
0.149465 0.149467 0.149467
0.250284 0.250276 0.250276
0.372751 0.372882 0.372798
0.499683 0.505959 0.502261
0.628741 0.635659 0.632236
0.299449 0.299452 0.299458
0.299459 0.300541 0.300591
0.345549 0.345463 0.345500
0.542068 0.545365 0.543734
0.639342 0.644992 0.641632
0.712568 0.719038 0.715718
0.465773 0.469815 0.467791
0.464860 0.471369 0.468151
0.477368 0.484492 0.480962
0.531707 0.537607 0.534639
0.663356 0.670077 0.667622
0.785755 0.792252 0.788993
0.618979 0.625299 0.622099
0.620146 0.626869 0.624565
0.622448 0.629131 0.625761
0.651016 0.657623 0.654266
0.689460 0.696128 0.692821
0.776013 0.782461 0.779271
0.763983 0.770463 0.767175
0.763253 0.769786 0.767416
0.768152 0.774685 0.771357
0.776740 0.783146 0.779910
0.806391 0.812774 0.809655
0.842584 0.848893 0.845789
0.103229 0.103229 0.103245
0.143875 0.143871 0.143899
0.224272 0.224240 0.224272
0.348605 0.349272 0.348940
0.461121 0.464987 0.462522
0.573065 0.577582 0.575311
0.231504 0.231494 0.231509
0.266495 0.266501 0.266509
0.316750 0.316700 0.316745
0.411614 0.412720 0.412223
0.499054 0.505822 0.502377
0.595837 0.601655 0.598689
0.357941 0.357970 0.357930
0.395446 0.395478 0.395474
0.475768 0.476226 0.475983
0.539659 0.545303 0.542501
0.609223 0.616062 0.613541
0.690872 0.697432 0.694140
0.545269 0.551749 0.548559
0.560914 0.567018 0.563499
0.570490 0.577269 0.573895
0.598832 0.605381 0.602133
0.703014 0.709715 0.706324
0.786753 0.793265 0.789974
0.668807 0.675563 0.672230
0.669948 0.675742 0.673415
0.670588 0.677182 0.673953
0.682359 0.689122 0.685845
0.714589 0.721085 0.716815
0.795571 0.802033 0.798773
0.782262 0.788750 0.785447
0.780851 0.787430 0.785104
0.783459 0.789941 0.786698
0.788029 0.794508 0.791290
0.814877 0.821204 0.817095
0.853104 0.859443 0.856355
0.298085 0.298085 0.298095
0.322790 0.322790 0.322812
0.380384 0.381474 0.380917
0.444715 0.445035 0.444854
0.529526 0.535546 0.532038
0.640695 0.647379 0.644046
0.387887 0.387833 0.387890
0.402543 0.403305 0.402412
0.443546 0.443618 0.443571
0.492403 0.493584 0.492940
0.563733 0.570643 0.566180
0.655012 0.661561 0.658335
0.474985 0.479007 0.477017
0.503944 0.507460 0.505712
0.551412 0.557939 0.554686
0.580464 0.587274 0.583888
0.633038 0.639812 0.636410
0.686520 0.693157 0.689852
0.575273 0.582171 0.578756
0.588565 0.595466 0.592015
0.624071 0.630558 0.627317
0.669119 0.675808 0.672496
0.708613 0.715114 0.711945
0.757270 0.763741 0.760479
0.697193 0.703844 0.700546
0.702777 0.709310 0.705281
0.718544 0.725262 0.721816
0.729895 0.736322 0.733089
0.747501 0.754016 0.750709
0.827967 0.834380 0.831104
0.807318 0.813621 0.810400
0.809559 0.816052 0.812781
0.812523 0.819059 0.815834
0.815203 0.821590 0.818410
0.829770 0.837027 0.832926
0.865234 0.871466 0.868332
0.511496 0.516338 0.514002
0.525137 0.526291 0.525235
0.552585 0.555225 0.553969
0.592363 0.599078 0.595740
0.628049 0.633756 0.631395
0.678972 0.685504 0.682227
0.553711 0.559068 0.556379
0.560088 0.565764 0.562994
0.581978 0.588506 0.585243
0.615230 0.621896 0.618621
0.646081 0.652698 0.649419
0.692342 0.698796 0.695652
0.621563 0.627204 0.624400
0.629085 0.635815 0.632405
0.641758 0.648561 0.645204
0.663599 0.670205 0.666899
0.686876 0.691819 0.689465
0.724771 0.731463 0.728151
0.658292 0.664868 0.661623
0.664961 0.671630 0.668384
0.687019 0.693613 0.690326
0.719039 0.725758 0.722303
0.736267 0.742829 0.739446
0.772527 0.778943 0.775722
0.716641 0.723129 0.719900
0.721903 0.728653 0.724304
0.736500 0.742990 0.739851
0.762879 0.769396 0.766070
0.796846 0.803120 0.800985
0.834611 0.841021 0.837851
0.820085 0.826569 0.823330
0.825078 0.831346 0.827233
0.832391 0.838569 0.835655
0.849755 0.856103 0.852952
0.859984 0.867236 0.864016
0.890255 0.896546 0.893432
0.713777 0.720173 0.716947
0.716801 0.723426 0.721101
0.728142 0.734711 0.731432
0.744447 0.750938 0.747712
0.763410 0.769824 0.766681
0.778776 0.785168 0.782042
0.724591 0.731097 0.727827
0.729857 0.736337 0.732179
0.737841 0.744454 0.741121
0.752629 0.759039 0.755890
0.771125 0.777616 0.774401
0.785517 0.791940 0.788842
0.747719 0.754265 0.751089
0.750986 0.757421 0.755123
0.758685 0.765114 0.761925
0.771407 0.777904 0.774725
0.787451 0.793894 0.790723
0.801055 0.807522 0.804299
0.766675 0.773153 0.769984
0.771685 0.778121 0.775858
0.786429 0.792895 0.789688
0.798077 0.804506 0.801325
0.812752 0.819080 0.815847
0.828119 0.834584 0.831392
0.799280 0.805663 0.802490
0.799295 0.806615 0.803412
0.809254 0.815621 0.812417
0.823757 0.830126 0.827003
0.852409 0.858657 0.855474
0.871694 0.877999 0.874867
0.849140 0.855443 0.852411
0.852613 0.858966 0.855827
0.859425 0.865911 0.862614
0.875217 0.881537 0.878396
0.898053 0.905128 0.901153
0.937069 0.942932 0.939968
