example_ofxGpuLutCube/bin/data/ofxGpuLutCube/LUT/S7 (red sunset sky tone).cube
LUT_3D_SIZE 6
0.081674 0.053013 0.080079
0.246953 0.032125 0.062402
0.490449 0.000000 0.064153
0.733446 0.000000 0.057647
0.904263 0.000444 0.068718
0.998964 0.128501 0.068852
0.021189 0.157162 0.051155
0.217114 0.155405 0.049966
0.502617 0.177077 0.025360
0.745856 0.179206 0.044827
0.905869 0.195216 0.057900
1.004194 0.244569 0.063510
0.006748 0.343831 0.093684
0.014120 0.359170 0.000249
0.434986 0.385823 0.008627
0.718619 0.421663 0.031576
0.894571 0.402668 0.046700
1.013714 0.410172 0.056497
0.010863 0.526899 0.138253
0.061148 0.534429 0.068798
0.372911 0.545740 0.000000
0.635974 0.570551 0.015252
0.856495 0.605822 0.034368
1.008518 0.586231 0.048122
0.017388 0.711614 0.150185
0.044130 0.716889 0.088329
0.352571 0.700039 0.000000
0.599065 0.715140 0.073757
0.791616 0.738094 0.138125
0.995598 0.767746 0.111011
0.328851 0.941884 0.366723
0.402584 0.936833 0.366309
0.509436 0.933937 0.372504
0.637819 0.933718 0.387429
0.784429 0.940781 0.413907
0.937721 0.946506 0.449950
0.066761 0.000320 0.143724
0.233259 0.000360 0.157941
0.504989 0.000000 0.201148
0.747793 0.000000 0.195336
0.913116 0.000000 0.168315
1.001720 0.000000 0.077185
0.000000 0.181155 0.222803
0.233353 0.177354 0.214303
0.530687 0.143518 0.201164
0.747249 0.139768 0.214867
0.909091 0.159047 0.205079
0.994567 0.216236 0.198794
0.000921 0.388297 0.225117
0.066480 0.393250 0.177573
0.446292 0.403038 0.190909
0.732153 0.409849 0.079470
0.898634 0.390612 0.086890
1.010308 0.403392 0.100340
0.004984 0.556968 0.244944
0.043129 0.562967 0.196829
0.376782 0.553509 0.167875
0.633698 0.580496 0.194724
0.862141 0.602294 0.035018
1.006893 0.578619 0.091101
0.010606 0.728088 0.255337
0.013171 0.727021 0.221211
0.362599 0.709195 0.206921
0.592862 0.719299 0.237614
0.786191 0.740538 0.286524
0.984458 0.767934 0.296323
0.341132 0.942977 0.433850
0.407456 0.938423 0.429789
0.506726 0.936783 0.431292
0.633379 0.937034 0.440271
0.781862 0.942151 0.467581
0.935824 0.949954 0.501873
0.143092 0.000948 0.474253
0.316968 0.000930 0.481096
0.549737 0.000859 0.497286
0.790662 0.000000 0.521129
0.926171 0.000000 0.498912
0.973887 0.000000 0.482754
0.141736 0.204141 0.466922
0.307849 0.205373 0.475647
0.545665 0.221574 0.492654
0.767327 0.240492 0.506884
0.904849 0.227630 0.487137
0.975898 0.266466 0.481073
0.000000 0.444306 0.469941
0.174787 0.452011 0.472583
0.497292 0.443870 0.473772
0.729056 0.414318 0.461200
0.897015 0.396070 0.444760
0.984200 0.418179 0.456783
0.000000 0.620842 0.442869
0.242987 0.617985 0.452942
0.460617 0.588506 0.436510
0.649897 0.600995 0.455030
0.853155 0.605505 0.435371
0.999789 0.578570 0.397889
0.227306 0.751218 0.463488
0.305014 0.746143 0.454697
0.430184 0.731725 0.430068
0.597416 0.723509 0.420758
0.786597 0.747784 0.467759
0.978913 0.769296 0.473642
0.374047 0.945334 0.524455
0.433483 0.945997 0.523834
0.515508 0.941556 0.518307
0.625058 0.938001 0.512871
0.780552 0.944075 0.539506
0.934590 0.948962 0.573217
0.284034 0.001489 0.688250
0.410704 0.001483 0.691237
0.602586 0.001524 0.700780
0.779291 0.001354 0.711985
0.925585 0.000356 0.711543
0.963260 0.084409 0.697927
0.296341 0.256385 0.673806
0.411260 0.258714 0.679685
0.591264 0.283999 0.682626
0.760037 0.319844 0.690666
0.908362 0.362347 0.690859
0.965997 0.413142 0.683548
0.225644 0.442883 0.652362
0.374032 0.449662 0.655296
0.565403 0.468595 0.661673
0.730686 0.495282 0.673410
0.883550 0.522382 0.685366
0.970036 0.503965 0.673093
0.200474 0.648752 0.665624
0.355035 0.648038 0.658014
0.511482 0.643279 0.676022
0.677271 0.637062 0.649883
0.846618 0.613186 0.647065
0.977323 0.604842 0.639422
0.250065 0.793454 0.640472
0.340006 0.789987 0.639774
0.480090 0.781093 0.635666
0.618128 0.749997 0.611782
0.794891 0.761300 0.634875
0.990174 0.761477 0.610763
0.431593 0.957195 0.649111
0.489439 0.953512 0.648915
0.557983 0.951044 0.642368
0.647346 0.945563 0.629425
0.782226 0.945572 0.631676
0.940775 0.950259 0.667612
0.439862 0.001869 0.827465
0.520716 0.001869 0.828174
0.646329 0.001911 0.830255
0.779713 0.001917 0.834719
0.911963 0.164412 0.839830
0.961174 0.279964 0.826000
0.443668 0.339869 0.810835
0.518597 0.343669 0.813924
0.637745 0.366114 0.813556
0.769216 0.408160 0.816343
0.898453 0.445759 0.821340
0.961843 0.479226 0.814953
0.440007 0.499182 0.797731
0.512472 0.502513 0.798839
0.626535 0.513143 0.800833
0.757057 0.540675 0.805023
0.884745 0.566238 0.813487
0.964394 0.585269 0.811275
0.388460 0.641683 0.786836
0.462984 0.639029 0.786063
0.580013 0.633052 0.786722
0.736206 0.657324 0.793227
0.870695 0.682009 0.805548
0.967194 0.699357 0.812001
0.397340 0.804942 0.802185
0.469383 0.803986 0.797545
0.576282 0.801428 0.799707
0.694112 0.798530 0.819062
0.829579 0.792039 0.790326
0.959664 0.772708 0.791070
0.480286 0.962596 0.780563
0.530749 0.962331 0.779384
0.589585 0.961568 0.779409
0.659453 0.960071 0.779042
0.745028 0.959344 0.764175
0.932657 0.955930 0.781201
0.564950 0.254251 0.912884
0.619475 0.263449 0.914145
0.701025 0.296604 0.915446
0.800509 0.344698 0.918267
0.901582 0.396618 0.922813
0.960083 0.430967 0.927425
0.570651 0.478543 0.904394
0.620567 0.478471 0.904648
0.700259 0.492391 0.905633
0.795643 0.512275 0.908574
0.895192 0.542318 0.913070
0.960679 0.561766 0.917605
0.573468 0.580707 0.903943
0.623329 0.583038 0.904124
0.699702 0.590707 0.905133
0.793761 0.602829 0.906254
0.891451 0.625874 0.910235
0.962168 0.640008 0.914964
0.545273 0.676814 0.903816
0.602462 0.679781 0.903955
0.686855 0.687640 0.904606
0.785825 0.699957 0.905159
0.887067 0.717199 0.907166
0.964355 0.730625 0.909810
0.518433 0.802763 0.904713
0.573014 0.799221 0.904667
0.651708 0.798144 0.904850
0.749842 0.791985 0.905025
0.879882 0.810783 0.905245
0.949332 0.835937 0.907178
0.547295 0.918977 0.904017
0.598263 0.919008 0.905088
0.676023 0.919544 0.905245
0.800578 0.912041 0.905245
0.891053 0.913528 0.905269
0.952044 0.918445 0.905321
