example_ofxGpuLutCube/bin/data/ofxGpuLutCube/LUT/S7 (red sunset sky tone).cube
LUT_3D_SIZE 16
0.081674 0.053013 0.080079
0.101785 0.052099 0.083244
0.162770 0.048575 0.077881
0.246953 0.032125 0.062402
0.320757 0.013514 0.054262
0.411420 0.000000 0.041092
0.490449 0.000000 0.064153
0.572973 0.000000 0.070772
0.661639 0.000000 0.061403
0.733446 0.000000 0.057647
0.796077 0.000000 0.059207
0.851338 0.000000 0.064237
0.904263 0.000444 0.068718
0.958741 0.000338 0.073241
0.983811 0.088810 0.069813
0.998964 0.128501 0.068852
0.106390 0.066548 0.064359
0.130874 0.066729 0.067475
0.175501 0.068386 0.063263
0.250553 0.063988 0.055389
0.330561 0.048504 0.039912
0.414124 0.022978 0.037489
0.494771 0.000000 0.050927
0.586163 0.000000 0.051805
0.666641 0.000000 0.048330
0.738660 0.000000 0.054437
0.800094 0.000000 0.059323
0.856290 0.002823 0.063230
0.905869 0.060930 0.064604
0.961098 0.074832 0.068642
0.985670 0.128882 0.067898
1.000199 0.156462 0.067543
0.118155 0.096121 0.056502
0.144202 0.097393 0.058777
0.190289 0.096121 0.007871
0.259175 0.106029 0.010180
0.338280 0.098913 0.015964
0.418393 0.097925 0.031100
0.500946 0.095090 0.036977
0.590987 0.083692 0.036619
0.670982 0.087275 0.043007
0.741085 0.095796 0.048479
0.805912 0.094868 0.054012
0.858749 0.103473 0.058378
0.905869 0.130211 0.061516
0.957887 0.142238 0.064568
0.987802 0.171741 0.065909
1.001984 0.196730 0.065667
0.021189 0.157162 0.051155
0.081246 0.154464 0.055463
0.150100 0.154337 0.054458
0.217114 0.155405 0.049966
0.303633 0.175217 0.029781
0.407568 0.178080 0.017962
0.502617 0.177077 0.025360
0.593358 0.179004 0.032346
0.674683 0.181278 0.038817
0.745856 0.179206 0.044827
0.802791 0.185952 0.049831
0.855906 0.191369 0.053633
0.905869 0.195216 0.057900
0.957111 0.206528 0.061316
0.991019 0.227773 0.063393
1.004194 0.244569 0.063510
0.006419 0.216756 0.024310
0.078343 0.213516 0.033221
0.139687 0.210257 0.040869
0.202076 0.217223 0.037636
0.273074 0.226347 0.027231
0.378891 0.252346 0.013160
0.491159 0.265175 0.020590
0.594640 0.264334 0.028670
0.677289 0.261554 0.035404
0.743600 0.261027 0.040886
0.802018 0.263393 0.046428
0.854658 0.264711 0.050797
0.902667 0.267475 0.054261
0.952334 0.273860 0.057875
0.994381 0.285872 0.060853
1.006812 0.297726 0.061170
0.006351 0.279907 0.062437
0.007890 0.284336 0.040559
0.010594 0.287249 0.000769
0.155782 0.289833 0.002912
0.256822 0.296612 0.000581
0.352438 0.310656 0.006568
0.465781 0.337742 0.014793
0.576124 0.350805 0.023230
0.662891 0.346708 0.030451
0.739692 0.339893 0.037040
0.798893 0.337601 0.041484
0.849097 0.336263 0.045854
0.901056 0.338019 0.050609
0.949938 0.340446 0.054411
0.996012 0.343480 0.058307
1.009858 0.353210 0.058806
0.006748 0.343831 0.093684
0.019599 0.350973 0.082877
0.009928 0.352006 0.054189
0.014120 0.359170 0.000249
0.211414 0.364938 0.000954
0.334208 0.374653 0.000776
0.434986 0.385823 0.008627
0.546329 0.414466 0.017237
0.641930 0.425877 0.024913
0.718619 0.421663 0.031576
0.786330 0.413263 0.037062
0.844305 0.403580 0.042603
0.894571 0.402668 0.046700
0.943551 0.402919 0.052105
0.996117 0.405368 0.055500
1.013714 0.410172 0.056497
0.007690 0.406762 0.115991
0.021474 0.413329 0.105238
0.039824 0.415799 0.083165
0.013788 0.417870 0.016185
0.130309 0.428336 0.000414
0.304125 0.434787 0.001105
0.418228 0.443651 0.002404
0.512238 0.454591 0.011145
0.612159 0.480919 0.019128
0.699283 0.493470 0.026290
0.767128 0.486311 0.032402
0.828042 0.479123 0.038434
0.888140 0.471310 0.043766
0.940332 0.464251 0.048456
0.991962 0.464097 0.052571
1.013556 0.466057 0.053954
0.009124 0.466376 0.128804
0.022687 0.473411 0.123574
0.041382 0.474473 0.104764
0.052188 0.476097 0.056766
0.019998 0.483460 0.000000
0.273232 0.488812 0.000829
0.394524 0.495997 0.000000
0.491293 0.504939 0.005085
0.577637 0.513869 0.013399
0.665667 0.536269 0.020675
0.748650 0.553164 0.027807
0.810698 0.546090 0.032837
0.871110 0.541942 0.038380
0.929196 0.533906 0.043637
0.986207 0.525852 0.049392
1.011884 0.521425 0.051339
0.010863 0.526899 0.138253
0.024632 0.529996 0.128986
0.043225 0.533138 0.109899
0.061148 0.534429 0.068798
0.021999 0.537716 0.000000
0.230911 0.539047 0.000000
0.372911 0.545740 0.000000
0.475982 0.551555 0.000000
0.560705 0.561113 0.007936
0.635974 0.570551 0.015252
0.717414 0.587859 0.021274
0.796429 0.609691 0.028539
0.856495 0.605822 0.034368
0.916350 0.598673 0.040415
0.974936 0.595158 0.045392
1.008518 0.586231 0.048122
0.013052 0.588517 0.141647
0.026809 0.590291 0.133157
0.045543 0.592056 0.114436
0.064578 0.592941 0.076287
0.023557 0.596824 0.000000
0.207801 0.589112 0.000000
0.357491 0.595043 0.000000
0.459279 0.600669 0.000000
0.546801 0.607588 0.002794
0.622043 0.615690 0.010242
0.695729 0.627131 0.017235
0.762245 0.638777 0.022453
0.843154 0.665567 0.029063
0.901819 0.661229 0.034967
0.960088 0.655802 0.041197
1.005164 0.648866 0.044889
0.015758 0.649320 0.137117
0.029050 0.649939 0.136398
0.047257 0.650192 0.116403
0.066907 0.653475 0.074078
0.027562 0.655773 0.000000
0.196047 0.649255 0.000000
0.341158 0.646947 0.000000
0.442870 0.651908 0.000000
0.531268 0.657633 0.000000
0.606116 0.665276 0.004519
0.677629 0.672660 0.011228
0.743708 0.680314 0.019000
0.807931 0.689053 0.024614
0.886533 0.716641 0.030585
0.945878 0.713821 0.036768
1.001415 0.707738 0.041619
0.017388 0.711614 0.150185
0.031630 0.712497 0.136405
0.048960 0.715088 0.116607
0.044130 0.716889 0.088329
0.024711 0.714165 0.033387
0.249339 0.708204 0.033426
0.352571 0.700039 0.000000
0.446075 0.704688 0.033426
0.525536 0.710280 0.050384
0.599065 0.715140 0.073757
0.667025 0.721747 0.096454
0.729405 0.729259 0.113167
0.791616 0.738094 0.138125
0.849925 0.742208 0.156413
0.919622 0.764512 0.186344
0.995598 0.767746 0.111011
0.019285 0.780721 0.163107
0.019421 0.777986 0.159639
0.020389 0.778977 0.140836
0.020524 0.775436 0.139425
0.206419 0.772594 0.142742
0.308184 0.767260 0.137706
0.379685 0.762054 0.127562
0.452873 0.761080 0.129006
0.531264 0.764494 0.147643
0.597158 0.771491 0.163515
0.662125 0.773296 0.179028
0.723381 0.781170 0.196411
0.783639 0.787681 0.214133
0.842693 0.791428 0.229256
0.894213 0.793879 0.241653
0.963603 0.811572 0.266018
0.104010 0.837125 0.238382
0.148898 0.835770 0.239219
0.207352 0.837125 0.242276
0.261191 0.834933 0.243111
0.316813 0.832266 0.241007
0.372653 0.828936 0.237992
0.431588 0.826099 0.236137
0.484938 0.823705 0.233114
0.548802 0.827063 0.242771
0.611253 0.828086 0.254486
0.674520 0.832288 0.266833
0.729239 0.835097 0.279281
0.783817 0.837711 0.291491
0.837949 0.842426 0.303393
0.890373 0.844703 0.315702
0.940671 0.845029 0.317295
0.328851 0.941884 0.366723
0.355668 0.937438 0.368107
0.376551 0.937223 0.368531
0.402584 0.936833 0.366309
0.436868 0.936346 0.369816
0.471168 0.935880 0.372049
0.509436 0.933937 0.372504
0.548075 0.932398 0.374749
0.591990 0.932489 0.378861
0.637819 0.933718 0.387429
0.688592 0.936094 0.397507
0.737145 0.940081 0.406013
0.784429 0.940781 0.413907
0.834136 0.942094 0.425643
0.883615 0.946046 0.434895
0.937721 0.946506 0.449950
0.000000 0.000000 0.000000
0.000000 0.000000 0.000000
0.075023 0.000000 0.004525
0.222280 0.000000 0.013454
0.309687 0.000000 0.020471
0.406585 0.000000 0.027011
0.487799 0.000000 0.033737
0.582727 0.000000 0.041360
0.670088 0.000000 0.048607
0.745848 0.000000 0.055068
0.811561 0.000000 0.060703
0.862387 0.000000 0.064954
0.913116 0.000000 0.069834
0.966233 0.000000 0.074984
0.990803 0.000000 0.076413
1.001626 0.000000 0.077179
0.094799 0.074183 0.096147
0.107537 0.074454 0.106768
0.159376 0.074183 0.108187
0.245705 0.065244 0.098011
0.323785 0.047618 0.095905
0.415553 0.000000 0.084749
0.498722 0.000000 0.091524
0.584801 0.000000 0.102270
0.666122 0.000000 0.101538
0.741551 0.000000 0.088623
0.801196 0.000000 0.078544
0.854980 0.000000 0.073285
0.905022 0.000447 0.082051
0.955479 0.065251 0.082693
0.984709 0.120375 0.082051
0.999076 0.149478 0.081594
0.116673 0.100598 0.084684
0.149005 0.103647 0.091523
0.183175 0.103486 0.086874
0.260222 0.102687 0.042123
0.338739 0.094011 0.062129
0.421629 0.087057 0.074775
0.502253 0.081723 0.084065
0.588663 0.075806 0.082447
0.676261 0.061580 0.070942
0.748754 0.051462 0.051450
0.808499 0.062489 0.067649
0.854626 0.098733 0.071220
0.907472 0.110943 0.075641
0.955479 0.133172 0.078763
0.986991 0.165917 0.080022
1.000796 0.188733 0.079858
0.000899 0.169660 0.091444
0.066833 0.163281 0.088168
0.150021 0.157434 0.091444
0.221162 0.162337 0.091449
0.316310 0.172762 0.046195
0.421185 0.171001 0.019109
0.506644 0.170880 0.054992
0.601530 0.168174 0.033487
0.680338 0.169672 0.048267
0.742072 0.177206 0.057727
0.802422 0.180010 0.063655
0.855609 0.181883 0.067613
0.903428 0.192153 0.070814
0.954704 0.203519 0.075345
0.989995 0.223824 0.077396
1.003126 0.239719 0.077535
0.013634 0.224377 0.072172
0.078823 0.221144 0.072486
0.141801 0.216940 0.079847
0.204773 0.221144 0.080165
0.277866 0.231505 0.076315
0.383865 0.255648 0.050850
0.498134 0.261999 0.021261
0.598257 0.260252 0.042044
0.676939 0.257117 0.049433
0.741589 0.258941 0.054724
0.801638 0.258039 0.059331
0.851868 0.259866 0.063513
0.903428 0.263055 0.068223
0.951533 0.273538 0.072932
0.993538 0.283301 0.074808
1.005830 0.294644 0.075124
0.004625 0.289923 0.096049
0.005721 0.292304 0.079677
0.007756 0.293608 0.045564
0.156894 0.291393 0.056631
0.259211 0.302447 0.052505
0.353857 0.313908 0.036352
0.470674 0.337162 0.024943
0.580037 0.351278 0.037453
0.665873 0.345771 0.044648
0.739466 0.336817 0.051066
0.797610 0.333916 0.055655
0.849748 0.332257 0.059860
0.898634 0.335048 0.064438
0.947555 0.337788 0.069340
0.994983 0.343248 0.072121
1.009022 0.353271 0.072635
0.005068 0.351641 0.125021
0.016082 0.356586 0.113796
0.007161 0.360736 0.086740
0.012818 0.362941 0.000671
0.214021 0.368990 0.012647
0.332602 0.376948 0.000411
0.436287 0.388959 0.021522
0.548497 0.415868 0.031275
0.644716 0.425487 0.039079
0.720179 0.419143 0.045734
0.786469 0.411929 0.051194
0.843435 0.402030 0.056739
0.893735 0.400960 0.061689
0.944338 0.401626 0.065936
0.995060 0.403650 0.069376
1.012830 0.409790 0.070327
0.006296 0.413810 0.142256
0.018436 0.419644 0.136060
0.037186 0.421051 0.112863
0.011894 0.425984 0.059466
0.101088 0.430457 0.000731
0.299649 0.438231 0.006204
0.416828 0.446671 0.016068
0.512806 0.456247 0.025070
0.614000 0.482321 0.033138
0.699762 0.493094 0.040259
0.767989 0.486803 0.046364
0.829426 0.477853 0.052368
0.886533 0.468802 0.057601
0.941943 0.464573 0.062269
0.991158 0.464302 0.066389
1.012774 0.466379 0.067760
0.007677 0.472611 0.155139
0.019955 0.478251 0.147254
0.039813 0.480671 0.128262
0.055112 0.482747 0.088437
0.019256 0.487468 0.001031
0.259131 0.491905 0.000237
0.390928 0.497331 0.009883
0.491938 0.506226 0.019033
0.577682 0.515115 0.027275
0.666819 0.538521 0.034549
0.748729 0.554410 0.041623
0.811781 0.547470 0.046672
0.871110 0.541169 0.052243
0.929960 0.535036 0.058568
0.985833 0.526001 0.063233
1.010765 0.520728 0.065156
0.009301 0.532007 0.164582
0.021635 0.536016 0.156081
0.040428 0.537364 0.135867
0.060341 0.539612 0.100818
0.022115 0.542523 0.000553
0.221191 0.540831 0.000987
0.368072 0.548804 0.004748
0.471480 0.555103 0.013136
0.559720 0.562679 0.021708
0.636346 0.572093 0.029101
0.716479 0.590296 0.036073
0.796788 0.609460 0.042342
0.856495 0.604201 0.048281
0.915519 0.599348 0.054250
0.973353 0.592643 0.059278
1.007010 0.585106 0.061941
0.011624 0.592235 0.164941
0.023823 0.595170 0.158776
0.042892 0.594056 0.139487
0.062629 0.596933 0.106901
0.024371 0.600551 0.000000
0.186088 0.591271 0.000641
0.351294 0.596986 0.000000
0.452509 0.602834 0.001542
0.542749 0.608976 0.002201
0.619847 0.618553 0.009793
0.691046 0.627598 0.016686
0.762728 0.641645 0.023109
0.841494 0.664910 0.029093
0.902667 0.660818 0.035527
0.960044 0.655150 0.041232
1.004169 0.649328 0.058644
0.013885 0.653263 0.167087
0.026271 0.654557 0.158331
0.045284 0.655016 0.141699
0.064013 0.657231 0.107537
0.023734 0.659861 0.021223
0.208908 0.650395 0.000000
0.345760 0.646584 0.000000
0.447048 0.651313 0.000000
0.531970 0.658525 0.000000
0.607065 0.664622 0.025223
0.675696 0.674460 0.055417
0.742932 0.682289 0.084617
0.803992 0.692146 0.105985
0.883261 0.717910 0.104235
0.947671 0.715145 0.036850
1.002184 0.707366 0.041697
0.015900 0.715500 0.173797
0.028173 0.716127 0.167050
0.045116 0.718113 0.149669
0.019272 0.718731 0.119920
0.022150 0.716051 0.085691
0.254997 0.709868 0.087899
0.349306 0.702912 0.073640
0.443526 0.705430 0.086803
0.522038 0.710384 0.102831
0.596973 0.716640 0.122622
0.664544 0.722679 0.140985
0.728179 0.730726 0.161268
0.790233 0.738079 0.179695
0.849096 0.744590 0.198780
0.917566 0.766193 0.223949
0.991724 0.766617 0.171184
0.017005 0.779785 0.194830
0.018295 0.779150 0.176369
0.018103 0.779785 0.173351
0.018295 0.777341 0.170144
0.225156 0.772736 0.175171
0.309629 0.766898 0.170923
0.377671 0.764748 0.160615
0.453259 0.762500 0.162578
0.527017 0.766648 0.178319
0.597092 0.770447 0.191441
0.660614 0.774636 0.207732
0.722332 0.779300 0.222469
0.781704 0.786003 0.240428
0.840704 0.792231 0.256247
0.892365 0.795642 0.268347
0.959230 0.812376 0.290439
0.114684 0.838369 0.263333
0.157976 0.837263 0.262805
0.209556 0.834870 0.263333
0.261816 0.834669 0.263767
0.317269 0.833296 0.262553
0.375642 0.831959 0.262556
0.431053 0.828856 0.258714
0.483155 0.823207 0.252963
0.547875 0.825783 0.261772
0.609231 0.828657 0.273384
0.669388 0.832784 0.284562
0.728084 0.835664 0.298804
0.783724 0.839850 0.310417
0.836727 0.842154 0.321166
0.889430 0.845057 0.333422
0.941927 0.846470 0.339506
0.332871 0.938357 0.384728
0.352114 0.939804 0.384139
0.377473 0.939476 0.386524
0.406848 0.937957 0.385878
0.439330 0.936602 0.387187
0.470888 0.936102 0.388175
0.509089 0.934073 0.388073
0.546877 0.932939 0.390840
0.590395 0.932346 0.394901
0.638662 0.936625 0.403049
0.685350 0.935212 0.410816
0.735405 0.940543 0.420622
0.783062 0.941362 0.429838
0.832465 0.942835 0.440853
0.881509 0.944737 0.452415
0.936133 0.951089 0.463306
0.000000 0.000000 0.067867
0.069196 0.000000 0.023113
0.153683 0.000000 0.009390
0.229970 0.000000 0.015352
0.312278 0.000000 0.020727
0.409979 0.000000 0.027271
0.491025 0.000000 0.033993
0.585832 0.000000 0.041617
0.674189 0.000000 0.048963
0.750193 0.000000 0.055446
0.813090 0.000000 0.061058
0.865915 0.000000 0.065335
0.917937 0.000000 0.069794
0.974059 0.000000 0.076078
0.990294 0.000000 0.076377
1.001671 0.000000 0.077179
0.054622 0.075852 0.187521
0.071938 0.079382 0.201810
0.131391 0.079586 0.191609
0.220478 0.079382 0.152326
0.319909 0.059231 0.152747
0.409664 0.020562 0.155541
0.503471 0.000000 0.156982
0.580220 0.000000 0.170209
0.663350 0.000000 0.172832
0.736411 0.000000 0.170412
0.800207 0.000000 0.164503
0.855827 0.000000 0.153652
0.909091 0.000388 0.139450
0.961098 0.000417 0.121187
0.979940 0.093313 0.129680
0.996303 0.134499 0.117901
0.089921 0.110606 0.135175
0.138801 0.112220 0.137803
0.161600 0.116343 0.149144
0.225176 0.115088 0.153830
0.325798 0.102340 0.146167
0.421123 0.079666 0.140696
0.512450 0.051243 0.138651
0.594416 0.039078 0.148189
0.674356 0.023821 0.151802
0.744868 0.000000 0.149351
0.806656 0.015079 0.135727
0.859060 0.041495 0.122302
0.912273 0.068337 0.107165
0.963416 0.086727 0.091164
0.983779 0.149822 0.106072
0.999435 0.179665 0.097729
0.000000 0.175245 0.142031
0.040990 0.176389 0.138500
0.173721 0.163981 0.134473
0.232785 0.166993 0.140655
0.345661 0.165505 0.056910
0.433862 0.160129 0.101235
0.514059 0.160815 0.123716
0.600940 0.162011 0.130745
0.680823 0.158153 0.121977
0.749657 0.153617 0.109620
0.810359 0.155342 0.094653
0.863771 0.157379 0.080066
0.913116 0.165019 0.085427
0.958741 0.188715 0.089855
0.988110 0.216405 0.093098
1.002057 0.235209 0.092036
0.001180 0.242084 0.131674
0.001352 0.239501 0.126766
0.101185 0.235607 0.131674
0.193599 0.230249 0.133315
0.285966 0.238808 0.133219
0.390958 0.259938 0.124002
0.508008 0.259132 0.097166
0.608231 0.250707 0.065988
0.685846 0.245916 0.051285
0.747780 0.246336 0.061214
0.805286 0.248687 0.071062
0.854543 0.251879 0.077676
0.902667 0.258874 0.082747
0.952334 0.265103 0.086331
0.992063 0.279124 0.089317
1.004767 0.291748 0.089619
0.002334 0.303828 0.145356
0.003153 0.306891 0.131345
0.004340 0.309336 0.105095
0.168106 0.299584 0.117148
0.264430 0.307808 0.118529
0.359756 0.321975 0.116686
0.478038 0.343429 0.090092
0.588891 0.346585 0.024460
0.671395 0.340284 0.058567
0.740721 0.330609 0.065717
0.798013 0.328430 0.070648
0.848525 0.329722 0.074492
0.899442 0.330073 0.079075
0.949154 0.332363 0.083831
0.995450 0.339175 0.086746
1.007870 0.349701 0.087118
0.003119 0.365199 0.166860
0.014161 0.371181 0.158927
0.005165 0.372427 0.134980
0.008781 0.374806 0.088465
0.221046 0.374299 0.096315
0.336800 0.383233 0.095008
0.438494 0.395146 0.088658
0.554081 0.418517 0.039013
0.648084 0.424907 0.052956
0.722753 0.417429 0.060450
0.790577 0.406833 0.067242
0.844233 0.400252 0.071428
0.894571 0.396753 0.076138
0.944338 0.398130 0.080438
0.993759 0.401296 0.083811
1.011723 0.406297 0.084822
0.004403 0.425378 0.180094
0.016628 0.430545 0.174833
0.032844 0.434375 0.159307
0.009052 0.436857 0.109513
0.138231 0.434812 0.075220
0.307353 0.444261 0.076747
0.415924 0.450110 0.067538
0.514168 0.460452 0.051489
0.617156 0.485060 0.045465
0.700502 0.492042 0.054560
0.769323 0.484187 0.061958
0.830108 0.474993 0.066642
0.888140 0.465719 0.072051
0.940332 0.461561 0.076620
0.989462 0.461224 0.080822
1.011610 0.466040 0.082097
0.005735 0.484116 0.192031
0.018349 0.490111 0.183202
0.036574 0.489481 0.168410
0.046522 0.493697 0.133721
0.015050 0.494420 0.048558
0.267906 0.495324 0.067112
0.393043 0.502466 0.062848
0.491270 0.511454 0.056131
0.579979 0.519210 0.042397
0.669168 0.540983 0.046573
0.749173 0.553152 0.053405
0.809923 0.544556 0.061965
0.872718 0.538370 0.066902
0.930723 0.531240 0.072883
0.986774 0.522286 0.077872
1.009642 0.521427 0.079467
0.007510 0.541236 0.197022
0.020022 0.545724 0.190396
0.037357 0.545716 0.175598
0.057494 0.549273 0.144541
0.016139 0.550742 0.066526
0.233598 0.542784 0.061795
0.369641 0.549857 0.064328
0.470846 0.557121 0.065088
0.555832 0.565913 0.059663
0.636118 0.575802 0.059656
0.718779 0.592622 0.022186
0.797403 0.609617 0.028814
0.858087 0.603751 0.035311
0.916350 0.600001 0.064370
0.975316 0.593081 0.073798
1.006886 0.583092 0.076441
0.009517 0.600510 0.200414
0.022123 0.602250 0.192560
0.039512 0.601402 0.179047
0.059691 0.603121 0.148959
0.018699 0.607281 0.074754
0.210217 0.595362 0.066317
0.351192 0.597489 0.070371
0.453813 0.605150 0.080578
0.538891 0.611496 0.087550
0.617380 0.621840 0.102815
0.687384 0.631906 0.113810
0.758643 0.643105 0.130145
0.840758 0.666667 0.095020
0.904263 0.661267 0.036650
0.960137 0.655183 0.041231
1.003754 0.646276 0.066358
0.011496 0.658509 0.204304
0.024179 0.658561 0.195648
0.041619 0.661151 0.182006
0.057199 0.662148 0.153260
0.018179 0.663835 0.098211
0.234958 0.655347 0.100437
0.341715 0.649661 0.093843
0.443912 0.654442 0.107002
0.527844 0.661241 0.122580
0.602421 0.668447 0.136650
0.670909 0.677191 0.153868
0.738577 0.685213 0.172617
0.801176 0.695380 0.191457
0.878380 0.719828 0.203631
0.944938 0.715625 0.093380
1.003652 0.706575 0.041845
0.013385 0.721227 0.212406
0.026048 0.720828 0.204924
0.031122 0.722102 0.183136
0.017183 0.722582 0.160859
0.100913 0.718717 0.152183
0.268116 0.711038 0.147979
0.353342 0.703666 0.137196
0.440091 0.705800 0.145849
0.522123 0.712056 0.161360
0.594961 0.717204 0.176578
0.662900 0.723489 0.195326
0.725498 0.731322 0.210044
0.788543 0.737670 0.228372
0.846618 0.746356 0.246924
0.917565 0.767644 0.269932
0.987699 0.766606 0.231355
0.014917 0.782422 0.225081
0.015331 0.781569 0.218959
0.016009 0.779777 0.212196
0.102968 0.778018 0.215000
0.233661 0.774681 0.214501
0.319111 0.773353 0.212344
0.381364 0.766692 0.202522
0.452622 0.763656 0.201323
0.525804 0.767504 0.214012
0.594561 0.771345 0.227577
0.658641 0.776261 0.243474
0.721756 0.782785 0.259613
0.781189 0.786840 0.274156
0.840084 0.793276 0.291025
0.890321 0.795554 0.300497
0.957918 0.812576 0.322616
0.135487 0.838508 0.294482
0.176420 0.838411 0.297184
0.216619 0.837601 0.292596
0.273146 0.837504 0.295310
0.324666 0.834584 0.293153
0.375897 0.831348 0.289531
0.433229 0.829351 0.287550
0.483353 0.824341 0.282938
0.547074 0.827310 0.290563
0.609179 0.830255 0.300290
0.669451 0.831665 0.311998
0.726380 0.836467 0.323453
0.781700 0.840266 0.337908
0.837480 0.844533 0.350241
0.888303 0.847253 0.360597
0.940226 0.846311 0.364669
0.337942 0.942624 0.408654
0.355940 0.940528 0.407778
0.381430 0.937921 0.405151
0.408608 0.937660 0.405966
0.438282 0.937278 0.406243
0.471077 0.936630 0.407962
0.507170 0.934148 0.407155
0.546185 0.934644 0.409721
0.588736 0.934871 0.412251
0.635761 0.935809 0.420537
0.686285 0.937626 0.427994
0.735100 0.939296 0.437116
0.782836 0.941896 0.448190
0.830161 0.943408 0.456357
0.882154 0.946950 0.468864
0.933028 0.948453 0.480379
0.066761 0.000320 0.143724
0.123648 0.000360 0.149474
0.168960 0.000320 0.150130
0.233259 0.000360 0.157941
0.310399 0.000000 0.168428
0.414269 0.000000 0.189173
0.504989 0.000000 0.201148
0.595133 0.000000 0.204315
0.678212 0.000000 0.199956
0.747793 0.000000 0.195336
0.807022 0.000000 0.194907
0.858727 0.000000 0.184162
0.913116 0.000000 0.168315
0.975810 0.000000 0.076088
0.990176 0.000000 0.076370
1.001720 0.000000 0.077185
0.126294 0.073975 0.205788
0.159880 0.071236 0.205548
0.200268 0.072121 0.206797
0.253950 0.072158 0.209540
0.323194 0.067428 0.217514
0.417228 0.052944 0.232848
0.506452 0.000000 0.239135
0.587245 0.000000 0.243571
0.666131 0.000000 0.243730
0.732791 0.000000 0.249175
0.794580 0.000000 0.249536
0.849802 0.000000 0.246277
0.906716 0.000371 0.237682
0.956336 0.000108 0.235646
0.972395 0.071668 0.232800
0.988775 0.125221 0.230745
0.110388 0.114028 0.206803
0.147829 0.114681 0.211336
0.177091 0.116901 0.226639
0.229006 0.122307 0.235005
0.325501 0.114653 0.216473
0.417740 0.104172 0.227210
0.509446 0.072907 0.229318
0.597442 0.000000 0.231155
0.674340 0.000000 0.238848
0.743620 0.000000 0.237942
0.803331 0.000000 0.234952
0.856306 0.000000 0.234021
0.906716 0.051458 0.225750
0.957887 0.080519 0.220378
0.975766 0.135959 0.222785
0.991120 0.163148 0.218407
0.000000 0.181155 0.222803
0.086920 0.180157 0.225182
0.158453 0.179311 0.214885
0.233353 0.177354 0.214303
0.310573 0.181173 0.219122
0.426129 0.162173 0.208687
0.530687 0.143518 0.201164
0.613107 0.136674 0.206677
0.684316 0.139242 0.215048
0.747249 0.139768 0.214867
0.807106 0.141132 0.212060
0.857303 0.147343 0.208892
0.909091 0.159047 0.205079
0.959472 0.170478 0.200815
0.979776 0.195611 0.201054
0.994567 0.216236 0.198794
0.000000 0.249447 0.210111
0.000000 0.253035 0.209739
0.000000 0.258679 0.215090
0.133231 0.253953 0.207736
0.291898 0.250381 0.205478
0.433934 0.252781 0.148703
0.531478 0.245764 0.171858
0.609801 0.244466 0.193331
0.681735 0.242337 0.194313
0.747523 0.238269 0.190439
0.804617 0.236786 0.186155
0.857525 0.239192 0.184329
0.907472 0.241941 0.178020
0.957887 0.248457 0.169557
0.985208 0.260407 0.169739
0.999371 0.277024 0.166437
0.000000 0.315635 0.214912
0.003715 0.324955 0.209054
0.000000 0.330240 0.193863
0.189538 0.319485 0.193965
0.278566 0.316816 0.195626
0.372969 0.332165 0.202128
0.488620 0.349665 0.194602
0.593697 0.343111 0.170465
0.680444 0.328536 0.143947
0.746105 0.323490 0.137048
0.803449 0.320318 0.130968
0.856191 0.318020 0.120696
0.907472 0.318880 0.109162
0.957887 0.319382 0.102452
0.992598 0.329854 0.117903
1.004966 0.339464 0.124304
0.000921 0.388297 0.225117
0.009935 0.394136 0.221908
0.002909 0.397331 0.202226
0.066480 0.393250 0.177573
0.242031 0.383050 0.181740
0.346689 0.391299 0.185578
0.446292 0.403038 0.190909
0.557608 0.425670 0.182506
0.652935 0.423481 0.147736
0.732153 0.409849 0.079470
0.796882 0.398160 0.071395
0.849256 0.392624 0.079470
0.898634 0.390612 0.086890
0.948337 0.392520 0.092682
0.996700 0.396960 0.095654
1.010308 0.403392 0.100340
0.002080 0.445570 0.233915
0.013971 0.451608 0.230189
0.024665 0.454565 0.215190
0.005444 0.456112 0.175919
0.183624 0.446982 0.168356
0.316633 0.449252 0.173385
0.423033 0.457787 0.178706
0.517915 0.468143 0.183657
