example_ofxGpuLutCube/bin/data/ofxGpuLutCube/LUT/S8 (red sunset sky tone_1).cube
LUT_3D_SIZE 16
0.017329 0.017235 0.025871
0.100533 0.017235 0.025871
0.182040 0.017235 0.025871
0.263648 0.017235 0.025871
0.344908 0.017235 0.025871
0.427026 0.017235 0.025871
0.507266 0.017235 0.025871
0.587799 0.017235 0.025871
0.668314 0.017235 0.025871
0.748651 0.017235 0.025871
0.829373 0.017235 0.025871
0.908122 0.017235 0.025871
0.964484 0.017235 0.025871
0.991023 0.017235 0.025871
0.999074 0.017235 0.025871
1.000000 0.017235 0.025871
0.017329 0.082492 0.025871
0.100533 0.082492 0.025871
0.182040 0.082492 0.025871
0.263648 0.082492 0.025871
0.344908 0.082492 0.025871
0.427026 0.082492 0.025871
0.507266 0.082492 0.025871
0.587799 0.082492 0.025871
0.668314 0.082492 0.025871
0.748651 0.082492 0.025871
0.829373 0.082492 0.025871
0.908122 0.082492 0.025871
0.964484 0.082492 0.025871
0.991023 0.082492 0.025871
0.999074 0.082492 0.025871
1.000000 0.082492 0.025871
0.017329 0.155044 0.025871
0.100533 0.155044 0.025871
0.182040 0.155044 0.025871
0.263648 0.155044 0.025871
0.344908 0.155044 0.025871
0.427026 0.155044 0.025871
0.507266 0.155044 0.025871
0.587799 0.155044 0.025871
0.668314 0.155044 0.025871
0.748651 0.155044 0.025871
0.829373 0.155044 0.025871
0.908122 0.155044 0.025871
0.964484 0.155044 0.025871
0.991023 0.155044 0.025871
0.999074 0.155044 0.025871
1.000000 0.155044 0.025871
0.017329 0.231779 0.025871
0.100533 0.231779 0.025871
0.182040 0.231779 0.025871
0.263648 0.231779 0.025871
0.344908 0.231779 0.025871
0.427026 0.231779 0.025871
0.507266 0.231779 0.025871
0.587799 0.231779 0.025871
0.668314 0.231779 0.025871
0.748651 0.231779 0.025871
0.829373 0.231779 0.025871
0.908122 0.231779 0.025871
0.964484 0.231779 0.025871
0.991023 0.231779 0.025871
0.999074 0.231779 0.025871
1.000000 0.231779 0.025871
0.017329 0.311479 0.025871
0.100533 0.311479 0.025871
0.182040 0.311479 0.025871
0.263648 0.311479 0.025871
0.344908 0.311479 0.025871
0.427026 0.311479 0.025871
0.507266 0.311479 0.025871
0.587799 0.311479 0.025871
0.668314 0.311479 0.025871
0.748651 0.311479 0.025871
0.829373 0.311479 0.025871
0.908122 0.311479 0.025871
0.964484 0.311479 0.025871
0.991023 0.311479 0.025871
0.999074 0.311479 0.025871
1.000000 0.311479 0.025871
0.017329 0.393584 0.025871
0.100533 0.393584 0.025871
0.182040 0.393584 0.025871
0.263648 0.393584 0.025871
0.344908 0.393584 0.025871
0.427026 0.393584 0.025871
0.507266 0.393584 0.025871
0.587799 0.393584 0.025871
0.668314 0.393584 0.025871
0.748651 0.393584 0.025871
0.829373 0.393584 0.025871
0.908122 0.393584 0.025871
0.964484 0.393584 0.025871
0.991023 0.393584 0.025871
0.999074 0.393584 0.025871
1.000000 0.393584 0.025871
0.017329 0.477734 0.025871
0.100533 0.477734 0.025871
0.182040 0.477734 0.025871
0.263648 0.477734 0.025871
0.344908 0.477734 0.025871
0.427026 0.477734 0.025871
0.507266 0.477734 0.025871
0.587799 0.477734 0.025871
0.668314 0.477734 0.025871
0.748651 0.477734 0.025871
0.829373 0.477734 0.025871
0.908122 0.477734 0.025871
0.964484 0.477734 0.025871
0.991023 0.477734 0.025871
0.999074 0.477734 0.025871
1.000000 0.477734 0.025871
0.017329 0.563494 0.025871
0.100533 0.563494 0.025871
0.182040 0.563494 0.025871
0.263648 0.563494 0.025871
0.344908 0.563494 0.025871
0.427026 0.563494 0.025871
0.507266 0.563494 0.025871
0.587799 0.563494 0.025871
0.668314 0.563494 0.025871
0.748651 0.563494 0.025871
0.829373 0.563494 0.025871
0.908122 0.563494 0.025871
0.964484 0.563494 0.025871
0.991023 0.563494 0.025871
0.999074 0.563494 0.025871
1.000000 0.563494 0.025871
0.017329 0.650791 0.025871
0.100533 0.650791 0.025871
0.182040 0.650791 0.025871
0.263648 0.650791 0.025871
0.344908 0.650791 0.025871
0.427026 0.650791 0.025871
0.507266 0.650791 0.025871
0.587799 0.650791 0.025871
0.668314 0.650791 0.025871
0.748651 0.650791 0.025871
0.829373 0.650791 0.025871
0.908122 0.650791 0.025871
0.964484 0.650791 0.025871
0.991023 0.650791 0.025871
0.999074 0.650791 0.025871
1.000000 0.650791 0.025871
0.017329 0.739491 0.025871
0.100533 0.739491 0.025871
0.182040 0.739491 0.025871
0.263648 0.739491 0.025871
0.344908 0.739491 0.025871
0.427026 0.739491 0.025871
0.507266 0.739491 0.025871
0.587799 0.739491 0.025871
0.668314 0.739491 0.025871
0.748651 0.739491 0.025871
0.829373 0.739491 0.025871
0.908122 0.739491 0.025871
0.964484 0.739491 0.025871
0.991023 0.739491 0.025871
0.999074 0.739491 0.025871
1.000000 0.739491 0.025871
0.017329 0.829354 0.025871
0.100533 0.829354 0.025871
0.182040 0.829354 0.025871
0.263648 0.829354 0.025871
0.344908 0.829354 0.025871
0.427026 0.829354 0.025871
0.507266 0.829354 0.025871
0.587799 0.829354 0.025871
0.668314 0.829354 0.025871
0.748651 0.829354 0.025871
0.829373 0.829354 0.025871
0.908122 0.829354 0.025871
0.964484 0.829354 0.025871
0.991023 0.829354 0.025871
0.999074 0.829354 0.025871
1.000000 0.829354 0.025871
0.017329 0.917075 0.025871
0.100533 0.917075 0.025871
0.182040 0.917075 0.025871
0.263648 0.917075 0.025871
0.344908 0.917075 0.025871
0.427026 0.917075 0.025871
0.507266 0.917075 0.025871
0.587799 0.917075 0.025871
0.668314 0.917075 0.025871
0.748651 0.917075 0.025871
0.829373 0.917075 0.025871
0.908122 0.917075 0.025871
0.964484 0.917075 0.025871
0.991023 0.917075 0.025871
0.999074 0.917075 0.025871
1.000000 0.917075 0.025871
0.017329 0.970235 0.025871
0.100533 0.970235 0.025871
0.182040 0.970235 0.025871
0.263648 0.970235 0.025871
0.344908 0.970235 0.025871
0.427026 0.970235 0.025871
0.507266 0.970235 0.025871
0.587799 0.970235 0.025871
0.668314 0.970235 0.025871
0.748651 0.970235 0.025871
0.829373 0.970235 0.025871
0.908122 0.970235 0.025871
0.964484 0.970235 0.025871
0.991023 0.970235 0.025871
0.999074 0.970235 0.025871
1.000000 0.970235 0.025871
0.017329 0.993036 0.025871
0.100533 0.993036 0.025871
0.182040 0.993036 0.025871
0.263648 0.993036 0.025871
0.344908 0.993036 0.025871
0.427026 0.993036 0.025871
0.507266 0.993036 0.025871
0.587799 0.993036 0.025871
0.668314 0.993036 0.025871
0.748651 0.993036 0.025871
0.829373 0.993036 0.025871
0.908122 0.993036 0.025871
0.964484 0.993036 0.025871
0.991023 0.993036 0.025871
0.999074 0.993036 0.025871
1.000000 0.993036 0.025871
0.017329 0.999387 0.025871
0.100533 0.999387 0.025871
0.182040 0.999387 0.025871
0.263648 0.999387 0.025871
0.344908 0.999387 0.025871
0.427026 0.999387 0.025871
0.507266 0.999387 0.025871
0.587799 0.999387 0.025871
0.668314 0.999387 0.025871
0.748651 0.999387 0.025871
0.829373 0.999387 0.025871
0.908122 0.999387 0.025871
0.964484 0.999387 0.025871
0.991023 0.999387 0.025871
0.999074 0.999387 0.025871
1.000000 0.999387 0.025871
0.017329 1.000000 0.025871
0.100533 1.000000 0.025871
0.182040 1.000000 0.025871
0.263648 1.000000 0.025871
0.344908 1.000000 0.025871
0.427026 1.000000 0.025871
0.507266 1.000000 0.025871
0.587799 1.000000 0.025871
0.668314 1.000000 0.025871
0.748651 1.000000 0.025871
0.829373 1.000000 0.025871
0.908122 1.000000 0.025871
0.964484 1.000000 0.025871
0.991023 1.000000 0.025871
0.999074 1.000000 0.025871
1.000000 1.000000 0.025871
0.017329 0.017235 0.102606
0.100533 0.017235 0.102606
0.182040 0.017235 0.102606
0.263648 0.017235 0.102606
0.344908 0.017235 0.102606
0.427026 0.017235 0.102606
0.507266 0.017235 0.102606
0.587799 0.017235 0.102606
0.668314 0.017235 0.102606
0.748651 0.017235 0.102606
0.829373 0.017235 0.102606
0.908122 0.017235 0.102606
0.964484 0.017235 0.102606
0.991023 0.017235 0.102606
0.999074 0.017235 0.102606
1.000000 0.017235 0.102606
0.017329 0.082492 0.102606
0.100533 0.082492 0.102606
0.182040 0.082492 0.102606
0.263648 0.082492 0.102606
0.344908 0.082492 0.102606
0.427026 0.082492 0.102606
0.507266 0.082492 0.102606
0.587799 0.082492 0.102606
0.668314 0.082492 0.102606
0.748651 0.082492 0.102606
0.829373 0.082492 0.102606
0.908122 0.082492 0.102606
0.964484 0.082492 0.102606
0.991023 0.082492 0.102606
0.999074 0.082492 0.102606
1.000000 0.082492 0.102606
0.017329 0.155044 0.102606
0.100533 0.155044 0.102606
0.182040 0.155044 0.102606
0.263648 0.155044 0.102606
0.344908 0.155044 0.102606
0.427026 0.155044 0.102606
0.507266 0.155044 0.102606
0.587799 0.155044 0.102606
0.668314 0.155044 0.102606
0.748651 0.155044 0.102606
0.829373 0.155044 0.102606
0.908122 0.155044 0.102606
0.964484 0.155044 0.102606
0.991023 0.155044 0.102606
0.999074 0.155044 0.102606
1.000000 0.155044 0.102606
0.017329 0.231779 0.102606
0.100533 0.231779 0.102606
0.182040 0.231779 0.102606
0.263648 0.231779 0.102606
0.344908 0.231779 0.102606
0.427026 0.231779 0.102606
0.507266 0.231779 0.102606
0.587799 0.231779 0.102606
0.668314 0.231779 0.102606
0.748651 0.231779 0.102606
0.829373 0.231779 0.102606
0.908122 0.231779 0.102606
0.964484 0.231779 0.102606
0.991023 0.231779 0.102606
0.999074 0.231779 0.102606
1.000000 0.231779 0.102606
0.017329 0.311479 0.102606
0.100533 0.311479 0.102606
0.182040 0.311479 0.102606
0.263648 0.311479 0.102606
0.344908 0.311479 0.102606
0.427026 0.311479 0.102606
0.507266 0.311479 0.102606
0.587799 0.311479 0.102606
0.668314 0.311479 0.102606
0.748651 0.311479 0.102606
0.829373 0.311479 0.102606
0.908122 0.311479 0.102606
0.964484 0.311479 0.102606
0.991023 0.311479 0.102606
0.999074 0.311479 0.102606
1.000000 0.311479 0.102606
0.017329 0.393584 0.102606
0.100533 0.393584 0.102606
0.182040 0.393584 0.102606
0.263648 0.393584 0.102606
0.344908 0.393584 0.102606
0.427026 0.393584 0.102606
0.507266 0.393584 0.102606
0.587799 0.393584 0.102606
0.668314 0.393584 0.102606
0.748651 0.393584 0.102606
0.829373 0.393584 0.102606
0.908122 0.393584 0.102606
0.964484 0.393584 0.102606
0.991023 0.393584 0.102606
0.999074 0.393584 0.102606
1.000000 0.393584 0.102606
0.017329 0.477734 0.102606
0.100533 0.477734 0.102606
0.182040 0.477734 0.102606
0.263648 0.477734 0.102606
0.344908 0.477734 0.102606
0.427026 0.477734 0.102606
0.507266 0.477734 0.102606
0.587799 0.477734 0.102606
0.668314 0.477734 0.102606
0.748651 0.477734 0.102606
0.829373 0.477734 0.102606
0.908122 0.477734 0.102606
0.964484 0.477734 0.102606
0.991023 0.477734 0.102606
0.999074 0.477734 0.102606
1.000000 0.477734 0.102606
0.017329 0.563494 0.102606
0.100533 0.563494 0.102606
0.182040 0.563494 0.102606
0.263648 0.563494 0.102606
0.344908 0.563494 0.102606
0.427026 0.563494 0.102606
0.507266 0.563494 0.102606
0.587799 0.563494 0.102606
0.668314 0.563494 0.102606
0.748651 0.563494 0.102606
0.829373 0.563494 0.102606
0.908122 0.563494 0.102606
0.964484 0.563494 0.102606
0.991023 0.563494 0.102606
0.999074 0.563494 0.102606
1.000000 0.563494 0.102606
0.017329 0.650791 0.102606
0.100533 0.650791 0.102606
0.182040 0.650791 0.102606
0.263648 0.650791 0.102606
0.344908 0.650791 0.102606
0.427026 0.650791 0.102606
0.507266 0.650791 0.102606
0.587799 0.650791 0.102606
0.668314 0.650791 0.102606
0.748651 0.650791 0.102606
0.829373 0.650791 0.102606
0.908122 0.650791 0.102606
0.964484 0.650791 0.102606
0.991023 0.650791 0.102606
0.999074 0.650791 0.102606
1.000000 0.650791 0.102606
0.017329 0.739491 0.102606
0.100533 0.739491 0.102606
0.182040 0.739491 0.102606
0.263648 0.739491 0.102606
0.344908 0.739491 0.102606
0.427026 0.739491 0.102606
0.507266 0.739491 0.102606
0.587799 0.739491 0.102606
0.668314 0.739491 0.102606
0.748651 0.739491 0.102606
0.829373 0.739491 0.102606
0.908122 0.739491 0.102606
0.964484 0.739491 0.102606
0.991023 0.739491 0.102606
0.999074 0.739491 0.102606
1.000000 0.739491 0.102606
0.017329 0.829354 0.102606
0.100533 0.829354 0.102606
0.182040 0.829354 0.102606
0.263648 0.829354 0.102606
0.344908 0.829354 0.102606
0.427026 0.829354 0.102606
0.507266 0.829354 0.102606
0.587799 0.829354 0.102606
0.668314 0.829354 0.102606
0.748651 0.829354 0.102606
0.829373 0.829354 0.102606
0.908122 0.829354 0.102606
0.964484 0.829354 0.102606
0.991023 0.829354 0.102606
0.999074 0.829354 0.102606
1.000000 0.829354 0.102606
0.017329 0.917075 0.102606
0.100533 0.917075 0.102606
0.182040 0.917075 0.102606
0.263648 0.917075 0.102606
0.344908 0.917075 0.102606
0.427026 0.917075 0.102606
0.507266 0.917075 0.102606
0.587799 0.917075 0.102606
0.668314 0.917075 0.102606
0.748651 0.917075 0.102606
0.829373 0.917075 0.102606
0.908122 0.917075 0.102606
0.964484 0.917075 0.102606
0.991023 0.917075 0.102606
0.999074 0.917075 0.102606
1.000000 0.917075 0.102606
0.017329 0.970235 0.102606
0.100533 0.970235 0.102606
0.182040 0.970235 0.102606
0.263648 0.970235 0.102606
0.344908 0.970235 0.102606
0.427026 0.970235 0.102606
0.507266 0.970235 0.102606
0.587799 0.970235 0.102606
0.668314 0.970235 0.102606
0.748651 0.970235 0.102606
0.829373 0.970235 0.102606
0.908122 0.970235 0.102606
0.964484 0.970235 0.102606
0.991023 0.970235 0.102606
0.999074 0.970235 0.102606
1.000000 0.970235 0.102606
0.017329 0.993036 0.102606
0.100533 0.993036 0.102606
0.182040 0.993036 0.102606
0.263648 0.993036 0.102606
0.344908 0.993036 0.102606
0.427026 0.993036 0.102606
0.507266 0.993036 0.102606
0.587799 0.993036 0.102606
0.668314 0.993036 0.102606
0.748651 0.993036 0.102606
0.829373 0.993036 0.102606
0.908122 0.993036 0.102606
0.964484 0.993036 0.102606
0.991023 0.993036 0.102606
0.999074 0.993036 0.102606
1.000000 0.993036 0.102606
0.017329 0.999387 0.102606
0.100533 0.999387 0.102606
0.182040 0.999387 0.102606
0.263648 0.999387 0.102606
0.344908 0.999387 0.102606
0.427026 0.999387 0.102606
0.507266 0.999387 0.102606
0.587799 0.999387 0.102606
0.668314 0.999387 0.102606
0.748651 0.999387 0.102606
0.829373 0.999387 0.102606
0.908122 0.999387 0.102606
0.964484 0.999387 0.102606
0.991023 0.999387 0.102606
0.999074 0.999387 0.102606
1.000000 0.999387 0.102606
0.017329 1.000000 0.102606
0.100533 1.000000 0.102606
0.182040 1.000000 0.102606
0.263648 1.000000 0.102606
0.344908 1.000000 0.102606
0.427026 1.000000 0.102606
0.507266 1.000000 0.102606
0.587799 1.000000 0.102606
0.668314 1.000000 0.102606
0.748651 1.000000 0.102606
0.829373 1.000000 0.102606
0.908122 1.000000 0.102606
0.964484 1.000000 0.102606
0.991023 1.000000 0.102606
0.999074 1.000000 0.102606
1.000000 1.000000 0.102606
0.017329 0.017235 0.181441
0.100533 0.017235 0.181441
0.182040 0.017235 0.181441
0.263648 0.017235 0.181441
0.344908 0.017235 0.181441
0.427026 0.017235 0.181441
0.507266 0.017235 0.181441
0.587799 0.017235 0.181441
0.668314 0.017235 0.181441
0.748651 0.017235 0.181441
0.829373 0.017235 0.181441
0.908122 0.017235 0.181441
0.964484 0.017235 0.181441
0.991023 0.017235 0.181441
0.999074 0.017235 0.181441
1.000000 0.017235 0.181441
0.017329 0.082492 0.181441
0.100533 0.082492 0.181441
0.182040 0.082492 0.181441
0.263648 0.082492 0.181441
0.344908 0.082492 0.181441
0.427026 0.082492 0.181441
0.507266 0.082492 0.181441
0.587799 0.082492 0.181441
0.668314 0.082492 0.181441
0.748651 0.082492 0.181441
0.829373 0.082492 0.181441
0.908122 0.082492 0.181441
0.964484 0.082492 0.181441
0.991023 0.082492 0.181441
0.999074 0.082492 0.181441
1.000000 0.082492 0.181441
0.017329 0.155044 0.181441
0.100533 0.155044 0.181441
0.182040 0.155044 0.181441
0.263648 0.155044 0.181441
0.344908 0.155044 0.181441
0.427026 0.155044 0.181441
0.507266 0.155044 0.181441
0.587799 0.155044 0.181441
0.668314 0.155044 0.181441
0.748651 0.155044 0.181441
0.829373 0.155044 0.181441
0.908122 0.155044 0.181441
0.964484 0.155044 0.181441
0.991023 0.155044 0.181441
0.999074 0.155044 0.181441
1.000000 0.155044 0.181441
0.017329 0.231779 0.181441
0.100533 0.231779 0.181441
0.182040 0.231779 0.181441
0.263648 0.231779 0.181441
0.344908 0.231779 0.181441
0.427026 0.231779 0.181441
0.507266 0.231779 0.181441
0.587799 0.231779 0.181441
0.668314 0.231779 0.181441
0.748651 0.231779 0.181441
0.829373 0.231779 0.181441
0.908122 0.231779 0.181441
0.964484 0.231779 0.181441
0.991023 0.231779 0.181441
0.999074 0.231779 0.181441
1.000000 0.231779 0.181441
0.017329 0.311479 0.181441
0.100533 0.311479 0.181441
0.182040 0.311479 0.181441
0.263648 0.311479 0.181441
0.344908 0.311479 0.181441
0.427026 0.311479 0.181441
0.507266 0.311479 0.181441
0.587799 0.311479 0.181441
0.668314 0.311479 0.181441
0.748651 0.311479 0.181441
0.829373 0.311479 0.181441
0.908122 0.311479 0.181441
0.964484 0.311479 0.181441
0.991023 0.311479 0.181441
0.999074 0.311479 0.181441
1.000000 0.311479 0.181441
0.017329 0.393584 0.181441
0.100533 0.393584 0.181441
0.182040 0.393584 0.181441
0.263648 0.393584 0.181441
0.344908 0.393584 0.181441
0.427026 0.393584 0.181441
0.507266 0.393584 0.181441
0.587799 0.393584 0.181441
0.668314 0.393584 0.181441
0.748651 0.393584 0.181441
0.829373 0.393584 0.181441
0.908122 0.393584 0.181441
0.964484 0.393584 0.181441
0.991023 0.393584 0.181441
0.999074 0.393584 0.181441
1.000000 0.393584 0.181441
0.017329 0.477734 0.181441
0.100533 0.477734 0.181441
0.182040 0.477734 0.181441
0.263648 0.477734 0.181441
0.344908 0.477734 0.181441
0.427026 0.477734 0.181441
0.507266 0.477734 0.181441
0.587799 0.477734 0.181441
0.668314 0.477734 0.181441
0.748651 0.477734 0.181441
0.829373 0.477734 0.181441
0.908122 0.477734 0.181441
0.964484 0.477734 0.181441
0.991023 0.477734 0.181441
0.999074 0.477734 0.181441
1.000000 0.477734 0.181441
0.017329 0.563494 0.181441
0.100533 0.563494 0.181441
0.182040 0.563494 0.181441
0.263648 0.563494 0.181441
0.344908 0.563494 0.181441
0.427026 0.563494 0.181441
0.507266 0.563494 0.181441
0.587799 0.563494 0.181441
0.668314 0.563494 0.181441
0.748651 0.563494 0.181441
0.829373 0.563494 0.181441
0.908122 0.563494 0.181441
0.964484 0.563494 0.181441
0.991023 0.563494 0.181441
0.999074 0.563494 0.181441
1.000000 0.563494 0.181441
0.017329 0.650791 0.181441
0.100533 0.650791 0.181441
0.182040 0.650791 0.181441
0.263648 0.650791 0.181441
0.344908 0.650791 0.181441
0.427026 0.650791 0.181441
0.507266 0.650791 0.181441
0.587799 0.650791 0.181441
0.668314 0.650791 0.181441
0.748651 0.650791 0.181441
0.829373 0.650791 0.181441
0.908122 0.650791 0.181441
0.964484 0.650791 0.181441
0.991023 0.650791 0.181441
0.999074 0.650791 0.181441
1.000000 0.650791 0.181441
0.017329 0.739491 0.181441
0.100533 0.739491 0.181441
0.182040 0.739491 0.181441
0.263648 0.739491 0.181441
0.344908 0.739491 0.181441
0.427026 0.739491 0.181441
0.507266 0.739491 0.181441
0.587799 0.739491 0.181441
0.668314 0.739491 0.181441
0.748651 0.739491 0.181441
0.829373 0.739491 0.181441
0.908122 0.739491 0.181441
0.964484 0.739491 0.181441
0.991023 0.739491 0.181441
0.999074 0.739491 0.181441
1.000000 0.739491 0.181441
0.017329 0.829354 0.181441
0.100533 0.829354 0.181441
0.182040 0.829354 0.181441
0.263648 0.829354 0.181441
0.344908 0.829354 0.181441
0.427026 0.829354 0.181441
0.507266 0.829354 0.181441
0.587799 0.829354 0.181441
0.668314 0.829354 0.181441
0.748651 0.829354 0.181441
0.829373 0.829354 0.181441
0.908122 0.829354 0.181441
0.964484 0.829354 0.181441
0.991023 0.829354 0.181441
0.999074 0.829354 0.181441
1.000000 0.829354 0.181441
0.017329 0.917075 0.181441
0.100533 0.917075 0.181441
0.182040 0.917075 0.181441
0.263648 0.917075 0.181441
0.344908 0.917075 0.181441
0.427026 0.917075 0.181441
0.507266 0.917075 0.181441
0.587799 0.917075 0.181441
0.668314 0.917075 0.181441
0.748651 0.917075 0.181441
0.829373 0.917075 0.181441
0.908122 0.917075 0.181441
0.964484 0.917075 0.181441
0.991023 0.917075 0.181441
0.999074 0.917075 0.181441
1.000000 0.917075 0.181441
0.017329 0.970235 0.181441
0.100533 0.970235 0.181441
0.182040 0.970235 0.181441
0.263648 0.970235 0.181441
0.344908 0.970235 0.181441
0.427026 0.970235 0.181441
0.507266 0.970235 0.181441
0.587799 0.970235 0.181441
0.668314 0.970235 0.181441
0.748651 0.970235 0.181441
0.829373 0.970235 0.181441
0.908122 0.970235 0.181441
0.964484 0.970235 0.181441
0.991023 0.970235 0.181441
0.999074 0.970235 0.181441
1.000000 0.970235 0.181441
0.017329 0.993036 0.181441
0.100533 0.993036 0.181441
0.182040 0.993036 0.181441
0.263648 0.993036 0.181441
0.344908 0.993036 0.181441
0.427026 0.993036 0.181441
0.507266 0.993036 0.181441
0.587799 0.993036 0.181441
0.668314 0.993036 0.181441
0.748651 0.993036 0.181441
0.829373 0.993036 0.181441
0.908122 0.993036 0.181441
0.964484 0.993036 0.181441
0.991023 0.993036 0.181441
0.999074 0.993036 0.181441
1.000000 0.993036 0.181441
0.017329 0.999387 0.181441
0.100533 0.999387 0.181441
0.182040 0.999387 0.181441
0.263648 0.999387 0.181441
0.344908 0.999387 0.181441
0.427026 0.999387 0.181441
0.507266 0.999387 0.181441
0.587799 0.999387 0.181441
0.668314 0.999387 0.181441
0.748651 0.999387 0.181441
0.829373 0.999387 0.181441
0.908122 0.999387 0.181441
0.964484 0.999387 0.181441
0.991023 0.999387 0.181441
0.999074 0.999387 0.181441
1.000000 0.999387 0.181441
0.017329 1.000000 0.181441
0.100533 1.000000 0.181441
0.182040 1.000000 0.181441
0.263648 1.000000 0.181441
0.344908 1.000000 0.181441
0.427026 1.000000 0.181441
0.507266 1.000000 0.181441
0.587799 1.000000 0.181441
0.668314 1.000000 0.181441
0.748651 1.000000 0.181441
0.829373 1.000000 0.181441
0.908122 1.000000 0.181441
0.964484 1.000000 0.181441
0.991023 1.000000 0.181441
0.999074 1.000000 0.181441
1.000000 1.000000 0.181441
0.017329 0.017235 0.261473
0.100533 0.017235 0.261473
0.182040 0.017235 0.261473
0.263648 0.017235 0.261473
0.344908 0.017235 0.261473
0.427026 0.017235 0.261473
0.507266 0.017235 0.261473
0.587799 0.017235 0.261473
0.668314 0.017235 0.261473
0.748651 0.017235 0.261473
0.829373 0.017235 0.261473
0.908122 0.017235 0.261473
0.964484 0.017235 0.261473
0.991023 0.017235 0.261473
0.999074 0.017235 0.261473
1.000000 0.017235 0.261473
0.017329 0.082492 0.261473
0.100533 0.082492 0.261473
0.182040 0.082492 0.261473
0.263648 0.082492 0.261473
0.344908 0.082492 0.261473
0.427026 0.082492 0.261473
0.507266 0.082492 0.261473
0.587799 0.082492 0.261473
0.668314 0.082492 0.261473
0.748651 0.082492 0.261473
0.829373 0.082492 0.261473
0.908122 0.082492 0.261473
0.964484 0.082492 0.261473
0.991023 0.082492 0.261473
0.999074 0.082492 0.261473
1.000000 0.082492 0.261473
0.017329 0.155044 0.261473
0.100533 0.155044 0.261473
0.182040 0.155044 0.261473
0.263648 0.155044 0.261473
0.344908 0.155044 0.261473
0.427026 0.155044 0.261473
0.507266 0.155044 0.261473
0.587799 0.155044 0.261473
0.668314 0.155044 0.261473
0.748651 0.155044 0.261473
0.829373 0.155044 0.261473
0.908122 0.155044 0.261473
0.964484 0.155044 0.261473
0.991023 0.155044 0.261473
0.999074 0.155044 0.261473
1.000000 0.155044 0.261473
0.017329 0.231779 0.261473
0.100533 0.231779 0.261473
0.182040 0.231779 0.261473
0.263648 0.231779 0.261473
0.344908 0.231779 0.261473
0.427026 0.231779 0.261473
0.507266 0.231779 0.261473
0.587799 0.231779 0.261473
0.668314 0.231779 0.261473
0.748651 0.231779 0.261473
0.829373 0.231779 0.261473
0.908122 0.231779 0.261473
0.964484 0.231779 0.261473
0.991023 0.231779 0.261473
0.999074 0.231779 0.261473
1.000000 0.231779 0.261473
0.017329 0.311479 0.261473
0.100533 0.311479 0.261473
0.182040 0.311479 0.261473
0.263648 0.311479 0.261473
0.344908 0.311479 0.261473
0.427026 0.311479 0.261473
0.507266 0.311479 0.261473
0.587799 0.311479 0.261473
0.668314 0.311479 0.261473
0.748651 0.311479 0.261473
0.829373 0.311479 0.261473
0.908122 0.311479 0.261473
0.964484 0.311479 0.261473
0.991023 0.311479 0.261473
0.999074 0.311479 0.261473
1.000000 0.311479 0.261473
0.017329 0.393584 0.261473
0.100533 0.393584 0.261473
0.182040 0.393584 0.261473
0.263648 0.393584 0.261473
0.344908 0.393584 0.261473
0.427026 0.393584 0.261473
0.507266 0.393584 0.261473
0.587799 0.393584 0.261473
0.668314 0.393584 0.261473
0.748651 0.393584 0.261473
0.829373 0.393584 0.261473
0.908122 0.393584 0.261473
0.964484 0.393584 0.261473
0.991023 0.393584 0.261473
0.999074 0.393584 0.261473
1.000000 0.393584 0.261473
0.017329 0.477734 0.261473
0.100533 0.477734 0.261473
0.182040 0.477734 0.261473
0.263648 0.477734 0.261473
0.344908 0.477734 0.261473
0.427026 0.477734 0.261473
0.507266 0.477734 0.261473
0.587799 0.477734 0.261473
0.668314 0.477734 0.261473
0.748651 0.477734 0.261473
0.829373 0.477734 0.261473
0.908122 0.477734 0.261473
0.964484 0.477734 0.261473
0.991023 0.477734 0.261473
0.999074 0.477734 0.261473
1.000000 0.477734 0.261473
0.017329 0.563494 0.261473
0.100533 0.563494 0.261473
0.182040 0.563494 0.261473
0.263648 0.563494 0.261473
0.344908 0.563494 0.261473
0.427026 0.563494 0.261473
0.507266 0.563494 0.261473
0.587799 0.563494 0.261473
