example_ofxGpuLutCube/bin/data/ofxGpuLutCube/LUT/S8 (red sunset sky tone_1).cube
LUT_3D_SIZE 6
0.017329 0.017235 0.025871
0.263648 0.017235 0.025871
0.507266 0.017235 0.025871
0.748651 0.017235 0.025871
0.964484 0.017235 0.025871
1.000000 0.017235 0.025871
0.017329 0.231779 0.025871
0.263648 0.231779 0.025871
0.507266 0.231779 0.025871
0.748651 0.231779 0.025871
0.964484 0.231779 0.025871
1.000000 0.231779 0.025871
0.017329 0.477734 0.025871
0.263648 0.477734 0.025871
0.507266 0.477734 0.025871
0.748651 0.477734 0.025871
0.964484 0.477734 0.025871
1.000000 0.477734 0.025871
0.017329 0.739491 0.025871
0.263648 0.739491 0.025871
0.507266 0.739491 0.025871
0.748651 0.739491 0.025871
0.964484 0.739491 0.025871
1.000000 0.739491 0.025871
0.017329 0.970235 0.025871
0.263648 0.970235 0.025871
0.507266 0.970235 0.025871
0.748651 0.970235 0.025871
0.964484 0.970235 0.025871
1.000000 0.970235 0.025871
0.017329 1.000000 0.025871
0.263648 1.000000 0.025871
0.507266 1.000000 0.025871
0.748651 1.000000 0.025871
0.964484 1.000000 0.025871
1.000000 1.000000 0.025871
0.017329 0.017235 0.261473
0.263648 0.017235 0.261473
0.507266 0.017235 0.261473
0.748651 0.017235 0.261473
0.964484 0.017235 0.261473
1.000000 0.017235 0.261473
0.017329 0.231779 0.261473
0.263648 0.231779 0.261473
0.507266 0.231779 0.261473
0.748651 0.231779 0.261473
0.964484 0.231779 0.261473
1.000000 0.231779 0.261473
0.017329 0.477734 0.261473
0.263648 0.477734 0.261473
0.507266 0.477734 0.261473
0.748651 0.477734 0.261473
0.964484 0.477734 0.261473
1.000000 0.477734 0.261473
0.017329 0.739491 0.261473
0.263648 0.739491 0.261473
0.507266 0.739491 0.261473
0.748651 0.739491 0.261473
0.964484 0.739491 0.261473
1.000000 0.739491 0.261473
0.017329 0.970235 0.261473
0.263648 0.970235 0.261473
0.507266 0.970235 0.261473
0.748651 0.970235 0.261473
0.964484 0.970235 0.261473
1.000000 0.970235 0.261473
0.017329 1.000000 0.261473
0.263648 1.000000 0.261473
0.507266 1.000000 0.261473
0.748651 1.000000 0.261473
0.964484 1.000000 0.261473
1.000000 1.000000 0.261473
0.017329 0.017235 0.505666
0.263648 0.017235 0.505666
0.507266 0.017235 0.505666
0.748651 0.017235 0.505666
0.964484 0.017235 0.505666
1.000000 0.017235 0.505666
0.017329 0.231779 0.505666
0.263648 0.231779 0.505666
0.507266 0.231779 0.505666
0.748651 0.231779 0.505666
0.964484 0.231779 0.505666
1.000000 0.231779 0.505666
0.017329 0.477734 0.505666
0.263648 0.477734 0.505666
0.507266 0.477734 0.505666
0.748651 0.477734 0.505666
0.964484 0.477734 0.505666
1.000000 0.477734 0.505666
0.017329 0.739491 0.505666
0.263648 0.739491 0.505666
0.507266 0.739491 0.505666
0.748651 0.739491 0.505666
0.964484 0.739491 0.505666
1.000000 0.739491 0.505666
0.017329 0.970235 0.505666
0.263648 0.970235 0.505666
0.507266 0.970235 0.505666
0.748651 0.970235 0.505666
0.964484 0.970235 0.505666
1.000000 0.970235 0.505666
0.017329 1.000000 0.505666
0.263648 1.000000 0.505666
0.507266 1.000000 0.505666
0.748651 1.000000 0.505666
0.964484 1.000000 0.505666
1.000000 1.000000 0.505666
0.017329 0.017235 0.753877
0.263648 0.017235 0.753877
0.507266 0.017235 0.753877
0.748651 0.017235 0.753877
0.964484 0.017235 0.753877
1.000000 0.017235 0.753877
0.017329 0.231779 0.753877
0.263648 0.231779 0.753877
0.507266 0.231779 0.753877
0.748651 0.231779 0.753877
0.964484 0.231779 0.753877
1.000000 0.231779 0.753877
0.017329 0.477734 0.753877
0.263648 0.477734 0.753877
0.507266 0.477734 0.753877
0.748651 0.477734 0.753877
0.964484 0.477734 0.753877
1.000000 0.477734 0.753877
0.017329 0.739491 0.753877
0.263648 0.739491 0.753877
0.507266 0.739491 0.753877
0.748651 0.739491 0.753877
0.964484 0.739491 0.753877
1.000000 0.739491 0.753877
0.017329 0.970235 0.753877
0.263648 0.970235 0.753877
0.507266 0.970235 0.753877
0.748651 0.970235 0.753877
0.964484 0.970235 0.753877
1.000000 0.970235 0.753877
0.017329 1.000000 0.753877
0.263648 1.000000 0.753877
0.507266 1.000000 0.753877
0.748651 1.000000 0.753877
0.964484 1.000000 0.753877
1.000000 1.000000 0.753877
0.017329 0.017235 0.970273
0.263648 0.017235 0.970273
0.507266 0.017235 0.970273
0.748651 0.017235 0.970273
0.964484 0.017235 0.970273
1.000000 0.017235 0.970273
0.017329 0.231779 0.970273
0.263648 0.231779 0.970273
0.507266 0.231779 0.970273
0.748651 0.231779 0.970273
0.964484 0.231779 0.970273
1.000000 0.231779 0.970273
0.017329 0.477734 0.970273
0.263648 0.477734 0.970273
0.507266 0.477734 0.970273
0.748651 0.477734 0.970273
0.964484 0.477734 0.970273
1.000000 0.477734 0.970273
0.017329 0.739491 0.970273
0.263648 0.739491 0.970273
0.507266 0.739491 0.970273
0.748651 0.739491 0.970273
0.964484 0.739491 0.970273
1.000000 0.739491 0.970273
0.017329 0.970235 0.970273
0.263648 0.970235 0.970273
0.507266 0.970235 0.970273
0.748651 0.970235 0.970273
0.964484 0.970235 0.970273
1.000000 0.970235 0.970273
0.017329 1.000000 0.970273
0.263648 1.000000 0.970273
0.507266 1.000000 0.970273
0.748651 1.000000 0.970273
0.964484 1.000000 0.970273
1.000000 1.000000 0.970273
0.017329 0.017235 1.000000
0.263648 0.017235 1.000000
0.507266 0.017235 1.000000
0.748651 0.017235 1.000000
0.964484 0.017235 1.000000
1.000000 0.017235 1.000000
0.017329 0.231779 1.000000
0.263648 0.231779 1.000000
0.507266 0.231779 1.000000
0.748651 0.231779 1.000000
0.964484 0.231779 1.000000
1.000000 0.231779 1.000000
0.017329 0.477734 1.000000
0.263648 0.477734 1.000000
0.507266 0.477734 1.000000
0.748651 0.477734 1.000000
0.964484 0.477734 1.000000
1.000000 0.477734 1.000000
0.017329 0.739491 1.000000
0.263648 0.739491 1.000000
0.507266 0.739491 1.000000
0.748651 0.739491 1.000000
0.964484 0.739491 1.000000
1.000000 0.739491 1.000000
0.017329 0.970235 1.000000
0.263648 0.970235 1.000000
0.507266 0.970235 1.000000
0.748651 0.970235 1.000000
0.964484 0.970235 1.000000
1.000000 0.970235 1.000000
0.017329 1.000000 1.000000
0.263648 1.000000 1.000000
0.507266 1.000000 1.000000
0.748651 1.000000 1.000000
0.964484 1.000000 1.000000
1.000000 1.000000 1.000000
