example_ofxGpuLutCube/bin/data/ofxGpuLutCube/LUT/S9 (red sunset sky tone_2).cube
LUT_3D_SIZE 16
0.083827 0.009274 0.011116
0.211516 0.009274 0.011116
0.301219 0.009274 0.011116
0.377201 0.009274 0.011116
0.444736 0.009274 0.011116
0.507279 0.009274 0.011116
0.564231 0.009274 0.011116
0.618151 0.009274 0.011116
0.669402 0.009274 0.011116
0.718386 0.009274 0.011116
0.765553 0.009274 0.011116
0.810181 0.009274 0.011116
0.853800 0.009274 0.011116
0.897025 0.009274 0.011116
0.937666 0.009274 0.011116
0.977429 0.009274 0.011116
0.083827 0.051306 0.011116
0.211516 0.051306 0.011116
0.301219 0.051306 0.011116
0.377201 0.051306 0.011116
0.444736 0.051306 0.011116
0.507279 0.051306 0.011116
0.564231 0.051306 0.011116
0.618151 0.051306 0.011116
0.669402 0.051306 0.011116
0.718386 0.051306 0.011116
0.765553 0.051306 0.011116
0.810181 0.051306 0.011116
0.853800 0.051306 0.011116
0.897025 0.051306 0.011116
0.937666 0.051306 0.011116
0.977429 0.051306 0.011116
0.083827 0.098954 0.011116
0.211516 0.098954 0.011116
0.301219 0.098954 0.011116
0.377201 0.098954 0.011116
0.444736 0.098954 0.011116
0.507279 0.098954 0.011116
0.564231 0.098954 0.011116
0.618151 0.098954 0.011116
0.669402 0.098954 0.011116
0.718386 0.098954 0.011116
0.765553 0.098954 0.011116
0.810181 0.098954 0.011116
0.853800 0.098954 0.011116
0.897025 0.098954 0.011116
0.937666 0.098954 0.011116
0.977429 0.098954 0.011116
0.083827 0.149809 0.011116
0.211516 0.149809 0.011116
0.301219 0.149809 0.011116
0.377201 0.149809 0.011116
0.444736 0.149809 0.011116
0.507279 0.149809 0.011116
0.564231 0.149809 0.011116
0.618151 0.149809 0.011116
0.669402 0.149809 0.011116
0.718386 0.149809 0.011116
0.765553 0.149809 0.011116
0.810181 0.149809 0.011116
0.853800 0.149809 0.011116
0.897025 0.149809 0.011116
0.937666 0.149809 0.011116
0.977429 0.149809 0.011116
0.083827 0.202964 0.011116
0.211516 0.202964 0.011116
0.301219 0.202964 0.011116
0.377201 0.202964 0.011116
0.444736 0.202964 0.011116
0.507279 0.202964 0.011116
0.564231 0.202964 0.011116
0.618151 0.202964 0.011116
0.669402 0.202964 0.011116
0.718386 0.202964 0.011116
0.765553 0.202964 0.011116
0.810181 0.202964 0.011116
0.853800 0.202964 0.011116
0.897025 0.202964 0.011116
0.937666 0.202964 0.011116
0.977429 0.202964 0.011116
0.083827 0.257951 0.011116
0.211516 0.257951 0.011116
0.301219 0.257951 0.011116
0.377201 0.257951 0.011116
0.444736 0.257951 0.011116
0.507279 0.257951 0.011116
0.564231 0.257951 0.011116
0.618151 0.257951 0.011116
0.669402 0.257951 0.011116
0.718386 0.257951 0.011116
0.765553 0.257951 0.011116
0.810181 0.257951 0.011116
0.853800 0.257951 0.011116
0.897025 0.257951 0.011116
0.937666 0.257951 0.011116
0.977429 0.257951 0.011116
0.083827 0.314496 0.011116
0.211516 0.314496 0.011116
0.301219 0.314496 0.011116
0.377201 0.314496 0.011116
0.444736 0.314496 0.011116
0.507279 0.314496 0.011116
0.564231 0.314496 0.011116
0.618151 0.314496 0.011116
0.669402 0.314496 0.011116
0.718386 0.314496 0.011116
0.765553 0.314496 0.011116
0.810181 0.314496 0.011116
0.853800 0.314496 0.011116
0.897025 0.314496 0.011116
0.937666 0.314496 0.011116
0.977429 0.314496 0.011116
0.083827 0.372309 0.011116
0.211516 0.372309 0.011116
0.301219 0.372309 0.011116
0.377201 0.372309 0.011116
0.444736 0.372309 0.011116
0.507279 0.372309 0.011116
0.564231 0.372309 0.011116
0.618151 0.372309 0.011116
0.669402 0.372309 0.011116
0.718386 0.372309 0.011116
0.765553 0.372309 0.011116
0.810181 0.372309 0.011116
0.853800 0.372309 0.011116
0.897025 0.372309 0.011116
0.937666 0.372309 0.011116
0.977429 0.372309 0.011116
0.083827 0.431287 0.011116
0.211516 0.431287 0.011116
0.301219 0.431287 0.011116
0.377201 0.431287 0.011116
0.444736 0.431287 0.011116
0.507279 0.431287 0.011116
0.564231 0.431287 0.011116
0.618151 0.431287 0.011116
0.669402 0.431287 0.011116
0.718386 0.431287 0.011116
0.765553 0.431287 0.011116
0.810181 0.431287 0.011116
0.853800 0.431287 0.011116
0.897025 0.431287 0.011116
0.937666 0.431287 0.011116
0.977429 0.431287 0.011116
0.083827 0.491359 0.011116
0.211516 0.491359 0.011116
0.301219 0.491359 0.011116
0.377201 0.491359 0.011116
0.444736 0.491359 0.011116
0.507279 0.491359 0.011116
0.564231 0.491359 0.011116
0.618151 0.491359 0.011116
0.669402 0.491359 0.011116
0.718386 0.491359 0.011116
0.765553 0.491359 0.011116
0.810181 0.491359 0.011116
0.853800 0.491359 0.011116
0.897025 0.491359 0.011116
0.937666 0.491359 0.011116
0.977429 0.491359 0.011116
0.083827 0.552335 0.011116
0.211516 0.552335 0.011116
0.301219 0.552335 0.011116
0.377201 0.552335 0.011116
0.444736 0.552335 0.011116
0.507279 0.552335 0.011116
0.564231 0.552335 0.011116
0.618151 0.552335 0.011116
0.669402 0.552335 0.011116
0.718386 0.552335 0.011116
0.765553 0.552335 0.011116
0.810181 0.552335 0.011116
0.853800 0.552335 0.011116
0.897025 0.552335 0.011116
0.937666 0.552335 0.011116
0.977429 0.552335 0.011116
0.083827 0.614201 0.011116
0.211516 0.614201 0.011116
0.301219 0.614201 0.011116
0.377201 0.614201 0.011116
0.444736 0.614201 0.011116
0.507279 0.614201 0.011116
0.564231 0.614201 0.011116
0.618151 0.614201 0.011116
0.669402 0.614201 0.011116
0.718386 0.614201 0.011116
0.765553 0.614201 0.011116
0.810181 0.614201 0.011116
0.853800 0.614201 0.011116
0.897025 0.614201 0.011116
0.937666 0.614201 0.011116
0.977429 0.614201 0.011116
0.083827 0.676813 0.011116
0.211516 0.676813 0.011116
0.301219 0.676813 0.011116
0.377201 0.676813 0.011116
0.444736 0.676813 0.011116
0.507279 0.676813 0.011116
0.564231 0.676813 0.011116
0.618151 0.676813 0.011116
0.669402 0.676813 0.011116
0.718386 0.676813 0.011116
0.765553 0.676813 0.011116
0.810181 0.676813 0.011116
0.853800 0.676813 0.011116
0.897025 0.676813 0.011116
0.937666 0.676813 0.011116
0.977429 0.676813 0.011116
0.083827 0.740263 0.011116
0.211516 0.740263 0.011116
0.301219 0.740263 0.011116
0.377201 0.740263 0.011116
0.444736 0.740263 0.011116
0.507279 0.740263 0.011116
0.564231 0.740263 0.011116
0.618151 0.740263 0.011116
0.669402 0.740263 0.011116
0.718386 0.740263 0.011116
0.765553 0.740263 0.011116
0.810181 0.740263 0.011116
0.853800 0.740263 0.011116
0.897025 0.740263 0.011116
0.937666 0.740263 0.011116
0.977429 0.740263 0.011116
0.083827 0.804166 0.011116
0.211516 0.804166 0.011116
0.301219 0.804166 0.011116
0.377201 0.804166 0.011116
0.444736 0.804166 0.011116
0.507279 0.804166 0.011116
0.564231 0.804166 0.011116
0.618151 0.804166 0.011116
0.669402 0.804166 0.011116
0.718386 0.804166 0.011116
0.765553 0.804166 0.011116
0.810181 0.804166 0.011116
0.853800 0.804166 0.011116
0.897025 0.804166 0.011116
0.937666 0.804166 0.011116
0.977429 0.804166 0.011116
0.083827 0.868197 0.011116
0.211516 0.868197 0.011116
0.301219 0.868197 0.011116
0.377201 0.868197 0.011116
0.444736 0.868197 0.011116
0.507279 0.868197 0.011116
0.564231 0.868197 0.011116
0.618151 0.868197 0.011116
0.669402 0.868197 0.011116
0.718386 0.868197 0.011116
0.765553 0.868197 0.011116
0.810181 0.868197 0.011116
0.853800 0.868197 0.011116
0.897025 0.868197 0.011116
0.937666 0.868197 0.011116
0.977429 0.868197 0.011116
0.083827 0.009274 0.042032
0.211516 0.009274 0.042032
0.301219 0.009274 0.042032
0.377201 0.009274 0.042032
0.444736 0.009274 0.042032
0.507279 0.009274 0.042032
0.564231 0.009274 0.042032
0.618151 0.009274 0.042032
0.669402 0.009274 0.042032
0.718386 0.009274 0.042032
0.765553 0.009274 0.042032
0.810181 0.009274 0.042032
0.853800 0.009274 0.042032
0.897025 0.009274 0.042032
0.937666 0.009274 0.042032
0.977429 0.009274 0.042032
0.083827 0.051306 0.042032
0.211516 0.051306 0.042032
0.301219 0.051306 0.042032
0.377201 0.051306 0.042032
0.444736 0.051306 0.042032
0.507279 0.051306 0.042032
0.564231 0.051306 0.042032
0.618151 0.051306 0.042032
0.669402 0.051306 0.042032
0.718386 0.051306 0.042032
0.765553 0.051306 0.042032
0.810181 0.051306 0.042032
0.853800 0.051306 0.042032
0.897025 0.051306 0.042032
0.937666 0.051306 0.042032
0.977429 0.051306 0.042032
0.083827 0.098954 0.042032
0.211516 0.098954 0.042032
0.301219 0.098954 0.042032
0.377201 0.098954 0.042032
0.444736 0.098954 0.042032
0.507279 0.098954 0.042032
0.564231 0.098954 0.042032
0.618151 0.098954 0.042032
0.669402 0.098954 0.042032
0.718386 0.098954 0.042032
0.765553 0.098954 0.042032
0.810181 0.098954 0.042032
0.853800 0.098954 0.042032
0.897025 0.098954 0.042032
0.937666 0.098954 0.042032
0.977429 0.098954 0.042032
0.083827 0.149809 0.042032
0.211516 0.149809 0.042032
0.301219 0.149809 0.042032
0.377201 0.149809 0.042032
0.444736 0.149809 0.042032
0.507279 0.149809 0.042032
0.564231 0.149809 0.042032
0.618151 0.149809 0.042032
0.669402 0.149809 0.042032
0.718386 0.149809 0.042032
0.765553 0.149809 0.042032
0.810181 0.149809 0.042032
0.853800 0.149809 0.042032
0.897025 0.149809 0.042032
0.937666 0.149809 0.042032
0.977429 0.149809 0.042032
0.083827 0.202964 0.042032
0.211516 0.202964 0.042032
0.301219 0.202964 0.042032
0.377201 0.202964 0.042032
0.444736 0.202964 0.042032
0.507279 0.202964 0.042032
0.564231 0.202964 0.042032
0.618151 0.202964 0.042032
0.669402 0.202964 0.042032
0.718386 0.202964 0.042032
0.765553 0.202964 0.042032
0.810181 0.202964 0.042032
0.853800 0.202964 0.042032
0.897025 0.202964 0.042032
0.937666 0.202964 0.042032
0.977429 0.202964 0.042032
0.083827 0.257951 0.042032
0.211516 0.257951 0.042032
0.301219 0.257951 0.042032
0.377201 0.257951 0.042032
0.444736 0.257951 0.042032
0.507279 0.257951 0.042032
0.564231 0.257951 0.042032
0.618151 0.257951 0.042032
0.669402 0.257951 0.042032
0.718386 0.257951 0.042032
0.765553 0.257951 0.042032
0.810181 0.257951 0.042032
0.853800 0.257951 0.042032
0.897025 0.257951 0.042032
0.937666 0.257951 0.042032
0.977429 0.257951 0.042032
0.083827 0.314496 0.042032
0.211516 0.314496 0.042032
0.301219 0.314496 0.042032
0.377201 0.314496 0.042032
0.444736 0.314496 0.042032
0.507279 0.314496 0.042032
0.564231 0.314496 0.042032
0.618151 0.314496 0.042032
0.669402 0.314496 0.042032
0.718386 0.314496 0.042032
0.765553 0.314496 0.042032
0.810181 0.314496 0.042032
0.853800 0.314496 0.042032
0.897025 0.314496 0.042032
0.937666 0.314496 0.042032
0.977429 0.314496 0.042032
0.083827 0.372309 0.042032
0.211516 0.372309 0.042032
0.301219 0.372309 0.042032
0.377201 0.372309 0.042032
0.444736 0.372309 0.042032
0.507279 0.372309 0.042032
0.564231 0.372309 0.042032
0.618151 0.372309 0.042032
0.669402 0.372309 0.042032
0.718386 0.372309 0.042032
0.765553 0.372309 0.042032
0.810181 0.372309 0.042032
0.853800 0.372309 0.042032
0.897025 0.372309 0.042032
0.937666 0.372309 0.042032
0.977429 0.372309 0.042032
0.083827 0.431287 0.042032
0.211516 0.431287 0.042032
0.301219 0.431287 0.042032
0.377201 0.431287 0.042032
0.444736 0.431287 0.042032
0.507279 0.431287 0.042032
0.564231 0.431287 0.042032
0.618151 0.431287 0.042032
0.669402 0.431287 0.042032
0.718386 0.431287 0.042032
0.765553 0.431287 0.042032
0.810181 0.431287 0.042032
0.853800 0.431287 0.042032
0.897025 0.431287 0.042032
0.937666 0.431287 0.042032
0.977429 0.431287 0.042032
0.083827 0.491359 0.042032
0.211516 0.491359 0.042032
0.301219 0.491359 0.042032
0.377201 0.491359 0.042032
0.444736 0.491359 0.042032
0.507279 0.491359 0.042032
0.564231 0.491359 0.042032
0.618151 0.491359 0.042032
0.669402 0.491359 0.042032
0.718386 0.491359 0.042032
0.765553 0.491359 0.042032
0.810181 0.491359 0.042032
0.853800 0.491359 0.042032
0.897025 0.491359 0.042032
0.937666 0.491359 0.042032
0.977429 0.491359 0.042032
0.083827 0.552335 0.042032
0.211516 0.552335 0.042032
0.301219 0.552335 0.042032
0.377201 0.552335 0.042032
0.444736 0.552335 0.042032
0.507279 0.552335 0.042032
0.564231 0.552335 0.042032
0.618151 0.552335 0.042032
0.669402 0.552335 0.042032
0.718386 0.552335 0.042032
0.765553 0.552335 0.042032
0.810181 0.552335 0.042032
0.853800 0.552335 0.042032
0.897025 0.552335 0.042032
0.937666 0.552335 0.042032
0.977429 0.552335 0.042032
0.083827 0.614201 0.042032
0.211516 0.614201 0.042032
0.301219 0.614201 0.042032
0.377201 0.614201 0.042032
0.444736 0.614201 0.042032
0.507279 0.614201 0.042032
0.564231 0.614201 0.042032
0.618151 0.614201 0.042032
0.669402 0.614201 0.042032
0.718386 0.614201 0.042032
0.765553 0.614201 0.042032
0.810181 0.614201 0.042032
0.853800 0.614201 0.042032
0.897025 0.614201 0.042032
0.937666 0.614201 0.042032
0.977429 0.614201 0.042032
0.083827 0.676813 0.042032
0.211516 0.676813 0.042032
0.301219 0.676813 0.042032
0.377201 0.676813 0.042032
0.444736 0.676813 0.042032
0.507279 0.676813 0.042032
0.564231 0.676813 0.042032
0.618151 0.676813 0.042032
0.669402 0.676813 0.042032
0.718386 0.676813 0.042032
0.765553 0.676813 0.042032
0.810181 0.676813 0.042032
0.853800 0.676813 0.042032
0.897025 0.676813 0.042032
0.937666 0.676813 0.042032
0.977429 0.676813 0.042032
0.083827 0.740263 0.042032
0.211516 0.740263 0.042032
0.301219 0.740263 0.042032
0.377201 0.740263 0.042032
0.444736 0.740263 0.042032
0.507279 0.740263 0.042032
0.564231 0.740263 0.042032
0.618151 0.740263 0.042032
0.669402 0.740263 0.042032
0.718386 0.740263 0.042032
0.765553 0.740263 0.042032
0.810181 0.740263 0.042032
0.853800 0.740263 0.042032
0.897025 0.740263 0.042032
0.937666 0.740263 0.042032
0.977429 0.740263 0.042032
0.083827 0.804166 0.042032
0.211516 0.804166 0.042032
0.301219 0.804166 0.042032
0.377201 0.804166 0.042032
0.444736 0.804166 0.042032
0.507279 0.804166 0.042032
0.564231 0.804166 0.042032
0.618151 0.804166 0.042032
0.669402 0.804166 0.042032
0.718386 0.804166 0.042032
0.765553 0.804166 0.042032
0.810181 0.804166 0.042032
0.853800 0.804166 0.042032
0.897025 0.804166 0.042032
0.937666 0.804166 0.042032
0.977429 0.804166 0.042032
0.083827 0.868197 0.042032
0.211516 0.868197 0.042032
0.301219 0.868197 0.042032
0.377201 0.868197 0.042032
0.444736 0.868197 0.042032
0.507279 0.868197 0.042032
0.564231 0.868197 0.042032
0.618151 0.868197 0.042032
0.669402 0.868197 0.042032
0.718386 0.868197 0.042032
0.765553 0.868197 0.042032
0.810181 0.868197 0.042032
0.853800 0.868197 0.042032
0.897025 0.868197 0.042032
0.937666 0.868197 0.042032
0.977429 0.868197 0.042032
0.083827 0.009274 0.078871
0.211516 0.009274 0.078871
0.301219 0.009274 0.078871
0.377201 0.009274 0.078871
0.444736 0.009274 0.078871
0.507279 0.009274 0.078871
0.564231 0.009274 0.078871
0.618151 0.009274 0.078871
0.669402 0.009274 0.078871
0.718386 0.009274 0.078871
0.765553 0.009274 0.078871
0.810181 0.009274 0.078871
0.853800 0.009274 0.078871
0.897025 0.009274 0.078871
0.937666 0.009274 0.078871
0.977429 0.009274 0.078871
0.083827 0.051306 0.078871
0.211516 0.051306 0.078871
0.301219 0.051306 0.078871
0.377201 0.051306 0.078871
0.444736 0.051306 0.078871
0.507279 0.051306 0.078871
0.564231 0.051306 0.078871
0.618151 0.051306 0.078871
0.669402 0.051306 0.078871
0.718386 0.051306 0.078871
0.765553 0.051306 0.078871
0.810181 0.051306 0.078871
0.853800 0.051306 0.078871
0.897025 0.051306 0.078871
0.937666 0.051306 0.078871
0.977429 0.051306 0.078871
0.083827 0.098954 0.078871
0.211516 0.098954 0.078871
0.301219 0.098954 0.078871
0.377201 0.098954 0.078871
0.444736 0.098954 0.078871
0.507279 0.098954 0.078871
0.564231 0.098954 0.078871
0.618151 0.098954 0.078871
0.669402 0.098954 0.078871
0.718386 0.098954 0.078871
0.765553 0.098954 0.078871
0.810181 0.098954 0.078871
0.853800 0.098954 0.078871
0.897025 0.098954 0.078871
0.937666 0.098954 0.078871
0.977429 0.098954 0.078871
0.083827 0.149809 0.078871
0.211516 0.149809 0.078871
0.301219 0.149809 0.078871
0.377201 0.149809 0.078871
0.444736 0.149809 0.078871
0.507279 0.149809 0.078871
0.564231 0.149809 0.078871
0.618151 0.149809 0.078871
0.669402 0.149809 0.078871
0.718386 0.149809 0.078871
0.765553 0.149809 0.078871
0.810181 0.149809 0.078871
0.853800 0.149809 0.078871
0.897025 0.149809 0.078871
0.937666 0.149809 0.078871
0.977429 0.149809 0.078871
0.083827 0.202964 0.078871
0.211516 0.202964 0.078871
0.301219 0.202964 0.078871
0.377201 0.202964 0.078871
0.444736 0.202964 0.078871
0.507279 0.202964 0.078871
0.564231 0.202964 0.078871
0.618151 0.202964 0.078871
0.669402 0.202964 0.078871
0.718386 0.202964 0.078871
0.765553 0.202964 0.078871
0.810181 0.202964 0.078871
0.853800 0.202964 0.078871
0.897025 0.202964 0.078871
0.937666 0.202964 0.078871
0.977429 0.202964 0.078871
0.083827 0.257951 0.078871
0.211516 0.257951 0.078871
0.301219 0.257951 0.078871
0.377201 0.257951 0.078871
0.444736 0.257951 0.078871
0.507279 0.257951 0.078871
0.564231 0.257951 0.078871
0.618151 0.257951 0.078871
0.669402 0.257951 0.078871
0.718386 0.257951 0.078871
0.765553 0.257951 0.078871
0.810181 0.257951 0.078871
0.853800 0.257951 0.078871
0.897025 0.257951 0.078871
0.937666 0.257951 0.078871
0.977429 0.257951 0.078871
0.083827 0.314496 0.078871
0.211516 0.314496 0.078871
0.301219 0.314496 0.078871
0.377201 0.314496 0.078871
0.444736 0.314496 0.078871
0.507279 0.314496 0.078871
0.564231 0.314496 0.078871
0.618151 0.314496 0.078871
0.669402 0.314496 0.078871
0.718386 0.314496 0.078871
0.765553 0.314496 0.078871
0.810181 0.314496 0.078871
0.853800 0.314496 0.078871
0.897025 0.314496 0.078871
0.937666 0.314496 0.078871
0.977429 0.314496 0.078871
0.083827 0.372309 0.078871
0.211516 0.372309 0.078871
0.301219 0.372309 0.078871
0.377201 0.372309 0.078871
0.444736 0.372309 0.078871
0.507279 0.372309 0.078871
0.564231 0.372309 0.078871
0.618151 0.372309 0.078871
0.669402 0.372309 0.078871
0.718386 0.372309 0.078871
0.765553 0.372309 0.078871
0.810181 0.372309 0.078871
0.853800 0.372309 0.078871
0.897025 0.372309 0.078871
0.937666 0.372309 0.078871
0.977429 0.372309 0.078871
0.083827 0.431287 0.078871
0.211516 0.431287 0.078871
0.301219 0.431287 0.078871
0.377201 0.431287 0.078871
0.444736 0.431287 0.078871
0.507279 0.431287 0.078871
0.564231 0.431287 0.078871
0.618151 0.431287 0.078871
0.669402 0.431287 0.078871
0.718386 0.431287 0.078871
0.765553 0.431287 0.078871
0.810181 0.431287 0.078871
0.853800 0.431287 0.078871
0.897025 0.431287 0.078871
0.937666 0.431287 0.078871
0.977429 0.431287 0.078871
0.083827 0.491359 0.078871
0.211516 0.491359 0.078871
0.301219 0.491359 0.078871
0.377201 0.491359 0.078871
0.444736 0.491359 0.078871
0.507279 0.491359 0.078871
0.564231 0.491359 0.078871
0.618151 0.491359 0.078871
0.669402 0.491359 0.078871
0.718386 0.491359 0.078871
0.765553 0.491359 0.078871
0.810181 0.491359 0.078871
0.853800 0.491359 0.078871
0.897025 0.491359 0.078871
0.937666 0.491359 0.078871
0.977429 0.491359 0.078871
0.083827 0.552335 0.078871
0.211516 0.552335 0.078871
0.301219 0.552335 0.078871
0.377201 0.552335 0.078871
0.444736 0.552335 0.078871
0.507279 0.552335 0.078871
0.564231 0.552335 0.078871
0.618151 0.552335 0.078871
0.669402 0.552335 0.078871
0.718386 0.552335 0.078871
0.765553 0.552335 0.078871
0.810181 0.552335 0.078871
0.853800 0.552335 0.078871
0.897025 0.552335 0.078871
0.937666 0.552335 0.078871
0.977429 0.552335 0.078871
0.083827 0.614201 0.078871
0.211516 0.614201 0.078871
0.301219 0.614201 0.078871
0.377201 0.614201 0.078871
0.444736 0.614201 0.078871
0.507279 0.614201 0.078871
0.564231 0.614201 0.078871
0.618151 0.614201 0.078871
0.669402 0.614201 0.078871
0.718386 0.614201 0.078871
0.765553 0.614201 0.078871
0.810181 0.614201 0.078871
0.853800 0.614201 0.078871
0.897025 0.614201 0.078871
0.937666 0.614201 0.078871
0.977429 0.614201 0.078871
0.083827 0.676813 0.078871
0.211516 0.676813 0.078871
0.301219 0.676813 0.078871
0.377201 0.676813 0.078871
0.444736 0.676813 0.078871
0.507279 0.676813 0.078871
0.564231 0.676813 0.078871
0.618151 0.676813 0.078871
0.669402 0.676813 0.078871
0.718386 0.676813 0.078871
0.765553 0.676813 0.078871
0.810181 0.676813 0.078871
0.853800 0.676813 0.078871
0.897025 0.676813 0.078871
0.937666 0.676813 0.078871
0.977429 0.676813 0.078871
0.083827 0.740263 0.078871
0.211516 0.740263 0.078871
0.301219 0.740263 0.078871
0.377201 0.740263 0.078871
0.444736 0.740263 0.078871
0.507279 0.740263 0.078871
0.564231 0.740263 0.078871
0.618151 0.740263 0.078871
0.669402 0.740263 0.078871
0.718386 0.740263 0.078871
0.765553 0.740263 0.078871
0.810181 0.740263 0.078871
0.853800 0.740263 0.078871
0.897025 0.740263 0.078871
0.937666 0.740263 0.078871
0.977429 0.740263 0.078871
0.083827 0.804166 0.078871
0.211516 0.804166 0.078871
0.301219 0.804166 0.078871
0.377201 0.804166 0.078871
0.444736 0.804166 0.078871
0.507279 0.804166 0.078871
0.564231 0.804166 0.078871
0.618151 0.804166 0.078871
0.669402 0.804166 0.078871
0.718386 0.804166 0.078871
0.765553 0.804166 0.078871
0.810181 0.804166 0.078871
0.853800 0.804166 0.078871
0.897025 0.804166 0.078871
0.937666 0.804166 0.078871
0.977429 0.804166 0.078871
0.083827 0.868197 0.078871
0.211516 0.868197 0.078871
0.301219 0.868197 0.078871
0.377201 0.868197 0.078871
0.444736 0.868197 0.078871
0.507279 0.868197 0.078871
0.564231 0.868197 0.078871
0.618151 0.868197 0.078871
0.669402 0.868197 0.078871
0.718386 0.868197 0.078871
0.765553 0.868197 0.078871
0.810181 0.868197 0.078871
0.853800 0.868197 0.078871
0.897025 0.868197 0.078871
0.937666 0.868197 0.078871
0.977429 0.868197 0.078871
0.083827 0.009274 0.119627
0.211516 0.009274 0.119627
0.301219 0.009274 0.119627
0.377201 0.009274 0.119627
0.444736 0.009274 0.119627
0.507279 0.009274 0.119627
0.564231 0.009274 0.119627
0.618151 0.009274 0.119627
0.669402 0.009274 0.119627
0.718386 0.009274 0.119627
0.765553 0.009274 0.119627
0.810181 0.009274 0.119627
0.853800 0.009274 0.119627
0.897025 0.009274 0.119627
0.937666 0.009274 0.119627
0.977429 0.009274 0.119627
0.083827 0.051306 0.119627
0.211516 0.051306 0.119627
0.301219 0.051306 0.119627
0.377201 0.051306 0.119627
0.444736 0.051306 0.119627
0.507279 0.051306 0.119627
0.564231 0.051306 0.119627
0.618151 0.051306 0.119627
0.669402 0.051306 0.119627
0.718386 0.051306 0.119627
0.765553 0.051306 0.119627
0.810181 0.051306 0.119627
0.853800 0.051306 0.119627
0.897025 0.051306 0.119627
0.937666 0.051306 0.119627
0.977429 0.051306 0.119627
0.083827 0.098954 0.119627
0.211516 0.098954 0.119627
0.301219 0.098954 0.119627
0.377201 0.098954 0.119627
0.444736 0.098954 0.119627
0.507279 0.098954 0.119627
0.564231 0.098954 0.119627
0.618151 0.098954 0.119627
0.669402 0.098954 0.119627
0.718386 0.098954 0.119627
0.765553 0.098954 0.119627
0.810181 0.098954 0.119627
0.853800 0.098954 0.119627
0.897025 0.098954 0.119627
0.937666 0.098954 0.119627
0.977429 0.098954 0.119627
0.083827 0.149809 0.119627
0.211516 0.149809 0.119627
0.301219 0.149809 0.119627
0.377201 0.149809 0.119627
0.444736 0.149809 0.119627
0.507279 0.149809 0.119627
0.564231 0.149809 0.119627
0.618151 0.149809 0.119627
0.669402 0.149809 0.119627
0.718386 0.149809 0.119627
0.765553 0.149809 0.119627
0.810181 0.149809 0.119627
0.853800 0.149809 0.119627
0.897025 0.149809 0.119627
0.937666 0.149809 0.119627
0.977429 0.149809 0.119627
0.083827 0.202964 0.119627
0.211516 0.202964 0.119627
0.301219 0.202964 0.119627
0.377201 0.202964 0.119627
0.444736 0.202964 0.119627
0.507279 0.202964 0.119627
0.564231 0.202964 0.119627
0.618151 0.202964 0.119627
0.669402 0.202964 0.119627
0.718386 0.202964 0.119627
0.765553 0.202964 0.119627
0.810181 0.202964 0.119627
0.853800 0.202964 0.119627
0.897025 0.202964 0.119627
0.937666 0.202964 0.119627
0.977429 0.202964 0.119627
0.083827 0.257951 0.119627
0.211516 0.257951 0.119627
0.301219 0.257951 0.119627
0.377201 0.257951 0.119627
0.444736 0.257951 0.119627
0.507279 0.257951 0.119627
0.564231 0.257951 0.119627
0.618151 0.257951 0.119627
0.669402 0.257951 0.119627
0.718386 0.257951 0.119627
0.765553 0.257951 0.119627
0.810181 0.257951 0.119627
0.853800 0.257951 0.119627
0.897025 0.257951 0.119627
0.937666 0.257951 0.119627
0.977429 0.257951 0.119627
0.083827 0.314496 0.119627
0.211516 0.314496 0.119627
0.301219 0.314496 0.119627
0.377201 0.314496 0.119627
0.444736 0.314496 0.119627
0.507279 0.314496 0.119627
0.564231 0.314496 0.119627
0.618151 0.314496 0.119627
0.669402 0.314496 0.119627
0.718386 0.314496 0.119627
0.765553 0.314496 0.119627
0.810181 0.314496 0.119627
0.853800 0.314496 0.119627
0.897025 0.314496 0.119627
0.937666 0.314496 0.119627
0.977429 0.314496 0.119627
0.083827 0.372309 0.119627
0.211516 0.372309 0.119627
0.301219 0.372309 0.119627
0.377201 0.372309 0.119627
0.444736 0.372309 0.119627
0.507279 0.372309 0.119627
0.564231 0.372309 0.119627
0.618151 0.372309 0.119627
