example_ofxGpuLutCube/bin/data/ofxGpuLutCube/LUT/S9 (red sunset sky tone_2).cube
LUT_3D_SIZE 6
0.083827 0.009274 0.011116
0.377201 0.009274 0.011116
0.564231 0.009274 0.011116
0.718386 0.009274 0.011116
0.853800 0.009274 0.011116
0.977429 0.009274 0.011116
0.083827 0.149809 0.011116
0.377201 0.149809 0.011116
0.564231 0.149809 0.011116
0.718386 0.149809 0.011116
0.853800 0.149809 0.011116
0.977429 0.149809 0.011116
0.083827 0.314496 0.011116
0.377201 0.314496 0.011116
0.564231 0.314496 0.011116
0.718386 0.314496 0.011116
0.853800 0.314496 0.011116
0.977429 0.314496 0.011116
0.083827 0.491359 0.011116
0.377201 0.491359 0.011116
0.564231 0.491359 0.011116
0.718386 0.491359 0.011116
0.853800 0.491359 0.011116
0.977429 0.491359 0.011116
0.083827 0.676813 0.011116
0.377201 0.676813 0.011116
0.564231 0.676813 0.011116
0.718386 0.676813 0.011116
0.853800 0.676813 0.011116
0.977429 0.676813 0.011116
0.083827 0.868197 0.011116
0.377201 0.868197 0.011116
0.564231 0.868197 0.011116
0.718386 0.868197 0.011116
0.853800 0.868197 0.011116
0.977429 0.868197 0.011116
0.083827 0.009274 0.119627
0.377201 0.009274 0.119627
0.564231 0.009274 0.119627
0.718386 0.009274 0.119627
0.853800 0.009274 0.119627
0.977429 0.009274 0.119627
0.083827 0.149809 0.119627
0.377201 0.149809 0.119627
0.564231 0.149809 0.119627
0.718386 0.149809 0.119627
0.853800 0.149809 0.119627
0.977429 0.149809 0.119627
0.083827 0.314496 0.119627
0.377201 0.314496 0.119627
0.564231 0.314496 0.119627
0.718386 0.314496 0.119627
0.853800 0.314496 0.119627
0.977429 0.314496 0.119627
0.083827 0.491359 0.119627
0.377201 0.491359 0.119627
0.564231 0.491359 0.119627
0.718386 0.491359 0.119627
0.853800 0.491359 0.119627
0.977429 0.491359 0.119627
0.083827 0.676813 0.119627
0.377201 0.676813 0.119627
0.564231 0.676813 0.119627
0.718386 0.676813 0.119627
0.853800 0.676813 0.119627
0.977429 0.676813 0.119627
0.083827 0.868197 0.119627
0.377201 0.868197 0.119627
0.564231 0.868197 0.119627
0.718386 0.868197 0.119627
0.853800 0.868197 0.119627
0.977429 0.868197 0.119627
0.083827 0.009274 0.258083
0.377201 0.009274 0.258083
0.564231 0.009274 0.258083
0.718386 0.009274 0.258083
0.853800 0.009274 0.258083
0.977429 0.009274 0.258083
0.083827 0.149809 0.258083
0.377201 0.149809 0.258083
0.564231 0.149809 0.258083
0.718386 0.149809 0.258083
0.853800 0.149809 0.258083
0.977429 0.149809 0.258083
0.083827 0.314496 0.258083
0.377201 0.314496 0.258083
0.564231 0.314496 0.258083
0.718386 0.314496 0.258083
0.853800 0.314496 0.258083
0.977429 0.314496 0.258083
0.083827 0.491359 0.258083
0.377201 0.491359 0.258083
0.564231 0.491359 0.258083
0.718386 0.491359 0.258083
0.853800 0.491359 0.258083
0.977429 0.491359 0.258083
0.083827 0.676813 0.258083
0.377201 0.676813 0.258083
0.564231 0.676813 0.258083
0.718386 0.676813 0.258083
0.853800 0.676813 0.258083
0.977429 0.676813 0.258083
0.083827 0.868197 0.258083
0.377201 0.868197 0.258083
0.564231 0.868197 0.258083
0.718386 0.868197 0.258083
0.853800 0.868197 0.258083
0.977429 0.868197 0.258083
0.083827 0.009274 0.413949
0.377201 0.009274 0.413949
0.564231 0.009274 0.413949
0.718386 0.009274 0.413949
0.853800 0.009274 0.413949
0.977429 0.009274 0.413949
0.083827 0.149809 0.413949
0.377201 0.149809 0.413949
0.564231 0.149809 0.413949
0.718386 0.149809 0.413949
0.853800 0.149809 0.413949
0.977429 0.149809 0.413949
0.083827 0.314496 0.413949
0.377201 0.314496 0.413949
0.564231 0.314496 0.413949
0.718386 0.314496 0.413949
0.853800 0.314496 0.413949
0.977429 0.314496 0.413949
0.083827 0.491359 0.413949
0.377201 0.491359 0.413949
0.564231 0.491359 0.413949
0.718386 0.491359 0.413949
0.853800 0.491359 0.413949
0.977429 0.491359 0.413949
0.083827 0.676813 0.413949
0.377201 0.676813 0.413949
0.564231 0.676813 0.413949
0.718386 0.676813 0.413949
0.853800 0.676813 0.413949
0.977429 0.676813 0.413949
0.083827 0.868197 0.413949
0.377201 0.868197 0.413949
0.564231 0.868197 0.413949
0.718386 0.868197 0.413949
0.853800 0.868197 0.413949
0.977429 0.868197 0.413949
0.083827 0.009274 0.582652
0.377201 0.009274 0.582652
0.564231 0.009274 0.582652
0.718386 0.009274 0.582652
0.853800 0.009274 0.582652
0.977429 0.009274 0.582652
0.083827 0.149809 0.582652
0.377201 0.149809 0.582652
0.564231 0.149809 0.582652
0.718386 0.149809 0.582652
0.853800 0.149809 0.582652
0.977429 0.149809 0.582652
0.083827 0.314496 0.582652
0.377201 0.314496 0.582652
0.564231 0.314496 0.582652
0.718386 0.314496 0.582652
0.853800 0.314496 0.582652
0.977429 0.314496 0.582652
0.083827 0.491359 0.582652
0.377201 0.491359 0.582652
0.564231 0.491359 0.582652
0.718386 0.491359 0.582652
0.853800 0.491359 0.582652
0.977429 0.491359 0.582652
0.083827 0.676813 0.582652
0.377201 0.676813 0.582652
0.564231 0.676813 0.582652
0.718386 0.676813 0.582652
0.853800 0.676813 0.582652
0.977429 0.676813 0.582652
0.083827 0.868197 0.582652
0.377201 0.868197 0.582652
0.564231 0.868197 0.582652
0.718386 0.868197 0.582652
0.853800 0.868197 0.582652
0.977429 0.868197 0.582652
0.083827 0.009274 0.761166
0.377201 0.009274 0.761166
0.564231 0.009274 0.761166
0.718386 0.009274 0.761166
0.853800 0.009274 0.761166
0.977429 0.009274 0.761166
0.083827 0.149809 0.761166
0.377201 0.149809 0.761166
0.564231 0.149809 0.761166
0.718386 0.149809 0.761166
0.853800 0.149809 0.761166
0.977429 0.149809 0.761166
0.083827 0.314496 0.761166
0.377201 0.314496 0.761166
0.564231 0.314496 0.761166
0.718386 0.314496 0.761166
0.853800 0.314496 0.761166
0.977429 0.314496 0.761166
0.083827 0.491359 0.761166
0.377201 0.491359 0.761166
0.564231 0.491359 0.761166
0.718386 0.491359 0.761166
0.853800 0.491359 0.761166
0.977429 0.491359 0.761166
0.083827 0.676813 0.761166
0.377201 0.676813 0.761166
0.564231 0.676813 0.761166
0.718386 0.676813 0.761166
0.853800 0.676813 0.761166
0.977429 0.676813 0.761166
0.083827 0.868197 0.761166
0.377201 0.868197 0.761166
0.564231 0.868197 0.761166
0.718386 0.868197 0.761166
0.853800 0.868197 0.761166
0.977429 0.868197 0.761166
