example_ofxGpuLutCube/bin/data/ofxGpuLutCube/LUT/T1 (smooth green).cube
LUT_3D_SIZE 6
0.000000 0.000000 -0.086911
0.180343 0.000000 -0.086911
0.426773 0.000000 -0.086911
0.716834 0.000000 -0.086911
0.967854 0.000000 -0.086911
1.154495 0.000000 -0.086911
0.000000 0.180343 -0.086911
0.180343 0.180343 -0.086911
0.426773 0.180343 -0.086911
0.716834 0.180343 -0.086911
0.967854 0.180343 -0.086911
1.154495 0.180343 -0.086911
0.000000 0.426773 -0.086911
0.180343 0.426773 -0.086911
0.426773 0.426773 -0.086911
0.716834 0.426773 -0.086911
0.967854 0.426773 -0.086911
1.154495 0.426773 -0.086911
0.000000 0.716834 -0.086911
0.180343 0.716834 -0.086911
0.426773 0.716834 -0.086911
0.716834 0.716834 -0.086911
0.967854 0.716834 -0.086911
1.154495 0.716834 -0.086911
0.000000 0.967854 -0.086911
0.180343 0.967854 -0.086911
0.426773 0.967854 -0.086911
0.716834 0.967854 -0.086911
0.967854 0.967854 -0.086911
1.154495 0.967854 -0.086911
0.000000 1.154495 -0.086911
0.180343 1.154495 -0.086911
0.426773 1.154495 -0.086911
0.716834 1.154495 -0.086911
0.967854 1.154495 -0.086911
1.154495 1.154495 -0.086911
0.000000 0.000000 0.109356
0.180343 0.000000 0.109356
0.426773 0.000000 0.109356
0.716834 0.000000 0.109356
0.967854 0.000000 0.109356
1.154495 0.000000 0.109356
0.000000 0.180343 0.109356
0.180343 0.180343 0.109356
0.426773 0.180343 0.109356
0.716834 0.180343 0.109356
0.967854 0.180343 0.109356
1.154495 0.180343 0.109356
0.000000 0.426773 0.109356
0.180343 0.426773 0.109356
0.426773 0.426773 0.109356
0.716834 0.426773 0.109356
0.967854 0.426773 0.109356
1.154495 0.426773 0.109356
0.000000 0.716834 0.109356
0.180343 0.716834 0.109356
0.426773 0.716834 0.109356
0.716834 0.716834 0.109356
0.967854 0.716834 0.109356
1.154495 0.716834 0.109356
0.000000 0.967854 0.109356
0.180343 0.967854 0.109356
0.426773 0.967854 0.109356
0.716834 0.967854 0.109356
0.967854 0.967854 0.109356
1.154495 0.967854 0.109356
0.000000 1.154495 0.109356
0.180343 1.154495 0.109356
0.426773 1.154495 0.109356
0.716834 1.154495 0.109356
0.967854 1.154495 0.109356
1.154495 1.154495 0.109356
0.000000 0.000000 0.374957
0.180343 0.000000 0.374957
0.426773 0.000000 0.374957
0.716834 0.000000 0.374957
0.967854 0.000000 0.374957
1.154495 0.000000 0.374957
0.000000 0.180343 0.374957
0.180343 0.180343 0.374957
0.426773 0.180343 0.374957
0.716834 0.180343 0.374957
0.967854 0.180343 0.374957
1.154495 0.180343 0.374957
0.000000 0.426773 0.374957
0.180343 0.426773 0.374957
0.426773 0.426773 0.374957
0.716834 0.426773 0.374957
0.967854 0.426773 0.374957
1.154495 0.426773 0.374957
0.000000 0.716834 0.374957
0.180343 0.716834 0.374957
0.426773 0.716834 0.374957
0.716834 0.716834 0.374957
0.967854 0.716834 0.374957
1.154495 0.716834 0.374957
0.000000 0.967854 0.374957
0.180343 0.967854 0.374957
0.426773 0.967854 0.374957
0.716834 0.967854 0.374957
0.967854 0.967854 0.374957
1.154495 0.967854 0.374957
0.000000 1.154495 0.374957
0.180343 1.154495 0.374957
0.426773 1.154495 0.374957
0.716834 1.154495 0.374957
0.967854 1.154495 0.374957
1.154495 1.154495 0.374957
0.000000 0.000000 0.686056
0.180343 0.000000 0.686056
0.426773 0.000000 0.686056
0.716834 0.000000 0.686056
0.967854 0.000000 0.686056
1.154495 0.000000 0.686056
0.000000 0.180343 0.686056
0.180343 0.180343 0.686056
0.426773 0.180343 0.686056
0.716834 0.180343 0.686056
0.967854 0.180343 0.686056
1.154495 0.180343 0.686056
0.000000 0.426773 0.686056
0.180343 0.426773 0.686056
0.426773 0.426773 0.686056
0.716834 0.426773 0.686056
0.967854 0.426773 0.686056
1.154495 0.426773 0.686056
0.000000 0.716834 0.686056
0.180343 0.716834 0.686056
0.426773 0.716834 0.686056
0.716834 0.716834 0.686056
0.967854 0.716834 0.686056
1.154495 0.716834 0.686056
0.000000 0.967854 0.686056
0.180343 0.967854 0.686056
0.426773 0.967854 0.686056
0.716834 0.967854 0.686056
0.967854 0.967854 0.686056
1.154495 0.967854 0.686056
0.000000 1.154495 0.686056
0.180343 1.154495 0.686056
0.426773 1.154495 0.686056
0.716834 1.154495 0.686056
0.967854 1.154495 0.686056
1.154495 1.154495 0.686056
0.000000 0.000000 0.954846
0.180343 0.000000 0.954846
0.426773 0.000000 0.954846
0.716834 0.000000 0.954846
0.967854 0.000000 0.954846
1.154495 0.000000 0.954846
0.000000 0.180343 0.954846
0.180343 0.180343 0.954846
0.426773 0.180343 0.954846
0.716834 0.180343 0.954846
0.967854 0.180343 0.954846
1.154495 0.180343 0.954846
0.000000 0.426773 0.954846
0.180343 0.426773 0.954846
0.426773 0.426773 0.954846
0.716834 0.426773 0.954846
0.967854 0.426773 0.954846
1.154495 0.426773 0.954846
0.000000 0.716834 0.954846
0.180343 0.716834 0.954846
0.426773 0.716834 0.954846
0.716834 0.716834 0.954846
0.967854 0.716834 0.954846
1.154495 0.716834 0.954846
0.000000 0.967854 0.954846
0.180343 0.967854 0.954846
0.426773 0.967854 0.954846
0.716834 0.967854 0.954846
0.967854 0.967854 0.954846
1.154495 0.967854 0.954846
0.000000 1.154495 0.954846
0.180343 1.154495 0.954846
0.426773 1.154495 0.954846
0.716834 1.154495 0.954846
0.967854 1.154495 0.954846
1.154495 1.154495 0.954846
0.000000 0.000000 1.154476
0.180343 0.000000 1.154476
0.426773 0.000000 1.154476
0.716834 0.000000 1.154476
0.967854 0.000000 1.154476
1.154495 0.000000 1.154476
0.000000 0.180343 1.154476
0.180343 0.180343 1.154476
0.426773 0.180343 1.154476
0.716834 0.180343 1.154476
0.967854 0.180343 1.154476
1.154495 0.180343 1.154476
0.000000 0.426773 1.154476
0.180343 0.426773 1.154476
0.426773 0.426773 1.154476
0.716834 0.426773 1.154476
0.967854 0.426773 1.154476
1.154495 0.426773 1.154476
0.000000 0.716834 1.154476
0.180343 0.716834 1.154476
0.426773 0.716834 1.154476
0.716834 0.716834 1.154476
0.967854 0.716834 1.154476
1.154495 0.716834 1.154476
0.000000 0.967854 1.154476
0.180343 0.967854 1.154476
0.426773 0.967854 1.154476
0.716834 0.967854 1.154476
0.967854 0.967854 1.154476
1.154495 0.967854 1.154476
0.000000 1.154495 1.154476
0.180343 1.154495 1.154476
0.426773 1.154495 1.154476
0.716834 1.154495 1.154476
0.967854 1.154495 1.154476
1.154495 1.154495 1.154476
