example_ofxGpuLutCube/bin/data/ofxGpuLutCube/LUT/T1 (smooth green).cube
LUT_3D_SIZE 16
0.000000 0.000000 -0.086911
0.057710 0.000000 -0.086911
0.116359 0.000000 -0.086911
0.180343 0.000000 -0.086911
0.252907 0.000000 -0.086911
0.335731 0.000000 -0.086911
0.426773 0.000000 -0.086911
0.522709 0.000000 -0.086911
0.620491 0.000000 -0.086911
0.716834 0.000000 -0.086911
0.808732 0.000000 -0.086911
0.893047 0.000000 -0.086911
0.967854 0.000000 -0.086911
1.034618 0.000000 -0.086911
1.096099 0.000000 -0.086911
1.154495 0.000000 -0.086911
0.000000 0.057710 -0.086911
0.057710 0.057710 -0.086911
0.116359 0.057710 -0.086911
0.180343 0.057710 -0.086911
0.252907 0.057710 -0.086911
0.335731 0.057710 -0.086911
0.426773 0.057710 -0.086911
0.522709 0.057710 -0.086911
0.620491 0.057710 -0.086911
0.716834 0.057710 -0.086911
0.808732 0.057710 -0.086911
0.893047 0.057710 -0.086911
0.967854 0.057710 -0.086911
1.034618 0.057710 -0.086911
1.096099 0.057710 -0.086911
1.154495 0.057710 -0.086911
0.000000 0.116359 -0.086911
0.057710 0.116359 -0.086911
0.116359 0.116359 -0.086911
0.180343 0.116359 -0.086911
0.252907 0.116359 -0.086911
0.335731 0.116359 -0.086911
0.426773 0.116359 -0.086911
0.522709 0.116359 -0.086911
0.620491 0.116359 -0.086911
0.716834 0.116359 -0.086911
0.808732 0.116359 -0.086911
0.893047 0.116359 -0.086911
0.967854 0.116359 -0.086911
1.034618 0.116359 -0.086911
1.096099 0.116359 -0.086911
1.154495 0.116359 -0.086911
0.000000 0.180343 -0.086911
0.057710 0.180343 -0.086911
0.116359 0.180343 -0.086911
0.180343 0.180343 -0.086911
0.252907 0.180343 -0.086911
0.335731 0.180343 -0.086911
0.426773 0.180343 -0.086911
0.522709 0.180343 -0.086911
0.620491 0.180343 -0.086911
0.716834 0.180343 -0.086911
0.808732 0.180343 -0.086911
0.893047 0.180343 -0.086911
0.967854 0.180343 -0.086911
1.034618 0.180343 -0.086911
1.096099 0.180343 -0.086911
1.154495 0.180343 -0.086911
0.000000 0.252907 -0.086911
0.057710 0.252907 -0.086911
0.116359 0.252907 -0.086911
0.180343 0.252907 -0.086911
0.252907 0.252907 -0.086911
0.335731 0.252907 -0.086911
0.426773 0.252907 -0.086911
0.522709 0.252907 -0.086911
0.620491 0.252907 -0.086911
0.716834 0.252907 -0.086911
0.808732 0.252907 -0.086911
0.893047 0.252907 -0.086911
0.967854 0.252907 -0.086911
1.034618 0.252907 -0.086911
1.096099 0.252907 -0.086911
1.154495 0.252907 -0.086911
0.000000 0.335731 -0.086911
0.057710 0.335731 -0.086911
0.116359 0.335731 -0.086911
0.180343 0.335731 -0.086911
0.252907 0.335731 -0.086911
0.335731 0.335731 -0.086911
0.426773 0.335731 -0.086911
0.522709 0.335731 -0.086911
0.620491 0.335731 -0.086911
0.716834 0.335731 -0.086911
0.808732 0.335731 -0.086911
0.893047 0.335731 -0.086911
0.967854 0.335731 -0.086911
1.034618 0.335731 -0.086911
1.096099 0.335731 -0.086911
1.154495 0.335731 -0.086911
0.000000 0.426773 -0.086911
0.057710 0.426773 -0.086911
0.116359 0.426773 -0.086911
0.180343 0.426773 -0.086911
0.252907 0.426773 -0.086911
0.335731 0.426773 -0.086911
0.426773 0.426773 -0.086911
0.522709 0.426773 -0.086911
0.620491 0.426773 -0.086911
0.716834 0.426773 -0.086911
0.808732 0.426773 -0.086911
0.893047 0.426773 -0.086911
0.967854 0.426773 -0.086911
1.034618 0.426773 -0.086911
1.096099 0.426773 -0.086911
1.154495 0.426773 -0.086911
0.000000 0.522709 -0.086911
0.057710 0.522709 -0.086911
0.116359 0.522709 -0.086911
0.180343 0.522709 -0.086911
0.252907 0.522709 -0.086911
0.335731 0.522709 -0.086911
0.426773 0.522709 -0.086911
0.522709 0.522709 -0.086911
0.620491 0.522709 -0.086911
0.716834 0.522709 -0.086911
0.808732 0.522709 -0.086911
0.893047 0.522709 -0.086911
0.967854 0.522709 -0.086911
1.034618 0.522709 -0.086911
1.096099 0.522709 -0.086911
1.154495 0.522709 -0.086911
0.000000 0.620491 -0.086911
0.057710 0.620491 -0.086911
0.116359 0.620491 -0.086911
0.180343 0.620491 -0.086911
0.252907 0.620491 -0.086911
0.335731 0.620491 -0.086911
0.426773 0.620491 -0.086911
0.522709 0.620491 -0.086911
0.620491 0.620491 -0.086911
0.716834 0.620491 -0.086911
0.808732 0.620491 -0.086911
0.893047 0.620491 -0.086911
0.967854 0.620491 -0.086911
1.034618 0.620491 -0.086911
1.096099 0.620491 -0.086911
1.154495 0.620491 -0.086911
0.000000 0.716834 -0.086911
0.057710 0.716834 -0.086911
0.116359 0.716834 -0.086911
0.180343 0.716834 -0.086911
0.252907 0.716834 -0.086911
0.335731 0.716834 -0.086911
0.426773 0.716834 -0.086911
0.522709 0.716834 -0.086911
0.620491 0.716834 -0.086911
0.716834 0.716834 -0.086911
0.808732 0.716834 -0.086911
0.893047 0.716834 -0.086911
0.967854 0.716834 -0.086911
1.034618 0.716834 -0.086911
1.096099 0.716834 -0.086911
1.154495 0.716834 -0.086911
0.000000 0.808732 -0.086911
0.057710 0.808732 -0.086911
0.116359 0.808732 -0.086911
0.180343 0.808732 -0.086911
0.252907 0.808732 -0.086911
0.335731 0.808732 -0.086911
0.426773 0.808732 -0.086911
0.522709 0.808732 -0.086911
0.620491 0.808732 -0.086911
0.716834 0.808732 -0.086911
0.808732 0.808732 -0.086911
0.893047 0.808732 -0.086911
0.967854 0.808732 -0.086911
1.034618 0.808732 -0.086911
1.096099 0.808732 -0.086911
1.154495 0.808732 -0.086911
0.000000 0.893047 -0.086911
0.057710 0.893047 -0.086911
0.116359 0.893047 -0.086911
0.180343 0.893047 -0.086911
0.252907 0.893047 -0.086911
0.335731 0.893047 -0.086911
0.426773 0.893047 -0.086911
0.522709 0.893047 -0.086911
0.620491 0.893047 -0.086911
0.716834 0.893047 -0.086911
0.808732 0.893047 -0.086911
0.893047 0.893047 -0.086911
0.967854 0.893047 -0.086911
1.034618 0.893047 -0.086911
1.096099 0.893047 -0.086911
1.154495 0.893047 -0.086911
0.000000 0.967854 -0.086911
0.057710 0.967854 -0.086911
0.116359 0.967854 -0.086911
0.180343 0.967854 -0.086911
0.252907 0.967854 -0.086911
0.335731 0.967854 -0.086911
0.426773 0.967854 -0.086911
0.522709 0.967854 -0.086911
0.620491 0.967854 -0.086911
0.716834 0.967854 -0.086911
0.808732 0.967854 -0.086911
0.893047 0.967854 -0.086911
0.967854 0.967854 -0.086911
1.034618 0.967854 -0.086911
1.096099 0.967854 -0.086911
1.154495 0.967854 -0.086911
0.000000 1.034618 -0.086911
0.057710 1.034618 -0.086911
0.116359 1.034618 -0.086911
0.180343 1.034618 -0.086911
0.252907 1.034618 -0.086911
0.335731 1.034618 -0.086911
0.426773 1.034618 -0.086911
0.522709 1.034618 -0.086911
0.620491 1.034618 -0.086911
0.716834 1.034618 -0.086911
0.808732 1.034618 -0.086911
0.893047 1.034618 -0.086911
0.967854 1.034618 -0.086911
1.034618 1.034618 -0.086911
1.096099 1.034618 -0.086911
1.154495 1.034618 -0.086911
0.000000 1.096099 -0.086911
0.057710 1.096099 -0.086911
0.116359 1.096099 -0.086911
0.180343 1.096099 -0.086911
0.252907 1.096099 -0.086911
0.335731 1.096099 -0.086911
0.426773 1.096099 -0.086911
0.522709 1.096099 -0.086911
0.620491 1.096099 -0.086911
0.716834 1.096099 -0.086911
0.808732 1.096099 -0.086911
0.893047 1.096099 -0.086911
0.967854 1.096099 -0.086911
1.034618 1.096099 -0.086911
1.096099 1.096099 -0.086911
1.154495 1.096099 -0.086911
0.000000 1.154495 -0.086911
0.057710 1.154495 -0.086911
0.116359 1.154495 -0.086911
0.180343 1.154495 -0.086911
0.252907 1.154495 -0.086911
0.335731 1.154495 -0.086911
0.426773 1.154495 -0.086911
0.522709 1.154495 -0.086911
0.620491 1.154495 -0.086911
0.716834 1.154495 -0.086911
0.808732 1.154495 -0.086911
0.893047 1.154495 -0.086911
0.967854 1.154495 -0.086911
1.034618 1.154495 -0.086911
1.096099 1.154495 -0.086911
1.154495 1.154495 -0.086911
0.000000 0.000000 -0.026933
0.057710 0.000000 -0.026933
0.116359 0.000000 -0.026933
0.180343 0.000000 -0.026933
0.252907 0.000000 -0.026933
0.335731 0.000000 -0.026933
0.426773 0.000000 -0.026933
0.522709 0.000000 -0.026933
0.620491 0.000000 -0.026933
0.716834 0.000000 -0.026933
0.808732 0.000000 -0.026933
0.893047 0.000000 -0.026933
0.967854 0.000000 -0.026933
1.034618 0.000000 -0.026933
1.096099 0.000000 -0.026933
1.154495 0.000000 -0.026933
0.000000 0.057710 -0.026933
0.057710 0.057710 -0.026933
0.116359 0.057710 -0.026933
0.180343 0.057710 -0.026933
0.252907 0.057710 -0.026933
0.335731 0.057710 -0.026933
0.426773 0.057710 -0.026933
0.522709 0.057710 -0.026933
0.620491 0.057710 -0.026933
0.716834 0.057710 -0.026933
0.808732 0.057710 -0.026933
0.893047 0.057710 -0.026933
0.967854 0.057710 -0.026933
1.034618 0.057710 -0.026933
1.096099 0.057710 -0.026933
1.154495 0.057710 -0.026933
0.000000 0.116359 -0.026933
0.057710 0.116359 -0.026933
0.116359 0.116359 -0.026933
0.180343 0.116359 -0.026933
0.252907 0.116359 -0.026933
0.335731 0.116359 -0.026933
0.426773 0.116359 -0.026933
0.522709 0.116359 -0.026933
0.620491 0.116359 -0.026933
0.716834 0.116359 -0.026933
0.808732 0.116359 -0.026933
0.893047 0.116359 -0.026933
0.967854 0.116359 -0.026933
1.034618 0.116359 -0.026933
1.096099 0.116359 -0.026933
1.154495 0.116359 -0.026933
0.000000 0.180343 -0.026933
0.057710 0.180343 -0.026933
0.116359 0.180343 -0.026933
0.180343 0.180343 -0.026933
0.252907 0.180343 -0.026933
0.335731 0.180343 -0.026933
0.426773 0.180343 -0.026933
0.522709 0.180343 -0.026933
0.620491 0.180343 -0.026933
0.716834 0.180343 -0.026933
0.808732 0.180343 -0.026933
0.893047 0.180343 -0.026933
0.967854 0.180343 -0.026933
1.034618 0.180343 -0.026933
1.096099 0.180343 -0.026933
1.154495 0.180343 -0.026933
0.000000 0.252907 -0.026933
0.057710 0.252907 -0.026933
0.116359 0.252907 -0.026933
0.180343 0.252907 -0.026933
0.252907 0.252907 -0.026933
0.335731 0.252907 -0.026933
0.426773 0.252907 -0.026933
0.522709 0.252907 -0.026933
0.620491 0.252907 -0.026933
0.716834 0.252907 -0.026933
0.808732 0.252907 -0.026933
0.893047 0.252907 -0.026933
0.967854 0.252907 -0.026933
1.034618 0.252907 -0.026933
1.096099 0.252907 -0.026933
1.154495 0.252907 -0.026933
0.000000 0.335731 -0.026933
0.057710 0.335731 -0.026933
0.116359 0.335731 -0.026933
0.180343 0.335731 -0.026933
0.252907 0.335731 -0.026933
0.335731 0.335731 -0.026933
0.426773 0.335731 -0.026933
0.522709 0.335731 -0.026933
0.620491 0.335731 -0.026933
0.716834 0.335731 -0.026933
0.808732 0.335731 -0.026933
0.893047 0.335731 -0.026933
0.967854 0.335731 -0.026933
1.034618 0.335731 -0.026933
1.096099 0.335731 -0.026933
1.154495 0.335731 -0.026933
0.000000 0.426773 -0.026933
0.057710 0.426773 -0.026933
0.116359 0.426773 -0.026933
0.180343 0.426773 -0.026933
0.252907 0.426773 -0.026933
0.335731 0.426773 -0.026933
0.426773 0.426773 -0.026933
0.522709 0.426773 -0.026933
0.620491 0.426773 -0.026933
0.716834 0.426773 -0.026933
0.808732 0.426773 -0.026933
0.893047 0.426773 -0.026933
0.967854 0.426773 -0.026933
1.034618 0.426773 -0.026933
1.096099 0.426773 -0.026933
1.154495 0.426773 -0.026933
0.000000 0.522709 -0.026933
0.057710 0.522709 -0.026933
0.116359 0.522709 -0.026933
0.180343 0.522709 -0.026933
0.252907 0.522709 -0.026933
0.335731 0.522709 -0.026933
0.426773 0.522709 -0.026933
0.522709 0.522709 -0.026933
0.620491 0.522709 -0.026933
0.716834 0.522709 -0.026933
0.808732 0.522709 -0.026933
0.893047 0.522709 -0.026933
0.967854 0.522709 -0.026933
1.034618 0.522709 -0.026933
1.096099 0.522709 -0.026933
1.154495 0.522709 -0.026933
0.000000 0.620491 -0.026933
0.057710 0.620491 -0.026933
0.116359 0.620491 -0.026933
0.180343 0.620491 -0.026933
0.252907 0.620491 -0.026933
0.335731 0.620491 -0.026933
0.426773 0.620491 -0.026933
0.522709 0.620491 -0.026933
0.620491 0.620491 -0.026933
0.716834 0.620491 -0.026933
0.808732 0.620491 -0.026933
0.893047 0.620491 -0.026933
0.967854 0.620491 -0.026933
1.034618 0.620491 -0.026933
1.096099 0.620491 -0.026933
1.154495 0.620491 -0.026933
0.000000 0.716834 -0.026933
0.057710 0.716834 -0.026933
0.116359 0.716834 -0.026933
0.180343 0.716834 -0.026933
0.252907 0.716834 -0.026933
0.335731 0.716834 -0.026933
0.426773 0.716834 -0.026933
0.522709 0.716834 -0.026933
0.620491 0.716834 -0.026933
0.716834 0.716834 -0.026933
0.808732 0.716834 -0.026933
0.893047 0.716834 -0.026933
0.967854 0.716834 -0.026933
1.034618 0.716834 -0.026933
1.096099 0.716834 -0.026933
1.154495 0.716834 -0.026933
0.000000 0.808732 -0.026933
0.057710 0.808732 -0.026933
0.116359 0.808732 -0.026933
0.180343 0.808732 -0.026933
0.252907 0.808732 -0.026933
0.335731 0.808732 -0.026933
0.426773 0.808732 -0.026933
0.522709 0.808732 -0.026933
0.620491 0.808732 -0.026933
0.716834 0.808732 -0.026933
0.808732 0.808732 -0.026933
0.893047 0.808732 -0.026933
0.967854 0.808732 -0.026933
1.034618 0.808732 -0.026933
1.096099 0.808732 -0.026933
1.154495 0.808732 -0.026933
0.000000 0.893047 -0.026933
0.057710 0.893047 -0.026933
0.116359 0.893047 -0.026933
0.180343 0.893047 -0.026933
0.252907 0.893047 -0.026933
0.335731 0.893047 -0.026933
0.426773 0.893047 -0.026933
0.522709 0.893047 -0.026933
0.620491 0.893047 -0.026933
0.716834 0.893047 -0.026933
0.808732 0.893047 -0.026933
0.893047 0.893047 -0.026933
0.967854 0.893047 -0.026933
1.034618 0.893047 -0.026933
1.096099 0.893047 -0.026933
1.154495 0.893047 -0.026933
0.000000 0.967854 -0.026933
0.057710 0.967854 -0.026933
0.116359 0.967854 -0.026933
0.180343 0.967854 -0.026933
0.252907 0.967854 -0.026933
0.335731 0.967854 -0.026933
0.426773 0.967854 -0.026933
0.522709 0.967854 -0.026933
0.620491 0.967854 -0.026933
0.716834 0.967854 -0.026933
0.808732 0.967854 -0.026933
0.893047 0.967854 -0.026933
0.967854 0.967854 -0.026933
1.034618 0.967854 -0.026933
1.096099 0.967854 -0.026933
1.154495 0.967854 -0.026933
0.000000 1.034618 -0.026933
0.057710 1.034618 -0.026933
0.116359 1.034618 -0.026933
0.180343 1.034618 -0.026933
0.252907 1.034618 -0.026933
0.335731 1.034618 -0.026933
0.426773 1.034618 -0.026933
0.522709 1.034618 -0.026933
0.620491 1.034618 -0.026933
0.716834 1.034618 -0.026933
0.808732 1.034618 -0.026933
0.893047 1.034618 -0.026933
0.967854 1.034618 -0.026933
1.034618 1.034618 -0.026933
1.096099 1.034618 -0.026933
1.154495 1.034618 -0.026933
0.000000 1.096099 -0.026933
0.057710 1.096099 -0.026933
0.116359 1.096099 -0.026933
0.180343 1.096099 -0.026933
0.252907 1.096099 -0.026933
0.335731 1.096099 -0.026933
0.426773 1.096099 -0.026933
0.522709 1.096099 -0.026933
0.620491 1.096099 -0.026933
0.716834 1.096099 -0.026933
0.808732 1.096099 -0.026933
0.893047 1.096099 -0.026933
0.967854 1.096099 -0.026933
1.034618 1.096099 -0.026933
1.096099 1.096099 -0.026933
1.154495 1.096099 -0.026933
0.000000 1.154495 -0.026933
0.057710 1.154495 -0.026933
0.116359 1.154495 -0.026933
0.180343 1.154495 -0.026933
0.252907 1.154495 -0.026933
0.335731 1.154495 -0.026933
0.426773 1.154495 -0.026933
0.522709 1.154495 -0.026933
0.620491 1.154495 -0.026933
0.716834 1.154495 -0.026933
0.808732 1.154495 -0.026933
0.893047 1.154495 -0.026933
0.967854 1.154495 -0.026933
1.034618 1.154495 -0.026933
1.096099 1.154495 -0.026933
1.154495 1.154495 -0.026933
0.000000 0.000000 0.039364
0.057710 0.000000 0.039364
0.116359 0.000000 0.039364
0.180343 0.000000 0.039364
0.252907 0.000000 0.039364
0.335731 0.000000 0.039364
0.426773 0.000000 0.039364
0.522709 0.000000 0.039364
0.620491 0.000000 0.039364
0.716834 0.000000 0.039364
0.808732 0.000000 0.039364
0.893047 0.000000 0.039364
0.967854 0.000000 0.039364
1.034618 0.000000 0.039364
1.096099 0.000000 0.039364
1.154495 0.000000 0.039364
0.000000 0.057710 0.039364
0.057710 0.057710 0.039364
0.116359 0.057710 0.039364
0.180343 0.057710 0.039364
0.252907 0.057710 0.039364
0.335731 0.057710 0.039364
0.426773 0.057710 0.039364
0.522709 0.057710 0.039364
0.620491 0.057710 0.039364
0.716834 0.057710 0.039364
0.808732 0.057710 0.039364
0.893047 0.057710 0.039364
0.967854 0.057710 0.039364
1.034618 0.057710 0.039364
1.096099 0.057710 0.039364
1.154495 0.057710 0.039364
0.000000 0.116359 0.039364
0.057710 0.116359 0.039364
0.116359 0.116359 0.039364
0.180343 0.116359 0.039364
0.252907 0.116359 0.039364
0.335731 0.116359 0.039364
0.426773 0.116359 0.039364
0.522709 0.116359 0.039364
0.620491 0.116359 0.039364
0.716834 0.116359 0.039364
0.808732 0.116359 0.039364
0.893047 0.116359 0.039364
0.967854 0.116359 0.039364
1.034618 0.116359 0.039364
1.096099 0.116359 0.039364
1.154495 0.116359 0.039364
0.000000 0.180343 0.039364
0.057710 0.180343 0.039364
0.116359 0.180343 0.039364
0.180343 0.180343 0.039364
0.252907 0.180343 0.039364
0.335731 0.180343 0.039364
0.426773 0.180343 0.039364
0.522709 0.180343 0.039364
0.620491 0.180343 0.039364
0.716834 0.180343 0.039364
0.808732 0.180343 0.039364
0.893047 0.180343 0.039364
0.967854 0.180343 0.039364
1.034618 0.180343 0.039364
1.096099 0.180343 0.039364
1.154495 0.180343 0.039364
0.000000 0.252907 0.039364
0.057710 0.252907 0.039364
0.116359 0.252907 0.039364
0.180343 0.252907 0.039364
0.252907 0.252907 0.039364
0.335731 0.252907 0.039364
0.426773 0.252907 0.039364
0.522709 0.252907 0.039364
0.620491 0.252907 0.039364
0.716834 0.252907 0.039364
0.808732 0.252907 0.039364
0.893047 0.252907 0.039364
0.967854 0.252907 0.039364
1.034618 0.252907 0.039364
1.096099 0.252907 0.039364
1.154495 0.252907 0.039364
0.000000 0.335731 0.039364
0.057710 0.335731 0.039364
0.116359 0.335731 0.039364
0.180343 0.335731 0.039364
0.252907 0.335731 0.039364
0.335731 0.335731 0.039364
0.426773 0.335731 0.039364
0.522709 0.335731 0.039364
0.620491 0.335731 0.039364
0.716834 0.335731 0.039364
0.808732 0.335731 0.039364
0.893047 0.335731 0.039364
0.967854 0.335731 0.039364
1.034618 0.335731 0.039364
1.096099 0.335731 0.039364
1.154495 0.335731 0.039364
0.000000 0.426773 0.039364
0.057710 0.426773 0.039364
0.116359 0.426773 0.039364
0.180343 0.426773 0.039364
0.252907 0.426773 0.039364
0.335731 0.426773 0.039364
0.426773 0.426773 0.039364
0.522709 0.426773 0.039364
0.620491 0.426773 0.039364
0.716834 0.426773 0.039364
0.808732 0.426773 0.039364
0.893047 0.426773 0.039364
0.967854 0.426773 0.039364
1.034618 0.426773 0.039364
1.096099 0.426773 0.039364
1.154495 0.426773 0.039364
0.000000 0.522709 0.039364
0.057710 0.522709 0.039364
0.116359 0.522709 0.039364
0.180343 0.522709 0.039364
0.252907 0.522709 0.039364
0.335731 0.522709 0.039364
0.426773 0.522709 0.039364
0.522709 0.522709 0.039364
0.620491 0.522709 0.039364
0.716834 0.522709 0.039364
0.808732 0.522709 0.039364
0.893047 0.522709 0.039364
0.967854 0.522709 0.039364
1.034618 0.522709 0.039364
1.096099 0.522709 0.039364
1.154495 0.522709 0.039364
0.000000 0.620491 0.039364
0.057710 0.620491 0.039364
0.116359 0.620491 0.039364
0.180343 0.620491 0.039364
0.252907 0.620491 0.039364
0.335731 0.620491 0.039364
0.426773 0.620491 0.039364
0.522709 0.620491 0.039364
0.620491 0.620491 0.039364
0.716834 0.620491 0.039364
0.808732 0.620491 0.039364
0.893047 0.620491 0.039364
0.967854 0.620491 0.039364
1.034618 0.620491 0.039364
1.096099 0.620491 0.039364
1.154495 0.620491 0.039364
0.000000 0.716834 0.039364
0.057710 0.716834 0.039364
0.116359 0.716834 0.039364
0.180343 0.716834 0.039364
0.252907 0.716834 0.039364
0.335731 0.716834 0.039364
0.426773 0.716834 0.039364
0.522709 0.716834 0.039364
0.620491 0.716834 0.039364
0.716834 0.716834 0.039364
0.808732 0.716834 0.039364
0.893047 0.716834 0.039364
0.967854 0.716834 0.039364
1.034618 0.716834 0.039364
1.096099 0.716834 0.039364
1.154495 0.716834 0.039364
0.000000 0.808732 0.039364
0.057710 0.808732 0.039364
0.116359 0.808732 0.039364
0.180343 0.808732 0.039364
0.252907 0.808732 0.039364
0.335731 0.808732 0.039364
0.426773 0.808732 0.039364
0.522709 0.808732 0.039364
0.620491 0.808732 0.039364
0.716834 0.808732 0.039364
0.808732 0.808732 0.039364
0.893047 0.808732 0.039364
0.967854 0.808732 0.039364
1.034618 0.808732 0.039364
1.096099 0.808732 0.039364
1.154495 0.808732 0.039364
0.000000 0.893047 0.039364
0.057710 0.893047 0.039364
0.116359 0.893047 0.039364
0.180343 0.893047 0.039364
0.252907 0.893047 0.039364
0.335731 0.893047 0.039364
0.426773 0.893047 0.039364
0.522709 0.893047 0.039364
0.620491 0.893047 0.039364
0.716834 0.893047 0.039364
0.808732 0.893047 0.039364
0.893047 0.893047 0.039364
0.967854 0.893047 0.039364
1.034618 0.893047 0.039364
1.096099 0.893047 0.039364
1.154495 0.893047 0.039364
0.000000 0.967854 0.039364
0.057710 0.967854 0.039364
0.116359 0.967854 0.039364
0.180343 0.967854 0.039364
0.252907 0.967854 0.039364
0.335731 0.967854 0.039364
0.426773 0.967854 0.039364
0.522709 0.967854 0.039364
0.620491 0.967854 0.039364
0.716834 0.967854 0.039364
0.808732 0.967854 0.039364
0.893047 0.967854 0.039364
0.967854 0.967854 0.039364
1.034618 0.967854 0.039364
1.096099 0.967854 0.039364
1.154495 0.967854 0.039364
0.000000 1.034618 0.039364
0.057710 1.034618 0.039364
0.116359 1.034618 0.039364
0.180343 1.034618 0.039364
0.252907 1.034618 0.039364
0.335731 1.034618 0.039364
0.426773 1.034618 0.039364
0.522709 1.034618 0.039364
0.620491 1.034618 0.039364
0.716834 1.034618 0.039364
0.808732 1.034618 0.039364
0.893047 1.034618 0.039364
0.967854 1.034618 0.039364
1.034618 1.034618 0.039364
1.096099 1.034618 0.039364
1.154495 1.034618 0.039364
0.000000 1.096099 0.039364
0.057710 1.096099 0.039364
0.116359 1.096099 0.039364
0.180343 1.096099 0.039364
0.252907 1.096099 0.039364
0.335731 1.096099 0.039364
0.426773 1.096099 0.039364
0.522709 1.096099 0.039364
0.620491 1.096099 0.039364
0.716834 1.096099 0.039364
0.808732 1.096099 0.039364
0.893047 1.096099 0.039364
0.967854 1.096099 0.039364
1.034618 1.096099 0.039364
1.096099 1.096099 0.039364
1.154495 1.096099 0.039364
0.000000 1.154495 0.039364
0.057710 1.154495 0.039364
0.116359 1.154495 0.039364
0.180343 1.154495 0.039364
0.252907 1.154495 0.039364
0.335731 1.154495 0.039364
0.426773 1.154495 0.039364
0.522709 1.154495 0.039364
0.620491 1.154495 0.039364
0.716834 1.154495 0.039364
0.808732 1.154495 0.039364
0.893047 1.154495 0.039364
0.967854 1.154495 0.039364
1.034618 1.154495 0.039364
1.096099 1.154495 0.039364
1.154495 1.154495 0.039364
0.000000 0.000000 0.109356
0.057710 0.000000 0.109356
0.116359 0.000000 0.109356
0.180343 0.000000 0.109356
0.252907 0.000000 0.109356
0.335731 0.000000 0.109356
0.426773 0.000000 0.109356
0.522709 0.000000 0.109356
0.620491 0.000000 0.109356
0.716834 0.000000 0.109356
0.808732 0.000000 0.109356
0.893047 0.000000 0.109356
0.967854 0.000000 0.109356
1.034618 0.000000 0.109356
1.096099 0.000000 0.109356
1.154495 0.000000 0.109356
0.000000 0.057710 0.109356
0.057710 0.057710 0.109356
0.116359 0.057710 0.109356
0.180343 0.057710 0.109356
0.252907 0.057710 0.109356
0.335731 0.057710 0.109356
0.426773 0.057710 0.109356
0.522709 0.057710 0.109356
0.620491 0.057710 0.109356
0.716834 0.057710 0.109356
0.808732 0.057710 0.109356
0.893047 0.057710 0.109356
0.967854 0.057710 0.109356
1.034618 0.057710 0.109356
1.096099 0.057710 0.109356
1.154495 0.057710 0.109356
0.000000 0.116359 0.109356
0.057710 0.116359 0.109356
0.116359 0.116359 0.109356
0.180343 0.116359 0.109356
0.252907 0.116359 0.109356
0.335731 0.116359 0.109356
0.426773 0.116359 0.109356
0.522709 0.116359 0.109356
0.620491 0.116359 0.109356
0.716834 0.116359 0.109356
0.808732 0.116359 0.109356
0.893047 0.116359 0.109356
0.967854 0.116359 0.109356
1.034618 0.116359 0.109356
1.096099 0.116359 0.109356
1.154495 0.116359 0.109356
0.000000 0.180343 0.109356
0.057710 0.180343 0.109356
0.116359 0.180343 0.109356
0.180343 0.180343 0.109356
0.252907 0.180343 0.109356
0.335731 0.180343 0.109356
0.426773 0.180343 0.109356
0.522709 0.180343 0.109356
0.620491 0.180343 0.109356
0.716834 0.180343 0.109356
0.808732 0.180343 0.109356
0.893047 0.180343 0.109356
0.967854 0.180343 0.109356
1.034618 0.180343 0.109356
1.096099 0.180343 0.109356
1.154495 0.180343 0.109356
0.000000 0.252907 0.109356
0.057710 0.252907 0.109356
0.116359 0.252907 0.109356
0.180343 0.252907 0.109356
0.252907 0.252907 0.109356
0.335731 0.252907 0.109356
0.426773 0.252907 0.109356
0.522709 0.252907 0.109356
0.620491 0.252907 0.109356
0.716834 0.252907 0.109356
0.808732 0.252907 0.109356
0.893047 0.252907 0.109356
0.967854 0.252907 0.109356
1.034618 0.252907 0.109356
1.096099 0.252907 0.109356
1.154495 0.252907 0.109356
0.000000 0.335731 0.109356
0.057710 0.335731 0.109356
0.116359 0.335731 0.109356
0.180343 0.335731 0.109356
0.252907 0.335731 0.109356
0.335731 0.335731 0.109356
0.426773 0.335731 0.109356
0.522709 0.335731 0.109356
0.620491 0.335731 0.109356
0.716834 0.335731 0.109356
0.808732 0.335731 0.109356
0.893047 0.335731 0.109356
0.967854 0.335731 0.109356
1.034618 0.335731 0.109356
1.096099 0.335731 0.109356
1.154495 0.335731 0.109356
0.000000 0.426773 0.109356
0.057710 0.426773 0.109356
0.116359 0.426773 0.109356
0.180343 0.426773 0.109356
0.252907 0.426773 0.109356
