example_ofxGpuLutCube/bin/data/ofxGpuLutCube/LUT/T10 (smooth green orange).cube
LUT_3D_SIZE 16
0.015328 0.015328 0.015328
0.053531 0.015328 0.015328
0.096193 0.015328 0.015328
0.142278 0.016632 0.016632
0.198039 0.019241 0.012229
0.272115 0.017502 0.013098
0.359323 0.018360 0.015328
0.450042 0.017045 0.015328
0.534630 0.014860 0.014436
0.607424 0.015763 0.016621
0.668859 0.013098 0.017502
0.707553 0.015763 0.015763
0.747551 0.015328 0.015328
0.787984 0.014436 0.015328
0.826243 0.015328 0.014882
0.864479 0.015328 0.015328
0.021849 0.067990 0.024023
0.057934 0.065423 0.021936
0.100802 0.063423 0.020545
0.146681 0.059065 0.019241
0.200212 0.057578 0.018806
0.273898 0.056195 0.017502
0.359757 0.057054 0.017502
0.450042 0.055738 0.015763
0.534630 0.053553 0.017067
0.609261 0.052673 0.019241
0.671033 0.051792 0.019675
0.711553 0.052238 0.017502
0.751898 0.053977 0.018197
0.792599 0.053281 0.018806
0.830155 0.053629 0.017154
0.866675 0.053977 0.017502
0.029296 0.125890 0.029296
0.060978 0.121543 0.027991
0.103071 0.118477 0.028774
0.151898 0.114879 0.026239
0.206355 0.109727 0.024736
0.275214 0.103172 0.020545
0.362411 0.096356 0.021588
0.452773 0.094954 0.020197
0.534978 0.093117 0.019241
0.609609 0.091360 0.019067
0.673207 0.090486 0.020545
0.715869 0.091616 0.019675
0.755499 0.092138 0.020545
0.796213 0.092312 0.020197
0.833477 0.092486 0.019675
0.869719 0.090486 0.020545
0.038481 0.194326 0.037177
0.066685 0.189923 0.033643
0.110596 0.185488 0.034078
0.158910 0.179955 0.033209
0.215344 0.175520 0.029730
0.285681 0.168073 0.029730
0.368334 0.155399 0.027731
0.455214 0.144385 0.024304
0.541207 0.137148 0.024036
0.611114 0.133565 0.021588
0.675436 0.130484 0.023153
0.720477 0.131621 0.024023
0.757954 0.133039 0.024023
0.798908 0.133213 0.023501
0.836732 0.133387 0.023849
0.871906 0.133561 0.024915
0.043264 0.274979 0.045482
0.077077 0.270944 0.045047
0.119782 0.266674 0.045482
0.164607 0.261140 0.042307
0.226463 0.252686 0.042829
0.295748 0.242205 0.038916
0.382608 0.229930 0.038470
0.466935 0.214898 0.035670
0.549171 0.203354 0.033035
0.617914 0.191809 0.030252
0.679349 0.181395 0.027546
0.724129 0.181485 0.029817
0.763276 0.179233 0.026948
0.804152 0.176446 0.027557
0.841080 0.178363 0.027991
0.877600 0.176624 0.027978
0.054623 0.363915 0.056852
0.088534 0.360002 0.056852
0.130271 0.354294 0.056852
0.173748 0.348643 0.053753
0.235639 0.339457 0.052449
0.307118 0.328967 0.050275
0.392141 0.315423 0.047667
0.478468 0.299214 0.045036
0.556513 0.284366 0.039351
0.624926 0.271691 0.037612
0.690708 0.259016 0.037177
0.731576 0.252439 0.033209
0.770704 0.245026 0.034078
0.809833 0.234993 0.032774
0.845918 0.232764 0.032774
0.881948 0.228416 0.032752
0.068212 0.450721 0.070386
0.100242 0.444590 0.068203
0.137283 0.441362 0.067324
0.187597 0.436100 0.066261
0.247879 0.427089 0.063809
0.320216 0.415729 0.061200
0.402555 0.402098 0.059461
0.490093 0.386021 0.054895
0.566274 0.374390 0.053319
0.635590 0.360749 0.051145
0.697285 0.346213 0.048102
0.742413 0.337507 0.045919
0.784244 0.327869 0.046189
0.818584 0.320005 0.043698
0.855104 0.309863 0.039786
0.893314 0.304684 0.041507
0.077397 0.527852 0.079571
0.113427 0.524374 0.078267
0.152903 0.522896 0.080006
0.197391 0.515971 0.075277
0.259413 0.509699 0.074929
0.334207 0.500317 0.072994
0.415132 0.487910 0.069690
0.499448 0.474366 0.066885
0.574864 0.460110 0.064243
0.641097 0.447440 0.061809
0.703807 0.433443 0.057722
0.753425 0.428628 0.057454
0.791249 0.417268 0.053753
0.827334 0.408517 0.052971
0.862321 0.398730 0.051406
0.901614 0.393214 0.052440
0.095278 0.601070 0.095278
0.128298 0.598896 0.094409
0.166913 0.594027 0.092583
0.206220 0.590680 0.089278
0.271728 0.586058 0.089361
0.344708 0.578351 0.086561
0.427361 0.566285 0.083310
0.508720 0.553871 0.080006
0.583167 0.539022 0.074833
0.650688 0.528347 0.073870
0.710384 0.519325 0.071255
0.760871 0.510607 0.070386
0.800783 0.501335 0.067420
0.838259 0.493128 0.065213
0.873452 0.485681 0.063809
0.908222 0.477822 0.060352
0.110606 0.667766 0.108421
0.142375 0.666027 0.108510
0.178808 0.660406 0.104464
0.218284 0.658320 0.103333
0.281436 0.654311 0.102203
0.352990 0.646352 0.097931
0.437500 0.635764 0.093887
0.518688 0.623871 0.092061
0.593483 0.613544 0.088746
0.658656 0.604818 0.086920
0.716961 0.593902 0.082614
0.770057 0.586804 0.082527
0.808751 0.580314 0.078267
0.846575 0.571128 0.076082
0.880866 0.563293 0.074307
0.916946 0.556291 0.072120
0.118052 0.719134 0.120226
0.151908 0.716961 0.115823
0.191037 0.715623 0.118052
0.234078 0.713862 0.117161
0.289839 0.712123 0.114953
0.363915 0.708210 0.113649
0.448514 0.699883 0.110606
0.525700 0.687208 0.104029
0.598461 0.678045 0.101420
0.662493 0.669729 0.096593
0.721308 0.662282 0.096148
0.774839 0.655761 0.093974
0.815328 0.649184 0.093974
0.855761 0.640433 0.089626
0.889616 0.634302 0.087452
0.923472 0.627334 0.083071
0.120661 0.757393 0.122835
0.158920 0.757915 0.122835
0.194961 0.757828 0.122400
0.237612 0.759306 0.122139
0.294621 0.759567 0.121965
0.370927 0.758698 0.125020
0.454732 0.755086 0.121965
0.533972 0.748364 0.119791
0.604151 0.737083 0.112780
0.669940 0.731152 0.110258
0.726102 0.721532 0.107563
0.780025 0.715312 0.105701
0.824023 0.710607 0.103427
0.861239 0.701856 0.099247
0.896541 0.697498 0.097028
0.930506 0.691367 0.097028
0.128977 0.797826 0.126803
0.162833 0.796783 0.126803
0.198135 0.797391 0.126001
0.243177 0.796522 0.126268
0.295769 0.798261 0.126357
0.372666 0.800870 0.126803
0.457265 0.797559 0.125733
0.537147 0.797465 0.127151
0.609941 0.791780 0.126348
0.676071 0.786266 0.121970
0.735298 0.778586 0.119791
0.786689 0.772205 0.116889
0.831469 0.767126 0.114519
0.867555 0.761976 0.112345
0.902197 0.757144 0.109476
0.938822 0.750181 0.105812
0.132455 0.836085 0.131151
0.167236 0.834302 0.131325
0.203266 0.837390 0.131151
0.247754 0.835976 0.131586
0.296839 0.836776 0.131759
0.371796 0.838694 0.131151
0.457700 0.836509 0.131412
0.538799 0.835628 0.132455
0.612897 0.833965 0.130629
0.679816 0.835198 0.132020
0.738810 0.832117 0.131586
0.790776 0.827317 0.127477
0.838481 0.822530 0.127216
0.874544 0.817779 0.125042
0.908422 0.812441 0.122835
0.946681 0.807189 0.120639
0.137728 0.873898 0.137282
0.175496 0.873898 0.137639
0.212712 0.873898 0.136390
0.253493 0.873898 0.136569
0.300763 0.876594 0.136404
0.374839 0.876083 0.135498
0.459526 0.874411 0.135944
0.540972 0.874322 0.136390
0.615767 0.873002 0.137021
0.682169 0.872561 0.136292
0.740984 0.873898 0.137282
0.792776 0.871767 0.135498
0.841090 0.873464 0.136212
0.879349 0.871245 0.133325
0.913639 0.864713 0.132890
0.949725 0.860321 0.128542
0.142054 0.910352 0.142054
0.178143 0.912526 0.142058
0.215073 0.913409 0.142914
0.256844 0.911665 0.141193
0.302937 0.914327 0.141636
0.374839 0.916929 0.139902
0.459421 0.913439 0.140297
0.540972 0.912133 0.140771
0.615940 0.912113 0.142062
0.682169 0.911250 0.142506
0.740984 0.910374 0.142054
0.794519 0.910356 0.140336
0.843685 0.911222 0.142054
0.881936 0.913850 0.142045
0.920195 0.912504 0.143775
0.958454 0.912504 0.144162
0.015328 0.017067 0.061424
0.053096 0.017936 0.060978
0.092486 0.017936 0.057500
0.140278 0.015763 0.054412
0.196378 0.017067 0.050151
0.267332 0.019241 0.051792
0.355758 0.016969 0.051792
0.445694 0.014262 0.050321
0.532196 0.015555 0.052488
0.604990 0.014336 0.050671
0.666239 0.013098 0.050499
0.709292 0.015676 0.052140
0.747725 0.014882 0.050314
0.788418 0.015150 0.051792
0.826330 0.015328 0.051792
0.862718 0.015328 0.051775
0.022197 0.068259 0.070522
0.057500 0.066128 0.067990
0.095424 0.064119 0.064783
0.143504 0.058682 0.059447
0.198317 0.056814 0.054412
0.267767 0.058021 0.054064
0.355758 0.054880 0.054064
0.448216 0.055046 0.053586
0.531361 0.053414 0.053581
0.605059 0.054421 0.053569
0.668424 0.051792 0.054412
0.711813 0.053977 0.054048
0.750090 0.053977 0.054012
0.790210 0.053802 0.053977
0.828503 0.053977 0.054047
0.865281 0.053976 0.053977
0.025784 0.127300 0.075496
0.061117 0.124673 0.072226
0.101943 0.120684 0.068508
0.149638 0.114966 0.064223
0.204147 0.110736 0.061851
0.274077 0.103607 0.060978
0.358018 0.097455 0.059500
0.447799 0.093547 0.056787
0.534022 0.093427 0.057500
0.606042 0.092782 0.056439
0.671033 0.091182 0.057065
0.715869 0.092312 0.056491
0.754379 0.092575 0.056978
0.795882 0.091184 0.056717
0.835116 0.092402 0.056903
0.870762 0.093084 0.058521
0.036546 0.199376 0.085273
0.069484 0.195212 0.082016
0.108266 0.188869 0.077443
0.155514 0.183158 0.073652
0.211450 0.174703 0.069120
0.281909 0.167556 0.068163
0.366995 0.155747 0.065462
0.452218 0.144350 0.061639
0.535968 0.138626 0.061482
0.607225 0.135182 0.060334
0.673474 0.133119 0.062282
0.719712 0.133474 0.059065
0.758788 0.134135 0.060439
0.799360 0.132691 0.060265
0.837950 0.135227 0.060856
0.872327 0.134853 0.060096
0.047221 0.279425 0.098155
0.079314 0.274703 0.095206
0.113561 0.270622 0.090491
0.166172 0.261367 0.084402
0.223464 0.255663 0.080297
0.293094 0.244468 0.077610
0.378407 0.230215 0.074566
0.466586 0.217673 0.073268
0.543329 0.203876 0.068859
0.614349 0.191896 0.066763
0.677166 0.185451 0.066239
0.723112 0.182000 0.063232
0.762832 0.180137 0.064812
0.802682 0.176482 0.062925
0.841063 0.176598 0.062637
0.877510 0.176884 0.062285
0.056852 0.367014 0.109960
0.090273 0.362446 0.108645
0.123086 0.357567 0.102513
0.175531 0.348208 0.095936
0.232986 0.341718 0.091230
0.303161 0.331576 0.088969
0.389488 0.318031 0.086091
0.473826 0.300374 0.083870
0.553001 0.285844 0.079175
0.621316 0.273430 0.074966
0.685012 0.261190 0.074522
0.731576 0.252885 0.072348
0.771574 0.247657 0.073474
0.809572 0.237341 0.071468
0.845918 0.230938 0.069294
0.882828 0.230138 0.071015
0.068560 0.449765 0.123841
0.099111 0.447823 0.120118
0.136622 0.442370 0.115012
0.183803 0.436531 0.109236
0.244313 0.429213 0.104434
0.318043 0.420121 0.102505
0.401240 0.404656 0.097522
0.487010 0.388634 0.095211
0.563265 0.374390 0.091319
0.632101 0.359662 0.086958
0.695056 0.348779 0.086882
0.742588 0.338011 0.084892
0.782307 0.329486 0.083316
0.818305 0.320652 0.081524
0.855451 0.313787 0.079262
0.891498 0.305494 0.078845
0.082527 0.531292 0.139592
0.112470 0.526639 0.134383
0.149947 0.522635 0.129317
0.193590 0.515886 0.120356
0.254036 0.510192 0.115111
0.329402 0.501454 0.113710
0.411863 0.488733 0.109422
0.495879 0.475581 0.107695
0.572659 0.460882 0.102942
0.638622 0.447861 0.099808
0.701633 0.437639 0.098590
0.752990 0.428714 0.096038
0.793075 0.419014 0.094002
0.828082 0.409550 0.092169
0.864666 0.402061 0.090413
0.900863 0.394353 0.090710
0.094582 0.603032 0.153832
0.128493 0.601655 0.150302
0.164814 0.596618 0.145081
0.205671 0.592196 0.137140
0.267262 0.585189 0.131892
0.340761 0.577047 0.128302
0.423998 0.565208 0.123404
0.506362 0.554045 0.121482
0.580854 0.541387 0.117211
0.649662 0.531082 0.113799
0.708210 0.519325 0.110384
0.761706 0.511255 0.110158
0.801304 0.502306 0.106794
0.838016 0.496519 0.105476
0.874161 0.486951 0.103593
0.909253 0.478862 0.101209
0.110606 0.670027 0.172027
0.142375 0.666740 0.165331
0.181189 0.663109 0.160842
0.218893 0.659311 0.152441
0.277016 0.653239 0.144595
0.351338 0.647219 0.143070
0.433073 0.636129 0.136602
0.515220 0.625263 0.133508
0.590176 0.613596 0.128975
0.655230 0.603635 0.126265
0.712992 0.593893 0.123482
0.768527 0.586891 0.120004
0.810403 0.579479 0.119134
0.844288 0.571049 0.116026
0.880866 0.565104 0.114817
0.916533 0.558123 0.112227
0.115823 0.719134 0.178127
0.151995 0.718787 0.174116
0.190167 0.716961 0.171160
0.232600 0.716782 0.164148
0.285915 0.712557 0.157607
0.361306 0.710384 0.157181
0.442416 0.699883 0.151737
0.523493 0.688517 0.145951
0.597152 0.678045 0.144466
0.661624 0.669737 0.140114
0.721743 0.660543 0.137071
0.773100 0.653620 0.135287
0.816371 0.648053 0.131972
0.853810 0.640433 0.129450
0.889616 0.634302 0.128407
0.925702 0.629508 0.126536
0.121444 0.760350 0.184693
0.157372 0.760072 0.180693
0.195462 0.758993 0.177508
0.237382 0.759272 0.170982
0.290273 0.759567 0.164653
0.367883 0.758698 0.165974
0.451004 0.754895 0.163381
0.530344 0.748364 0.160485
0.602772 0.738766 0.156586
0.667026 0.729958 0.151844
0.727529 0.722923 0.148865
0.779399 0.717104 0.147178
0.822935 0.710746 0.144560
0.863673 0.703804 0.142237
0.896611 0.699681 0.140114
0.930054 0.693110 0.137941
0.128275 0.798000 0.190390
0.163007 0.800609 0.186432
0.199788 0.800243 0.182258
0.243698 0.797531 0.176568
0.293751 0.799299 0.172723
0.368318 0.799826 0.169410
0.454506 0.799703 0.169184
0.536253 0.796596 0.169045
0.609349 0.793900 0.169601
0.672693 0.786928 0.164447
0.730494 0.779890 0.161105
0.784161 0.773509 0.158485
0.828774 0.770207 0.156713
0.868807 0.763541 0.153658
0.902893 0.758001 0.150174
0.937240 0.752614 0.148414
0.131933 0.838172 0.194053
0.166731 0.839163 0.191879
0.203944 0.838416 0.188894
0.247232 0.837390 0.179996
0.294343 0.839125 0.174638
0.371100 0.839563 0.174638
0.454037 0.837501 0.172751
0.536694 0.837002 0.174221
0.609802 0.836663 0.174899
0.674593 0.835467 0.174255
0.734852 0.833187 0.173764
0.789298 0.828865 0.171410
0.834152 0.824178 0.168759
0.874816 0.817083 0.165118
0.909900 0.813386 0.162486
0.943671 0.808178 0.161171
0.135944 0.876083 0.199664
0.172975 0.876361 0.195183
0.208017 0.876605 0.191183
0.252101 0.876292 0.186050
0.300119 0.875709 0.180578
0.372579 0.876431 0.181117
0.457176 0.875550 0.179995
0.538833 0.875856 0.180074
0.611802 0.873916 0.179587
0.679203 0.872987 0.179378
0.738286 0.872561 0.178586
0.792619 0.872479 0.178745
0.841316 0.872607 0.179286
0.879140 0.869245 0.175940
0.916975 0.865061 0.177367
0.951464 0.860249 0.173670
0.140332 0.913424 0.203934
0.177782 0.915190 0.199554
0.211157 0.914949 0.193444
0.256117 0.911835 0.188633
0.303354 0.914729 0.184151
0.372648 0.914755 0.185541
0.455781 0.913787 0.184684
0.538523 0.912566 0.184417
0.613325 0.912113 0.183374
0.679643 0.912869 0.185183
0.736653 0.910804 0.183384
0.792689 0.911045 0.185460
0.843425 0.911480 0.185108
0.882216 0.912791 0.183201
0.920212 0.912418 0.184762
0.958475 0.910774 0.183367
0.015328 0.020545 0.116270
0.049184 0.019675 0.114096
0.091703 0.018719 0.110083
0.136626 0.019328 0.106322
0.191636 0.020284 0.100737
0.261190 0.020545 0.096595
0.351573 0.018538 0.089616
0.443313 0.019241 0.090834
0.529748 0.017067 0.089964
0.602363 0.015937 0.088747
0.667990 0.015328 0.090486
0.709466 0.015763 0.088486
0.748420 0.017502 0.088312
0.790157 0.016719 0.089182
0.828156 0.017328 0.089008
0.865349 0.019654 0.090477
0.022806 0.071913 0.123978
0.053414 0.067990 0.120256
0.093964 0.065702 0.115912
0.139322 0.062221 0.110166
0.196246 0.059413 0.103920
0.263364 0.058804 0.098802
0.353233 0.056394 0.094421
0.444078 0.054086 0.092660
0.529306 0.053553 0.092314
0.604781 0.054278 0.092195
0.669902 0.052836 0.092834
0.711779 0.053977 0.091008
0.751898 0.053977 0.092503
0.792227 0.053977 0.092486
0.829634 0.053629 0.090486
0.866675 0.053790 0.092660
0.025711 0.130107 0.133150
0.060717 0.126830 0.129859
0.098889 0.122725 0.126217
0.145725 0.118269 0.119347
0.201360 0.111418 0.112531
0.266985 0.105867 0.103707
0.353664 0.098768 0.097721
0.445205 0.095267 0.094499
0.530382 0.092639 0.094279
0.604729 0.092932 0.093304
0.671381 0.091877 0.094421
0.715869 0.092503 0.094699
0.752768 0.094386 0.095739
0.793223 0.094334 0.094850
0.831460 0.093708 0.094390
0.869374 0.093559 0.095217
0.035764 0.201137 0.144957
0.067468 0.197700 0.139555
0.105884 0.192147 0.135737
0.154086 0.185019 0.130036
0.209311 0.178042 0.121604
0.276518 0.170805 0.112444
0.364241 0.157764 0.106844
0.450895 0.146781 0.101389
0.533656 0.138701 0.098367
0.606485 0.135669 0.098211
0.674544 0.133213 0.098889
0.719799 0.134082 0.097741
0.758475 0.136278 0.098889
0.797256 0.134865 0.098367
0.834886 0.135222 0.097689
0.872319 0.135751 0.099232
0.045047 0.284343 0.157534
0.078636 0.279494 0.154468
0.113100 0.273762 0.149001
0.162524 0.265472 0.140719
0.220149 0.258445 0.134467
0.289182 0.246999 0.125456
0.375571 0.232846 0.116675
0.462361 0.218407 0.112162
0.540664 0.205390 0.107448
0.611084 0.196029 0.105808
0.675603 0.185973 0.104041
0.724517 0.182090 0.103417
0.764321 0.182276 0.103809
0.803604 0.178882 0.102044
0.839080 0.178572 0.101184
0.877598 0.178363 0.102301
0.055515 0.370057 0.172688
0.089578 0.365877 0.168024
0.124564 0.361741 0.163415
0.172009 0.352208 0.155186
0.229334 0.344239 0.148174
0.299671 0.333315 0.136380
0.384966 0.318031 0.127560
0.471131 0.302835 0.122586
0.550045 0.288225 0.119782
0.619490 0.275388 0.115842
0.684131 0.262494 0.115869
0.731141 0.254669 0.112161
0.770270 0.246440 0.110161
0.810702 0.237689 0.108857
0.845918 0.234102 0.108248
0.882830 0.230590 0.107988
0.069690 0.455336 0.190172
0.099894 0.452113 0.183873
0.137962 0.445286 0.178177
0.179212 0.440353 0.171053
0.240485 0.432980 0.163850
0.312770 0.422295 0.150560
0.397978 0.405851 0.140589
0.483103 0.391055 0.136317
0.560344 0.377068 0.132648
0.629542 0.362579 0.127763
0.691491 0.350344 0.126499
0.742553 0.341211 0.126169
0.783534 0.332922 0.123581
0.817436 0.322781 0.120008
0.855170 0.314552 0.118043
0.891231 0.306481 0.117271
0.079919 0.533472 0.203983
0.113177 0.532512 0.200679
0.150695 0.525626 0.194624
0.189423 0.520795 0.185612
0.253003 0.513797 0.178273
0.323260 0.504177 0.165589
0.408746 0.490789 0.154160
0.491262 0.476193 0.148096
0.569294 0.461629 0.144514
0.637591 0.451108 0.142033
0.700068 0.439117 0.139805
0.751755 0.430063 0.137005
0.792997 0.419293 0.134392
0.827474 0.411559 0.132889
0.864590 0.403348 0.130470
0.899814 0.394541 0.128032
0.095626 0.605038 0.219733
0.128656 0.603995 0.216647
0.165044 0.600122 0.212781
0.206468 0.594757 0.203058
0.263412 0.587797 0.193494
0.334652 0.579220 0.182395
0.420922 0.568111 0.169424
0.503948 0.554653 0.163934
0.577936 0.542773 0.159698
0.645488 0.533330 0.155173
0.706036 0.521532 0.153873
0.758785 0.513255 0.151060
0.801165 0.504561 0.148838
0.837859 0.496559 0.146873
0.875336 0.488832 0.145621
0.909509 0.480012 0.142071
0.108867 0.669505 0.235801
0.143366 0.669974 0.231964
0.177914 0.664800 0.226720
0.219397 0.660476 0.219481
0.272581 0.655567 0.208314
0.346023 0.648264 0.198189
0.429757 0.636772 0.183819
0.511138 0.626393 0.177486
0.586186 0.616162 0.173031
0.651239 0.605613 0.168403
0.712297 0.596685 0.167181
0.766742 0.588334 0.164249
0.809342 0.581113 0.162141
0.846469 0.574712 0.160032
0.881561 0.567215 0.156487
0.917812 0.560384 0.154319
0.118922 0.721308 0.246986
0.153039 0.720613 0.242639
0.188341 0.720004 0.238235
0.232774 0.716961 0.230822
0.283696 0.715445 0.223398
0.357393 0.711253 0.212039
0.440024 0.701013 0.198902
0.520428 0.689917 0.192441
0.593570 0.680218 0.187037
0.658146 0.671646 0.182725
0.718265 0.663586 0.178808
0.772666 0.655761 0.176601
0.817502 0.649184 0.176253
0.853531 0.642607 0.172231
0.890747 0.636346 0.171187
0.926584 0.628217 0.168766
0.123096 0.761567 0.251650
0.158746 0.761045 0.248344
0.194611 0.761898 0.244899
0.237257 0.760524 0.238325
0.287925 0.762007 0.231443
0.363219 0.760176 0.222529
0.447867 0.756808 0.212462
0.527770 0.749340 0.205802
0.600831 0.740835 0.200570
0.663580 0.732091 0.196288
0.722699 0.724836 0.192189
0.777538 0.717747 0.190398
0.823945 0.710848 0.187646
0.861308 0.706092 0.186620
0.896854 0.699770 0.182987
0.931625 0.695282 0.180551
0.126001 0.801391 0.256259
0.163389 0.801130 0.252763
0.199996 0.801308 0.248734
0.241403 0.801217 0.242631
0.291595 0.801130 0.236149
0.363915 0.800870 0.228093
0.450732 0.799823 0.217266
0.530917 0.797656 0.214073
0.606155 0.794763 0.212147
0.670183 0.788164 0.208001
0.728407 0.780759 0.205114
0.781834 0.774483 0.202927
0.829296 0.769261 0.200222
0.866364 0.764149 0.196533
0.902267 0.757851 0.193046
0.938805 0.752363 0.191911
0.130890 0.840085 0.261957
0.167758 0.840189 0.256589
0.204680 0.840647 0.253668
0.244500 0.839163 0.248204
0.293751 0.840085 0.240690
0.365788 0.839563 0.232140
0.451230 0.838930 0.222520
0.533325 0.837815 0.220906
0.608319 0.838141 0.218151
0.673010 0.836676 0.217880
0.732668 0.833976 0.218246
0.786411 0.829839 0.215673
0.836063 0.823399 0.212998
0.874060 0.817558 0.209400
0.909796 0.813030 0.206492
0.944485 0.809742 0.205974
0.136569 0.878257 0.265357
0.173410 0.878727 0.264053
0.209930 0.878605 0.258711
0.252345 0.877109 0.252868
0.299720 0.877822 0.245212
0.367449 0.878257 0.239279
0.452941 0.877385 0.229816
0.535672 0.876333 0.225067
0.608608 0.874964 0.223105
0.676471 0.874718 0.222041
0.735744 0.873898 0.223550
0.790428 0.873882 0.224090
0.839768 0.874490 0.224785
0.879610 0.872315 0.223115
0.915423 0.866713 0.219336
0.950431 0.862236 0.216484
0.140771 0.914777 0.270140
0.179008 0.916929 0.268811
0.216392 0.917451 0.263243
0.256839 0.914755 0.255728
0.302068 0.915461 0.247856
0.369601 0.916929 0.241292
0.453164 0.916050 0.232831
0.537729 0.915951 0.230896
0.610718 0.914300 0.230297
0.678832 0.914476 0.228800
0.736627 0.912539 0.228192
0.790587 0.912105 0.230542
0.840750 0.914220 0.229939
0.881428 0.914733 0.229061
0.921248 0.914555 0.229061
0.959745 0.913815 0.229461
0.013098 0.021849 0.176824
0.049184 0.023327 0.174651
0.086138 0.023153 0.171139
0.136105 0.020458 0.166682
0.190592 0.021414 0.159775
0.260321 0.021849 0.154975
0.347268 0.022284 0.147714
0.439117 0.019502 0.137748
0.523806 0.016532 0.131822
0.597630 0.017676 0.129701
0.664043 0.015328 0.129180
0.709292 0.016632 0.127267
0.749725 0.017502 0.129180
0.789810 0.016632 0.129701
0.828156 0.016371 0.128919
0.865793 0.016632 0.129180
0.022023 0.072348 0.186184
0.053977 0.071913 0.183836
0.090069 0.069418 0.180031
0.138644 0.062970 0.172031
0.189983 0.060595 0.163726
0.262321 0.061847 0.159590
0.349282 0.058793 0.151103
0.440622 0.056853 0.140115
0.524762 0.055734 0.136169
0.598593 0.055659 0.133352
0.665521 0.053977 0.132952
0.711900 0.055339 0.130797
0.752072 0.056195 0.131634
0.792331 0.055308 0.131621
0.830242 0.056053 0.131353
0.866849 0.056195 0.131795
0.026587 0.133250 0.199991
0.062891 0.129848 0.195735
0.098168 0.124534 0.189623
0.144842 0.120129 0.181780
0.197152 0.114949 0.173625
0.265928 0.108322 0.165900
0.349627 0.100135 0.155401
0.441441 0.096702 0.143958
0.525948 0.094207 0.138039
0.600347 0.093436 0.136017
0.669729 0.092660 0.137061
0.717451 0.093551 0.135079
0.755178 0.094386 0.134538
0.796995 0.093977 0.134088
0.833745 0.094054 0.133561
0.869727 0.094081 0.134447
0.035483 0.205685 0.212253
0.069363 0.200069 0.206363
0.103571 0.195508 0.202194
0.150907 0.188444 0.194813
0.205115 0.182688 0.186010
0.273974 0.173433 0.175607
0.359249 0.160334 0.165352
0.447207 0.149301 0.151897
0.529613 0.140626 0.142364
0.603146 0.137043 0.139530
0.670511 0.133561 0.139583
0.718304 0.135433 0.140209
0.758162 0.135757 0.137148
0.798560 0.134082 0.137374
0.836645 0.135222 0.137409
0.872672 0.135757 0.138275
0.045917 0.289132 0.228143
0.078670 0.284429 0.222884
0.113222 0.276586 0.217740
0.157249 0.270594 0.209581
0.213697 0.261645 0.200065
0.285519 0.250042 0.189775
0.370008 0.236254 0.176139
0.457206 0.220512 0.162867
0.537933 0.208096 0.153490
0.609152 0.196654 0.149304
0.671294 0.188233 0.145087
0.725191 0.183921 0.144169
0.763362 0.182102 0.144044
0.802386 0.179494 0.142265
0.839984 0.179668 0.141322
0.878719 0.179841 0.143138
0.055515 0.374839 0.243732
0.087487 0.369622 0.236285
0.124151 0.365252 0.232807
0.165835 0.359219 0.224839
0.225161 0.349773 0.216175
0.297063 0.337718 0.204816
0.381390 0.321510 0.190471
0.468848 0.305791 0.177172
0.546781 0.290065 0.165117
0.618001 0.276866 0.159519
0.680653 0.265593 0.156714
0.732902 0.256408 0.154251
0.772878 0.248874 0.152333
0.809746 0.239689 0.150159
0.846788 0.234993 0.148855
0.882839 0.231460 0.147551
0.068386 0.458846 0.260145
0.099894 0.455283 0.255091
0.137457 0.450200 0.251029
0.177212 0.443157 0.241469
0.236781 0.435318 0.231706
0.308683 0.426219 0.223169
0.392813 0.408925 0.204753
0.480557 0.394058 0.191441
0.557308 0.377790 0.181312
0.627918 0.363808 0.174685
0.688969 0.352612 0.171841
0.743078 0.341854 0.166757
0.782064 0.332660 0.164075
0.817714 0.323494 0.161525
0.855576 0.315951 0.160969
0.891766 0.306929 0.158649
0.080093 0.536081 0.276853
0.113556 0.534325 0.273028
0.151025 0.529526 0.269154
0.189301 0.523504 0.257891
0.248923 0.518666 0.247905
0.319782 0.507655 0.237503
0.404798 0.494452 0.220313
0.489431 0.479784 0.204529
