example_ofxGpuLutCube/bin/data/ofxGpuLutCube/LUT/T10 (smooth green orange).cube
LUT_3D_SIZE 6
0.015328 0.015328 0.015328
0.142278 0.016632 0.016632
0.359323 0.018360 0.015328
0.607424 0.015763 0.016621
0.747551 0.015328 0.015328
0.864479 0.015328 0.015328
0.038481 0.194326 0.037177
0.158910 0.179955 0.033209
0.368334 0.155399 0.027731
0.611114 0.133565 0.021588
0.757954 0.133039 0.024023
0.871906 0.133561 0.024915
0.068212 0.450721 0.070386
0.187597 0.436100 0.066261
0.402555 0.402098 0.059461
0.635590 0.360749 0.051145
0.784244 0.327869 0.046189
0.893314 0.304684 0.041507
0.110606 0.667766 0.108421
0.218284 0.658320 0.103333
0.437500 0.635764 0.093887
0.658656 0.604818 0.086920
0.808751 0.580314 0.078267
0.916946 0.556291 0.072120
0.128977 0.797826 0.126803
0.243177 0.796522 0.126268
0.457265 0.797559 0.125733
0.676071 0.786266 0.121970
0.831469 0.767126 0.114519
0.938822 0.750181 0.105812
0.142054 0.910352 0.142054
0.256844 0.911665 0.141193
0.459421 0.913439 0.140297
0.682169 0.911250 0.142506
0.843685 0.911222 0.142054
0.958454 0.912504 0.144162
0.013098 0.021849 0.176824
0.136105 0.020458 0.166682
0.347268 0.022284 0.147714
0.597630 0.017676 0.129701
0.749725 0.017502 0.129180
0.865793 0.016632 0.129180
0.035483 0.205685 0.212253
0.150907 0.188444 0.194813
0.359249 0.160334 0.165352
0.603146 0.137043 0.139530
0.758162 0.135757 0.137148
0.872672 0.135757 0.138275
0.068386 0.458846 0.260145
0.177212 0.443157 0.241469
0.392813 0.408925 0.204753
0.627918 0.363808 0.174685
0.782064 0.332660 0.164075
0.891766 0.306929 0.158649
0.106950 0.675039 0.308845
0.217449 0.663809 0.289169
0.425324 0.640521 0.254610
0.649245 0.607006 0.216874
0.806577 0.582527 0.206583
0.918429 0.561707 0.201042
0.127151 0.803922 0.328433
0.242620 0.803277 0.314987
0.446267 0.802000 0.288549
0.668441 0.789758 0.258176
0.825980 0.771674 0.247219
0.939322 0.755046 0.240402
0.142054 0.920407 0.342031
0.255955 0.916416 0.326781
0.450193 0.918058 0.305075
0.673081 0.914304 0.277529
0.838567 0.913417 0.273964
0.957593 0.914716 0.274731
0.017067 0.030600 0.408762
0.128484 0.026687 0.394738
0.333124 0.027893 0.369835
0.586966 0.023165 0.330582
0.748246 0.023762 0.303547
0.862718 0.022284 0.288101
0.035215 0.217740 0.444840
0.142295 0.200921 0.426047
0.343650 0.172257 0.391598
0.592752 0.147533 0.345622
0.758145 0.142546 0.319901
0.874799 0.141398 0.299712
0.068560 0.470745 0.485582
0.176412 0.455506 0.470779
0.379162 0.424556 0.437131
0.616523 0.378215 0.389582
0.781594 0.345639 0.358003
0.889773 0.314783 0.325622
0.108867 0.683571 0.523802
0.218980 0.672905 0.509357
0.410581 0.649831 0.478719
0.638661 0.617040 0.438442
0.804562 0.592665 0.406928
0.915157 0.569407 0.377300
0.125733 0.811794 0.536640
0.241107 0.810681 0.528881
0.432883 0.809323 0.508427
0.659531 0.797548 0.476101
0.821067 0.776924 0.444683
0.939497 0.758738 0.417047
0.142506 0.924348 0.546876
0.256830 0.925679 0.539014
0.439235 0.925147 0.519096
0.662598 0.919991 0.489628
0.829296 0.920405 0.470213
0.954962 0.919094 0.448539
0.015763 0.038470 0.622284
0.121124 0.036464 0.609435
0.318503 0.037688 0.592152
0.578216 0.031383 0.557604
0.749985 0.031296 0.536354
0.866223 0.030148 0.516935
0.034698 0.233851 0.646352
0.137931 0.216592 0.634748
0.330596 0.184347 0.608331
0.580131 0.155332 0.573079
0.758215 0.152872 0.550151
0.874168 0.150594 0.530299
0.067855 0.483147 0.677821
0.175862 0.468161 0.668757
0.365274 0.436957 0.642573
0.605268 0.391143 0.607768
0.776812 0.358773 0.581451
0.893146 0.330757 0.555338
0.108430 0.691876 0.707117
0.219206 0.682435 0.696844
0.398152 0.659806 0.675565
0.629492 0.627555 0.644447
0.796134 0.603108 0.618416
0.916520 0.578936 0.595641
0.123883 0.819849 0.718824
0.240481 0.818371 0.710606
0.420654 0.818886 0.696269
0.648699 0.805507 0.670070
0.811794 0.787129 0.648351
0.937324 0.768974 0.627111
0.142054 0.935724 0.728075
0.256389 0.932204 0.718893
0.423182 0.933103 0.704583
0.654563 0.928641 0.683901
0.823317 0.926977 0.665554
0.958449 0.927788 0.649393
0.016197 0.043698 0.750594
0.119994 0.041525 0.748768
0.305830 0.043899 0.749290
0.566421 0.038220 0.738196
0.748420 0.038047 0.722103
0.864502 0.036272 0.706461
0.037164 0.238459 0.775085
0.138557 0.223239 0.771678
0.318955 0.192037 0.766963
0.571329 0.165643 0.751477
0.755499 0.161646 0.733236
0.876209 0.159258 0.717386
0.067402 0.487675 0.801565
0.175542 0.475631 0.800348
0.351014 0.447388 0.793881
0.596413 0.404512 0.779512
0.769226 0.371463 0.756880
0.891140 0.343174 0.738546
0.108515 0.696453 0.829991
0.217586 0.686207 0.826317
0.386700 0.666242 0.820110
0.621391 0.635440 0.806283
0.789510 0.611348 0.786155
0.916787 0.589336 0.768544
0.127325 0.822719 0.838568
0.240951 0.822580 0.838255
0.405424 0.824683 0.838825
0.640599 0.812142 0.830078
0.804092 0.792437 0.808070
0.938289 0.776378 0.791353
0.144649 0.937896 0.845914
0.257260 0.936088 0.846775
0.413541 0.939383 0.846790
0.645469 0.936006 0.839174
0.816714 0.933093 0.826197
0.957593 0.931762 0.813525
0.013121 0.043698 0.864502
0.119146 0.043698 0.864502
0.295988 0.045043 0.864458
0.557180 0.044105 0.866197
0.746260 0.043685 0.865340
0.862316 0.043698 0.862229
0.034961 0.241571 0.887642
0.138800 0.226247 0.884666
0.308488 0.197601 0.880427
0.559367 0.171563 0.874938
0.744962 0.169375 0.874935
0.874530 0.168500 0.875360
0.067781 0.491811 0.912530
0.172479 0.476934 0.908661
0.341866 0.449333 0.907627
0.587663 0.409857 0.900193
0.765564 0.379290 0.895774
0.891138 0.352773 0.891090
0.108845 0.699214 0.940478
0.219064 0.687898 0.936607
0.376390 0.669060 0.931349
0.613476 0.638920 0.926512
0.782692 0.618764 0.921014
0.918694 0.596115 0.914772
0.128977 0.824915 0.949703
0.243682 0.824045 0.948842
0.398433 0.825980 0.949286
0.634545 0.814866 0.946918
0.798734 0.796950 0.942686
0.938809 0.784212 0.940882
0.139902 0.938757 0.954051
0.258983 0.938778 0.956270
0.408707 0.940509 0.958010
0.638896 0.938783 0.954518
0.809642 0.938752 0.958406
0.956258 0.938735 0.956214
