example_ofxGpuLutCube/bin/data/ofxGpuLutCube/LUT/T11 (greenish fade).cube
LUT_3D_SIZE 6
0.019934 0.016541 0.016578
0.166143 0.022825 0.021563
0.329669 0.032857 0.028763
0.512170 0.047779 0.038384
0.696704 0.064022 0.049097
0.885869 0.080977 0.059647
0.026350 0.155384 0.021314
0.177406 0.165491 0.024100
0.362478 0.188333 0.035734
0.552953 0.212007 0.048507
0.733625 0.232859 0.060061
0.918181 0.254924 0.072197
0.034109 0.303182 0.029141
0.199328 0.330445 0.038227
0.379405 0.351586 0.045331
0.572751 0.383945 0.062213
0.756117 0.411414 0.076923
0.938479 0.438208 0.091785
0.046768 0.468159 0.042593
0.223782 0.512756 0.059831
0.406591 0.538116 0.071835
0.585773 0.554170 0.077005
0.770808 0.583426 0.094626
0.951228 0.614147 0.114104
0.072894 0.660486 0.066480
0.255425 0.705185 0.088204
0.435928 0.725760 0.102544
0.609870 0.737809 0.108921
0.782650 0.750620 0.112752
0.959595 0.782746 0.136565
0.110357 0.863697 0.096173
0.291669 0.895634 0.118913
0.465386 0.909681 0.133260
0.630508 0.917229 0.140214
0.798576 0.928045 0.147254
0.963402 0.942653 0.154243
0.026197 0.022771 0.156836
0.166577 0.022343 0.155652
0.320832 0.029055 0.160736
0.482182 0.037808 0.167199
0.653470 0.048889 0.175281
0.842507 0.061758 0.184545
0.024321 0.156815 0.155988
0.189215 0.182903 0.176129
0.367864 0.200464 0.186336
0.549228 0.218695 0.197195
0.727961 0.236491 0.208095
0.915610 0.254324 0.218830
0.029221 0.306545 0.164127
0.200312 0.359180 0.198678
0.391551 0.383231 0.213036
0.576149 0.401936 0.222325
0.755750 0.420619 0.232842
0.939353 0.440640 0.244847
0.038211 0.473463 0.178514
0.215384 0.539195 0.219440
0.416464 0.578167 0.247770
0.593567 0.583051 0.251384
0.773183 0.601521 0.263007
0.954591 0.625414 0.277227
0.055148 0.654431 0.198291
0.245527 0.726997 0.250079
0.442566 0.761639 0.279580
0.620071 0.771664 0.290292
0.785910 0.774508 0.291349
0.964075 0.802388 0.311297
0.082740 0.848449 0.224921
0.292090 0.923733 0.289259
0.474714 0.941719 0.312006
0.645335 0.950385 0.322732
0.809787 0.954530 0.328025
0.966687 0.958739 0.331966
0.032960 0.031194 0.304327
0.181463 0.032453 0.310927
0.335076 0.032157 0.302338
0.494972 0.039878 0.306485
0.658110 0.049631 0.312838
0.835440 0.060132 0.320040
0.029833 0.169769 0.306467
0.189265 0.196840 0.333289
0.354217 0.195935 0.330505
0.527453 0.209442 0.336286
0.704337 0.224228 0.343850
0.894792 0.239384 0.351747
0.028338 0.316695 0.311456
0.180298 0.345147 0.332256
0.392749 0.407902 0.382672
0.572700 0.418178 0.390951
0.755530 0.433711 0.397621
0.947099 0.452515 0.408104
0.035161 0.481644 0.324289
0.192669 0.519305 0.349402
0.403147 0.589087 0.407532
0.602116 0.613239 0.429945
0.780866 0.622998 0.434918
0.962739 0.643258 0.446043
0.048005 0.654329 0.339791
0.216230 0.701651 0.373403
0.424498 0.770424 0.434374
0.625487 0.798932 0.463503
0.798315 0.800946 0.466807
0.972594 0.820626 0.482433
0.066963 0.835347 0.357915
0.257518 0.902549 0.411058
0.475880 0.958037 0.476017
0.658008 0.969315 0.495780
0.825411 0.974034 0.503866
0.974654 0.974008 0.504115
0.038572 0.040902 0.454511
0.185948 0.042723 0.468054
0.349676 0.044313 0.463611
0.509553 0.044212 0.451332
0.668197 0.052794 0.455844
0.837690 0.061835 0.460129
0.035757 0.188080 0.464594
0.189273 0.208895 0.485117
0.361773 0.215468 0.496617
0.525153 0.213011 0.486259
0.698570 0.225508 0.491380
0.883868 0.236932 0.495158
0.035221 0.340651 0.472465
0.183103 0.355386 0.484880
0.383038 0.412728 0.536008
0.563029 0.417642 0.541394
0.741298 0.425360 0.542879
0.933713 0.436716 0.546268
0.035227 0.487243 0.472110
0.183444 0.508424 0.487006
0.370399 0.564736 0.530379
0.606945 0.632847 0.594488
0.791431 0.639781 0.601781
0.971511 0.659461 0.616195
0.045141 0.654375 0.484109
0.201624 0.687791 0.506809
0.390880 0.747231 0.554967
0.623917 0.812920 0.624891
0.816390 0.826127 0.641673
0.981865 0.841630 0.657255
0.060264 0.830690 0.499133
0.232538 0.883463 0.535420
0.438651 0.944513 0.597360
0.672803 0.981811 0.664374
0.841900 0.986738 0.676820
0.984877 0.987242 0.678591
0.044363 0.052943 0.610114
0.189882 0.053182 0.623370
0.349277 0.055963 0.624920
0.514086 0.056651 0.611227
0.671276 0.056147 0.600765
0.838979 0.064504 0.605111
0.042012 0.204895 0.622994
0.191717 0.218595 0.636815
0.361434 0.230030 0.655690
0.537893 0.234961 0.657313
0.698674 0.230977 0.644816
0.882246 0.240714 0.648977
0.042181 0.358053 0.628825
0.187326 0.365750 0.636924
0.373261 0.415755 0.684578
0.565505 0.433914 0.708017
0.736697 0.427622 0.700162
0.927048 0.435260 0.704984
0.042558 0.504770 0.627899
0.188276 0.517271 0.639023
0.362477 0.562405 0.678347
0.591712 0.632997 0.749719
0.784208 0.637855 0.758336
0.964038 0.646642 0.767787
0.043314 0.649504 0.625028
0.194028 0.676641 0.644155
0.366042 0.726563 0.684243
0.582280 0.795000 0.749669
0.828690 0.843382 0.814255
0.989835 0.856037 0.832501
0.057129 0.829205 0.643171
0.218929 0.872285 0.673170
0.405077 0.929849 0.723388
0.633861 0.975884 0.795888
0.851462 0.993859 0.842555
0.993257 0.994973 0.845807
0.050313 0.063300 0.769901
0.194410 0.062940 0.784877
0.351534 0.066790 0.790514
0.517040 0.069478 0.782769
0.682423 0.071394 0.773448
0.839422 0.068119 0.758328
0.048374 0.214573 0.780414
0.195754 0.226815 0.798879
0.358310 0.238727 0.820300
0.539456 0.249295 0.833714
0.717799 0.252431 0.830550
0.882269 0.246950 0.815026
0.048657 0.366400 0.784933
0.192893 0.373102 0.798956
0.370244 0.418014 0.848654
0.557988 0.438014 0.876255
0.751407 0.444582 0.885921
0.925293 0.440195 0.877418
0.049285 0.514906 0.785119
0.193176 0.524573 0.800857
0.356033 0.560827 0.840460
0.579502 0.631718 0.915606
0.789750 0.649991 0.938352
0.961594 0.648359 0.938726
0.050633 0.663587 0.784055
0.197533 0.682776 0.804987
0.359235 0.722241 0.843438
0.562434 0.786654 0.908442
0.825259 0.848962 0.972184
0.987958 0.853395 0.978254
0.053142 0.818554 0.784220
0.208375 0.856752 0.814341
0.379627 0.909832 0.861420
0.587134 0.963681 0.926686
0.832482 0.992790 0.978464
0.996126 0.997739 0.991613
