example_ofxGpuLutCube/bin/data/ofxGpuLutCube/LUT/T11 (greenish fade).cube
LUT_3D_SIZE 16
0.019934 0.016541 0.016578
0.067048 0.018035 0.018051
0.115938 0.020297 0.019767
0.166143 0.022825 0.021563
0.218305 0.025716 0.023604
0.273479 0.029395 0.026201
0.329669 0.032857 0.028763
0.388627 0.037328 0.031740
0.449988 0.042771 0.035164
0.512170 0.047779 0.038384
0.574628 0.053386 0.041741
0.635953 0.058846 0.045386
0.696704 0.064022 0.049097
0.759262 0.068927 0.052491
0.822097 0.075206 0.056005
0.885869 0.080977 0.059647
0.021305 0.061714 0.017800
0.067343 0.062496 0.018128
0.116832 0.065081 0.019845
0.169933 0.069310 0.022052
0.225001 0.073789 0.024527
0.282685 0.078115 0.027438
0.343145 0.083826 0.030799
0.405051 0.089602 0.034229
0.467262 0.095126 0.037700
0.529395 0.101304 0.041342
0.591273 0.107700 0.045009
0.652054 0.112952 0.048597
0.711841 0.118607 0.052251
0.772930 0.124546 0.055589
0.835168 0.130524 0.059006
0.898489 0.135984 0.062616
0.023741 0.108350 0.019577
0.070014 0.109663 0.019950
0.119652 0.112042 0.020580
0.173257 0.116563 0.022851
0.230810 0.122400 0.025868
0.292022 0.129055 0.029590
0.354894 0.135465 0.033109
0.418436 0.142506 0.036915
0.481162 0.149734 0.041018
0.543437 0.156121 0.044775
0.605407 0.162754 0.048467
0.665123 0.169087 0.052178
0.723984 0.175035 0.055803
0.784742 0.180813 0.059132
0.847029 0.186671 0.062522
0.908969 0.193703 0.066745
0.026350 0.155384 0.021314
0.074135 0.158451 0.022132
0.124787 0.161951 0.022918
0.177406 0.165491 0.024100
0.235139 0.171779 0.027234
0.298114 0.179666 0.031505
0.362478 0.188333 0.035734
0.427101 0.196622 0.039920
0.490485 0.203818 0.044092
0.552953 0.212007 0.048507
0.614991 0.220606 0.052792
0.674774 0.227151 0.056516
0.733625 0.232859 0.060061
0.794388 0.240445 0.064018
0.856631 0.248395 0.068187
0.918181 0.254924 0.072197
0.028626 0.203493 0.023332
0.078477 0.208083 0.024601
0.130437 0.213684 0.026222
0.184963 0.218401 0.027620
0.240837 0.223260 0.029484
0.303400 0.232080 0.033855
0.368910 0.241538 0.038471
0.434212 0.251005 0.043189
0.497921 0.260407 0.048250
0.560816 0.269289 0.052910
0.623051 0.277758 0.057206
0.682998 0.285352 0.061429
0.742068 0.293332 0.066008
0.803162 0.301181 0.069775
0.865252 0.308895 0.073780
0.926534 0.315906 0.078147
0.031385 0.252967 0.026197
0.081722 0.259187 0.027986
0.136601 0.267230 0.030683
0.191887 0.273802 0.032789
0.250052 0.279725 0.034623
0.308667 0.285556 0.036695
0.373221 0.294814 0.041096
0.439404 0.306109 0.046665
0.503807 0.316519 0.052210
0.567128 0.326094 0.057210
0.629663 0.335986 0.062299
0.690271 0.344839 0.066978
0.749608 0.352814 0.071505
0.810599 0.360900 0.075570
0.872182 0.368916 0.080070
0.932671 0.377883 0.085440
0.034109 0.303182 0.029141
0.086294 0.311909 0.031876
0.142509 0.322414 0.035467
0.199328 0.330445 0.038227
0.259045 0.338418 0.041003
0.318064 0.344702 0.042869
0.379405 0.351586 0.045331
0.443523 0.361247 0.050209
0.508206 0.372319 0.056393
0.572751 0.383945 0.062213
0.635255 0.394514 0.067796
0.696098 0.403184 0.072360
0.756117 0.411414 0.076923
0.817195 0.420579 0.081645
0.878447 0.429202 0.086731
0.938479 0.438208 0.091785
0.037177 0.355196 0.032532
0.092159 0.367324 0.036505
0.148449 0.379406 0.040769
0.207537 0.389534 0.044618
0.267229 0.398387 0.048015
0.328252 0.406360 0.050978
0.388397 0.412509 0.052811
0.449023 0.418969 0.055392
0.512143 0.429097 0.061000
0.576900 0.440869 0.067189
0.640132 0.451860 0.073165
0.701479 0.461262 0.078258
0.761868 0.470334 0.083448
0.822871 0.479733 0.088285
0.884739 0.488543 0.092997
0.944023 0.497355 0.098574
0.041273 0.409910 0.037090
0.096837 0.424325 0.041667
0.155306 0.438109 0.047158
0.215283 0.450315 0.052034
0.275362 0.459477 0.055955
0.336492 0.468083 0.059797
0.397065 0.475252 0.062280
0.457242 0.480219 0.063576
0.517202 0.486510 0.066125
0.580456 0.496656 0.071414
0.643963 0.508071 0.078189
0.705793 0.518125 0.083974
0.766866 0.527914 0.089513
0.827726 0.537232 0.094506
0.890121 0.546849 0.099890
0.947764 0.556379 0.106674
0.046768 0.468159 0.042593
0.103470 0.484496 0.048011
0.163910 0.500180 0.054617
0.223782 0.512756 0.059831
0.285212 0.522592 0.064774
0.346049 0.530998 0.068788
0.406591 0.538116 0.071835
0.467170 0.543603 0.073744
0.526039 0.548207 0.074849
0.585773 0.554170 0.077005
0.647630 0.563708 0.082634
0.709358 0.573402 0.088525
0.770808 0.583426 0.094626
0.831533 0.593668 0.100752
0.893528 0.603699 0.107237
0.951228 0.614147 0.114104
0.053606 0.529686 0.048731
0.113381 0.548078 0.055614
0.173783 0.564803 0.062497
0.234208 0.576643 0.068213
0.295662 0.586876 0.073882
0.356383 0.595031 0.078277
0.416777 0.601084 0.081565
0.476746 0.606533 0.084182
0.535827 0.611147 0.085584
0.593892 0.615124 0.086307
0.652298 0.620328 0.088289
0.713027 0.628776 0.093451
0.774506 0.638961 0.100420
0.835125 0.649664 0.107171
0.896360 0.659674 0.114074
0.954674 0.670396 0.120752
0.062347 0.593839 0.056900
0.122916 0.612546 0.064189
0.183269 0.629233 0.071316
0.244642 0.640592 0.077807
0.305705 0.650575 0.083654
0.366617 0.658118 0.088595
0.426622 0.663796 0.092078
0.485709 0.668707 0.094923
0.544457 0.673065 0.096902
0.602435 0.677221 0.097959
0.659684 0.680858 0.098614
0.717702 0.685616 0.100458
0.778436 0.694888 0.106765
0.839056 0.705600 0.113552
0.900035 0.716033 0.120680
0.957108 0.726059 0.128203
0.072894 0.660486 0.066480
0.133024 0.678834 0.073662
0.194551 0.693930 0.081514
0.255425 0.705185 0.088204
0.315996 0.713953 0.093755
0.376723 0.720332 0.098834
0.435928 0.725760 0.102544
0.494280 0.729959 0.105126
0.552054 0.733526 0.107245
0.609870 0.737809 0.108921
0.667352 0.741718 0.109871
0.724468 0.745198 0.110585
0.782650 0.750620 0.112752
0.842566 0.760903 0.119341
0.902950 0.771735 0.127624
0.959595 0.782746 0.136565
0.083224 0.726719 0.075622
0.144048 0.744091 0.083293
0.205999 0.758105 0.091465
0.266425 0.769237 0.098264
0.326685 0.776251 0.103648
0.387006 0.782311 0.108742
0.445383 0.787166 0.112555
0.502647 0.790445 0.114969
0.559811 0.793595 0.117085
0.616962 0.797656 0.119301
0.674218 0.801956 0.121016
0.731352 0.805597 0.121931
0.788507 0.809804 0.123050
0.844972 0.815844 0.125635
0.904755 0.826408 0.133714
0.961471 0.838077 0.143100
0.096564 0.796676 0.085155
0.157882 0.809730 0.093413
0.219158 0.822905 0.101397
0.278934 0.832757 0.108147
0.337789 0.838235 0.113551
0.397485 0.844084 0.118740
0.455340 0.848306 0.122626
0.511448 0.851124 0.125224
0.567652 0.854065 0.127558
0.624025 0.857756 0.129865
0.680691 0.862302 0.132338
0.737296 0.866109 0.133988
0.793520 0.870038 0.135450
0.849627 0.875508 0.137532
0.906648 0.881840 0.140217
0.963064 0.893015 0.149258
0.110357 0.863697 0.096173
0.171051 0.876003 0.104238
0.231109 0.887517 0.111918
0.291669 0.895634 0.118913
0.349412 0.900641 0.124139
0.407906 0.906407 0.129578
0.465386 0.909681 0.133260
0.520793 0.912173 0.135809
0.575457 0.914445 0.138114
0.630508 0.917229 0.140214
0.686749 0.921316 0.142545
0.743255 0.925521 0.145167
0.798576 0.928045 0.147254
0.854830 0.933214 0.149437
0.911554 0.939125 0.151803
0.963402 0.942653 0.154243
0.021790 0.018235 0.062743
0.067120 0.018110 0.062527
0.115837 0.020011 0.063932
0.165705 0.022160 0.065434
0.216779 0.024509 0.067161
0.270793 0.027628 0.069415
0.324970 0.030496 0.071655
0.379256 0.033591 0.074005
0.437916 0.038001 0.076849
0.499126 0.042530 0.079804
0.558804 0.046353 0.082590
0.618667 0.051042 0.085838
0.679506 0.056127 0.089329
0.742396 0.060844 0.092542
0.806368 0.065111 0.095758
0.870899 0.070844 0.099279
0.021120 0.061848 0.061848
0.069927 0.064434 0.064011
0.120901 0.067773 0.066126
0.174750 0.071593 0.068645
0.229416 0.075534 0.071352
0.286689 0.080378 0.074529
0.346296 0.085380 0.077729
0.406907 0.090652 0.080994
0.468524 0.096371 0.084618
0.529660 0.102175 0.088572
0.590534 0.107587 0.092263
0.651133 0.113121 0.095633
0.710824 0.118913 0.099340
0.771342 0.124303 0.102806
0.833428 0.129950 0.106407
0.898119 0.136032 0.109818
0.023327 0.108309 0.063411
0.073948 0.113236 0.066620
0.124831 0.116152 0.067601
0.180424 0.121123 0.070446
0.239544 0.127483 0.074071
0.298733 0.133144 0.077576
0.360076 0.139011 0.081151
0.422431 0.145952 0.085064
0.484177 0.152173 0.088878
0.544952 0.157986 0.092827
0.604894 0.164069 0.096513
0.664482 0.169921 0.099753
0.723699 0.175487 0.103351
0.783805 0.180917 0.106928
0.845131 0.187705 0.111030
0.908644 0.194544 0.114718
0.025771 0.155378 0.065353
0.078564 0.164995 0.070630
0.130355 0.168746 0.071864
0.187190 0.173235 0.073385
0.246299 0.179596 0.076994
0.307731 0.187188 0.081426
0.370726 0.194574 0.085405
0.433855 0.201620 0.089271
0.496332 0.208482 0.093111
0.556679 0.215338 0.097275
0.616170 0.221596 0.101045
0.675743 0.227327 0.104198
0.734709 0.233290 0.107906
0.794213 0.239660 0.111923
0.855184 0.246051 0.115922
0.917985 0.252553 0.119391
0.027817 0.203611 0.067697
0.081841 0.215738 0.074076
0.136813 0.222561 0.076609
0.193758 0.228100 0.078306
0.252503 0.233699 0.080501
0.313490 0.241073 0.084666
0.377232 0.249302 0.089118
0.441089 0.258349 0.093787
0.503861 0.266241 0.097963
0.564658 0.273079 0.102099
0.624612 0.280273 0.106289
0.684923 0.287939 0.110125
0.744035 0.294508 0.114105
0.803303 0.300266 0.117813
0.864173 0.306632 0.121768
0.926555 0.314676 0.126281
0.030651 0.253496 0.070450
0.084543 0.268042 0.078098
0.140890 0.276607 0.081490
0.199603 0.285198 0.084830
0.259726 0.291775 0.087099
0.319714 0.297472 0.089396
0.382346 0.305789 0.093963
0.446538 0.315190 0.098912
0.510048 0.323567 0.103202
0.571271 0.331850 0.108031
0.631610 0.340289 0.112809
0.692341 0.347975 0.116484
0.751636 0.354659 0.120571
0.810881 0.361216 0.124874
0.872025 0.369143 0.129549
0.933915 0.377793 0.134139
0.032953 0.303949 0.073379
0.087287 0.321472 0.082528
0.144148 0.331939 0.086786
0.205015 0.343406 0.091856
0.265612 0.352186 0.095336
0.327030 0.358142 0.097425
0.387987 0.363782 0.099733
0.450925 0.372001 0.104133
0.514663 0.381481 0.109274
0.576659 0.390599 0.114346
0.637569 0.399205 0.119068
0.698164 0.407189 0.123279
0.758070 0.414980 0.128044
0.817678 0.422450 0.132709
0.878801 0.430296 0.137359
0.939889 0.438979 0.141892
0.035313 0.356375 0.076932
0.091043 0.376496 0.087247
0.150153 0.390579 0.093308
0.211400 0.402946 0.098938
0.272726 0.413086 0.103521
0.334698 0.420435 0.106731
0.395498 0.425585 0.108398
0.456498 0.431128 0.110521
0.518485 0.438785 0.114811
0.580577 0.447584 0.120020
0.642443 0.457125 0.125267
0.703152 0.466094 0.130400
0.763318 0.474288 0.135487
0.823633 0.481817 0.139723
0.884468 0.490064 0.144762
0.944318 0.499097 0.150368
0.039386 0.412134 0.081626
0.095842 0.434442 0.092872
0.156717 0.450535 0.100136
0.218028 0.464359 0.106635
0.280900 0.475545 0.112479
0.342427 0.483669 0.116705
0.404019 0.489453 0.119331
0.464385 0.493940 0.120589
0.523786 0.498121 0.122167
0.584645 0.505317 0.126547
0.646331 0.514791 0.132279
0.707384 0.523775 0.137320
0.768025 0.532194 0.142300
0.828858 0.540142 0.147111
0.889339 0.549030 0.153118
0.947603 0.558896 0.159314
0.044240 0.470394 0.087102
0.102532 0.496037 0.100185
0.163362 0.512211 0.107633
0.226091 0.527282 0.115565
0.289284 0.539506 0.122370
0.350707 0.547233 0.126907
0.412572 0.552877 0.130571
0.473079 0.557865 0.132578
0.531566 0.560777 0.133025
0.589896 0.564425 0.134378
0.650243 0.572083 0.138977
0.711231 0.580834 0.144367
0.772041 0.589429 0.150043
0.833437 0.598240 0.155696
0.894155 0.607224 0.162029
0.951372 0.617841 0.168072
0.049242 0.530234 0.093009
0.110178 0.558906 0.108015
0.171692 0.575871 0.116171
0.235677 0.591150 0.125058
0.298365 0.603399 0.132288
0.360088 0.610252 0.137041
0.421480 0.615466 0.141065
0.481493 0.620236 0.143770
0.540054 0.623409 0.144633
0.597226 0.625579 0.144695
0.655047 0.629692 0.146214
0.715284 0.637530 0.151228
0.775978 0.646275 0.157816
0.837294 0.655212 0.163901
0.898535 0.664714 0.170492
0.955150 0.675589 0.177057
0.057337 0.593646 0.100990
0.119954 0.624341 0.117064
0.182471 0.640410 0.126022
0.246220 0.655264 0.134919
0.308698 0.666770 0.142324
0.370182 0.673084 0.147466
0.430944 0.677913 0.151511
0.490206 0.681921 0.154563
0.548410 0.685308 0.156281
0.605557 0.687772 0.156816
0.662329 0.690389 0.157172
0.720023 0.694701 0.158861
0.779984 0.702546 0.164619
0.841118 0.711437 0.170893
0.902053 0.721268 0.178090
0.957438 0.731732 0.185867
0.067917 0.660485 0.110513
0.131016 0.689796 0.127489
0.193393 0.704839 0.136503
0.256158 0.718611 0.145007
0.319475 0.729152 0.152857
0.380229 0.735465 0.158252
0.440404 0.740246 0.162627
0.499319 0.743592 0.165705
0.556710 0.746824 0.167942
0.613535 0.749603 0.169410
0.669952 0.752066 0.169991
0.726720 0.755094 0.170535
0.784197 0.759387 0.172307
0.844167 0.767322 0.178191
0.904737 0.777377 0.185878
0.959868 0.788811 0.194687
0.076854 0.725420 0.119285
0.143662 0.755369 0.139074
0.205538 0.769780 0.147891
0.267552 0.781520 0.156018
0.330680 0.791211 0.163893
0.390620 0.796936 0.169095
0.449966 0.801346 0.173628
0.508392 0.804622 0.176963
0.565253 0.807627 0.179267
0.620994 0.810200 0.181203
0.676934 0.812939 0.182609
0.733751 0.816122 0.183419
0.790157 0.819711 0.184619
0.847133 0.824123 0.186774
0.907304 0.834007 0.194113
0.962505 0.846059 0.203264
0.087534 0.793126 0.129072
0.158287 0.822552 0.151618
0.219754 0.836151 0.160292
0.281625 0.845634 0.168232
0.342383 0.853754 0.175220
0.401454 0.858655 0.179991
0.460023 0.862493 0.184291
0.517469 0.865915 0.187897
0.573409 0.868707 0.190302
0.628449 0.871078 0.192140
0.683548 0.873579 0.193947
0.739349 0.876816 0.195779
0.795563 0.880546 0.197413
0.852443 0.884541 0.199061
0.909441 0.889876 0.201521
0.963602 0.898285 0.209551
0.101395 0.860229 0.140098
0.173028 0.889418 0.162531
0.233409 0.899135 0.170899
0.294856 0.908312 0.178679
0.354466 0.915710 0.185427
0.411569 0.919112 0.189890
0.469504 0.922530 0.194005
0.526314 0.925618 0.197540
0.581049 0.927928 0.199986
0.635242 0.929976 0.201797
0.689952 0.932054 0.203483
0.745420 0.935059 0.206005
0.800989 0.937558 0.208394
0.858076 0.941297 0.210218
0.911768 0.944675 0.212256
0.963892 0.948115 0.214750
0.023951 0.020379 0.109460
0.069127 0.019971 0.109160
0.116026 0.020107 0.108834
0.165242 0.021854 0.110038
0.215785 0.024038 0.111618
0.267732 0.026586 0.113725
0.319737 0.029022 0.115683
0.373354 0.031969 0.117816
0.428991 0.035597 0.120330
0.485765 0.039059 0.122826
0.543865 0.042533 0.125396
0.603733 0.047194 0.128523
0.663585 0.051886 0.131890
0.725696 0.055948 0.134867
0.789736 0.060158 0.137959
0.854810 0.065957 0.141476
0.023118 0.063942 0.108466
0.072551 0.067173 0.111085
0.120519 0.067656 0.111184
0.173208 0.070705 0.113071
0.226065 0.073763 0.115348
0.281520 0.077732 0.118089
0.338958 0.082230 0.120913
0.396639 0.086162 0.123717
0.456115 0.090695 0.126885
0.515907 0.096195 0.130423
0.575845 0.101276 0.133781
0.636358 0.105486 0.136869
0.696504 0.110707 0.140333
0.757244 0.116219 0.143681
0.819798 0.121672 0.147111
0.885909 0.126605 0.150355
0.022700 0.108497 0.108197
0.072887 0.113231 0.111676
0.127458 0.119360 0.116038
0.182316 0.124387 0.119383
0.240275 0.129306 0.122286
0.298829 0.134795 0.125753
0.359013 0.141203 0.129753
0.419823 0.147284 0.133550
0.480764 0.153061 0.137288
0.541499 0.159094 0.141260
0.601079 0.164812 0.144915
0.660065 0.170227 0.148443
0.719721 0.175503 0.151741
0.780634 0.181850 0.155497
0.842843 0.187778 0.159231
0.907330 0.194039 0.163439
0.024405 0.155289 0.109897
0.076646 0.164463 0.115234
0.132581 0.172958 0.121426
0.189328 0.178103 0.123865
0.248724 0.184798 0.127523
0.309987 0.191989 0.131557
0.371250 0.198446 0.135436
0.432498 0.205210 0.139583
0.493750 0.211829 0.143406
0.554220 0.217798 0.147039
0.613510 0.223329 0.150624
0.672360 0.229363 0.154540
0.731540 0.235379 0.158078
0.791996 0.241367 0.161641
0.853887 0.247012 0.165306
0.917534 0.253309 0.169393
0.026410 0.203738 0.112177
0.079067 0.215045 0.118876
0.136898 0.229403 0.128149
0.195120 0.235629 0.131033
0.255766 0.241466 0.133348
0.316947 0.248432 0.137292
0.379323 0.256130 0.141739
0.441645 0.263568 0.145714
0.503317 0.270414 0.149472
0.564177 0.276774 0.153108
0.623623 0.282755 0.156622
0.682414 0.288888 0.160459
0.741539 0.294731 0.163950
0.801714 0.300413 0.167442
0.862990 0.307035 0.171614
0.926098 0.315083 0.176737
0.028300 0.253197 0.114885
0.081516 0.267412 0.122933
0.140110 0.284573 0.133814
0.200470 0.294192 0.138528
0.261401 0.300879 0.141124
0.323071 0.306879 0.144044
0.384739 0.313782 0.148044
0.447612 0.321236 0.151900
0.510106 0.329329 0.156008
0.571323 0.337028 0.160276
0.631051 0.342928 0.163634
0.690316 0.348881 0.167193
0.750051 0.355405 0.170898
0.810344 0.362543 0.175388
0.871144 0.369306 0.179494
0.933973 0.377120 0.184173
0.030454 0.304101 0.117865
0.084282 0.321255 0.127375
0.142917 0.340658 0.139331
0.204049 0.352642 0.145558
0.266855 0.362509 0.150416
0.329772 0.369194 0.153420
0.390761 0.373722 0.155402
0.452556 0.380157 0.159135
0.515080 0.388532 0.163455
0.576917 0.396332 0.167499
0.637190 0.402879 0.171178
0.696816 0.409731 0.175415
0.756928 0.417111 0.179472
0.817392 0.424159 0.183657
0.878066 0.430679 0.187724
0.940494 0.439195 0.192728
0.033072 0.357207 0.121510
0.087299 0.376328 0.132219
0.146224 0.398162 0.144829
0.208106 0.411354 0.151951
0.273361 0.424789 0.159476
0.336851 0.433735 0.164037
0.398175 0.437544 0.165630
0.458420 0.440700 0.167261
0.519692 0.447077 0.170712
0.581667 0.455138 0.175447
0.642582 0.462952 0.179902
0.702817 0.470375 0.184089
0.762714 0.477589 0.188170
0.823581 0.484869 0.192497
0.883887 0.492001 0.197110
0.945653 0.501132 0.203168
0.036265 0.412446 0.126383
0.091350 0.433940 0.137943
0.151325 0.457912 0.151224
0.214863 0.473077 0.159943
0.280459 0.486888 0.168122
0.344697 0.497511 0.174429
0.406657 0.501967 0.177041
0.466494 0.504381 0.177965
0.525688 0.507429 0.179193
0.586236 0.513969 0.183526
0.646949 0.521414 0.188101
0.707541 0.528801 0.191884
0.767733 0.536668 0.196684
0.828924 0.544672 0.202124
0.889388 0.552654 0.207113
0.949863 0.561898 0.213187
0.040164 0.470185 0.131881
0.097933 0.495346 0.145120
0.158572 0.519909 0.159178
0.222948 0.536258 0.169014
0.288080 0.549889 0.177444
0.353471 0.560894 0.185005
0.415441 0.566263 0.189016
0.475602 0.569236 0.190761
0.533921 0.570730 0.191020
0.591744 0.573566 0.192211
0.651071 0.579086 0.195608
0.711268 0.586034 0.199936
0.771926 0.594422 0.205393
0.833684 0.603308 0.211422
0.894686 0.611650 0.216441
0.953476 0.621382 0.222532
0.044805 0.530058 0.137539
0.104779 0.557214 0.152510
0.167070 0.582503 0.168230
0.231156 0.598760 0.178233
0.296395 0.612524 0.187432
0.362568 0.623658 0.195804
0.424091 0.629137 0.200392
0.484390 0.632362 0.203272
0.543269 0.634633 0.204388
0.600107 0.636364 0.204440
0.656511 0.638378 0.205090
0.715402 0.643862 0.208830
0.775940 0.651907 0.214274
0.837786 0.660946 0.220392
0.898963 0.669969 0.225984
0.956481 0.679501 0.232637
0.052075 0.592537 0.144935
0.112077 0.619645 0.160317
0.177039 0.646291 0.178414
0.240953 0.662008 0.188425
0.306811 0.675209 0.198208
0.371934 0.686207 0.206669
0.433073 0.691312 0.211272
0.493234 0.694524 0.214882
0.552252 0.697556 0.217208
0.609277 0.699804 0.217895
0.664577 0.700706 0.217706
0.720575 0.702691 0.218400
0.780239 0.709746 0.223138
0.841692 0.718075 0.229250
0.901927 0.727432 0.236066
0.959098 0.737370 0.243481
0.060287 0.656017 0.153311
0.122170 0.683853 0.170107
0.187571 0.710263 0.188686
0.252032 0.724859 0.199043
0.317739 0.737521 0.208832
0.381686 0.748029 0.217180
0.442355 0.752831 0.221977
0.502103 0.755943 0.225712
0.560408 0.758779 0.228685
0.617153 0.761272 0.230293
0.672720 0.762729 0.230584
0.727747 0.763526 0.230345
0.784114 0.766955 0.231934
0.844767 0.774504 0.237601
0.904778 0.784211 0.245026
0.962034 0.795727 0.253670
0.068025 0.719126 0.161419
0.134803 0.749363 0.181494
0.200820 0.775440 0.200474
0.264278 0.787387 0.210360
0.328908 0.799213 0.219665
0.392133 0.808895 0.227784
0.452089 0.813578 0.232851
0.511071 0.816893 0.236747
0.568790 0.819552 0.239779
0.624790 0.821933 0.241946
0.680443 0.824271 0.243362
0.735240 0.825268 0.243600
0.790682 0.827593 0.244455
0.847950 0.831768 0.246503
0.907487 0.841196 0.253546
0.964093 0.851203 0.261761
0.078664 0.787073 0.171356
0.149352 0.816574 0.193996
0.215684 0.841384 0.213491
0.277984 0.852262 0.222833
0.339776 0.861340 0.230741
0.403146 0.869891 0.238713
0.462616 0.874778 0.243941
0.520439 0.878220 0.247979
0.577381 0.880493 0.250952
0.633135 0.882399 0.253081
0.688162 0.884319 0.254863
0.742440 0.885691 0.256147
0.797828 0.887911 0.257199
0.854785 0.891520 0.258704
0.909148 0.894597 0.260740
0.964899 0.902792 0.268085
0.092542 0.856106 0.183375
0.162979 0.884817 0.206277
0.234033 0.908280 0.227630
0.295953 0.918727 0.236781
0.355866 0.924930 0.243721
0.415255 0.929081 0.249887
0.473913 0.933206 0.254844
0.530786 0.936274 0.258482
0.586223 0.938485 0.261109
0.641102 0.940574 0.263254
0.695385 0.942536 0.264964
0.749517 0.944311 0.266538
0.804545 0.946072 0.268363
0.859599 0.948717 0.270060
0.912481 0.950829 0.271756
0.965365 0.953690 0.273973
0.026197 0.022771 0.156836
0.071725 0.022213 0.156639
0.119766 0.022326 0.156567
0.166577 0.022343 0.155652
0.216578 0.024139 0.156981
0.268654 0.026659 0.158844
0.320832 0.029055 0.160736
0.373284 0.031616 0.162728
0.426883 0.034685 0.164960
0.482182 0.037808 0.167199
0.537966 0.040823 0.169540
0.595211 0.044680 0.172295
0.653470 0.048889 0.175281
0.714370 0.052621 0.178032
0.777089 0.056347 0.180813
0.842507 0.061758 0.184545
0.025268 0.066834 0.156195
0.075124 0.070581 0.160082
0.122642 0.070547 0.160149
0.171971 0.070344 0.158946
0.223663 0.072642 0.160346
0.277389 0.076012 0.162881
0.332525 0.079673 0.165415
0.387868 0.083115 0.167787
0.445709 0.087374 0.170538
0.504445 0.092516 0.173918
0.562668 0.097068 0.177020
0.621718 0.100928 0.179674
0.681647 0.106012 0.182954
0.743066 0.111376 0.186364
0.806556 0.116605 0.190022
0.873064 0.121421 0.193317
0.024664 0.111286 0.155813
0.074531 0.116273 0.160265
0.129046 0.123195 0.165688
0.180115 0.124294 0.165885
0.236072 0.127634 0.167884
0.292304 0.131854 0.170723
0.351438 0.137406 0.174084
0.410861 0.143107 0.177530
0.469572 0.148059 0.180747
0.529487 0.153221 0.184178
0.589326 0.158637 0.187551
0.647977 0.164033 0.190974
0.707992 0.168971 0.194128
0.770007 0.174067 0.197481
0.832654 0.179596 0.200877
0.897249 0.185896 0.204923
0.024321 0.156815 0.155988
0.073265 0.163209 0.160673
0.129299 0.172475 0.167770
0.189215 0.182903 0.176129
0.247241 0.188771 0.179818
0.307422 0.194379 0.182824
0.367864 0.200464 0.186336
0.428676 0.207106 0.190400
0.489281 0.213078 0.193860
0.549228 0.218695 0.197195
0.608631 0.224475 0.200726
0.668005 0.231008 0.205103
0.727961 0.236491 0.208095
0.789129 0.242383 0.211698
0.851768 0.247452 0.214732
0.915610 0.254324 0.218830
0.025531 0.205292 0.158387
0.075063 0.213395 0.163599
0.131958 0.227344 0.173362
0.193622 0.240364 0.183623
0.254677 0.247634 0.187798
0.316111 0.254722 0.191708
0.377809 0.261663 0.195382
0.439495 0.267736 0.198654
0.500309 0.274097 0.202264
0.560631 0.280605 0.205951
0.620154 0.286428 0.209152
0.679343 0.292217 0.212945
0.739138 0.297770 0.216076
0.800180 0.304032 0.220035
0.862264 0.310733 0.223925
0.925580 0.317746 0.228082
0.027316 0.255329 0.160915
0.077407 0.265832 0.167571
0.134649 0.282488 0.179138
0.196944 0.300109 0.191642
0.259421 0.308199 0.196505
0.322705 0.314895 0.200240
0.384571 0.321421 0.203852
0.447117 0.328363 0.207338
0.508845 0.335275 0.210596
0.569461 0.341714 0.213952
0.629265 0.347384 0.217003
0.688662 0.352833 0.220483
0.748197 0.359037 0.223985
0.809202 0.365778 0.228240
0.870792 0.371829 0.231448
0.933282 0.378570 0.235493
0.029221 0.306545 0.164127
0.079842 0.319485 0.172184
0.137921 0.339062 0.184845
0.200312 0.359180 0.198678
0.264590 0.370221 0.205574
0.328361 0.377327 0.209516
0.391551 0.383231 0.213036
0.453467 0.389496 0.216504
0.515113 0.395632 0.219281
0.576149 0.401936 0.222325
0.636558 0.408617 0.225901
0.696406 0.415024 0.229974
0.755750 0.420619 0.232842
0.817100 0.426987 0.236448
0.878461 0.433457 0.240298
0.939353 0.440640 0.244847
0.031494 0.360112 0.168450
0.082801 0.374612 0.177071
0.141285 0.396449 0.190324
0.204433 0.418074 0.205121
0.269657 0.432306 0.214121
0.334889 0.441831 0.220000
0.399369 0.447991 0.223923
0.459980 0.451164 0.225768
