example_ofxGpuLutCube/bin/data/ofxGpuLutCube/LUT/T12 (greenish fade_1).cube
LUT_3D_SIZE 16
0.033076 0.000104 0.045338
0.063890 0.001153 0.045846
0.100883 0.002372 0.046417
0.147087 0.003703 0.047025
0.206090 0.005190 0.047753
0.279070 0.006829 0.048538
0.365092 0.008645 0.049395
0.460770 0.010584 0.050310
0.554038 0.012632 0.051311
0.632923 0.014751 0.052296
0.699160 0.016927 0.053343
0.756513 0.019162 0.054396
0.808008 0.021443 0.055495
0.856225 0.023823 0.056567
0.903936 0.026261 0.057746
0.955105 0.028808 0.058940
0.034471 0.031814 0.042259
0.065531 0.033151 0.042833
0.102909 0.034632 0.043521
0.149627 0.036266 0.044219
0.209239 0.038052 0.045027
0.282850 0.039982 0.045882
0.369178 0.042088 0.046813
0.464826 0.044328 0.047826
0.557323 0.046706 0.048876
0.635392 0.049138 0.049933
0.700985 0.051634 0.051035
0.757851 0.054212 0.052162
0.808990 0.056821 0.053275
0.856865 0.059535 0.054438
0.904263 0.062344 0.055618
0.955123 0.065277 0.056839
0.036118 0.068787 0.038691
0.067488 0.070521 0.039377
0.105324 0.072400 0.040066
0.152630 0.074424 0.040852
0.212917 0.076621 0.041731
0.287030 0.078998 0.042653
0.373720 0.081554 0.043668
0.469295 0.084281 0.044704
0.560850 0.087166 0.045817
0.638028 0.090065 0.046899
0.702891 0.093059 0.048034
0.759229 0.096144 0.049128
0.810008 0.099335 0.050295
0.857554 0.102597 0.051445
0.904641 0.105948 0.052626
0.955147 0.109506 0.053865
0.038086 0.114531 0.034177
0.069790 0.116774 0.034893
0.108059 0.119198 0.035658
0.155947 0.121839 0.036504
0.216957 0.124643 0.037393
0.291711 0.127667 0.038351
0.378693 0.130878 0.039362
0.474108 0.134344 0.040428
0.564615 0.137914 0.041520
0.640804 0.141574 0.042614
0.704953 0.145305 0.043710
0.760743 0.149139 0.044801
0.811031 0.153083 0.045945
0.858242 0.157092 0.047096
0.904989 0.161277 0.048208
0.955172 0.165571 0.049410
0.040347 0.173740 0.028102
0.072409 0.176728 0.028843
0.111170 0.179916 0.029623
0.159751 0.183308 0.030440
0.221513 0.186990 0.031346
0.296880 0.190899 0.032293
0.384134 0.195073 0.033286
0.479339 0.199429 0.034325
0.568650 0.203949 0.035363
0.643754 0.208541 0.036417
0.707131 0.213175 0.037485
0.762351 0.217932 0.038556
0.812160 0.222799 0.039615
0.858993 0.227750 0.040695
0.905419 0.232819 0.041785
0.955208 0.237989 0.042882
0.042948 0.250655 0.019887
0.075408 0.254515 0.020637
0.114671 0.258503 0.021424
0.164017 0.262785 0.022245
0.226603 0.267324 0.023127
0.302547 0.272076 0.024054
0.390049 0.277073 0.025018
0.484900 0.282289 0.026014
0.572853 0.287677 0.027049
0.646869 0.293143 0.028082
0.709416 0.298570 0.029104
0.763984 0.304061 0.030132
0.813335 0.309607 0.031163
0.859783 0.315172 0.032200
0.905790 0.320812 0.033232
0.955246 0.326593 0.034270
0.045865 0.345571 0.009502
0.078724 0.349987 0.010274
0.118596 0.354673 0.011091
0.168758 0.359560 0.011914
0.232149 0.364689 0.012819
0.308653 0.370042 0.013747
0.396387 0.375608 0.014739
0.490669 0.381343 0.015776
0.577249 0.387197 0.016816
0.650090 0.393013 0.017874
0.711741 0.398789 0.018888
0.765685 0.404563 0.019928
0.814532 0.410306 0.020964
0.860587 0.416130 0.022024
0.906267 0.421882 0.023090
0.955292 0.427663 0.024180
0.049099 0.454743 0.000050
0.082407 0.459449 0.000437
0.122831 0.464238 0.000908
0.173880 0.469235 0.001413
0.238073 0.474410 0.001889
0.315135 0.479823 0.002384
0.403047 0.485301 0.003152
0.496591 0.490862 0.004313
0.581722 0.496295 0.005464
0.653322 0.501682 0.006587
0.714124 0.506965 0.007730
0.767400 0.512131 0.008886
0.815761 0.517253 0.010039
0.861375 0.522358 0.011213
0.906684 0.527332 0.012408
0.955339 0.532214 0.013606
0.052580 0.564629 0.000000
0.086284 0.568483 0.000000
0.127421 0.572277 0.000000
0.179284 0.576228 0.000000
0.244297 0.580269 0.000000
0.321844 0.584417 0.000000
0.409822 0.588585 0.000000
0.502547 0.592702 0.000000
0.586195 0.596795 0.000000
0.656536 0.600779 0.000000
0.716456 0.604601 0.000371
0.769093 0.608401 0.000926
0.816946 0.612140 0.001480
0.862151 0.615833 0.002635
0.907111 0.619457 0.003886
0.955380 0.622974 0.005160
0.056153 0.655799 0.000000
0.090360 0.658515 0.000000
0.132116 0.661337 0.000000
0.184856 0.664154 0.000000
0.250588 0.667009 0.000000
0.328614 0.669978 0.000000
0.416538 0.672911 0.000000
0.508353 0.675848 0.000000
0.590488 0.678744 0.000000
0.659636 0.681542 0.000000
0.718725 0.684334 0.000000
0.770720 0.687018 0.000000
0.818074 0.689654 0.000000
0.862896 0.692226 0.000000
0.907509 0.694754 0.000000
0.955421 0.697231 0.000319
0.059830 0.729882 0.000000
0.094443 0.731828 0.000000
0.136925 0.733854 0.000000
0.190465 0.735876 0.000000
0.256915 0.737939 0.000000
0.335303 0.740042 0.000000
0.423146 0.742134 0.000000
0.514017 0.744251 0.000000
0.594630 0.746270 0.000000
0.662654 0.748287 0.000000
0.720905 0.750239 0.000000
0.772291 0.752129 0.000000
0.819182 0.753995 0.000000
0.863602 0.755804 0.000000
0.907924 0.757592 0.000000
0.955446 0.759328 0.000000
0.063493 0.792386 0.000000
0.098635 0.793778 0.000000
0.141811 0.795228 0.000000
0.196171 0.796676 0.000000
0.263254 0.798147 0.000000
0.341932 0.799617 0.000000
0.429646 0.801107 0.000000
0.519436 0.802614 0.000000
0.598628 0.804041 0.000000
0.665559 0.805447 0.000000
0.723005 0.806811 0.000000
0.773828 0.808142 0.000000
0.820212 0.809456 0.000000
0.864292 0.810722 0.000000
0.908263 0.811985 0.000000
0.955470 0.813174 0.000000
0.067293 0.847405 0.000000
0.102866 0.848378 0.000000
0.146763 0.849392 0.000000
0.201948 0.850383 0.000000
0.269598 0.851401 0.000000
0.348496 0.852408 0.000000
0.435996 0.853462 0.000000
0.524712 0.854471 0.000000
0.602482 0.855460 0.000000
0.668361 0.856415 0.000000
0.725011 0.857350 0.000000
0.775263 0.858247 0.000000
0.821235 0.859124 0.000000
0.864969 0.859968 0.000000
0.908584 0.860811 0.000000
0.955488 0.861621 0.000000
0.071084 0.898051 0.000000
0.107200 0.898685 0.000000
0.151737 0.899331 0.000000
0.207716 0.899972 0.000000
0.275922 0.900636 0.000000
0.354922 0.901265 0.000000
0.442193 0.901938 0.000000
0.529689 0.902584 0.000000
0.606186 0.903202 0.000000
0.671026 0.903806 0.000000
0.726952 0.904403 0.000000
0.776632 0.904974 0.000000
0.822191 0.905541 0.000000
0.865561 0.906050 0.000000
0.908904 0.906563 0.000000
0.955505 0.907068 0.000000
0.074973 0.947418 0.000000
0.111593 0.947731 0.000000
0.156770 0.948095 0.000000
0.213461 0.948412 0.000000
0.282118 0.948741 0.000000
0.361310 0.949057 0.000000
0.448174 0.949429 0.000000
0.534520 0.949783 0.000000
0.609710 0.950081 0.000000
0.673572 0.950369 0.000000
0.728772 0.950654 0.000000
0.777940 0.950946 0.000000
0.823083 0.951225 0.000000
0.866119 0.951495 0.000000
0.909196 0.951742 0.000000
0.955522 0.951975 0.000000
0.078906 0.999731 0.000000
0.116005 0.999732 0.000000
0.161851 0.999734 0.000000
0.219231 0.999735 0.000000
0.288271 0.999737 0.000000
0.367511 0.999739 0.000000
0.453974 0.999740 0.000000
0.539101 0.999742 0.000000
0.613104 0.999743 0.000000
0.675974 0.999745 0.000000
0.730501 0.999746 0.000000
0.779180 0.999747 0.000000
0.823966 0.999749 0.000000
0.866666 0.999750 0.000000
0.909473 0.999751 0.000000
0.955540 0.999752 0.000000
0.033303 0.000484 0.077972
0.064183 0.001593 0.078580
0.101244 0.002823 0.079231
0.147527 0.004194 0.079984
0.206635 0.005717 0.080792
0.279748 0.007411 0.081679
0.365813 0.009253 0.082666
0.461481 0.011249 0.083741
0.554638 0.013324 0.084861
0.633380 0.015488 0.086013
0.699485 0.017688 0.087191
0.756732 0.019936 0.088446
0.808181 0.022286 0.089651
0.856382 0.024664 0.090952
0.903976 0.027184 0.092272
0.955111 0.029711 0.093676
0.034728 0.032320 0.075040
0.065884 0.033693 0.075737
0.103333 0.035228 0.076488
0.150199 0.036871 0.077357
0.209906 0.038700 0.078273
0.283573 0.040650 0.079239
0.369990 0.042827 0.080335
0.465647 0.045114 0.081500
0.557962 0.047529 0.082688
0.635856 0.049984 0.083919
0.701330 0.052526 0.085189
0.758092 0.055126 0.086465
0.809156 0.057784 0.087761
0.856981 0.060508 0.089121
0.904333 0.063323 0.090484
0.955127 0.066350 0.091885
0.036466 0.069431 0.071618
0.067900 0.071198 0.072409
0.105770 0.073115 0.073251
0.153186 0.075191 0.074168
0.213587 0.077438 0.075191
0.287873 0.079856 0.076250
0.374608 0.082462 0.077392
0.470149 0.085224 0.078619
0.561516 0.088122 0.079867
0.638488 0.091082 0.081147
0.703275 0.094129 0.082429
0.759534 0.097278 0.083737
0.810186 0.100461 0.085084
0.857665 0.103812 0.086417
0.904686 0.107172 0.087801
0.955150 0.110744 0.089222
0.038488 0.115342 0.067289
0.070265 0.117650 0.068137
0.108586 0.120120 0.069040
0.156610 0.122778 0.070034
0.217748 0.125684 0.071058
0.292634 0.128773 0.072149
0.379640 0.132042 0.073327
0.475052 0.135528 0.074583
0.565321 0.139158 0.075859
0.641331 0.142862 0.077136
0.705328 0.146664 0.078431
0.761018 0.150504 0.079722
0.811233 0.154491 0.081075
0.858394 0.158582 0.082355
0.905083 0.162783 0.083733
0.955176 0.167168 0.085100
0.040805 0.174820 0.061390
0.072917 0.177886 0.062263
0.111778 0.181122 0.063202
0.160489 0.184595 0.064181
0.222352 0.188323 0.065218
0.297843 0.192320 0.066315
0.385140 0.196510 0.067480
0.480307 0.200933 0.068715
0.569372 0.205521 0.069988
0.644328 0.210145 0.071211
0.707517 0.214849 0.072486
0.762602 0.219597 0.073744
0.812373 0.224557 0.075011
0.859139 0.229577 0.076303
0.905468 0.234672 0.077589
0.955212 0.239900 0.078916
0.043440 0.252060 0.053380
0.075942 0.255933 0.054275
0.115328 0.260027 0.055183
0.164823 0.264347 0.056188
0.227516 0.268937 0.057222
0.303576 0.273766 0.058331
0.391119 0.278804 0.059489
0.485887 0.284099 0.060722
0.573609 0.289535 0.061913
0.647442 0.295026 0.063155
0.709805 0.300514 0.064364
0.764256 0.306032 0.065602
0.813534 0.311608 0.066847
0.859914 0.317211 0.068130
0.905877 0.322850 0.069402
0.955250 0.328647 0.070673
0.046395 0.347171 0.043252
0.079313 0.351718 0.044137
0.119287 0.356407 0.045103
0.169604 0.361313 0.046123
0.233122 0.366514 0.047208
0.309737 0.371915 0.048340
0.397512 0.377526 0.049537
0.491675 0.383326 0.050747
0.578041 0.389192 0.051997
0.650645 0.395039 0.053259
0.712170 0.400839 0.054496
0.765972 0.406611 0.055754
0.814747 0.412379 0.057028
0.860714 0.418209 0.058284
0.906336 0.423956 0.059579
0.955297 0.429793 0.060883
0.049665 0.456424 0.031426
0.083020 0.461150 0.032423
0.123623 0.466007 0.033483
0.174764 0.471023 0.034569
0.239118 0.476283 0.035752
0.316232 0.481654 0.036990
0.404202 0.487182 0.038264
0.497609 0.492702 0.039617
0.582510 0.498183 0.040990
0.653902 0.503564 0.042352
0.714522 0.508816 0.043730
0.767691 0.513987 0.045110
0.815966 0.519099 0.046477
0.861526 0.524196 0.047898
0.906750 0.529134 0.049315
0.955346 0.534019 0.050752
0.053168 0.565987 0.020513
0.086971 0.569809 0.021630
0.128169 0.573672 0.022744
0.180214 0.577649 0.023949
0.245385 0.581703 0.025276
0.323005 0.585824 0.026640
0.410974 0.589986 0.028086
0.503564 0.594100 0.029654
0.586956 0.598160 0.031259
0.657098 0.602132 0.032861
0.716868 0.606001 0.034446
0.769389 0.609778 0.036037
0.817130 0.613467 0.037618
0.862279 0.617151 0.039232
0.907169 0.620725 0.040831
0.955385 0.624255 0.042437
0.056776 0.656777 0.013395
0.091041 0.659525 0.014637
0.132936 0.662304 0.015896
0.185808 0.665151 0.017189
0.251671 0.668024 0.018503
0.329755 0.670961 0.019875
0.417699 0.673915 0.021264
0.509351 0.676842 0.022746
0.591209 0.679728 0.024362
0.660186 0.682530 0.025998
0.719129 0.685278 0.027636
0.771007 0.687976 0.029309
0.818280 0.690575 0.031059
0.863029 0.693157 0.032789
0.907579 0.695661 0.034543
0.955423 0.698107 0.036274
0.060424 0.730559 0.008154
0.095164 0.732562 0.009550
0.137752 0.734536 0.010939
0.191430 0.736570 0.012369
0.257956 0.738621 0.013806
0.336435 0.740745 0.015260
0.424301 0.742826 0.016749
0.514972 0.744925 0.018239
0.595340 0.746969 0.019739
0.663171 0.748972 0.021306
0.721277 0.750918 0.022996
0.772579 0.752799 0.024666
0.819371 0.754650 0.026382
0.863755 0.756434 0.028057
0.907973 0.758211 0.029838
0.955448 0.759936 0.031655
0.064141 0.792878 0.004202
0.099322 0.794262 0.005708
0.142648 0.795713 0.007211
0.197150 0.797149 0.008731
0.264368 0.798651 0.010246
0.343094 0.800127 0.011816
0.430764 0.801620 0.013368
0.520394 0.803091 0.014951
0.599312 0.804535 0.016506
0.666084 0.805929 0.018085
0.723378 0.807288 0.019656
0.774071 0.808612 0.021293
0.820426 0.809908 0.022969
0.864421 0.811162 0.024636
0.908330 0.812417 0.026336
0.955474 0.813593 0.028004
0.067905 0.847732 0.001405
0.103604 0.848711 0.002716
0.147595 0.849701 0.004311
0.202901 0.850734 0.005893
0.270686 0.851728 0.007493
0.349591 0.852760 0.009106
0.437093 0.853777 0.010718
0.525607 0.854794 0.012341
0.603142 0.855766 0.013944
0.668855 0.856738 0.015556
0.725368 0.857645 0.017139
0.775516 0.858564 0.018712
0.821407 0.859433 0.020317
0.865068 0.860272 0.021901
0.908647 0.861108 0.023548
0.955489 0.861894 0.025155
0.071748 0.898275 0.001058
0.107932 0.898905 0.001178
0.152581 0.899527 0.001917
0.208695 0.900207 0.003550
0.276971 0.900871 0.005196
0.356051 0.901494 0.006846
0.443257 0.902163 0.008481
0.530580 0.902792 0.010136
0.606805 0.903424 0.011759
0.671469 0.904031 0.013385
0.727269 0.904597 0.014961
0.776887 0.905154 0.016533
0.822353 0.905708 0.018062
0.865662 0.906229 0.019567
0.908946 0.906753 0.021073
0.955506 0.907229 0.022585
0.075634 0.947545 0.000913
0.112325 0.947882 0.001034
0.157636 0.948215 0.001154
0.214466 0.948531 0.001454
0.283184 0.948859 0.003030
0.362369 0.949192 0.004666
0.449252 0.949560 0.006356
0.535372 0.949880 0.007987
0.610313 0.950179 0.009618
0.674016 0.950464 0.011209
0.729077 0.950752 0.012776
0.778169 0.951037 0.014309
0.823245 0.951303 0.015848
0.866219 0.951590 0.017283
0.909230 0.951832 0.018701
0.955526 0.952044 0.020059
0.079568 0.999732 0.000754
0.116741 0.999733 0.000877
0.162664 0.999735 0.000996
0.220194 0.999736 0.001116
0.289306 0.999738 0.001240
0.368541 0.999739 0.002189
0.454987 0.999741 0.003833
0.539901 0.999742 0.005479
0.613654 0.999744 0.007072
0.676400 0.999745 0.008645
0.730790 0.999747 0.010168
0.779382 0.999748 0.011653
0.824079 0.999749 0.013092
0.866733 0.999750 0.014482
0.909508 0.999751 0.015840
0.955541 0.999752 0.017067
0.033562 0.000876 0.117408
0.064451 0.002046 0.118123
0.101634 0.003308 0.118940
0.147992 0.004740 0.119791
0.207229 0.006296 0.120798
0.280437 0.008026 0.121877
0.366564 0.009910 0.123036
0.462276 0.011918 0.124308
0.555244 0.014042 0.125630
0.633835 0.016241 0.127029
0.699841 0.018471 0.128446
0.756982 0.020790 0.129863
0.808380 0.023130 0.131364
0.856488 0.025546 0.132923
0.904023 0.028074 0.134521
0.955113 0.030658 0.136158
0.035008 0.032808 0.114683
0.066241 0.034239 0.115519
0.103789 0.035812 0.116463
0.150710 0.037498 0.117447
0.210564 0.039357 0.118539
0.284328 0.041366 0.119728
0.370858 0.043561 0.121015
0.466498 0.045912 0.122398
0.558606 0.048355 0.123822
0.636360 0.050877 0.125304
0.701691 0.053425 0.126777
0.758347 0.056073 0.128286
0.809338 0.058747 0.129860
0.857094 0.061553 0.131483
0.904375 0.064452 0.133141
0.955130 0.067415 0.134842
0.036805 0.070074 0.111519
0.068324 0.071881 0.112465
0.106326 0.073855 0.113486
0.153802 0.075973 0.114622
0.214343 0.078251 0.115801
0.288732 0.080733 0.117065
0.375528 0.083368 0.118455
0.471056 0.086193 0.119890
0.562206 0.089141 0.121398
0.639022 0.092143 0.122935
0.703643 0.095249 0.124453
0.759819 0.098434 0.126026
0.810350 0.101681 0.127589
0.857798 0.105007 0.129248
0.904779 0.108470 0.130891
0.955153 0.112042 0.132632
0.038847 0.116172 0.107470
0.070708 0.118549 0.108496
0.109132 0.121052 0.109576
0.157291 0.123816 0.110749
0.218561 0.126735 0.112010
0.293538 0.129875 0.113342
0.380622 0.133228 0.114757
0.475990 0.136754 0.116239
0.566068 0.140440 0.117762
0.641875 0.144194 0.119301
0.705729 0.148014 0.120841
0.761322 0.151958 0.122422
0.811437 0.155969 0.124005
0.858495 0.160097 0.125634
0.905154 0.164370 0.127247
0.955183 0.168791 0.128915
0.041231 0.175944 0.101833
0.073438 0.179044 0.102898
0.112374 0.182362 0.104047
0.161247 0.185935 0.105224
0.223263 0.189705 0.106527
0.298863 0.193747 0.107858
0.386188 0.197997 0.109281
0.481307 0.202488 0.110763
0.570129 0.207113 0.112286
0.644849 0.211811 0.113807
0.707929 0.216540 0.115344
0.762912 0.221383 0.116885
0.812579 0.226385 0.118433
0.859277 0.231404 0.120016
0.905546 0.236557 0.121594
0.955216 0.241821 0.123210
0.043915 0.253476 0.094066
0.076482 0.257416 0.095165
0.115988 0.261576 0.096345
0.165629 0.265963 0.097560
0.228459 0.270590 0.098857
0.304626 0.275470 0.100203
0.392215 0.280581 0.101645
0.486905 0.285956 0.103133
0.574389 0.291469 0.104648
0.648003 0.296963 0.106167
0.710221 0.302494 0.107678
0.764559 0.308027 0.109210
0.813750 0.313642 0.110737
0.860045 0.319250 0.112301
0.905948 0.324967 0.113870
0.955257 0.330794 0.115458
0.046950 0.348866 0.084268
0.079897 0.353413 0.085409
0.119987 0.358139 0.086595
0.170456 0.363119 0.087863
0.234120 0.368388 0.089191
0.310830 0.373839 0.090588
0.398654 0.379489 0.092055
0.492713 0.385330 0.093575
0.578785 0.391229 0.095115
0.651203 0.397103 0.096679
0.712557 0.402933 0.098237
0.766273 0.408731 0.099800
0.814951 0.414545 0.101391
0.860840 0.420300 0.102947
0.906417 0.426103 0.104563
0.955300 0.431896 0.106182
0.050243 0.458177 0.072866
0.083662 0.462920 0.074100
0.124358 0.467809 0.075394
0.175685 0.472879 0.076752
0.240186 0.478162 0.078226
0.317406 0.483557 0.079713
0.405359 0.489069 0.081297
0.498663 0.494588 0.082942
0.583280 0.500079 0.084593
0.654471 0.505447 0.086284
0.714933 0.510702 0.087952
0.767986 0.515884 0.089647
0.816174 0.520956 0.091343
0.861642 0.526024 0.093042
0.906824 0.530904 0.094786
0.955350 0.535750 0.096540
0.053770 0.567409 0.061723
0.087658 0.571215 0.063183
0.128993 0.575121 0.064722
0.181191 0.579095 0.066337
0.246481 0.583159 0.068028
0.324160 0.587297 0.069810
0.412182 0.591429 0.071638
0.504606 0.595508 0.073545
0.587720 0.599563 0.075461
0.657647 0.603498 0.077381
0.717256 0.607343 0.079288
0.769684 0.611131 0.081176
0.817355 0.614820 0.083071
0.862419 0.618471 0.084967
0.907252 0.622019 0.086868
0.955392 0.625508 0.088799
0.057414 0.657768 0.053447
0.091749 0.660538 0.055100
0.133775 0.663333 0.056786
0.186787 0.666165 0.058623
0.252785 0.669054 0.060542
0.330946 0.671983 0.062546
0.418888 0.674922 0.064621
0.510380 0.677864 0.066719
0.591980 0.680751 0.068828
0.660754 0.683536 0.070919
0.719500 0.686272 0.072975
0.771313 0.688928 0.075051
0.818484 0.691516 0.077104
0.863172 0.694065 0.079147
0.907668 0.696554 0.081169
0.955427 0.698987 0.083190
0.061075 0.731288 0.047933
0.095895 0.733284 0.049667
0.138617 0.735265 0.051475
0.192470 0.737302 0.053370
0.259145 0.739375 0.055340
0.337656 0.741482 0.057427
0.425495 0.743575 0.059647
0.515956 0.745634 0.061901
0.596093 0.747693 0.064128
0.663710 0.749664 0.066332
0.721686 0.751601 0.068527
0.772864 0.753492 0.070685
0.819580 0.755321 0.072798
0.863864 0.757125 0.074914
0.908035 0.758863 0.077006
0.955452 0.760565 0.079074
0.064820 0.793391 0.044059
0.100105 0.794819 0.045897
0.143543 0.796241 0.047780
0.198194 0.797700 0.049732
0.265519 0.799149 0.051782
0.344273 0.800660 0.053908
0.431926 0.802126 0.056125
0.521350 0.803585 0.058415
0.600061 0.805040 0.060718
0.666595 0.806419 0.063008
0.723758 0.807788 0.065245
0.774347 0.809113 0.067456
0.820622 0.810383 0.069596
0.864567 0.811620 0.071735
0.908382 0.812842 0.073872
0.955476 0.814075 0.075943
0.068608 0.848097 0.041326
0.104383 0.849086 0.043166
0.148524 0.850069 0.045101
0.203996 0.851077 0.047139
0.271849 0.852097 0.049214
0.350814 0.853123 0.051346
0.438245 0.854152 0.053569
0.526531 0.855137 0.055859
0.603841 0.856126 0.058131
0.669342 0.857083 0.060456
0.725734 0.857994 0.062712
0.775765 0.858877 0.064927
0.821592 0.859746 0.067076
0.865175 0.860595 0.069177
0.908700 0.861396 0.071289
0.955493 0.862193 0.073325
0.072453 0.898537 0.039264
0.108747 0.899142 0.041169
0.153542 0.899809 0.043055
0.209774 0.900434 0.045067
0.278126 0.901076 0.047145
0.357206 0.901705 0.049325
0.444401 0.902386 0.051542
0.531498 0.903026 0.053797
0.607489 0.903645 0.056039
0.671993 0.904247 0.058282
0.727639 0.904822 0.060524
0.777129 0.905385 0.062703
0.822513 0.905910 0.064834
0.865803 0.906425 0.066907
0.909014 0.906903 0.068976
0.955512 0.907404 0.070873
0.076313 0.947652 0.037429
0.113134 0.947995 0.039361
0.158546 0.948324 0.041256
0.215530 0.948641 0.043222
0.284339 0.948965 0.045271
0.363518 0.949344 0.047404
0.450348 0.949671 0.049596
0.536234 0.949970 0.051811
0.610963 0.950282 0.054001
0.674446 0.950570 0.056145
0.729430 0.950842 0.058301
0.778427 0.951134 0.060416
0.823396 0.951381 0.062482
0.866344 0.951669 0.064460
0.909296 0.951905 0.066384
0.955528 0.952144 0.068239
0.080265 0.999732 0.035287
0.117547 0.999733 0.037253
0.163591 0.999735 0.039190
0.221260 0.999737 0.041129
0.290412 0.999738 0.043065
0.369702 0.999740 0.045117
0.456069 0.999741 0.047254
0.540731 0.999743 0.049380
0.614255 0.999744 0.051486
0.676816 0.999746 0.053527
0.731105 0.999747 0.055547
0.779610 0.999748 0.057525
0.824220 0.999749 0.059467
0.866837 0.999750 0.061342
0.909549 0.999752 0.063140
0.955544 0.999753 0.064870
0.033808 0.001307 0.166812
0.064780 0.002509 0.167709
0.101987 0.003830 0.168690
0.148520 0.005305 0.169806
0.207842 0.006897 0.171012
0.281172 0.008669 0.172339
0.367389 0.010572 0.173773
0.463031 0.012646 0.175318
0.555874 0.014798 0.176931
0.634318 0.017030 0.178629
0.700195 0.019297 0.180327
0.757277 0.021633 0.182091
0.808561 0.024027 0.183933
0.856599 0.026479 0.185776
0.904124 0.029034 0.187695
0.955119 0.031657 0.189672
0.035364 0.033357 0.164340
0.066637 0.034807 0.165378
0.104255 0.036420 0.166541
0.151258 0.038178 0.167787
0.211282 0.040076 0.169145
0.285136 0.042123 0.170588
0.371696 0.044351 0.172174
0.467335 0.046731 0.173861
0.559275 0.049223 0.175594
0.636867 0.051780 0.177390
0.702037 0.054384 0.179181
0.758634 0.057063 0.181038
0.809521 0.059779 0.182979
0.857250 0.062591 0.184920
0.904503 0.065531 0.186837
0.955137 0.068537 0.188900
0.037170 0.070725 0.161511
0.068757 0.072608 0.162648
0.106816 0.074606 0.163995
0.154425 0.076774 0.165323
0.215101 0.079102 0.166788
0.289617 0.081625 0.168377
0.376458 0.084343 0.170055
0.471977 0.087201 0.171794
0.562910 0.090186 0.173639
0.639567 0.093241 0.175522
0.704033 0.096387 0.177391
0.760062 0.099617 0.179307
0.810560 0.102911 0.181234
0.857921 0.106289 0.183212
0.904848 0.109767 0.185203
0.955161 0.113375 0.187253
0.039282 0.117046 0.157781
0.071197 0.119454 0.159057
0.109716 0.122039 0.160404
0.158011 0.124853 0.161883
0.219395 0.127837 0.163413
0.294505 0.131025 0.165070
0.381623 0.134429 0.166813
0.476954 0.138020 0.168631
0.566797 0.141750 0.170496
0.642415 0.145552 0.172403
0.706133 0.149419 0.174298
0.761590 0.153414 0.176227
0.811660 0.157461 0.178145
0.858657 0.161682 0.180102
0.905227 0.165977 0.182087
0.955187 0.170422 0.184123
0.041704 0.177107 0.152529
0.073962 0.180259 0.153859
0.112981 0.183637 0.155272
0.162017 0.187281 0.156742
0.224169 0.191125 0.158348
0.299860 0.195209 0.160034
0.387248 0.199531 0.161788
0.482289 0.204088 0.163619
0.570878 0.208769 0.165512
0.645416 0.213501 0.167386
0.708346 0.218308 0.169265
0.763205 0.223251 0.171166
0.812783 0.228240 0.173052
0.859398 0.233330 0.174992
0.905612 0.238518 0.176923
0.955221 0.243839 0.178902
0.044433 0.254948 0.145206
0.077083 0.258972 0.146565
0.116670 0.263157 0.148027
0.166448 0.267634 0.149556
0.229433 0.272313 0.151146
0.305710 0.277263 0.152864
0.393359 0.282405 0.154614
0.487929 0.287866 0.156457
0.575178 0.293413 0.158312
0.648567 0.298956 0.160189
0.710619 0.304514 0.162072
0.764876 0.310104 0.163955
0.813961 0.315732 0.165854
0.860183 0.321392 0.167774
0.906053 0.327139 0.169682
0.955262 0.332983 0.171621
0.047493 0.350573 0.135770
0.080558 0.355186 0.137224
0.120740 0.359998 0.138734
0.171348 0.365022 0.140321
0.235161 0.370315 0.142001
0.311965 0.375816 0.143738
0.399798 0.381494 0.145559
0.493749 0.387393 0.147428
0.579603 0.393338 0.149336
0.651786 0.399215 0.151234
0.712997 0.405054 0.153118
0.766582 0.410864 0.155037
0.815178 0.416675 0.156957
0.860997 0.422480 0.158904
0.906490 0.428276 0.160843
0.955309 0.434078 0.162791
0.050832 0.459992 0.124802
0.084343 0.464729 0.126359
0.125153 0.469644 0.127994
0.176620 0.474732 0.129686
0.241254 0.480071 0.131490
0.318589 0.485499 0.133357
0.406542 0.490989 0.135303
0.499724 0.496501 0.137312
