example_ofxGpuLutCube/bin/data/ofxGpuLutCube/LUT/T12 (greenish fade_1).cube
LUT_3D_SIZE 6
0.033076 0.000104 0.045338
0.147087 0.003703 0.047025
0.365092 0.008645 0.049395
0.632923 0.014751 0.052296
0.808008 0.021443 0.055495
0.955105 0.028808 0.058940
0.038086 0.114531 0.034177
0.155947 0.121839 0.036504
0.378693 0.130878 0.039362
0.640804 0.141574 0.042614
0.811031 0.153083 0.045945
0.955172 0.165571 0.049410
0.045865 0.345571 0.009502
0.168758 0.359560 0.011914
0.396387 0.375608 0.014739
0.650090 0.393013 0.017874
0.814532 0.410306 0.020964
0.955292 0.427663 0.024180
0.056153 0.655799 0.000000
0.184856 0.664154 0.000000
0.416538 0.672911 0.000000
0.659636 0.681542 0.000000
0.818074 0.689654 0.000000
0.955421 0.697231 0.000319
0.067293 0.847405 0.000000
0.201948 0.850383 0.000000
0.435996 0.853462 0.000000
0.668361 0.856415 0.000000
0.821235 0.859124 0.000000
0.955488 0.861621 0.000000
0.078906 0.999731 0.000000
0.219231 0.999735 0.000000
0.453974 0.999740 0.000000
0.675974 0.999745 0.000000
0.823966 0.999749 0.000000
0.955540 0.999752 0.000000
0.033808 0.001307 0.166812
0.148520 0.005305 0.169806
0.367389 0.010572 0.173773
0.634318 0.017030 0.178629
0.808561 0.024027 0.183933
0.955119 0.031657 0.189672
0.039282 0.117046 0.157781
0.158011 0.124853 0.161883
0.381623 0.134429 0.166813
0.642415 0.145552 0.172403
0.811660 0.157461 0.178145
0.955187 0.170422 0.184123
0.047493 0.350573 0.135770
0.171348 0.365022 0.140321
0.399798 0.381494 0.145559
0.651786 0.399215 0.151234
0.815178 0.416675 0.156957
0.955309 0.434078 0.162791
0.058062 0.658809 0.106413
0.187804 0.667227 0.112713
0.420110 0.675954 0.119751
0.661309 0.684548 0.127143
0.818701 0.692473 0.134281
0.955431 0.699888 0.141309
0.069305 0.848455 0.094668
0.205079 0.851452 0.102242
0.439420 0.854506 0.110247
0.669846 0.857408 0.118186
0.821779 0.860053 0.125622
0.955499 0.862470 0.132535
0.081043 0.999733 0.088747
0.222331 0.999737 0.096674
0.457121 0.999742 0.104699
0.677246 0.999746 0.112257
0.824358 0.999750 0.118940
0.955550 0.999753 0.124781
0.034717 0.002759 0.395424
0.150131 0.007122 0.399680
0.369946 0.012800 0.405154
0.635820 0.019583 0.411560
0.809156 0.026886 0.418254
0.955139 0.034765 0.425425
0.040671 0.119912 0.387766
0.160251 0.128215 0.393269
0.384829 0.138306 0.399729
0.644125 0.149935 0.406790
0.812295 0.162357 0.413792
0.955212 0.175658 0.420897
0.049274 0.356035 0.366300
0.174188 0.370987 0.372278
0.403443 0.387877 0.378932
0.653569 0.405819 0.385901
0.815835 0.423356 0.392630
0.955333 0.440790 0.399242
0.060165 0.662035 0.337813
0.191060 0.670446 0.345434
0.423875 0.679130 0.353761
0.662992 0.687595 0.362113
0.819321 0.695351 0.369941
0.955450 0.702599 0.377364
0.071592 0.849625 0.327248
0.208477 0.852577 0.335820
0.443036 0.855574 0.344688
0.671386 0.858437 0.353212
0.822319 0.861011 0.360926
0.955512 0.863351 0.367844
0.083350 0.999734 0.321934
0.225641 0.999739 0.330442
0.460305 0.999743 0.338931
0.678547 0.999747 0.346611
0.824815 0.999751 0.353145
0.955563 0.999754 0.358675
0.035744 0.004394 0.666023
0.151914 0.009139 0.667992
0.372715 0.015179 0.670390
0.637421 0.022329 0.673081
0.809759 0.029925 0.675841
0.955163 0.038067 0.678685
0.042133 0.123004 0.654090
0.162674 0.131818 0.656270
0.388190 0.142415 0.658725
0.645892 0.154530 0.661219
0.812961 0.167406 0.663591
0.955234 0.181121 0.665838
0.051153 0.361795 0.626400
0.177138 0.377118 0.628270
0.407207 0.394380 0.630258
0.655360 0.412515 0.632207
0.816491 0.430123 0.634023
0.955356 0.447384 0.635710
0.062314 0.665277 0.590698
0.194369 0.673685 0.593819
0.427663 0.682298 0.597149
0.664686 0.690594 0.600401
0.819923 0.698173 0.603397
0.955469 0.705211 0.606192
0.073914 0.850759 0.571992
0.211902 0.853714 0.575834
0.446578 0.856659 0.579762
0.672877 0.859435 0.583408
0.822841 0.861938 0.586611
0.955528 0.864184 0.589447
0.085672 0.999736 0.558173
0.228885 0.999741 0.562096
0.463355 0.999745 0.565936
0.679749 0.999749 0.569344
0.825216 0.999752 0.572184
0.955578 0.999755 0.574527
0.036817 0.006094 0.844696
0.153727 0.011176 0.844979
0.375472 0.017571 0.845313
0.638971 0.025020 0.845650
0.810359 0.032865 0.845972
0.955179 0.041293 0.846276
0.043608 0.126180 0.829440
0.165097 0.135467 0.829419
0.391494 0.146546 0.829338
0.647590 0.159106 0.829160
0.813575 0.172388 0.828863
0.955250 0.186419 0.828438
0.052986 0.367461 0.797614
0.180054 0.383181 0.796900
0.410820 0.400748 0.796099
0.657069 0.418979 0.795249
0.817137 0.436565 0.794413
0.955373 0.453691 0.793547
0.064431 0.668446 0.757889
0.197576 0.676770 0.758309
0.431288 0.685288 0.758862
0.666283 0.693426 0.759388
0.820512 0.700859 0.759874
0.955481 0.707623 0.760334
0.076154 0.851875 0.734760
0.215185 0.854765 0.735978
0.449932 0.857665 0.737213
0.674274 0.860366 0.738372
0.823340 0.862798 0.739374
0.955539 0.864925 0.740245
0.087839 0.999738 0.716566
0.231970 0.999742 0.718054
0.466182 0.999746 0.719506
0.680866 0.999750 0.720792
0.825577 0.999753 0.721846
0.955583 0.999756 0.722716
0.037979 0.007915 0.998581
0.155675 0.013310 0.997795
0.378294 0.020037 0.996836
0.640556 0.027780 0.995726
0.810939 0.035848 0.994573
0.955195 0.044561 0.993324
0.045142 0.129494 0.980781
0.167591 0.139247 0.979374
0.394828 0.150776 0.977737
0.649291 0.163818 0.975911
0.814244 0.177466 0.973963
0.955267 0.191714 0.971943
0.054871 0.373160 0.945579
0.183009 0.389245 0.943338
0.414416 0.407074 0.940894
0.658760 0.425360 0.938389
0.817750 0.442908 0.935970
0.955391 0.459830 0.933625
0.066523 0.671521 0.903088
0.200801 0.679846 0.901960
0.434814 0.688216 0.900890
0.667843 0.696169 0.899870
0.821078 0.703397 0.898914
0.955490 0.709991 0.898030
0.078328 0.852964 0.877244
0.218370 0.855827 0.876916
0.453153 0.858656 0.876649
0.675620 0.861282 0.876391
0.823812 0.863610 0.876129
0.955550 0.865646 0.875894
0.089990 0.999740 0.856400
0.234962 0.999744 0.856487
0.468919 0.999748 0.856611
0.681921 0.999752 0.856712
0.825913 0.999754 0.856771
0.955590 0.999757 0.856817
