example_ofxGpuLutCube/bin/data/ofxGpuLutCube/LUT/T13 (blue cold fade).cube
LUT_3D_SIZE 16
0.033076 0.000104 0.045338
0.061280 0.001066 0.045804
0.094251 0.002166 0.046321
0.134793 0.003371 0.046862
0.185480 0.004677 0.047526
0.248963 0.006163 0.048227
0.322721 0.007774 0.048971
0.406664 0.009486 0.049790
0.496289 0.011309 0.050661
0.578337 0.013239 0.051611
0.648284 0.015211 0.052497
0.706636 0.017190 0.053460
0.758756 0.019256 0.054443
0.806975 0.021394 0.055471
0.850913 0.023557 0.056448
0.894337 0.025760 0.057521
0.034489 0.032207 0.042220
0.062910 0.033439 0.042749
0.096222 0.034644 0.043381
0.137238 0.036175 0.044006
0.188469 0.037787 0.044719
0.252599 0.039676 0.045509
0.326727 0.041481 0.046330
0.410877 0.043474 0.047220
0.500170 0.045599 0.048178
0.581428 0.047827 0.049157
0.650646 0.050115 0.050138
0.708405 0.052353 0.051133
0.760090 0.054735 0.052178
0.807976 0.057239 0.053218
0.851586 0.059677 0.054283
0.894745 0.062197 0.055353
0.036160 0.069732 0.038599
0.064859 0.071336 0.039226
0.098858 0.073058 0.039857
0.140114 0.074676 0.040589
0.191989 0.076711 0.041378
0.256663 0.079172 0.042192
0.331214 0.081317 0.043085
0.415518 0.083762 0.044032
0.504411 0.086339 0.045026
0.584755 0.089043 0.046059
0.653129 0.091824 0.047055
0.710264 0.094426 0.048097
0.761465 0.097295 0.049092
0.809012 0.100443 0.050179
0.852313 0.103335 0.051229
0.895159 0.106347 0.052309
0.038158 0.116311 0.033996
0.067165 0.118388 0.034654
0.101562 0.120614 0.035356
0.143691 0.123052 0.036118
0.195897 0.125276 0.036950
0.261201 0.128603 0.037762
0.336141 0.131255 0.038700
0.420616 0.134323 0.039668
0.508962 0.137577 0.040644
0.588246 0.140953 0.041644
0.655746 0.144536 0.042660
0.712293 0.147689 0.043678
0.762975 0.151244 0.044675
0.810064 0.155231 0.045730
0.853060 0.158759 0.046779
0.895599 0.162463 0.047820
0.040459 0.176838 0.027775
0.069797 0.179608 0.028460
0.104639 0.182554 0.029167
0.147339 0.185700 0.029917
0.200740 0.189073 0.030733
0.266253 0.193029 0.031548
0.341568 0.196411 0.032484
0.426148 0.200349 0.033417
0.513901 0.204452 0.034361
0.591966 0.208682 0.035333
0.658525 0.213232 0.036295
0.714404 0.217011 0.037296
0.764582 0.221461 0.038276
0.811211 0.226530 0.039228
0.853857 0.230806 0.040224
0.896081 0.235216 0.041253
0.043110 0.255556 0.019355
0.072806 0.259130 0.020048
0.108105 0.262802 0.020765
0.151458 0.266741 0.021524
0.205634 0.270877 0.022321
0.271787 0.275875 0.023089
0.347504 0.279781 0.024016
0.432107 0.284496 0.024932
0.519076 0.289464 0.025866
0.595875 0.294457 0.026821
0.661463 0.299938 0.027735
0.716623 0.304200 0.028732
0.766212 0.309273 0.029674
0.812414 0.315165 0.030575
0.854699 0.319853 0.031554
0.896557 0.324691 0.032528
0.046069 0.352523 0.008734
0.076145 0.356610 0.009451
0.111994 0.360911 0.010201
0.156053 0.365392 0.010958
0.211024 0.370073 0.011771
0.277283 0.374917 0.012622
0.353852 0.379976 0.013511
0.438455 0.385180 0.014463
0.524411 0.390586 0.015409
0.599938 0.395920 0.016380
0.664501 0.401853 0.017312
0.718869 0.406171 0.018321
0.767910 0.411436 0.019288
0.813640 0.417802 0.020167
0.855557 0.422536 0.021191
0.897095 0.427312 0.022211
0.049360 0.463621 0.000036
0.079858 0.467942 0.000274
0.116192 0.472299 0.000565
0.161005 0.476858 0.000874
0.216762 0.481562 0.001155
0.283672 0.486421 0.001434
0.360556 0.491352 0.001856
0.445052 0.496382 0.002867
0.529846 0.501393 0.003896
0.604036 0.506335 0.004920
0.667531 0.511748 0.005906
0.721163 0.515383 0.007077
0.769619 0.520079 0.008141
0.814889 0.525847 0.009135
0.856406 0.529775 0.010280
0.897603 0.533670 0.011434
0.052903 0.573686 0.000000
0.083750 0.577157 0.000000
0.120744 0.580553 0.000000
0.166328 0.584083 0.000000
0.222816 0.587705 0.000000
0.290324 0.591360 0.000000
0.367470 0.595002 0.000000
0.451757 0.598717 0.000000
0.535275 0.602411 0.000000
0.608142 0.605975 0.000000
0.670581 0.610093 0.000005
0.723433 0.612423 0.000272
0.771306 0.615850 0.000596
0.816098 0.620265 0.000846
0.857231 0.623029 0.001878
0.898090 0.625718 0.003055
0.056515 0.664062 0.000000
0.087841 0.666484 0.000000
0.125366 0.669000 0.000000
0.171775 0.671488 0.000000
0.229021 0.674040 0.000000
0.297058 0.676656 0.000000
0.374310 0.679268 0.000000
0.458334 0.681881 0.000000
0.540567 0.684505 0.000000
0.612117 0.687058 0.000000
0.673483 0.690024 0.000000
0.725634 0.691513 0.000000
0.772917 0.693896 0.000000
0.817241 0.697195 0.000000
0.858024 0.698919 0.000000
0.898576 0.700734 0.000000
0.060250 0.737489 0.000000
0.091935 0.739217 0.000000
0.130084 0.741017 0.000000
0.177272 0.742784 0.000000
0.235289 0.744609 0.000000
0.303686 0.746477 0.000000
0.381083 0.748335 0.000000
0.464705 0.750191 0.000000
0.545692 0.752043 0.000000
0.615931 0.753817 0.000000
0.676335 0.756049 0.000000
0.727735 0.756843 0.000000
0.774475 0.758538 0.000000
0.818363 0.761096 0.000000
0.858769 0.762195 0.000000
0.899035 0.763372 0.000000
0.063953 0.799715 0.000000
0.096151 0.800949 0.000000
0.134919 0.802216 0.000000
0.182851 0.803479 0.000000
0.241509 0.804786 0.000000
0.310320 0.806064 0.000000
0.387802 0.807391 0.000000
0.470880 0.808705 0.000000
0.550578 0.809992 0.000000
0.619629 0.811250 0.000000
0.678653 0.812451 0.000000
0.730212 0.813669 0.000000
0.776002 0.814328 0.000000
0.819408 0.816368 0.000000
0.859502 0.817067 0.000000
0.899449 0.817674 0.000000
0.067807 0.854396 0.000000
0.100356 0.855248 0.000000
0.139821 0.856133 0.000000
0.188470 0.856983 0.000000
0.247729 0.857870 0.000000
0.316891 0.858761 0.000000
0.394412 0.859664 0.000000
0.476915 0.860563 0.000000
0.555361 0.861434 0.000000
0.623176 0.862294 0.000000
0.681288 0.863110 0.000000
0.732117 0.863919 0.000000
0.777753 0.864708 0.000000
0.820445 0.865928 0.000000
0.860213 0.866176 0.000000
0.899825 0.866491 0.000000
0.071656 0.905309 0.000000
0.104722 0.905853 0.000000
0.144759 0.906394 0.000000
0.194126 0.906939 0.000000
0.253954 0.907507 0.000000
0.323388 0.908071 0.000000
0.400854 0.908614 0.000000
0.482768 0.909177 0.000000
0.559869 0.909719 0.000000
0.626569 0.910234 0.000000
0.683816 0.910754 0.000000
0.733984 0.911248 0.000000
0.779101 0.911740 0.000000
0.821410 0.912675 0.000000
0.860847 0.912589 0.000000
0.900202 0.912625 0.000000
0.075581 0.955270 0.000000
0.109104 0.955514 0.000000
0.149725 0.955791 0.000000
0.199772 0.956044 0.000000
0.260081 0.956298 0.000000
0.329795 0.956572 0.000000
0.407128 0.956831 0.000000
0.488301 0.957130 0.000000
0.564130 0.957371 0.000000
0.629723 0.957593 0.000000
0.686142 0.957833 0.000000
0.735729 0.958055 0.000000
0.780396 0.958284 0.000000
0.821893 0.958497 0.000000
0.861445 0.958702 0.000000
0.900567 0.958480 0.000000
0.078906 1.010123 0.000000
0.112776 1.010125 0.000000
0.153868 1.010126 0.000000
0.204437 1.010128 0.000000
0.265023 1.010129 0.000000
0.334766 1.010131 0.000000
0.411856 1.010133 0.000000
0.492447 1.010135 0.000000
0.567199 1.010136 0.000000
0.631913 1.010137 0.000000
0.687662 1.010139 0.000000
0.736710 1.010140 0.000000
0.781023 1.010142 0.000000
0.822278 1.010143 0.000000
0.861555 1.010144 0.000000
0.900824 1.010145 0.000000
0.033331 0.000526 0.082063
0.061600 0.001543 0.082626
0.094639 0.002668 0.083079
0.135256 0.003905 0.083809
0.186048 0.005267 0.084581
0.249694 0.006799 0.085525
0.323503 0.008441 0.086362
0.407485 0.010180 0.087328
0.497050 0.012075 0.088354
0.578960 0.014028 0.089405
0.648774 0.016035 0.090535
0.706982 0.018045 0.091563
0.758994 0.020122 0.092741
0.807172 0.022337 0.093962
0.851079 0.024498 0.095139
0.894397 0.026764 0.096324
0.034775 0.032776 0.079111
0.063295 0.034038 0.079768
0.096689 0.035429 0.080461
0.137829 0.036928 0.081254
0.189188 0.038564 0.082088
0.253381 0.040368 0.083001
0.327593 0.042283 0.083985
0.411795 0.044314 0.085017
0.501030 0.046501 0.086130
0.582082 0.048755 0.087269
0.651107 0.051059 0.088442
0.708781 0.053366 0.089612
0.760355 0.055780 0.090812
0.808159 0.058284 0.092045
0.851736 0.060768 0.093304
0.894827 0.063336 0.094557
0.036545 0.070450 0.075670
0.065317 0.072088 0.076416
0.099358 0.073848 0.077193
0.140712 0.075547 0.078060
0.192725 0.077623 0.078988
0.257560 0.080091 0.079945
0.332167 0.082311 0.080996
0.416505 0.084796 0.082096
0.505311 0.087409 0.083272
0.585438 0.090127 0.084444
0.653611 0.092959 0.085660
0.710681 0.095652 0.086857
0.761798 0.098566 0.088089
0.809210 0.101692 0.089360
0.852456 0.104687 0.090604
0.895238 0.107711 0.091895
0.038592 0.117219 0.071283
0.067682 0.119362 0.072080
0.102140 0.121653 0.072928
0.144391 0.124108 0.073836
0.196730 0.126414 0.074802
0.262185 0.129793 0.075784
0.337186 0.132518 0.076865
0.421673 0.135648 0.078014
0.509938 0.138942 0.079192
0.588979 0.142344 0.080394
0.656292 0.145970 0.081595
0.712683 0.149213 0.082817
0.763280 0.152786 0.084023
0.810288 0.156821 0.085291
0.853227 0.160432 0.086500
0.895712 0.164171 0.087782
0.040958 0.178048 0.065244
0.070358 0.180905 0.066074
0.105293 0.183912 0.066957
0.148120 0.187130 0.067866
0.201632 0.190538 0.068844
0.267282 0.194595 0.069818
0.342686 0.198016 0.070921
0.427261 0.201996 0.072052
0.514884 0.206167 0.073214
0.592718 0.210458 0.074414
0.659097 0.215024 0.075547
0.714822 0.218904 0.076771
0.764864 0.223373 0.077950
0.811450 0.228511 0.079122
0.854025 0.232831 0.080337
0.896185 0.237278 0.081558
0.043647 0.257117 0.057073
0.073399 0.260717 0.057905
0.108817 0.264501 0.058770
0.152313 0.268471 0.059701
0.206613 0.272667 0.060663
0.272907 0.277748 0.061628
0.348659 0.281695 0.062746
0.433297 0.286483 0.063873
0.520077 0.291501 0.065027
0.596642 0.296546 0.066162
0.662049 0.302033 0.067314
0.717033 0.306368 0.068517
0.766519 0.311485 0.069684
0.812639 0.317398 0.070817
0.854852 0.322135 0.072036
0.896660 0.327004 0.073252
0.046662 0.354328 0.046748
0.076794 0.358514 0.047583
0.112759 0.362840 0.048497
0.156948 0.367346 0.049454
0.212051 0.372067 0.050459
0.278449 0.376987 0.051516
0.355091 0.382119 0.052610
0.439665 0.387354 0.053760
0.525440 0.392803 0.054916
0.600717 0.398162 0.056105
0.665067 0.404114 0.057241
0.719324 0.408461 0.058494
0.768226 0.413719 0.059684
0.813871 0.420091 0.060816
0.855708 0.424851 0.062043
0.897182 0.429641 0.063293
0.049988 0.465494 0.034771
0.080531 0.469819 0.035709
0.117043 0.474250 0.036715
0.161983 0.478828 0.037747
0.217868 0.483589 0.038844
0.284873 0.488444 0.039996
0.361846 0.493383 0.041202
0.446312 0.498408 0.042453
0.530886 0.503430 0.043752
0.604845 0.508408 0.045048
0.668141 0.513796 0.046309
0.721595 0.517408 0.047711
0.769942 0.522117 0.049009
0.815117 0.527822 0.050236
0.856567 0.531752 0.051626
0.897697 0.535629 0.053015
0.053554 0.575170 0.023737
0.084509 0.578594 0.024768
0.121561 0.582056 0.025799
0.167317 0.585637 0.026927
0.223968 0.589224 0.028191
0.291583 0.592845 0.029582
0.368776 0.596523 0.031014
0.452993 0.600220 0.032512
0.536306 0.603905 0.034047
0.608920 0.607484 0.035552
0.671143 0.611547 0.037040
0.723862 0.613931 0.038600
0.771633 0.617350 0.040119
0.816312 0.621693 0.041560
0.857388 0.624450 0.043099
0.898178 0.627085 0.044648
0.057209 0.665120 0.016805
0.088598 0.667564 0.017977
0.126238 0.670032 0.019176
0.172805 0.672566 0.020398
0.230198 0.675119 0.021644
0.298276 0.677717 0.022924
0.375615 0.680340 0.024204
0.459573 0.682961 0.025540
0.541543 0.685573 0.026973
0.612857 0.688096 0.028574
0.674057 0.691070 0.030236
0.726056 0.692519 0.031942
0.773233 0.694926 0.033581
0.817474 0.698176 0.035180
0.858167 0.699922 0.036838
0.898666 0.701700 0.038502
0.060910 0.738217 0.011716
0.092734 0.739988 0.013038
0.130979 0.741741 0.014345
0.178316 0.743539 0.015700
0.236406 0.745364 0.017036
0.304938 0.747230 0.018421
0.382371 0.749080 0.019800
0.465912 0.750939 0.021201
0.546622 0.752755 0.022620
0.616669 0.754565 0.024033
0.676875 0.756788 0.025515
0.728140 0.757579 0.027144
0.774790 0.759263 0.028793
0.818576 0.761791 0.030505
0.858931 0.762873 0.032212
0.899113 0.764045 0.033919
0.064689 0.800241 0.007895
0.096915 0.801455 0.009312
0.135835 0.802746 0.010709
0.183904 0.803999 0.012153
0.242705 0.805310 0.013581
0.311586 0.806619 0.015050
0.389060 0.807911 0.016507
0.472083 0.809242 0.017988
0.551516 0.810508 0.019449
0.620361 0.811797 0.020935
0.679185 0.812972 0.022410
0.730610 0.814186 0.023870
0.776265 0.814841 0.025422
0.819656 0.816841 0.026988
0.859629 0.817532 0.028617
0.899522 0.818151 0.030353
0.068485 0.854744 0.005274
0.101176 0.855591 0.006443
0.140720 0.856457 0.007932
0.189507 0.857354 0.009408
0.248925 0.858238 0.010915
0.318129 0.859122 0.012425
0.395626 0.860016 0.013949
0.478072 0.860911 0.015452
0.556256 0.861775 0.016990
0.623861 0.862616 0.018473
0.681798 0.863453 0.019987
0.732497 0.864235 0.021457
0.778023 0.865035 0.022931
0.820650 0.866259 0.024417
0.860328 0.866490 0.025891
0.899912 0.866818 0.027439
0.072394 0.905546 0.004590
0.105537 0.906078 0.005055
0.145680 0.906606 0.005732
0.195185 0.907190 0.007123
0.255130 0.907747 0.008662
0.324613 0.908280 0.010225
0.402065 0.908853 0.011761
0.483870 0.909396 0.013282
0.560750 0.909942 0.014838
0.627203 0.910478 0.016345
0.684269 0.910985 0.017867
0.734327 0.911467 0.019319
0.779383 0.911923 0.020782
0.821589 0.912842 0.022211
0.860968 0.912781 0.023624
0.900288 0.912816 0.025006
0.076320 0.955388 0.003942
0.109920 0.955645 0.004438
0.150669 0.955910 0.004923
0.200858 0.956154 0.005407
0.261242 0.956411 0.006532
0.330982 0.956677 0.008056
0.408305 0.956965 0.009612
0.489388 0.957219 0.011158
0.564954 0.957469 0.012676
0.630319 0.957684 0.014199
0.686597 0.957923 0.015670
0.736056 0.958143 0.017136
0.780643 0.958365 0.018550
0.822069 0.958575 0.019962
0.861569 0.958795 0.021302
0.900604 0.958556 0.022628
0.079646 1.010124 0.003319
0.113624 1.010125 0.003840
0.154794 1.010127 0.004325
0.205489 1.010128 0.004813
0.266190 1.010130 0.005300
0.335960 1.010132 0.006022
0.413001 1.010134 0.007488
0.493470 1.010135 0.009035
0.568013 1.010137 0.010549
0.632469 1.010138 0.012042
0.688098 1.010140 0.013483
0.737028 1.010141 0.014909
0.781245 1.010142 0.016282
0.822413 1.010144 0.017625
0.861640 1.010145 0.018924
0.900879 1.010146 0.020180
0.033620 0.000977 0.127444
0.061911 0.002053 0.128129
0.095306 0.003207 0.128913
0.135755 0.004479 0.129484
0.186667 0.005897 0.130482
0.250411 0.007470 0.131833
0.324322 0.009144 0.132776
0.408352 0.010925 0.133944
0.497844 0.012841 0.135177
0.579611 0.014847 0.136488
0.649232 0.016895 0.137927
0.707369 0.018931 0.139149
0.759290 0.021054 0.140517
0.807372 0.023287 0.142134
0.851202 0.025486 0.143519
0.894469 0.027774 0.144949
0.035124 0.033319 0.124740
0.063688 0.034651 0.125536
0.097441 0.036073 0.126436
0.138375 0.037616 0.127155
0.189882 0.039301 0.128256
0.254196 0.041144 0.129668
0.328533 0.043098 0.130750
0.412747 0.045189 0.132012
0.501903 0.047400 0.133373
0.582794 0.049696 0.134791
0.651634 0.052055 0.136278
0.709166 0.054397 0.137577
0.760642 0.056844 0.139047
0.808362 0.059376 0.140716
0.851882 0.061918 0.142178
0.894909 0.064539 0.143669
0.036932 0.071163 0.121595
0.065780 0.072852 0.122527
0.099642 0.074324 0.123134
0.141391 0.076598 0.124565
0.193528 0.078681 0.125665
0.258461 0.080936 0.126871
0.333165 0.083307 0.128161
0.417525 0.085854 0.129513
0.506252 0.088515 0.130947
0.586136 0.091277 0.132405
0.654149 0.094126 0.133914
0.711081 0.096966 0.135380
0.762092 0.099914 0.136904
0.809404 0.102988 0.138442
0.852607 0.106044 0.140015
0.895341 0.109197 0.141593
0.039021 0.118161 0.117564
0.068175 0.120378 0.118557
0.102471 0.122683 0.119193
0.145122 0.125234 0.120695
0.197597 0.127655 0.121887
0.263168 0.130955 0.123141
0.338255 0.133807 0.124460
0.422766 0.136986 0.125854
0.510928 0.140350 0.127305
0.589698 0.143804 0.128798
0.656843 0.147440 0.130297
0.713124 0.150790 0.131778
0.763618 0.154463 0.133306
0.810525 0.158454 0.134854
0.853374 0.162140 0.136414
0.895788 0.165984 0.137971
0.041447 0.179313 0.111868
0.070933 0.182228 0.112907
0.105672 0.185284 0.113594
0.148921 0.188601 0.115137
0.202590 0.192076 0.116351
0.268357 0.196169 0.117597
0.343820 0.199655 0.118956
0.428448 0.203688 0.120357
0.515902 0.207934 0.121801
0.593485 0.212277 0.123274
0.659655 0.216858 0.124733
0.715263 0.220863 0.126212
0.765208 0.225414 0.127711
0.811670 0.230510 0.129215
0.854183 0.234906 0.130740
0.896270 0.239425 0.132276
0.044192 0.258722 0.103996
0.074015 0.262401 0.105065
0.109265 0.266201 0.105810
0.153171 0.270255 0.107376
0.207616 0.274506 0.108612
0.274046 0.279660 0.109843
0.349865 0.283674 0.111268
0.434498 0.288532 0.112659
0.521097 0.293589 0.114108
0.597450 0.298733 0.115576
0.662608 0.304162 0.117022
0.717483 0.308627 0.118530
0.766849 0.313741 0.119998
0.812881 0.319604 0.121447
0.855009 0.324444 0.122957
0.896762 0.329404 0.124488
0.047267 0.356212 0.094019
0.077466 0.360411 0.095131
0.113230 0.364750 0.095902
0.157851 0.369362 0.097530
0.213120 0.374146 0.098816
0.279650 0.379109 0.100161
0.356355 0.384276 0.101564
0.440917 0.389567 0.103018
0.526464 0.395046 0.104510
0.601506 0.400444 0.106011
0.665647 0.406357 0.107481
0.719742 0.410740 0.109050
0.768564 0.416103 0.110573
0.814115 0.422423 0.112047
0.855859 0.427180 0.113594
0.897287 0.432059 0.115153
0.050642 0.467447 0.082530
0.081250 0.471787 0.083739
0.117576 0.476209 0.084595
0.162965 0.480878 0.086311
0.219002 0.485645 0.087699
0.286139 0.490511 0.089148
0.363151 0.495468 0.090669
0.447575 0.500472 0.092242
0.531930 0.505508 0.093879
0.605641 0.510480 0.095494
0.668714 0.515870 0.097101
0.722037 0.519472 0.098813
0.770262 0.524204 0.100471
0.815346 0.529792 0.102082
0.856701 0.533722 0.103762
0.897786 0.537591 0.105476
0.054221 0.576717 0.071583
0.085271 0.580116 0.073014
0.122169 0.583592 0.074087
0.168369 0.587186 0.076060
0.225168 0.590779 0.077684
0.292867 0.594409 0.079380
0.370108 0.598083 0.081145
0.454299 0.601769 0.082959
0.537362 0.605433 0.084810
0.609681 0.609003 0.086678
0.671729 0.613017 0.088490
0.724300 0.615402 0.090375
0.771946 0.618825 0.092201
0.816543 0.623120 0.094013
0.857531 0.625797 0.095880
0.898275 0.628505 0.097730
0.057924 0.666212 0.063440
0.089379 0.668672 0.065115
0.126848 0.671117 0.066411
0.173858 0.673681 0.068600
0.231422 0.676240 0.070424
0.299586 0.678823 0.072345
0.376968 0.681437 0.074304
0.460837 0.684068 0.076307
0.542585 0.686662 0.078357
0.613646 0.689187 0.080368
0.674647 0.692126 0.082357
0.726464 0.693570 0.084359
0.773572 0.695958 0.086348
0.817701 0.699188 0.088283
0.858329 0.700917 0.090211
0.898762 0.702678 0.092184
0.061642 0.739013 0.057773
0.093536 0.740762 0.059599
0.131621 0.742506 0.061027
0.179449 0.744340 0.063397
0.237676 0.746160 0.065385
0.306269 0.748025 0.067446
0.383750 0.749861 0.069547
0.467180 0.751727 0.071710
0.547614 0.753529 0.073830
0.617428 0.755313 0.075983
0.677436 0.757513 0.078062
0.728583 0.758297 0.080192
0.775104 0.759995 0.082211
0.818797 0.762499 0.084199
0.859066 0.763592 0.086214
0.899199 0.764741 0.088221
0.065437 0.800782 0.053843
0.097770 0.802042 0.055650
0.136496 0.803291 0.057177
0.185049 0.804570 0.059681
0.243953 0.805849 0.061789
0.312909 0.807170 0.063959
0.390392 0.808472 0.066160
0.473318 0.809779 0.068392
0.552482 0.811033 0.070605
0.621076 0.812310 0.072834
0.679734 0.813483 0.074968
0.731002 0.814687 0.077078
0.776570 0.815369 0.079183
0.819880 0.817335 0.081200
0.859799 0.818017 0.083239
0.899614 0.818626 0.085241
0.069291 0.855129 0.051247
0.102043 0.855998 0.053020
0.141413 0.856838 0.054521
0.190662 0.857735 0.056986
0.250193 0.858620 0.059181
0.319452 0.859496 0.061382
0.396951 0.860388 0.063671
0.479279 0.861284 0.065952
0.557176 0.862127 0.068208
0.624585 0.862986 0.070431
0.682309 0.863797 0.072610
0.732899 0.864600 0.074730
0.778294 0.865349 0.076810
0.820844 0.866576 0.078856
0.860457 0.866825 0.080833
0.899975 0.867129 0.082807
0.073183 0.905802 0.049349
0.106445 0.906322 0.051151
0.146387 0.906870 0.052545
0.196347 0.907419 0.054872
0.256396 0.907981 0.057025
0.325926 0.908503 0.059306
0.403374 0.909088 0.061597
0.485036 0.909620 0.063892
0.561653 0.910162 0.066168
0.627890 0.910691 0.068384
0.684793 0.911193 0.070528
0.734709 0.911687 0.072631
0.779638 0.912157 0.074676
0.821779 0.913050 0.076671
0.861108 0.912984 0.078615
0.900356 0.912998 0.080520
0.077102 0.955496 0.047591
0.110822 0.955766 0.049425
0.151359 0.956006 0.050841
0.202031 0.956261 0.053076
0.262523 0.956529 0.055006
0.332269 0.956797 0.057238
0.409578 0.957085 0.059527
0.490501 0.957325 0.061824
0.565822 0.957564 0.064085
0.630973 0.957797 0.066264
0.687045 0.958031 0.068365
0.736421 0.958241 0.070428
0.780898 0.958464 0.072392
0.822241 0.958668 0.074323
0.861689 0.958872 0.076173
0.900682 0.958632 0.077979
0.080416 1.010125 0.045768
0.114526 1.010126 0.047653
0.155529 1.010127 0.049141
0.206702 1.010129 0.051390
0.267428 1.010131 0.053184
0.337252 1.010133 0.055159
0.414290 1.010134 0.057371
0.494554 1.010136 0.059647
0.568828 1.010137 0.061854
0.633068 1.010139 0.063978
0.688558 1.010140 0.066060
0.737354 1.010142 0.068037
0.781486 1.010143 0.069948
0.822571 1.010144 0.071779
0.861771 1.010145 0.073544
0.900952 1.010146 0.075236
0.033936 0.001462 0.185918
0.062259 0.002564 0.186801
0.095707 0.003788 0.187757
0.136640 0.005135 0.188804
0.187303 0.006558 0.189598
0.251187 0.008158 0.191515
0.325191 0.009862 0.192621
0.409281 0.011705 0.194061
0.498667 0.013662 0.195648
0.580281 0.015707 0.197210
0.649754 0.017798 0.199027
0.707724 0.019864 0.200427
0.759584 0.022002 0.202159
0.807595 0.024283 0.204265
0.851343 0.026529 0.205889
0.894586 0.028834 0.207589
0.035493 0.033936 0.183551
0.064111 0.035283 0.184578
0.097949 0.036783 0.185671
0.139327 0.038349 0.186880
0.190618 0.040072 0.187848
0.255083 0.041967 0.189837
0.329458 0.043955 0.191087
0.413712 0.046089 0.192647
0.502758 0.048342 0.194341
0.583455 0.050688 0.196049
0.652165 0.053078 0.198008
0.709555 0.055461 0.199479
0.760951 0.057941 0.201264
0.808580 0.060529 0.203437
0.852040 0.063099 0.205189
0.895022 0.065751 0.206900
0.037348 0.071946 0.180802
0.066269 0.073670 0.181951
0.100192 0.075178 0.183218
0.142415 0.077509 0.184518
0.194340 0.079628 0.185614
0.259396 0.081949 0.187590
0.334187 0.084369 0.189001
0.418589 0.086956 0.190653
0.507171 0.089679 0.192422
0.586868 0.092474 0.194231
0.654711 0.095392 0.196195
0.711507 0.098260 0.197805
0.762380 0.101242 0.199677
0.809640 0.104365 0.201799
0.852778 0.107469 0.203591
0.895435 0.110665 0.205419
0.039485 0.119141 0.177133
0.068725 0.121404 0.178391
0.103100 0.123813 0.179706
0.145493 0.125945 0.180673
0.198516 0.129125 0.182591
0.264174 0.132063 0.184162
0.339366 0.135130 0.185810
0.423924 0.138406 0.187554
0.511908 0.141820 0.189334
0.590480 0.145297 0.191173
0.657405 0.148925 0.193073
0.713548 0.152478 0.194871
0.763910 0.156157 0.196762
0.810750 0.160054 0.198656
0.853538 0.163949 0.200565
0.895892 0.167873 0.202453
0.041957 0.180618 0.171850
0.071535 0.183611 0.173166
0.106372 0.186733 0.174374
0.149416 0.190082 0.175513
0.203566 0.193632 0.177536
0.269466 0.197737 0.179129
0.345011 0.201350 0.180824
0.429631 0.205467 0.182584
0.516925 0.209789 0.184370
0.594237 0.214145 0.186202
0.660226 0.218756 0.188025
0.715700 0.222935 0.189835
0.765520 0.227554 0.191679
0.811922 0.232526 0.193528
0.854337 0.237087 0.195418
0.896363 0.241674 0.197277
0.044760 0.260358 0.164443
0.074674 0.264134 0.165794
0.110015 0.267994 0.166957
0.153704 0.272079 0.168211
0.208679 0.276439 0.170272
0.275233 0.281638 0.171885
0.351114 0.285735 0.173620
0.435749 0.290662 0.175391
0.522176 0.295773 0.177197
0.598230 0.300926 0.179012
0.663210 0.306348 0.180812
0.717903 0.310968 0.182667
0.767202 0.316121 0.184474
0.813115 0.321909 0.186297
0.855182 0.326868 0.188123
0.896879 0.331871 0.189979
0.047901 0.358133 0.154846
0.078169 0.362401 0.156288
0.114070 0.366823 0.157550
0.158434 0.371407 0.158849
0.214236 0.376306 0.160970
0.280872 0.381321 0.162670
0.357648 0.386507 0.164429
0.442191 0.391852 0.166239
0.527533 0.397346 0.168089
0.602307 0.402797 0.169974
0.666226 0.408716 0.171793
0.720207 0.413243 0.173701
0.768905 0.418576 0.175578
0.814362 0.424825 0.177387
0.856044 0.429619 0.179253
0.897380 0.434509 0.181155
0.051295 0.469425 0.143878
0.082008 0.473790 0.145397
0.118458 0.478295 0.146735
0.163615 0.482912 0.148146
0.220187 0.487751 0.150376
0.287412 0.492611 0.152186
0.364494 0.497618 0.154065
0.448867 0.502584 0.156011
