example_ofxGpuLutCube/bin/data/ofxGpuLutCube/LUT/T13 (blue cold fade).cube
LUT_3D_SIZE 6
0.033076 0.000104 0.045338
0.134793 0.003371 0.046862
0.322721 0.007774 0.048971
0.578337 0.013239 0.051611
0.758756 0.019256 0.054443
0.894337 0.025760 0.057521
0.038158 0.116311 0.033996
0.143691 0.123052 0.036118
0.336141 0.131255 0.038700
0.588246 0.140953 0.041644
0.762975 0.151244 0.044675
0.895599 0.162463 0.047820
0.046069 0.352523 0.008734
0.156053 0.365392 0.010958
0.353852 0.379976 0.013511
0.599938 0.395920 0.016380
0.767910 0.411436 0.019288
0.897095 0.427312 0.022211
0.056515 0.664062 0.000000
0.171775 0.671488 0.000000
0.374310 0.679268 0.000000
0.612117 0.687058 0.000000
0.772917 0.693896 0.000000
0.898576 0.700734 0.000000
0.067807 0.854396 0.000000
0.188470 0.856983 0.000000
0.394412 0.859664 0.000000
0.623176 0.862294 0.000000
0.777753 0.864708 0.000000
0.899825 0.866491 0.000000
0.078906 1.010123 0.000000
0.204437 1.010128 0.000000
0.411856 1.010133 0.000000
0.631913 1.010137 0.000000
0.781023 1.010142 0.000000
0.900824 1.010145 0.000000
0.033936 0.001462 0.185918
0.136640 0.005135 0.188804
0.325191 0.009862 0.192621
0.580281 0.015707 0.197210
0.759584 0.022002 0.202159
0.894586 0.028834 0.207589
0.039485 0.119141 0.177133
0.145493 0.125945 0.180673
0.339366 0.135130 0.185810
0.590480 0.145297 0.191173
0.763910 0.156157 0.196762
0.895892 0.167873 0.202453
0.047901 0.358133 0.154846
0.158434 0.371407 0.158849
0.357648 0.386507 0.164429
0.602307 0.402797 0.169974
0.768905 0.418576 0.175578
0.897380 0.434509 0.181155
0.058676 0.667326 0.126017
0.174588 0.674785 0.131654
0.378360 0.682572 0.138932
0.614417 0.690270 0.146064
0.773876 0.697013 0.152966
0.898842 0.703700 0.159708
0.070105 0.855523 0.115127
0.191467 0.858097 0.121839
0.398326 0.860768 0.130011
0.625294 0.863378 0.137681
0.778585 0.865700 0.144800
0.900070 0.867463 0.151472
0.081256 1.010125 0.109777
0.207521 1.010130 0.116825
0.415564 1.010135 0.125007
0.633660 1.010139 0.132352
0.781690 1.010143 0.138854
0.901020 1.010147 0.144608
0.034921 0.003119 0.459984
0.138384 0.007154 0.463788
0.327987 0.012306 0.468545
0.582387 0.018479 0.474083
0.760470 0.025158 0.479473
0.894867 0.032233 0.485430
0.041060 0.122419 0.451847
0.147897 0.129740 0.456739
0.342909 0.139451 0.462260
0.592846 0.150154 0.468300
0.764943 0.161516 0.474003
0.896205 0.173635 0.479837
0.049908 0.364318 0.429032
0.161527 0.378114 0.434193
0.361773 0.393608 0.439942
0.604817 0.410190 0.445862
0.769937 0.426398 0.451535
0.897687 0.442369 0.456867
0.061036 0.670802 0.399580
0.178140 0.678275 0.406054
0.382652 0.686001 0.413359
0.616821 0.693561 0.420496
0.774846 0.700243 0.427087
0.899132 0.706790 0.433249
0.072642 0.856737 0.388219
0.195148 0.859326 0.395313
0.402486 0.861915 0.402988
0.627390 0.864430 0.410212
0.779460 0.866719 0.416648
0.900310 0.868415 0.422423
0.083861 1.010127 0.381247
0.211142 1.010133 0.388200
0.419618 1.010137 0.395932
0.635602 1.010141 0.402440
0.782471 1.010145 0.407961
0.901223 1.010148 0.412701
0.036102 0.004941 0.732766
0.140294 0.009374 0.733918
0.330984 0.014899 0.735303
0.584571 0.021442 0.736824
0.761403 0.028398 0.738019
0.895149 0.035751 0.739587
0.042712 0.125914 0.719269
0.150482 0.133753 0.720468
0.346552 0.143981 0.721661
0.595283 0.155173 0.722930
0.765943 0.167057 0.723732
0.896489 0.179517 0.724741
0.052026 0.370651 0.689253
0.164678 0.384720 0.689964
0.365911 0.400773 0.690679
0.607292 0.417503 0.691401
0.770948 0.433754 0.691777
0.897984 0.449630 0.692362
0.063407 0.674271 0.651781
0.181651 0.681710 0.653623
0.386873 0.689326 0.655609
0.619131 0.696740 0.657600
0.775816 0.703577 0.659413
0.899408 0.709939 0.661130
0.075189 0.857950 0.631395
0.198793 0.860466 0.633874
0.406474 0.863054 0.636466
0.629424 0.865485 0.638904
0.780247 0.867691 0.641093
0.900548 0.869403 0.643029
0.086386 1.010130 0.616013
0.214637 1.010134 0.618588
0.423193 1.010139 0.621407
0.637562 1.010143 0.624081
0.783214 1.010147 0.626090
0.901360 1.010150 0.627756
0.037324 0.006882 0.910872
0.142285 0.011669 0.910699
0.333995 0.017521 0.910490
0.586730 0.024393 0.910210
0.762690 0.031606 0.909882
0.895429 0.039209 0.909060
0.044383 0.129545 0.894315
0.153042 0.137807 0.893793
0.350193 0.148547 0.893016
0.597647 0.160218 0.892177
0.767288 0.172512 0.891278
0.896791 0.185279 0.889769
0.054055 0.376962 0.860450
0.167814 0.391406 0.859183
0.369920 0.407729 0.857764
0.609679 0.424593 0.856273
0.772272 0.440904 0.854862
0.898270 0.456573 0.852990
0.065740 0.677658 0.819482
0.185097 0.684979 0.819269
0.390930 0.692544 0.819114
0.621337 0.699806 0.818975
0.777029 0.706476 0.818855
0.899641 0.712597 0.818406
0.077637 0.859066 0.795363
0.202324 0.861584 0.795829
0.410313 0.864091 0.796333
0.631297 0.866485 0.796822
0.780704 0.868226 0.796856
0.900730 0.870498 0.797602
0.088770 1.010132 0.776380
0.217933 1.010136 0.777123
0.426497 1.010141 0.777943
0.639085 1.010145 0.778784
0.783713 1.010148 0.779270
0.901528 1.010151 0.780150
0.037980 0.007916 1.108119
0.143194 0.012838 1.107305
0.335155 0.018856 1.106342
0.587285 0.025881 1.105205
0.762713 0.033260 1.103996
0.895558 0.040997 1.102752
0.045252 0.131318 1.087721
0.154407 0.139967 1.086306
0.351784 0.150923 1.084531
0.598339 0.162858 1.082626
0.767363 0.175351 1.080595
0.896942 0.188346 1.078513
0.055167 0.379893 1.047220
0.169490 0.394536 1.044907
0.372087 0.411482 1.042228
0.610570 0.428319 1.039593
0.772417 0.444600 1.037036
0.898426 0.460244 1.034552
0.067029 0.678894 0.999289
0.186956 0.686203 0.998108
0.393126 0.693861 0.996908
0.622488 0.701408 0.995710
0.777240 0.707954 0.994690
0.899786 0.713996 0.993709
0.078974 0.859269 0.970424
0.204208 0.861741 0.970044
0.412332 0.864255 0.969681
0.632296 0.866710 0.969316
0.781101 0.868715 0.968991
0.900845 0.870918 0.968667
0.090139 1.010133 0.948100
0.219767 1.010137 0.948122
0.428273 1.010142 0.948153
0.639889 1.010146 0.948188
0.784016 1.010149 0.948202
0.901590 1.010152 0.948220
