example_ofxGpuLutCube/bin/data/ofxGpuLutCube/LUT/T14 (warm dark contrasty).cube
LUT_3D_SIZE 6
0.001255 0.001132 0.006202
0.093857 0.010385 0.015155
0.217690 0.023269 0.027185
0.372915 0.039015 0.041314
0.560223 0.057708 0.057716
0.744866 0.075309 0.072828
0.016569 0.094800 0.018069
0.113256 0.103967 0.023177
0.247565 0.125037 0.036897
0.414239 0.149320 0.052866
0.609889 0.176557 0.071164
0.789052 0.201779 0.088427
0.040298 0.222570 0.034230
0.147403 0.234968 0.039370
0.283434 0.254070 0.048569
0.461415 0.287734 0.067055
0.658273 0.324015 0.088005
0.829803 0.356820 0.107737
0.071993 0.386160 0.054510
0.191878 0.404385 0.061610
0.334699 0.423865 0.069698
0.511233 0.454827 0.084641
0.700996 0.499564 0.108619
0.865233 0.540550 0.132461
0.111155 0.586125 0.080123
0.242851 0.607896 0.089628
0.396269 0.629218 0.100344
0.570889 0.652865 0.114318
0.755272 0.704375 0.152588
0.919284 0.754258 0.200060
0.155335 0.776265 0.111921
0.297474 0.794437 0.125094
0.480350 0.827750 0.155269
0.667477 0.863805 0.196956
0.823804 0.897135 0.245796
0.963307 0.922647 0.291421
0.008700 0.008334 0.090543
0.097341 0.012254 0.094706
0.222333 0.025321 0.110887
0.379811 0.041650 0.130019
0.569358 0.061020 0.151541
0.754195 0.079663 0.171677
0.019524 0.098100 0.099182
0.127691 0.116981 0.115671
0.269040 0.140611 0.136029
0.442071 0.166685 0.158216
0.639376 0.195785 0.182927
0.814325 0.222605 0.205779
0.045399 0.229287 0.122538
0.165097 0.254522 0.139216
0.307323 0.275257 0.152593
0.491424 0.310709 0.177696
0.685656 0.348813 0.205485
0.852563 0.382992 0.231103
0.080840 0.399616 0.152462
0.212411 0.430308 0.169917
0.360687 0.450887 0.181269
0.542079 0.483369 0.201360
0.725674 0.529297 0.232535
0.889346 0.575539 0.268176
0.123919 0.605700 0.188760
0.265725 0.635531 0.207320
0.424064 0.656177 0.221828
0.604668 0.684940 0.245526
0.782694 0.736158 0.297673
0.940654 0.783525 0.358243
0.171050 0.793538 0.231405
0.327318 0.820390 0.258252
0.517963 0.854415 0.301228
0.698043 0.888547 0.355110
0.846620 0.918802 0.414754
0.979657 0.940653 0.465777
0.017177 0.016449 0.194607
0.110023 0.020710 0.199878
0.227338 0.027557 0.208648
0.387073 0.044508 0.232901
0.578630 0.064472 0.259590
0.762507 0.083632 0.284353
0.029849 0.111013 0.206647
0.142217 0.129980 0.227019
0.276628 0.145384 0.241429
0.453230 0.172979 0.269907
0.651638 0.203691 0.301053
0.825403 0.231810 0.329547
0.049330 0.234086 0.223820
0.176198 0.265939 0.250888
0.332417 0.297556 0.277342
0.522476 0.334838 0.309189
0.711767 0.374858 0.343960
0.874167 0.410446 0.375610
0.085955 0.406615 0.261416
0.228308 0.449468 0.292753
0.387723 0.478977 0.313740
0.571842 0.512845 0.339132
0.749670 0.559303 0.378326
0.912639 0.610722 0.429532
0.129690 0.613508 0.305817
0.285471 0.657221 0.341738
0.452792 0.682090 0.364514
0.637890 0.716916 0.402495
0.808498 0.766404 0.468644
0.960227 0.810964 0.537611
0.176703 0.799375 0.356909
0.355469 0.842820 0.412563
0.554254 0.879589 0.473342
0.726817 0.911281 0.534981
0.867483 0.938152 0.591000
0.994188 0.956505 0.631089
0.026641 0.025450 0.318521
0.124232 0.030380 0.325430
0.243935 0.036458 0.333510
0.394582 0.047467 0.349993
0.587999 0.068063 0.382054
0.770816 0.087737 0.411462
0.041461 0.125148 0.334454
0.159543 0.145527 0.359875
0.292936 0.156988 0.370735
0.462291 0.177909 0.394583
0.660426 0.209237 0.431408
0.832733 0.237801 0.464849
0.062152 0.252209 0.354686
0.194004 0.284766 0.387159
0.351176 0.313920 0.414951
0.538033 0.346636 0.446787
0.724792 0.388257 0.488468
0.884897 0.424932 0.525763
0.091151 0.413693 0.384852
0.235336 0.457153 0.422171
0.411582 0.503618 0.462797
0.600280 0.542546 0.498024
0.775032 0.591919 0.548245
0.934602 0.645309 0.605896
0.135492 0.621274 0.437692
0.292491 0.664305 0.479695
0.482469 0.707123 0.528378
0.669709 0.747771 0.579713
0.832648 0.794955 0.642836
0.977943 0.836351 0.699966
0.183287 0.806126 0.498730
0.369128 0.853704 0.568222
0.582757 0.899334 0.641374
0.753805 0.931901 0.698402
0.886403 0.955253 0.742063
1.006948 0.970282 0.771186
0.037132 0.035344 0.462178
0.139623 0.041051 0.470931
0.264521 0.047911 0.481046
0.412794 0.055904 0.492582
0.597965 0.071863 0.519314
0.779102 0.091995 0.552966
0.054274 0.140363 0.482533
0.178044 0.162088 0.512927
0.316796 0.174501 0.526320
0.478680 0.187832 0.541204
0.669620 0.215010 0.575992
0.839830 0.243880 0.610285
0.077238 0.273047 0.507585
0.215275 0.307450 0.546580
0.377987 0.337844 0.578460
0.551111 0.356756 0.595696
0.732409 0.395698 0.633607
0.890355 0.432440 0.666579
0.105163 0.435004 0.538316
0.253326 0.478863 0.580167
0.433073 0.525566 0.621598
0.617215 0.560322 0.651580
0.792093 0.614182 0.700752
0.947485 0.666838 0.750512
0.141237 0.628840 0.582816
0.299394 0.671294 0.625331
0.496743 0.719268 0.675723
0.697376 0.774872 0.737620
0.854394 0.820852 0.791109
0.993877 0.859800 0.836620
0.193202 0.816334 0.648937
0.383159 0.864651 0.712529
0.595816 0.909121 0.774987
0.772101 0.946005 0.829491
0.903207 0.970085 0.866970
1.018025 0.982060 0.886658
0.048677 0.046130 0.623581
0.156040 0.052616 0.633256
0.285959 0.060298 0.644155
0.439534 0.069168 0.656180
0.613373 0.079150 0.669228
0.787239 0.096338 0.694167
0.068216 0.156507 0.646003
0.197732 0.179682 0.675700
0.341541 0.193038 0.688384
0.508525 0.207300 0.701960
0.680117 0.222817 0.716631
0.846749 0.250054 0.744401
0.093426 0.294619 0.671339
0.237608 0.330904 0.706908
0.405828 0.362760 0.734074
0.580305 0.382489 0.748814
0.739523 0.403777 0.764945
0.895892 0.440521 0.793316
0.123326 0.462103 0.700012
0.277351 0.507703 0.736008
0.462602 0.554639 0.770948
0.643768 0.588748 0.796375
0.802696 0.629483 0.828681
0.955372 0.681251 0.870360
0.155156 0.647324 0.731094
0.316484 0.688171 0.767024
0.523174 0.741120 0.815578
0.719093 0.796258 0.867900
0.870218 0.840246 0.910209
1.001679 0.872218 0.940037
0.204031 0.827444 0.784670
0.397565 0.875587 0.839717
0.608316 0.918474 0.890424
0.780541 0.953119 0.931963
0.912678 0.978561 0.962397
1.027477 0.991948 0.978196
