example_ofxGpuLutCube/bin/data/ofxGpuLutCube/LUT/T14 (warm dark contrasty).cube
LUT_3D_SIZE 16
0.001255 0.001132 0.006202
0.028375 0.003290 0.008262
0.059394 0.006685 0.011595
0.093857 0.010385 0.015155
0.131624 0.014354 0.018927
0.173381 0.018705 0.022982
0.217690 0.023269 0.027185
0.265820 0.028189 0.031643
0.317529 0.033430 0.036377
0.372915 0.039015 0.041314
0.432315 0.044957 0.046585
0.494152 0.051153 0.051991
0.560223 0.057708 0.057716
0.627957 0.064597 0.063683
0.690340 0.071608 0.069678
0.744866 0.075309 0.072828
0.004768 0.028053 0.008975
0.032749 0.030674 0.011073
0.064714 0.034720 0.014512
0.100326 0.039277 0.018233
0.139236 0.044110 0.022167
0.182185 0.049410 0.026366
0.227688 0.054744 0.030700
0.276915 0.060500 0.035270
0.329843 0.066601 0.040098
0.386382 0.073012 0.045177
0.446911 0.079825 0.050527
0.509774 0.086772 0.056025
0.576472 0.094155 0.061834
0.643648 0.102147 0.068078
0.705178 0.110143 0.074353
0.759811 0.114304 0.077639
0.010201 0.059545 0.013296
0.038702 0.062085 0.014950
0.069898 0.064826 0.016714
0.106185 0.069989 0.020530
0.146264 0.075762 0.024659
0.190458 0.082126 0.029103
0.237174 0.088372 0.033633
0.287667 0.095105 0.038445
0.341968 0.102168 0.043535
0.399869 0.109602 0.048864
0.461775 0.117473 0.054476
0.525898 0.125358 0.060214
0.593187 0.133744 0.066321
0.659427 0.142864 0.072852
0.720053 0.151818 0.079419
0.774602 0.156469 0.082865
0.016569 0.094800 0.018069
0.046001 0.097452 0.019519
0.077526 0.099806 0.020702
0.113256 0.103967 0.023177
0.154092 0.110364 0.027433
0.199604 0.117869 0.032112
0.247565 0.125037 0.036897
0.299399 0.132743 0.041931
0.355034 0.140878 0.047270
0.414239 0.149320 0.052866
0.477495 0.158274 0.058769
0.542882 0.167071 0.064779
0.609889 0.176557 0.071164
0.675114 0.186761 0.077996
0.734694 0.196709 0.084859
0.789052 0.201779 0.088427
0.023823 0.133803 0.023250
0.054184 0.136585 0.024514
0.087072 0.139484 0.025863
0.122442 0.142547 0.027270
0.163154 0.148367 0.030567
0.209609 0.156768 0.035437
0.258814 0.164868 0.040452
0.311943 0.173590 0.045771
0.368862 0.182728 0.051357
0.429364 0.192212 0.057229
0.493957 0.202279 0.063420
0.560263 0.212034 0.069712
0.626417 0.222508 0.076381
0.690557 0.233905 0.083533
0.749009 0.244805 0.090727
0.803232 0.250305 0.094434
0.031606 0.176215 0.028521
0.063363 0.179565 0.029957
0.097616 0.183070 0.031471
0.134425 0.186718 0.033062
0.173959 0.190699 0.034842
0.220347 0.198758 0.039072
0.270799 0.207847 0.044343
0.325201 0.217645 0.049911
0.383318 0.227794 0.055785
0.445150 0.238372 0.061959
0.510959 0.249513 0.068431
0.577585 0.260211 0.075012
0.642598 0.271675 0.081989
0.705498 0.284185 0.089487
0.762802 0.295991 0.096991
0.816838 0.301976 0.100877
0.040298 0.222570 0.034230
0.073465 0.226556 0.035862
0.109170 0.230699 0.037580
0.147403 0.234968 0.039370
0.188275 0.239415 0.041245
0.232222 0.244534 0.043538
0.283434 0.254070 0.048569
0.339052 0.264876 0.054420
0.398378 0.276119 0.060580
0.461415 0.287734 0.067055
0.528308 0.299915 0.073838
0.594518 0.311526 0.080698
0.658273 0.324015 0.088005
0.719958 0.337619 0.095855
0.775983 0.350441 0.103701
0.829803 0.356820 0.107737
0.049955 0.272937 0.040451
0.084542 0.277547 0.042282
0.121643 0.282343 0.044205
0.161365 0.287261 0.046196
0.203604 0.292317 0.048284
0.248493 0.297542 0.050496
0.297024 0.303979 0.053415
0.353392 0.315405 0.059288
0.413863 0.327633 0.065741
0.477946 0.340299 0.072494
0.545631 0.353517 0.079613
0.610856 0.366034 0.086813
0.673350 0.379487 0.094444
0.733702 0.394177 0.102657
0.788379 0.407785 0.110815
0.841985 0.414587 0.115032
0.060550 0.327467 0.047213
0.096527 0.332752 0.049259
0.135082 0.338169 0.051374
0.176191 0.343713 0.053610
0.219876 0.349446 0.055927
0.266150 0.355301 0.058364
0.315008 0.361344 0.060916
0.368135 0.369205 0.064563
0.429601 0.382401 0.071282
0.494650 0.396059 0.078371
0.562602 0.410354 0.085836
0.626482 0.423661 0.093351
0.687612 0.438071 0.101318
0.746635 0.453764 0.109897
0.799997 0.468148 0.118414
0.853321 0.475405 0.122812
0.071993 0.386160 0.054510
0.109430 0.392106 0.056788
0.149353 0.398161 0.059147
0.191878 0.404385 0.061610
0.236969 0.410736 0.064192
0.284557 0.417225 0.066881
0.334699 0.423865 0.069698
0.387331 0.430607 0.072623
0.445413 0.440319 0.077243
0.511233 0.454827 0.084641
0.578693 0.470199 0.092461
0.641200 0.484263 0.100299
0.700996 0.499564 0.108619
0.758617 0.516206 0.117590
0.811123 0.531708 0.126841
0.865233 0.540550 0.132461
0.084301 0.449010 0.062411
0.123060 0.455553 0.064900
0.164448 0.462333 0.067542
0.208289 0.469179 0.070262
0.254653 0.476131 0.073092
0.303545 0.483268 0.076068
0.354874 0.490458 0.079148
0.408716 0.497831 0.082380
0.464999 0.505239 0.085742
0.527455 0.516663 0.091328
0.593797 0.532832 0.099524
0.654908 0.547201 0.107688
0.713709 0.562954 0.116648
0.772971 0.583056 0.128598
0.828139 0.603659 0.142721
0.883241 0.614195 0.150474
0.097402 0.516172 0.070927
0.137494 0.523370 0.073707
0.180195 0.530783 0.076594
0.225375 0.538228 0.079595
0.272949 0.545753 0.082735
0.323044 0.553218 0.085975
0.375518 0.560758 0.089365
0.430323 0.568313 0.092913
0.487596 0.575730 0.096569
0.546437 0.583234 0.100465
0.607506 0.594944 0.107049
0.671335 0.612949 0.118019
0.732942 0.633013 0.131524
0.793073 0.655707 0.147646
0.846810 0.676161 0.164414
0.901654 0.686266 0.173400
0.111155 0.586125 0.080123
0.152543 0.593411 0.083156
0.196501 0.600708 0.086338
0.242851 0.607896 0.089628
0.291647 0.615072 0.093057
0.342813 0.622178 0.096626
0.396269 0.629218 0.100344
0.452016 0.636223 0.104205
0.510076 0.643167 0.108237
0.570889 0.652865 0.114318
0.631919 0.665906 0.123083
0.694208 0.683697 0.136032
0.755272 0.704375 0.152588
0.813074 0.725738 0.171032
0.864882 0.744887 0.190007
0.919284 0.754258 0.200060
0.125560 0.653759 0.090006
0.168152 0.660556 0.093348
0.213235 0.667341 0.096818
0.260712 0.674092 0.100450
0.310569 0.680745 0.104208
0.362650 0.687326 0.108093
0.416978 0.693834 0.112150
0.476137 0.702479 0.117932
0.540618 0.714480 0.126587
0.603500 0.727658 0.136861
0.663443 0.741270 0.148383
0.720576 0.755315 0.161258
0.776499 0.771607 0.177286
0.832266 0.791401 0.197992
0.881930 0.808724 0.218741
0.935715 0.816953 0.229564
0.140353 0.717260 0.100643
0.184140 0.723568 0.104278
0.230245 0.729848 0.108075
0.278738 0.736088 0.112030
0.329475 0.742211 0.116124
0.384274 0.749835 0.121613
0.445438 0.760891 0.130096
0.510684 0.773115 0.140334
0.575115 0.785940 0.152008
0.636357 0.798877 0.164796
0.694358 0.811842 0.178668
0.749121 0.824666 0.193497
0.800384 0.837215 0.209124
0.849553 0.850678 0.227089
0.897376 0.866192 0.249287
0.950460 0.873154 0.260497
0.155335 0.776265 0.111921
0.200046 0.782100 0.115894
0.247098 0.787826 0.120038
0.297474 0.794437 0.125094
0.354302 0.804576 0.133505
0.415541 0.815976 0.143741
0.480350 0.827750 0.155269
0.545876 0.839753 0.168033
0.608369 0.851919 0.182068
0.667477 0.863805 0.196956
0.723068 0.875366 0.212651
0.775320 0.886535 0.229021
0.823804 0.897135 0.245796
0.868980 0.907167 0.262884
0.910805 0.916702 0.280287
0.963307 0.922647 0.291421
0.003616 0.003444 0.032144
0.029789 0.004426 0.033024
0.060098 0.007103 0.035799
0.094735 0.010865 0.039892
0.132720 0.014901 0.044187
0.174678 0.019307 0.048839
0.219223 0.023943 0.053548
0.267543 0.028917 0.058548
0.319563 0.034238 0.063812
0.375196 0.039878 0.069334
0.434841 0.045901 0.075175
0.496913 0.052138 0.081112
0.563287 0.058833 0.087430
0.631260 0.065975 0.094204
0.693859 0.073261 0.100952
0.748644 0.077089 0.104517
0.006192 0.029542 0.034006
0.035559 0.033321 0.037547
0.067481 0.037053 0.040963
0.103661 0.041811 0.045354
0.143239 0.046883 0.049970
0.186901 0.052334 0.054870
0.233198 0.058037 0.059951
0.283332 0.064117 0.065329
0.337158 0.070549 0.070951
0.394684 0.077298 0.076879
0.456152 0.084427 0.083018
0.519747 0.091622 0.089199
0.586802 0.099229 0.095690
0.653217 0.107337 0.102629
0.714178 0.115555 0.109588
0.768727 0.119827 0.113260
0.010842 0.060189 0.037840
0.041739 0.065176 0.041990
0.073929 0.068535 0.044511
0.110884 0.073904 0.048922
0.151610 0.079855 0.053686
0.196495 0.086377 0.058763
0.243894 0.092846 0.063956
0.295116 0.099738 0.069412
0.350119 0.107011 0.075182
0.408736 0.114646 0.081184
0.471325 0.122680 0.087471
0.536222 0.130819 0.093925
0.603269 0.139405 0.100695
0.668840 0.148695 0.107945
0.728873 0.157902 0.115245
0.783348 0.162579 0.119034
0.017355 0.095623 0.043332
0.049671 0.101559 0.047656
0.081799 0.104102 0.049095
0.118210 0.108441 0.051999
0.159764 0.115056 0.056912
0.205947 0.122740 0.062255
0.254569 0.130119 0.067671
0.307118 0.138013 0.073420
0.363461 0.146353 0.079438
0.423396 0.154994 0.085704
0.487348 0.164107 0.092304
0.553295 0.173143 0.099004
0.619821 0.182790 0.106121
0.684373 0.193244 0.113705
0.743297 0.203380 0.121288
0.797653 0.208610 0.125249
0.024825 0.135027 0.049293
0.058243 0.141411 0.053477
0.091705 0.144451 0.055049
0.127668 0.147604 0.056694
0.169073 0.153670 0.060504
0.216199 0.162212 0.066053
0.266119 0.170524 0.071752
0.319959 0.179456 0.077753
0.377570 0.188830 0.084039
0.438787 0.198523 0.090617
0.504058 0.208744 0.097515
0.570672 0.218708 0.104532
0.636156 0.229411 0.111940
0.699622 0.240971 0.119866
0.757360 0.252049 0.127767
0.811487 0.257672 0.131863
0.033346 0.178513 0.055839
0.067733 0.185094 0.059731
0.102578 0.188699 0.061483
0.139965 0.192468 0.063301
0.180119 0.196565 0.065370
0.227217 0.204887 0.070222
0.278367 0.214155 0.076174
0.333492 0.224168 0.082444
0.392272 0.234501 0.089034
0.454804 0.245295 0.095919
0.521296 0.256620 0.103138
0.587777 0.267519 0.110442
0.652108 0.279187 0.118185
0.714333 0.291890 0.126431
0.770898 0.303898 0.134699
0.824858 0.309972 0.138956
0.042893 0.226221 0.062932
0.078199 0.232782 0.066478
0.114473 0.237007 0.068441
0.153296 0.241399 0.070481
0.194745 0.245965 0.072638
0.239379 0.251261 0.075279
0.291248 0.261021 0.080969
0.347568 0.272059 0.087520
0.407574 0.283425 0.094396
0.471261 0.295261 0.101608
0.538750 0.307657 0.109160
0.604461 0.319463 0.116778
0.667551 0.332173 0.124842
0.728490 0.345954 0.133484
0.783823 0.358898 0.142091
0.837540 0.365382 0.146508
0.053408 0.278050 0.070605
0.089584 0.284481 0.073766
0.127297 0.289364 0.075937
0.167560 0.294385 0.078224
0.210435 0.299571 0.080586
0.255867 0.304902 0.083066
0.305064 0.311522 0.086403
0.362117 0.323171 0.092997
0.423277 0.335621 0.100188
0.488033 0.348424 0.107727
0.556005 0.361859 0.115589
0.620542 0.374617 0.123557
0.682323 0.388217 0.131959
0.741951 0.403082 0.140969
0.795976 0.416929 0.149939
0.849430 0.423808 0.154536
0.064967 0.334364 0.078930
0.101924 0.340371 0.081641
0.141043 0.345884 0.084019
0.182758 0.351585 0.086548
0.227022 0.357410 0.089181
0.273852 0.363377 0.091916
0.323259 0.369503 0.094776
0.377047 0.377603 0.098909
0.439160 0.390988 0.106382
0.504895 0.404822 0.114261
0.572667 0.419322 0.122495
0.635858 0.432818 0.130777
0.696299 0.447414 0.139532
0.754584 0.463281 0.148931
0.807266 0.477901 0.158250
0.860443 0.485123 0.163051
0.077118 0.394365 0.087523
0.115125 0.400458 0.090088
0.155655 0.406632 0.092749
0.198728 0.412940 0.095526
0.244377 0.419400 0.098415
0.292563 0.426001 0.101436
0.343273 0.432759 0.104580
0.396399 0.439563 0.107845
0.455132 0.449462 0.113031
0.521499 0.464181 0.121200
0.588472 0.479773 0.129819
0.650300 0.494057 0.138460
0.709372 0.509476 0.147585
0.766277 0.526167 0.157383
0.818806 0.542563 0.168190
0.873072 0.551802 0.174657
0.089700 0.457936 0.096364
0.129101 0.464681 0.099187
0.170985 0.471499 0.102128
0.215442 0.478469 0.105182
0.262380 0.485543 0.108349
0.311842 0.492762 0.111652
0.363728 0.500115 0.115111
0.417997 0.507487 0.118669
0.474804 0.515026 0.122421
0.537630 0.526564 0.128614
0.603259 0.542733 0.137618
0.663672 0.557037 0.146587
0.722427 0.573367 0.156943
0.781864 0.594533 0.171004
0.836409 0.615308 0.186845
0.891375 0.625771 0.195443
0.103170 0.525863 0.105896
0.143818 0.533162 0.108968
0.187074 0.540638 0.112198
0.232793 0.548105 0.115560
0.280931 0.555575 0.119025
0.331524 0.563092 0.122657
0.384513 0.570551 0.126401
0.439880 0.578001 0.130316
0.497544 0.585326 0.134349
0.556225 0.592724 0.138657
0.617199 0.604910 0.146317
0.681384 0.623978 0.159264
0.742534 0.644322 0.174590
0.801858 0.666970 0.192507
0.854777 0.687207 0.210963
0.909426 0.697171 0.220836
0.117185 0.595732 0.116079
0.159150 0.602916 0.119471
0.203615 0.610114 0.122989
0.250507 0.617265 0.126661
0.299825 0.624347 0.130451
0.351439 0.631382 0.134399
0.405426 0.638322 0.138486
0.461693 0.645250 0.142755
0.520280 0.652254 0.147322
0.581934 0.663320 0.155115
0.642888 0.676937 0.165390
0.704332 0.694603 0.179810
0.764583 0.715128 0.198087
0.821483 0.736157 0.218328
0.872436 0.755031 0.239028
0.926611 0.764188 0.249914
0.131825 0.662661 0.127029
0.174974 0.669380 0.130707
0.220643 0.676137 0.134584
0.268603 0.682756 0.138566
0.318916 0.689358 0.142716
0.371529 0.695839 0.147002
0.426344 0.702252 0.151461
0.487748 0.712331 0.159050
0.552626 0.724858 0.169167
0.614833 0.738073 0.180750
0.674083 0.751636 0.193605
0.730466 0.765538 0.207829
0.785501 0.781601 0.225366
0.840236 0.800885 0.247722
0.888973 0.817779 0.270135
0.942515 0.825797 0.281745
0.146840 0.725498 0.138717
0.191147 0.731760 0.142759
0.237820 0.737926 0.146934
0.286764 0.744059 0.151298
0.337987 0.750111 0.155815
0.394934 0.759102 0.163018
0.457458 0.770586 0.172992
0.522964 0.782849 0.184500
0.586745 0.795634 0.197538
0.647302 0.808448 0.211649
0.704491 0.821228 0.226899
0.758512 0.833852 0.243125
0.808894 0.846058 0.260006
0.857015 0.858971 0.279098
0.903895 0.873976 0.302755
0.956706 0.880732 0.314691
0.162054 0.783892 0.151090
0.207364 0.789608 0.155494
0.254888 0.795225 0.160040
0.307219 0.803116 0.166814
0.365400 0.813684 0.176697
0.427437 0.825054 0.188179
0.492890 0.836794 0.201051
0.557860 0.848674 0.215137
0.619601 0.860618 0.230545
0.677889 0.872275 0.246801
0.732650 0.883530 0.263767
0.783975 0.894370 0.281379
0.831624 0.904584 0.299293
0.875893 0.914226 0.317406
0.916830 0.923308 0.335679
0.968968 0.928897 0.347207
0.006121 0.005852 0.060250
0.032729 0.006862 0.061274
0.061770 0.008123 0.062492
0.095647 0.011360 0.066148
0.133805 0.015461 0.070979
0.175997 0.019934 0.076260
0.220764 0.024624 0.081428
0.269338 0.029693 0.086991
0.321572 0.035066 0.092820
0.377471 0.040783 0.098899
0.437445 0.046875 0.105339
0.499745 0.053183 0.111793
0.566296 0.059910 0.118694
0.634200 0.067159 0.126111
0.696659 0.074500 0.133496
0.751384 0.078354 0.137249
0.008863 0.032460 0.062447
0.038712 0.036290 0.066390
0.069143 0.038158 0.068000
0.104766 0.042510 0.072258
0.144607 0.047673 0.077458
0.188528 0.053225 0.083077
0.235085 0.058998 0.088677
0.285473 0.065175 0.094599
0.339619 0.071663 0.100813
0.397425 0.078544 0.107318
0.459274 0.085808 0.114169
0.523560 0.093300 0.121057
0.591081 0.101201 0.128409
0.657624 0.109629 0.136242
0.718711 0.118181 0.144093
0.773415 0.122652 0.148100
0.012257 0.061753 0.064935
0.043527 0.066919 0.069646
0.077119 0.071438 0.073603
0.114945 0.077372 0.078893
0.156443 0.083602 0.084401
0.202098 0.090254 0.090248
0.250374 0.097134 0.096230
0.302513 0.104380 0.102533
0.358366 0.111989 0.109063
0.417708 0.119788 0.115751
0.481011 0.127985 0.122754
0.546618 0.136420 0.129877
0.613311 0.145218 0.137390
0.678138 0.154606 0.145345
0.737492 0.164003 0.153340
0.791940 0.168915 0.157539
0.018150 0.096490 0.070114
0.050932 0.102831 0.075250
0.085935 0.108462 0.079478
0.123286 0.113037 0.083065
0.165528 0.119884 0.088632
0.212396 0.127676 0.094622
0.261761 0.135301 0.100714
0.314968 0.143410 0.107133
0.372033 0.151918 0.113848
0.432643 0.160764 0.120803
0.497319 0.170068 0.128127
0.563771 0.179386 0.135553
0.629636 0.189205 0.143360
0.693498 0.199768 0.151691
0.751725 0.210122 0.160003
0.806062 0.215488 0.164373
0.025789 0.136095 0.076788
0.060219 0.143587 0.082328
0.096149 0.149429 0.086220
0.133008 0.152780 0.088347
0.175145 0.159075 0.092724
0.222940 0.167801 0.098947
0.273563 0.176338 0.105328
0.328100 0.185479 0.112007
0.386408 0.195043 0.119007
0.448344 0.204911 0.126293
0.514299 0.215357 0.133926
0.580963 0.225560 0.141653
0.645746 0.236442 0.149796
0.708500 0.248176 0.158486
0.765564 0.259481 0.167127
0.819700 0.265292 0.171656
0.034437 0.179806 0.084054
0.070567 0.188474 0.089985
0.107359 0.194375 0.093477
0.145661 0.198325 0.095809
0.186415 0.202575 0.098153
0.234239 0.211109 0.103645
0.286080 0.220590 0.110280
0.341869 0.230770 0.117262
0.401453 0.241395 0.124594
0.464581 0.252302 0.132173
0.531713 0.263808 0.140140
0.597837 0.274937 0.148184
0.661500 0.286866 0.156672
0.722991 0.299728 0.165708
0.778853 0.311943 0.174731
0.832736 0.318173 0.179373
0.044133 0.227746 0.091938
0.081907 0.237523 0.098175
0.119560 0.243372 0.101276
0.159309 0.247949 0.103856
0.201330 0.252619 0.106273
0.246610 0.258089 0.109257
0.299231 0.268090 0.115636
0.356213 0.279280 0.122923
0.416909 0.290912 0.130544
0.481281 0.302923 0.138503
0.549177 0.315490 0.146800
0.614273 0.327531 0.155169
0.676679 0.340491 0.164012
0.736873 0.354379 0.173420
0.791515 0.367486 0.182814
0.845115 0.374105 0.187615
0.054830 0.279880 0.100453
0.094232 0.290715 0.106948
0.132721 0.296406 0.109671
0.173888 0.301627 0.112480
0.217356 0.306947 0.115162
0.263390 0.312397 0.117938
0.313213 0.319174 0.121660
0.371015 0.331066 0.129037
0.432821 0.343691 0.136974
0.498225 0.356715 0.145255
0.566274 0.370381 0.153920
0.630076 0.383246 0.162612
0.691165 0.397126 0.171811
0.750051 0.412109 0.181628
0.803382 0.426153 0.191379
0.856715 0.433086 0.196374
0.066542 0.336464 0.109585
0.107412 0.348087 0.116253
0.146775 0.353664 0.118675
0.189405 0.359534 0.121778
0.234263 0.365510 0.124714
0.281678 0.371571 0.127764
0.331637 0.377780 0.130935
0.386122 0.386099 0.135575
0.448873 0.399682 0.143825
0.515183 0.413722 0.152455
0.582644 0.428426 0.161501
0.645103 0.442059 0.170539
0.704848 0.456818 0.180094
0.762392 0.472918 0.190319
0.814405 0.487649 0.200444
0.867442 0.495027 0.205624
0.079172 0.397339 0.119382
0.120954 0.408911 0.125693
0.161687 0.415098 0.128357
0.205714 0.421635 0.131735
0.251906 0.428200 0.134945
0.300672 0.434906 0.138286
0.351898 0.441750 0.141773
0.405589 0.448663 0.145386
0.464957 0.458826 0.151150
0.531871 0.473756 0.160140
0.598110 0.489442 0.169537
0.659190 0.503858 0.178936
0.717590 0.519372 0.188887
0.773771 0.535993 0.199525
0.826469 0.553519 0.212233
0.881260 0.563631 0.220026
0.092725 0.462560 0.129930
0.135261 0.473870 0.135757
0.177356 0.480657 0.138702
0.222701 0.487850 0.142380
0.270180 0.495026 0.145888
0.320180 0.502353 0.149546
0.372603 0.509819 0.153364
0.427454 0.517299 0.157295
0.484756 0.524905 0.161410
0.547691 0.536517 0.168239
0.612548 0.552636 0.178057
0.672283 0.566720 0.187825
0.731298 0.584030 0.199962
0.790776 0.606148 0.216266
0.844494 0.626851 0.233744
0.899351 0.637307 0.243234
0.107048 0.532199 0.141104
0.150265 0.543006 0.146550
0.193654 0.550328 0.149798
0.240325 0.557922 0.153819
0.289001 0.565390 0.157646
0.340134 0.572831 0.161616
0.393620 0.580231 0.165746
0.449435 0.587576 0.170046
0.507580 0.594803 0.174484
0.565895 0.602119 0.179200
0.627403 0.615448 0.188506
0.691670 0.635349 0.203542
0.751999 0.655537 0.220457
0.810489 0.678027 0.240179
0.862567 0.698170 0.260382
0.917019 0.708016 0.271108
0.121971 0.603015 0.152946
0.165845 0.612299 0.158060
0.210454 0.619339 0.161651
0.258272 0.626514 0.165998
0.308087 0.633495 0.170161
0.360251 0.640438 0.174479
0.414707 0.647309 0.178961
0.471466 0.654151 0.183649
0.531517 0.662320 0.189633
0.593343 0.674160 0.198929
0.653739 0.687973 0.210597
0.714331 0.705407 0.226409
0.773733 0.725730 0.246447
0.829746 0.746528 0.268512
0.879798 0.765009 0.290917
0.933724 0.773965 0.302648
0.137466 0.670373 0.165594
0.181915 0.678121 0.170415
0.227703 0.684678 0.174331
0.276562 0.691317 0.179016
0.327413 0.697825 0.183570
0.380478 0.704213 0.188255
0.436904 0.711535 0.193955
0.500017 0.722519 0.203148
0.564414 0.735159 0.214574
0.626018 0.748393 0.227490
0.684540 0.761869 0.241694
0.740178 0.775608 0.257295
0.794255 0.791274 0.276265
0.847991 0.810143 0.300334
0.895846 0.826615 0.324380
0.949111 0.834403 0.336766
0.153231 0.733294 0.178871
0.198256 0.739799 0.183558
0.245087 0.745845 0.187813
0.294920 0.751962 0.192911
0.347302 0.758525 0.198377
0.406073 0.768494 0.207324
0.469746 0.780223 0.218690
0.535376 0.792600 0.231660
0.598253 0.805167 0.245916
0.658027 0.817843 0.261433
0.714464 0.830411 0.278007
0.767650 0.842788 0.295586
0.817219 0.854698 0.313818
0.864290 0.867059 0.333941
0.910182 0.881535 0.359018
0.962728 0.888014 0.371630
0.168909 0.791317 0.192600
0.214698 0.796978 0.197401
0.262588 0.802683 0.202289
0.317307 0.811819 0.211349
0.376584 0.822672 0.222627
0.439582 0.834031 0.235460
0.505491 0.845687 0.249682
0.569552 0.857397 0.265169
0.630649 0.869135 0.281936
0.688073 0.880519 0.299502
0.741993 0.891491 0.317784
0.792522 0.902009 0.336664
0.839211 0.911792 0.355583
0.882655 0.921006 0.374677
0.922639 0.929663 0.393733
0.974415 0.934899 0.405631
0.008700 0.008334 0.090543
0.035824 0.009439 0.091716
0.065188 0.010632 0.092951
0.097341 0.012254 0.094706
0.134949 0.016044 0.099321
0.177370 0.020583 0.105235
0.222333 0.025321 0.110887
0.271158 0.030447 0.116994
0.323659 0.035897 0.123353
0.379811 0.041650 0.130019
0.440027 0.047858 0.137069
0.502589 0.054229 0.144056
0.569358 0.061020 0.151541
0.637099 0.068333 0.159585
0.699442 0.075741 0.167503
0.754195 0.079663 0.171677
0.011688 0.035492 0.093113
0.042091 0.039448 0.097555
0.072728 0.041128 0.099020
0.106437 0.043436 0.101205
0.145946 0.048410 0.106457
0.190091 0.054052 0.112798
0.236871 0.059896 0.118844
0.287516 0.066150 0.125371
0.341902 0.072715 0.132157
0.400000 0.079667 0.139234
0.462102 0.087001 0.146689
0.526611 0.094536 0.154108
0.594196 0.102538 0.162078
0.660578 0.111060 0.170594
0.721448 0.119668 0.178959
0.776112 0.124166 0.183334
0.015222 0.065263 0.095876
0.047086 0.070585 0.101172
0.080871 0.074858 0.105437
0.116715 0.078462 0.108339
0.158174 0.084749 0.114277
0.204151 0.091521 0.120947
0.252729 0.098518 0.127458
0.305305 0.105933 0.134357
0.361518 0.113666 0.141570
0.421499 0.121792 0.149087
0.485548 0.130328 0.156987
0.551796 0.139070 0.164890
0.618705 0.148254 0.173281
0.683527 0.158010 0.182278
0.742875 0.167776 0.191126
0.797388 0.172871 0.195705
0.019524 0.098100 0.099182
0.052524 0.104404 0.104790
0.088650 0.111000 0.110571
0.127691 0.116981 0.115671
0.171187 0.124705 0.122366
0.218867 0.132581 0.129185
0.269040 0.140611 0.136029
0.322961 0.148920 0.143141
0.380741 0.157622 0.150540
0.442071 0.166685 0.158216
0.507427 0.176113 0.166210
0.574132 0.185730 0.174380
0.639376 0.195785 0.182927
0.702466 0.206415 0.191969
0.760064 0.217060 0.201047
0.814325 0.222605 0.205779
0.026770 0.137197 0.105854
0.061417 0.144757 0.111924
0.099257 0.152612 0.118130
0.138131 0.158012 0.121962
0.181321 0.164606 0.127182
0.229828 0.173477 0.134089
0.281131 0.182268 0.141149
0.336371 0.191630 0.148534
0.395393 0.201388 0.156252
0.458039 0.211461 0.164265
0.524649 0.222041 0.172610
0.591141 0.232536 0.181084
0.655226 0.243591 0.189939
0.717258 0.255468 0.199394
0.773656 0.267025 0.208814
0.827748 0.272985 0.213728
0.035552 0.181112 0.113860
0.071933 0.189895 0.120361
0.111393 0.198818 0.126859
0.151122 0.204229 0.130284
0.192839 0.208684 0.133205
0.241390 0.217459 0.139324
0.293925 0.227147 0.146655
0.350408 0.237530 0.154361
0.410703 0.248359 0.162427
0.474532 0.259483 0.170738
0.542148 0.271192 0.179446
0.607781 0.282532 0.188223
0.670734 0.294630 0.197476
0.731540 0.307656 0.207322
0.786700 0.320086 0.217082
0.840515 0.326485 0.222168
0.045399 0.229287 0.122538
0.083509 0.239310 0.129445
0.124447 0.249092 0.136081
0.165097 0.254522 0.139216
0.208065 0.259403 0.142171
0.253969 0.265020 0.145551
0.307323 0.275257 0.152593
0.365002 0.286703 0.160646
0.426456 0.298523 0.169019
0.491424 0.310709 0.177696
0.559534 0.323496 0.186762
0.623968 0.335753 0.195903
0.685656 0.348813 0.205485
0.745151 0.362887 0.215723
0.799045 0.376278 0.225873
0.852563 0.382992 0.231103
0.056264 0.281719 0.131837
0.096133 0.292962 0.139187
0.138490 0.303518 0.145927
0.180023 0.308907 0.148744
0.224417 0.314432 0.152005
0.271055 0.320012 0.155084
0.321483 0.326925 0.159221
0.379997 0.339079 0.167348
