example_ofxGpuLutCube/bin/data/ofxGpuLutCube/LUT/T15 (warm neutral).cube
LUT_3D_SIZE 16
0.016939 0.026777 0.000000
0.106595 0.026777 0.000000
0.191411 0.026777 0.000000
0.274961 0.026777 0.000000
0.357218 0.026777 0.000000
0.439713 0.026777 0.000000
0.519762 0.026777 0.000000
0.599709 0.026777 0.000000
0.679156 0.026777 0.000000
0.758188 0.026777 0.000000
0.837274 0.026777 0.000000
0.914090 0.026777 0.000000
0.967316 0.026777 0.000000
0.991920 0.026777 0.000000
0.999201 0.026777 0.000000
1.000000 0.026777 0.000000
0.016939 0.116240 0.000000
0.106595 0.116240 0.000000
0.191411 0.116240 0.000000
0.274961 0.116240 0.000000
0.357218 0.116240 0.000000
0.439713 0.116240 0.000000
0.519762 0.116240 0.000000
0.599709 0.116240 0.000000
0.679156 0.116240 0.000000
0.758188 0.116240 0.000000
0.837274 0.116240 0.000000
0.914090 0.116240 0.000000
0.967316 0.116240 0.000000
0.991920 0.116240 0.000000
0.999201 0.116240 0.000000
1.000000 0.116240 0.000000
0.016939 0.201976 0.000000
0.106595 0.201976 0.000000
0.191411 0.201976 0.000000
0.274961 0.201976 0.000000
0.357218 0.201976 0.000000
0.439713 0.201976 0.000000
0.519762 0.201976 0.000000
0.599709 0.201976 0.000000
0.679156 0.201976 0.000000
0.758188 0.201976 0.000000
0.837274 0.201976 0.000000
0.914090 0.201976 0.000000
0.967316 0.201976 0.000000
0.991920 0.201976 0.000000
0.999201 0.201976 0.000000
1.000000 0.201976 0.000000
0.016939 0.285891 0.000000
0.106595 0.285891 0.000000
0.191411 0.285891 0.000000
0.274961 0.285891 0.000000
0.357218 0.285891 0.000000
0.439713 0.285891 0.000000
0.519762 0.285891 0.000000
0.599709 0.285891 0.000000
0.679156 0.285891 0.000000
0.758188 0.285891 0.000000
0.837274 0.285891 0.000000
0.914090 0.285891 0.000000
0.967316 0.285891 0.000000
0.991920 0.285891 0.000000
0.999201 0.285891 0.000000
1.000000 0.285891 0.000000
0.016939 0.368554 0.000000
0.106595 0.368554 0.000000
0.191411 0.368554 0.000000
0.274961 0.368554 0.000000
0.357218 0.368554 0.000000
0.439713 0.368554 0.000000
0.519762 0.368554 0.000000
0.599709 0.368554 0.000000
0.679156 0.368554 0.000000
0.758188 0.368554 0.000000
0.837274 0.368554 0.000000
0.914090 0.368554 0.000000
0.967316 0.368554 0.000000
0.991920 0.368554 0.000000
0.999201 0.368554 0.000000
1.000000 0.368554 0.000000
0.016939 0.450314 0.000000
0.106595 0.450314 0.000000
0.191411 0.450314 0.000000
0.274961 0.450314 0.000000
0.357218 0.450314 0.000000
0.439713 0.450314 0.000000
0.519762 0.450314 0.000000
0.599709 0.450314 0.000000
0.679156 0.450314 0.000000
0.758188 0.450314 0.000000
0.837274 0.450314 0.000000
0.914090 0.450314 0.000000
0.967316 0.450314 0.000000
0.991920 0.450314 0.000000
0.999201 0.450314 0.000000
1.000000 0.450314 0.000000
0.016939 0.531344 0.000000
0.106595 0.531344 0.000000
0.191411 0.531344 0.000000
0.274961 0.531344 0.000000
0.357218 0.531344 0.000000
0.439713 0.531344 0.000000
0.519762 0.531344 0.000000
0.599709 0.531344 0.000000
0.679156 0.531344 0.000000
0.758188 0.531344 0.000000
0.837274 0.531344 0.000000
0.914090 0.531344 0.000000
0.967316 0.531344 0.000000
0.991920 0.531344 0.000000
0.999201 0.531344 0.000000
1.000000 0.531344 0.000000
0.016939 0.611738 0.000000
0.106595 0.611738 0.000000
0.191411 0.611738 0.000000
0.274961 0.611738 0.000000
0.357218 0.611738 0.000000
0.439713 0.611738 0.000000
0.519762 0.611738 0.000000
0.599709 0.611738 0.000000
0.679156 0.611738 0.000000
0.758188 0.611738 0.000000
0.837274 0.611738 0.000000
0.914090 0.611738 0.000000
0.967316 0.611738 0.000000
0.991920 0.611738 0.000000
0.999201 0.611738 0.000000
1.000000 0.611738 0.000000
0.016939 0.691694 0.000000
0.106595 0.691694 0.000000
0.191411 0.691694 0.000000
0.274961 0.691694 0.000000
0.357218 0.691694 0.000000
0.439713 0.691694 0.000000
0.519762 0.691694 0.000000
0.599709 0.691694 0.000000
0.679156 0.691694 0.000000
0.758188 0.691694 0.000000
0.837274 0.691694 0.000000
0.914090 0.691694 0.000000
0.967316 0.691694 0.000000
0.991920 0.691694 0.000000
0.999201 0.691694 0.000000
1.000000 0.691694 0.000000
0.016939 0.771114 0.000000
0.106595 0.771114 0.000000
0.191411 0.771114 0.000000
0.274961 0.771114 0.000000
0.357218 0.771114 0.000000
0.439713 0.771114 0.000000
0.519762 0.771114 0.000000
0.599709 0.771114 0.000000
0.679156 0.771114 0.000000
0.758188 0.771114 0.000000
0.837274 0.771114 0.000000
0.914090 0.771114 0.000000
0.967316 0.771114 0.000000
0.991920 0.771114 0.000000
0.999201 0.771114 0.000000
1.000000 0.771114 0.000000
0.016939 0.850122 0.000000
0.106595 0.850122 0.000000
0.191411 0.850122 0.000000
0.274961 0.850122 0.000000
0.357218 0.850122 0.000000
0.439713 0.850122 0.000000
0.519762 0.850122 0.000000
0.599709 0.850122 0.000000
0.679156 0.850122 0.000000
0.758188 0.850122 0.000000
0.837274 0.850122 0.000000
0.914090 0.850122 0.000000
0.967316 0.850122 0.000000
0.991920 0.850122 0.000000
0.999201 0.850122 0.000000
1.000000 0.850122 0.000000
0.016939 0.926705 0.000000
0.106595 0.926705 0.000000
0.191411 0.926705 0.000000
0.274961 0.926705 0.000000
0.357218 0.926705 0.000000
0.439713 0.926705 0.000000
0.519762 0.926705 0.000000
0.599709 0.926705 0.000000
0.679156 0.926705 0.000000
0.758188 0.926705 0.000000
0.837274 0.926705 0.000000
0.914090 0.926705 0.000000
0.967316 0.926705 0.000000
0.991920 0.926705 0.000000
0.999201 0.926705 0.000000
1.000000 0.926705 0.000000
0.016939 0.973567 0.000000
0.106595 0.973567 0.000000
0.191411 0.973567 0.000000
0.274961 0.973567 0.000000
0.357218 0.973567 0.000000
0.439713 0.973567 0.000000
0.519762 0.973567 0.000000
0.599709 0.973567 0.000000
0.679156 0.973567 0.000000
0.758188 0.973567 0.000000
0.837274 0.973567 0.000000
0.914090 0.973567 0.000000
0.967316 0.973567 0.000000
0.991920 0.973567 0.000000
0.999201 0.973567 0.000000
1.000000 0.973567 0.000000
0.016939 0.993719 0.000000
0.106595 0.993719 0.000000
0.191411 0.993719 0.000000
0.274961 0.993719 0.000000
0.357218 0.993719 0.000000
0.439713 0.993719 0.000000
0.519762 0.993719 0.000000
0.599709 0.993719 0.000000
0.679156 0.993719 0.000000
0.758188 0.993719 0.000000
0.837274 0.993719 0.000000
0.914090 0.993719 0.000000
0.967316 0.993719 0.000000
0.991920 0.993719 0.000000
0.999201 0.993719 0.000000
1.000000 0.993719 0.000000
0.016939 0.999463 0.000000
0.106595 0.999463 0.000000
0.191411 0.999463 0.000000
0.274961 0.999463 0.000000
0.357218 0.999463 0.000000
0.439713 0.999463 0.000000
0.519762 0.999463 0.000000
0.599709 0.999463 0.000000
0.679156 0.999463 0.000000
0.758188 0.999463 0.000000
0.837274 0.999463 0.000000
0.914090 0.999463 0.000000
0.967316 0.999463 0.000000
0.991920 0.999463 0.000000
0.999201 0.999463 0.000000
1.000000 0.999463 0.000000
0.016939 1.000000 0.000000
0.106595 1.000000 0.000000
0.191411 1.000000 0.000000
0.274961 1.000000 0.000000
0.357218 1.000000 0.000000
0.439713 1.000000 0.000000
0.519762 1.000000 0.000000
0.599709 1.000000 0.000000
0.679156 1.000000 0.000000
0.758188 1.000000 0.000000
0.837274 1.000000 0.000000
0.914090 1.000000 0.000000
0.967316 1.000000 0.000000
0.991920 1.000000 0.000000
0.999201 1.000000 0.000000
1.000000 1.000000 0.000000
0.016939 0.026777 0.071692
0.106595 0.026777 0.071692
0.191411 0.026777 0.071692
0.274961 0.026777 0.071692
0.357218 0.026777 0.071692
0.439713 0.026777 0.071692
0.519762 0.026777 0.071692
0.599709 0.026777 0.071692
0.679156 0.026777 0.071692
0.758188 0.026777 0.071692
0.837274 0.026777 0.071692
0.914090 0.026777 0.071692
0.967316 0.026777 0.071692
0.991920 0.026777 0.071692
0.999201 0.026777 0.071692
1.000000 0.026777 0.071692
0.016939 0.116240 0.071692
0.106595 0.116240 0.071692
0.191411 0.116240 0.071692
0.274961 0.116240 0.071692
0.357218 0.116240 0.071692
0.439713 0.116240 0.071692
0.519762 0.116240 0.071692
0.599709 0.116240 0.071692
0.679156 0.116240 0.071692
0.758188 0.116240 0.071692
0.837274 0.116240 0.071692
0.914090 0.116240 0.071692
0.967316 0.116240 0.071692
0.991920 0.116240 0.071692
0.999201 0.116240 0.071692
1.000000 0.116240 0.071692
0.016939 0.201976 0.071692
0.106595 0.201976 0.071692
0.191411 0.201976 0.071692
0.274961 0.201976 0.071692
0.357218 0.201976 0.071692
0.439713 0.201976 0.071692
0.519762 0.201976 0.071692
0.599709 0.201976 0.071692
0.679156 0.201976 0.071692
0.758188 0.201976 0.071692
0.837274 0.201976 0.071692
0.914090 0.201976 0.071692
0.967316 0.201976 0.071692
0.991920 0.201976 0.071692
0.999201 0.201976 0.071692
1.000000 0.201976 0.071692
0.016939 0.285891 0.071692
0.106595 0.285891 0.071692
0.191411 0.285891 0.071692
0.274961 0.285891 0.071692
0.357218 0.285891 0.071692
0.439713 0.285891 0.071692
0.519762 0.285891 0.071692
0.599709 0.285891 0.071692
0.679156 0.285891 0.071692
0.758188 0.285891 0.071692
0.837274 0.285891 0.071692
0.914090 0.285891 0.071692
0.967316 0.285891 0.071692
0.991920 0.285891 0.071692
0.999201 0.285891 0.071692
1.000000 0.285891 0.071692
0.016939 0.368554 0.071692
0.106595 0.368554 0.071692
0.191411 0.368554 0.071692
0.274961 0.368554 0.071692
0.357218 0.368554 0.071692
0.439713 0.368554 0.071692
0.519762 0.368554 0.071692
0.599709 0.368554 0.071692
0.679156 0.368554 0.071692
0.758188 0.368554 0.071692
0.837274 0.368554 0.071692
0.914090 0.368554 0.071692
0.967316 0.368554 0.071692
0.991920 0.368554 0.071692
0.999201 0.368554 0.071692
1.000000 0.368554 0.071692
0.016939 0.450314 0.071692
0.106595 0.450314 0.071692
0.191411 0.450314 0.071692
0.274961 0.450314 0.071692
0.357218 0.450314 0.071692
0.439713 0.450314 0.071692
0.519762 0.450314 0.071692
0.599709 0.450314 0.071692
0.679156 0.450314 0.071692
0.758188 0.450314 0.071692
0.837274 0.450314 0.071692
0.914090 0.450314 0.071692
0.967316 0.450314 0.071692
0.991920 0.450314 0.071692
0.999201 0.450314 0.071692
1.000000 0.450314 0.071692
0.016939 0.531344 0.071692
0.106595 0.531344 0.071692
0.191411 0.531344 0.071692
0.274961 0.531344 0.071692
0.357218 0.531344 0.071692
0.439713 0.531344 0.071692
0.519762 0.531344 0.071692
0.599709 0.531344 0.071692
0.679156 0.531344 0.071692
0.758188 0.531344 0.071692
0.837274 0.531344 0.071692
0.914090 0.531344 0.071692
0.967316 0.531344 0.071692
0.991920 0.531344 0.071692
0.999201 0.531344 0.071692
1.000000 0.531344 0.071692
0.016939 0.611738 0.071692
0.106595 0.611738 0.071692
0.191411 0.611738 0.071692
0.274961 0.611738 0.071692
0.357218 0.611738 0.071692
0.439713 0.611738 0.071692
0.519762 0.611738 0.071692
0.599709 0.611738 0.071692
0.679156 0.611738 0.071692
0.758188 0.611738 0.071692
0.837274 0.611738 0.071692
0.914090 0.611738 0.071692
0.967316 0.611738 0.071692
0.991920 0.611738 0.071692
0.999201 0.611738 0.071692
1.000000 0.611738 0.071692
0.016939 0.691694 0.071692
0.106595 0.691694 0.071692
0.191411 0.691694 0.071692
0.274961 0.691694 0.071692
0.357218 0.691694 0.071692
0.439713 0.691694 0.071692
0.519762 0.691694 0.071692
0.599709 0.691694 0.071692
0.679156 0.691694 0.071692
0.758188 0.691694 0.071692
0.837274 0.691694 0.071692
0.914090 0.691694 0.071692
0.967316 0.691694 0.071692
0.991920 0.691694 0.071692
0.999201 0.691694 0.071692
1.000000 0.691694 0.071692
0.016939 0.771114 0.071692
0.106595 0.771114 0.071692
0.191411 0.771114 0.071692
0.274961 0.771114 0.071692
0.357218 0.771114 0.071692
0.439713 0.771114 0.071692
0.519762 0.771114 0.071692
0.599709 0.771114 0.071692
0.679156 0.771114 0.071692
0.758188 0.771114 0.071692
0.837274 0.771114 0.071692
0.914090 0.771114 0.071692
0.967316 0.771114 0.071692
0.991920 0.771114 0.071692
0.999201 0.771114 0.071692
1.000000 0.771114 0.071692
0.016939 0.850122 0.071692
0.106595 0.850122 0.071692
0.191411 0.850122 0.071692
0.274961 0.850122 0.071692
0.357218 0.850122 0.071692
0.439713 0.850122 0.071692
0.519762 0.850122 0.071692
0.599709 0.850122 0.071692
0.679156 0.850122 0.071692
0.758188 0.850122 0.071692
0.837274 0.850122 0.071692
0.914090 0.850122 0.071692
0.967316 0.850122 0.071692
0.991920 0.850122 0.071692
0.999201 0.850122 0.071692
1.000000 0.850122 0.071692
0.016939 0.926705 0.071692
0.106595 0.926705 0.071692
0.191411 0.926705 0.071692
0.274961 0.926705 0.071692
0.357218 0.926705 0.071692
0.439713 0.926705 0.071692
0.519762 0.926705 0.071692
0.599709 0.926705 0.071692
0.679156 0.926705 0.071692
0.758188 0.926705 0.071692
0.837274 0.926705 0.071692
0.914090 0.926705 0.071692
0.967316 0.926705 0.071692
0.991920 0.926705 0.071692
0.999201 0.926705 0.071692
1.000000 0.926705 0.071692
0.016939 0.973567 0.071692
0.106595 0.973567 0.071692
0.191411 0.973567 0.071692
0.274961 0.973567 0.071692
0.357218 0.973567 0.071692
0.439713 0.973567 0.071692
0.519762 0.973567 0.071692
0.599709 0.973567 0.071692
0.679156 0.973567 0.071692
0.758188 0.973567 0.071692
0.837274 0.973567 0.071692
0.914090 0.973567 0.071692
0.967316 0.973567 0.071692
0.991920 0.973567 0.071692
0.999201 0.973567 0.071692
1.000000 0.973567 0.071692
0.016939 0.993719 0.071692
0.106595 0.993719 0.071692
0.191411 0.993719 0.071692
0.274961 0.993719 0.071692
0.357218 0.993719 0.071692
0.439713 0.993719 0.071692
0.519762 0.993719 0.071692
0.599709 0.993719 0.071692
0.679156 0.993719 0.071692
0.758188 0.993719 0.071692
0.837274 0.993719 0.071692
0.914090 0.993719 0.071692
0.967316 0.993719 0.071692
0.991920 0.993719 0.071692
0.999201 0.993719 0.071692
1.000000 0.993719 0.071692
0.016939 0.999463 0.071692
0.106595 0.999463 0.071692
0.191411 0.999463 0.071692
0.274961 0.999463 0.071692
0.357218 0.999463 0.071692
0.439713 0.999463 0.071692
0.519762 0.999463 0.071692
0.599709 0.999463 0.071692
0.679156 0.999463 0.071692
0.758188 0.999463 0.071692
0.837274 0.999463 0.071692
0.914090 0.999463 0.071692
0.967316 0.999463 0.071692
0.991920 0.999463 0.071692
0.999201 0.999463 0.071692
1.000000 0.999463 0.071692
0.016939 1.000000 0.071692
0.106595 1.000000 0.071692
0.191411 1.000000 0.071692
0.274961 1.000000 0.071692
0.357218 1.000000 0.071692
0.439713 1.000000 0.071692
0.519762 1.000000 0.071692
0.599709 1.000000 0.071692
0.679156 1.000000 0.071692
0.758188 1.000000 0.071692
0.837274 1.000000 0.071692
0.914090 1.000000 0.071692
0.967316 1.000000 0.071692
0.991920 1.000000 0.071692
0.999201 1.000000 0.071692
1.000000 1.000000 0.071692
0.016939 0.026777 0.150946
0.106595 0.026777 0.150946
0.191411 0.026777 0.150946
0.274961 0.026777 0.150946
0.357218 0.026777 0.150946
0.439713 0.026777 0.150946
0.519762 0.026777 0.150946
0.599709 0.026777 0.150946
0.679156 0.026777 0.150946
0.758188 0.026777 0.150946
0.837274 0.026777 0.150946
0.914090 0.026777 0.150946
0.967316 0.026777 0.150946
0.991920 0.026777 0.150946
0.999201 0.026777 0.150946
1.000000 0.026777 0.150946
0.016939 0.116240 0.150946
0.106595 0.116240 0.150946
0.191411 0.116240 0.150946
0.274961 0.116240 0.150946
0.357218 0.116240 0.150946
0.439713 0.116240 0.150946
0.519762 0.116240 0.150946
0.599709 0.116240 0.150946
0.679156 0.116240 0.150946
0.758188 0.116240 0.150946
0.837274 0.116240 0.150946
0.914090 0.116240 0.150946
0.967316 0.116240 0.150946
0.991920 0.116240 0.150946
0.999201 0.116240 0.150946
1.000000 0.116240 0.150946
0.016939 0.201976 0.150946
0.106595 0.201976 0.150946
0.191411 0.201976 0.150946
0.274961 0.201976 0.150946
0.357218 0.201976 0.150946
0.439713 0.201976 0.150946
0.519762 0.201976 0.150946
0.599709 0.201976 0.150946
0.679156 0.201976 0.150946
0.758188 0.201976 0.150946
0.837274 0.201976 0.150946
0.914090 0.201976 0.150946
0.967316 0.201976 0.150946
0.991920 0.201976 0.150946
0.999201 0.201976 0.150946
1.000000 0.201976 0.150946
0.016939 0.285891 0.150946
0.106595 0.285891 0.150946
0.191411 0.285891 0.150946
0.274961 0.285891 0.150946
0.357218 0.285891 0.150946
0.439713 0.285891 0.150946
0.519762 0.285891 0.150946
0.599709 0.285891 0.150946
0.679156 0.285891 0.150946
0.758188 0.285891 0.150946
0.837274 0.285891 0.150946
0.914090 0.285891 0.150946
0.967316 0.285891 0.150946
0.991920 0.285891 0.150946
0.999201 0.285891 0.150946
1.000000 0.285891 0.150946
0.016939 0.368554 0.150946
0.106595 0.368554 0.150946
0.191411 0.368554 0.150946
0.274961 0.368554 0.150946
0.357218 0.368554 0.150946
0.439713 0.368554 0.150946
0.519762 0.368554 0.150946
0.599709 0.368554 0.150946
0.679156 0.368554 0.150946
0.758188 0.368554 0.150946
0.837274 0.368554 0.150946
0.914090 0.368554 0.150946
0.967316 0.368554 0.150946
0.991920 0.368554 0.150946
0.999201 0.368554 0.150946
1.000000 0.368554 0.150946
0.016939 0.450314 0.150946
0.106595 0.450314 0.150946
0.191411 0.450314 0.150946
0.274961 0.450314 0.150946
0.357218 0.450314 0.150946
0.439713 0.450314 0.150946
0.519762 0.450314 0.150946
0.599709 0.450314 0.150946
0.679156 0.450314 0.150946
0.758188 0.450314 0.150946
0.837274 0.450314 0.150946
0.914090 0.450314 0.150946
0.967316 0.450314 0.150946
0.991920 0.450314 0.150946
0.999201 0.450314 0.150946
1.000000 0.450314 0.150946
0.016939 0.531344 0.150946
0.106595 0.531344 0.150946
0.191411 0.531344 0.150946
0.274961 0.531344 0.150946
0.357218 0.531344 0.150946
0.439713 0.531344 0.150946
0.519762 0.531344 0.150946
0.599709 0.531344 0.150946
0.679156 0.531344 0.150946
0.758188 0.531344 0.150946
0.837274 0.531344 0.150946
0.914090 0.531344 0.150946
0.967316 0.531344 0.150946
0.991920 0.531344 0.150946
0.999201 0.531344 0.150946
1.000000 0.531344 0.150946
0.016939 0.611738 0.150946
0.106595 0.611738 0.150946
0.191411 0.611738 0.150946
0.274961 0.611738 0.150946
0.357218 0.611738 0.150946
0.439713 0.611738 0.150946
0.519762 0.611738 0.150946
0.599709 0.611738 0.150946
0.679156 0.611738 0.150946
0.758188 0.611738 0.150946
0.837274 0.611738 0.150946
0.914090 0.611738 0.150946
0.967316 0.611738 0.150946
0.991920 0.611738 0.150946
0.999201 0.611738 0.150946
1.000000 0.611738 0.150946
0.016939 0.691694 0.150946
0.106595 0.691694 0.150946
0.191411 0.691694 0.150946
0.274961 0.691694 0.150946
0.357218 0.691694 0.150946
0.439713 0.691694 0.150946
0.519762 0.691694 0.150946
0.599709 0.691694 0.150946
0.679156 0.691694 0.150946
0.758188 0.691694 0.150946
0.837274 0.691694 0.150946
0.914090 0.691694 0.150946
0.967316 0.691694 0.150946
0.991920 0.691694 0.150946
0.999201 0.691694 0.150946
1.000000 0.691694 0.150946
0.016939 0.771114 0.150946
0.106595 0.771114 0.150946
0.191411 0.771114 0.150946
0.274961 0.771114 0.150946
0.357218 0.771114 0.150946
0.439713 0.771114 0.150946
0.519762 0.771114 0.150946
0.599709 0.771114 0.150946
0.679156 0.771114 0.150946
0.758188 0.771114 0.150946
0.837274 0.771114 0.150946
0.914090 0.771114 0.150946
0.967316 0.771114 0.150946
0.991920 0.771114 0.150946
0.999201 0.771114 0.150946
1.000000 0.771114 0.150946
0.016939 0.850122 0.150946
0.106595 0.850122 0.150946
0.191411 0.850122 0.150946
0.274961 0.850122 0.150946
0.357218 0.850122 0.150946
0.439713 0.850122 0.150946
0.519762 0.850122 0.150946
0.599709 0.850122 0.150946
0.679156 0.850122 0.150946
0.758188 0.850122 0.150946
0.837274 0.850122 0.150946
0.914090 0.850122 0.150946
0.967316 0.850122 0.150946
0.991920 0.850122 0.150946
0.999201 0.850122 0.150946
1.000000 0.850122 0.150946
0.016939 0.926705 0.150946
0.106595 0.926705 0.150946
0.191411 0.926705 0.150946
0.274961 0.926705 0.150946
0.357218 0.926705 0.150946
0.439713 0.926705 0.150946
0.519762 0.926705 0.150946
0.599709 0.926705 0.150946
0.679156 0.926705 0.150946
0.758188 0.926705 0.150946
0.837274 0.926705 0.150946
0.914090 0.926705 0.150946
0.967316 0.926705 0.150946
0.991920 0.926705 0.150946
0.999201 0.926705 0.150946
1.000000 0.926705 0.150946
0.016939 0.973567 0.150946
0.106595 0.973567 0.150946
0.191411 0.973567 0.150946
0.274961 0.973567 0.150946
0.357218 0.973567 0.150946
0.439713 0.973567 0.150946
0.519762 0.973567 0.150946
0.599709 0.973567 0.150946
0.679156 0.973567 0.150946
0.758188 0.973567 0.150946
0.837274 0.973567 0.150946
0.914090 0.973567 0.150946
0.967316 0.973567 0.150946
0.991920 0.973567 0.150946
0.999201 0.973567 0.150946
1.000000 0.973567 0.150946
0.016939 0.993719 0.150946
0.106595 0.993719 0.150946
0.191411 0.993719 0.150946
0.274961 0.993719 0.150946
0.357218 0.993719 0.150946
0.439713 0.993719 0.150946
0.519762 0.993719 0.150946
0.599709 0.993719 0.150946
0.679156 0.993719 0.150946
0.758188 0.993719 0.150946
0.837274 0.993719 0.150946
0.914090 0.993719 0.150946
0.967316 0.993719 0.150946
0.991920 0.993719 0.150946
0.999201 0.993719 0.150946
1.000000 0.993719 0.150946
0.016939 0.999463 0.150946
0.106595 0.999463 0.150946
0.191411 0.999463 0.150946
0.274961 0.999463 0.150946
0.357218 0.999463 0.150946
0.439713 0.999463 0.150946
0.519762 0.999463 0.150946
0.599709 0.999463 0.150946
0.679156 0.999463 0.150946
0.758188 0.999463 0.150946
0.837274 0.999463 0.150946
0.914090 0.999463 0.150946
0.967316 0.999463 0.150946
0.991920 0.999463 0.150946
0.999201 0.999463 0.150946
1.000000 0.999463 0.150946
0.016939 1.000000 0.150946
0.106595 1.000000 0.150946
0.191411 1.000000 0.150946
0.274961 1.000000 0.150946
0.357218 1.000000 0.150946
0.439713 1.000000 0.150946
0.519762 1.000000 0.150946
0.599709 1.000000 0.150946
0.679156 1.000000 0.150946
0.758188 1.000000 0.150946
0.837274 1.000000 0.150946
0.914090 1.000000 0.150946
0.967316 1.000000 0.150946
0.991920 1.000000 0.150946
0.999201 1.000000 0.150946
1.000000 1.000000 0.150946
0.016939 0.026777 0.232639
0.106595 0.026777 0.232639
0.191411 0.026777 0.232639
0.274961 0.026777 0.232639
0.357218 0.026777 0.232639
0.439713 0.026777 0.232639
0.519762 0.026777 0.232639
0.599709 0.026777 0.232639
0.679156 0.026777 0.232639
0.758188 0.026777 0.232639
0.837274 0.026777 0.232639
0.914090 0.026777 0.232639
0.967316 0.026777 0.232639
0.991920 0.026777 0.232639
0.999201 0.026777 0.232639
1.000000 0.026777 0.232639
0.016939 0.116240 0.232639
0.106595 0.116240 0.232639
0.191411 0.116240 0.232639
0.274961 0.116240 0.232639
0.357218 0.116240 0.232639
0.439713 0.116240 0.232639
0.519762 0.116240 0.232639
0.599709 0.116240 0.232639
0.679156 0.116240 0.232639
0.758188 0.116240 0.232639
0.837274 0.116240 0.232639
0.914090 0.116240 0.232639
0.967316 0.116240 0.232639
0.991920 0.116240 0.232639
0.999201 0.116240 0.232639
1.000000 0.116240 0.232639
0.016939 0.201976 0.232639
0.106595 0.201976 0.232639
0.191411 0.201976 0.232639
0.274961 0.201976 0.232639
0.357218 0.201976 0.232639
0.439713 0.201976 0.232639
0.519762 0.201976 0.232639
0.599709 0.201976 0.232639
0.679156 0.201976 0.232639
0.758188 0.201976 0.232639
0.837274 0.201976 0.232639
0.914090 0.201976 0.232639
0.967316 0.201976 0.232639
0.991920 0.201976 0.232639
0.999201 0.201976 0.232639
1.000000 0.201976 0.232639
0.016939 0.285891 0.232639
0.106595 0.285891 0.232639
0.191411 0.285891 0.232639
0.274961 0.285891 0.232639
0.357218 0.285891 0.232639
0.439713 0.285891 0.232639
0.519762 0.285891 0.232639
0.599709 0.285891 0.232639
0.679156 0.285891 0.232639
0.758188 0.285891 0.232639
0.837274 0.285891 0.232639
0.914090 0.285891 0.232639
0.967316 0.285891 0.232639
0.991920 0.285891 0.232639
0.999201 0.285891 0.232639
1.000000 0.285891 0.232639
0.016939 0.368554 0.232639
0.106595 0.368554 0.232639
0.191411 0.368554 0.232639
0.274961 0.368554 0.232639
0.357218 0.368554 0.232639
0.439713 0.368554 0.232639
0.519762 0.368554 0.232639
0.599709 0.368554 0.232639
0.679156 0.368554 0.232639
0.758188 0.368554 0.232639
0.837274 0.368554 0.232639
0.914090 0.368554 0.232639
0.967316 0.368554 0.232639
0.991920 0.368554 0.232639
0.999201 0.368554 0.232639
1.000000 0.368554 0.232639
0.016939 0.450314 0.232639
0.106595 0.450314 0.232639
0.191411 0.450314 0.232639
0.274961 0.450314 0.232639
0.357218 0.450314 0.232639
0.439713 0.450314 0.232639
0.519762 0.450314 0.232639
0.599709 0.450314 0.232639
0.679156 0.450314 0.232639
0.758188 0.450314 0.232639
0.837274 0.450314 0.232639
0.914090 0.450314 0.232639
0.967316 0.450314 0.232639
0.991920 0.450314 0.232639
0.999201 0.450314 0.232639
1.000000 0.450314 0.232639
0.016939 0.531344 0.232639
0.106595 0.531344 0.232639
0.191411 0.531344 0.232639
0.274961 0.531344 0.232639
0.357218 0.531344 0.232639
0.439713 0.531344 0.232639
0.519762 0.531344 0.232639
0.599709 0.531344 0.232639
0.679156 0.531344 0.232639
0.758188 0.531344 0.232639
0.837274 0.531344 0.232639
0.914090 0.531344 0.232639
0.967316 0.531344 0.232639
0.991920 0.531344 0.232639
0.999201 0.531344 0.232639
1.000000 0.531344 0.232639
0.016939 0.611738 0.232639
0.106595 0.611738 0.232639
0.191411 0.611738 0.232639
0.274961 0.611738 0.232639
0.357218 0.611738 0.232639
0.439713 0.611738 0.232639
0.519762 0.611738 0.232639
0.599709 0.611738 0.232639
