example_ofxGpuLutCube/bin/data/ofxGpuLutCube/LUT/T15 (warm neutral).cube
LUT_3D_SIZE 6
0.016939 0.026777 0.000000
0.274961 0.026777 0.000000
0.519762 0.026777 0.000000
0.758188 0.026777 0.000000
0.967316 0.026777 0.000000
1.000000 0.026777 0.000000
0.016939 0.285891 0.000000
0.274961 0.285891 0.000000
0.519762 0.285891 0.000000
0.758188 0.285891 0.000000
0.967316 0.285891 0.000000
1.000000 0.285891 0.000000
0.016939 0.531344 0.000000
0.274961 0.531344 0.000000
0.519762 0.531344 0.000000
0.758188 0.531344 0.000000
0.967316 0.531344 0.000000
1.000000 0.531344 0.000000
0.016939 0.771114 0.000000
0.274961 0.771114 0.000000
0.519762 0.771114 0.000000
0.758188 0.771114 0.000000
0.967316 0.771114 0.000000
1.000000 0.771114 0.000000
0.016939 0.973567 0.000000
0.274961 0.973567 0.000000
0.519762 0.973567 0.000000
0.758188 0.973567 0.000000
0.967316 0.973567 0.000000
1.000000 0.973567 0.000000
0.016939 1.000000 0.000000
0.274961 1.000000 0.000000
0.519762 1.000000 0.000000
0.758188 1.000000 0.000000
0.967316 1.000000 0.000000
1.000000 1.000000 0.000000
0.016939 0.026777 0.232639
0.274961 0.026777 0.232639
0.519762 0.026777 0.232639
0.758188 0.026777 0.232639
0.967316 0.026777 0.232639
1.000000 0.026777 0.232639
0.016939 0.285891 0.232639
0.274961 0.285891 0.232639
0.519762 0.285891 0.232639
0.758188 0.285891 0.232639
0.967316 0.285891 0.232639
1.000000 0.285891 0.232639
0.016939 0.531344 0.232639
0.274961 0.531344 0.232639
0.519762 0.531344 0.232639
0.758188 0.531344 0.232639
0.967316 0.531344 0.232639
1.000000 0.531344 0.232639
0.016939 0.771114 0.232639
0.274961 0.771114 0.232639
0.519762 0.771114 0.232639
0.758188 0.771114 0.232639
0.967316 0.771114 0.232639
1.000000 0.771114 0.232639
0.016939 0.973567 0.232639
0.274961 0.973567 0.232639
0.519762 0.973567 0.232639
0.758188 0.973567 0.232639
0.967316 0.973567 0.232639
1.000000 0.973567 0.232639
0.016939 1.000000 0.232639
0.274961 1.000000 0.232639
0.519762 1.000000 0.232639
0.758188 1.000000 0.232639
0.967316 1.000000 0.232639
1.000000 1.000000 0.232639
0.016939 0.026777 0.485354
0.274961 0.026777 0.485354
0.519762 0.026777 0.485354
0.758188 0.026777 0.485354
0.967316 0.026777 0.485354
1.000000 0.026777 0.485354
0.016939 0.285891 0.485354
0.274961 0.285891 0.485354
0.519762 0.285891 0.485354
0.758188 0.285891 0.485354
0.967316 0.285891 0.485354
1.000000 0.285891 0.485354
0.016939 0.531344 0.485354
0.274961 0.531344 0.485354
0.519762 0.531344 0.485354
0.758188 0.531344 0.485354
0.967316 0.531344 0.485354
1.000000 0.531344 0.485354
0.016939 0.771114 0.485354
0.274961 0.771114 0.485354
0.519762 0.771114 0.485354
0.758188 0.771114 0.485354
0.967316 0.771114 0.485354
1.000000 0.771114 0.485354
0.016939 0.973567 0.485354
0.274961 0.973567 0.485354
0.519762 0.973567 0.485354
0.758188 0.973567 0.485354
0.967316 0.973567 0.485354
1.000000 0.973567 0.485354
0.016939 1.000000 0.485354
0.274961 1.000000 0.485354
0.519762 1.000000 0.485354
0.758188 1.000000 0.485354
0.967316 1.000000 0.485354
1.000000 1.000000 0.485354
0.016939 0.026777 0.745203
0.274961 0.026777 0.745203
0.519762 0.026777 0.745203
0.758188 0.026777 0.745203
0.967316 0.026777 0.745203
1.000000 0.026777 0.745203
0.016939 0.285891 0.745203
0.274961 0.285891 0.745203
0.519762 0.285891 0.745203
0.758188 0.285891 0.745203
0.967316 0.285891 0.745203
1.000000 0.285891 0.745203
0.016939 0.531344 0.745203
0.274961 0.531344 0.745203
0.519762 0.531344 0.745203
0.758188 0.531344 0.745203
0.967316 0.531344 0.745203
1.000000 0.531344 0.745203
0.016939 0.771114 0.745203
0.274961 0.771114 0.745203
0.519762 0.771114 0.745203
0.758188 0.771114 0.745203
0.967316 0.771114 0.745203
1.000000 0.771114 0.745203
0.016939 0.973567 0.745203
0.274961 0.973567 0.745203
0.519762 0.973567 0.745203
0.758188 0.973567 0.745203
0.967316 0.973567 0.745203
1.000000 0.973567 0.745203
0.016939 1.000000 0.745203
0.274961 1.000000 0.745203
0.519762 1.000000 0.745203
0.758188 1.000000 0.745203
0.967316 1.000000 0.745203
1.000000 1.000000 0.745203
0.016939 0.026777 0.971382
0.274961 0.026777 0.971382
0.519762 0.026777 0.971382
0.758188 0.026777 0.971382
0.967316 0.026777 0.971382
1.000000 0.026777 0.971382
0.016939 0.285891 0.971382
0.274961 0.285891 0.971382
0.519762 0.285891 0.971382
0.758188 0.285891 0.971382
0.967316 0.285891 0.971382
1.000000 0.285891 0.971382
0.016939 0.531344 0.971382
0.274961 0.531344 0.971382
0.519762 0.531344 0.971382
0.758188 0.531344 0.971382
0.967316 0.531344 0.971382
1.000000 0.531344 0.971382
0.016939 0.771114 0.971382
0.274961 0.771114 0.971382
0.519762 0.771114 0.971382
0.758188 0.771114 0.971382
0.967316 0.771114 0.971382
1.000000 0.771114 0.971382
0.016939 0.973567 0.971382
0.274961 0.973567 0.971382
0.519762 0.973567 0.971382
0.758188 0.973567 0.971382
0.967316 0.973567 0.971382
1.000000 0.973567 0.971382
0.016939 1.000000 0.971382
0.274961 1.000000 0.971382
0.519762 1.000000 0.971382
0.758188 1.000000 0.971382
0.967316 1.000000 0.971382
1.000000 1.000000 0.971382
0.016939 0.026777 1.000000
0.274961 0.026777 1.000000
0.519762 0.026777 1.000000
0.758188 0.026777 1.000000
0.967316 0.026777 1.000000
1.000000 0.026777 1.000000
0.016939 0.285891 1.000000
0.274961 0.285891 1.000000
0.519762 0.285891 1.000000
0.758188 0.285891 1.000000
0.967316 0.285891 1.000000
1.000000 0.285891 1.000000
0.016939 0.531344 1.000000
0.274961 0.531344 1.000000
0.519762 0.531344 1.000000
0.758188 0.531344 1.000000
0.967316 0.531344 1.000000
1.000000 0.531344 1.000000
0.016939 0.771114 1.000000
0.274961 0.771114 1.000000
0.519762 0.771114 1.000000
0.758188 0.771114 1.000000
0.967316 0.771114 1.000000
1.000000 0.771114 1.000000
0.016939 0.973567 1.000000
0.274961 0.973567 1.000000
0.519762 0.973567 1.000000
0.758188 0.973567 1.000000
0.967316 0.973567 1.000000
1.000000 0.973567 1.000000
0.016939 1.000000 1.000000
0.274961 1.000000 1.000000
0.519762 1.000000 1.000000
0.758188 1.000000 1.000000
0.967316 1.000000 1.000000
1.000000 1.000000 1.000000
