example_ofxGpuLutCube/bin/data/ofxGpuLutCube/LUT/T16 (very warm greenish).cube
LUT_3D_SIZE 6
0.000000 0.000000 0.000000
0.233206 0.000000 0.000000
0.491975 0.000000 0.000000
0.739236 0.000000 0.000000
0.961680 0.000000 0.000000
1.000000 0.000000 0.000000
0.000000 0.191024 0.000000
0.233206 0.191024 0.000000
0.491975 0.191024 0.000000
0.739236 0.191024 0.000000
0.961680 0.191024 0.000000
1.000000 0.191024 0.000000
0.000000 0.442615 0.000000
0.233206 0.442615 0.000000
0.491975 0.442615 0.000000
0.739236 0.442615 0.000000
0.961680 0.442615 0.000000
1.000000 0.442615 0.000000
0.000000 0.715806 0.000000
0.233206 0.715806 0.000000
0.491975 0.715806 0.000000
0.739236 0.715806 0.000000
0.961680 0.715806 0.000000
1.000000 0.715806 0.000000
0.000000 0.966014 0.000000
0.233206 0.966014 0.000000
0.491975 0.966014 0.000000
0.739236 0.966014 0.000000
0.961680 0.966014 0.000000
1.000000 0.966014 0.000000
0.000000 1.000000 0.000000
0.233206 1.000000 0.000000
0.491975 1.000000 0.000000
0.739236 1.000000 0.000000
0.961680 1.000000 0.000000
1.000000 1.000000 0.000000
0.000000 0.000000 0.126543
0.233206 0.000000 0.126543
0.491975 0.000000 0.126543
0.739236 0.000000 0.126543
0.961680 0.000000 0.126543
1.000000 0.000000 0.126543
0.000000 0.191024 0.126543
0.233206 0.191024 0.126543
0.491975 0.191024 0.126543
0.739236 0.191024 0.126543
0.961680 0.191024 0.126543
1.000000 0.191024 0.126543
0.000000 0.442615 0.126543
0.233206 0.442615 0.126543
0.491975 0.442615 0.126543
0.739236 0.442615 0.126543
0.961680 0.442615 0.126543
1.000000 0.442615 0.126543
0.000000 0.715806 0.126543
0.233206 0.715806 0.126543
0.491975 0.715806 0.126543
0.739236 0.715806 0.126543
0.961680 0.715806 0.126543
1.000000 0.715806 0.126543
0.000000 0.966014 0.126543
0.233206 0.966014 0.126543
0.491975 0.966014 0.126543
0.739236 0.966014 0.126543
0.961680 0.966014 0.126543
1.000000 0.966014 0.126543
0.000000 1.000000 0.126543
0.233206 1.000000 0.126543
0.491975 1.000000 0.126543
0.739236 1.000000 0.126543
0.961680 1.000000 0.126543
1.000000 1.000000 0.126543
0.000000 0.000000 0.356704
0.233206 0.000000 0.356704
0.491975 0.000000 0.356704
0.739236 0.000000 0.356704
0.961680 0.000000 0.356704
1.000000 0.000000 0.356704
0.000000 0.191024 0.356704
0.233206 0.191024 0.356704
0.491975 0.191024 0.356704
0.739236 0.191024 0.356704
0.961680 0.191024 0.356704
1.000000 0.191024 0.356704
0.000000 0.442615 0.356704
0.233206 0.442615 0.356704
0.491975 0.442615 0.356704
0.739236 0.442615 0.356704
0.961680 0.442615 0.356704
1.000000 0.442615 0.356704
0.000000 0.715806 0.356704
0.233206 0.715806 0.356704
0.491975 0.715806 0.356704
0.739236 0.715806 0.356704
0.961680 0.715806 0.356704
1.000000 0.715806 0.356704
0.000000 0.966014 0.356704
0.233206 0.966014 0.356704
0.491975 0.966014 0.356704
0.739236 0.966014 0.356704
0.961680 0.966014 0.356704
1.000000 0.966014 0.356704
0.000000 1.000000 0.356704
0.233206 1.000000 0.356704
0.491975 1.000000 0.356704
0.739236 1.000000 0.356704
0.961680 1.000000 0.356704
1.000000 1.000000 0.356704
0.000000 0.000000 0.639994
0.233206 0.000000 0.639994
0.491975 0.000000 0.639994
0.739236 0.000000 0.639994
0.961680 0.000000 0.639994
1.000000 0.000000 0.639994
0.000000 0.191024 0.639994
0.233206 0.191024 0.639994
0.491975 0.191024 0.639994
0.739236 0.191024 0.639994
0.961680 0.191024 0.639994
1.000000 0.191024 0.639994
0.000000 0.442615 0.639994
0.233206 0.442615 0.639994
0.491975 0.442615 0.639994
0.739236 0.442615 0.639994
0.961680 0.442615 0.639994
1.000000 0.442615 0.639994
0.000000 0.715806 0.639994
0.233206 0.715806 0.639994
0.491975 0.715806 0.639994
0.739236 0.715806 0.639994
0.961680 0.715806 0.639994
1.000000 0.715806 0.639994
0.000000 0.966014 0.639994
0.233206 0.966014 0.639994
0.491975 0.966014 0.639994
0.739236 0.966014 0.639994
0.961680 0.966014 0.639994
1.000000 0.966014 0.639994
0.000000 1.000000 0.639994
0.233206 1.000000 0.639994
0.491975 1.000000 0.639994
0.739236 1.000000 0.639994
0.961680 1.000000 0.639994
1.000000 1.000000 0.639994
0.000000 0.000000 0.940508
0.233206 0.000000 0.940508
0.491975 0.000000 0.940508
0.739236 0.000000 0.940508
0.961680 0.000000 0.940508
1.000000 0.000000 0.940508
0.000000 0.191024 0.940508
0.233206 0.191024 0.940508
0.491975 0.191024 0.940508
0.739236 0.191024 0.940508
0.961680 0.191024 0.940508
1.000000 0.191024 0.940508
0.000000 0.442615 0.940508
0.233206 0.442615 0.940508
0.491975 0.442615 0.940508
0.739236 0.442615 0.940508
0.961680 0.442615 0.940508
1.000000 0.442615 0.940508
0.000000 0.715806 0.940508
0.233206 0.715806 0.940508
0.491975 0.715806 0.940508
0.739236 0.715806 0.940508
0.961680 0.715806 0.940508
1.000000 0.715806 0.940508
0.000000 0.966014 0.940508
0.233206 0.966014 0.940508
0.491975 0.966014 0.940508
0.739236 0.966014 0.940508
0.961680 0.966014 0.940508
1.000000 0.966014 0.940508
0.000000 1.000000 0.940508
0.233206 1.000000 0.940508
0.491975 1.000000 0.940508
0.739236 1.000000 0.940508
0.961680 1.000000 0.940508
1.000000 1.000000 0.940508
0.000000 0.000000 1.000000
0.233206 0.000000 1.000000
0.491975 0.000000 1.000000
0.739236 0.000000 1.000000
0.961680 0.000000 1.000000
1.000000 0.000000 1.000000
0.000000 0.191024 1.000000
0.233206 0.191024 1.000000
0.491975 0.191024 1.000000
0.739236 0.191024 1.000000
0.961680 0.191024 1.000000
1.000000 0.191024 1.000000
0.000000 0.442615 1.000000
0.233206 0.442615 1.000000
0.491975 0.442615 1.000000
0.739236 0.442615 1.000000
0.961680 0.442615 1.000000
1.000000 0.442615 1.000000
0.000000 0.715806 1.000000
0.233206 0.715806 1.000000
0.491975 0.715806 1.000000
0.739236 0.715806 1.000000
0.961680 0.715806 1.000000
1.000000 0.715806 1.000000
0.000000 0.966014 1.000000
0.233206 0.966014 1.000000
0.491975 0.966014 1.000000
0.739236 0.966014 1.000000
0.961680 0.966014 1.000000
1.000000 0.966014 1.000000
0.000000 1.000000 1.000000
0.233206 1.000000 1.000000
0.491975 1.000000 1.000000
0.739236 1.000000 1.000000
0.961680 1.000000 1.000000
1.000000 1.000000 1.000000
