example_ofxGpuLutCube/bin/data/ofxGpuLutCube/LUT/T16 (very warm greenish).cube
LUT_3D_SIZE 16
0.000000 0.000000 0.000000
0.058668 0.000000 0.000000
0.142647 0.000000 0.000000
0.233206 0.000000 0.000000
0.321007 0.000000 0.000000
0.408102 0.000000 0.000000
0.491975 0.000000 0.000000
0.575263 0.000000 0.000000
0.657672 0.000000 0.000000
0.739236 0.000000 0.000000
0.820661 0.000000 0.000000
0.899761 0.000000 0.000000
0.961680 0.000000 0.000000
0.990428 0.000000 0.000000
0.999018 0.000000 0.000000
1.000000 0.000000 0.000000
0.000000 0.046230 0.000000
0.058668 0.046230 0.000000
0.142647 0.046230 0.000000
0.233206 0.046230 0.000000
0.321007 0.046230 0.000000
0.408102 0.046230 0.000000
0.491975 0.046230 0.000000
0.575263 0.046230 0.000000
0.657672 0.046230 0.000000
0.739236 0.046230 0.000000
0.820661 0.046230 0.000000
0.899761 0.046230 0.000000
0.961680 0.046230 0.000000
0.990428 0.046230 0.000000
0.999018 0.046230 0.000000
1.000000 0.046230 0.000000
0.000000 0.114621 0.000000
0.058668 0.114621 0.000000
0.142647 0.114621 0.000000
0.233206 0.114621 0.000000
0.321007 0.114621 0.000000
0.408102 0.114621 0.000000
0.491975 0.114621 0.000000
0.575263 0.114621 0.000000
0.657672 0.114621 0.000000
0.739236 0.114621 0.000000
0.820661 0.114621 0.000000
0.899761 0.114621 0.000000
0.961680 0.114621 0.000000
0.990428 0.114621 0.000000
0.999018 0.114621 0.000000
1.000000 0.114621 0.000000
0.000000 0.191024 0.000000
0.058668 0.191024 0.000000
0.142647 0.191024 0.000000
0.233206 0.191024 0.000000
0.321007 0.191024 0.000000
0.408102 0.191024 0.000000
0.491975 0.191024 0.000000
0.575263 0.191024 0.000000
0.657672 0.191024 0.000000
0.739236 0.191024 0.000000
0.820661 0.191024 0.000000
0.899761 0.191024 0.000000
0.961680 0.191024 0.000000
0.990428 0.191024 0.000000
0.999018 0.191024 0.000000
1.000000 0.191024 0.000000
0.000000 0.271756 0.000000
0.058668 0.271756 0.000000
0.142647 0.271756 0.000000
0.233206 0.271756 0.000000
0.321007 0.271756 0.000000
0.408102 0.271756 0.000000
0.491975 0.271756 0.000000
0.575263 0.271756 0.000000
0.657672 0.271756 0.000000
0.739236 0.271756 0.000000
0.820661 0.271756 0.000000
0.899761 0.271756 0.000000
0.961680 0.271756 0.000000
0.990428 0.271756 0.000000
0.999018 0.271756 0.000000
1.000000 0.271756 0.000000
0.000000 0.355807 0.000000
0.058668 0.355807 0.000000
0.142647 0.355807 0.000000
0.233206 0.355807 0.000000
0.321007 0.355807 0.000000
0.408102 0.355807 0.000000
0.491975 0.355807 0.000000
0.575263 0.355807 0.000000
0.657672 0.355807 0.000000
0.739236 0.355807 0.000000
0.820661 0.355807 0.000000
0.899761 0.355807 0.000000
0.961680 0.355807 0.000000
0.990428 0.355807 0.000000
0.999018 0.355807 0.000000
1.000000 0.355807 0.000000
0.000000 0.442615 0.000000
0.058668 0.442615 0.000000
0.142647 0.442615 0.000000
0.233206 0.442615 0.000000
0.321007 0.442615 0.000000
0.408102 0.442615 0.000000
0.491975 0.442615 0.000000
0.575263 0.442615 0.000000
0.657672 0.442615 0.000000
0.739236 0.442615 0.000000
0.820661 0.442615 0.000000
0.899761 0.442615 0.000000
0.961680 0.442615 0.000000
0.990428 0.442615 0.000000
0.999018 0.442615 0.000000
1.000000 0.442615 0.000000
0.000000 0.531674 0.000000
0.058668 0.531674 0.000000
0.142647 0.531674 0.000000
0.233206 0.531674 0.000000
0.321007 0.531674 0.000000
0.408102 0.531674 0.000000
0.491975 0.531674 0.000000
0.575263 0.531674 0.000000
0.657672 0.531674 0.000000
0.739236 0.531674 0.000000
0.820661 0.531674 0.000000
0.899761 0.531674 0.000000
0.961680 0.531674 0.000000
0.990428 0.531674 0.000000
0.999018 0.531674 0.000000
1.000000 0.531674 0.000000
0.000000 0.622809 0.000000
0.058668 0.622809 0.000000
0.142647 0.622809 0.000000
0.233206 0.622809 0.000000
0.321007 0.622809 0.000000
0.408102 0.622809 0.000000
0.491975 0.622809 0.000000
0.575263 0.622809 0.000000
0.657672 0.622809 0.000000
0.739236 0.622809 0.000000
0.820661 0.622809 0.000000
0.899761 0.622809 0.000000
0.961680 0.622809 0.000000
0.990428 0.622809 0.000000
0.999018 0.622809 0.000000
1.000000 0.622809 0.000000
0.000000 0.715806 0.000000
0.058668 0.715806 0.000000
0.142647 0.715806 0.000000
0.233206 0.715806 0.000000
0.321007 0.715806 0.000000
0.408102 0.715806 0.000000
0.491975 0.715806 0.000000
0.575263 0.715806 0.000000
0.657672 0.715806 0.000000
0.739236 0.715806 0.000000
0.820661 0.715806 0.000000
0.899761 0.715806 0.000000
0.961680 0.715806 0.000000
0.990428 0.715806 0.000000
0.999018 0.715806 0.000000
1.000000 0.715806 0.000000
0.000000 0.810238 0.000000
0.058668 0.810238 0.000000
0.142647 0.810238 0.000000
0.233206 0.810238 0.000000
0.321007 0.810238 0.000000
0.408102 0.810238 0.000000
0.491975 0.810238 0.000000
0.575263 0.810238 0.000000
0.657672 0.810238 0.000000
0.739236 0.810238 0.000000
0.820661 0.810238 0.000000
0.899761 0.810238 0.000000
0.961680 0.810238 0.000000
0.990428 0.810238 0.000000
0.999018 0.810238 0.000000
1.000000 0.810238 0.000000
0.000000 0.905082 0.000000
0.058668 0.905082 0.000000
0.142647 0.905082 0.000000
0.233206 0.905082 0.000000
0.321007 0.905082 0.000000
0.408102 0.905082 0.000000
0.491975 0.905082 0.000000
0.575263 0.905082 0.000000
0.657672 0.905082 0.000000
0.739236 0.905082 0.000000
0.820661 0.905082 0.000000
0.899761 0.905082 0.000000
0.961680 0.905082 0.000000
0.990428 0.905082 0.000000
0.999018 0.905082 0.000000
1.000000 0.905082 0.000000
0.000000 0.966014 0.000000
0.058668 0.966014 0.000000
0.142647 0.966014 0.000000
0.233206 0.966014 0.000000
0.321007 0.966014 0.000000
0.408102 0.966014 0.000000
0.491975 0.966014 0.000000
0.575263 0.966014 0.000000
0.657672 0.966014 0.000000
0.739236 0.966014 0.000000
0.820661 0.966014 0.000000
0.899761 0.966014 0.000000
0.961680 0.966014 0.000000
0.990428 0.966014 0.000000
0.999018 0.966014 0.000000
1.000000 0.966014 0.000000
0.000000 0.992076 0.000000
0.058668 0.992076 0.000000
0.142647 0.992076 0.000000
0.233206 0.992076 0.000000
0.321007 0.992076 0.000000
0.408102 0.992076 0.000000
0.491975 0.992076 0.000000
0.575263 0.992076 0.000000
0.657672 0.992076 0.000000
0.739236 0.992076 0.000000
0.820661 0.992076 0.000000
0.899761 0.992076 0.000000
0.961680 0.992076 0.000000
0.990428 0.992076 0.000000
0.999018 0.992076 0.000000
1.000000 0.992076 0.000000
0.000000 0.999393 0.000000
0.058668 0.999393 0.000000
0.142647 0.999393 0.000000
0.233206 0.999393 0.000000
0.321007 0.999393 0.000000
0.408102 0.999393 0.000000
0.491975 0.999393 0.000000
0.575263 0.999393 0.000000
0.657672 0.999393 0.000000
0.739236 0.999393 0.000000
0.820661 0.999393 0.000000
0.899761 0.999393 0.000000
0.961680 0.999393 0.000000
0.990428 0.999393 0.000000
0.999018 0.999393 0.000000
1.000000 0.999393 0.000000
0.000000 1.000000 0.000000
0.058668 1.000000 0.000000
0.142647 1.000000 0.000000
0.233206 1.000000 0.000000
0.321007 1.000000 0.000000
0.408102 1.000000 0.000000
0.491975 1.000000 0.000000
0.575263 1.000000 0.000000
0.657672 1.000000 0.000000
0.739236 1.000000 0.000000
0.820661 1.000000 0.000000
0.899761 1.000000 0.000000
0.961680 1.000000 0.000000
0.990428 1.000000 0.000000
0.999018 1.000000 0.000000
1.000000 1.000000 0.000000
0.000000 0.000000 0.020682
0.058668 0.000000 0.020682
0.142647 0.000000 0.020682
0.233206 0.000000 0.020682
0.321007 0.000000 0.020682
0.408102 0.000000 0.020682
0.491975 0.000000 0.020682
0.575263 0.000000 0.020682
0.657672 0.000000 0.020682
0.739236 0.000000 0.020682
0.820661 0.000000 0.020682
0.899761 0.000000 0.020682
0.961680 0.000000 0.020682
0.990428 0.000000 0.020682
0.999018 0.000000 0.020682
1.000000 0.000000 0.020682
0.000000 0.046230 0.020682
0.058668 0.046230 0.020682
0.142647 0.046230 0.020682
0.233206 0.046230 0.020682
0.321007 0.046230 0.020682
0.408102 0.046230 0.020682
0.491975 0.046230 0.020682
0.575263 0.046230 0.020682
0.657672 0.046230 0.020682
0.739236 0.046230 0.020682
0.820661 0.046230 0.020682
0.899761 0.046230 0.020682
0.961680 0.046230 0.020682
0.990428 0.046230 0.020682
0.999018 0.046230 0.020682
1.000000 0.046230 0.020682
0.000000 0.114621 0.020682
0.058668 0.114621 0.020682
0.142647 0.114621 0.020682
0.233206 0.114621 0.020682
0.321007 0.114621 0.020682
0.408102 0.114621 0.020682
0.491975 0.114621 0.020682
0.575263 0.114621 0.020682
0.657672 0.114621 0.020682
0.739236 0.114621 0.020682
0.820661 0.114621 0.020682
0.899761 0.114621 0.020682
0.961680 0.114621 0.020682
0.990428 0.114621 0.020682
0.999018 0.114621 0.020682
1.000000 0.114621 0.020682
0.000000 0.191024 0.020682
0.058668 0.191024 0.020682
0.142647 0.191024 0.020682
0.233206 0.191024 0.020682
0.321007 0.191024 0.020682
0.408102 0.191024 0.020682
0.491975 0.191024 0.020682
0.575263 0.191024 0.020682
0.657672 0.191024 0.020682
0.739236 0.191024 0.020682
0.820661 0.191024 0.020682
0.899761 0.191024 0.020682
0.961680 0.191024 0.020682
0.990428 0.191024 0.020682
0.999018 0.191024 0.020682
1.000000 0.191024 0.020682
0.000000 0.271756 0.020682
0.058668 0.271756 0.020682
0.142647 0.271756 0.020682
0.233206 0.271756 0.020682
0.321007 0.271756 0.020682
0.408102 0.271756 0.020682
0.491975 0.271756 0.020682
0.575263 0.271756 0.020682
0.657672 0.271756 0.020682
0.739236 0.271756 0.020682
0.820661 0.271756 0.020682
0.899761 0.271756 0.020682
0.961680 0.271756 0.020682
0.990428 0.271756 0.020682
0.999018 0.271756 0.020682
1.000000 0.271756 0.020682
0.000000 0.355807 0.020682
0.058668 0.355807 0.020682
0.142647 0.355807 0.020682
0.233206 0.355807 0.020682
0.321007 0.355807 0.020682
0.408102 0.355807 0.020682
0.491975 0.355807 0.020682
0.575263 0.355807 0.020682
0.657672 0.355807 0.020682
0.739236 0.355807 0.020682
0.820661 0.355807 0.020682
0.899761 0.355807 0.020682
0.961680 0.355807 0.020682
0.990428 0.355807 0.020682
0.999018 0.355807 0.020682
1.000000 0.355807 0.020682
0.000000 0.442615 0.020682
0.058668 0.442615 0.020682
0.142647 0.442615 0.020682
0.233206 0.442615 0.020682
0.321007 0.442615 0.020682
0.408102 0.442615 0.020682
0.491975 0.442615 0.020682
0.575263 0.442615 0.020682
0.657672 0.442615 0.020682
0.739236 0.442615 0.020682
0.820661 0.442615 0.020682
0.899761 0.442615 0.020682
0.961680 0.442615 0.020682
0.990428 0.442615 0.020682
0.999018 0.442615 0.020682
1.000000 0.442615 0.020682
0.000000 0.531674 0.020682
0.058668 0.531674 0.020682
0.142647 0.531674 0.020682
0.233206 0.531674 0.020682
0.321007 0.531674 0.020682
0.408102 0.531674 0.020682
0.491975 0.531674 0.020682
0.575263 0.531674 0.020682
0.657672 0.531674 0.020682
0.739236 0.531674 0.020682
0.820661 0.531674 0.020682
0.899761 0.531674 0.020682
0.961680 0.531674 0.020682
0.990428 0.531674 0.020682
0.999018 0.531674 0.020682
1.000000 0.531674 0.020682
0.000000 0.622809 0.020682
0.058668 0.622809 0.020682
0.142647 0.622809 0.020682
0.233206 0.622809 0.020682
0.321007 0.622809 0.020682
0.408102 0.622809 0.020682
0.491975 0.622809 0.020682
0.575263 0.622809 0.020682
0.657672 0.622809 0.020682
0.739236 0.622809 0.020682
0.820661 0.622809 0.020682
0.899761 0.622809 0.020682
0.961680 0.622809 0.020682
0.990428 0.622809 0.020682
0.999018 0.622809 0.020682
1.000000 0.622809 0.020682
0.000000 0.715806 0.020682
0.058668 0.715806 0.020682
0.142647 0.715806 0.020682
0.233206 0.715806 0.020682
0.321007 0.715806 0.020682
0.408102 0.715806 0.020682
0.491975 0.715806 0.020682
0.575263 0.715806 0.020682
0.657672 0.715806 0.020682
0.739236 0.715806 0.020682
0.820661 0.715806 0.020682
0.899761 0.715806 0.020682
0.961680 0.715806 0.020682
0.990428 0.715806 0.020682
0.999018 0.715806 0.020682
1.000000 0.715806 0.020682
0.000000 0.810238 0.020682
0.058668 0.810238 0.020682
0.142647 0.810238 0.020682
0.233206 0.810238 0.020682
0.321007 0.810238 0.020682
0.408102 0.810238 0.020682
0.491975 0.810238 0.020682
0.575263 0.810238 0.020682
0.657672 0.810238 0.020682
0.739236 0.810238 0.020682
0.820661 0.810238 0.020682
0.899761 0.810238 0.020682
0.961680 0.810238 0.020682
0.990428 0.810238 0.020682
0.999018 0.810238 0.020682
1.000000 0.810238 0.020682
0.000000 0.905082 0.020682
0.058668 0.905082 0.020682
0.142647 0.905082 0.020682
0.233206 0.905082 0.020682
0.321007 0.905082 0.020682
0.408102 0.905082 0.020682
0.491975 0.905082 0.020682
0.575263 0.905082 0.020682
0.657672 0.905082 0.020682
0.739236 0.905082 0.020682
0.820661 0.905082 0.020682
0.899761 0.905082 0.020682
0.961680 0.905082 0.020682
0.990428 0.905082 0.020682
0.999018 0.905082 0.020682
1.000000 0.905082 0.020682
0.000000 0.966014 0.020682
0.058668 0.966014 0.020682
0.142647 0.966014 0.020682
0.233206 0.966014 0.020682
0.321007 0.966014 0.020682
0.408102 0.966014 0.020682
0.491975 0.966014 0.020682
0.575263 0.966014 0.020682
0.657672 0.966014 0.020682
0.739236 0.966014 0.020682
0.820661 0.966014 0.020682
0.899761 0.966014 0.020682
0.961680 0.966014 0.020682
0.990428 0.966014 0.020682
0.999018 0.966014 0.020682
1.000000 0.966014 0.020682
0.000000 0.992076 0.020682
0.058668 0.992076 0.020682
0.142647 0.992076 0.020682
0.233206 0.992076 0.020682
0.321007 0.992076 0.020682
0.408102 0.992076 0.020682
0.491975 0.992076 0.020682
0.575263 0.992076 0.020682
0.657672 0.992076 0.020682
0.739236 0.992076 0.020682
0.820661 0.992076 0.020682
0.899761 0.992076 0.020682
0.961680 0.992076 0.020682
0.990428 0.992076 0.020682
0.999018 0.992076 0.020682
1.000000 0.992076 0.020682
0.000000 0.999393 0.020682
0.058668 0.999393 0.020682
0.142647 0.999393 0.020682
0.233206 0.999393 0.020682
0.321007 0.999393 0.020682
0.408102 0.999393 0.020682
0.491975 0.999393 0.020682
0.575263 0.999393 0.020682
0.657672 0.999393 0.020682
0.739236 0.999393 0.020682
0.820661 0.999393 0.020682
0.899761 0.999393 0.020682
0.961680 0.999393 0.020682
0.990428 0.999393 0.020682
0.999018 0.999393 0.020682
1.000000 0.999393 0.020682
0.000000 1.000000 0.020682
0.058668 1.000000 0.020682
0.142647 1.000000 0.020682
0.233206 1.000000 0.020682
0.321007 1.000000 0.020682
0.408102 1.000000 0.020682
0.491975 1.000000 0.020682
0.575263 1.000000 0.020682
0.657672 1.000000 0.020682
0.739236 1.000000 0.020682
0.820661 1.000000 0.020682
0.899761 1.000000 0.020682
0.961680 1.000000 0.020682
0.990428 1.000000 0.020682
0.999018 1.000000 0.020682
1.000000 1.000000 0.020682
0.000000 0.000000 0.066359
0.058668 0.000000 0.066359
0.142647 0.000000 0.066359
0.233206 0.000000 0.066359
0.321007 0.000000 0.066359
0.408102 0.000000 0.066359
0.491975 0.000000 0.066359
0.575263 0.000000 0.066359
0.657672 0.000000 0.066359
0.739236 0.000000 0.066359
0.820661 0.000000 0.066359
0.899761 0.000000 0.066359
0.961680 0.000000 0.066359
0.990428 0.000000 0.066359
0.999018 0.000000 0.066359
1.000000 0.000000 0.066359
0.000000 0.046230 0.066359
0.058668 0.046230 0.066359
0.142647 0.046230 0.066359
0.233206 0.046230 0.066359
0.321007 0.046230 0.066359
0.408102 0.046230 0.066359
0.491975 0.046230 0.066359
0.575263 0.046230 0.066359
0.657672 0.046230 0.066359
0.739236 0.046230 0.066359
0.820661 0.046230 0.066359
0.899761 0.046230 0.066359
0.961680 0.046230 0.066359
0.990428 0.046230 0.066359
0.999018 0.046230 0.066359
1.000000 0.046230 0.066359
0.000000 0.114621 0.066359
0.058668 0.114621 0.066359
0.142647 0.114621 0.066359
0.233206 0.114621 0.066359
0.321007 0.114621 0.066359
0.408102 0.114621 0.066359
0.491975 0.114621 0.066359
0.575263 0.114621 0.066359
0.657672 0.114621 0.066359
0.739236 0.114621 0.066359
0.820661 0.114621 0.066359
0.899761 0.114621 0.066359
0.961680 0.114621 0.066359
0.990428 0.114621 0.066359
0.999018 0.114621 0.066359
1.000000 0.114621 0.066359
0.000000 0.191024 0.066359
0.058668 0.191024 0.066359
0.142647 0.191024 0.066359
0.233206 0.191024 0.066359
0.321007 0.191024 0.066359
0.408102 0.191024 0.066359
0.491975 0.191024 0.066359
0.575263 0.191024 0.066359
0.657672 0.191024 0.066359
0.739236 0.191024 0.066359
0.820661 0.191024 0.066359
0.899761 0.191024 0.066359
0.961680 0.191024 0.066359
0.990428 0.191024 0.066359
0.999018 0.191024 0.066359
1.000000 0.191024 0.066359
0.000000 0.271756 0.066359
0.058668 0.271756 0.066359
0.142647 0.271756 0.066359
0.233206 0.271756 0.066359
0.321007 0.271756 0.066359
0.408102 0.271756 0.066359
0.491975 0.271756 0.066359
0.575263 0.271756 0.066359
0.657672 0.271756 0.066359
0.739236 0.271756 0.066359
0.820661 0.271756 0.066359
0.899761 0.271756 0.066359
0.961680 0.271756 0.066359
0.990428 0.271756 0.066359
0.999018 0.271756 0.066359
1.000000 0.271756 0.066359
0.000000 0.355807 0.066359
0.058668 0.355807 0.066359
0.142647 0.355807 0.066359
0.233206 0.355807 0.066359
0.321007 0.355807 0.066359
0.408102 0.355807 0.066359
0.491975 0.355807 0.066359
0.575263 0.355807 0.066359
0.657672 0.355807 0.066359
0.739236 0.355807 0.066359
0.820661 0.355807 0.066359
0.899761 0.355807 0.066359
0.961680 0.355807 0.066359
0.990428 0.355807 0.066359
0.999018 0.355807 0.066359
1.000000 0.355807 0.066359
0.000000 0.442615 0.066359
0.058668 0.442615 0.066359
0.142647 0.442615 0.066359
0.233206 0.442615 0.066359
0.321007 0.442615 0.066359
0.408102 0.442615 0.066359
0.491975 0.442615 0.066359
0.575263 0.442615 0.066359
0.657672 0.442615 0.066359
0.739236 0.442615 0.066359
0.820661 0.442615 0.066359
0.899761 0.442615 0.066359
0.961680 0.442615 0.066359
0.990428 0.442615 0.066359
0.999018 0.442615 0.066359
1.000000 0.442615 0.066359
0.000000 0.531674 0.066359
0.058668 0.531674 0.066359
0.142647 0.531674 0.066359
0.233206 0.531674 0.066359
0.321007 0.531674 0.066359
0.408102 0.531674 0.066359
0.491975 0.531674 0.066359
0.575263 0.531674 0.066359
0.657672 0.531674 0.066359
0.739236 0.531674 0.066359
0.820661 0.531674 0.066359
0.899761 0.531674 0.066359
0.961680 0.531674 0.066359
0.990428 0.531674 0.066359
0.999018 0.531674 0.066359
1.000000 0.531674 0.066359
0.000000 0.622809 0.066359
0.058668 0.622809 0.066359
0.142647 0.622809 0.066359
0.233206 0.622809 0.066359
0.321007 0.622809 0.066359
0.408102 0.622809 0.066359
0.491975 0.622809 0.066359
0.575263 0.622809 0.066359
0.657672 0.622809 0.066359
0.739236 0.622809 0.066359
0.820661 0.622809 0.066359
0.899761 0.622809 0.066359
0.961680 0.622809 0.066359
0.990428 0.622809 0.066359
0.999018 0.622809 0.066359
1.000000 0.622809 0.066359
0.000000 0.715806 0.066359
0.058668 0.715806 0.066359
0.142647 0.715806 0.066359
0.233206 0.715806 0.066359
0.321007 0.715806 0.066359
0.408102 0.715806 0.066359
0.491975 0.715806 0.066359
0.575263 0.715806 0.066359
0.657672 0.715806 0.066359
0.739236 0.715806 0.066359
0.820661 0.715806 0.066359
0.899761 0.715806 0.066359
0.961680 0.715806 0.066359
0.990428 0.715806 0.066359
0.999018 0.715806 0.066359
1.000000 0.715806 0.066359
0.000000 0.810238 0.066359
0.058668 0.810238 0.066359
0.142647 0.810238 0.066359
0.233206 0.810238 0.066359
0.321007 0.810238 0.066359
0.408102 0.810238 0.066359
0.491975 0.810238 0.066359
0.575263 0.810238 0.066359
0.657672 0.810238 0.066359
0.739236 0.810238 0.066359
0.820661 0.810238 0.066359
0.899761 0.810238 0.066359
0.961680 0.810238 0.066359
0.990428 0.810238 0.066359
0.999018 0.810238 0.066359
1.000000 0.810238 0.066359
0.000000 0.905082 0.066359
0.058668 0.905082 0.066359
0.142647 0.905082 0.066359
0.233206 0.905082 0.066359
0.321007 0.905082 0.066359
0.408102 0.905082 0.066359
0.491975 0.905082 0.066359
0.575263 0.905082 0.066359
0.657672 0.905082 0.066359
0.739236 0.905082 0.066359
0.820661 0.905082 0.066359
0.899761 0.905082 0.066359
0.961680 0.905082 0.066359
0.990428 0.905082 0.066359
0.999018 0.905082 0.066359
1.000000 0.905082 0.066359
0.000000 0.966014 0.066359
0.058668 0.966014 0.066359
0.142647 0.966014 0.066359
0.233206 0.966014 0.066359
0.321007 0.966014 0.066359
0.408102 0.966014 0.066359
0.491975 0.966014 0.066359
0.575263 0.966014 0.066359
0.657672 0.966014 0.066359
0.739236 0.966014 0.066359
0.820661 0.966014 0.066359
0.899761 0.966014 0.066359
0.961680 0.966014 0.066359
0.990428 0.966014 0.066359
0.999018 0.966014 0.066359
1.000000 0.966014 0.066359
0.000000 0.992076 0.066359
0.058668 0.992076 0.066359
0.142647 0.992076 0.066359
0.233206 0.992076 0.066359
0.321007 0.992076 0.066359
0.408102 0.992076 0.066359
0.491975 0.992076 0.066359
0.575263 0.992076 0.066359
0.657672 0.992076 0.066359
0.739236 0.992076 0.066359
0.820661 0.992076 0.066359
0.899761 0.992076 0.066359
0.961680 0.992076 0.066359
0.990428 0.992076 0.066359
0.999018 0.992076 0.066359
1.000000 0.992076 0.066359
0.000000 0.999393 0.066359
0.058668 0.999393 0.066359
0.142647 0.999393 0.066359
0.233206 0.999393 0.066359
0.321007 0.999393 0.066359
0.408102 0.999393 0.066359
0.491975 0.999393 0.066359
0.575263 0.999393 0.066359
0.657672 0.999393 0.066359
0.739236 0.999393 0.066359
0.820661 0.999393 0.066359
0.899761 0.999393 0.066359
0.961680 0.999393 0.066359
0.990428 0.999393 0.066359
0.999018 0.999393 0.066359
1.000000 0.999393 0.066359
0.000000 1.000000 0.066359
0.058668 1.000000 0.066359
0.142647 1.000000 0.066359
0.233206 1.000000 0.066359
0.321007 1.000000 0.066359
0.408102 1.000000 0.066359
0.491975 1.000000 0.066359
0.575263 1.000000 0.066359
0.657672 1.000000 0.066359
0.739236 1.000000 0.066359
0.820661 1.000000 0.066359
0.899761 1.000000 0.066359
0.961680 1.000000 0.066359
0.990428 1.000000 0.066359
0.999018 1.000000 0.066359
1.000000 1.000000 0.066359
0.000000 0.000000 0.126543
0.058668 0.000000 0.126543
0.142647 0.000000 0.126543
0.233206 0.000000 0.126543
0.321007 0.000000 0.126543
0.408102 0.000000 0.126543
0.491975 0.000000 0.126543
0.575263 0.000000 0.126543
0.657672 0.000000 0.126543
0.739236 0.000000 0.126543
0.820661 0.000000 0.126543
0.899761 0.000000 0.126543
0.961680 0.000000 0.126543
0.990428 0.000000 0.126543
0.999018 0.000000 0.126543
1.000000 0.000000 0.126543
0.000000 0.046230 0.126543
0.058668 0.046230 0.126543
0.142647 0.046230 0.126543
0.233206 0.046230 0.126543
0.321007 0.046230 0.126543
0.408102 0.046230 0.126543
0.491975 0.046230 0.126543
0.575263 0.046230 0.126543
0.657672 0.046230 0.126543
0.739236 0.046230 0.126543
0.820661 0.046230 0.126543
0.899761 0.046230 0.126543
0.961680 0.046230 0.126543
0.990428 0.046230 0.126543
0.999018 0.046230 0.126543
1.000000 0.046230 0.126543
0.000000 0.114621 0.126543
0.058668 0.114621 0.126543
0.142647 0.114621 0.126543
0.233206 0.114621 0.126543
0.321007 0.114621 0.126543
0.408102 0.114621 0.126543
0.491975 0.114621 0.126543
0.575263 0.114621 0.126543
0.657672 0.114621 0.126543
0.739236 0.114621 0.126543
0.820661 0.114621 0.126543
0.899761 0.114621 0.126543
0.961680 0.114621 0.126543
0.990428 0.114621 0.126543
0.999018 0.114621 0.126543
1.000000 0.114621 0.126543
0.000000 0.191024 0.126543
0.058668 0.191024 0.126543
0.142647 0.191024 0.126543
0.233206 0.191024 0.126543
0.321007 0.191024 0.126543
0.408102 0.191024 0.126543
0.491975 0.191024 0.126543
0.575263 0.191024 0.126543
0.657672 0.191024 0.126543
0.739236 0.191024 0.126543
0.820661 0.191024 0.126543
0.899761 0.191024 0.126543
0.961680 0.191024 0.126543
0.990428 0.191024 0.126543
0.999018 0.191024 0.126543
1.000000 0.191024 0.126543
0.000000 0.271756 0.126543
0.058668 0.271756 0.126543
0.142647 0.271756 0.126543
0.233206 0.271756 0.126543
0.321007 0.271756 0.126543
0.408102 0.271756 0.126543
0.491975 0.271756 0.126543
0.575263 0.271756 0.126543
0.657672 0.271756 0.126543
0.739236 0.271756 0.126543
0.820661 0.271756 0.126543
0.899761 0.271756 0.126543
0.961680 0.271756 0.126543
0.990428 0.271756 0.126543
0.999018 0.271756 0.126543
1.000000 0.271756 0.126543
0.000000 0.355807 0.126543
0.058668 0.355807 0.126543
0.142647 0.355807 0.126543
0.233206 0.355807 0.126543
0.321007 0.355807 0.126543
0.408102 0.355807 0.126543
0.491975 0.355807 0.126543
0.575263 0.355807 0.126543
0.657672 0.355807 0.126543
0.739236 0.355807 0.126543
0.820661 0.355807 0.126543
0.899761 0.355807 0.126543
0.961680 0.355807 0.126543
0.990428 0.355807 0.126543
0.999018 0.355807 0.126543
1.000000 0.355807 0.126543
0.000000 0.442615 0.126543
0.058668 0.442615 0.126543
0.142647 0.442615 0.126543
0.233206 0.442615 0.126543
0.321007 0.442615 0.126543
0.408102 0.442615 0.126543
0.491975 0.442615 0.126543
0.575263 0.442615 0.126543
0.657672 0.442615 0.126543
0.739236 0.442615 0.126543
0.820661 0.442615 0.126543
0.899761 0.442615 0.126543
0.961680 0.442615 0.126543
0.990428 0.442615 0.126543
0.999018 0.442615 0.126543
1.000000 0.442615 0.126543
0.000000 0.531674 0.126543
0.058668 0.531674 0.126543
0.142647 0.531674 0.126543
0.233206 0.531674 0.126543
0.321007 0.531674 0.126543
0.408102 0.531674 0.126543
0.491975 0.531674 0.126543
0.575263 0.531674 0.126543
