example_ofxGpuLutCube/bin/data/ofxGpuLutCube/LUT/T17 (cold clear blue).cube
LUT_3D_SIZE 6
0.012309 0.013922 0.000000
0.173410 0.013922 0.000000
0.360157 0.013922 0.000000
0.558907 0.013922 0.000000
0.765745 0.013922 0.000000
0.979717 0.013922 0.000000
0.012309 0.237993 0.000000
0.173410 0.237993 0.000000
0.360157 0.237993 0.000000
0.558907 0.237993 0.000000
0.765745 0.237993 0.000000
0.979717 0.237993 0.000000
0.012309 0.438508 0.000000
0.173410 0.438508 0.000000
0.360157 0.438508 0.000000
0.558907 0.438508 0.000000
0.765745 0.438508 0.000000
0.979717 0.438508 0.000000
0.012309 0.630126 0.000000
0.173410 0.630126 0.000000
0.360157 0.630126 0.000000
0.558907 0.630126 0.000000
0.765745 0.630126 0.000000
0.979717 0.630126 0.000000
0.012309 0.816116 0.000000
0.173410 0.816116 0.000000
0.360157 0.816116 0.000000
0.558907 0.816116 0.000000
0.765745 0.816116 0.000000
0.979717 0.816116 0.000000
0.012309 0.997337 0.000000
0.173410 0.997337 0.000000
0.360157 0.997337 0.000000
0.558907 0.997337 0.000000
0.765745 0.997337 0.000000
0.979717 0.997337 0.000000
0.012309 0.013922 0.265602
0.173410 0.013922 0.265602
0.360157 0.013922 0.265602
0.558907 0.013922 0.265602
0.765745 0.013922 0.265602
0.979717 0.013922 0.265602
0.012309 0.237993 0.265602
0.173410 0.237993 0.265602
0.360157 0.237993 0.265602
0.558907 0.237993 0.265602
0.765745 0.237993 0.265602
0.979717 0.237993 0.265602
0.012309 0.438508 0.265602
0.173410 0.438508 0.265602
0.360157 0.438508 0.265602
0.558907 0.438508 0.265602
0.765745 0.438508 0.265602
0.979717 0.438508 0.265602
0.012309 0.630126 0.265602
0.173410 0.630126 0.265602
0.360157 0.630126 0.265602
0.558907 0.630126 0.265602
0.765745 0.630126 0.265602
0.979717 0.630126 0.265602
0.012309 0.816116 0.265602
0.173410 0.816116 0.265602
0.360157 0.816116 0.265602
0.558907 0.816116 0.265602
0.765745 0.816116 0.265602
0.979717 0.816116 0.265602
0.012309 0.997337 0.265602
0.173410 0.997337 0.265602
0.360157 0.997337 0.265602
0.558907 0.997337 0.265602
0.765745 0.997337 0.265602
0.979717 0.997337 0.265602
0.012309 0.013922 0.476638
0.173410 0.013922 0.476638
0.360157 0.013922 0.476638
0.558907 0.013922 0.476638
0.765745 0.013922 0.476638
0.979717 0.013922 0.476638
0.012309 0.237993 0.476638
0.173410 0.237993 0.476638
0.360157 0.237993 0.476638
0.558907 0.237993 0.476638
0.765745 0.237993 0.476638
0.979717 0.237993 0.476638
0.012309 0.438508 0.476638
0.173410 0.438508 0.476638
0.360157 0.438508 0.476638
0.558907 0.438508 0.476638
0.765745 0.438508 0.476638
0.979717 0.438508 0.476638
0.012309 0.630126 0.476638
0.173410 0.630126 0.476638
0.360157 0.630126 0.476638
0.558907 0.630126 0.476638
0.765745 0.630126 0.476638
0.979717 0.630126 0.476638
0.012309 0.816116 0.476638
0.173410 0.816116 0.476638
0.360157 0.816116 0.476638
0.558907 0.816116 0.476638
0.765745 0.816116 0.476638
0.979717 0.816116 0.476638
0.012309 0.997337 0.476638
0.173410 0.997337 0.476638
0.360157 0.997337 0.476638
0.558907 0.997337 0.476638
0.765745 0.997337 0.476638
0.979717 0.997337 0.476638
0.012309 0.013922 0.665953
0.173410 0.013922 0.665953
0.360157 0.013922 0.665953
0.558907 0.013922 0.665953
0.765745 0.013922 0.665953
0.979717 0.013922 0.665953
0.012309 0.237993 0.665953
0.173410 0.237993 0.665953
0.360157 0.237993 0.665953
0.558907 0.237993 0.665953
0.765745 0.237993 0.665953
0.979717 0.237993 0.665953
0.012309 0.438508 0.665953
0.173410 0.438508 0.665953
0.360157 0.438508 0.665953
0.558907 0.438508 0.665953
0.765745 0.438508 0.665953
0.979717 0.438508 0.665953
0.012309 0.630126 0.665953
0.173410 0.630126 0.665953
0.360157 0.630126 0.665953
0.558907 0.630126 0.665953
0.765745 0.630126 0.665953
0.979717 0.630126 0.665953
0.012309 0.816116 0.665953
0.173410 0.816116 0.665953
0.360157 0.816116 0.665953
0.558907 0.816116 0.665953
0.765745 0.816116 0.665953
0.979717 0.816116 0.665953
0.012309 0.997337 0.665953
0.173410 0.997337 0.665953
0.360157 0.997337 0.665953
0.558907 0.997337 0.665953
0.765745 0.997337 0.665953
0.979717 0.997337 0.665953
0.012309 0.013922 0.842489
0.173410 0.013922 0.842489
0.360157 0.013922 0.842489
0.558907 0.013922 0.842489
0.765745 0.013922 0.842489
0.979717 0.013922 0.842489
0.012309 0.237993 0.842489
0.173410 0.237993 0.842489
0.360157 0.237993 0.842489
0.558907 0.237993 0.842489
0.765745 0.237993 0.842489
0.979717 0.237993 0.842489
0.012309 0.438508 0.842489
0.173410 0.438508 0.842489
0.360157 0.438508 0.842489
0.558907 0.438508 0.842489
0.765745 0.438508 0.842489
0.979717 0.438508 0.842489
0.012309 0.630126 0.842489
0.173410 0.630126 0.842489
0.360157 0.630126 0.842489
0.558907 0.630126 0.842489
0.765745 0.630126 0.842489
0.979717 0.630126 0.842489
0.012309 0.816116 0.842489
0.173410 0.816116 0.842489
0.360157 0.816116 0.842489
0.558907 0.816116 0.842489
0.765745 0.816116 0.842489
0.979717 0.816116 0.842489
0.012309 0.997337 0.842489
0.173410 0.997337 0.842489
0.360157 0.997337 0.842489
0.558907 0.997337 0.842489
0.765745 0.997337 0.842489
0.979717 0.997337 0.842489
0.012309 0.013922 1.000000
0.173410 0.013922 1.000000
0.360157 0.013922 1.000000
0.558907 0.013922 1.000000
0.765745 0.013922 1.000000
0.979717 0.013922 1.000000
0.012309 0.237993 1.000000
0.173410 0.237993 1.000000
0.360157 0.237993 1.000000
0.558907 0.237993 1.000000
0.765745 0.237993 1.000000
0.979717 0.237993 1.000000
0.012309 0.438508 1.000000
0.173410 0.438508 1.000000
0.360157 0.438508 1.000000
0.558907 0.438508 1.000000
0.765745 0.438508 1.000000
0.979717 0.438508 1.000000
0.012309 0.630126 1.000000
0.173410 0.630126 1.000000
0.360157 0.630126 1.000000
0.558907 0.630126 1.000000
0.765745 0.630126 1.000000
0.979717 0.630126 1.000000
0.012309 0.816116 1.000000
0.173410 0.816116 1.000000
0.360157 0.816116 1.000000
0.558907 0.816116 1.000000
0.765745 0.816116 1.000000
0.979717 0.816116 1.000000
0.012309 0.997337 1.000000
0.173410 0.997337 1.000000
0.360157 0.997337 1.000000
0.558907 0.997337 1.000000
0.765745 0.997337 1.000000
0.979717 0.997337 1.000000
