example_ofxGpuLutCube/bin/data/ofxGpuLutCube/LUT/T17 (cold clear blue).cube
LUT_3D_SIZE 16
0.012309 0.013922 0.000000
0.061233 0.013922 0.000000
0.115490 0.013922 0.000000
0.173410 0.013922 0.000000
0.233745 0.013922 0.000000
0.296810 0.013922 0.000000
0.360157 0.013922 0.000000
0.425216 0.013922 0.000000
0.491527 0.013922 0.000000
0.558907 0.013922 0.000000
0.627677 0.013922 0.000000
0.695824 0.013922 0.000000
0.765745 0.013922 0.000000
0.837845 0.013922 0.000000
0.908414 0.013922 0.000000
0.979717 0.013922 0.000000
0.012309 0.094515 0.000000
0.061233 0.094515 0.000000
0.115490 0.094515 0.000000
0.173410 0.094515 0.000000
0.233745 0.094515 0.000000
0.296810 0.094515 0.000000
0.360157 0.094515 0.000000
0.425216 0.094515 0.000000
0.491527 0.094515 0.000000
0.558907 0.094515 0.000000
0.627677 0.094515 0.000000
0.695824 0.094515 0.000000
0.765745 0.094515 0.000000
0.837845 0.094515 0.000000
0.908414 0.094515 0.000000
0.979717 0.094515 0.000000
0.012309 0.167800 0.000000
0.061233 0.167800 0.000000
0.115490 0.167800 0.000000
0.173410 0.167800 0.000000
0.233745 0.167800 0.000000
0.296810 0.167800 0.000000
0.360157 0.167800 0.000000
0.425216 0.167800 0.000000
0.491527 0.167800 0.000000
0.558907 0.167800 0.000000
0.627677 0.167800 0.000000
0.695824 0.167800 0.000000
0.765745 0.167800 0.000000
0.837845 0.167800 0.000000
0.908414 0.167800 0.000000
0.979717 0.167800 0.000000
0.012309 0.237993 0.000000
0.061233 0.237993 0.000000
0.115490 0.237993 0.000000
0.173410 0.237993 0.000000
0.233745 0.237993 0.000000
0.296810 0.237993 0.000000
0.360157 0.237993 0.000000
0.425216 0.237993 0.000000
0.491527 0.237993 0.000000
0.558907 0.237993 0.000000
0.627677 0.237993 0.000000
0.695824 0.237993 0.000000
0.765745 0.237993 0.000000
0.837845 0.237993 0.000000
0.908414 0.237993 0.000000
0.979717 0.237993 0.000000
0.012309 0.306174 0.000000
0.061233 0.306174 0.000000
0.115490 0.306174 0.000000
0.173410 0.306174 0.000000
0.233745 0.306174 0.000000
0.296810 0.306174 0.000000
0.360157 0.306174 0.000000
0.425216 0.306174 0.000000
0.491527 0.306174 0.000000
0.558907 0.306174 0.000000
0.627677 0.306174 0.000000
0.695824 0.306174 0.000000
0.765745 0.306174 0.000000
0.837845 0.306174 0.000000
0.908414 0.306174 0.000000
0.979717 0.306174 0.000000
0.012309 0.372945 0.000000
0.061233 0.372945 0.000000
0.115490 0.372945 0.000000
0.173410 0.372945 0.000000
0.233745 0.372945 0.000000
0.296810 0.372945 0.000000
0.360157 0.372945 0.000000
0.425216 0.372945 0.000000
0.491527 0.372945 0.000000
0.558907 0.372945 0.000000
0.627677 0.372945 0.000000
0.695824 0.372945 0.000000
0.765745 0.372945 0.000000
0.837845 0.372945 0.000000
0.908414 0.372945 0.000000
0.979717 0.372945 0.000000
0.012309 0.438508 0.000000
0.061233 0.438508 0.000000
0.115490 0.438508 0.000000
0.173410 0.438508 0.000000
0.233745 0.438508 0.000000
0.296810 0.438508 0.000000
0.360157 0.438508 0.000000
0.425216 0.438508 0.000000
0.491527 0.438508 0.000000
0.558907 0.438508 0.000000
0.627677 0.438508 0.000000
0.695824 0.438508 0.000000
0.765745 0.438508 0.000000
0.837845 0.438508 0.000000
0.908414 0.438508 0.000000
0.979717 0.438508 0.000000
0.012309 0.503094 0.000000
0.061233 0.503094 0.000000
0.115490 0.503094 0.000000
0.173410 0.503094 0.000000
0.233745 0.503094 0.000000
0.296810 0.503094 0.000000
0.360157 0.503094 0.000000
0.425216 0.503094 0.000000
0.491527 0.503094 0.000000
0.558907 0.503094 0.000000
0.627677 0.503094 0.000000
0.695824 0.503094 0.000000
0.765745 0.503094 0.000000
0.837845 0.503094 0.000000
0.908414 0.503094 0.000000
0.979717 0.503094 0.000000
0.012309 0.566961 0.000000
0.061233 0.566961 0.000000
0.115490 0.566961 0.000000
0.173410 0.566961 0.000000
0.233745 0.566961 0.000000
0.296810 0.566961 0.000000
0.360157 0.566961 0.000000
0.425216 0.566961 0.000000
0.491527 0.566961 0.000000
0.558907 0.566961 0.000000
0.627677 0.566961 0.000000
0.695824 0.566961 0.000000
0.765745 0.566961 0.000000
0.837845 0.566961 0.000000
0.908414 0.566961 0.000000
0.979717 0.566961 0.000000
0.012309 0.630126 0.000000
0.061233 0.630126 0.000000
0.115490 0.630126 0.000000
0.173410 0.630126 0.000000
0.233745 0.630126 0.000000
0.296810 0.630126 0.000000
0.360157 0.630126 0.000000
0.425216 0.630126 0.000000
0.491527 0.630126 0.000000
0.558907 0.630126 0.000000
0.627677 0.630126 0.000000
0.695824 0.630126 0.000000
0.765745 0.630126 0.000000
0.837845 0.630126 0.000000
0.908414 0.630126 0.000000
0.979717 0.630126 0.000000
0.012309 0.692671 0.000000
0.061233 0.692671 0.000000
0.115490 0.692671 0.000000
0.173410 0.692671 0.000000
0.233745 0.692671 0.000000
0.296810 0.692671 0.000000
0.360157 0.692671 0.000000
0.425216 0.692671 0.000000
0.491527 0.692671 0.000000
0.558907 0.692671 0.000000
0.627677 0.692671 0.000000
0.695824 0.692671 0.000000
0.765745 0.692671 0.000000
0.837845 0.692671 0.000000
0.908414 0.692671 0.000000
0.979717 0.692671 0.000000
0.012309 0.754671 0.000000
0.061233 0.754671 0.000000
0.115490 0.754671 0.000000
0.173410 0.754671 0.000000
0.233745 0.754671 0.000000
0.296810 0.754671 0.000000
0.360157 0.754671 0.000000
0.425216 0.754671 0.000000
0.491527 0.754671 0.000000
0.558907 0.754671 0.000000
0.627677 0.754671 0.000000
0.695824 0.754671 0.000000
0.765745 0.754671 0.000000
0.837845 0.754671 0.000000
0.908414 0.754671 0.000000
0.979717 0.754671 0.000000
0.012309 0.816116 0.000000
0.061233 0.816116 0.000000
0.115490 0.816116 0.000000
0.173410 0.816116 0.000000
0.233745 0.816116 0.000000
0.296810 0.816116 0.000000
0.360157 0.816116 0.000000
0.425216 0.816116 0.000000
0.491527 0.816116 0.000000
0.558907 0.816116 0.000000
0.627677 0.816116 0.000000
0.695824 0.816116 0.000000
0.765745 0.816116 0.000000
0.837845 0.816116 0.000000
0.908414 0.816116 0.000000
0.979717 0.816116 0.000000
0.012309 0.877254 0.000000
0.061233 0.877254 0.000000
0.115490 0.877254 0.000000
0.173410 0.877254 0.000000
0.233745 0.877254 0.000000
0.296810 0.877254 0.000000
0.360157 0.877254 0.000000
0.425216 0.877254 0.000000
0.491527 0.877254 0.000000
0.558907 0.877254 0.000000
0.627677 0.877254 0.000000
0.695824 0.877254 0.000000
0.765745 0.877254 0.000000
0.837845 0.877254 0.000000
0.908414 0.877254 0.000000
0.979717 0.877254 0.000000
0.012309 0.937672 0.000000
0.061233 0.937672 0.000000
0.115490 0.937672 0.000000
0.173410 0.937672 0.000000
0.233745 0.937672 0.000000
0.296810 0.937672 0.000000
0.360157 0.937672 0.000000
0.425216 0.937672 0.000000
0.491527 0.937672 0.000000
0.558907 0.937672 0.000000
0.627677 0.937672 0.000000
0.695824 0.937672 0.000000
0.765745 0.937672 0.000000
0.837845 0.937672 0.000000
0.908414 0.937672 0.000000
0.979717 0.937672 0.000000
0.012309 0.997337 0.000000
0.061233 0.997337 0.000000
0.115490 0.997337 0.000000
0.173410 0.997337 0.000000
0.233745 0.997337 0.000000
0.296810 0.997337 0.000000
0.360157 0.997337 0.000000
0.425216 0.997337 0.000000
0.491527 0.997337 0.000000
0.558907 0.997337 0.000000
0.627677 0.997337 0.000000
0.695824 0.997337 0.000000
0.765745 0.997337 0.000000
0.837845 0.997337 0.000000
0.908414 0.997337 0.000000
0.979717 0.997337 0.000000
0.012309 0.013922 0.098943
0.061233 0.013922 0.098943
0.115490 0.013922 0.098943
0.173410 0.013922 0.098943
0.233745 0.013922 0.098943
0.296810 0.013922 0.098943
0.360157 0.013922 0.098943
0.425216 0.013922 0.098943
0.491527 0.013922 0.098943
0.558907 0.013922 0.098943
0.627677 0.013922 0.098943
0.695824 0.013922 0.098943
0.765745 0.013922 0.098943
0.837845 0.013922 0.098943
0.908414 0.013922 0.098943
0.979717 0.013922 0.098943
0.012309 0.094515 0.098943
0.061233 0.094515 0.098943
0.115490 0.094515 0.098943
0.173410 0.094515 0.098943
0.233745 0.094515 0.098943
0.296810 0.094515 0.098943
0.360157 0.094515 0.098943
0.425216 0.094515 0.098943
0.491527 0.094515 0.098943
0.558907 0.094515 0.098943
0.627677 0.094515 0.098943
0.695824 0.094515 0.098943
0.765745 0.094515 0.098943
0.837845 0.094515 0.098943
0.908414 0.094515 0.098943
0.979717 0.094515 0.098943
0.012309 0.167800 0.098943
0.061233 0.167800 0.098943
0.115490 0.167800 0.098943
0.173410 0.167800 0.098943
0.233745 0.167800 0.098943
0.296810 0.167800 0.098943
0.360157 0.167800 0.098943
0.425216 0.167800 0.098943
0.491527 0.167800 0.098943
0.558907 0.167800 0.098943
0.627677 0.167800 0.098943
0.695824 0.167800 0.098943
0.765745 0.167800 0.098943
0.837845 0.167800 0.098943
0.908414 0.167800 0.098943
0.979717 0.167800 0.098943
0.012309 0.237993 0.098943
0.061233 0.237993 0.098943
0.115490 0.237993 0.098943
0.173410 0.237993 0.098943
0.233745 0.237993 0.098943
0.296810 0.237993 0.098943
0.360157 0.237993 0.098943
0.425216 0.237993 0.098943
0.491527 0.237993 0.098943
0.558907 0.237993 0.098943
0.627677 0.237993 0.098943
0.695824 0.237993 0.098943
0.765745 0.237993 0.098943
0.837845 0.237993 0.098943
0.908414 0.237993 0.098943
0.979717 0.237993 0.098943
0.012309 0.306174 0.098943
0.061233 0.306174 0.098943
0.115490 0.306174 0.098943
0.173410 0.306174 0.098943
0.233745 0.306174 0.098943
0.296810 0.306174 0.098943
0.360157 0.306174 0.098943
0.425216 0.306174 0.098943
0.491527 0.306174 0.098943
0.558907 0.306174 0.098943
0.627677 0.306174 0.098943
0.695824 0.306174 0.098943
0.765745 0.306174 0.098943
0.837845 0.306174 0.098943
0.908414 0.306174 0.098943
0.979717 0.306174 0.098943
0.012309 0.372945 0.098943
0.061233 0.372945 0.098943
0.115490 0.372945 0.098943
0.173410 0.372945 0.098943
0.233745 0.372945 0.098943
0.296810 0.372945 0.098943
0.360157 0.372945 0.098943
0.425216 0.372945 0.098943
0.491527 0.372945 0.098943
0.558907 0.372945 0.098943
0.627677 0.372945 0.098943
0.695824 0.372945 0.098943
0.765745 0.372945 0.098943
0.837845 0.372945 0.098943
0.908414 0.372945 0.098943
0.979717 0.372945 0.098943
0.012309 0.438508 0.098943
0.061233 0.438508 0.098943
0.115490 0.438508 0.098943
0.173410 0.438508 0.098943
0.233745 0.438508 0.098943
0.296810 0.438508 0.098943
0.360157 0.438508 0.098943
0.425216 0.438508 0.098943
0.491527 0.438508 0.098943
0.558907 0.438508 0.098943
0.627677 0.438508 0.098943
0.695824 0.438508 0.098943
0.765745 0.438508 0.098943
0.837845 0.438508 0.098943
0.908414 0.438508 0.098943
0.979717 0.438508 0.098943
0.012309 0.503094 0.098943
0.061233 0.503094 0.098943
0.115490 0.503094 0.098943
0.173410 0.503094 0.098943
0.233745 0.503094 0.098943
0.296810 0.503094 0.098943
0.360157 0.503094 0.098943
0.425216 0.503094 0.098943
0.491527 0.503094 0.098943
0.558907 0.503094 0.098943
0.627677 0.503094 0.098943
0.695824 0.503094 0.098943
0.765745 0.503094 0.098943
0.837845 0.503094 0.098943
0.908414 0.503094 0.098943
0.979717 0.503094 0.098943
0.012309 0.566961 0.098943
0.061233 0.566961 0.098943
0.115490 0.566961 0.098943
0.173410 0.566961 0.098943
0.233745 0.566961 0.098943
0.296810 0.566961 0.098943
0.360157 0.566961 0.098943
0.425216 0.566961 0.098943
0.491527 0.566961 0.098943
0.558907 0.566961 0.098943
0.627677 0.566961 0.098943
0.695824 0.566961 0.098943
0.765745 0.566961 0.098943
0.837845 0.566961 0.098943
0.908414 0.566961 0.098943
0.979717 0.566961 0.098943
0.012309 0.630126 0.098943
0.061233 0.630126 0.098943
0.115490 0.630126 0.098943
0.173410 0.630126 0.098943
0.233745 0.630126 0.098943
0.296810 0.630126 0.098943
0.360157 0.630126 0.098943
0.425216 0.630126 0.098943
0.491527 0.630126 0.098943
0.558907 0.630126 0.098943
0.627677 0.630126 0.098943
0.695824 0.630126 0.098943
0.765745 0.630126 0.098943
0.837845 0.630126 0.098943
0.908414 0.630126 0.098943
0.979717 0.630126 0.098943
0.012309 0.692671 0.098943
0.061233 0.692671 0.098943
0.115490 0.692671 0.098943
0.173410 0.692671 0.098943
0.233745 0.692671 0.098943
0.296810 0.692671 0.098943
0.360157 0.692671 0.098943
0.425216 0.692671 0.098943
0.491527 0.692671 0.098943
0.558907 0.692671 0.098943
0.627677 0.692671 0.098943
0.695824 0.692671 0.098943
0.765745 0.692671 0.098943
0.837845 0.692671 0.098943
0.908414 0.692671 0.098943
0.979717 0.692671 0.098943
0.012309 0.754671 0.098943
0.061233 0.754671 0.098943
0.115490 0.754671 0.098943
0.173410 0.754671 0.098943
0.233745 0.754671 0.098943
0.296810 0.754671 0.098943
0.360157 0.754671 0.098943
0.425216 0.754671 0.098943
0.491527 0.754671 0.098943
0.558907 0.754671 0.098943
0.627677 0.754671 0.098943
0.695824 0.754671 0.098943
0.765745 0.754671 0.098943
0.837845 0.754671 0.098943
0.908414 0.754671 0.098943
0.979717 0.754671 0.098943
0.012309 0.816116 0.098943
0.061233 0.816116 0.098943
0.115490 0.816116 0.098943
0.173410 0.816116 0.098943
0.233745 0.816116 0.098943
0.296810 0.816116 0.098943
0.360157 0.816116 0.098943
0.425216 0.816116 0.098943
0.491527 0.816116 0.098943
0.558907 0.816116 0.098943
0.627677 0.816116 0.098943
0.695824 0.816116 0.098943
0.765745 0.816116 0.098943
0.837845 0.816116 0.098943
0.908414 0.816116 0.098943
0.979717 0.816116 0.098943
0.012309 0.877254 0.098943
0.061233 0.877254 0.098943
0.115490 0.877254 0.098943
0.173410 0.877254 0.098943
0.233745 0.877254 0.098943
0.296810 0.877254 0.098943
0.360157 0.877254 0.098943
0.425216 0.877254 0.098943
0.491527 0.877254 0.098943
0.558907 0.877254 0.098943
0.627677 0.877254 0.098943
0.695824 0.877254 0.098943
0.765745 0.877254 0.098943
0.837845 0.877254 0.098943
0.908414 0.877254 0.098943
0.979717 0.877254 0.098943
0.012309 0.937672 0.098943
0.061233 0.937672 0.098943
0.115490 0.937672 0.098943
0.173410 0.937672 0.098943
0.233745 0.937672 0.098943
0.296810 0.937672 0.098943
0.360157 0.937672 0.098943
0.425216 0.937672 0.098943
0.491527 0.937672 0.098943
0.558907 0.937672 0.098943
0.627677 0.937672 0.098943
0.695824 0.937672 0.098943
0.765745 0.937672 0.098943
0.837845 0.937672 0.098943
0.908414 0.937672 0.098943
0.979717 0.937672 0.098943
0.012309 0.997337 0.098943
0.061233 0.997337 0.098943
0.115490 0.997337 0.098943
0.173410 0.997337 0.098943
0.233745 0.997337 0.098943
0.296810 0.997337 0.098943
0.360157 0.997337 0.098943
0.425216 0.997337 0.098943
0.491527 0.997337 0.098943
0.558907 0.997337 0.098943
0.627677 0.997337 0.098943
0.695824 0.997337 0.098943
0.765745 0.997337 0.098943
0.837845 0.997337 0.098943
0.908414 0.997337 0.098943
0.979717 0.997337 0.098943
0.012309 0.013922 0.186143
0.061233 0.013922 0.186143
0.115490 0.013922 0.186143
0.173410 0.013922 0.186143
0.233745 0.013922 0.186143
0.296810 0.013922 0.186143
0.360157 0.013922 0.186143
0.425216 0.013922 0.186143
0.491527 0.013922 0.186143
0.558907 0.013922 0.186143
0.627677 0.013922 0.186143
0.695824 0.013922 0.186143
0.765745 0.013922 0.186143
0.837845 0.013922 0.186143
0.908414 0.013922 0.186143
0.979717 0.013922 0.186143
0.012309 0.094515 0.186143
0.061233 0.094515 0.186143
0.115490 0.094515 0.186143
0.173410 0.094515 0.186143
0.233745 0.094515 0.186143
0.296810 0.094515 0.186143
0.360157 0.094515 0.186143
0.425216 0.094515 0.186143
0.491527 0.094515 0.186143
0.558907 0.094515 0.186143
0.627677 0.094515 0.186143
0.695824 0.094515 0.186143
0.765745 0.094515 0.186143
0.837845 0.094515 0.186143
0.908414 0.094515 0.186143
0.979717 0.094515 0.186143
0.012309 0.167800 0.186143
0.061233 0.167800 0.186143
0.115490 0.167800 0.186143
0.173410 0.167800 0.186143
0.233745 0.167800 0.186143
0.296810 0.167800 0.186143
0.360157 0.167800 0.186143
0.425216 0.167800 0.186143
0.491527 0.167800 0.186143
0.558907 0.167800 0.186143
0.627677 0.167800 0.186143
0.695824 0.167800 0.186143
0.765745 0.167800 0.186143
0.837845 0.167800 0.186143
0.908414 0.167800 0.186143
0.979717 0.167800 0.186143
0.012309 0.237993 0.186143
0.061233 0.237993 0.186143
0.115490 0.237993 0.186143
0.173410 0.237993 0.186143
0.233745 0.237993 0.186143
0.296810 0.237993 0.186143
0.360157 0.237993 0.186143
0.425216 0.237993 0.186143
0.491527 0.237993 0.186143
0.558907 0.237993 0.186143
0.627677 0.237993 0.186143
0.695824 0.237993 0.186143
0.765745 0.237993 0.186143
0.837845 0.237993 0.186143
0.908414 0.237993 0.186143
0.979717 0.237993 0.186143
0.012309 0.306174 0.186143
0.061233 0.306174 0.186143
0.115490 0.306174 0.186143
0.173410 0.306174 0.186143
0.233745 0.306174 0.186143
0.296810 0.306174 0.186143
0.360157 0.306174 0.186143
0.425216 0.306174 0.186143
0.491527 0.306174 0.186143
0.558907 0.306174 0.186143
0.627677 0.306174 0.186143
0.695824 0.306174 0.186143
0.765745 0.306174 0.186143
0.837845 0.306174 0.186143
0.908414 0.306174 0.186143
0.979717 0.306174 0.186143
0.012309 0.372945 0.186143
0.061233 0.372945 0.186143
0.115490 0.372945 0.186143
0.173410 0.372945 0.186143
0.233745 0.372945 0.186143
0.296810 0.372945 0.186143
0.360157 0.372945 0.186143
0.425216 0.372945 0.186143
0.491527 0.372945 0.186143
0.558907 0.372945 0.186143
0.627677 0.372945 0.186143
0.695824 0.372945 0.186143
0.765745 0.372945 0.186143
0.837845 0.372945 0.186143
0.908414 0.372945 0.186143
0.979717 0.372945 0.186143
0.012309 0.438508 0.186143
0.061233 0.438508 0.186143
0.115490 0.438508 0.186143
0.173410 0.438508 0.186143
0.233745 0.438508 0.186143
0.296810 0.438508 0.186143
0.360157 0.438508 0.186143
0.425216 0.438508 0.186143
0.491527 0.438508 0.186143
0.558907 0.438508 0.186143
0.627677 0.438508 0.186143
0.695824 0.438508 0.186143
0.765745 0.438508 0.186143
0.837845 0.438508 0.186143
0.908414 0.438508 0.186143
0.979717 0.438508 0.186143
0.012309 0.503094 0.186143
0.061233 0.503094 0.186143
0.115490 0.503094 0.186143
0.173410 0.503094 0.186143
0.233745 0.503094 0.186143
0.296810 0.503094 0.186143
0.360157 0.503094 0.186143
0.425216 0.503094 0.186143
0.491527 0.503094 0.186143
0.558907 0.503094 0.186143
0.627677 0.503094 0.186143
0.695824 0.503094 0.186143
0.765745 0.503094 0.186143
0.837845 0.503094 0.186143
0.908414 0.503094 0.186143
0.979717 0.503094 0.186143
0.012309 0.566961 0.186143
0.061233 0.566961 0.186143
0.115490 0.566961 0.186143
0.173410 0.566961 0.186143
0.233745 0.566961 0.186143
0.296810 0.566961 0.186143
0.360157 0.566961 0.186143
0.425216 0.566961 0.186143
0.491527 0.566961 0.186143
0.558907 0.566961 0.186143
0.627677 0.566961 0.186143
0.695824 0.566961 0.186143
0.765745 0.566961 0.186143
0.837845 0.566961 0.186143
0.908414 0.566961 0.186143
0.979717 0.566961 0.186143
0.012309 0.630126 0.186143
0.061233 0.630126 0.186143
0.115490 0.630126 0.186143
0.173410 0.630126 0.186143
0.233745 0.630126 0.186143
0.296810 0.630126 0.186143
0.360157 0.630126 0.186143
0.425216 0.630126 0.186143
0.491527 0.630126 0.186143
0.558907 0.630126 0.186143
0.627677 0.630126 0.186143
0.695824 0.630126 0.186143
0.765745 0.630126 0.186143
0.837845 0.630126 0.186143
0.908414 0.630126 0.186143
0.979717 0.630126 0.186143
0.012309 0.692671 0.186143
0.061233 0.692671 0.186143
0.115490 0.692671 0.186143
0.173410 0.692671 0.186143
0.233745 0.692671 0.186143
0.296810 0.692671 0.186143
0.360157 0.692671 0.186143
0.425216 0.692671 0.186143
0.491527 0.692671 0.186143
0.558907 0.692671 0.186143
0.627677 0.692671 0.186143
0.695824 0.692671 0.186143
0.765745 0.692671 0.186143
0.837845 0.692671 0.186143
0.908414 0.692671 0.186143
0.979717 0.692671 0.186143
0.012309 0.754671 0.186143
0.061233 0.754671 0.186143
0.115490 0.754671 0.186143
0.173410 0.754671 0.186143
0.233745 0.754671 0.186143
0.296810 0.754671 0.186143
0.360157 0.754671 0.186143
0.425216 0.754671 0.186143
0.491527 0.754671 0.186143
0.558907 0.754671 0.186143
0.627677 0.754671 0.186143
0.695824 0.754671 0.186143
0.765745 0.754671 0.186143
0.837845 0.754671 0.186143
0.908414 0.754671 0.186143
0.979717 0.754671 0.186143
0.012309 0.816116 0.186143
0.061233 0.816116 0.186143
0.115490 0.816116 0.186143
0.173410 0.816116 0.186143
0.233745 0.816116 0.186143
0.296810 0.816116 0.186143
0.360157 0.816116 0.186143
0.425216 0.816116 0.186143
0.491527 0.816116 0.186143
0.558907 0.816116 0.186143
0.627677 0.816116 0.186143
0.695824 0.816116 0.186143
0.765745 0.816116 0.186143
0.837845 0.816116 0.186143
0.908414 0.816116 0.186143
0.979717 0.816116 0.186143
0.012309 0.877254 0.186143
0.061233 0.877254 0.186143
0.115490 0.877254 0.186143
0.173410 0.877254 0.186143
0.233745 0.877254 0.186143
0.296810 0.877254 0.186143
0.360157 0.877254 0.186143
0.425216 0.877254 0.186143
0.491527 0.877254 0.186143
0.558907 0.877254 0.186143
0.627677 0.877254 0.186143
0.695824 0.877254 0.186143
0.765745 0.877254 0.186143
0.837845 0.877254 0.186143
0.908414 0.877254 0.186143
0.979717 0.877254 0.186143
0.012309 0.937672 0.186143
0.061233 0.937672 0.186143
0.115490 0.937672 0.186143
0.173410 0.937672 0.186143
0.233745 0.937672 0.186143
0.296810 0.937672 0.186143
0.360157 0.937672 0.186143
0.425216 0.937672 0.186143
0.491527 0.937672 0.186143
0.558907 0.937672 0.186143
0.627677 0.937672 0.186143
0.695824 0.937672 0.186143
0.765745 0.937672 0.186143
0.837845 0.937672 0.186143
0.908414 0.937672 0.186143
0.979717 0.937672 0.186143
0.012309 0.997337 0.186143
0.061233 0.997337 0.186143
0.115490 0.997337 0.186143
0.173410 0.997337 0.186143
0.233745 0.997337 0.186143
0.296810 0.997337 0.186143
0.360157 0.997337 0.186143
0.425216 0.997337 0.186143
0.491527 0.997337 0.186143
0.558907 0.997337 0.186143
0.627677 0.997337 0.186143
0.695824 0.997337 0.186143
0.765745 0.997337 0.186143
0.837845 0.997337 0.186143
0.908414 0.997337 0.186143
0.979717 0.997337 0.186143
0.012309 0.013922 0.265602
0.061233 0.013922 0.265602
0.115490 0.013922 0.265602
0.173410 0.013922 0.265602
0.233745 0.013922 0.265602
0.296810 0.013922 0.265602
0.360157 0.013922 0.265602
0.425216 0.013922 0.265602
0.491527 0.013922 0.265602
0.558907 0.013922 0.265602
0.627677 0.013922 0.265602
0.695824 0.013922 0.265602
0.765745 0.013922 0.265602
0.837845 0.013922 0.265602
0.908414 0.013922 0.265602
0.979717 0.013922 0.265602
0.012309 0.094515 0.265602
0.061233 0.094515 0.265602
0.115490 0.094515 0.265602
0.173410 0.094515 0.265602
0.233745 0.094515 0.265602
0.296810 0.094515 0.265602
0.360157 0.094515 0.265602
0.425216 0.094515 0.265602
0.491527 0.094515 0.265602
0.558907 0.094515 0.265602
0.627677 0.094515 0.265602
0.695824 0.094515 0.265602
0.765745 0.094515 0.265602
0.837845 0.094515 0.265602
0.908414 0.094515 0.265602
0.979717 0.094515 0.265602
0.012309 0.167800 0.265602
0.061233 0.167800 0.265602
0.115490 0.167800 0.265602
0.173410 0.167800 0.265602
0.233745 0.167800 0.265602
0.296810 0.167800 0.265602
0.360157 0.167800 0.265602
0.425216 0.167800 0.265602
0.491527 0.167800 0.265602
0.558907 0.167800 0.265602
0.627677 0.167800 0.265602
0.695824 0.167800 0.265602
0.765745 0.167800 0.265602
0.837845 0.167800 0.265602
0.908414 0.167800 0.265602
0.979717 0.167800 0.265602
0.012309 0.237993 0.265602
0.061233 0.237993 0.265602
0.115490 0.237993 0.265602
0.173410 0.237993 0.265602
0.233745 0.237993 0.265602
0.296810 0.237993 0.265602
0.360157 0.237993 0.265602
0.425216 0.237993 0.265602
0.491527 0.237993 0.265602
0.558907 0.237993 0.265602
0.627677 0.237993 0.265602
0.695824 0.237993 0.265602
0.765745 0.237993 0.265602
0.837845 0.237993 0.265602
0.908414 0.237993 0.265602
0.979717 0.237993 0.265602
0.012309 0.306174 0.265602
0.061233 0.306174 0.265602
0.115490 0.306174 0.265602
0.173410 0.306174 0.265602
0.233745 0.306174 0.265602
0.296810 0.306174 0.265602
0.360157 0.306174 0.265602
0.425216 0.306174 0.265602
0.491527 0.306174 0.265602
0.558907 0.306174 0.265602
0.627677 0.306174 0.265602
0.695824 0.306174 0.265602
0.765745 0.306174 0.265602
0.837845 0.306174 0.265602
0.908414 0.306174 0.265602
0.979717 0.306174 0.265602
0.012309 0.372945 0.265602
0.061233 0.372945 0.265602
0.115490 0.372945 0.265602
0.173410 0.372945 0.265602
0.233745 0.372945 0.265602
0.296810 0.372945 0.265602
0.360157 0.372945 0.265602
0.425216 0.372945 0.265602
0.491527 0.372945 0.265602
0.558907 0.372945 0.265602
0.627677 0.372945 0.265602
0.695824 0.372945 0.265602
0.765745 0.372945 0.265602
0.837845 0.372945 0.265602
0.908414 0.372945 0.265602
0.979717 0.372945 0.265602
0.012309 0.438508 0.265602
0.061233 0.438508 0.265602
0.115490 0.438508 0.265602
0.173410 0.438508 0.265602
0.233745 0.438508 0.265602
0.296810 0.438508 0.265602
0.360157 0.438508 0.265602
0.425216 0.438508 0.265602
0.491527 0.438508 0.265602
0.558907 0.438508 0.265602
0.627677 0.438508 0.265602
0.695824 0.438508 0.265602
0.765745 0.438508 0.265602
0.837845 0.438508 0.265602
0.908414 0.438508 0.265602
0.979717 0.438508 0.265602
0.012309 0.503094 0.265602
0.061233 0.503094 0.265602
0.115490 0.503094 0.265602
0.173410 0.503094 0.265602
0.233745 0.503094 0.265602
0.296810 0.503094 0.265602
0.360157 0.503094 0.265602
0.425216 0.503094 0.265602
