example_ofxGpuLutCube/bin/data/ofxGpuLutCube/LUT/T18 (cold clear blue_1).cube
LUT_3D_SIZE 6
0.010110 0.012447 0.013721
0.161158 0.012447 0.013721
0.333238 0.012447 0.013721
0.514809 0.012447 0.013721
0.702687 0.012447 0.013721
0.896114 0.012447 0.013721
0.010110 0.188997 0.013721
0.161158 0.188997 0.013721
0.333238 0.188997 0.013721
0.514809 0.188997 0.013721
0.702687 0.188997 0.013721
0.896114 0.188997 0.013721
0.010110 0.368079 0.013721
0.161158 0.368079 0.013721
0.333238 0.368079 0.013721
0.514809 0.368079 0.013721
0.702687 0.368079 0.013721
0.896114 0.368079 0.013721
0.010110 0.548312 0.013721
0.161158 0.548312 0.013721
0.333238 0.548312 0.013721
0.514809 0.548312 0.013721
0.702687 0.548312 0.013721
0.896114 0.548312 0.013721
0.010110 0.729288 0.013721
0.161158 0.729288 0.013721
0.333238 0.729288 0.013721
0.514809 0.729288 0.013721
0.702687 0.729288 0.013721
0.896114 0.729288 0.013721
0.010110 0.910082 0.013721
0.161158 0.910082 0.013721
0.333238 0.910082 0.013721
0.514809 0.910082 0.013721
0.702687 0.910082 0.013721
0.896114 0.910082 0.013721
0.010110 0.012447 0.203761
0.161158 0.012447 0.203761
0.333238 0.012447 0.203761
0.514809 0.012447 0.203761
0.702687 0.012447 0.203761
0.896114 0.012447 0.203761
0.010110 0.188997 0.203761
0.161158 0.188997 0.203761
0.333238 0.188997 0.203761
0.514809 0.188997 0.203761
0.702687 0.188997 0.203761
0.896114 0.188997 0.203761
0.010110 0.368079 0.203761
0.161158 0.368079 0.203761
0.333238 0.368079 0.203761
0.514809 0.368079 0.203761
0.702687 0.368079 0.203761
0.896114 0.368079 0.203761
0.010110 0.548312 0.203761
0.161158 0.548312 0.203761
0.333238 0.548312 0.203761
0.514809 0.548312 0.203761
0.702687 0.548312 0.203761
0.896114 0.548312 0.203761
0.010110 0.729288 0.203761
0.161158 0.729288 0.203761
0.333238 0.729288 0.203761
0.514809 0.729288 0.203761
0.702687 0.729288 0.203761
0.896114 0.729288 0.203761
0.010110 0.910082 0.203761
0.161158 0.910082 0.203761
0.333238 0.910082 0.203761
0.514809 0.910082 0.203761
0.702687 0.910082 0.203761
0.896114 0.910082 0.203761
0.010110 0.012447 0.385475
0.161158 0.012447 0.385475
0.333238 0.012447 0.385475
0.514809 0.012447 0.385475
0.702687 0.012447 0.385475
0.896114 0.012447 0.385475
0.010110 0.188997 0.385475
0.161158 0.188997 0.385475
0.333238 0.188997 0.385475
0.514809 0.188997 0.385475
0.702687 0.188997 0.385475
0.896114 0.188997 0.385475
0.010110 0.368079 0.385475
0.161158 0.368079 0.385475
0.333238 0.368079 0.385475
0.514809 0.368079 0.385475
0.702687 0.368079 0.385475
0.896114 0.368079 0.385475
0.010110 0.548312 0.385475
0.161158 0.548312 0.385475
0.333238 0.548312 0.385475
0.514809 0.548312 0.385475
0.702687 0.548312 0.385475
0.896114 0.548312 0.385475
0.010110 0.729288 0.385475
0.161158 0.729288 0.385475
0.333238 0.729288 0.385475
0.514809 0.729288 0.385475
0.702687 0.729288 0.385475
0.896114 0.729288 0.385475
0.010110 0.910082 0.385475
0.161158 0.910082 0.385475
0.333238 0.910082 0.385475
0.514809 0.910082 0.385475
0.702687 0.910082 0.385475
0.896114 0.910082 0.385475
0.010110 0.012447 0.563730
0.161158 0.012447 0.563730
0.333238 0.012447 0.563730
0.514809 0.012447 0.563730
0.702687 0.012447 0.563730
0.896114 0.012447 0.563730
0.010110 0.188997 0.563730
0.161158 0.188997 0.563730
0.333238 0.188997 0.563730
0.514809 0.188997 0.563730
0.702687 0.188997 0.563730
0.896114 0.188997 0.563730
0.010110 0.368079 0.563730
0.161158 0.368079 0.563730
0.333238 0.368079 0.563730
0.514809 0.368079 0.563730
0.702687 0.368079 0.563730
0.896114 0.368079 0.563730
0.010110 0.548312 0.563730
0.161158 0.548312 0.563730
0.333238 0.548312 0.563730
0.514809 0.548312 0.563730
0.702687 0.548312 0.563730
0.896114 0.548312 0.563730
0.010110 0.729288 0.563730
0.161158 0.729288 0.563730
0.333238 0.729288 0.563730
0.514809 0.729288 0.563730
0.702687 0.729288 0.563730
0.896114 0.729288 0.563730
0.010110 0.910082 0.563730
0.161158 0.910082 0.563730
0.333238 0.910082 0.563730
0.514809 0.910082 0.563730
0.702687 0.910082 0.563730
0.896114 0.910082 0.563730
0.010110 0.012447 0.739821
0.161158 0.012447 0.739821
0.333238 0.012447 0.739821
0.514809 0.012447 0.739821
0.702687 0.012447 0.739821
0.896114 0.012447 0.739821
0.010110 0.188997 0.739821
0.161158 0.188997 0.739821
0.333238 0.188997 0.739821
0.514809 0.188997 0.739821
0.702687 0.188997 0.739821
0.896114 0.188997 0.739821
0.010110 0.368079 0.739821
0.161158 0.368079 0.739821
0.333238 0.368079 0.739821
0.514809 0.368079 0.739821
0.702687 0.368079 0.739821
0.896114 0.368079 0.739821
0.010110 0.548312 0.739821
0.161158 0.548312 0.739821
0.333238 0.548312 0.739821
0.514809 0.548312 0.739821
0.702687 0.548312 0.739821
0.896114 0.548312 0.739821
0.010110 0.729288 0.739821
0.161158 0.729288 0.739821
0.333238 0.729288 0.739821
0.514809 0.729288 0.739821
0.702687 0.729288 0.739821
0.896114 0.729288 0.739821
0.010110 0.910082 0.739821
0.161158 0.910082 0.739821
0.333238 0.910082 0.739821
0.514809 0.910082 0.739821
0.702687 0.910082 0.739821
0.896114 0.910082 0.739821
0.010110 0.012447 0.913498
0.161158 0.012447 0.913498
0.333238 0.012447 0.913498
0.514809 0.012447 0.913498
0.702687 0.012447 0.913498
0.896114 0.012447 0.913498
0.010110 0.188997 0.913498
0.161158 0.188997 0.913498
0.333238 0.188997 0.913498
0.514809 0.188997 0.913498
0.702687 0.188997 0.913498
0.896114 0.188997 0.913498
0.010110 0.368079 0.913498
0.161158 0.368079 0.913498
0.333238 0.368079 0.913498
0.514809 0.368079 0.913498
0.702687 0.368079 0.913498
0.896114 0.368079 0.913498
0.010110 0.548312 0.913498
0.161158 0.548312 0.913498
0.333238 0.548312 0.913498
0.514809 0.548312 0.913498
0.702687 0.548312 0.913498
0.896114 0.548312 0.913498
0.010110 0.729288 0.913498
0.161158 0.729288 0.913498
0.333238 0.729288 0.913498
0.514809 0.729288 0.913498
0.702687 0.729288 0.913498
0.896114 0.729288 0.913498
0.010110 0.910082 0.913498
0.161158 0.910082 0.913498
0.333238 0.910082 0.913498
0.514809 0.910082 0.913498
0.702687 0.910082 0.913498
0.896114 0.910082 0.913498
