example_ofxGpuLutCube/bin/data/ofxGpuLutCube/LUT/T18 (cold clear blue_1).cube
LUT_3D_SIZE 16
0.010110 0.012447 0.013721
0.056446 0.012447 0.013721
0.107266 0.012447 0.013721
0.161158 0.012447 0.013721
0.216952 0.012447 0.013721
0.275086 0.012447 0.013721
0.333238 0.012447 0.013721
0.392854 0.012447 0.013721
0.453398 0.012447 0.013721
0.514809 0.012447 0.013721
0.577370 0.012447 0.013721
0.639313 0.012447 0.013721
0.702687 0.012447 0.013721
0.767861 0.012447 0.013721
0.831710 0.012447 0.013721
0.896114 0.012447 0.013721
0.010110 0.070722 0.013721
0.056446 0.070722 0.013721
0.107266 0.070722 0.013721
0.161158 0.070722 0.013721
0.216952 0.070722 0.013721
0.275086 0.070722 0.013721
0.333238 0.070722 0.013721
0.392854 0.070722 0.013721
0.453398 0.070722 0.013721
0.514809 0.070722 0.013721
0.577370 0.070722 0.013721
0.639313 0.070722 0.013721
0.702687 0.070722 0.013721
0.767861 0.070722 0.013721
0.831710 0.070722 0.013721
0.896114 0.070722 0.013721
0.010110 0.129676 0.013721
0.056446 0.129676 0.013721
0.107266 0.129676 0.013721
0.161158 0.129676 0.013721
0.216952 0.129676 0.013721
0.275086 0.129676 0.013721
0.333238 0.129676 0.013721
0.392854 0.129676 0.013721
0.453398 0.129676 0.013721
0.514809 0.129676 0.013721
0.577370 0.129676 0.013721
0.639313 0.129676 0.013721
0.702687 0.129676 0.013721
0.767861 0.129676 0.013721
0.831710 0.129676 0.013721
0.896114 0.129676 0.013721
0.010110 0.188997 0.013721
0.056446 0.188997 0.013721
0.107266 0.188997 0.013721
0.161158 0.188997 0.013721
0.216952 0.188997 0.013721
0.275086 0.188997 0.013721
0.333238 0.188997 0.013721
0.392854 0.188997 0.013721
0.453398 0.188997 0.013721
0.514809 0.188997 0.013721
0.577370 0.188997 0.013721
0.639313 0.188997 0.013721
0.702687 0.188997 0.013721
0.767861 0.188997 0.013721
0.831710 0.188997 0.013721
0.896114 0.188997 0.013721
0.010110 0.248511 0.013721
0.056446 0.248511 0.013721
0.107266 0.248511 0.013721
0.161158 0.248511 0.013721
0.216952 0.248511 0.013721
0.275086 0.248511 0.013721
0.333238 0.248511 0.013721
0.392854 0.248511 0.013721
0.453398 0.248511 0.013721
0.514809 0.248511 0.013721
0.577370 0.248511 0.013721
0.639313 0.248511 0.013721
0.702687 0.248511 0.013721
0.767861 0.248511 0.013721
0.831710 0.248511 0.013721
0.896114 0.248511 0.013721
0.010110 0.308202 0.013721
0.056446 0.308202 0.013721
0.107266 0.308202 0.013721
0.161158 0.308202 0.013721
0.216952 0.308202 0.013721
0.275086 0.308202 0.013721
0.333238 0.308202 0.013721
0.392854 0.308202 0.013721
0.453398 0.308202 0.013721
0.514809 0.308202 0.013721
0.577370 0.308202 0.013721
0.639313 0.308202 0.013721
0.702687 0.308202 0.013721
0.767861 0.308202 0.013721
0.831710 0.308202 0.013721
0.896114 0.308202 0.013721
0.010110 0.368079 0.013721
0.056446 0.368079 0.013721
0.107266 0.368079 0.013721
0.161158 0.368079 0.013721
0.216952 0.368079 0.013721
0.275086 0.368079 0.013721
0.333238 0.368079 0.013721
0.392854 0.368079 0.013721
0.453398 0.368079 0.013721
0.514809 0.368079 0.013721
0.577370 0.368079 0.013721
0.639313 0.368079 0.013721
0.702687 0.368079 0.013721
0.767861 0.368079 0.013721
0.831710 0.368079 0.013721
0.896114 0.368079 0.013721
0.010110 0.428009 0.013721
0.056446 0.428009 0.013721
0.107266 0.428009 0.013721
0.161158 0.428009 0.013721
0.216952 0.428009 0.013721
0.275086 0.428009 0.013721
0.333238 0.428009 0.013721
0.392854 0.428009 0.013721
0.453398 0.428009 0.013721
0.514809 0.428009 0.013721
0.577370 0.428009 0.013721
0.639313 0.428009 0.013721
0.702687 0.428009 0.013721
0.767861 0.428009 0.013721
0.831710 0.428009 0.013721
0.896114 0.428009 0.013721
0.010110 0.488123 0.013721
0.056446 0.488123 0.013721
0.107266 0.488123 0.013721
0.161158 0.488123 0.013721
0.216952 0.488123 0.013721
0.275086 0.488123 0.013721
0.333238 0.488123 0.013721
0.392854 0.488123 0.013721
0.453398 0.488123 0.013721
0.514809 0.488123 0.013721
0.577370 0.488123 0.013721
0.639313 0.488123 0.013721
0.702687 0.488123 0.013721
0.767861 0.488123 0.013721
0.831710 0.488123 0.013721
0.896114 0.488123 0.013721
0.010110 0.548312 0.013721
0.056446 0.548312 0.013721
0.107266 0.548312 0.013721
0.161158 0.548312 0.013721
0.216952 0.548312 0.013721
0.275086 0.548312 0.013721
0.333238 0.548312 0.013721
0.392854 0.548312 0.013721
0.453398 0.548312 0.013721
0.514809 0.548312 0.013721
0.577370 0.548312 0.013721
0.639313 0.548312 0.013721
0.702687 0.548312 0.013721
0.767861 0.548312 0.013721
0.831710 0.548312 0.013721
0.896114 0.548312 0.013721
0.010110 0.608514 0.013721
0.056446 0.608514 0.013721
0.107266 0.608514 0.013721
0.161158 0.608514 0.013721
0.216952 0.608514 0.013721
0.275086 0.608514 0.013721
0.333238 0.608514 0.013721
0.392854 0.608514 0.013721
0.453398 0.608514 0.013721
0.514809 0.608514 0.013721
0.577370 0.608514 0.013721
0.639313 0.608514 0.013721
0.702687 0.608514 0.013721
0.767861 0.608514 0.013721
0.831710 0.608514 0.013721
0.896114 0.608514 0.013721
0.010110 0.668853 0.013721
0.056446 0.668853 0.013721
0.107266 0.668853 0.013721
0.161158 0.668853 0.013721
0.216952 0.668853 0.013721
0.275086 0.668853 0.013721
0.333238 0.668853 0.013721
0.392854 0.668853 0.013721
0.453398 0.668853 0.013721
0.514809 0.668853 0.013721
0.577370 0.668853 0.013721
0.639313 0.668853 0.013721
0.702687 0.668853 0.013721
0.767861 0.668853 0.013721
0.831710 0.668853 0.013721
0.896114 0.668853 0.013721
0.010110 0.729288 0.013721
0.056446 0.729288 0.013721
0.107266 0.729288 0.013721
0.161158 0.729288 0.013721
0.216952 0.729288 0.013721
0.275086 0.729288 0.013721
0.333238 0.729288 0.013721
0.392854 0.729288 0.013721
0.453398 0.729288 0.013721
0.514809 0.729288 0.013721
0.577370 0.729288 0.013721
0.639313 0.729288 0.013721
0.702687 0.729288 0.013721
0.767861 0.729288 0.013721
0.831710 0.729288 0.013721
0.896114 0.729288 0.013721
0.010110 0.789736 0.013721
0.056446 0.789736 0.013721
0.107266 0.789736 0.013721
0.161158 0.789736 0.013721
0.216952 0.789736 0.013721
0.275086 0.789736 0.013721
0.333238 0.789736 0.013721
0.392854 0.789736 0.013721
0.453398 0.789736 0.013721
0.514809 0.789736 0.013721
0.577370 0.789736 0.013721
0.639313 0.789736 0.013721
0.702687 0.789736 0.013721
0.767861 0.789736 0.013721
0.831710 0.789736 0.013721
0.896114 0.789736 0.013721
0.010110 0.850070 0.013721
0.056446 0.850070 0.013721
0.107266 0.850070 0.013721
0.161158 0.850070 0.013721
0.216952 0.850070 0.013721
0.275086 0.850070 0.013721
0.333238 0.850070 0.013721
0.392854 0.850070 0.013721
0.453398 0.850070 0.013721
0.514809 0.850070 0.013721
0.577370 0.850070 0.013721
0.639313 0.850070 0.013721
0.702687 0.850070 0.013721
0.767861 0.850070 0.013721
0.831710 0.850070 0.013721
0.896114 0.850070 0.013721
0.010110 0.910082 0.013721
0.056446 0.910082 0.013721
0.107266 0.910082 0.013721
0.161158 0.910082 0.013721
0.216952 0.910082 0.013721
0.275086 0.910082 0.013721
0.333238 0.910082 0.013721
0.392854 0.910082 0.013721
0.453398 0.910082 0.013721
0.514809 0.910082 0.013721
0.577370 0.910082 0.013721
0.639313 0.910082 0.013721
0.702687 0.910082 0.013721
0.767861 0.910082 0.013721
0.831710 0.910082 0.013721
0.896114 0.910082 0.013721
0.010110 0.012447 0.079030
0.056446 0.012447 0.079030
0.107266 0.012447 0.079030
0.161158 0.012447 0.079030
0.216952 0.012447 0.079030
0.275086 0.012447 0.079030
0.333238 0.012447 0.079030
0.392854 0.012447 0.079030
0.453398 0.012447 0.079030
0.514809 0.012447 0.079030
0.577370 0.012447 0.079030
0.639313 0.012447 0.079030
0.702687 0.012447 0.079030
0.767861 0.012447 0.079030
0.831710 0.012447 0.079030
0.896114 0.012447 0.079030
0.010110 0.070722 0.079030
0.056446 0.070722 0.079030
0.107266 0.070722 0.079030
0.161158 0.070722 0.079030
0.216952 0.070722 0.079030
0.275086 0.070722 0.079030
0.333238 0.070722 0.079030
0.392854 0.070722 0.079030
0.453398 0.070722 0.079030
0.514809 0.070722 0.079030
0.577370 0.070722 0.079030
0.639313 0.070722 0.079030
0.702687 0.070722 0.079030
0.767861 0.070722 0.079030
0.831710 0.070722 0.079030
0.896114 0.070722 0.079030
0.010110 0.129676 0.079030
0.056446 0.129676 0.079030
0.107266 0.129676 0.079030
0.161158 0.129676 0.079030
0.216952 0.129676 0.079030
0.275086 0.129676 0.079030
0.333238 0.129676 0.079030
0.392854 0.129676 0.079030
0.453398 0.129676 0.079030
0.514809 0.129676 0.079030
0.577370 0.129676 0.079030
0.639313 0.129676 0.079030
0.702687 0.129676 0.079030
0.767861 0.129676 0.079030
0.831710 0.129676 0.079030
0.896114 0.129676 0.079030
0.010110 0.188997 0.079030
0.056446 0.188997 0.079030
0.107266 0.188997 0.079030
0.161158 0.188997 0.079030
0.216952 0.188997 0.079030
0.275086 0.188997 0.079030
0.333238 0.188997 0.079030
0.392854 0.188997 0.079030
0.453398 0.188997 0.079030
0.514809 0.188997 0.079030
0.577370 0.188997 0.079030
0.639313 0.188997 0.079030
0.702687 0.188997 0.079030
0.767861 0.188997 0.079030
0.831710 0.188997 0.079030
0.896114 0.188997 0.079030
0.010110 0.248511 0.079030
0.056446 0.248511 0.079030
0.107266 0.248511 0.079030
0.161158 0.248511 0.079030
0.216952 0.248511 0.079030
0.275086 0.248511 0.079030
0.333238 0.248511 0.079030
0.392854 0.248511 0.079030
0.453398 0.248511 0.079030
0.514809 0.248511 0.079030
0.577370 0.248511 0.079030
0.639313 0.248511 0.079030
0.702687 0.248511 0.079030
0.767861 0.248511 0.079030
0.831710 0.248511 0.079030
0.896114 0.248511 0.079030
0.010110 0.308202 0.079030
0.056446 0.308202 0.079030
0.107266 0.308202 0.079030
0.161158 0.308202 0.079030
0.216952 0.308202 0.079030
0.275086 0.308202 0.079030
0.333238 0.308202 0.079030
0.392854 0.308202 0.079030
0.453398 0.308202 0.079030
0.514809 0.308202 0.079030
0.577370 0.308202 0.079030
0.639313 0.308202 0.079030
0.702687 0.308202 0.079030
0.767861 0.308202 0.079030
0.831710 0.308202 0.079030
0.896114 0.308202 0.079030
0.010110 0.368079 0.079030
0.056446 0.368079 0.079030
0.107266 0.368079 0.079030
0.161158 0.368079 0.079030
0.216952 0.368079 0.079030
0.275086 0.368079 0.079030
0.333238 0.368079 0.079030
0.392854 0.368079 0.079030
0.453398 0.368079 0.079030
0.514809 0.368079 0.079030
0.577370 0.368079 0.079030
0.639313 0.368079 0.079030
0.702687 0.368079 0.079030
0.767861 0.368079 0.079030
0.831710 0.368079 0.079030
0.896114 0.368079 0.079030
0.010110 0.428009 0.079030
0.056446 0.428009 0.079030
0.107266 0.428009 0.079030
0.161158 0.428009 0.079030
0.216952 0.428009 0.079030
0.275086 0.428009 0.079030
0.333238 0.428009 0.079030
0.392854 0.428009 0.079030
0.453398 0.428009 0.079030
0.514809 0.428009 0.079030
0.577370 0.428009 0.079030
0.639313 0.428009 0.079030
0.702687 0.428009 0.079030
0.767861 0.428009 0.079030
0.831710 0.428009 0.079030
0.896114 0.428009 0.079030
0.010110 0.488123 0.079030
0.056446 0.488123 0.079030
0.107266 0.488123 0.079030
0.161158 0.488123 0.079030
0.216952 0.488123 0.079030
0.275086 0.488123 0.079030
0.333238 0.488123 0.079030
0.392854 0.488123 0.079030
0.453398 0.488123 0.079030
0.514809 0.488123 0.079030
0.577370 0.488123 0.079030
0.639313 0.488123 0.079030
0.702687 0.488123 0.079030
0.767861 0.488123 0.079030
0.831710 0.488123 0.079030
0.896114 0.488123 0.079030
0.010110 0.548312 0.079030
0.056446 0.548312 0.079030
0.107266 0.548312 0.079030
0.161158 0.548312 0.079030
0.216952 0.548312 0.079030
0.275086 0.548312 0.079030
0.333238 0.548312 0.079030
0.392854 0.548312 0.079030
0.453398 0.548312 0.079030
0.514809 0.548312 0.079030
0.577370 0.548312 0.079030
0.639313 0.548312 0.079030
0.702687 0.548312 0.079030
0.767861 0.548312 0.079030
0.831710 0.548312 0.079030
0.896114 0.548312 0.079030
0.010110 0.608514 0.079030
0.056446 0.608514 0.079030
0.107266 0.608514 0.079030
0.161158 0.608514 0.079030
0.216952 0.608514 0.079030
0.275086 0.608514 0.079030
0.333238 0.608514 0.079030
0.392854 0.608514 0.079030
0.453398 0.608514 0.079030
0.514809 0.608514 0.079030
0.577370 0.608514 0.079030
0.639313 0.608514 0.079030
0.702687 0.608514 0.079030
0.767861 0.608514 0.079030
0.831710 0.608514 0.079030
0.896114 0.608514 0.079030
0.010110 0.668853 0.079030
0.056446 0.668853 0.079030
0.107266 0.668853 0.079030
0.161158 0.668853 0.079030
0.216952 0.668853 0.079030
0.275086 0.668853 0.079030
0.333238 0.668853 0.079030
0.392854 0.668853 0.079030
0.453398 0.668853 0.079030
0.514809 0.668853 0.079030
0.577370 0.668853 0.079030
0.639313 0.668853 0.079030
0.702687 0.668853 0.079030
0.767861 0.668853 0.079030
0.831710 0.668853 0.079030
0.896114 0.668853 0.079030
0.010110 0.729288 0.079030
0.056446 0.729288 0.079030
0.107266 0.729288 0.079030
0.161158 0.729288 0.079030
0.216952 0.729288 0.079030
0.275086 0.729288 0.079030
0.333238 0.729288 0.079030
0.392854 0.729288 0.079030
0.453398 0.729288 0.079030
0.514809 0.729288 0.079030
0.577370 0.729288 0.079030
0.639313 0.729288 0.079030
0.702687 0.729288 0.079030
0.767861 0.729288 0.079030
0.831710 0.729288 0.079030
0.896114 0.729288 0.079030
0.010110 0.789736 0.079030
0.056446 0.789736 0.079030
0.107266 0.789736 0.079030
0.161158 0.789736 0.079030
0.216952 0.789736 0.079030
0.275086 0.789736 0.079030
0.333238 0.789736 0.079030
0.392854 0.789736 0.079030
0.453398 0.789736 0.079030
0.514809 0.789736 0.079030
0.577370 0.789736 0.079030
0.639313 0.789736 0.079030
0.702687 0.789736 0.079030
0.767861 0.789736 0.079030
0.831710 0.789736 0.079030
0.896114 0.789736 0.079030
0.010110 0.850070 0.079030
0.056446 0.850070 0.079030
0.107266 0.850070 0.079030
0.161158 0.850070 0.079030
0.216952 0.850070 0.079030
0.275086 0.850070 0.079030
0.333238 0.850070 0.079030
0.392854 0.850070 0.079030
0.453398 0.850070 0.079030
0.514809 0.850070 0.079030
0.577370 0.850070 0.079030
0.639313 0.850070 0.079030
0.702687 0.850070 0.079030
0.767861 0.850070 0.079030
0.831710 0.850070 0.079030
0.896114 0.850070 0.079030
0.010110 0.910082 0.079030
0.056446 0.910082 0.079030
0.107266 0.910082 0.079030
0.161158 0.910082 0.079030
0.216952 0.910082 0.079030
0.275086 0.910082 0.079030
0.333238 0.910082 0.079030
0.392854 0.910082 0.079030
0.453398 0.910082 0.079030
0.514809 0.910082 0.079030
0.577370 0.910082 0.079030
0.639313 0.910082 0.079030
0.702687 0.910082 0.079030
0.767861 0.910082 0.079030
0.831710 0.910082 0.079030
0.896114 0.910082 0.079030
0.010110 0.012447 0.141951
0.056446 0.012447 0.141951
0.107266 0.012447 0.141951
0.161158 0.012447 0.141951
0.216952 0.012447 0.141951
0.275086 0.012447 0.141951
0.333238 0.012447 0.141951
0.392854 0.012447 0.141951
0.453398 0.012447 0.141951
0.514809 0.012447 0.141951
0.577370 0.012447 0.141951
0.639313 0.012447 0.141951
0.702687 0.012447 0.141951
0.767861 0.012447 0.141951
0.831710 0.012447 0.141951
0.896114 0.012447 0.141951
0.010110 0.070722 0.141951
0.056446 0.070722 0.141951
0.107266 0.070722 0.141951
0.161158 0.070722 0.141951
0.216952 0.070722 0.141951
0.275086 0.070722 0.141951
0.333238 0.070722 0.141951
0.392854 0.070722 0.141951
0.453398 0.070722 0.141951
0.514809 0.070722 0.141951
0.577370 0.070722 0.141951
0.639313 0.070722 0.141951
0.702687 0.070722 0.141951
0.767861 0.070722 0.141951
0.831710 0.070722 0.141951
0.896114 0.070722 0.141951
0.010110 0.129676 0.141951
0.056446 0.129676 0.141951
0.107266 0.129676 0.141951
0.161158 0.129676 0.141951
0.216952 0.129676 0.141951
0.275086 0.129676 0.141951
0.333238 0.129676 0.141951
0.392854 0.129676 0.141951
0.453398 0.129676 0.141951
0.514809 0.129676 0.141951
0.577370 0.129676 0.141951
0.639313 0.129676 0.141951
0.702687 0.129676 0.141951
0.767861 0.129676 0.141951
0.831710 0.129676 0.141951
0.896114 0.129676 0.141951
0.010110 0.188997 0.141951
0.056446 0.188997 0.141951
0.107266 0.188997 0.141951
0.161158 0.188997 0.141951
0.216952 0.188997 0.141951
0.275086 0.188997 0.141951
0.333238 0.188997 0.141951
0.392854 0.188997 0.141951
0.453398 0.188997 0.141951
0.514809 0.188997 0.141951
0.577370 0.188997 0.141951
0.639313 0.188997 0.141951
0.702687 0.188997 0.141951
0.767861 0.188997 0.141951
0.831710 0.188997 0.141951
0.896114 0.188997 0.141951
0.010110 0.248511 0.141951
0.056446 0.248511 0.141951
0.107266 0.248511 0.141951
0.161158 0.248511 0.141951
0.216952 0.248511 0.141951
0.275086 0.248511 0.141951
0.333238 0.248511 0.141951
0.392854 0.248511 0.141951
0.453398 0.248511 0.141951
0.514809 0.248511 0.141951
0.577370 0.248511 0.141951
0.639313 0.248511 0.141951
0.702687 0.248511 0.141951
0.767861 0.248511 0.141951
0.831710 0.248511 0.141951
0.896114 0.248511 0.141951
0.010110 0.308202 0.141951
0.056446 0.308202 0.141951
0.107266 0.308202 0.141951
0.161158 0.308202 0.141951
0.216952 0.308202 0.141951
0.275086 0.308202 0.141951
0.333238 0.308202 0.141951
0.392854 0.308202 0.141951
0.453398 0.308202 0.141951
0.514809 0.308202 0.141951
0.577370 0.308202 0.141951
0.639313 0.308202 0.141951
0.702687 0.308202 0.141951
0.767861 0.308202 0.141951
0.831710 0.308202 0.141951
0.896114 0.308202 0.141951
0.010110 0.368079 0.141951
0.056446 0.368079 0.141951
0.107266 0.368079 0.141951
0.161158 0.368079 0.141951
0.216952 0.368079 0.141951
0.275086 0.368079 0.141951
0.333238 0.368079 0.141951
0.392854 0.368079 0.141951
0.453398 0.368079 0.141951
0.514809 0.368079 0.141951
0.577370 0.368079 0.141951
0.639313 0.368079 0.141951
0.702687 0.368079 0.141951
0.767861 0.368079 0.141951
0.831710 0.368079 0.141951
0.896114 0.368079 0.141951
0.010110 0.428009 0.141951
0.056446 0.428009 0.141951
0.107266 0.428009 0.141951
0.161158 0.428009 0.141951
0.216952 0.428009 0.141951
0.275086 0.428009 0.141951
0.333238 0.428009 0.141951
0.392854 0.428009 0.141951
0.453398 0.428009 0.141951
0.514809 0.428009 0.141951
0.577370 0.428009 0.141951
0.639313 0.428009 0.141951
0.702687 0.428009 0.141951
0.767861 0.428009 0.141951
0.831710 0.428009 0.141951
0.896114 0.428009 0.141951
0.010110 0.488123 0.141951
0.056446 0.488123 0.141951
0.107266 0.488123 0.141951
0.161158 0.488123 0.141951
0.216952 0.488123 0.141951
0.275086 0.488123 0.141951
0.333238 0.488123 0.141951
0.392854 0.488123 0.141951
0.453398 0.488123 0.141951
0.514809 0.488123 0.141951
0.577370 0.488123 0.141951
0.639313 0.488123 0.141951
0.702687 0.488123 0.141951
0.767861 0.488123 0.141951
0.831710 0.488123 0.141951
0.896114 0.488123 0.141951
0.010110 0.548312 0.141951
0.056446 0.548312 0.141951
0.107266 0.548312 0.141951
0.161158 0.548312 0.141951
0.216952 0.548312 0.141951
0.275086 0.548312 0.141951
0.333238 0.548312 0.141951
0.392854 0.548312 0.141951
0.453398 0.548312 0.141951
0.514809 0.548312 0.141951
0.577370 0.548312 0.141951
0.639313 0.548312 0.141951
0.702687 0.548312 0.141951
0.767861 0.548312 0.141951
0.831710 0.548312 0.141951
0.896114 0.548312 0.141951
0.010110 0.608514 0.141951
0.056446 0.608514 0.141951
0.107266 0.608514 0.141951
0.161158 0.608514 0.141951
0.216952 0.608514 0.141951
0.275086 0.608514 0.141951
0.333238 0.608514 0.141951
0.392854 0.608514 0.141951
0.453398 0.608514 0.141951
0.514809 0.608514 0.141951
0.577370 0.608514 0.141951
0.639313 0.608514 0.141951
0.702687 0.608514 0.141951
0.767861 0.608514 0.141951
0.831710 0.608514 0.141951
0.896114 0.608514 0.141951
0.010110 0.668853 0.141951
0.056446 0.668853 0.141951
0.107266 0.668853 0.141951
0.161158 0.668853 0.141951
0.216952 0.668853 0.141951
0.275086 0.668853 0.141951
0.333238 0.668853 0.141951
0.392854 0.668853 0.141951
0.453398 0.668853 0.141951
0.514809 0.668853 0.141951
0.577370 0.668853 0.141951
0.639313 0.668853 0.141951
0.702687 0.668853 0.141951
0.767861 0.668853 0.141951
0.831710 0.668853 0.141951
0.896114 0.668853 0.141951
0.010110 0.729288 0.141951
0.056446 0.729288 0.141951
0.107266 0.729288 0.141951
0.161158 0.729288 0.141951
0.216952 0.729288 0.141951
0.275086 0.729288 0.141951
0.333238 0.729288 0.141951
0.392854 0.729288 0.141951
0.453398 0.729288 0.141951
0.514809 0.729288 0.141951
0.577370 0.729288 0.141951
0.639313 0.729288 0.141951
0.702687 0.729288 0.141951
0.767861 0.729288 0.141951
0.831710 0.729288 0.141951
0.896114 0.729288 0.141951
0.010110 0.789736 0.141951
0.056446 0.789736 0.141951
0.107266 0.789736 0.141951
0.161158 0.789736 0.141951
0.216952 0.789736 0.141951
0.275086 0.789736 0.141951
0.333238 0.789736 0.141951
0.392854 0.789736 0.141951
0.453398 0.789736 0.141951
0.514809 0.789736 0.141951
0.577370 0.789736 0.141951
0.639313 0.789736 0.141951
0.702687 0.789736 0.141951
0.767861 0.789736 0.141951
0.831710 0.789736 0.141951
0.896114 0.789736 0.141951
0.010110 0.850070 0.141951
0.056446 0.850070 0.141951
0.107266 0.850070 0.141951
0.161158 0.850070 0.141951
0.216952 0.850070 0.141951
0.275086 0.850070 0.141951
0.333238 0.850070 0.141951
0.392854 0.850070 0.141951
0.453398 0.850070 0.141951
0.514809 0.850070 0.141951
0.577370 0.850070 0.141951
0.639313 0.850070 0.141951
0.702687 0.850070 0.141951
0.767861 0.850070 0.141951
0.831710 0.850070 0.141951
0.896114 0.850070 0.141951
0.010110 0.910082 0.141951
0.056446 0.910082 0.141951
0.107266 0.910082 0.141951
0.161158 0.910082 0.141951
0.216952 0.910082 0.141951
0.275086 0.910082 0.141951
0.333238 0.910082 0.141951
0.392854 0.910082 0.141951
0.453398 0.910082 0.141951
0.514809 0.910082 0.141951
0.577370 0.910082 0.141951
0.639313 0.910082 0.141951
0.702687 0.910082 0.141951
0.767861 0.910082 0.141951
0.831710 0.910082 0.141951
0.896114 0.910082 0.141951
0.010110 0.012447 0.203761
0.056446 0.012447 0.203761
0.107266 0.012447 0.203761
0.161158 0.012447 0.203761
0.216952 0.012447 0.203761
0.275086 0.012447 0.203761
0.333238 0.012447 0.203761
0.392854 0.012447 0.203761
0.453398 0.012447 0.203761
0.514809 0.012447 0.203761
0.577370 0.012447 0.203761
0.639313 0.012447 0.203761
0.702687 0.012447 0.203761
0.767861 0.012447 0.203761
0.831710 0.012447 0.203761
0.896114 0.012447 0.203761
0.010110 0.070722 0.203761
0.056446 0.070722 0.203761
0.107266 0.070722 0.203761
0.161158 0.070722 0.203761
0.216952 0.070722 0.203761
0.275086 0.070722 0.203761
0.333238 0.070722 0.203761
0.392854 0.070722 0.203761
0.453398 0.070722 0.203761
0.514809 0.070722 0.203761
0.577370 0.070722 0.203761
0.639313 0.070722 0.203761
0.702687 0.070722 0.203761
0.767861 0.070722 0.203761
0.831710 0.070722 0.203761
0.896114 0.070722 0.203761
0.010110 0.129676 0.203761
0.056446 0.129676 0.203761
0.107266 0.129676 0.203761
0.161158 0.129676 0.203761
0.216952 0.129676 0.203761
0.275086 0.129676 0.203761
0.333238 0.129676 0.203761
0.392854 0.129676 0.203761
0.453398 0.129676 0.203761
0.514809 0.129676 0.203761
0.577370 0.129676 0.203761
0.639313 0.129676 0.203761
0.702687 0.129676 0.203761
0.767861 0.129676 0.203761
0.831710 0.129676 0.203761
0.896114 0.129676 0.203761
0.010110 0.188997 0.203761
0.056446 0.188997 0.203761
0.107266 0.188997 0.203761
0.161158 0.188997 0.203761
0.216952 0.188997 0.203761
0.275086 0.188997 0.203761
0.333238 0.188997 0.203761
0.392854 0.188997 0.203761
0.453398 0.188997 0.203761
0.514809 0.188997 0.203761
0.577370 0.188997 0.203761
0.639313 0.188997 0.203761
0.702687 0.188997 0.203761
0.767861 0.188997 0.203761
0.831710 0.188997 0.203761
0.896114 0.188997 0.203761
0.010110 0.248511 0.203761
0.056446 0.248511 0.203761
0.107266 0.248511 0.203761
0.161158 0.248511 0.203761
0.216952 0.248511 0.203761
0.275086 0.248511 0.203761
0.333238 0.248511 0.203761
0.392854 0.248511 0.203761
0.453398 0.248511 0.203761
0.514809 0.248511 0.203761
0.577370 0.248511 0.203761
0.639313 0.248511 0.203761
0.702687 0.248511 0.203761
0.767861 0.248511 0.203761
0.831710 0.248511 0.203761
0.896114 0.248511 0.203761
0.010110 0.308202 0.203761
0.056446 0.308202 0.203761
0.107266 0.308202 0.203761
0.161158 0.308202 0.203761
0.216952 0.308202 0.203761
0.275086 0.308202 0.203761
0.333238 0.308202 0.203761
0.392854 0.308202 0.203761
0.453398 0.308202 0.203761
0.514809 0.308202 0.203761
0.577370 0.308202 0.203761
0.639313 0.308202 0.203761
0.702687 0.308202 0.203761
0.767861 0.308202 0.203761
0.831710 0.308202 0.203761
0.896114 0.308202 0.203761
0.010110 0.368079 0.203761
0.056446 0.368079 0.203761
0.107266 0.368079 0.203761
0.161158 0.368079 0.203761
0.216952 0.368079 0.203761
0.275086 0.368079 0.203761
0.333238 0.368079 0.203761
0.392854 0.368079 0.203761
0.453398 0.368079 0.203761
0.514809 0.368079 0.203761
0.577370 0.368079 0.203761
0.639313 0.368079 0.203761
0.702687 0.368079 0.203761
0.767861 0.368079 0.203761
0.831710 0.368079 0.203761
0.896114 0.368079 0.203761
0.010110 0.428009 0.203761
0.056446 0.428009 0.203761
0.107266 0.428009 0.203761
0.161158 0.428009 0.203761
0.216952 0.428009 0.203761
0.275086 0.428009 0.203761
0.333238 0.428009 0.203761
0.392854 0.428009 0.203761
