example_ofxGpuLutCube/bin/data/ofxGpuLutCube/LUT/T19 (warm sunset red).cube
LUT_3D_SIZE 6
0.000000 0.000000 0.000000
0.232336 0.000000 0.000000
0.408496 0.000000 0.000000
0.561865 0.000000 0.000000
0.702115 0.000000 0.000000
0.834195 0.000000 0.000000
0.000000 0.180626 0.000000
0.232336 0.180626 0.000000
0.408496 0.180626 0.000000
0.561865 0.180626 0.000000
0.702115 0.180626 0.000000
0.834195 0.180626 0.000000
0.000000 0.348258 0.000000
0.232336 0.348258 0.000000
0.408496 0.348258 0.000000
0.561865 0.348258 0.000000
0.702115 0.348258 0.000000
0.834195 0.348258 0.000000
0.000000 0.505313 0.000000
0.232336 0.505313 0.000000
0.408496 0.505313 0.000000
0.561865 0.505313 0.000000
0.702115 0.505313 0.000000
0.834195 0.505313 0.000000
0.000000 0.655990 0.000000
0.232336 0.655990 0.000000
0.408496 0.655990 0.000000
0.561865 0.655990 0.000000
0.702115 0.655990 0.000000
0.834195 0.655990 0.000000
0.000000 0.801614 0.000000
0.232336 0.801614 0.000000
0.408496 0.801614 0.000000
0.561865 0.801614 0.000000
0.702115 0.801614 0.000000
0.834195 0.801614 0.000000
0.000000 0.000000 0.152898
0.232336 0.000000 0.152898
0.408496 0.000000 0.152898
0.561865 0.000000 0.152898
0.702115 0.000000 0.152898
0.834195 0.000000 0.152898
0.000000 0.180626 0.152898
0.232336 0.180626 0.152898
0.408496 0.180626 0.152898
0.561865 0.180626 0.152898
0.702115 0.180626 0.152898
0.834195 0.180626 0.152898
0.000000 0.348258 0.152898
0.232336 0.348258 0.152898
0.408496 0.348258 0.152898
0.561865 0.348258 0.152898
0.702115 0.348258 0.152898
0.834195 0.348258 0.152898
0.000000 0.505313 0.152898
0.232336 0.505313 0.152898
0.408496 0.505313 0.152898
0.561865 0.505313 0.152898
0.702115 0.505313 0.152898
0.834195 0.505313 0.152898
0.000000 0.655990 0.152898
0.232336 0.655990 0.152898
0.408496 0.655990 0.152898
0.561865 0.655990 0.152898
0.702115 0.655990 0.152898
0.834195 0.655990 0.152898
0.000000 0.801614 0.152898
0.232336 0.801614 0.152898
0.408496 0.801614 0.152898
0.561865 0.801614 0.152898
0.702115 0.801614 0.152898
0.834195 0.801614 0.152898
0.000000 0.000000 0.317518
0.232336 0.000000 0.317518
0.408496 0.000000 0.317518
0.561865 0.000000 0.317518
0.702115 0.000000 0.317518
0.834195 0.000000 0.317518
0.000000 0.180626 0.317518
0.232336 0.180626 0.317518
0.408496 0.180626 0.317518
0.561865 0.180626 0.317518
0.702115 0.180626 0.317518
0.834195 0.180626 0.317518
0.000000 0.348258 0.317518
0.232336 0.348258 0.317518
0.408496 0.348258 0.317518
0.561865 0.348258 0.317518
0.702115 0.348258 0.317518
0.834195 0.348258 0.317518
0.000000 0.505313 0.317518
0.232336 0.505313 0.317518
0.408496 0.505313 0.317518
0.561865 0.505313 0.317518
0.702115 0.505313 0.317518
0.834195 0.505313 0.317518
0.000000 0.655990 0.317518
0.232336 0.655990 0.317518
0.408496 0.655990 0.317518
0.561865 0.655990 0.317518
0.702115 0.655990 0.317518
0.834195 0.655990 0.317518
0.000000 0.801614 0.317518
0.232336 0.801614 0.317518
0.408496 0.801614 0.317518
0.561865 0.801614 0.317518
0.702115 0.801614 0.317518
0.834195 0.801614 0.317518
0.000000 0.000000 0.477119
0.232336 0.000000 0.477119
0.408496 0.000000 0.477119
0.561865 0.000000 0.477119
0.702115 0.000000 0.477119
0.834195 0.000000 0.477119
0.000000 0.180626 0.477119
0.232336 0.180626 0.477119
0.408496 0.180626 0.477119
0.561865 0.180626 0.477119
0.702115 0.180626 0.477119
0.834195 0.180626 0.477119
0.000000 0.348258 0.477119
0.232336 0.348258 0.477119
0.408496 0.348258 0.477119
0.561865 0.348258 0.477119
0.702115 0.348258 0.477119
0.834195 0.348258 0.477119
0.000000 0.505313 0.477119
0.232336 0.505313 0.477119
0.408496 0.505313 0.477119
0.561865 0.505313 0.477119
0.702115 0.505313 0.477119
0.834195 0.505313 0.477119
0.000000 0.655990 0.477119
0.232336 0.655990 0.477119
0.408496 0.655990 0.477119
0.561865 0.655990 0.477119
0.702115 0.655990 0.477119
0.834195 0.655990 0.477119
0.000000 0.801614 0.477119
0.232336 0.801614 0.477119
0.408496 0.801614 0.477119
0.561865 0.801614 0.477119
0.702115 0.801614 0.477119
0.834195 0.801614 0.477119
0.000000 0.000000 0.633643
0.232336 0.000000 0.633643
0.408496 0.000000 0.633643
0.561865 0.000000 0.633643
0.702115 0.000000 0.633643
0.834195 0.000000 0.633643
0.000000 0.180626 0.633643
0.232336 0.180626 0.633643
0.408496 0.180626 0.633643
0.561865 0.180626 0.633643
0.702115 0.180626 0.633643
0.834195 0.180626 0.633643
0.000000 0.348258 0.633643
0.232336 0.348258 0.633643
0.408496 0.348258 0.633643
0.561865 0.348258 0.633643
0.702115 0.348258 0.633643
0.834195 0.348258 0.633643
0.000000 0.505313 0.633643
0.232336 0.505313 0.633643
0.408496 0.505313 0.633643
0.561865 0.505313 0.633643
0.702115 0.505313 0.633643
0.834195 0.505313 0.633643
0.000000 0.655990 0.633643
0.232336 0.655990 0.633643
0.408496 0.655990 0.633643
0.561865 0.655990 0.633643
0.702115 0.655990 0.633643
0.834195 0.655990 0.633643
0.000000 0.801614 0.633643
0.232336 0.801614 0.633643
0.408496 0.801614 0.633643
0.561865 0.801614 0.633643
0.702115 0.801614 0.633643
0.834195 0.801614 0.633643
0.000000 0.000000 0.787427
0.232336 0.000000 0.787427
0.408496 0.000000 0.787427
0.561865 0.000000 0.787427
0.702115 0.000000 0.787427
0.834195 0.000000 0.787427
0.000000 0.180626 0.787427
0.232336 0.180626 0.787427
0.408496 0.180626 0.787427
0.561865 0.180626 0.787427
0.702115 0.180626 0.787427
0.834195 0.180626 0.787427
0.000000 0.348258 0.787427
0.232336 0.348258 0.787427
0.408496 0.348258 0.787427
0.561865 0.348258 0.787427
0.702115 0.348258 0.787427
0.834195 0.348258 0.787427
0.000000 0.505313 0.787427
0.232336 0.505313 0.787427
0.408496 0.505313 0.787427
0.561865 0.505313 0.787427
0.702115 0.505313 0.787427
0.834195 0.505313 0.787427
0.000000 0.655990 0.787427
0.232336 0.655990 0.787427
0.408496 0.655990 0.787427
0.561865 0.655990 0.787427
0.702115 0.655990 0.787427
0.834195 0.655990 0.787427
0.000000 0.801614 0.787427
0.232336 0.801614 0.787427
0.408496 0.801614 0.787427
0.561865 0.801614 0.787427
0.702115 0.801614 0.787427
0.834195 0.801614 0.787427
