example_ofxGpuLutCube/bin/data/ofxGpuLutCube/LUT/T19 (warm sunset red).cube
LUT_3D_SIZE 16
0.000000 0.000000 0.000000
0.088228 0.000000 0.000000
0.164023 0.000000 0.000000
0.232336 0.000000 0.000000
0.294578 0.000000 0.000000
0.353605 0.000000 0.000000
0.408496 0.000000 0.000000
0.461362 0.000000 0.000000
0.512376 0.000000 0.000000
0.561865 0.000000 0.000000
0.610254 0.000000 0.000000
0.656427 0.000000 0.000000
0.702115 0.000000 0.000000
0.747892 0.000000 0.000000
0.791400 0.000000 0.000000
0.834195 0.000000 0.000000
0.000000 0.058184 0.000000
0.088228 0.058184 0.000000
0.164023 0.058184 0.000000
0.232336 0.058184 0.000000
0.294578 0.058184 0.000000
0.353605 0.058184 0.000000
0.408496 0.058184 0.000000
0.461362 0.058184 0.000000
0.512376 0.058184 0.000000
0.561865 0.058184 0.000000
0.610254 0.058184 0.000000
0.656427 0.058184 0.000000
0.702115 0.058184 0.000000
0.747892 0.058184 0.000000
0.791400 0.058184 0.000000
0.834195 0.058184 0.000000
0.000000 0.120475 0.000000
0.088228 0.120475 0.000000
0.164023 0.120475 0.000000
0.232336 0.120475 0.000000
0.294578 0.120475 0.000000
0.353605 0.120475 0.000000
0.408496 0.120475 0.000000
0.461362 0.120475 0.000000
0.512376 0.120475 0.000000
0.561865 0.120475 0.000000
0.610254 0.120475 0.000000
0.656427 0.120475 0.000000
0.702115 0.120475 0.000000
0.747892 0.120475 0.000000
0.791400 0.120475 0.000000
0.834195 0.120475 0.000000
0.000000 0.180626 0.000000
0.088228 0.180626 0.000000
0.164023 0.180626 0.000000
0.232336 0.180626 0.000000
0.294578 0.180626 0.000000
0.353605 0.180626 0.000000
0.408496 0.180626 0.000000
0.461362 0.180626 0.000000
0.512376 0.180626 0.000000
0.561865 0.180626 0.000000
0.610254 0.180626 0.000000
0.656427 0.180626 0.000000
0.702115 0.180626 0.000000
0.747892 0.180626 0.000000
0.791400 0.180626 0.000000
0.834195 0.180626 0.000000
0.000000 0.238176 0.000000
0.088228 0.238176 0.000000
0.164023 0.238176 0.000000
0.232336 0.238176 0.000000
0.294578 0.238176 0.000000
0.353605 0.238176 0.000000
0.408496 0.238176 0.000000
0.461362 0.238176 0.000000
0.512376 0.238176 0.000000
0.561865 0.238176 0.000000
0.610254 0.238176 0.000000
0.656427 0.238176 0.000000
0.702115 0.238176 0.000000
0.747892 0.238176 0.000000
0.791400 0.238176 0.000000
0.834195 0.238176 0.000000
0.000000 0.293901 0.000000
0.088228 0.293901 0.000000
0.164023 0.293901 0.000000
0.232336 0.293901 0.000000
0.294578 0.293901 0.000000
0.353605 0.293901 0.000000
0.408496 0.293901 0.000000
0.461362 0.293901 0.000000
0.512376 0.293901 0.000000
0.561865 0.293901 0.000000
0.610254 0.293901 0.000000
0.656427 0.293901 0.000000
0.702115 0.293901 0.000000
0.747892 0.293901 0.000000
0.791400 0.293901 0.000000
0.834195 0.293901 0.000000
0.000000 0.348258 0.000000
0.088228 0.348258 0.000000
0.164023 0.348258 0.000000
0.232336 0.348258 0.000000
0.294578 0.348258 0.000000
0.353605 0.348258 0.000000
0.408496 0.348258 0.000000
0.461362 0.348258 0.000000
0.512376 0.348258 0.000000
0.561865 0.348258 0.000000
0.610254 0.348258 0.000000
0.656427 0.348258 0.000000
0.702115 0.348258 0.000000
0.747892 0.348258 0.000000
0.791400 0.348258 0.000000
0.834195 0.348258 0.000000
0.000000 0.401420 0.000000
0.088228 0.401420 0.000000
0.164023 0.401420 0.000000
0.232336 0.401420 0.000000
0.294578 0.401420 0.000000
0.353605 0.401420 0.000000
0.408496 0.401420 0.000000
0.461362 0.401420 0.000000
0.512376 0.401420 0.000000
0.561865 0.401420 0.000000
0.610254 0.401420 0.000000
0.656427 0.401420 0.000000
0.702115 0.401420 0.000000
0.747892 0.401420 0.000000
0.791400 0.401420 0.000000
0.834195 0.401420 0.000000
0.000000 0.453799 0.000000
0.088228 0.453799 0.000000
0.164023 0.453799 0.000000
0.232336 0.453799 0.000000
0.294578 0.453799 0.000000
0.353605 0.453799 0.000000
0.408496 0.453799 0.000000
0.461362 0.453799 0.000000
0.512376 0.453799 0.000000
0.561865 0.453799 0.000000
0.610254 0.453799 0.000000
0.656427 0.453799 0.000000
0.702115 0.453799 0.000000
0.747892 0.453799 0.000000
0.791400 0.453799 0.000000
0.834195 0.453799 0.000000
0.000000 0.505313 0.000000
0.088228 0.505313 0.000000
0.164023 0.505313 0.000000
0.232336 0.505313 0.000000
0.294578 0.505313 0.000000
0.353605 0.505313 0.000000
0.408496 0.505313 0.000000
0.461362 0.505313 0.000000
0.512376 0.505313 0.000000
0.561865 0.505313 0.000000
0.610254 0.505313 0.000000
0.656427 0.505313 0.000000
0.702115 0.505313 0.000000
0.747892 0.505313 0.000000
0.791400 0.505313 0.000000
0.834195 0.505313 0.000000
0.000000 0.556147 0.000000
0.088228 0.556147 0.000000
0.164023 0.556147 0.000000
0.232336 0.556147 0.000000
0.294578 0.556147 0.000000
0.353605 0.556147 0.000000
0.408496 0.556147 0.000000
0.461362 0.556147 0.000000
0.512376 0.556147 0.000000
0.561865 0.556147 0.000000
0.610254 0.556147 0.000000
0.656427 0.556147 0.000000
0.702115 0.556147 0.000000
0.747892 0.556147 0.000000
0.791400 0.556147 0.000000
0.834195 0.556147 0.000000
0.000000 0.606385 0.000000
0.088228 0.606385 0.000000
0.164023 0.606385 0.000000
0.232336 0.606385 0.000000
0.294578 0.606385 0.000000
0.353605 0.606385 0.000000
0.408496 0.606385 0.000000
0.461362 0.606385 0.000000
0.512376 0.606385 0.000000
0.561865 0.606385 0.000000
0.610254 0.606385 0.000000
0.656427 0.606385 0.000000
0.702115 0.606385 0.000000
0.747892 0.606385 0.000000
0.791400 0.606385 0.000000
0.834195 0.606385 0.000000
0.000000 0.655990 0.000000
0.088228 0.655990 0.000000
0.164023 0.655990 0.000000
0.232336 0.655990 0.000000
0.294578 0.655990 0.000000
0.353605 0.655990 0.000000
0.408496 0.655990 0.000000
0.461362 0.655990 0.000000
0.512376 0.655990 0.000000
0.561865 0.655990 0.000000
0.610254 0.655990 0.000000
0.656427 0.655990 0.000000
0.702115 0.655990 0.000000
0.747892 0.655990 0.000000
0.791400 0.655990 0.000000
0.834195 0.655990 0.000000
0.000000 0.705303 0.000000
0.088228 0.705303 0.000000
0.164023 0.705303 0.000000
0.232336 0.705303 0.000000
0.294578 0.705303 0.000000
0.353605 0.705303 0.000000
0.408496 0.705303 0.000000
0.461362 0.705303 0.000000
0.512376 0.705303 0.000000
0.561865 0.705303 0.000000
0.610254 0.705303 0.000000
0.656427 0.705303 0.000000
0.702115 0.705303 0.000000
0.747892 0.705303 0.000000
0.791400 0.705303 0.000000
0.834195 0.705303 0.000000
0.000000 0.753802 0.000000
0.088228 0.753802 0.000000
0.164023 0.753802 0.000000
0.232336 0.753802 0.000000
0.294578 0.753802 0.000000
0.353605 0.753802 0.000000
0.408496 0.753802 0.000000
0.461362 0.753802 0.000000
0.512376 0.753802 0.000000
0.561865 0.753802 0.000000
0.610254 0.753802 0.000000
0.656427 0.753802 0.000000
0.702115 0.753802 0.000000
0.747892 0.753802 0.000000
0.791400 0.753802 0.000000
0.834195 0.753802 0.000000
0.000000 0.801614 0.000000
0.088228 0.801614 0.000000
0.164023 0.801614 0.000000
0.232336 0.801614 0.000000
0.294578 0.801614 0.000000
0.353605 0.801614 0.000000
0.408496 0.801614 0.000000
0.461362 0.801614 0.000000
0.512376 0.801614 0.000000
0.561865 0.801614 0.000000
0.610254 0.801614 0.000000
0.656427 0.801614 0.000000
0.702115 0.801614 0.000000
0.747892 0.801614 0.000000
0.791400 0.801614 0.000000
0.834195 0.801614 0.000000
0.000000 0.000000 0.041172
0.088228 0.000000 0.041172
0.164023 0.000000 0.041172
0.232336 0.000000 0.041172
0.294578 0.000000 0.041172
0.353605 0.000000 0.041172
0.408496 0.000000 0.041172
0.461362 0.000000 0.041172
0.512376 0.000000 0.041172
0.561865 0.000000 0.041172
0.610254 0.000000 0.041172
0.656427 0.000000 0.041172
0.702115 0.000000 0.041172
0.747892 0.000000 0.041172
0.791400 0.000000 0.041172
0.834195 0.000000 0.041172
0.000000 0.058184 0.041172
0.088228 0.058184 0.041172
0.164023 0.058184 0.041172
0.232336 0.058184 0.041172
0.294578 0.058184 0.041172
0.353605 0.058184 0.041172
0.408496 0.058184 0.041172
0.461362 0.058184 0.041172
0.512376 0.058184 0.041172
0.561865 0.058184 0.041172
0.610254 0.058184 0.041172
0.656427 0.058184 0.041172
0.702115 0.058184 0.041172
0.747892 0.058184 0.041172
0.791400 0.058184 0.041172
0.834195 0.058184 0.041172
0.000000 0.120475 0.041172
0.088228 0.120475 0.041172
0.164023 0.120475 0.041172
0.232336 0.120475 0.041172
0.294578 0.120475 0.041172
0.353605 0.120475 0.041172
0.408496 0.120475 0.041172
0.461362 0.120475 0.041172
0.512376 0.120475 0.041172
0.561865 0.120475 0.041172
0.610254 0.120475 0.041172
0.656427 0.120475 0.041172
0.702115 0.120475 0.041172
0.747892 0.120475 0.041172
0.791400 0.120475 0.041172
0.834195 0.120475 0.041172
0.000000 0.180626 0.041172
0.088228 0.180626 0.041172
0.164023 0.180626 0.041172
0.232336 0.180626 0.041172
0.294578 0.180626 0.041172
0.353605 0.180626 0.041172
0.408496 0.180626 0.041172
0.461362 0.180626 0.041172
0.512376 0.180626 0.041172
0.561865 0.180626 0.041172
0.610254 0.180626 0.041172
0.656427 0.180626 0.041172
0.702115 0.180626 0.041172
0.747892 0.180626 0.041172
0.791400 0.180626 0.041172
0.834195 0.180626 0.041172
0.000000 0.238176 0.041172
0.088228 0.238176 0.041172
0.164023 0.238176 0.041172
0.232336 0.238176 0.041172
0.294578 0.238176 0.041172
0.353605 0.238176 0.041172
0.408496 0.238176 0.041172
0.461362 0.238176 0.041172
0.512376 0.238176 0.041172
0.561865 0.238176 0.041172
0.610254 0.238176 0.041172
0.656427 0.238176 0.041172
0.702115 0.238176 0.041172
0.747892 0.238176 0.041172
0.791400 0.238176 0.041172
0.834195 0.238176 0.041172
0.000000 0.293901 0.041172
0.088228 0.293901 0.041172
0.164023 0.293901 0.041172
0.232336 0.293901 0.041172
0.294578 0.293901 0.041172
0.353605 0.293901 0.041172
0.408496 0.293901 0.041172
0.461362 0.293901 0.041172
0.512376 0.293901 0.041172
0.561865 0.293901 0.041172
0.610254 0.293901 0.041172
0.656427 0.293901 0.041172
0.702115 0.293901 0.041172
0.747892 0.293901 0.041172
0.791400 0.293901 0.041172
0.834195 0.293901 0.041172
0.000000 0.348258 0.041172
0.088228 0.348258 0.041172
0.164023 0.348258 0.041172
0.232336 0.348258 0.041172
0.294578 0.348258 0.041172
0.353605 0.348258 0.041172
0.408496 0.348258 0.041172
0.461362 0.348258 0.041172
0.512376 0.348258 0.041172
0.561865 0.348258 0.041172
0.610254 0.348258 0.041172
0.656427 0.348258 0.041172
0.702115 0.348258 0.041172
0.747892 0.348258 0.041172
0.791400 0.348258 0.041172
0.834195 0.348258 0.041172
0.000000 0.401420 0.041172
0.088228 0.401420 0.041172
0.164023 0.401420 0.041172
0.232336 0.401420 0.041172
0.294578 0.401420 0.041172
0.353605 0.401420 0.041172
0.408496 0.401420 0.041172
0.461362 0.401420 0.041172
0.512376 0.401420 0.041172
0.561865 0.401420 0.041172
0.610254 0.401420 0.041172
0.656427 0.401420 0.041172
0.702115 0.401420 0.041172
0.747892 0.401420 0.041172
0.791400 0.401420 0.041172
0.834195 0.401420 0.041172
0.000000 0.453799 0.041172
0.088228 0.453799 0.041172
0.164023 0.453799 0.041172
0.232336 0.453799 0.041172
0.294578 0.453799 0.041172
0.353605 0.453799 0.041172
0.408496 0.453799 0.041172
0.461362 0.453799 0.041172
0.512376 0.453799 0.041172
0.561865 0.453799 0.041172
0.610254 0.453799 0.041172
0.656427 0.453799 0.041172
0.702115 0.453799 0.041172
0.747892 0.453799 0.041172
0.791400 0.453799 0.041172
0.834195 0.453799 0.041172
0.000000 0.505313 0.041172
0.088228 0.505313 0.041172
0.164023 0.505313 0.041172
0.232336 0.505313 0.041172
0.294578 0.505313 0.041172
0.353605 0.505313 0.041172
0.408496 0.505313 0.041172
0.461362 0.505313 0.041172
0.512376 0.505313 0.041172
0.561865 0.505313 0.041172
0.610254 0.505313 0.041172
0.656427 0.505313 0.041172
0.702115 0.505313 0.041172
0.747892 0.505313 0.041172
0.791400 0.505313 0.041172
0.834195 0.505313 0.041172
0.000000 0.556147 0.041172
0.088228 0.556147 0.041172
0.164023 0.556147 0.041172
0.232336 0.556147 0.041172
0.294578 0.556147 0.041172
0.353605 0.556147 0.041172
0.408496 0.556147 0.041172
0.461362 0.556147 0.041172
0.512376 0.556147 0.041172
0.561865 0.556147 0.041172
0.610254 0.556147 0.041172
0.656427 0.556147 0.041172
0.702115 0.556147 0.041172
0.747892 0.556147 0.041172
0.791400 0.556147 0.041172
0.834195 0.556147 0.041172
0.000000 0.606385 0.041172
0.088228 0.606385 0.041172
0.164023 0.606385 0.041172
0.232336 0.606385 0.041172
0.294578 0.606385 0.041172
0.353605 0.606385 0.041172
0.408496 0.606385 0.041172
0.461362 0.606385 0.041172
0.512376 0.606385 0.041172
0.561865 0.606385 0.041172
0.610254 0.606385 0.041172
0.656427 0.606385 0.041172
0.702115 0.606385 0.041172
0.747892 0.606385 0.041172
0.791400 0.606385 0.041172
0.834195 0.606385 0.041172
0.000000 0.655990 0.041172
0.088228 0.655990 0.041172
0.164023 0.655990 0.041172
0.232336 0.655990 0.041172
0.294578 0.655990 0.041172
0.353605 0.655990 0.041172
0.408496 0.655990 0.041172
0.461362 0.655990 0.041172
0.512376 0.655990 0.041172
0.561865 0.655990 0.041172
0.610254 0.655990 0.041172
0.656427 0.655990 0.041172
0.702115 0.655990 0.041172
0.747892 0.655990 0.041172
0.791400 0.655990 0.041172
0.834195 0.655990 0.041172
0.000000 0.705303 0.041172
0.088228 0.705303 0.041172
0.164023 0.705303 0.041172
0.232336 0.705303 0.041172
0.294578 0.705303 0.041172
0.353605 0.705303 0.041172
0.408496 0.705303 0.041172
0.461362 0.705303 0.041172
0.512376 0.705303 0.041172
0.561865 0.705303 0.041172
0.610254 0.705303 0.041172
0.656427 0.705303 0.041172
0.702115 0.705303 0.041172
0.747892 0.705303 0.041172
0.791400 0.705303 0.041172
0.834195 0.705303 0.041172
0.000000 0.753802 0.041172
0.088228 0.753802 0.041172
0.164023 0.753802 0.041172
0.232336 0.753802 0.041172
0.294578 0.753802 0.041172
0.353605 0.753802 0.041172
0.408496 0.753802 0.041172
0.461362 0.753802 0.041172
0.512376 0.753802 0.041172
0.561865 0.753802 0.041172
0.610254 0.753802 0.041172
0.656427 0.753802 0.041172
0.702115 0.753802 0.041172
0.747892 0.753802 0.041172
0.791400 0.753802 0.041172
0.834195 0.753802 0.041172
0.000000 0.801614 0.041172
0.088228 0.801614 0.041172
0.164023 0.801614 0.041172
0.232336 0.801614 0.041172
0.294578 0.801614 0.041172
0.353605 0.801614 0.041172
0.408496 0.801614 0.041172
0.461362 0.801614 0.041172
0.512376 0.801614 0.041172
0.561865 0.801614 0.041172
0.610254 0.801614 0.041172
0.656427 0.801614 0.041172
0.702115 0.801614 0.041172
0.747892 0.801614 0.041172
0.791400 0.801614 0.041172
0.834195 0.801614 0.041172
0.000000 0.000000 0.096018
0.088228 0.000000 0.096018
0.164023 0.000000 0.096018
0.232336 0.000000 0.096018
0.294578 0.000000 0.096018
0.353605 0.000000 0.096018
0.408496 0.000000 0.096018
0.461362 0.000000 0.096018
0.512376 0.000000 0.096018
0.561865 0.000000 0.096018
0.610254 0.000000 0.096018
0.656427 0.000000 0.096018
0.702115 0.000000 0.096018
0.747892 0.000000 0.096018
0.791400 0.000000 0.096018
0.834195 0.000000 0.096018
0.000000 0.058184 0.096018
0.088228 0.058184 0.096018
0.164023 0.058184 0.096018
0.232336 0.058184 0.096018
0.294578 0.058184 0.096018
0.353605 0.058184 0.096018
0.408496 0.058184 0.096018
0.461362 0.058184 0.096018
0.512376 0.058184 0.096018
0.561865 0.058184 0.096018
0.610254 0.058184 0.096018
0.656427 0.058184 0.096018
0.702115 0.058184 0.096018
0.747892 0.058184 0.096018
0.791400 0.058184 0.096018
0.834195 0.058184 0.096018
0.000000 0.120475 0.096018
0.088228 0.120475 0.096018
0.164023 0.120475 0.096018
0.232336 0.120475 0.096018
0.294578 0.120475 0.096018
0.353605 0.120475 0.096018
0.408496 0.120475 0.096018
0.461362 0.120475 0.096018
0.512376 0.120475 0.096018
0.561865 0.120475 0.096018
0.610254 0.120475 0.096018
0.656427 0.120475 0.096018
0.702115 0.120475 0.096018
0.747892 0.120475 0.096018
0.791400 0.120475 0.096018
0.834195 0.120475 0.096018
0.000000 0.180626 0.096018
0.088228 0.180626 0.096018
0.164023 0.180626 0.096018
0.232336 0.180626 0.096018
0.294578 0.180626 0.096018
0.353605 0.180626 0.096018
0.408496 0.180626 0.096018
0.461362 0.180626 0.096018
0.512376 0.180626 0.096018
0.561865 0.180626 0.096018
0.610254 0.180626 0.096018
0.656427 0.180626 0.096018
0.702115 0.180626 0.096018
0.747892 0.180626 0.096018
0.791400 0.180626 0.096018
0.834195 0.180626 0.096018
0.000000 0.238176 0.096018
0.088228 0.238176 0.096018
0.164023 0.238176 0.096018
0.232336 0.238176 0.096018
0.294578 0.238176 0.096018
0.353605 0.238176 0.096018
0.408496 0.238176 0.096018
0.461362 0.238176 0.096018
0.512376 0.238176 0.096018
0.561865 0.238176 0.096018
0.610254 0.238176 0.096018
0.656427 0.238176 0.096018
0.702115 0.238176 0.096018
0.747892 0.238176 0.096018
0.791400 0.238176 0.096018
0.834195 0.238176 0.096018
0.000000 0.293901 0.096018
0.088228 0.293901 0.096018
0.164023 0.293901 0.096018
0.232336 0.293901 0.096018
0.294578 0.293901 0.096018
0.353605 0.293901 0.096018
0.408496 0.293901 0.096018
0.461362 0.293901 0.096018
0.512376 0.293901 0.096018
0.561865 0.293901 0.096018
0.610254 0.293901 0.096018
0.656427 0.293901 0.096018
0.702115 0.293901 0.096018
0.747892 0.293901 0.096018
0.791400 0.293901 0.096018
0.834195 0.293901 0.096018
0.000000 0.348258 0.096018
0.088228 0.348258 0.096018
0.164023 0.348258 0.096018
0.232336 0.348258 0.096018
0.294578 0.348258 0.096018
0.353605 0.348258 0.096018
0.408496 0.348258 0.096018
0.461362 0.348258 0.096018
0.512376 0.348258 0.096018
0.561865 0.348258 0.096018
0.610254 0.348258 0.096018
0.656427 0.348258 0.096018
0.702115 0.348258 0.096018
0.747892 0.348258 0.096018
0.791400 0.348258 0.096018
0.834195 0.348258 0.096018
0.000000 0.401420 0.096018
0.088228 0.401420 0.096018
0.164023 0.401420 0.096018
0.232336 0.401420 0.096018
0.294578 0.401420 0.096018
0.353605 0.401420 0.096018
0.408496 0.401420 0.096018
0.461362 0.401420 0.096018
0.512376 0.401420 0.096018
0.561865 0.401420 0.096018
0.610254 0.401420 0.096018
0.656427 0.401420 0.096018
0.702115 0.401420 0.096018
0.747892 0.401420 0.096018
0.791400 0.401420 0.096018
0.834195 0.401420 0.096018
0.000000 0.453799 0.096018
0.088228 0.453799 0.096018
0.164023 0.453799 0.096018
0.232336 0.453799 0.096018
0.294578 0.453799 0.096018
0.353605 0.453799 0.096018
0.408496 0.453799 0.096018
0.461362 0.453799 0.096018
0.512376 0.453799 0.096018
0.561865 0.453799 0.096018
0.610254 0.453799 0.096018
0.656427 0.453799 0.096018
0.702115 0.453799 0.096018
0.747892 0.453799 0.096018
0.791400 0.453799 0.096018
0.834195 0.453799 0.096018
0.000000 0.505313 0.096018
0.088228 0.505313 0.096018
0.164023 0.505313 0.096018
0.232336 0.505313 0.096018
0.294578 0.505313 0.096018
0.353605 0.505313 0.096018
0.408496 0.505313 0.096018
0.461362 0.505313 0.096018
0.512376 0.505313 0.096018
0.561865 0.505313 0.096018
0.610254 0.505313 0.096018
0.656427 0.505313 0.096018
0.702115 0.505313 0.096018
0.747892 0.505313 0.096018
0.791400 0.505313 0.096018
0.834195 0.505313 0.096018
0.000000 0.556147 0.096018
0.088228 0.556147 0.096018
0.164023 0.556147 0.096018
0.232336 0.556147 0.096018
0.294578 0.556147 0.096018
0.353605 0.556147 0.096018
0.408496 0.556147 0.096018
0.461362 0.556147 0.096018
0.512376 0.556147 0.096018
0.561865 0.556147 0.096018
0.610254 0.556147 0.096018
0.656427 0.556147 0.096018
0.702115 0.556147 0.096018
0.747892 0.556147 0.096018
0.791400 0.556147 0.096018
0.834195 0.556147 0.096018
0.000000 0.606385 0.096018
0.088228 0.606385 0.096018
0.164023 0.606385 0.096018
0.232336 0.606385 0.096018
0.294578 0.606385 0.096018
0.353605 0.606385 0.096018
0.408496 0.606385 0.096018
0.461362 0.606385 0.096018
0.512376 0.606385 0.096018
0.561865 0.606385 0.096018
0.610254 0.606385 0.096018
0.656427 0.606385 0.096018
0.702115 0.606385 0.096018
0.747892 0.606385 0.096018
0.791400 0.606385 0.096018
0.834195 0.606385 0.096018
0.000000 0.655990 0.096018
0.088228 0.655990 0.096018
0.164023 0.655990 0.096018
0.232336 0.655990 0.096018
0.294578 0.655990 0.096018
0.353605 0.655990 0.096018
0.408496 0.655990 0.096018
0.461362 0.655990 0.096018
0.512376 0.655990 0.096018
0.561865 0.655990 0.096018
0.610254 0.655990 0.096018
0.656427 0.655990 0.096018
0.702115 0.655990 0.096018
0.747892 0.655990 0.096018
0.791400 0.655990 0.096018
0.834195 0.655990 0.096018
0.000000 0.705303 0.096018
0.088228 0.705303 0.096018
0.164023 0.705303 0.096018
0.232336 0.705303 0.096018
0.294578 0.705303 0.096018
0.353605 0.705303 0.096018
0.408496 0.705303 0.096018
0.461362 0.705303 0.096018
0.512376 0.705303 0.096018
0.561865 0.705303 0.096018
0.610254 0.705303 0.096018
0.656427 0.705303 0.096018
0.702115 0.705303 0.096018
0.747892 0.705303 0.096018
0.791400 0.705303 0.096018
0.834195 0.705303 0.096018
0.000000 0.753802 0.096018
0.088228 0.753802 0.096018
0.164023 0.753802 0.096018
0.232336 0.753802 0.096018
0.294578 0.753802 0.096018
0.353605 0.753802 0.096018
0.408496 0.753802 0.096018
0.461362 0.753802 0.096018
0.512376 0.753802 0.096018
0.561865 0.753802 0.096018
0.610254 0.753802 0.096018
0.656427 0.753802 0.096018
0.702115 0.753802 0.096018
0.747892 0.753802 0.096018
0.791400 0.753802 0.096018
0.834195 0.753802 0.096018
0.000000 0.801614 0.096018
0.088228 0.801614 0.096018
0.164023 0.801614 0.096018
0.232336 0.801614 0.096018
0.294578 0.801614 0.096018
0.353605 0.801614 0.096018
0.408496 0.801614 0.096018
0.461362 0.801614 0.096018
0.512376 0.801614 0.096018
0.561865 0.801614 0.096018
0.610254 0.801614 0.096018
0.656427 0.801614 0.096018
0.702115 0.801614 0.096018
0.747892 0.801614 0.096018
0.791400 0.801614 0.096018
0.834195 0.801614 0.096018
0.000000 0.000000 0.152898
0.088228 0.000000 0.152898
0.164023 0.000000 0.152898
0.232336 0.000000 0.152898
0.294578 0.000000 0.152898
0.353605 0.000000 0.152898
0.408496 0.000000 0.152898
0.461362 0.000000 0.152898
0.512376 0.000000 0.152898
0.561865 0.000000 0.152898
0.610254 0.000000 0.152898
0.656427 0.000000 0.152898
0.702115 0.000000 0.152898
0.747892 0.000000 0.152898
0.791400 0.000000 0.152898
0.834195 0.000000 0.152898
0.000000 0.058184 0.152898
0.088228 0.058184 0.152898
0.164023 0.058184 0.152898
0.232336 0.058184 0.152898
0.294578 0.058184 0.152898
0.353605 0.058184 0.152898
0.408496 0.058184 0.152898
0.461362 0.058184 0.152898
0.512376 0.058184 0.152898
0.561865 0.058184 0.152898
0.610254 0.058184 0.152898
0.656427 0.058184 0.152898
0.702115 0.058184 0.152898
0.747892 0.058184 0.152898
0.791400 0.058184 0.152898
0.834195 0.058184 0.152898
0.000000 0.120475 0.152898
0.088228 0.120475 0.152898
0.164023 0.120475 0.152898
0.232336 0.120475 0.152898
0.294578 0.120475 0.152898
0.353605 0.120475 0.152898
0.408496 0.120475 0.152898
0.461362 0.120475 0.152898
0.512376 0.120475 0.152898
0.561865 0.120475 0.152898
0.610254 0.120475 0.152898
0.656427 0.120475 0.152898
0.702115 0.120475 0.152898
0.747892 0.120475 0.152898
0.791400 0.120475 0.152898
0.834195 0.120475 0.152898
0.000000 0.180626 0.152898
0.088228 0.180626 0.152898
0.164023 0.180626 0.152898
0.232336 0.180626 0.152898
0.294578 0.180626 0.152898
0.353605 0.180626 0.152898
0.408496 0.180626 0.152898
0.461362 0.180626 0.152898
0.512376 0.180626 0.152898
0.561865 0.180626 0.152898
0.610254 0.180626 0.152898
0.656427 0.180626 0.152898
0.702115 0.180626 0.152898
0.747892 0.180626 0.152898
0.791400 0.180626 0.152898
0.834195 0.180626 0.152898
0.000000 0.238176 0.152898
0.088228 0.238176 0.152898
0.164023 0.238176 0.152898
0.232336 0.238176 0.152898
0.294578 0.238176 0.152898
0.353605 0.238176 0.152898
0.408496 0.238176 0.152898
0.461362 0.238176 0.152898
0.512376 0.238176 0.152898
0.561865 0.238176 0.152898
0.610254 0.238176 0.152898
0.656427 0.238176 0.152898
0.702115 0.238176 0.152898
0.747892 0.238176 0.152898
0.791400 0.238176 0.152898
0.834195 0.238176 0.152898
0.000000 0.293901 0.152898
0.088228 0.293901 0.152898
0.164023 0.293901 0.152898
0.232336 0.293901 0.152898
0.294578 0.293901 0.152898
0.353605 0.293901 0.152898
0.408496 0.293901 0.152898
0.461362 0.293901 0.152898
0.512376 0.293901 0.152898
0.561865 0.293901 0.152898
0.610254 0.293901 0.152898
0.656427 0.293901 0.152898
0.702115 0.293901 0.152898
0.747892 0.293901 0.152898
0.791400 0.293901 0.152898
0.834195 0.293901 0.152898
0.000000 0.348258 0.152898
0.088228 0.348258 0.152898
0.164023 0.348258 0.152898
0.232336 0.348258 0.152898
0.294578 0.348258 0.152898
0.353605 0.348258 0.152898
0.408496 0.348258 0.152898
0.461362 0.348258 0.152898
0.512376 0.348258 0.152898
0.561865 0.348258 0.152898
0.610254 0.348258 0.152898
0.656427 0.348258 0.152898
0.702115 0.348258 0.152898
0.747892 0.348258 0.152898
0.791400 0.348258 0.152898
0.834195 0.348258 0.152898
0.000000 0.401420 0.152898
0.088228 0.401420 0.152898
0.164023 0.401420 0.152898
0.232336 0.401420 0.152898
0.294578 0.401420 0.152898
0.353605 0.401420 0.152898
0.408496 0.401420 0.152898
0.461362 0.401420 0.152898
