example_ofxGpuLutCube/bin/data/ofxGpuLutCube/LUT/T2 (smooth teal orange).cube
LUT_3D_SIZE 6
0.019111 0.034230 0.038109
0.119469 0.041338 0.041737
0.266026 0.057277 0.040345
0.461496 0.077324 0.033545
0.667714 0.094188 0.051173
0.862638 0.124650 0.063525
0.019773 0.140258 0.035462
0.122315 0.142650 0.041450
0.297001 0.152606 0.030015
0.499673 0.179264 0.030448
0.709778 0.206542 0.044060
0.891857 0.248284 0.052022
0.024908 0.260058 0.031845
0.130624 0.277687 0.027746
0.352594 0.259732 0.023096
0.591735 0.287743 0.038269
0.792602 0.333134 0.047337
0.955565 0.395655 0.036373
0.031297 0.373732 0.030407
0.164511 0.402544 0.021962
0.432767 0.409454 0.022945
0.683347 0.425500 0.033905
0.837917 0.457441 0.040368
0.973830 0.510528 0.027092
0.038816 0.491775 0.030384
0.208865 0.526954 0.024540
0.484707 0.564526 0.019556
0.723292 0.619517 0.028379
0.876286 0.633556 0.027991
0.977628 0.620698 0.027613
0.061063 0.645253 0.019873
0.254395 0.679459 0.029808
0.524134 0.763309 0.019782
0.720972 0.846263 0.019750
0.861146 0.880252 0.035936
0.976528 0.812263 0.021887
0.019169 0.043323 0.134336
0.131929 0.051082 0.142668
0.295894 0.066631 0.131354
0.486205 0.080412 0.122666
0.678056 0.095227 0.139117
0.862444 0.122916 0.150624
0.019283 0.141575 0.144153
0.115976 0.148995 0.150483
0.300173 0.161896 0.135085
0.505296 0.173903 0.121640
0.694756 0.192431 0.135322
0.880826 0.230594 0.144413
0.026309 0.272513 0.140993
0.117216 0.277510 0.123066
0.357680 0.268837 0.116758
0.597272 0.290671 0.123614
0.787784 0.331407 0.132302
0.948099 0.389834 0.123414
0.030978 0.372821 0.123963
0.133595 0.401417 0.109855
0.428449 0.423940 0.111718
0.689244 0.435859 0.116962
0.841933 0.462954 0.124126
0.974770 0.515942 0.113057
0.036007 0.480089 0.136100
0.169551 0.523312 0.110660
0.476045 0.570186 0.105543
0.723757 0.630248 0.114632
0.875859 0.635268 0.113879
0.977836 0.622487 0.113574
0.060925 0.647328 0.114600
0.220626 0.676897 0.112167
0.501089 0.744454 0.108524
0.718241 0.846572 0.105708
0.860189 0.879774 0.121606
0.976537 0.812139 0.107825
0.019214 0.062629 0.241677
0.114198 0.067717 0.247998
0.341541 0.080227 0.236787
0.557366 0.089585 0.221082
0.733971 0.111125 0.230532
0.891097 0.141913 0.235486
0.019226 0.152718 0.245417
0.106218 0.165655 0.259723
0.339560 0.178932 0.255483
0.568968 0.179291 0.227765
0.740514 0.200615 0.230405
0.899408 0.233962 0.234604
0.019885 0.275850 0.276466
0.106608 0.293277 0.291560
0.259246 0.323044 0.314100
0.583632 0.327121 0.276078
0.771912 0.336315 0.251985
0.929958 0.379881 0.221130
0.032826 0.452991 0.331365
0.123600 0.445851 0.310647
0.312115 0.460165 0.247770
0.673559 0.469046 0.217672
0.836967 0.490740 0.211451
0.976440 0.538779 0.202368
0.048912 0.568506 0.335954
0.131848 0.540362 0.301585
0.377937 0.573736 0.233261
0.703693 0.655818 0.202300
0.871581 0.645909 0.199414
0.978840 0.636157 0.199750
0.065109 0.662017 0.295034
0.141902 0.634000 0.256045
0.421745 0.774311 0.201846
0.701815 0.855031 0.195127
0.852488 0.886815 0.210225
0.976835 0.816769 0.193394
0.019271 0.088529 0.356103
0.105711 0.090829 0.358878
0.314565 0.111887 0.378047
0.606287 0.108854 0.319608
0.765846 0.128865 0.314811
0.914566 0.167046 0.323678
0.019267 0.177573 0.359435
0.105197 0.187331 0.371050
0.271804 0.207677 0.393116
0.606365 0.202600 0.335688
0.774547 0.220627 0.331845
0.918493 0.259916 0.346751
0.019394 0.282787 0.379211
0.105269 0.299254 0.397750
0.201223 0.332694 0.439084
0.601028 0.345700 0.409426
0.781364 0.357526 0.403185
0.925161 0.384383 0.395701
0.019668 0.423355 0.431388
0.106075 0.444285 0.451258
0.192452 0.482590 0.492874
0.548110 0.549111 0.535700
0.805612 0.585825 0.526680
0.952893 0.587871 0.484064
0.025236 0.614278 0.525875
0.115080 0.628817 0.534890
0.210459 0.625856 0.515039
0.591090 0.681205 0.452059
0.851234 0.694610 0.400363
0.978281 0.705317 0.419082
0.059218 0.805343 0.609136
0.167135 0.786643 0.546503
0.255906 0.739312 0.464583
0.621213 0.873040 0.355252
0.838700 0.897557 0.424062
0.976234 0.840024 0.358834
0.019362 0.114270 0.472001
0.105237 0.114466 0.471226
0.240465 0.136900 0.499896
0.589918 0.145772 0.449782
0.792860 0.161048 0.447758
0.917866 0.185141 0.469203
0.019226 0.204153 0.476921
0.105181 0.210193 0.484288
0.204773 0.227294 0.505470
0.579510 0.243750 0.480113
0.791305 0.253513 0.476303
0.916107 0.275005 0.491605
0.019319 0.305490 0.493518
0.105207 0.317806 0.508172
0.191199 0.343464 0.540352
0.558087 0.376268 0.553835
0.795293 0.399576 0.552329
0.922287 0.421455 0.567183
0.019340 0.424784 0.531187
0.105270 0.444608 0.554970
0.191221 0.470275 0.587184
0.400041 0.536831 0.679581
0.798461 0.586684 0.678645
0.928581 0.600939 0.679107
0.019442 0.579430 0.608739
0.105401 0.596829 0.628069
0.191360 0.618469 0.656067
0.312386 0.688069 0.736576
0.806414 0.767844 0.741476
0.953237 0.782117 0.733357
0.019568 0.757519 0.716251
0.105761 0.778730 0.737040
0.194571 0.804849 0.759720
0.319433 0.861499 0.744659
0.796738 0.912972 0.618336
0.977268 0.887687 0.593237
0.019339 0.145995 0.595448
0.105196 0.144231 0.591636
0.195781 0.164174 0.611907
0.572183 0.207831 0.630279
0.784644 0.226809 0.638028
0.926000 0.270170 0.695208
0.019339 0.237524 0.603001
0.105241 0.241333 0.608123
0.191149 0.255275 0.621503
0.532935 0.287348 0.645414
0.789618 0.327694 0.664580
0.927172 0.370798 0.726446
0.019340 0.333105 0.614334
0.105241 0.343351 0.627333
0.191166 0.359976 0.649695
0.352211 0.391817 0.703579
0.790241 0.438243 0.719022
0.931327 0.482311 0.776489
0.019396 0.454235 0.657347
0.105332 0.472609 0.681319
0.191257 0.481822 0.694230
0.302085 0.535859 0.770118
0.750401 0.564300 0.812737
0.940991 0.608819 0.830484
0.019499 0.584038 0.713554
0.105458 0.601964 0.737042
0.191364 0.612092 0.750932
0.277571 0.656800 0.806818
0.723040 0.740985 0.870734
0.941503 0.763070 0.877495
0.019568 0.733285 0.793386
0.105526 0.746169 0.808209
0.191428 0.759294 0.823652
0.277387 0.791318 0.856689
0.617357 0.869041 0.912136
0.956461 0.933076 0.888339
