example_ofxGpuLutCube/bin/data/ofxGpuLutCube/LUT/T2 (smooth teal orange).cube
LUT_3D_SIZE 16
0.019111 0.034230 0.038109
0.047970 0.035245 0.038938
0.080886 0.037162 0.040345
0.119469 0.041338 0.041737
0.162677 0.046951 0.042756
0.211096 0.052295 0.042787
0.266026 0.057277 0.040345
0.326520 0.063184 0.036279
0.393126 0.070334 0.033511
0.461496 0.077324 0.033545
0.530604 0.083273 0.038109
0.600378 0.088544 0.045073
0.667714 0.094188 0.051173
0.733925 0.102145 0.055718
0.799085 0.112467 0.060457
0.862638 0.124650 0.063525
0.019115 0.066324 0.039071
0.048003 0.066471 0.039728
0.081384 0.067649 0.040056
0.120108 0.070897 0.041497
0.163940 0.076094 0.042505
0.213047 0.081335 0.042498
0.268509 0.086336 0.040036
0.329173 0.091849 0.036200
0.396006 0.098835 0.033670
0.464123 0.106385 0.033708
0.533309 0.112674 0.038266
0.603033 0.118102 0.045138
0.671044 0.124687 0.050663
0.737673 0.133378 0.054989
0.802479 0.143721 0.059662
0.866226 0.157064 0.062519
0.019222 0.102207 0.037862
0.048026 0.103802 0.037920
0.080858 0.103615 0.039552
0.123560 0.102309 0.039864
0.170323 0.106581 0.039390
0.221148 0.113034 0.038839
0.279139 0.119681 0.036155
0.342493 0.126542 0.032524
0.409574 0.134035 0.030940
0.477320 0.141416 0.032147
0.546856 0.147340 0.037526
0.616772 0.153658 0.043759
0.684285 0.161411 0.048315
0.749898 0.170725 0.052682
0.814076 0.182021 0.056600
0.874558 0.196112 0.059461
0.019773 0.140258 0.035462
0.048907 0.144032 0.034614
0.080682 0.147004 0.037823
0.122315 0.142650 0.041450
0.177225 0.139190 0.037141
0.234935 0.144347 0.033883
0.297001 0.152606 0.030015
0.362664 0.161801 0.027263
0.430347 0.171020 0.027129
0.499673 0.179264 0.030448
0.570759 0.186829 0.035922
0.641569 0.195966 0.040415
0.709778 0.206542 0.044060
0.775539 0.218685 0.047980
0.837422 0.232498 0.051185
0.891857 0.248284 0.052022
0.021082 0.180317 0.033499
0.050485 0.185033 0.032919
0.081642 0.191768 0.033324
0.123620 0.188182 0.038870
0.180060 0.180816 0.039137
0.245675 0.177610 0.031307
0.314557 0.185849 0.026522
0.386537 0.196499 0.025528
0.457758 0.206376 0.028113
0.529741 0.214972 0.032992
0.601155 0.224545 0.037281
0.671439 0.236179 0.040408
0.740034 0.249376 0.044069
0.805456 0.265840 0.047054
0.863791 0.284287 0.047677
0.915915 0.301973 0.045298
0.022991 0.220661 0.032537
0.052408 0.225261 0.031833
0.083715 0.233012 0.029871
0.126102 0.233824 0.033427
0.187272 0.225457 0.040415
0.258992 0.217016 0.029887
0.330248 0.220018 0.024193
0.405974 0.230258 0.025434
0.485460 0.240907 0.030911
0.563298 0.251430 0.036139
0.635378 0.263157 0.039554
0.703493 0.275551 0.042916
0.768897 0.290501 0.046278
0.829116 0.309179 0.047669
0.884816 0.329240 0.045232
0.938418 0.350437 0.041059
0.024908 0.260058 0.031845
0.054177 0.263381 0.031112
0.085817 0.271725 0.027899
0.130624 0.277687 0.027746
0.198775 0.270768 0.037592
0.277007 0.263873 0.029738
0.352594 0.259732 0.023096
0.430274 0.265605 0.026588
0.512543 0.275597 0.033574
0.591735 0.287743 0.038269
0.664780 0.301126 0.041897
0.731792 0.315633 0.045143
0.792602 0.333134 0.047337
0.848368 0.351979 0.046042
0.902230 0.373028 0.042103
0.955565 0.395655 0.036373
0.026977 0.298649 0.031221
0.056034 0.300645 0.030575
0.088673 0.309998 0.026364
0.138729 0.319776 0.024330
0.211861 0.315604 0.035297
0.295369 0.311630 0.030268
0.385047 0.306844 0.022419
0.468777 0.308123 0.026831
0.548168 0.314750 0.035300
0.620685 0.325898 0.039829
0.689305 0.339297 0.043602
0.753265 0.356084 0.046608
0.810642 0.374620 0.046404
0.865130 0.394697 0.043378
0.917909 0.416503 0.038339
0.967551 0.437265 0.031022
0.028924 0.335559 0.031039
0.058326 0.338616 0.029873
0.092547 0.350208 0.023646
0.150212 0.361384 0.022577
0.227945 0.358794 0.032774
0.314335 0.357526 0.027296
0.412467 0.356922 0.022218
0.507575 0.359081 0.022947
0.588134 0.362657 0.032519
0.654366 0.369873 0.040072
0.714529 0.381836 0.044190
0.770655 0.397016 0.045950
0.824656 0.414846 0.044359
0.878022 0.435548 0.040463
0.930830 0.458169 0.033793
0.972379 0.474946 0.027632
0.031297 0.373732 0.030407
0.061223 0.378486 0.028035
0.098326 0.391664 0.020348
0.164511 0.402544 0.021962
0.246354 0.401868 0.030563
0.333710 0.405177 0.023744
0.432767 0.409454 0.022945
0.535437 0.413789 0.019649
0.616264 0.421420 0.024414
0.683347 0.425500 0.033905
0.739195 0.432416 0.040262
0.788895 0.443345 0.041670
0.837917 0.457441 0.040368
0.889253 0.476766 0.036120
0.939731 0.498262 0.029151
0.973830 0.510528 0.027092
0.034210 0.414338 0.029228
0.064272 0.419030 0.026232
0.105850 0.432534 0.019161
0.179972 0.444437 0.022051
0.263728 0.445188 0.030201
0.353789 0.453537 0.020823
0.451630 0.463043 0.021089
0.554176 0.469851 0.019878
0.634180 0.482873 0.021714
0.700939 0.495401 0.027041
0.757781 0.495893 0.030566
0.807211 0.497510 0.031854
0.853832 0.506815 0.031560
0.900738 0.520202 0.029619
0.944334 0.538991 0.027283
0.975001 0.545780 0.027174
0.036899 0.454987 0.028909
0.066980 0.458463 0.026133
0.114013 0.473286 0.019162
0.194407 0.486499 0.022611
0.279985 0.488885 0.031189
0.373334 0.500949 0.020137
0.466235 0.513985 0.019867
0.563089 0.525882 0.021116
0.649356 0.541967 0.023345
0.713684 0.560356 0.026021
0.770599 0.573863 0.027439
0.820680 0.564873 0.027480
0.868178 0.561847 0.027324
0.912972 0.569574 0.027250
0.947056 0.579253 0.027278
0.976313 0.582292 0.027337
0.038816 0.491775 0.030384
0.069993 0.496845 0.026332
0.126115 0.513362 0.019405
0.208865 0.526954 0.024540
0.296228 0.531332 0.032907
0.392801 0.546683 0.020097
0.484707 0.564526 0.019556
0.573158 0.583342 0.021112
0.654386 0.599249 0.024842
0.723292 0.619517 0.028379
0.775680 0.637817 0.030122
0.825037 0.650683 0.029287
0.876286 0.633556 0.027991
0.919230 0.625802 0.027762
0.949306 0.623424 0.027696
0.977628 0.620698 0.027613
0.041311 0.529966 0.030997
0.074948 0.538981 0.023307
0.141513 0.554646 0.019943
0.224894 0.566866 0.027933
0.313757 0.577679 0.033282
0.414500 0.600275 0.019518
0.506849 0.623377 0.019529
0.587367 0.655029 0.019786
0.657979 0.677242 0.020462
0.719913 0.691208 0.022635
0.778115 0.705824 0.024355
0.826270 0.717853 0.023644
0.875727 0.729854 0.022789
0.919095 0.701266 0.025700
0.950357 0.679250 0.027537
0.978905 0.668562 0.027962
0.051124 0.590327 0.022462
0.091803 0.596892 0.019360
0.161127 0.609517 0.019633
0.243466 0.621496 0.024991
0.324532 0.630258 0.031792
0.418372 0.660131 0.025771
0.518531 0.695168 0.019566
0.599961 0.724966 0.019594
0.663563 0.752384 0.019661
0.719163 0.780804 0.019846
0.767722 0.797176 0.020159
0.819819 0.799348 0.020476
0.870629 0.801552 0.020866
0.918688 0.809071 0.022748
0.946711 0.760640 0.023877
0.977917 0.724893 0.026969
0.061063 0.645253 0.019873
0.096148 0.649560 0.019179
0.170727 0.666379 0.020510
0.254395 0.679459 0.029808
0.339318 0.696337 0.036640
0.429332 0.724228 0.031250
0.524134 0.763309 0.019782
0.607724 0.799762 0.019681
0.672127 0.827570 0.019682
0.720972 0.846263 0.019750
0.766432 0.864464 0.024466
0.814126 0.882409 0.035420
0.861146 0.880252 0.035936
0.912976 0.879632 0.035739
0.949425 0.870832 0.032022
0.976528 0.812263 0.021887
0.019111 0.036017 0.068774
0.048179 0.036829 0.069705
0.084030 0.038642 0.071539
0.122402 0.041253 0.072394
0.164440 0.045582 0.072650
0.211911 0.051825 0.072432
0.266650 0.056946 0.069518
0.326315 0.061670 0.065849
0.392397 0.068325 0.063304
0.461103 0.075974 0.063101
0.530094 0.082483 0.067213
0.599245 0.087860 0.073901
0.666599 0.093334 0.080182
0.732576 0.101070 0.084782
0.797452 0.111105 0.089528
0.860965 0.123014 0.092713
0.019115 0.066790 0.070229
0.047964 0.067184 0.070645
0.080783 0.068953 0.072268
0.120066 0.072507 0.073641
0.164067 0.078235 0.074552
0.214147 0.083481 0.073148
0.271526 0.088254 0.068819
0.333194 0.094241 0.063972
0.399027 0.101148 0.061421
0.466580 0.107711 0.062070
0.535258 0.113231 0.067030
0.604383 0.118174 0.074064
0.671444 0.124227 0.079783
0.737479 0.132635 0.084099
0.802272 0.143024 0.088726
0.865808 0.156008 0.091680
0.019213 0.102838 0.070944
0.047999 0.103593 0.071594
0.079876 0.103861 0.072356
0.121587 0.104399 0.073217
0.168384 0.109003 0.073150
0.220450 0.114481 0.071608
0.280468 0.119840 0.066581
0.344461 0.126352 0.061715
0.410969 0.133874 0.059816
0.478141 0.140903 0.061263
0.546923 0.146567 0.066699
0.616260 0.152677 0.072950
0.683482 0.160267 0.077579
0.748610 0.169325 0.081892
0.812881 0.180423 0.085919
0.873647 0.194644 0.088645
0.019706 0.140599 0.066345
0.048643 0.143620 0.066989
0.079236 0.146371 0.068734
0.121795 0.144085 0.072931
0.177048 0.141284 0.069272
0.234489 0.145946 0.065332
0.297548 0.153521 0.059664
0.363758 0.162267 0.055905
0.430992 0.171179 0.055707
0.499716 0.179184 0.059128
0.569997 0.186269 0.064758
0.639905 0.194931 0.069342
0.707348 0.204962 0.073048
0.772519 0.216431 0.077139
0.834458 0.229801 0.080343
0.889317 0.245035 0.081636
0.021002 0.179844 0.063082
0.050137 0.183385 0.062986
0.080929 0.190194 0.064152
0.121770 0.190781 0.069158
0.180514 0.182980 0.070018
0.249309 0.179189 0.060829
0.317949 0.186949 0.054977
0.387694 0.196886 0.053806
0.457470 0.206505 0.056530
0.528664 0.214989 0.061339
0.599903 0.224483 0.065653
0.669882 0.235927 0.068793
0.737626 0.248577 0.072403
0.802528 0.264175 0.075476
0.860697 0.282017 0.076603
0.912538 0.298986 0.074536
0.022891 0.220105 0.061585
0.052044 0.223140 0.061270
0.083153 0.232340 0.059878
0.123730 0.236376 0.062334
0.187397 0.227654 0.069686
0.262773 0.218730 0.059291
0.337264 0.221976 0.052763
0.412980 0.231858 0.054562
0.490192 0.241924 0.060010
0.565311 0.252020 0.064874
0.635658 0.263307 0.068188
0.702974 0.275483 0.071464
0.767938 0.290172 0.074734
0.827978 0.308574 0.076240
0.883397 0.328322 0.073952
0.936635 0.348974 0.069914
0.024822 0.259689 0.060779
0.053871 0.261821 0.060471
0.085259 0.271497 0.057295
0.127727 0.279918 0.055670
0.197995 0.273242 0.065985
0.278616 0.265718 0.059360
0.358868 0.261692 0.052218
0.441350 0.267987 0.056443
0.524472 0.278351 0.063312
0.600671 0.290372 0.067518
0.669854 0.302871 0.070831
0.733465 0.316515 0.073840
0.792816 0.333367 0.075936
0.848023 0.352011 0.074521
0.901923 0.373023 0.070665
0.954967 0.395370 0.064974
0.026846 0.298172 0.060277
0.055842 0.299714 0.059855
0.088013 0.309687 0.055858
0.135384 0.321860 0.051871
0.210415 0.318011 0.063309
0.295359 0.313315 0.059873
0.387568 0.308345 0.051600
0.477016 0.310513 0.056078
0.559054 0.317996 0.064585
0.631397 0.329433 0.069242
0.698619 0.343111 0.072948
0.758718 0.359281 0.075294
0.812710 0.376395 0.074736
0.865326 0.395223 0.071736
0.917666 0.416570 0.066842
0.967773 0.437897 0.059254
0.028852 0.335295 0.059999
0.058144 0.337826 0.059194
0.091779 0.349564 0.053604
0.146526 0.362663 0.050547
0.226160 0.361191 0.060435
0.314501 0.359382 0.056632
0.413482 0.358749 0.051190
0.511267 0.361139 0.051455
0.594811 0.365597 0.061228
0.662217 0.373482 0.069175
0.721632 0.386025 0.073220
0.776454 0.401198 0.074214
0.829300 0.418835 0.072183
0.881068 0.438553 0.068249
0.931632 0.459307 0.061787
0.972635 0.476010 0.055980
0.031242 0.373518 0.059462
0.060981 0.377808 0.057661
0.096568 0.391084 0.050153
0.160202 0.403206 0.050273
0.244075 0.404197 0.058320
0.333594 0.407332 0.053350
0.433956 0.411822 0.051962
0.537203 0.415714 0.048162
0.618647 0.423860 0.052988
0.687525 0.429026 0.062327
0.743775 0.436259 0.068361
0.793048 0.447094 0.069477
0.842214 0.461473 0.067979
0.893556 0.481118 0.063219
0.941234 0.501863 0.057248
0.974058 0.511831 0.055723
0.034181 0.414274 0.058599
0.064059 0.418846 0.055981
0.102692 0.432237 0.048273
0.174408 0.444346 0.050380
0.260437 0.447233 0.058307
0.352558 0.455558 0.050998
0.452337 0.465111 0.049870
0.555581 0.472185 0.048656
0.635261 0.484807 0.050447
0.702072 0.497647 0.055485
0.759320 0.498185 0.058890
0.809940 0.500728 0.059599
0.857012 0.510213 0.059417
0.904045 0.523711 0.057541
0.945217 0.542065 0.055853
0.975157 0.546688 0.055812
0.036918 0.455247 0.058558
0.066632 0.458216 0.055899
0.109654 0.472673 0.047928
0.188540 0.486147 0.050714
0.275947 0.490129 0.059539
0.370731 0.502099 0.050169
0.466063 0.515487 0.048476
0.564599 0.528530 0.049838
0.650625 0.544332 0.052195
0.714199 0.562007 0.054728
0.770622 0.575001 0.056112
0.821498 0.566566 0.055936
0.870743 0.565207 0.055829
0.914372 0.572600 0.055867
0.947354 0.580873 0.055952
0.976397 0.582886 0.055975
0.038937 0.492255 0.060553
0.069538 0.496118 0.056567
0.121684 0.512868 0.047933
0.203426 0.527056 0.052170
0.291660 0.531887 0.061309
0.388995 0.547040 0.049953
0.484387 0.565738 0.048179
0.574284 0.585739 0.049652
0.655232 0.601773 0.053504
0.724168 0.622002 0.057245
0.775709 0.638828 0.058848
0.824782 0.651429 0.057867
0.876520 0.634840 0.056618
0.919444 0.628988 0.056447
0.949480 0.624916 0.056387
0.977646 0.621074 0.056251
0.041459 0.530553 0.061541
0.074165 0.538133 0.054059
0.137630 0.554385 0.048446
0.220441 0.566855 0.055828
0.308909 0.576231 0.062500
0.409979 0.598928 0.049235
0.504901 0.623266 0.048163
0.586761 0.656173 0.048403
0.658757 0.681583 0.049088
0.720113 0.695065 0.050870
0.777785 0.707992 0.052440
0.825911 0.718539 0.052099
0.875345 0.729795 0.051410
0.919062 0.701663 0.054346
0.950380 0.682070 0.055951
0.978906 0.669048 0.056594
0.051410 0.592035 0.052536
0.090095 0.598200 0.048338
0.157744 0.610375 0.048183
0.239802 0.623683 0.053044
0.321838 0.631433 0.060285
0.413427 0.656355 0.054773
0.514287 0.691895 0.048197
0.598661 0.724357 0.048228
0.663453 0.753331 0.048295
0.718927 0.782102 0.048447
0.767859 0.798764 0.048825
0.819506 0.799872 0.049166
0.870061 0.800314 0.049289
0.918559 0.807747 0.051240
0.946713 0.760249 0.052528
0.977857 0.725649 0.055494
0.062218 0.648652 0.048758
0.095511 0.651516 0.048285
0.167630 0.666282 0.049215
0.251789 0.678884 0.057995
0.335420 0.693949 0.064881
0.423718 0.719656 0.060124
0.518980 0.758034 0.048723
0.605127 0.796333 0.048285
0.671094 0.827254 0.048289
0.720907 0.847268 0.048420
0.766335 0.864754 0.053006
0.813934 0.881975 0.063815
0.861007 0.879541 0.064265
0.912791 0.878253 0.063779
0.949413 0.870278 0.060442
0.976475 0.811771 0.050574
0.019119 0.039174 0.100861
0.048213 0.039512 0.101231
0.085025 0.042416 0.104661
0.127726 0.045574 0.106838
0.172382 0.050420 0.106925
0.222299 0.055970 0.104824
0.277048 0.059912 0.100640
0.334205 0.064432 0.096525
0.398222 0.070685 0.093675
0.466844 0.077383 0.093038
0.534657 0.083163 0.096577
0.601983 0.087859 0.103296
0.668133 0.093107 0.109417
0.732514 0.100360 0.113909
0.795815 0.109647 0.118712
0.858719 0.121018 0.121947
0.019122 0.068605 0.101538
0.048088 0.069871 0.102918
0.082474 0.072290 0.105650
0.125318 0.075696 0.108181
0.169817 0.079748 0.107755
0.219032 0.083766 0.104466
0.274665 0.087590 0.099886
0.335382 0.092545 0.095349
0.400564 0.099070 0.092739
0.467773 0.106101 0.092639
0.535448 0.112099 0.096555
0.603509 0.117025 0.103285
0.670380 0.122636 0.109333
0.735480 0.130508 0.113738
0.799580 0.140462 0.118356
0.862654 0.152405 0.121453
0.019189 0.102358 0.105629
0.047960 0.103255 0.106034
0.079563 0.104769 0.107679
0.119605 0.108177 0.110133
0.167458 0.113481 0.110460
0.222595 0.118554 0.106370
0.285616 0.123339 0.098167
0.352796 0.129335 0.091031
0.418899 0.135688 0.088429
0.482479 0.141464 0.090363
0.549176 0.145974 0.096330
0.615936 0.150550 0.103033
0.681633 0.157421 0.107747
0.746320 0.166242 0.112003
0.809883 0.176849 0.116093
0.871531 0.190898 0.118750
0.019521 0.144443 0.110822
0.048297 0.144395 0.107533
0.078835 0.146084 0.108079
0.119114 0.146166 0.108668
0.171918 0.146705 0.108346
0.230913 0.150327 0.103438
0.296286 0.156108 0.094692
0.365140 0.163109 0.087933
0.432403 0.170292 0.086097
0.498182 0.177014 0.088977
0.566869 0.183439 0.094597
0.635498 0.191165 0.099515
0.701788 0.200507 0.103055
0.766066 0.210763 0.107406
0.828703 0.223743 0.110593
0.885275 0.238927 0.112462
0.020844 0.184413 0.103640
0.049560 0.183405 0.100306
0.079631 0.189252 0.099940
0.117526 0.193481 0.103068
0.176574 0.187581 0.105243
0.247043 0.182610 0.096184
0.316472 0.188928 0.087262
0.387284 0.197873 0.083386
0.455861 0.206549 0.084991
0.526123 0.214565 0.089625
0.596576 0.223587 0.094079
0.665131 0.234288 0.097279
0.731023 0.245826 0.100618
0.794714 0.259582 0.103817
0.853076 0.275930 0.105979
0.906227 0.292945 0.104647
0.022957 0.222901 0.096421
0.051646 0.222165 0.093466
0.081804 0.229611 0.091957
0.118940 0.239047 0.093536
0.183635 0.233061 0.099854
0.262362 0.222289 0.092580
0.337332 0.223496 0.083235
0.412932 0.232384 0.083018
0.488524 0.241811 0.088296
0.563084 0.251690 0.093159
0.633395 0.262770 0.096579
0.699783 0.274572 0.099681
0.763634 0.288422 0.102740
0.823535 0.305976 0.104691
0.878518 0.324540 0.103149
0.931666 0.344836 0.099403
0.024913 0.260397 0.091808
0.053608 0.260785 0.091002
0.083829 0.267966 0.089210
0.122522 0.281354 0.085976
0.192873 0.279380 0.093555
0.277548 0.269808 0.092137
0.358824 0.263666 0.082638
0.442031 0.268826 0.084605
0.523845 0.278403 0.091751
0.599255 0.290188 0.095898
0.668450 0.302607 0.099221
0.732268 0.316242 0.102284
0.791225 0.332754 0.104253
0.846239 0.351259 0.102988
0.899508 0.371198 0.099538
0.952075 0.393111 0.094066
0.026759 0.297841 0.090408
0.055592 0.298667 0.089600
0.086293 0.306608 0.087589
0.128124 0.323188 0.081343
0.203997 0.323947 0.090006
0.293141 0.317326 0.092093
0.386908 0.311356 0.081858
0.477300 0.312086 0.084053
0.559792 0.318781 0.092853
0.632187 0.330070 0.097649
0.698543 0.343340 0.101435
0.758236 0.359250 0.103777
0.812126 0.376308 0.103175
0.864804 0.395197 0.100200
0.917093 0.416309 0.095369
0.967038 0.437994 0.087741
0.028635 0.334436 0.089351
0.057647 0.335894 0.088854
0.089769 0.346757 0.085869
0.137121 0.364077 0.079186
0.219109 0.367033 0.086999
0.311334 0.364269 0.089182
0.412913 0.363499 0.082121
0.513484 0.364289 0.079546
0.596079 0.367636 0.088973
0.663694 0.375070 0.097254
0.722767 0.387256 0.101512
0.776606 0.401752 0.102570
0.828898 0.419012 0.100537
0.880384 0.438490 0.096635
0.931235 0.459559 0.090001
0.972954 0.477722 0.084399
0.030409 0.370311 0.088829
0.059970 0.373949 0.088382
0.093926 0.388068 0.083479
0.149145 0.404271 0.078430
0.236234 0.409299 0.085692
0.328937 0.412187 0.086633
0.433259 0.416869 0.082007
0.539188 0.419759 0.076577
0.620276 0.427468 0.081181
0.688874 0.432042 0.089999
0.744851 0.438310 0.095998
0.793403 0.448301 0.097456
0.842097 0.462049 0.096178
0.893094 0.481311 0.091461
0.941048 0.502263 0.085640
0.974417 0.513867 0.084391
0.032571 0.407514 0.089220
0.062872 0.414631 0.087977
0.098078 0.429054 0.081484
0.162378 0.444363 0.078362
0.251839 0.451198 0.086357
0.346272 0.458822 0.084267
0.449133 0.468527 0.078529
0.554957 0.476492 0.077500
0.637200 0.488918 0.079251
0.703598 0.501559 0.083777
0.760374 0.501090 0.087109
0.809984 0.502154 0.087944
0.856751 0.510778 0.087859
0.903971 0.524237 0.086008
0.945287 0.542629 0.084495
0.975455 0.548458 0.084501
0.035331 0.448023 0.090686
0.065673 0.455605 0.088601
0.102421 0.469229 0.080280
0.176342 0.485161 0.078767
0.266443 0.492639 0.087996
0.362413 0.503463 0.083643
0.463030 0.518372 0.076933
0.564666 0.533761 0.078500
0.651643 0.548608 0.081151
0.715256 0.565440 0.083576
0.771163 0.577802 0.084935
0.821506 0.568209 0.084617
0.869991 0.565608 0.084452
0.914214 0.572447 0.084483
0.947409 0.581308 0.084598
0.976550 0.583818 0.084662
0.038058 0.488443 0.093109
0.068202 0.493652 0.090676
0.110555 0.510395 0.078808
0.191936 0.526978 0.079409
0.282277 0.533178 0.090207
0.379912 0.546850 0.083288
0.481465 0.567597 0.076780
0.573610 0.589904 0.077969
0.655008 0.605868 0.081963
0.724596 0.625942 0.086190
0.775908 0.641336 0.087609
0.824385 0.652065 0.086518
0.876068 0.634924 0.085259
0.919376 0.628631 0.085079
0.949490 0.624978 0.085021
0.977723 0.621669 0.084937
0.040202 0.525602 0.096910
0.071744 0.532990 0.092498
0.125697 0.552855 0.078658
0.209758 0.567786 0.082419
0.299469 0.575076 0.092677
0.399799 0.595375 0.083035
0.499213 0.621140 0.076793
0.583554 0.655844 0.076986
0.658570 0.686616 0.077628
0.719486 0.700853 0.078831
0.776799 0.711391 0.080271
0.825465 0.719405 0.080500
0.874619 0.728723 0.080029
0.919044 0.700697 0.083065
0.950387 0.681832 0.084635
0.978921 0.669534 0.085242
0.047665 0.580227 0.094419
0.083017 0.595500 0.083133
0.145506 0.612256 0.076903
0.228994 0.628007 0.080243
0.315932 0.636133 0.088823
0.406264 0.653696 0.084717
0.506392 0.685550 0.076814
0.594043 0.720651 0.076862
0.661811 0.752769 0.076921
0.717968 0.783148 0.077023
0.767524 0.800915 0.077472
0.819074 0.800828 0.077844
0.869691 0.799564 0.077816
0.918424 0.806036 0.079677
0.946799 0.759273 0.081053
0.977753 0.726360 0.084064
0.063173 0.651564 0.078169
0.094661 0.655064 0.077721
0.153987 0.664922 0.078293
0.243509 0.678319 0.085368
0.328131 0.691009 0.092993
0.414797 0.713222 0.089645
0.510454 0.749984 0.078051
0.599238 0.789458 0.076862
0.668319 0.824827 0.076923
0.719987 0.847507 0.077086
0.765584 0.864322 0.081015
0.813202 0.880916 0.091833
0.860677 0.878710 0.092493
0.912424 0.876085 0.091452
0.949388 0.869668 0.088787
0.976527 0.811900 0.079205
0.019169 0.043323 0.134336
0.048027 0.043532 0.134514
0.082455 0.046162 0.137653
0.131929 0.051082 0.142668
0.180127 0.054703 0.141049
0.233273 0.060727 0.137466
0.295894 0.066631 0.131354
0.361555 0.070891 0.124926
0.425142 0.075254 0.121804
0.486205 0.080412 0.122666
0.550336 0.085475 0.127567
0.614849 0.089619 0.134082
0.678056 0.095227 0.139117
0.740136 0.102836 0.143106
0.801360 0.111955 0.147498
0.862444 0.122916 0.150624
0.019169 0.072564 0.134930
0.047960 0.074110 0.136481
0.081170 0.076157 0.138857
0.129185 0.081116 0.144313
0.178838 0.084604 0.143236
0.232443 0.090497 0.138741
0.296400 0.095685 0.131585
0.363836 0.099974 0.124849
0.428133 0.104234 0.121710
0.488824 0.109321 0.122892
0.552132 0.114327 0.127869
0.615980 0.118490 0.134183
0.678911 0.124215 0.139065
0.740831 0.131797 0.143086
0.802056 0.140961 0.147430
0.863044 0.151999 0.150543
0.019176 0.103792 0.137168
0.047900 0.105479 0.138878
0.079292 0.108890 0.142408
0.122008 0.112702 0.146633
0.174601 0.117685 0.148004
0.231193 0.122321 0.141603
0.297876 0.125795 0.132223
0.367568 0.129925 0.124609
0.433383 0.134265 0.121377
0.493960 0.139081 0.123095
0.556185 0.143804 0.128323
0.619074 0.148280 0.134146
0.681558 0.154438 0.138537
0.743540 0.162312 0.142589
0.805439 0.172086 0.146749
0.867116 0.184534 0.149675
0.019283 0.141575 0.144153
0.047985 0.143767 0.145635
0.077849 0.146231 0.147535
0.115976 0.148995 0.150483
0.168042 0.153489 0.152918
0.230096 0.158537 0.147188
0.300173 0.161896 0.135085
0.372132 0.165445 0.124533
0.441815 0.169911 0.119717
0.505296 0.173903 0.121640
0.567711 0.178142 0.127231
0.631135 0.184323 0.131907
0.694756 0.192431 0.135322
0.758660 0.202698 0.139199
0.822161 0.215314 0.142353
0.880826 0.230594 0.144413
0.020299 0.187415 0.151535
0.049062 0.189399 0.150491
0.078183 0.191626 0.148767
0.112881 0.194379 0.147222
0.168482 0.194661 0.148603
0.240293 0.192588 0.143487
0.312551 0.196129 0.131727
0.386065 0.202062 0.122051
0.458567 0.208103 0.117704
0.527965 0.213724 0.119712
0.592380 0.220193 0.124047
0.655430 0.228470 0.127325
0.718806 0.238508 0.130393
0.783309 0.251597 0.133751
0.845240 0.268062 0.136089
0.900565 0.285738 0.135620
0.023364 0.234794 0.149546
0.051849 0.232019 0.143223
0.080589 0.231014 0.137919
0.113777 0.237924 0.133690
0.170245 0.242306 0.134619
0.256597 0.231871 0.133431
0.334277 0.229126 0.122043
0.411477 0.236255 0.115933
0.488304 0.244286 0.117589
0.561623 0.252793 0.121112
0.628815 0.262287 0.124207
0.692370 0.272682 0.127178
0.755044 0.285203 0.130570
0.815758 0.301313 0.132927
0.872473 0.320026 0.132336
0.926065 0.339974 0.129060
0.026309 0.272513 0.140993
0.054637 0.269374 0.134599
0.083334 0.267680 0.127739
0.117216 0.277510 0.123066
0.175944 0.287059 0.122935
0.269371 0.279069 0.129219
0.357680 0.268837 0.116758
0.441363 0.271613 0.112895
0.522614 0.279652 0.119229
0.597272 0.290671 0.123614
0.666051 0.302710 0.126920
0.729378 0.315831 0.130162
0.787784 0.331407 0.132302
0.842313 0.348903 0.131665
0.895831 0.368498 0.128509
0.948099 0.389834 0.123414
0.028630 0.307216 0.132455
0.056491 0.303291 0.126072
0.085397 0.304077 0.122863
0.121306 0.317864 0.118833
0.185759 0.331088 0.116949
0.283974 0.325338 0.126950
0.383409 0.318585 0.115499
0.475763 0.315802 0.111276
