example_ofxGpuLutCube/bin/data/ofxGpuLutCube/LUT/T20 (clear teal fade).cube
LUT_3D_SIZE 16
0.000000 0.000000 0.000000
0.016138 0.000000 0.000000
0.056104 0.000000 0.000000
0.115012 0.000000 0.000000
0.176465 0.000000 0.000000
0.238327 0.000000 0.000000
0.298621 0.000000 0.000000
0.359021 0.000000 0.000000
0.419259 0.000000 0.000000
0.479367 0.000000 0.000000
0.539656 0.000000 0.000000
0.598599 0.000000 0.000000
0.658149 0.000000 0.000000
0.718920 0.000000 0.000000
0.777599 0.000000 0.000000
0.836424 0.000000 0.000000
0.000000 0.042349 0.000000
0.016138 0.042349 0.000000
0.056104 0.042349 0.000000
0.115012 0.042349 0.000000
0.176465 0.042349 0.000000
0.238327 0.042349 0.000000
0.298621 0.042349 0.000000
0.359021 0.042349 0.000000
0.419259 0.042349 0.000000
0.479367 0.042349 0.000000
0.539656 0.042349 0.000000
0.598599 0.042349 0.000000
0.658149 0.042349 0.000000
0.718920 0.042349 0.000000
0.777599 0.042349 0.000000
0.836424 0.042349 0.000000
0.000000 0.107138 0.000000
0.016138 0.107138 0.000000
0.056104 0.107138 0.000000
0.115012 0.107138 0.000000
0.176465 0.107138 0.000000
0.238327 0.107138 0.000000
0.298621 0.107138 0.000000
0.359021 0.107138 0.000000
0.419259 0.107138 0.000000
0.479367 0.107138 0.000000
0.539656 0.107138 0.000000
0.598599 0.107138 0.000000
0.658149 0.107138 0.000000
0.718920 0.107138 0.000000
0.777599 0.107138 0.000000
0.836424 0.107138 0.000000
0.000000 0.179523 0.000000
0.016138 0.179523 0.000000
0.056104 0.179523 0.000000
0.115012 0.179523 0.000000
0.176465 0.179523 0.000000
0.238327 0.179523 0.000000
0.298621 0.179523 0.000000
0.359021 0.179523 0.000000
0.419259 0.179523 0.000000
0.479367 0.179523 0.000000
0.539656 0.179523 0.000000
0.598599 0.179523 0.000000
0.658149 0.179523 0.000000
0.718920 0.179523 0.000000
0.777599 0.179523 0.000000
0.836424 0.179523 0.000000
0.000000 0.247138 0.000000
0.016138 0.247138 0.000000
0.056104 0.247138 0.000000
0.115012 0.247138 0.000000
0.176465 0.247138 0.000000
0.238327 0.247138 0.000000
0.298621 0.247138 0.000000
0.359021 0.247138 0.000000
0.419259 0.247138 0.000000
0.479367 0.247138 0.000000
0.539656 0.247138 0.000000
0.598599 0.247138 0.000000
0.658149 0.247138 0.000000
0.718920 0.247138 0.000000
0.777599 0.247138 0.000000
0.836424 0.247138 0.000000
0.000000 0.311353 0.000000
0.016138 0.311353 0.000000
0.056104 0.311353 0.000000
0.115012 0.311353 0.000000
0.176465 0.311353 0.000000
0.238327 0.311353 0.000000
0.298621 0.311353 0.000000
0.359021 0.311353 0.000000
0.419259 0.311353 0.000000
0.479367 0.311353 0.000000
0.539656 0.311353 0.000000
0.598599 0.311353 0.000000
0.658149 0.311353 0.000000
0.718920 0.311353 0.000000
0.777599 0.311353 0.000000
0.836424 0.311353 0.000000
0.000000 0.373176 0.000000
0.016138 0.373176 0.000000
0.056104 0.373176 0.000000
0.115012 0.373176 0.000000
0.176465 0.373176 0.000000
0.238327 0.373176 0.000000
0.298621 0.373176 0.000000
0.359021 0.373176 0.000000
0.419259 0.373176 0.000000
0.479367 0.373176 0.000000
0.539656 0.373176 0.000000
0.598599 0.373176 0.000000
0.658149 0.373176 0.000000
0.718920 0.373176 0.000000
0.777599 0.373176 0.000000
0.836424 0.373176 0.000000
0.000000 0.433021 0.000000
0.016138 0.433021 0.000000
0.056104 0.433021 0.000000
0.115012 0.433021 0.000000
0.176465 0.433021 0.000000
0.238327 0.433021 0.000000
0.298621 0.433021 0.000000
0.359021 0.433021 0.000000
0.419259 0.433021 0.000000
0.479367 0.433021 0.000000
0.539656 0.433021 0.000000
0.598599 0.433021 0.000000
0.658149 0.433021 0.000000
0.718920 0.433021 0.000000
0.777599 0.433021 0.000000
0.836424 0.433021 0.000000
0.000000 0.491390 0.000000
0.016138 0.491390 0.000000
0.056104 0.491390 0.000000
0.115012 0.491390 0.000000
0.176465 0.491390 0.000000
0.238327 0.491390 0.000000
0.298621 0.491390 0.000000
0.359021 0.491390 0.000000
0.419259 0.491390 0.000000
0.479367 0.491390 0.000000
0.539656 0.491390 0.000000
0.598599 0.491390 0.000000
0.658149 0.491390 0.000000
0.718920 0.491390 0.000000
0.777599 0.491390 0.000000
0.836424 0.491390 0.000000
0.000000 0.548441 0.000000
0.016138 0.548441 0.000000
0.056104 0.548441 0.000000
0.115012 0.548441 0.000000
0.176465 0.548441 0.000000
0.238327 0.548441 0.000000
0.298621 0.548441 0.000000
0.359021 0.548441 0.000000
0.419259 0.548441 0.000000
0.479367 0.548441 0.000000
0.539656 0.548441 0.000000
0.598599 0.548441 0.000000
0.658149 0.548441 0.000000
0.718920 0.548441 0.000000
0.777599 0.548441 0.000000
0.836424 0.548441 0.000000
0.000000 0.604376 0.000000
0.016138 0.604376 0.000000
0.056104 0.604376 0.000000
0.115012 0.604376 0.000000
0.176465 0.604376 0.000000
0.238327 0.604376 0.000000
0.298621 0.604376 0.000000
0.359021 0.604376 0.000000
0.419259 0.604376 0.000000
0.479367 0.604376 0.000000
0.539656 0.604376 0.000000
0.598599 0.604376 0.000000
0.658149 0.604376 0.000000
0.718920 0.604376 0.000000
0.777599 0.604376 0.000000
0.836424 0.604376 0.000000
0.000000 0.659446 0.000000
0.016138 0.659446 0.000000
0.056104 0.659446 0.000000
0.115012 0.659446 0.000000
0.176465 0.659446 0.000000
0.238327 0.659446 0.000000
0.298621 0.659446 0.000000
0.359021 0.659446 0.000000
0.419259 0.659446 0.000000
0.479367 0.659446 0.000000
0.539656 0.659446 0.000000
0.598599 0.659446 0.000000
0.658149 0.659446 0.000000
0.718920 0.659446 0.000000
0.777599 0.659446 0.000000
0.836424 0.659446 0.000000
0.000000 0.713510 0.000000
0.016138 0.713510 0.000000
0.056104 0.713510 0.000000
0.115012 0.713510 0.000000
0.176465 0.713510 0.000000
0.238327 0.713510 0.000000
0.298621 0.713510 0.000000
0.359021 0.713510 0.000000
0.419259 0.713510 0.000000
0.479367 0.713510 0.000000
0.539656 0.713510 0.000000
0.598599 0.713510 0.000000
0.658149 0.713510 0.000000
0.718920 0.713510 0.000000
0.777599 0.713510 0.000000
0.836424 0.713510 0.000000
0.000000 0.766922 0.000000
0.016138 0.766922 0.000000
0.056104 0.766922 0.000000
0.115012 0.766922 0.000000
0.176465 0.766922 0.000000
0.238327 0.766922 0.000000
0.298621 0.766922 0.000000
0.359021 0.766922 0.000000
0.419259 0.766922 0.000000
0.479367 0.766922 0.000000
0.539656 0.766922 0.000000
0.598599 0.766922 0.000000
0.658149 0.766922 0.000000
0.718920 0.766922 0.000000
0.777599 0.766922 0.000000
0.836424 0.766922 0.000000
0.000000 0.819468 0.000000
0.016138 0.819468 0.000000
0.056104 0.819468 0.000000
0.115012 0.819468 0.000000
0.176465 0.819468 0.000000
0.238327 0.819468 0.000000
0.298621 0.819468 0.000000
0.359021 0.819468 0.000000
0.419259 0.819468 0.000000
0.479367 0.819468 0.000000
0.539656 0.819468 0.000000
0.598599 0.819468 0.000000
0.658149 0.819468 0.000000
0.718920 0.819468 0.000000
0.777599 0.819468 0.000000
0.836424 0.819468 0.000000
0.000000 0.870967 0.000000
0.016138 0.870967 0.000000
0.056104 0.870967 0.000000
0.115012 0.870967 0.000000
0.176465 0.870967 0.000000
0.238327 0.870967 0.000000
0.298621 0.870967 0.000000
0.359021 0.870967 0.000000
0.419259 0.870967 0.000000
0.479367 0.870967 0.000000
0.539656 0.870967 0.000000
0.598599 0.870967 0.000000
0.658149 0.870967 0.000000
0.718920 0.870967 0.000000
0.777599 0.870967 0.000000
0.836424 0.870967 0.000000
0.000000 0.000000 0.039840
0.016138 0.000000 0.039840
0.056104 0.000000 0.039840
0.115012 0.000000 0.039840
0.176465 0.000000 0.039840
0.238327 0.000000 0.039840
0.298621 0.000000 0.039840
0.359021 0.000000 0.039840
0.419259 0.000000 0.039840
0.479367 0.000000 0.039840
0.539656 0.000000 0.039840
0.598599 0.000000 0.039840
0.658149 0.000000 0.039840
0.718920 0.000000 0.039840
0.777599 0.000000 0.039840
0.836424 0.000000 0.039840
0.000000 0.042349 0.039840
0.016138 0.042349 0.039840
0.056104 0.042349 0.039840
0.115012 0.042349 0.039840
0.176465 0.042349 0.039840
0.238327 0.042349 0.039840
0.298621 0.042349 0.039840
0.359021 0.042349 0.039840
0.419259 0.042349 0.039840
0.479367 0.042349 0.039840
0.539656 0.042349 0.039840
0.598599 0.042349 0.039840
0.658149 0.042349 0.039840
0.718920 0.042349 0.039840
0.777599 0.042349 0.039840
0.836424 0.042349 0.039840
0.000000 0.107138 0.039840
0.016138 0.107138 0.039840
0.056104 0.107138 0.039840
0.115012 0.107138 0.039840
0.176465 0.107138 0.039840
0.238327 0.107138 0.039840
0.298621 0.107138 0.039840
0.359021 0.107138 0.039840
0.419259 0.107138 0.039840
0.479367 0.107138 0.039840
0.539656 0.107138 0.039840
0.598599 0.107138 0.039840
0.658149 0.107138 0.039840
0.718920 0.107138 0.039840
0.777599 0.107138 0.039840
0.836424 0.107138 0.039840
0.000000 0.179523 0.039840
0.016138 0.179523 0.039840
0.056104 0.179523 0.039840
0.115012 0.179523 0.039840
0.176465 0.179523 0.039840
0.238327 0.179523 0.039840
0.298621 0.179523 0.039840
0.359021 0.179523 0.039840
0.419259 0.179523 0.039840
0.479367 0.179523 0.039840
0.539656 0.179523 0.039840
0.598599 0.179523 0.039840
0.658149 0.179523 0.039840
0.718920 0.179523 0.039840
0.777599 0.179523 0.039840
0.836424 0.179523 0.039840
0.000000 0.247138 0.039840
0.016138 0.247138 0.039840
0.056104 0.247138 0.039840
0.115012 0.247138 0.039840
0.176465 0.247138 0.039840
0.238327 0.247138 0.039840
0.298621 0.247138 0.039840
0.359021 0.247138 0.039840
0.419259 0.247138 0.039840
0.479367 0.247138 0.039840
0.539656 0.247138 0.039840
0.598599 0.247138 0.039840
0.658149 0.247138 0.039840
0.718920 0.247138 0.039840
0.777599 0.247138 0.039840
0.836424 0.247138 0.039840
0.000000 0.311353 0.039840
0.016138 0.311353 0.039840
0.056104 0.311353 0.039840
0.115012 0.311353 0.039840
0.176465 0.311353 0.039840
0.238327 0.311353 0.039840
0.298621 0.311353 0.039840
0.359021 0.311353 0.039840
0.419259 0.311353 0.039840
0.479367 0.311353 0.039840
0.539656 0.311353 0.039840
0.598599 0.311353 0.039840
0.658149 0.311353 0.039840
0.718920 0.311353 0.039840
0.777599 0.311353 0.039840
0.836424 0.311353 0.039840
0.000000 0.373176 0.039840
0.016138 0.373176 0.039840
0.056104 0.373176 0.039840
0.115012 0.373176 0.039840
0.176465 0.373176 0.039840
0.238327 0.373176 0.039840
0.298621 0.373176 0.039840
0.359021 0.373176 0.039840
0.419259 0.373176 0.039840
0.479367 0.373176 0.039840
0.539656 0.373176 0.039840
0.598599 0.373176 0.039840
0.658149 0.373176 0.039840
0.718920 0.373176 0.039840
0.777599 0.373176 0.039840
0.836424 0.373176 0.039840
0.000000 0.433021 0.039840
0.016138 0.433021 0.039840
0.056104 0.433021 0.039840
0.115012 0.433021 0.039840
0.176465 0.433021 0.039840
0.238327 0.433021 0.039840
0.298621 0.433021 0.039840
0.359021 0.433021 0.039840
0.419259 0.433021 0.039840
0.479367 0.433021 0.039840
0.539656 0.433021 0.039840
0.598599 0.433021 0.039840
0.658149 0.433021 0.039840
0.718920 0.433021 0.039840
0.777599 0.433021 0.039840
0.836424 0.433021 0.039840
0.000000 0.491390 0.039840
0.016138 0.491390 0.039840
0.056104 0.491390 0.039840
0.115012 0.491390 0.039840
0.176465 0.491390 0.039840
0.238327 0.491390 0.039840
0.298621 0.491390 0.039840
0.359021 0.491390 0.039840
0.419259 0.491390 0.039840
0.479367 0.491390 0.039840
0.539656 0.491390 0.039840
0.598599 0.491390 0.039840
0.658149 0.491390 0.039840
0.718920 0.491390 0.039840
0.777599 0.491390 0.039840
0.836424 0.491390 0.039840
0.000000 0.548441 0.039840
0.016138 0.548441 0.039840
0.056104 0.548441 0.039840
0.115012 0.548441 0.039840
0.176465 0.548441 0.039840
0.238327 0.548441 0.039840
0.298621 0.548441 0.039840
0.359021 0.548441 0.039840
0.419259 0.548441 0.039840
0.479367 0.548441 0.039840
0.539656 0.548441 0.039840
0.598599 0.548441 0.039840
0.658149 0.548441 0.039840
0.718920 0.548441 0.039840
0.777599 0.548441 0.039840
0.836424 0.548441 0.039840
0.000000 0.604376 0.039840
0.016138 0.604376 0.039840
0.056104 0.604376 0.039840
0.115012 0.604376 0.039840
0.176465 0.604376 0.039840
0.238327 0.604376 0.039840
0.298621 0.604376 0.039840
0.359021 0.604376 0.039840
0.419259 0.604376 0.039840
0.479367 0.604376 0.039840
0.539656 0.604376 0.039840
0.598599 0.604376 0.039840
0.658149 0.604376 0.039840
0.718920 0.604376 0.039840
0.777599 0.604376 0.039840
0.836424 0.604376 0.039840
0.000000 0.659446 0.039840
0.016138 0.659446 0.039840
0.056104 0.659446 0.039840
0.115012 0.659446 0.039840
0.176465 0.659446 0.039840
0.238327 0.659446 0.039840
0.298621 0.659446 0.039840
0.359021 0.659446 0.039840
0.419259 0.659446 0.039840
0.479367 0.659446 0.039840
0.539656 0.659446 0.039840
0.598599 0.659446 0.039840
0.658149 0.659446 0.039840
0.718920 0.659446 0.039840
0.777599 0.659446 0.039840
0.836424 0.659446 0.039840
0.000000 0.713510 0.039840
0.016138 0.713510 0.039840
0.056104 0.713510 0.039840
0.115012 0.713510 0.039840
0.176465 0.713510 0.039840
0.238327 0.713510 0.039840
0.298621 0.713510 0.039840
0.359021 0.713510 0.039840
0.419259 0.713510 0.039840
0.479367 0.713510 0.039840
0.539656 0.713510 0.039840
0.598599 0.713510 0.039840
0.658149 0.713510 0.039840
0.718920 0.713510 0.039840
0.777599 0.713510 0.039840
0.836424 0.713510 0.039840
0.000000 0.766922 0.039840
0.016138 0.766922 0.039840
0.056104 0.766922 0.039840
0.115012 0.766922 0.039840
0.176465 0.766922 0.039840
0.238327 0.766922 0.039840
0.298621 0.766922 0.039840
0.359021 0.766922 0.039840
0.419259 0.766922 0.039840
0.479367 0.766922 0.039840
0.539656 0.766922 0.039840
0.598599 0.766922 0.039840
0.658149 0.766922 0.039840
0.718920 0.766922 0.039840
0.777599 0.766922 0.039840
0.836424 0.766922 0.039840
0.000000 0.819468 0.039840
0.016138 0.819468 0.039840
0.056104 0.819468 0.039840
0.115012 0.819468 0.039840
0.176465 0.819468 0.039840
0.238327 0.819468 0.039840
0.298621 0.819468 0.039840
0.359021 0.819468 0.039840
0.419259 0.819468 0.039840
0.479367 0.819468 0.039840
0.539656 0.819468 0.039840
0.598599 0.819468 0.039840
0.658149 0.819468 0.039840
0.718920 0.819468 0.039840
0.777599 0.819468 0.039840
0.836424 0.819468 0.039840
0.000000 0.870967 0.039840
0.016138 0.870967 0.039840
0.056104 0.870967 0.039840
0.115012 0.870967 0.039840
0.176465 0.870967 0.039840
0.238327 0.870967 0.039840
0.298621 0.870967 0.039840
0.359021 0.870967 0.039840
0.419259 0.870967 0.039840
0.479367 0.870967 0.039840
0.539656 0.870967 0.039840
0.598599 0.870967 0.039840
0.658149 0.870967 0.039840
0.718920 0.870967 0.039840
0.777599 0.870967 0.039840
0.836424 0.870967 0.039840
0.000000 0.000000 0.103271
0.016138 0.000000 0.103271
0.056104 0.000000 0.103271
0.115012 0.000000 0.103271
0.176465 0.000000 0.103271
0.238327 0.000000 0.103271
0.298621 0.000000 0.103271
0.359021 0.000000 0.103271
0.419259 0.000000 0.103271
0.479367 0.000000 0.103271
0.539656 0.000000 0.103271
0.598599 0.000000 0.103271
0.658149 0.000000 0.103271
0.718920 0.000000 0.103271
0.777599 0.000000 0.103271
0.836424 0.000000 0.103271
0.000000 0.042349 0.103271
0.016138 0.042349 0.103271
0.056104 0.042349 0.103271
0.115012 0.042349 0.103271
0.176465 0.042349 0.103271
0.238327 0.042349 0.103271
0.298621 0.042349 0.103271
0.359021 0.042349 0.103271
0.419259 0.042349 0.103271
0.479367 0.042349 0.103271
0.539656 0.042349 0.103271
0.598599 0.042349 0.103271
0.658149 0.042349 0.103271
0.718920 0.042349 0.103271
0.777599 0.042349 0.103271
0.836424 0.042349 0.103271
0.000000 0.107138 0.103271
0.016138 0.107138 0.103271
0.056104 0.107138 0.103271
0.115012 0.107138 0.103271
0.176465 0.107138 0.103271
0.238327 0.107138 0.103271
0.298621 0.107138 0.103271
0.359021 0.107138 0.103271
0.419259 0.107138 0.103271
0.479367 0.107138 0.103271
0.539656 0.107138 0.103271
0.598599 0.107138 0.103271
0.658149 0.107138 0.103271
0.718920 0.107138 0.103271
0.777599 0.107138 0.103271
0.836424 0.107138 0.103271
0.000000 0.179523 0.103271
0.016138 0.179523 0.103271
0.056104 0.179523 0.103271
0.115012 0.179523 0.103271
0.176465 0.179523 0.103271
0.238327 0.179523 0.103271
0.298621 0.179523 0.103271
0.359021 0.179523 0.103271
0.419259 0.179523 0.103271
0.479367 0.179523 0.103271
0.539656 0.179523 0.103271
0.598599 0.179523 0.103271
0.658149 0.179523 0.103271
0.718920 0.179523 0.103271
0.777599 0.179523 0.103271
0.836424 0.179523 0.103271
0.000000 0.247138 0.103271
0.016138 0.247138 0.103271
0.056104 0.247138 0.103271
0.115012 0.247138 0.103271
0.176465 0.247138 0.103271
0.238327 0.247138 0.103271
0.298621 0.247138 0.103271
0.359021 0.247138 0.103271
0.419259 0.247138 0.103271
0.479367 0.247138 0.103271
0.539656 0.247138 0.103271
0.598599 0.247138 0.103271
0.658149 0.247138 0.103271
0.718920 0.247138 0.103271
0.777599 0.247138 0.103271
0.836424 0.247138 0.103271
0.000000 0.311353 0.103271
0.016138 0.311353 0.103271
0.056104 0.311353 0.103271
0.115012 0.311353 0.103271
0.176465 0.311353 0.103271
0.238327 0.311353 0.103271
0.298621 0.311353 0.103271
0.359021 0.311353 0.103271
0.419259 0.311353 0.103271
0.479367 0.311353 0.103271
0.539656 0.311353 0.103271
0.598599 0.311353 0.103271
0.658149 0.311353 0.103271
0.718920 0.311353 0.103271
0.777599 0.311353 0.103271
0.836424 0.311353 0.103271
0.000000 0.373176 0.103271
0.016138 0.373176 0.103271
0.056104 0.373176 0.103271
0.115012 0.373176 0.103271
0.176465 0.373176 0.103271
0.238327 0.373176 0.103271
0.298621 0.373176 0.103271
0.359021 0.373176 0.103271
0.419259 0.373176 0.103271
0.479367 0.373176 0.103271
0.539656 0.373176 0.103271
0.598599 0.373176 0.103271
0.658149 0.373176 0.103271
0.718920 0.373176 0.103271
0.777599 0.373176 0.103271
0.836424 0.373176 0.103271
0.000000 0.433021 0.103271
0.016138 0.433021 0.103271
0.056104 0.433021 0.103271
0.115012 0.433021 0.103271
0.176465 0.433021 0.103271
0.238327 0.433021 0.103271
0.298621 0.433021 0.103271
0.359021 0.433021 0.103271
0.419259 0.433021 0.103271
0.479367 0.433021 0.103271
0.539656 0.433021 0.103271
0.598599 0.433021 0.103271
0.658149 0.433021 0.103271
0.718920 0.433021 0.103271
0.777599 0.433021 0.103271
0.836424 0.433021 0.103271
0.000000 0.491390 0.103271
0.016138 0.491390 0.103271
0.056104 0.491390 0.103271
0.115012 0.491390 0.103271
0.176465 0.491390 0.103271
0.238327 0.491390 0.103271
0.298621 0.491390 0.103271
0.359021 0.491390 0.103271
0.419259 0.491390 0.103271
0.479367 0.491390 0.103271
0.539656 0.491390 0.103271
0.598599 0.491390 0.103271
0.658149 0.491390 0.103271
0.718920 0.491390 0.103271
0.777599 0.491390 0.103271
0.836424 0.491390 0.103271
0.000000 0.548441 0.103271
0.016138 0.548441 0.103271
0.056104 0.548441 0.103271
0.115012 0.548441 0.103271
0.176465 0.548441 0.103271
0.238327 0.548441 0.103271
0.298621 0.548441 0.103271
0.359021 0.548441 0.103271
0.419259 0.548441 0.103271
0.479367 0.548441 0.103271
0.539656 0.548441 0.103271
0.598599 0.548441 0.103271
0.658149 0.548441 0.103271
0.718920 0.548441 0.103271
0.777599 0.548441 0.103271
0.836424 0.548441 0.103271
0.000000 0.604376 0.103271
0.016138 0.604376 0.103271
0.056104 0.604376 0.103271
0.115012 0.604376 0.103271
0.176465 0.604376 0.103271
0.238327 0.604376 0.103271
0.298621 0.604376 0.103271
0.359021 0.604376 0.103271
0.419259 0.604376 0.103271
0.479367 0.604376 0.103271
0.539656 0.604376 0.103271
0.598599 0.604376 0.103271
0.658149 0.604376 0.103271
0.718920 0.604376 0.103271
0.777599 0.604376 0.103271
0.836424 0.604376 0.103271
0.000000 0.659446 0.103271
0.016138 0.659446 0.103271
0.056104 0.659446 0.103271
0.115012 0.659446 0.103271
0.176465 0.659446 0.103271
0.238327 0.659446 0.103271
0.298621 0.659446 0.103271
0.359021 0.659446 0.103271
0.419259 0.659446 0.103271
0.479367 0.659446 0.103271
0.539656 0.659446 0.103271
0.598599 0.659446 0.103271
0.658149 0.659446 0.103271
0.718920 0.659446 0.103271
0.777599 0.659446 0.103271
0.836424 0.659446 0.103271
0.000000 0.713510 0.103271
0.016138 0.713510 0.103271
0.056104 0.713510 0.103271
0.115012 0.713510 0.103271
0.176465 0.713510 0.103271
0.238327 0.713510 0.103271
0.298621 0.713510 0.103271
0.359021 0.713510 0.103271
0.419259 0.713510 0.103271
0.479367 0.713510 0.103271
0.539656 0.713510 0.103271
0.598599 0.713510 0.103271
0.658149 0.713510 0.103271
0.718920 0.713510 0.103271
0.777599 0.713510 0.103271
0.836424 0.713510 0.103271
0.000000 0.766922 0.103271
0.016138 0.766922 0.103271
0.056104 0.766922 0.103271
0.115012 0.766922 0.103271
0.176465 0.766922 0.103271
0.238327 0.766922 0.103271
0.298621 0.766922 0.103271
0.359021 0.766922 0.103271
0.419259 0.766922 0.103271
0.479367 0.766922 0.103271
0.539656 0.766922 0.103271
0.598599 0.766922 0.103271
0.658149 0.766922 0.103271
0.718920 0.766922 0.103271
0.777599 0.766922 0.103271
0.836424 0.766922 0.103271
0.000000 0.819468 0.103271
0.016138 0.819468 0.103271
0.056104 0.819468 0.103271
0.115012 0.819468 0.103271
0.176465 0.819468 0.103271
0.238327 0.819468 0.103271
0.298621 0.819468 0.103271
0.359021 0.819468 0.103271
0.419259 0.819468 0.103271
0.479367 0.819468 0.103271
0.539656 0.819468 0.103271
0.598599 0.819468 0.103271
0.658149 0.819468 0.103271
0.718920 0.819468 0.103271
0.777599 0.819468 0.103271
0.836424 0.819468 0.103271
0.000000 0.870967 0.103271
0.016138 0.870967 0.103271
0.056104 0.870967 0.103271
0.115012 0.870967 0.103271
0.176465 0.870967 0.103271
0.238327 0.870967 0.103271
0.298621 0.870967 0.103271
0.359021 0.870967 0.103271
0.419259 0.870967 0.103271
0.479367 0.870967 0.103271
0.539656 0.870967 0.103271
0.598599 0.870967 0.103271
0.658149 0.870967 0.103271
0.718920 0.870967 0.103271
0.777599 0.870967 0.103271
0.836424 0.870967 0.103271
0.000000 0.000000 0.175789
0.016138 0.000000 0.175789
0.056104 0.000000 0.175789
0.115012 0.000000 0.175789
0.176465 0.000000 0.175789
0.238327 0.000000 0.175789
0.298621 0.000000 0.175789
0.359021 0.000000 0.175789
0.419259 0.000000 0.175789
0.479367 0.000000 0.175789
0.539656 0.000000 0.175789
0.598599 0.000000 0.175789
0.658149 0.000000 0.175789
0.718920 0.000000 0.175789
0.777599 0.000000 0.175789
0.836424 0.000000 0.175789
0.000000 0.042349 0.175789
0.016138 0.042349 0.175789
0.056104 0.042349 0.175789
0.115012 0.042349 0.175789
0.176465 0.042349 0.175789
0.238327 0.042349 0.175789
0.298621 0.042349 0.175789
0.359021 0.042349 0.175789
0.419259 0.042349 0.175789
0.479367 0.042349 0.175789
0.539656 0.042349 0.175789
0.598599 0.042349 0.175789
0.658149 0.042349 0.175789
0.718920 0.042349 0.175789
0.777599 0.042349 0.175789
0.836424 0.042349 0.175789
0.000000 0.107138 0.175789
0.016138 0.107138 0.175789
0.056104 0.107138 0.175789
0.115012 0.107138 0.175789
0.176465 0.107138 0.175789
0.238327 0.107138 0.175789
0.298621 0.107138 0.175789
0.359021 0.107138 0.175789
0.419259 0.107138 0.175789
0.479367 0.107138 0.175789
0.539656 0.107138 0.175789
0.598599 0.107138 0.175789
0.658149 0.107138 0.175789
0.718920 0.107138 0.175789
0.777599 0.107138 0.175789
0.836424 0.107138 0.175789
0.000000 0.179523 0.175789
0.016138 0.179523 0.175789
0.056104 0.179523 0.175789
0.115012 0.179523 0.175789
0.176465 0.179523 0.175789
0.238327 0.179523 0.175789
0.298621 0.179523 0.175789
0.359021 0.179523 0.175789
0.419259 0.179523 0.175789
0.479367 0.179523 0.175789
0.539656 0.179523 0.175789
0.598599 0.179523 0.175789
0.658149 0.179523 0.175789
0.718920 0.179523 0.175789
0.777599 0.179523 0.175789
0.836424 0.179523 0.175789
0.000000 0.247138 0.175789
0.016138 0.247138 0.175789
0.056104 0.247138 0.175789
0.115012 0.247138 0.175789
0.176465 0.247138 0.175789
0.238327 0.247138 0.175789
0.298621 0.247138 0.175789
0.359021 0.247138 0.175789
0.419259 0.247138 0.175789
0.479367 0.247138 0.175789
0.539656 0.247138 0.175789
0.598599 0.247138 0.175789
0.658149 0.247138 0.175789
0.718920 0.247138 0.175789
0.777599 0.247138 0.175789
0.836424 0.247138 0.175789
0.000000 0.311353 0.175789
0.016138 0.311353 0.175789
0.056104 0.311353 0.175789
0.115012 0.311353 0.175789
0.176465 0.311353 0.175789
0.238327 0.311353 0.175789
0.298621 0.311353 0.175789
0.359021 0.311353 0.175789
0.419259 0.311353 0.175789
0.479367 0.311353 0.175789
0.539656 0.311353 0.175789
0.598599 0.311353 0.175789
0.658149 0.311353 0.175789
0.718920 0.311353 0.175789
0.777599 0.311353 0.175789
0.836424 0.311353 0.175789
0.000000 0.373176 0.175789
0.016138 0.373176 0.175789
0.056104 0.373176 0.175789
0.115012 0.373176 0.175789
0.176465 0.373176 0.175789
0.238327 0.373176 0.175789
0.298621 0.373176 0.175789
0.359021 0.373176 0.175789
0.419259 0.373176 0.175789
0.479367 0.373176 0.175789
0.539656 0.373176 0.175789
0.598599 0.373176 0.175789
0.658149 0.373176 0.175789
0.718920 0.373176 0.175789
0.777599 0.373176 0.175789
0.836424 0.373176 0.175789
0.000000 0.433021 0.175789
0.016138 0.433021 0.175789
0.056104 0.433021 0.175789
0.115012 0.433021 0.175789
0.176465 0.433021 0.175789
0.238327 0.433021 0.175789
0.298621 0.433021 0.175789
0.359021 0.433021 0.175789
