example_ofxGpuLutCube/bin/data/ofxGpuLutCube/LUT/T20 (clear teal fade).cube
LUT_3D_SIZE 6
0.000000 0.000000 0.000000
0.115012 0.000000 0.000000
0.298621 0.000000 0.000000
0.479367 0.000000 0.000000
0.658149 0.000000 0.000000
0.836424 0.000000 0.000000
0.000000 0.179523 0.000000
0.115012 0.179523 0.000000
0.298621 0.179523 0.000000
0.479367 0.179523 0.000000
0.658149 0.179523 0.000000
0.836424 0.179523 0.000000
0.000000 0.373176 0.000000
0.115012 0.373176 0.000000
0.298621 0.373176 0.000000
0.479367 0.373176 0.000000
0.658149 0.373176 0.000000
0.836424 0.373176 0.000000
0.000000 0.548441 0.000000
0.115012 0.548441 0.000000
0.298621 0.548441 0.000000
0.479367 0.548441 0.000000
0.658149 0.548441 0.000000
0.836424 0.548441 0.000000
0.000000 0.713510 0.000000
0.115012 0.713510 0.000000
0.298621 0.713510 0.000000
0.479367 0.713510 0.000000
0.658149 0.713510 0.000000
0.836424 0.713510 0.000000
0.000000 0.870967 0.000000
0.115012 0.870967 0.000000
0.298621 0.870967 0.000000
0.479367 0.870967 0.000000
0.658149 0.870967 0.000000
0.836424 0.870967 0.000000
0.000000 0.000000 0.175789
0.115012 0.000000 0.175789
0.298621 0.000000 0.175789
0.479367 0.000000 0.175789
0.658149 0.000000 0.175789
0.836424 0.000000 0.175789
0.000000 0.179523 0.175789
0.115012 0.179523 0.175789
0.298621 0.179523 0.175789
0.479367 0.179523 0.175789
0.658149 0.179523 0.175789
0.836424 0.179523 0.175789
0.000000 0.373176 0.175789
0.115012 0.373176 0.175789
0.298621 0.373176 0.175789
0.479367 0.373176 0.175789
0.658149 0.373176 0.175789
0.836424 0.373176 0.175789
0.000000 0.548441 0.175789
0.115012 0.548441 0.175789
0.298621 0.548441 0.175789
0.479367 0.548441 0.175789
0.658149 0.548441 0.175789
0.836424 0.548441 0.175789
0.000000 0.713510 0.175789
0.115012 0.713510 0.175789
0.298621 0.713510 0.175789
0.479367 0.713510 0.175789
0.658149 0.713510 0.175789
0.836424 0.713510 0.175789
0.000000 0.870967 0.175789
0.115012 0.870967 0.175789
0.298621 0.870967 0.175789
0.479367 0.870967 0.175789
0.658149 0.870967 0.175789
0.836424 0.870967 0.175789
0.000000 0.000000 0.370111
0.115012 0.000000 0.370111
0.298621 0.000000 0.370111
0.479367 0.000000 0.370111
0.658149 0.000000 0.370111
0.836424 0.000000 0.370111
0.000000 0.179523 0.370111
0.115012 0.179523 0.370111
0.298621 0.179523 0.370111
0.479367 0.179523 0.370111
0.658149 0.179523 0.370111
0.836424 0.179523 0.370111
0.000000 0.373176 0.370111
0.115012 0.373176 0.370111
0.298621 0.373176 0.370111
0.479367 0.373176 0.370111
0.658149 0.373176 0.370111
0.836424 0.373176 0.370111
0.000000 0.548441 0.370111
0.115012 0.548441 0.370111
0.298621 0.548441 0.370111
0.479367 0.548441 0.370111
0.658149 0.548441 0.370111
0.836424 0.548441 0.370111
0.000000 0.713510 0.370111
0.115012 0.713510 0.370111
0.298621 0.713510 0.370111
0.479367 0.713510 0.370111
0.658149 0.713510 0.370111
0.836424 0.713510 0.370111
0.000000 0.870967 0.370111
0.115012 0.870967 0.370111
0.298621 0.870967 0.370111
0.479367 0.870967 0.370111
0.658149 0.870967 0.370111
0.836424 0.870967 0.370111
0.000000 0.000000 0.545789
0.115012 0.000000 0.545789
0.298621 0.000000 0.545789
0.479367 0.000000 0.545789
0.658149 0.000000 0.545789
0.836424 0.000000 0.545789
0.000000 0.179523 0.545789
0.115012 0.179523 0.545789
0.298621 0.179523 0.545789
0.479367 0.179523 0.545789
0.658149 0.179523 0.545789
0.836424 0.179523 0.545789
0.000000 0.373176 0.545789
0.115012 0.373176 0.545789
0.298621 0.373176 0.545789
0.479367 0.373176 0.545789
0.658149 0.373176 0.545789
0.836424 0.373176 0.545789
0.000000 0.548441 0.545789
0.115012 0.548441 0.545789
0.298621 0.548441 0.545789
0.479367 0.548441 0.545789
0.658149 0.548441 0.545789
0.836424 0.548441 0.545789
0.000000 0.713510 0.545789
0.115012 0.713510 0.545789
0.298621 0.713510 0.545789
0.479367 0.713510 0.545789
0.658149 0.713510 0.545789
0.836424 0.713510 0.545789
0.000000 0.870967 0.545789
0.115012 0.870967 0.545789
0.298621 0.870967 0.545789
0.479367 0.870967 0.545789
0.658149 0.870967 0.545789
0.836424 0.870967 0.545789
0.000000 0.000000 0.711025
0.115012 0.000000 0.711025
0.298621 0.000000 0.711025
0.479367 0.000000 0.711025
0.658149 0.000000 0.711025
0.836424 0.000000 0.711025
0.000000 0.179523 0.711025
0.115012 0.179523 0.711025
0.298621 0.179523 0.711025
0.479367 0.179523 0.711025
0.658149 0.179523 0.711025
0.836424 0.179523 0.711025
0.000000 0.373176 0.711025
0.115012 0.373176 0.711025
0.298621 0.373176 0.711025
0.479367 0.373176 0.711025
0.658149 0.373176 0.711025
0.836424 0.373176 0.711025
0.000000 0.548441 0.711025
0.115012 0.548441 0.711025
0.298621 0.548441 0.711025
0.479367 0.548441 0.711025
0.658149 0.548441 0.711025
0.836424 0.548441 0.711025
0.000000 0.713510 0.711025
0.115012 0.713510 0.711025
0.298621 0.713510 0.711025
0.479367 0.713510 0.711025
0.658149 0.713510 0.711025
0.836424 0.713510 0.711025
0.000000 0.870967 0.711025
0.115012 0.870967 0.711025
0.298621 0.870967 0.711025
0.479367 0.870967 0.711025
0.658149 0.870967 0.711025
0.836424 0.870967 0.711025
0.000000 0.000000 0.868779
0.115012 0.000000 0.868779
0.298621 0.000000 0.868779
0.479367 0.000000 0.868779
0.658149 0.000000 0.868779
0.836424 0.000000 0.868779
0.000000 0.179523 0.868779
0.115012 0.179523 0.868779
0.298621 0.179523 0.868779
0.479367 0.179523 0.868779
0.658149 0.179523 0.868779
0.836424 0.179523 0.868779
0.000000 0.373176 0.868779
0.115012 0.373176 0.868779
0.298621 0.373176 0.868779
0.479367 0.373176 0.868779
0.658149 0.373176 0.868779
0.836424 0.373176 0.868779
0.000000 0.548441 0.868779
0.115012 0.548441 0.868779
0.298621 0.548441 0.868779
0.479367 0.548441 0.868779
0.658149 0.548441 0.868779
0.836424 0.548441 0.868779
0.000000 0.713510 0.868779
0.115012 0.713510 0.868779
0.298621 0.713510 0.868779
0.479367 0.713510 0.868779
0.658149 0.713510 0.868779
0.836424 0.713510 0.868779
0.000000 0.870967 0.868779
0.115012 0.870967 0.868779
0.298621 0.870967 0.868779
0.479367 0.870967 0.868779
0.658149 0.870967 0.868779
0.836424 0.870967 0.868779
