example_ofxGpuLutCube/bin/data/ofxGpuLutCube/LUT/T21 (warm teal).cube
LUT_3D_SIZE 16
0.008100 0.008352 0.019863
0.025351 0.009139 0.019086
0.075327 0.010413 0.018374
0.136931 0.014971 0.017567
0.196432 0.021086 0.017870
0.251300 0.028996 0.017974
0.306334 0.038557 0.017445
0.364580 0.048741 0.017032
0.427703 0.060170 0.017617
0.491541 0.073275 0.019003
0.548606 0.085880 0.020689
0.597838 0.096939 0.022577
0.640965 0.106765 0.024566
0.678801 0.115660 0.026545
0.713281 0.124521 0.028618
0.745082 0.133497 0.030697
0.009333 0.014769 0.024658
0.019120 0.015225 0.022950
0.058209 0.016614 0.020179
0.122114 0.022267 0.019071
0.186042 0.030018 0.019110
0.245754 0.039151 0.018828
0.305552 0.049934 0.018078
0.367689 0.061523 0.017593
0.433554 0.074343 0.018472
0.498995 0.088265 0.019958
0.556390 0.101011 0.021656
0.604555 0.111758 0.023425
0.646224 0.121049 0.025177
0.683002 0.129209 0.026896
0.717068 0.137062 0.028607
0.748401 0.144516 0.030315
0.010303 0.027048 0.033176
0.016216 0.029246 0.033648
0.042360 0.031043 0.028134
0.101938 0.035772 0.022006
0.169704 0.044765 0.020471
0.233563 0.054341 0.020034
0.296441 0.065256 0.019292
0.360849 0.076714 0.018510
0.428309 0.089234 0.019005
0.494327 0.102528 0.020119
0.551830 0.114609 0.021561
0.600376 0.125023 0.023135
0.642448 0.134163 0.024799
0.679592 0.142377 0.026501
0.714202 0.150207 0.028219
0.746333 0.157578 0.029894
0.011422 0.053108 0.044396
0.016472 0.055936 0.046008
0.034913 0.061720 0.045628
0.085151 0.063250 0.034570
0.150810 0.068333 0.025765
0.216893 0.078648 0.022241
0.283376 0.088113 0.020423
0.350633 0.097819 0.019274
0.419062 0.109182 0.019381
0.486346 0.121979 0.020252
0.545052 0.133616 0.021420
0.594877 0.143649 0.022864
0.637970 0.152212 0.024457
0.676195 0.159886 0.026138
0.711371 0.167225 0.027831
0.744372 0.174493 0.029560
0.012609 0.088235 0.058031
0.017399 0.089956 0.058945
0.030410 0.094452 0.061221
0.073860 0.103540 0.056061
0.137693 0.104054 0.041611
0.204319 0.106988 0.030299
0.272683 0.117749 0.024601
0.343928 0.127884 0.021120
0.416584 0.137117 0.020129
0.487026 0.148159 0.020913
0.547740 0.159176 0.022045
0.598494 0.168762 0.023356
0.642261 0.176977 0.024812
0.680737 0.184235 0.026416
0.715973 0.190801 0.028130
0.748848 0.197064 0.029913
0.013351 0.126104 0.071803
0.018229 0.125897 0.071456
0.029408 0.128314 0.073717
0.062752 0.138018 0.073691
0.126542 0.149129 0.063870
0.193819 0.146087 0.047473
0.264568 0.148263 0.034407
0.337808 0.159138 0.026408
0.414017 0.170950 0.022647
0.488929 0.181331 0.021912
0.552628 0.190809 0.022705
0.605439 0.199610 0.023951
0.650174 0.207435 0.025372
0.689002 0.214152 0.026940
0.724426 0.220592 0.028658
0.757040 0.226829 0.030505
0.013923 0.165085 0.085024
0.019248 0.163685 0.084038
0.030732 0.164277 0.085636
0.056377 0.172319 0.088184
0.111643 0.187718 0.084213
0.186903 0.199186 0.072218
0.256046 0.190182 0.052398
0.332859 0.191238 0.037138
0.411473 0.203951 0.028992
0.488686 0.218612 0.025699
0.556150 0.230127 0.024797
0.611760 0.238639 0.024951
0.658422 0.245311 0.025818
0.698250 0.251403 0.027234
0.734144 0.257774 0.028909
0.767130 0.264102 0.030754
0.014476 0.207271 0.099659
0.020797 0.205219 0.098330
0.033803 0.204572 0.098999
0.054447 0.210559 0.102144
0.098302 0.224906 0.102767
0.168997 0.243731 0.095787
0.250630 0.251279 0.080341
0.324857 0.238624 0.057811
0.407029 0.240330 0.041743
0.488129 0.254277 0.033541
0.557685 0.270635 0.030714
0.615614 0.284093 0.029722
0.664654 0.293946 0.029573
0.706191 0.301164 0.029991
0.743255 0.307124 0.030652
0.777497 0.313199 0.031784
0.015371 0.253212 0.115706
0.023953 0.250895 0.114214
0.038177 0.249258 0.114061
0.056563 0.253831 0.116598
0.089895 0.266292 0.119817
0.151526 0.285235 0.116951
0.234768 0.307232 0.110193
0.323630 0.310411 0.090795
0.401598 0.293811 0.065211
0.485441 0.296357 0.048537
0.558950 0.311037 0.041504
0.620017 0.328503 0.038821
0.671362 0.345335 0.038455
0.714957 0.358632 0.038772
0.753660 0.368459 0.038764
0.788926 0.375976 0.039018
0.019077 0.303633 0.133678
0.028863 0.301365 0.132316
0.044516 0.299588 0.131692
0.062084 0.302966 0.133108
0.087118 0.313648 0.136889
0.140248 0.332349 0.138970
0.219589 0.356078 0.135320
0.316914 0.379513 0.126971
0.410475 0.375561 0.102674
0.488729 0.357610 0.074752
0.564306 0.360973 0.059796
0.628928 0.375009 0.053284
0.683133 0.393069 0.051404
0.728678 0.412331 0.052328
0.768384 0.429270 0.054141
0.803872 0.442833 0.055817
0.025876 0.357007 0.152976
0.036115 0.355048 0.151773
0.053347 0.353597 0.151176
0.071819 0.357139 0.152028
0.093952 0.367394 0.155888
0.139558 0.385968 0.161561
0.218046 0.410801 0.160346
0.316213 0.439461 0.156822
0.425573 0.460887 0.144269
0.511798 0.444502 0.113928
0.581388 0.428022 0.087779
0.646740 0.432724 0.075230
0.702565 0.446805 0.070714
0.748702 0.464797 0.071056
0.788211 0.483435 0.073389
0.822853 0.500800 0.076289
0.035850 0.412148 0.173771
0.046577 0.411937 0.173548
0.065578 0.411343 0.173088
0.085546 0.415236 0.173416
0.108334 0.426125 0.177110
0.151465 0.445266 0.184509
0.230551 0.471289 0.186042
0.333709 0.502041 0.183244
0.446799 0.532066 0.176980
0.548057 0.540422 0.158856
0.615532 0.515222 0.127616
0.672778 0.503639 0.107307
0.727028 0.510201 0.098535
0.772427 0.522609 0.095720
0.810318 0.537050 0.095877
0.843239 0.551872 0.097235
0.047386 0.466282 0.193258
0.058254 0.467597 0.193945
0.079848 0.468715 0.194823
0.101578 0.473178 0.194615
0.126084 0.484695 0.197836
0.172553 0.505337 0.206083
0.256335 0.533410 0.209509
0.365032 0.565266 0.207289
0.477334 0.595936 0.202652
0.579601 0.614615 0.192040
0.655156 0.604372 0.168313
0.705210 0.580987 0.143557
0.751868 0.573764 0.128550
0.795158 0.579478 0.121993
0.831506 0.589172 0.119620
0.862856 0.600678 0.119571
0.058956 0.515844 0.209972
0.070316 0.518575 0.211451
0.093886 0.521772 0.213983
0.117993 0.527614 0.213892
0.145700 0.539903 0.216956
0.197876 0.562167 0.225400
0.290106 0.591971 0.228996
0.401411 0.623413 0.226591
0.509859 0.652582 0.223828
0.608577 0.674262 0.216996
0.685519 0.674636 0.199586
0.737349 0.656400 0.178089
0.776371 0.637793 0.159584
0.813847 0.633379 0.148707
0.849336 0.638439 0.143559
0.879453 0.646692 0.141924
0.070094 0.561240 0.225479
0.081580 0.564709 0.226746
0.107235 0.569730 0.230528
0.134275 0.576764 0.230686
0.166022 0.590105 0.234126
0.225068 0.613578 0.242322
0.322818 0.643548 0.245513
0.431361 0.672715 0.244059
0.535902 0.699123 0.240570
0.630712 0.719962 0.234214
0.704891 0.727201 0.222835
0.760179 0.719402 0.205914
0.798540 0.700708 0.187903
0.830382 0.686568 0.173985
0.862646 0.684058 0.165939
0.892462 0.688694 0.162347
0.080517 0.601481 0.242018
0.092555 0.605822 0.242230
0.118932 0.611589 0.244841
0.149391 0.619686 0.245185
0.185732 0.633855 0.248920
0.248422 0.657128 0.256451
0.346535 0.685418 0.259012
0.451006 0.712023 0.257672
0.551346 0.736239 0.253506
0.641208 0.756178 0.247854
0.714086 0.768162 0.240646
0.769462 0.766826 0.227730
0.813471 0.756657 0.212067
0.845054 0.739245 0.196471
0.872816 0.727715 0.185679
0.900167 0.726445 0.180278
0.008289 0.009097 0.042448
0.025628 0.009592 0.040278
0.078181 0.010497 0.036098
0.142380 0.014011 0.032252
0.203133 0.019307 0.030103
0.258379 0.026676 0.029106
0.312716 0.035655 0.028001
0.370058 0.045698 0.027135
0.432016 0.056952 0.027524
0.494373 0.069923 0.028883
0.550667 0.082015 0.030630
0.599158 0.092522 0.032644
0.641545 0.102654 0.034812
0.678337 0.111571 0.037064
0.712470 0.121380 0.039601
0.744244 0.132971 0.042383
0.009279 0.015463 0.047274
0.018679 0.016628 0.046432
0.059738 0.018593 0.039878
0.123652 0.025407 0.036585
0.188906 0.034026 0.034130
0.250886 0.043735 0.031912
0.311818 0.054257 0.029936
0.373935 0.065428 0.028669
0.439556 0.077864 0.029247
0.503827 0.090911 0.030563
0.559886 0.102812 0.032145
0.607196 0.113186 0.033926
0.648058 0.122227 0.035733
0.684401 0.130759 0.037581
0.718459 0.139725 0.039652
0.749695 0.147909 0.041848
0.010108 0.030260 0.055203
0.015640 0.032101 0.054968
0.042311 0.035643 0.049292
0.105528 0.041086 0.041408
0.174067 0.050246 0.037668
0.239178 0.060020 0.034514
0.303152 0.070845 0.031937
0.368267 0.082190 0.029765
0.435921 0.094847 0.029707
0.501241 0.107959 0.030746
0.557866 0.119560 0.032123
0.605326 0.129303 0.033670
0.646493 0.137787 0.035269
0.683029 0.145608 0.036991
0.717276 0.153396 0.038838
0.749308 0.160792 0.040711
0.011158 0.058551 0.066009
0.016196 0.060092 0.065173
0.031751 0.064747 0.064279
0.087187 0.068417 0.052745
0.156973 0.073762 0.040940
0.224998 0.082374 0.035834
0.291458 0.090934 0.032589
0.358267 0.100432 0.030142
0.427070 0.112042 0.029623
0.493672 0.124891 0.030487
0.551960 0.136609 0.031760
0.600747 0.146274 0.033243
0.643086 0.154654 0.034907
0.680709 0.162261 0.036641
0.715499 0.169580 0.038398
0.748070 0.176867 0.040270
0.012195 0.095242 0.079431
0.017056 0.095313 0.077193
0.027656 0.097672 0.077529
0.071702 0.106835 0.073519
0.141048 0.108891 0.056444
0.211022 0.112468 0.042861
0.280691 0.121241 0.035774
0.352361 0.129025 0.031461
0.424970 0.137707 0.030122
0.494388 0.148808 0.030878
0.554276 0.159798 0.032087
0.604332 0.169294 0.033571
0.647394 0.177353 0.035190
0.685394 0.184466 0.036939
0.720395 0.191272 0.038793
0.752986 0.197588 0.040694
0.012892 0.133719 0.091971
0.017714 0.132279 0.088822
0.027066 0.132148 0.088461
0.058898 0.140542 0.089867
0.125163 0.152266 0.079096
0.197871 0.150612 0.059826
0.271146 0.152959 0.044875
0.345671 0.162739 0.036057
0.422690 0.171668 0.031946
0.496878 0.180454 0.031573
0.559653 0.189338 0.032654
0.611387 0.197884 0.034077
0.655374 0.205599 0.035710
0.693787 0.212423 0.037507
0.728848 0.219232 0.039406
0.761336 0.225794 0.041421
0.013462 0.173190 0.104101
0.018379 0.170920 0.100571
0.028133 0.169311 0.099581
0.052870 0.175197 0.102962
0.107658 0.190063 0.099711
0.185810 0.202267 0.085001
0.260402 0.194438 0.062913
0.340170 0.195675 0.046126
0.418995 0.207322 0.037534
0.496675 0.219214 0.034191
0.563809 0.227924 0.033657
0.618253 0.234974 0.034503
0.664130 0.241489 0.036038
0.703584 0.247762 0.037800
0.738997 0.254504 0.039724
0.771999 0.261413 0.041783
0.014017 0.215881 0.117781
0.019750 0.213499 0.114339
0.030987 0.211000 0.112825
0.051590 0.214543 0.116026
0.093342 0.227553 0.117224
0.164797 0.245965 0.109225
0.249903 0.255354 0.092090
0.330068 0.242969 0.067055
0.414375 0.243979 0.049552
0.495529 0.257453 0.041078
0.564823 0.272214 0.038353
0.622595 0.282934 0.037458
0.671088 0.290089 0.037544
0.712263 0.295918 0.038345
0.749249 0.301989 0.039710
0.783663 0.308844 0.041593
0.015490 0.262334 0.133065
0.022595 0.260038 0.129987
0.035108 0.257272 0.128303
0.054582 0.259141 0.130466
0.085578 0.269679 0.133431
0.145605 0.287869 0.131371
0.229652 0.309094 0.122132
0.323428 0.314357 0.101546
0.406966 0.298448 0.074162
0.493004 0.299970 0.055901
0.566814 0.314569 0.048510
0.627546 0.331425 0.045886
0.678532 0.345981 0.045206
0.722010 0.356720 0.045233
0.760673 0.364692 0.045334
0.796407 0.372135 0.046171
0.019891 0.313110 0.150273
0.027505 0.311431 0.147791
0.041277 0.308620 0.146163
0.060673 0.309372 0.147202
0.084963 0.318257 0.150266
0.133445 0.335089 0.152949
0.212004 0.357919 0.148068
0.311520 0.381992 0.138799
0.411515 0.380972 0.113568
0.494772 0.362437 0.083434
0.572599 0.365025 0.067006
0.637486 0.379283 0.060338
0.691514 0.397928 0.058826
0.736861 0.416672 0.059963
0.776332 0.431625 0.061542
0.811870 0.443694 0.063074
0.027310 0.366724 0.169326
0.035229 0.366055 0.167516
0.050017 0.363924 0.166281
0.070591 0.364913 0.166903
0.092555 0.373127 0.169653
0.132795 0.389543 0.175061
0.208488 0.413230 0.174372
0.308138 0.441926 0.169505
0.422586 0.465714 0.156875
0.515871 0.452131 0.125602
0.589188 0.434182 0.096934
0.655937 0.438486 0.083560
0.712117 0.453384 0.079533
0.758253 0.472182 0.080438
0.797526 0.491244 0.083357
0.831930 0.507986 0.086156
0.037659 0.421986 0.189680
0.046072 0.423027 0.188779
0.062095 0.422651 0.188728
0.084469 0.424167 0.189298
0.107300 0.432776 0.191745
0.144520 0.449083 0.198092
0.217815 0.473773 0.201333
0.322560 0.504788 0.197646
0.441762 0.536741 0.190357
0.549199 0.548740 0.172972
0.621874 0.524250 0.140248
0.681679 0.512001 0.118530
0.737070 0.518326 0.109364
0.782463 0.531178 0.106871
0.820057 0.546056 0.107421
0.852821 0.561714 0.109328
0.049241 0.475273 0.208813
0.058013 0.477843 0.208443
0.075187 0.479631 0.210130
0.100254 0.482712 0.211879
0.124695 0.491804 0.213845
0.164025 0.509322 0.220954
0.240938 0.535926 0.226177
0.351590 0.568455 0.223275
0.471019 0.600733 0.217481
0.578771 0.622702 0.207658
0.660194 0.615822 0.184250
0.713278 0.591546 0.157751
0.761342 0.583472 0.141721
0.805079 0.589206 0.134910
0.841302 0.599131 0.132593
0.872323 0.611393 0.132825
0.060907 0.524510 0.227792
0.070047 0.527907 0.227133
0.087791 0.531787 0.229626
0.115792 0.537005 0.232983
0.143269 0.546819 0.234720
0.186511 0.565464 0.241869
0.270697 0.594072 0.247246
0.385860 0.626434 0.244027
0.501432 0.657214 0.239769
0.606237 0.680957 0.232484
0.687693 0.684365 0.215807
0.743690 0.667793 0.193657
0.784353 0.648171 0.173921
0.823182 0.643555 0.162377
0.858683 0.648883 0.157371
0.888181 0.657372 0.155757
0.072110 0.569302 0.246291
0.081455 0.573550 0.245064
0.100098 0.578487 0.246742
0.130922 0.585353 0.250842
0.161941 0.596106 0.252660
0.211399 0.615841 0.259292
0.301545 0.644882 0.263172
0.414516 0.675133 0.261075
0.525206 0.702802 0.256357
0.625982 0.725742 0.249463
0.705222 0.735979 0.238785
0.763904 0.730132 0.222068
0.805184 0.711623 0.202877
0.838506 0.696851 0.188094
0.871309 0.694221 0.179945
0.899789 0.698815 0.176422
0.082230 0.609074 0.263340
0.091790 0.614105 0.261416
0.110477 0.619324 0.261124
0.144912 0.626996 0.264697
0.180133 0.638520 0.266591
0.233799 0.658881 0.272617
0.326815 0.686980 0.275802
0.434671 0.714608 0.274548
0.539837 0.739962 0.269303
0.634693 0.761543 0.263116
0.712261 0.775121 0.255519
0.770671 0.775685 0.243399
0.818177 0.767258 0.227982
0.851306 0.749431 0.211539
0.879353 0.736999 0.200063
0.906332 0.735135 0.194296
0.008415 0.010443 0.071758
0.023225 0.010754 0.069261
0.074581 0.011256 0.064838
0.147784 0.014712 0.060509
0.209896 0.019776 0.055972
0.265446 0.025976 0.050885
0.320191 0.032670 0.046406
0.376394 0.039665 0.043782
0.436031 0.048439 0.042855
0.495017 0.059382 0.043466
0.549009 0.071055 0.044963
0.595931 0.081700 0.046885
0.636908 0.091411 0.049037
0.673221 0.100569 0.051399
0.707314 0.110346 0.054155
0.739379 0.122254 0.056939
0.009290 0.020896 0.079350
0.016756 0.021292 0.079832
0.054854 0.021142 0.071244
0.128704 0.024916 0.061952
0.195038 0.031959 0.057152
0.256534 0.040583 0.052263
0.316560 0.050686 0.048092
0.377854 0.061129 0.045024
0.442204 0.072371 0.043861
0.504772 0.084494 0.044415
0.559856 0.096236 0.045594
0.606150 0.106790 0.047155
0.646174 0.116022 0.048905
0.681963 0.124847 0.050938
0.715816 0.134946 0.053409
0.747274 0.145772 0.056256
0.009888 0.036468 0.085911
0.014947 0.037524 0.087109
0.036337 0.042531 0.085547
0.104661 0.046835 0.071217
0.170750 0.056474 0.065195
0.235488 0.068819 0.061560
0.301421 0.079947 0.056026
0.369392 0.090548 0.049301
0.438926 0.101978 0.045652
0.505103 0.113885 0.045086
0.561649 0.124551 0.045844
0.608473 0.133739 0.047141
0.648973 0.141679 0.048695
0.685235 0.149290 0.050537
0.719122 0.157284 0.052735
0.750716 0.165285 0.055086
0.010655 0.066607 0.098385
0.015468 0.067032 0.097233
0.026145 0.069893 0.095608
0.081213 0.077242 0.084890
0.153899 0.084143 0.073813
0.221118 0.092988 0.067368
0.289070 0.101771 0.060327
0.358804 0.110610 0.052727
0.429919 0.121074 0.047271
0.498457 0.132837 0.045635
0.557589 0.143660 0.045910
0.606259 0.152639 0.046956
0.647975 0.160209 0.048339
0.684941 0.167021 0.049892
0.719144 0.174252 0.051858
0.751111 0.181517 0.054040
0.011523 0.106053 0.113339
0.016301 0.104966 0.109710
0.024325 0.103850 0.105682
0.062178 0.110470 0.101289
0.136598 0.116478 0.086336
0.210601 0.121096 0.070794
0.282237 0.128134 0.061121
0.354996 0.134187 0.052660
0.428374 0.142564 0.047444
0.499054 0.153582 0.046039
0.559818 0.164398 0.046250
0.609878 0.173564 0.047279
0.652683 0.181177 0.048666
0.690288 0.187914 0.050272
0.724747 0.194353 0.052101
0.756662 0.200732 0.054437
0.012174 0.146030 0.126245
0.016950 0.143467 0.120947
0.024642 0.139738 0.114980
0.050440 0.142993 0.114061
0.116001 0.155327 0.106976
0.195611 0.157207 0.085849
0.272915 0.159933 0.065825
0.349415 0.167308 0.054692
0.427209 0.173170 0.048226
0.501956 0.181281 0.046345
0.564935 0.190528 0.046740
0.616419 0.199214 0.047833
0.660132 0.206835 0.049301
0.698398 0.213563 0.050956
0.733045 0.220249 0.052874
0.765208 0.226996 0.055277
0.012710 0.186439 0.138042
0.017847 0.182985 0.131848
0.025806 0.178124 0.124717
0.045820 0.178594 0.124586
0.096722 0.190882 0.124859
0.176823 0.205270 0.111366
0.259254 0.200326 0.084272
0.342364 0.201468 0.062832
0.422685 0.211264 0.052655
0.502044 0.219429 0.048056
0.569434 0.226467 0.047200
0.623488 0.233188 0.048080
0.668869 0.239646 0.049454
0.708068 0.246152 0.051229
0.743240 0.253074 0.053309
0.776210 0.260382 0.055566
0.013589 0.229035 0.150175
0.019832 0.225781 0.143945
0.028086 0.220803 0.136411
0.045146 0.219178 0.135496
0.082969 0.228660 0.139514
0.152371 0.246319 0.134789
0.242389 0.258848 0.114296
0.329858 0.248284 0.084228
0.417416 0.248528 0.062924
0.499485 0.260622 0.053232
0.569881 0.272856 0.050224
0.628010 0.280644 0.049189
0.676248 0.286146 0.049460
0.717306 0.291523 0.050750
0.754308 0.297743 0.052693
0.788975 0.305525 0.055290
0.016384 0.275325 0.163524
0.023018 0.272497 0.157800
0.031702 0.268263 0.150717
0.048673 0.266081 0.149507
0.077165 0.272608 0.153934
0.132547 0.288675 0.154487
0.216834 0.309567 0.144132
0.316927 0.319020 0.120322
0.407978 0.303595 0.088448
0.497006 0.304203 0.067341
0.571895 0.318201 0.058736
0.633066 0.333742 0.055729
0.684488 0.345406 0.054425
0.728277 0.353325 0.054042
0.766725 0.359861 0.054578
0.802598 0.367441 0.056517
0.021352 0.325374 0.178779
0.028294 0.323591 0.174027
0.037495 0.320670 0.167850
0.055087 0.318678 0.166567
0.079954 0.323781 0.170240
0.121998 0.337467 0.173485
0.197174 0.358366 0.169700
0.298702 0.382950 0.157244
0.407834 0.387054 0.130397
0.497278 0.368059 0.096639
0.578071 0.369798 0.077666
0.644183 0.384194 0.070030
0.698688 0.402898 0.068194
0.744044 0.419738 0.068635
0.783636 0.432433 0.069596
0.819317 0.443419 0.071049
0.029329 0.378567 0.196757
0.036542 0.378332 0.193020
0.046327 0.377290 0.188119
0.065192 0.376165 0.187214
0.089269 0.380985 0.190160
0.124677 0.394160 0.194938
0.193077 0.415087 0.196267
0.292797 0.442910 0.188848
0.412978 0.469714 0.174928
0.516144 0.461202 0.142656
0.593644 0.441079 0.110085
0.662315 0.444559 0.094893
0.719631 0.460146 0.090360
0.766256 0.479569 0.091173
0.805535 0.498221 0.093771
0.840219 0.514163 0.096094
0.040051 0.433183 0.216291
0.047745 0.434689 0.213426
0.058423 0.435954 0.210184
0.078872 0.436750 0.210878
0.104466 0.441886 0.213686
0.137681 0.454682 0.218695
0.201808 0.476450 0.223684
0.303966 0.506161 0.219920
0.430347 0.539482 0.208589
0.545042 0.556159 0.191086
0.624639 0.534266 0.156954
0.687102 0.520100 0.132322
0.744215 0.525988 0.121829
0.790496 0.539289 0.118908
0.828505 0.554988 0.119559
0.861540 0.571421 0.121701
0.051972 0.485883 0.235754
0.059956 0.488534 0.233189
0.071343 0.491354 0.230869
0.093708 0.494210 0.233690
0.121512 0.500707 0.237131
0.156432 0.514300 0.242177
0.223166 0.537804 0.248512
0.331259 0.569665 0.245920
0.458111 0.603426 0.236354
0.573032 0.629113 0.226161
0.660710 0.626737 0.203225
0.717648 0.601877 0.174296
0.767447 0.592581 0.156593
0.812470 0.598187 0.149034
0.849545 0.608933 0.146683
0.880636 0.622289 0.147204
0.063863 0.534730 0.254937
0.071922 0.537911 0.252075
0.083750 0.541820 0.249326
0.107885 0.546662 0.253943
0.139271 0.554699 0.258501
0.177561 0.569285 0.263670
0.249173 0.594724 0.270305
0.363425 0.627061 0.267582
0.487372 0.659375 0.258900
0.598630 0.685498 0.250719
0.685325 0.692632 0.234894
0.746382 0.679213 0.212545
0.789587 0.658890 0.191128
0.830082 0.653811 0.178484
0.866538 0.659337 0.173056
0.895665 0.668419 0.171341
0.075040 0.579008 0.273842
0.083196 0.582883 0.270576
0.095860 0.587148 0.267218
0.121948 0.592938 0.271464
0.157082 0.602389 0.276919
0.200529 0.618360 0.281893
0.278515 0.644849 0.286796
0.392469 0.675434 0.283359
0.510742 0.704998 0.275908
0.617353 0.730119 0.268315
0.702041 0.743292 0.257784
0.764674 0.740128 0.241317
0.809542 0.722937 0.221352
0.844661 0.707450 0.205389
0.878541 0.704637 0.196655
0.906002 0.709253 0.192875
0.084756 0.617780 0.290092
0.092955 0.622069 0.286312
0.106059 0.626813 0.282254
0.135173 0.632977 0.285563
0.174196 0.643322 0.291077
0.221347 0.660106 0.295681
0.304579 0.686511 0.298760
0.414422 0.715038 0.295535
0.525102 0.742006 0.289316
0.624930 0.765374 0.282535
0.707083 0.780908 0.274489
0.769391 0.783884 0.262782
0.820553 0.777488 0.247670
0.855793 0.759660 0.230408
0.884522 0.746483 0.217775
0.911694 0.744025 0.211196
0.008453 0.015089 0.105067
0.020063 0.012994 0.101298
0.059991 0.012691 0.095064
0.137776 0.016196 0.091569
0.211866 0.021804 0.088853
0.270716 0.027842 0.086558
0.325823 0.034532 0.082272
0.381709 0.041347 0.074374
0.439996 0.048491 0.067481
0.496990 0.056394 0.063413
0.548609 0.064755 0.063185
0.593340 0.072479 0.064662
0.632048 0.079180 0.066619
0.666715 0.085588 0.069225
0.698826 0.092509 0.071951
0.730146 0.103692 0.074564
0.009264 0.033311 0.116362
0.015269 0.029650 0.115326
0.041286 0.025745 0.107123
0.117531 0.026765 0.095878
0.199527 0.033468 0.091349
0.264443 0.039667 0.087436
0.323260 0.046053 0.080305
0.381884 0.053684 0.071931
0.442918 0.062809 0.065637
0.502397 0.072986 0.063189
0.554957 0.083086 0.063166
0.599528 0.092742 0.063939
0.638758 0.102084 0.065485
0.674615 0.111780 0.067225
0.709044 0.123133 0.069351
0.741321 0.135202 0.071951
0.009839 0.051736 0.123705
0.014656 0.050834 0.124384
0.028697 0.051827 0.123889
0.092367 0.050491 0.108013
0.174582 0.054569 0.094584
0.239696 0.062834 0.088284
0.302367 0.073631 0.082299
0.368820 0.084632 0.073557
0.437731 0.096254 0.066041
0.503575 0.107845 0.062556
0.559905 0.118377 0.061545
0.606346 0.127654 0.062232
0.646511 0.135819 0.063659
0.682451 0.144156 0.065543
0.716015 0.153377 0.067936
0.747990 0.163370 0.070811
0.010447 0.077451 0.133493
0.015071 0.076582 0.132963
0.023549 0.077473 0.132585
0.067391 0.085274 0.127131
0.149662 0.090134 0.108359
0.213490 0.098296 0.099759
0.278472 0.110669 0.094829
0.349791 0.122206 0.087367
0.424197 0.132263 0.078086
0.496219 0.142434 0.071690
0.557568 0.151334 0.067763
0.607546 0.158876 0.065816
0.649757 0.165506 0.065418
0.686383 0.171984 0.066407
0.720167 0.179184 0.068291
0.751972 0.186576 0.070538
0.011124 0.117070 0.150852
0.015594 0.115439 0.148163
0.022708 0.113013 0.143911
0.049088 0.116047 0.139022
0.122469 0.125474 0.124956
0.200614 0.131980 0.111709
0.269378 0.140705 0.104449
0.343192 0.149202 0.095262
0.420458 0.157469 0.084543
0.495472 0.166711 0.075982
0.559217 0.175685 0.070959
0.611335 0.183410 0.068603
0.655101 0.189910 0.067533
0.692673 0.195613 0.068029
0.726896 0.201325 0.069503
0.758619 0.207406 0.071674
0.011765 0.158877 0.166598
0.016437 0.156641 0.162238
0.023722 0.151845 0.155131
0.041376 0.149428 0.148758
0.097302 0.158513 0.141818
0.183326 0.165495 0.125052
0.263399 0.170905 0.108706
0.341430 0.177848 0.097035
0.421194 0.182835 0.085236
0.498430 0.190269 0.076005
0.563890 0.198940 0.071347
0.617349 0.207028 0.069014
0.662065 0.214074 0.068430
0.700545 0.220304 0.069257
0.735241 0.226480 0.070788
0.767391 0.233005 0.073009
0.012529 0.200678 0.179917
0.018204 0.197990 0.174465
0.025545 0.191894 0.165608
0.039266 0.187061 0.158140
0.080349 0.192294 0.155977
0.158223 0.207048 0.148221
0.248985 0.208509 0.124752
0.336418 0.211257 0.098767
0.419295 0.218249 0.084380
0.500698 0.222776 0.074457
0.569234 0.229062 0.069689
0.624420 0.236412 0.068485
0.670354 0.243283 0.068846
0.709834 0.250022 0.070025
0.745122 0.256920 0.071748
0.778160 0.264366 0.074226
0.014781 0.243601 0.191909
0.020861 0.241144 0.186000
0.028176 0.235250 0.176437
0.040091 0.229118 0.167876
0.070013 0.231046 0.167461
0.132719 0.244991 0.166919
0.224400 0.261604 0.153522
0.321691 0.256089 0.120555
