example_ofxGpuLutCube/bin/data/ofxGpuLutCube/LUT/T21 (warm teal).cube
LUT_3D_SIZE 6
0.008100 0.008352 0.019863
0.136931 0.014971 0.017567
0.306334 0.038557 0.017445
0.491541 0.073275 0.019003
0.640965 0.106765 0.024566
0.745082 0.133497 0.030697
0.011422 0.053108 0.044396
0.085151 0.063250 0.034570
0.283376 0.088113 0.020423
0.486346 0.121979 0.020252
0.637970 0.152212 0.024457
0.744372 0.174493 0.029560
0.013923 0.165085 0.085024
0.056377 0.172319 0.088184
0.256046 0.190182 0.052398
0.488686 0.218612 0.025699
0.658422 0.245311 0.025818
0.767130 0.264102 0.030754
0.019077 0.303633 0.133678
0.062084 0.302966 0.133108
0.219589 0.356078 0.135320
0.488729 0.357610 0.074752
0.683133 0.393069 0.051404
0.803872 0.442833 0.055817
0.047386 0.466282 0.193258
0.101578 0.473178 0.194615
0.256335 0.533410 0.209509
0.579601 0.614615 0.192040
0.751868 0.573764 0.128550
0.862856 0.600678 0.119571
0.080517 0.601481 0.242018
0.149391 0.619686 0.245185
0.346535 0.685418 0.259012
0.641208 0.756178 0.247854
0.813471 0.756657 0.212067
0.900167 0.726445 0.180278
0.008453 0.015089 0.105067
0.137776 0.016196 0.091569
0.325823 0.034532 0.082272
0.496990 0.056394 0.063413
0.632048 0.079180 0.066619
0.730146 0.103692 0.074564
0.010447 0.077451 0.133493
0.067391 0.085274 0.127131
0.278472 0.110669 0.094829
0.496219 0.142434 0.071690
0.649757 0.165506 0.065418
0.751972 0.186576 0.070538
0.012529 0.200678 0.179917
0.039266 0.187061 0.158140
0.248985 0.208509 0.124752
0.500698 0.222776 0.074457
0.670354 0.243283 0.068846
0.778160 0.264366 0.074226
0.024402 0.339494 0.218143
0.049581 0.330428 0.195921
0.175391 0.356717 0.201289
0.493045 0.374000 0.116853
0.700515 0.406822 0.081079
0.823550 0.440736 0.083276
0.055689 0.498261 0.273559
0.086722 0.504572 0.259040
0.205209 0.537813 0.275396
0.559498 0.630618 0.247882
0.768442 0.599672 0.174546
0.885745 0.631278 0.163346
0.087981 0.628095 0.324217
0.124910 0.638341 0.307508
0.281749 0.684854 0.329150
0.611775 0.766032 0.303416
0.819543 0.785509 0.269319
0.915543 0.752709 0.230752
0.008669 0.063915 0.215981
0.084155 0.020440 0.175321
0.308892 0.044369 0.176854
0.504445 0.069443 0.166594
0.631604 0.081469 0.155265
0.718245 0.094783 0.151109
0.010634 0.141723 0.249424
0.036440 0.124659 0.244356
0.256315 0.103488 0.187414
0.489794 0.123154 0.158547
0.630907 0.133510 0.134723
0.731500 0.160552 0.123840
0.015786 0.229668 0.282311
0.038459 0.222093 0.275569
0.176633 0.233499 0.260606
0.464940 0.249720 0.196577
0.656248 0.280954 0.177118
0.773308 0.297242 0.170474
0.032353 0.370733 0.326926
0.057198 0.374941 0.318062
0.117819 0.366696 0.298220
0.455291 0.408427 0.250080
0.691300 0.426894 0.190746
0.826080 0.445851 0.182485
0.065884 0.530562 0.387346
0.093889 0.542865 0.377248
0.158525 0.549772 0.363758
0.469454 0.622507 0.369806
0.759180 0.629239 0.271897
0.893755 0.660927 0.231878
0.097955 0.659416 0.448614
0.127476 0.669497 0.428757
0.216796 0.685270 0.413430
0.545966 0.764625 0.423190
0.805358 0.807246 0.353371
0.921069 0.778716 0.293496
0.011336 0.136840 0.357537
0.067423 0.053580 0.300755
0.219146 0.049246 0.283141
0.480346 0.089228 0.283307
0.630850 0.112621 0.273170
0.717488 0.126898 0.276744
0.016077 0.219503 0.389632
0.039935 0.194980 0.390395
0.153128 0.119694 0.325098
0.453297 0.135676 0.284127
0.630024 0.157976 0.265072
0.718447 0.168611 0.259171
0.024329 0.291187 0.411520
0.048891 0.292523 0.418833
0.107972 0.281644 0.415501
0.406421 0.244881 0.321184
0.641382 0.263567 0.279926
0.745756 0.273157 0.268896
0.036057 0.379849 0.430790
0.064081 0.395261 0.444272
0.111105 0.404038 0.450212
0.341023 0.433706 0.437865
0.655849 0.457055 0.370008
0.807535 0.491798 0.365979
0.073183 0.547666 0.511114
0.105829 0.575797 0.525712
0.146799 0.593063 0.529154
0.318217 0.616461 0.521938
0.715335 0.684532 0.484891
0.889973 0.698495 0.446624
0.106863 0.683725 0.581309
0.137814 0.703426 0.582400
0.183440 0.714723 0.567763
0.408446 0.753084 0.562160
0.751511 0.831291 0.549085
0.920328 0.823947 0.490826
0.022863 0.193308 0.474952
0.074459 0.098846 0.415872
0.209220 0.068083 0.377643
0.392042 0.094110 0.370828
0.617017 0.130877 0.370097
0.717778 0.144682 0.360373
0.026297 0.281775 0.503774
0.051948 0.248536 0.502752
0.125585 0.155626 0.442142
0.339645 0.131674 0.375735
0.605703 0.170055 0.368590
0.722519 0.189215 0.356616
0.035829 0.348516 0.518995
0.060337 0.348349 0.528710
0.103167 0.334363 0.531691
0.303608 0.247135 0.436993
0.608075 0.264589 0.382478
0.751546 0.290079 0.372755
0.046351 0.422040 0.531163
0.073658 0.435973 0.547088
0.109827 0.451785 0.562118
0.252268 0.463834 0.567146
0.609702 0.455471 0.472920
0.793301 0.480401 0.444017
0.074306 0.544643 0.586841
0.107088 0.573210 0.610624
0.151446 0.599249 0.630663
0.284811 0.634293 0.653789
0.646931 0.709183 0.646739
0.866427 0.727666 0.614395
0.113400 0.695148 0.669362
0.146371 0.721444 0.686357
0.194032 0.743837 0.697727
0.311878 0.770818 0.704543
0.638901 0.828125 0.691450
0.903807 0.878850 0.665892
0.031230 0.243644 0.563313
0.090462 0.128075 0.493533
0.225100 0.088639 0.446974
0.373341 0.104563 0.433123
0.572761 0.140272 0.433541
0.711920 0.161579 0.429761
0.035822 0.326365 0.584451
0.061327 0.284689 0.580471
0.131892 0.181794 0.514233
0.321491 0.142280 0.441101
0.533379 0.173760 0.432514
0.710513 0.201394 0.428962
0.045697 0.391120 0.596334
0.069063 0.384640 0.603112
0.108374 0.360879 0.603257
0.272022 0.260260 0.511806
0.516582 0.263158 0.456249
0.738920 0.293093 0.443579
0.057222 0.465095 0.608729
0.083317 0.474444 0.621305
0.119075 0.487904 0.635646
0.230188 0.485929 0.639315
0.529060 0.446835 0.552144
0.781773 0.468944 0.504481
0.080444 0.565385 0.652968
0.110445 0.586765 0.673543
0.155164 0.611764 0.694378
0.267686 0.648398 0.722730
0.572325 0.705174 0.725707
0.840940 0.718066 0.668588
0.112443 0.686264 0.717100
0.145680 0.711200 0.737445
0.194989 0.736010 0.756169
0.296803 0.770322 0.781431
0.529188 0.825907 0.806749
0.869571 0.903700 0.785812
