example_ofxGpuLutCube/bin/data/ofxGpuLutCube/LUT/T22 (high contrast).cube
LUT_3D_SIZE 6
-0.026513 -0.026513 -0.026513
0.065463 -0.025009 -0.026258
0.252336 -0.019820 -0.025377
0.535859 -0.001819 -0.022321
0.813257 0.058531 -0.011714
1.007001 0.199265 0.024707
-0.027776 0.061054 -0.011265
0.064207 0.062581 -0.011009
0.251803 0.067723 -0.010129
0.535647 0.084228 -0.007073
0.813211 0.131315 0.003534
1.006993 0.243144 0.039956
-0.032137 0.243936 0.039060
0.059777 0.244587 0.039343
0.249957 0.246822 0.040315
0.534913 0.254447 0.043636
0.813050 0.279524 0.054091
1.006964 0.352648 0.087329
-0.047265 0.523395 0.172729
0.046348 0.523661 0.172868
0.243460 0.524577 0.173344
0.532351 0.527727 0.174987
0.812492 0.538334 0.180611
1.006864 0.571252 0.199028
-0.099786 0.803592 0.398728
-0.005396 0.803652 0.398794
0.219678 0.803856 0.399023
0.523222 0.804561 0.399817
0.810536 0.806984 0.402557
1.006515 0.815000 0.411805
-0.280118 1.000905 0.686166
-0.185728 1.000916 0.686184
0.114218 1.000952 0.686248
0.488932 1.001080 0.686467
0.803604 1.001522 0.687228
1.005307 1.003022 0.689814
-0.023732 -0.022065 0.053130
0.068185 -0.020562 0.053384
0.253505 -0.015373 0.054260
0.536325 0.002629 0.055569
0.813360 0.062889 0.066395
1.007020 0.201423 0.098390
-0.024996 0.065522 0.066827
0.066954 0.066999 0.067077
0.252974 0.071980 0.067933
0.536113 0.088044 0.070865
0.813313 0.134262 0.080600
1.007011 0.245032 0.110114
-0.029357 0.245857 0.111117
0.062617 0.246503 0.111306
0.251135 0.248724 0.111957
0.535381 0.256301 0.114197
0.813153 0.281236 0.121769
1.006982 0.353989 0.145777
-0.044485 0.524181 0.215845
0.049142 0.524446 0.215965
0.244665 0.525360 0.216377
0.532824 0.528499 0.217802
0.812595 0.539070 0.222693
1.006882 0.571882 0.238877
-0.097006 0.803767 0.423226
-0.002616 0.803826 0.423289
0.220988 0.804030 0.423506
0.523714 0.804735 0.424256
0.810640 0.807155 0.426848
1.006534 0.815161 0.435588
-0.277338 1.000937 0.697036
-0.182948 1.000947 0.697054
0.116346 1.000984 0.697115
0.489498 1.001112 0.697328
0.803714 1.001554 0.698066
1.005326 1.003053 0.700572
-0.014138 -0.006717 0.224975
0.077192 -0.005214 0.225093
0.257505 -0.000025 0.225501
0.537924 0.017977 0.226909
0.813712 0.076980 0.231742
1.007083 0.208742 0.247747
-0.015401 0.079917 0.231944
0.076037 0.081254 0.232060
0.256981 0.085782 0.232457
0.537714 0.100562 0.233831
0.813665 0.144122 0.238549
1.007074 0.251455 0.254195
-0.019762 0.252391 0.254774
0.071980 0.253024 0.254881
0.255166 0.255197 0.255248
0.536988 0.262615 0.256520
0.813505 0.287075 0.260893
1.007046 0.358582 0.275457
-0.034890 0.526874 0.323099
0.057583 0.527137 0.323186
0.248784 0.528039 0.323485
0.534449 0.531142 0.324519
0.812949 0.541592 0.327975
1.006946 0.574040 0.339873
-0.087411 0.804370 0.486354
0.006979 0.804429 0.486405
0.225462 0.804631 0.486582
0.525405 0.805333 0.487196
0.810999 0.807743 0.489316
1.006597 0.815716 0.496464
-0.267743 1.001046 0.719698
-0.173353 1.001056 0.719714
0.123484 1.001093 0.719769
0.491441 1.001220 0.719962
0.804091 1.001662 0.720627
1.005390 1.003160 0.722893
0.019148 0.046148 0.494074
0.104879 0.045447 0.494125
0.270987 0.051029 0.494301
0.543386 0.068733 0.494910
0.814927 0.118137 0.497012
1.007302 0.232735 0.504102
0.017884 0.121675 0.497101
0.103907 0.122726 0.497151
0.270485 0.126309 0.497325
0.543181 0.138261 0.497927
0.814881 0.175248 0.500005
1.007294 0.272752 0.507011
0.013523 0.274022 0.507275
0.100508 0.274612 0.507324
0.268749 0.276639 0.507490
0.542472 0.283573 0.508068
0.814722 0.306562 0.510063
1.007265 0.373932 0.516790
-0.001605 0.535977 0.539526
0.088155 0.536229 0.539569
0.262647 0.537096 0.539714
0.539996 0.540077 0.540216
0.814170 0.550120 0.541953
1.007166 0.581347 0.547814
-0.054126 0.806439 0.623491
0.039849 0.806497 0.623519
0.240447 0.806697 0.623613
0.531176 0.807389 0.623939
0.812238 0.809764 0.625065
1.006818 0.817626 0.628877
-0.234457 1.001422 0.773489
-0.140067 1.001433 0.773500
0.146232 1.001469 0.773541
0.498072 1.001597 0.773683
0.805392 1.002036 0.774172
1.005615 1.003527 0.775842
0.118665 0.176637 0.780267
0.178116 0.177438 0.780279
0.313818 0.180180 0.780320
0.561329 0.189467 0.780461
0.819062 0.219366 0.780949
1.008060 0.303870 0.782614
0.117788 0.223636 0.780970
0.177430 0.224320 0.780982
0.313377 0.226670 0.781022
0.561141 0.234675 0.781163
0.819018 0.260881 0.781649
1.008052 0.337055 0.783306
0.114731 0.339177 0.783369
0.175050 0.339653 0.783381
0.311852 0.341292 0.783421
0.560490 0.346893 0.783559
0.818864 0.365347 0.784037
1.008024 0.423416 0.785668
0.103722 0.564902 0.791399
0.166602 0.565122 0.791410
0.306510 0.565879 0.791448
0.558215 0.568484 0.791579
0.818328 0.577271 0.792031
1.007925 0.604724 0.793576
0.059460 0.813395 0.816213
0.134512 0.813450 0.816222
0.287270 0.813640 0.816254
0.550118 0.814299 0.816364
0.816453 0.816560 0.816744
1.007581 0.824054 0.818042
-0.118899 1.002718 0.877678
-0.024509 1.002728 0.877684
0.210402 1.002764 0.877703
0.519795 1.002889 0.877771
0.809816 1.003322 0.878008
1.006388 1.004791 0.878818
0.303377 0.401535 0.986107
0.338186 0.401923 0.986109
0.427947 0.403261 0.986117
0.612960 0.407860 0.986143
0.832381 0.423345 0.986232
1.010612 0.471147 0.986537
0.302938 0.428228 0.986235
0.337789 0.428592 0.986238
0.427635 0.429847 0.986245
0.612816 0.434159 0.986271
0.832341 0.448665 0.986359
1.010604 0.493404 0.986664
0.301418 0.496888 0.986676
0.336418 0.497178 0.986678
0.426555 0.498177 0.986685
0.612320 0.501610 0.986711
0.832201 0.513162 0.986799
1.010576 0.548922 0.987103
0.296092 0.640391 0.988187
0.331814 0.640536 0.988189
0.422781 0.641035 0.988197
0.610587 0.642754 0.988222
0.831716 0.648582 0.988309
1.010480 0.666885 0.988607
0.276920 0.834919 0.993243
0.314273 0.834966 0.993245
0.409336 0.835129 0.993252
0.604437 0.835691 0.993275
0.830018 0.837624 0.993357
1.010146 0.844055 0.993639
0.200489 1.007021 1.008667
0.246095 1.007031 1.008668
0.359313 1.007066 1.008674
0.581605 1.007184 1.008694
0.824020 1.007596 1.008763
1.008990 1.008993 1.008998
