example_ofxGpuLutCube/bin/data/ofxGpuLutCube/LUT/T22 (high contrast).cube
LUT_3D_SIZE 16
-0.026513 -0.026513 -0.026513
-0.006160 -0.026200 -0.026460
0.023688 -0.025726 -0.026379
0.065463 -0.025009 -0.026258
0.120045 -0.023926 -0.026074
0.181337 -0.022290 -0.025796
0.252336 -0.019820 -0.025377
0.335679 -0.016093 -0.024744
0.430672 -0.010432 -0.023783
0.535859 -0.001819 -0.022321
0.636432 0.011212 -0.020110
0.727610 0.030912 -0.016766
0.813257 0.058531 -0.011714
0.887795 0.097558 -0.004085
0.952125 0.143919 0.007430
1.007001 0.199265 0.024707
-0.026776 -0.007083 -0.023337
-0.006423 -0.006770 -0.023284
0.023425 -0.006296 -0.023204
0.065202 -0.005580 -0.023082
0.119857 -0.004497 -0.022898
0.181194 -0.002860 -0.022621
0.252225 -0.000391 -0.022201
0.335593 0.003336 -0.021569
0.430607 0.008998 -0.020608
0.535815 0.017611 -0.019146
0.636405 0.030641 -0.016934
0.727593 0.049244 -0.013591
0.813248 0.076849 -0.008538
0.887790 0.112519 -0.000909
0.952122 0.156272 0.010605
1.006999 0.209546 0.027883
-0.027174 0.021367 -0.018532
-0.006821 0.021680 -0.018479
0.023027 0.022154 -0.018398
0.064807 0.022871 -0.018277
0.119572 0.023954 -0.018093
0.180977 0.025590 -0.017815
0.252057 0.028060 -0.017396
0.335461 0.031787 -0.016763
0.430509 0.036726 -0.015803
0.535748 0.045522 -0.014341
0.636365 0.056896 -0.012129
0.727568 0.075867 -0.008785
0.813233 0.100680 -0.003733
0.887781 0.132619 0.003896
0.952118 0.173148 0.015410
1.006997 0.223676 0.032688
-0.027776 0.061054 -0.011265
-0.007423 0.061373 -0.011211
0.022424 0.061856 -0.011131
0.064207 0.062581 -0.011009
0.119139 0.063671 -0.010825
0.180649 0.065300 -0.010548
0.251803 0.067723 -0.010129
0.335263 0.071300 -0.009496
0.430359 0.076566 -0.008535
0.535647 0.084228 -0.007073
0.636305 0.095146 -0.004862
0.727529 0.110411 -0.001518
0.813211 0.131315 0.003534
0.887769 0.159328 0.011164
0.952110 0.196086 0.022678
1.006993 0.243144 0.039956
-0.028687 0.114554 -0.000281
-0.008334 0.114785 -0.000227
0.021514 0.115133 -0.000147
0.063294 0.115658 -0.000025
0.118484 0.116449 0.000158
0.180152 0.117638 0.000436
0.251419 0.119418 0.000855
0.334963 0.122073 0.001488
0.430133 0.126035 0.002449
0.535494 0.131910 0.003911
0.636214 0.140481 0.006122
0.727471 0.152805 0.009466
0.813177 0.170211 0.014518
0.887750 0.194299 0.022147
0.952100 0.226896 0.033662
1.006987 0.269800 0.048737
-0.030062 0.174514 0.016311
-0.009709 0.174689 0.016364
0.020139 0.174953 0.016444
0.061904 0.175353 0.016566
0.117489 0.175956 0.016750
0.179400 0.176863 0.017027
0.250837 0.178226 0.017447
0.334509 0.180268 0.018079
0.429792 0.183338 0.019040
0.535263 0.187934 0.020502
0.636076 0.194728 0.022714
0.727383 0.204665 0.026057
0.813127 0.219003 0.031110
0.887721 0.239340 0.038739
0.952083 0.267608 0.048088
1.006978 0.305823 0.065342
-0.032137 0.243936 0.039060
-0.011784 0.244071 0.039119
0.018064 0.244277 0.039208
0.059777 0.244587 0.039343
0.115978 0.245054 0.039546
0.178260 0.245760 0.039853
0.249957 0.246822 0.040315
0.333823 0.248417 0.041009
0.429276 0.250823 0.042057
0.534913 0.254447 0.043636
0.635867 0.259846 0.045995
0.727250 0.267832 0.049492
0.813050 0.279524 0.054091
0.887677 0.296415 0.061705
0.952059 0.320412 0.072471
1.006964 0.352648 0.087329
-0.035269 0.325433 0.075923
-0.014916 0.325539 0.075970
0.014932 0.325699 0.076040
0.056499 0.325942 0.076148
0.113674 0.326308 0.076309
0.176530 0.326860 0.076553
0.248624 0.327693 0.076921
0.332785 0.328945 0.077474
0.428496 0.330839 0.078310
0.534386 0.333701 0.079574
0.635552 0.337987 0.081466
0.727049 0.344061 0.084286
0.812935 0.352809 0.088455
0.887612 0.366131 0.094561
0.952022 0.385475 0.103392
1.006943 0.412910 0.115900
-0.040027 0.418736 0.120137
-0.019674 0.418816 0.120173
0.010174 0.418938 0.120228
0.053580 0.419121 0.120311
0.110116 0.419399 0.120437
0.173877 0.419818 0.120627
0.246587 0.420449 0.120914
0.331202 0.421400 0.121345
0.427307 0.422839 0.121999
0.533581 0.425017 0.122990
0.635072 0.428283 0.124479
0.726744 0.433161 0.126709
0.812759 0.440392 0.130033
0.887512 0.451000 0.134955
0.951966 0.466324 0.142174
1.006912 0.487854 0.152583
-0.047265 0.523395 0.172729
-0.026912 0.523450 0.172758
0.002935 0.523534 0.172802
0.046348 0.523661 0.172868
0.104557 0.523853 0.172967
0.169780 0.524142 0.173117
0.243460 0.524577 0.173344
0.328781 0.525233 0.173685
0.425491 0.526226 0.174202
0.532351 0.527727 0.174987
0.634339 0.529981 0.176171
0.726278 0.533345 0.177948
0.812492 0.538334 0.180611
0.887360 0.545661 0.184578
0.951880 0.556271 0.190452
1.006864 0.571252 0.199028
-0.058216 0.625031 0.235690
-0.037863 0.625064 0.235713
-0.008015 0.625115 0.235748
0.035518 0.625192 0.235800
0.095782 0.625308 0.235879
0.163439 0.625483 0.235998
0.238665 0.625747 0.236177
0.325085 0.626145 0.236448
0.422723 0.626747 0.236860
0.530478 0.627659 0.237484
0.633224 0.629029 0.238426
0.725571 0.631079 0.239845
0.812086 0.634129 0.241976
0.887129 0.638631 0.245165
0.951750 0.645198 0.249916
1.006791 0.654573 0.256912
-0.074772 0.716561 0.311225
-0.054419 0.716583 0.311243
-0.024571 0.716615 0.311271
0.019619 0.716664 0.311312
0.081509 0.716738 0.311375
0.153494 0.716850 0.311469
0.231257 0.717018 0.311612
0.319424 0.717272 0.311593
0.418495 0.717656 0.311895
0.527615 0.718240 0.312379
0.631523 0.719118 0.313110
0.724497 0.720438 0.314213
0.811471 0.722411 0.315873
0.886780 0.725347 0.318368
0.951554 0.729681 0.322106
1.006681 0.735976 0.327653
-0.099786 0.803592 0.398728
-0.079434 0.803605 0.398742
-0.049586 0.803623 0.398763
-0.005396 0.803652 0.398794
0.059154 0.803694 0.398842
0.137521 0.803758 0.398914
0.219678 0.803856 0.399023
0.310690 0.804002 0.399188
0.412006 0.804224 0.399437
0.523222 0.804561 0.399817
0.628920 0.805070 0.400390
0.722859 0.805835 0.401254
0.810536 0.806984 0.402557
0.886251 0.808701 0.404514
0.951257 0.811254 0.407448
1.006515 0.815000 0.411805
-0.137561 0.879432 0.498438
-0.117208 0.879439 0.498448
-0.087360 0.879449 0.498463
-0.043170 0.879465 0.498485
0.022315 0.879490 0.498519
0.110595 0.879526 0.498570
0.201190 0.879582 0.498647
0.297064 0.879665 0.498762
0.401982 0.879792 0.498938
0.516426 0.879985 0.499206
0.624911 0.880276 0.499610
0.720355 0.880714 0.500219
0.809112 0.881373 0.501137
0.885446 0.882362 0.502516
0.950806 0.883840 0.504583
1.006263 0.886023 0.507650
-0.194571 0.944957 0.597432
-0.174218 0.944961 0.597438
-0.144370 0.944967 0.597447
-0.100180 0.944977 0.597461
-0.034342 0.944990 0.597481
0.062202 0.945011 0.597513
0.170440 0.945042 0.597560
0.275381 0.945089 0.597631
0.386346 0.945161 0.597739
0.505790 0.945270 0.597904
0.618677 0.945434 0.598153
0.716501 0.945682 0.598528
0.806935 0.946056 0.599093
0.884222 0.946618 0.599944
0.950121 0.947460 0.601220
1.005882 0.948711 0.603117
-0.280118 1.000905 0.686166
-0.259765 1.000907 0.686170
-0.229917 1.000911 0.686176
-0.185728 1.000916 0.686184
-0.119889 1.000923 0.686197
-0.021387 1.000935 0.686218
0.114218 1.000952 0.686248
0.239766 1.000979 0.686293
0.361796 1.001019 0.686362
0.488932 1.001080 0.686467
0.608887 1.001173 0.686626
0.710548 1.001312 0.686866
0.803604 1.001522 0.687228
0.882361 1.001839 0.687773
0.949086 1.002314 0.688592
1.005307 1.003022 0.689814
-0.025934 -0.025587 -0.009073
-0.005581 -0.025273 -0.009019
0.024267 -0.024800 -0.008939
0.066034 -0.024083 -0.008817
0.120459 -0.023000 -0.008634
0.181651 -0.021364 -0.008356
0.252580 -0.018894 -0.007937
0.335870 -0.015167 -0.007304
0.430816 -0.009506 -0.006343
0.535956 -0.000892 -0.004881
0.636490 0.012138 -0.002670
0.727647 0.031838 0.000674
0.813279 0.059450 0.005726
0.887807 0.098274 0.013356
0.952132 0.144485 0.024870
1.007005 0.199716 0.041837
-0.026197 -0.006157 -0.005897
-0.005844 -0.005844 -0.005844
0.024004 -0.005370 -0.005764
0.065775 -0.004654 -0.005642
0.120271 -0.003570 -0.005458
0.181508 -0.001934 -0.005180
0.252469 0.000536 -0.004761
0.335783 0.004262 -0.004129
0.430751 0.009924 -0.003168
0.535912 0.018537 -0.001706
0.636463 0.031440 0.000506
0.727630 0.050189 0.003850
0.813269 0.077670 0.008902
0.887802 0.113185 0.016531
0.952129 0.156813 0.028045
1.007003 0.209983 0.044713
-0.026595 0.022293 -0.001092
-0.006242 0.022606 -0.001039
0.023606 0.023080 -0.000958
0.065381 0.023797 -0.000837
0.119986 0.024880 -0.000653
0.181292 0.026516 -0.000375
0.252301 0.028986 0.000044
0.335652 0.032713 0.000677
0.430652 0.037681 0.001638
0.535845 0.046400 0.003100
0.636423 0.057853 0.005311
0.727605 0.076703 0.008655
0.813254 0.101398 0.013707
0.887794 0.133227 0.021336
0.952124 0.173655 0.032851
1.007000 0.224095 0.047713
-0.027197 0.061997 0.006176
-0.006845 0.062314 0.006229
0.023003 0.062793 0.006309
0.064783 0.063514 0.006431
0.119555 0.064596 0.006615
0.180964 0.066214 0.006892
0.252047 0.068620 0.007312
0.335454 0.072175 0.007944
0.430503 0.077410 0.008905
0.535744 0.085030 0.010367
0.636363 0.095896 0.012579
0.727566 0.111099 0.015922
0.813232 0.131932 0.020975
0.887781 0.159871 0.028604
0.952117 0.196553 0.039808
1.006997 0.243538 0.055386
-0.028108 0.115235 0.017160
-0.007755 0.115464 0.017213
0.022093 0.115811 0.017293
0.063875 0.116335 0.017415
0.118901 0.117123 0.017599
0.180468 0.118307 0.017876
0.251663 0.120081 0.018296
0.335154 0.122726 0.018928
0.430277 0.126676 0.019889
0.535591 0.132532 0.021351
0.636272 0.141078 0.023563
0.727508 0.153368 0.026906
0.813199 0.170733 0.031958
0.887762 0.194772 0.039288
0.952107 0.227316 0.048882
1.006991 0.270164 0.066240
-0.029483 0.175031 0.033751
-0.009130 0.175206 0.033804
0.020718 0.175470 0.033884
0.062491 0.175868 0.034006
0.117909 0.176470 0.033930
0.179717 0.177375 0.034211
0.251082 0.178735 0.034635
0.334700 0.180773 0.035275
0.429936 0.183837 0.036246
0.535360 0.188423 0.037722
0.636134 0.195204 0.039952
0.727420 0.205124 0.042497
0.813148 0.219438 0.046902
0.887733 0.239745 0.054052
0.952090 0.267976 0.065542
1.006981 0.306152 0.081229
-0.031558 0.244337 0.056720
-0.011205 0.244472 0.056774
0.018643 0.244677 0.056856
0.060374 0.244987 0.056980
0.116401 0.245454 0.057168
0.178579 0.246158 0.057450
0.250203 0.247219 0.057876
0.334014 0.248812 0.058515
0.429420 0.251215 0.059481
0.535011 0.254834 0.060936
0.635925 0.260227 0.063108
0.727287 0.268203 0.066329
0.813072 0.279881 0.071061
0.887690 0.296755 0.077931
0.952066 0.320729 0.087760
1.006968 0.352927 0.101503
-0.034690 0.325746 0.090934
-0.014337 0.325852 0.090977
0.015511 0.326012 0.091042
0.057111 0.326255 0.091141
0.114102 0.326621 0.091290
0.176851 0.327173 0.091515
0.248871 0.328004 0.091854
0.332977 0.329255 0.092364
0.428640 0.331148 0.093137
0.534483 0.334007 0.094305
0.635610 0.338290 0.096057
0.727087 0.344085 0.098673
0.812956 0.353087 0.102552
0.887624 0.366402 0.108256
0.952029 0.385734 0.116548
1.006947 0.413151 0.128368
-0.039448 0.418973 0.132393
-0.019095 0.419054 0.132427
0.010753 0.419175 0.132480
0.054151 0.419359 0.132559
0.110552 0.419636 0.132679
0.174201 0.420055 0.132859
0.246836 0.420686 0.133131
0.331395 0.421636 0.133542
0.427452 0.423074 0.134163
0.533679 0.425250 0.135105
0.635130 0.428514 0.136522
0.726781 0.433389 0.138647
0.812781 0.440614 0.141817
0.887524 0.451215 0.146518
0.951973 0.466528 0.153430
1.006916 0.488042 0.163426
-0.046686 0.523559 0.182873
-0.026334 0.523614 0.182901
0.003514 0.523698 0.182943
0.046932 0.523825 0.183007
0.105008 0.524016 0.183103
0.170111 0.524305 0.183248
0.243712 0.524740 0.183467
0.328975 0.525396 0.183797
0.425636 0.526388 0.184298
0.532450 0.527888 0.185058
0.634398 0.530140 0.186203
0.726316 0.533502 0.187924
0.812513 0.538487 0.190503
0.887372 0.545809 0.194349
0.951887 0.556412 0.200049
1.006868 0.571384 0.208382
-0.057637 0.625130 0.244159
-0.037284 0.625164 0.244181
-0.007436 0.625214 0.244215
0.036112 0.625291 0.244266
0.096257 0.625407 0.244343
0.163779 0.625582 0.244460
0.238920 0.625846 0.244636
0.325282 0.626243 0.244901
0.422870 0.626845 0.245303
0.530577 0.627756 0.245914
0.633283 0.629126 0.246835
0.725609 0.631175 0.248224
0.812108 0.634223 0.250309
0.887142 0.638723 0.253432
0.951757 0.645286 0.258085
1.006795 0.654656 0.264942
-0.074193 0.716625 0.317985
-0.053840 0.716646 0.318003
-0.023992 0.716679 0.318029
0.020198 0.716727 0.318069
0.082030 0.716801 0.318129
0.153850 0.716913 0.318220
0.231519 0.717081 0.318358
0.319623 0.717335 0.318565
0.418643 0.717719 0.318879
0.527716 0.718302 0.319357
0.631583 0.719181 0.320079
0.724534 0.720500 0.321169
0.811492 0.722472 0.322809
0.886792 0.725407 0.325274
0.951561 0.729740 0.328967
1.006685 0.736032 0.334447
-0.099207 0.803629 0.404614
-0.078855 0.803641 0.404628
-0.049007 0.803660 0.404648
-0.004817 0.803688 0.404679
0.059712 0.803731 0.404727
0.137905 0.803795 0.404798
0.219951 0.803892 0.404906
0.310895 0.804038 0.405068
0.412158 0.804260 0.405315
0.523324 0.804598 0.405690
0.628981 0.805106 0.406257
0.722897 0.805871 0.407112
0.810557 0.807020 0.408399
0.886263 0.808737 0.410335
0.951263 0.811289 0.413235
1.006519 0.815033 0.417541
-0.136982 0.879452 0.503134
-0.116629 0.879459 0.503144
-0.086781 0.879470 0.503159
-0.042591 0.879486 0.503181
0.022903 0.879510 0.503214
0.111039 0.879547 0.503264
0.201483 0.879603 0.503340
0.297277 0.879686 0.503455
0.402138 0.879813 0.503629
0.516531 0.880005 0.503893
0.624973 0.880296 0.504292
0.720393 0.880735 0.504894
0.809134 0.881394 0.505801
0.885459 0.882383 0.507164
0.950813 0.883860 0.509206
1.006267 0.886042 0.512237
-0.193992 0.944969 0.601037
-0.173639 0.944973 0.601043
-0.143791 0.944979 0.601052
-0.099601 0.944988 0.601065
-0.033763 0.945002 0.601086
0.062752 0.945023 0.601117
0.170773 0.945054 0.601164
0.275609 0.945101 0.601234
0.386507 0.945173 0.601341
0.505900 0.945282 0.601504
0.618741 0.945446 0.601750
0.716541 0.945694 0.602122
0.806957 0.946068 0.602682
0.884234 0.946630 0.603524
0.950128 0.947472 0.604787
1.005886 0.948722 0.606665
-0.279539 1.000912 0.689140
-0.259186 1.000914 0.689144
-0.229338 1.000917 0.689150
-0.185149 1.000922 0.689158
-0.119310 1.000930 0.689171
-0.020808 1.000942 0.689191
0.114663 1.000959 0.689221
0.240022 1.000986 0.689266
0.361966 1.001026 0.689335
0.489049 1.001087 0.689440
0.608955 1.001179 0.689597
0.710589 1.001319 0.689836
0.803627 1.001529 0.690195
0.882374 1.001845 0.690737
0.949093 1.002321 0.691551
1.005311 1.003029 0.692764
-0.025058 -0.024185 0.016367
-0.004705 -0.023872 0.016421
0.025143 -0.023398 0.016501
0.066895 -0.022681 0.016623
0.121083 -0.021598 0.016807
0.182126 -0.019962 0.017084
0.252948 -0.017492 0.017503
0.336158 -0.013766 0.018136
0.431033 -0.008104 0.019097
0.536103 0.000509 0.020559
0.636577 0.013540 0.022771
0.727703 0.033240 0.026114
0.813311 0.060829 0.031166
0.887826 0.099352 0.038293
0.952143 0.145339 0.047933
1.007011 0.200397 0.065494
-0.025321 -0.004756 0.019543
-0.004968 -0.004442 0.019596
0.024880 -0.003969 0.019676
0.066637 -0.003252 0.019798
0.120896 -0.002169 0.019982
0.181984 -0.000533 0.020260
0.252838 0.001937 0.020679
0.336071 0.005664 0.021311
0.430968 0.011325 0.022272
0.536059 0.019939 0.023734
0.636551 0.032850 0.025946
0.727686 0.050285 0.029290
0.813301 0.078903 0.034280
0.887820 0.114189 0.041336
0.952139 0.157628 0.051364
1.007009 0.210643 0.068542
-0.025719 0.023695 0.024348
-0.005366 0.024008 0.024401
0.024482 0.024482 0.024482
0.066245 0.025199 0.024604
0.120612 0.026282 0.024787
0.181768 0.027918 0.025065
0.252670 0.030388 0.025484
0.335940 0.034114 0.026117
0.430869 0.039123 0.027078
0.535992 0.047459 0.028540
0.636511 0.059286 0.030751
0.727661 0.077959 0.033999
0.813287 0.102479 0.038667
0.887812 0.134143 0.046229
0.952135 0.174421 0.056132
1.007006 0.224727 0.073033
-0.026321 0.063411 0.031616
-0.005968 0.063725 0.031669
0.023880 0.064199 0.031749
0.065652 0.064912 0.031871
0.120182 0.065983 0.032055
0.181441 0.067584 0.032332
0.252417 0.069967 0.032752
0.335742 0.073489 0.033384
0.430720 0.078677 0.034325
0.535891 0.086237 0.035513
0.636451 0.097025 0.037597
0.727622 0.112135 0.040711
0.813264 0.132863 0.045861
0.887799 0.160689 0.051999
0.952128 0.197257 0.063481
1.007002 0.244134 0.079575
-0.027231 0.116260 0.041972
-0.006879 0.116489 0.042027
0.022969 0.116834 0.042109
0.064749 0.117354 0.042233
0.119530 0.118138 0.042421
0.180946 0.119316 0.042705
0.252033 0.121080 0.043133
0.335442 0.123712 0.043777
0.430494 0.127641 0.044755
0.535738 0.133470 0.046238
0.636360 0.141977 0.047369
0.727564 0.154217 0.050877
0.813231 0.171520 0.055176
0.887780 0.195487 0.062942
0.952117 0.227950 0.073894
1.006996 0.270713 0.088966
-0.028606 0.175812 0.057012
-0.008253 0.175986 0.057067
0.021594 0.176249 0.057150
0.063374 0.176646 0.057276
0.118542 0.177245 0.057466
0.180196 0.178148 0.057752
0.251453 0.179504 0.058183
0.334989 0.181535 0.058830
0.430153 0.184589 0.059808
0.535507 0.189162 0.061281
0.636222 0.195923 0.063478
0.727476 0.205816 0.066735
0.813180 0.220094 0.071516
0.887751 0.240356 0.078453
0.952101 0.268533 0.088366
1.006987 0.306648 0.102211
-0.030682 0.244943 0.080744
-0.010329 0.245078 0.080790
0.019519 0.245282 0.080861
0.061271 0.245591 0.080967
0.117039 0.246058 0.081128
0.179060 0.246761 0.081370
0.250574 0.247819 0.081736
0.334304 0.249408 0.082285
0.429638 0.251807 0.083117
0.535158 0.255419 0.084373
0.636013 0.260801 0.086255
0.727343 0.268763 0.089059
0.813104 0.280421 0.093205
0.887708 0.297268 0.099280
0.952076 0.321207 0.108069
1.006974 0.353350 0.120522
-0.033814 0.326220 0.110927
-0.013461 0.326326 0.110966
0.016387 0.326486 0.111025
0.058032 0.326728 0.111114
0.114748 0.327093 0.111249
0.177335 0.327645 0.111452
0.249244 0.328475 0.111758
0.333267 0.329725 0.112219
0.428859 0.331615 0.112918
0.534631 0.334470 0.113976
0.635698 0.338748 0.115565
0.727143 0.344512 0.117942
0.812989 0.353508 0.121479
0.887642 0.366811 0.126701
0.952039 0.386124 0.134337
1.006953 0.413514 0.145300
-0.038572 0.419333 0.149057
-0.018219 0.419413 0.149089
0.011629 0.419534 0.149138
0.055015 0.419718 0.149212
0.111211 0.419995 0.149324
0.174691 0.420413 0.149492
0.247211 0.421043 0.149747
0.331687 0.421992 0.150130
0.427671 0.423429 0.150710
0.533827 0.425603 0.151591
0.635219 0.428864 0.152916
0.726838 0.433733 0.154905
0.812813 0.440950 0.157877
0.887542 0.451539 0.162294
0.951983 0.466836 0.168806
1.006921 0.488327 0.178259
-0.045810 0.523807 0.196771
-0.025457 0.523862 0.196798
0.004391 0.523946 0.196838
0.047814 0.524073 0.196898
0.105688 0.524264 0.196990
0.170609 0.524552 0.197129
0.244091 0.524987 0.197338
0.329269 0.525642 0.197653
0.425857 0.526632 0.198131
0.532599 0.528132 0.198856
0.634486 0.530381 0.199950
0.726372 0.533739 0.201594
0.812546 0.538720 0.204060
0.887390 0.546034 0.207741
0.951897 0.556626 0.213204
1.006873 0.571582 0.221206
-0.056761 0.625280 0.255751
-0.036408 0.625314 0.255773
-0.006560 0.625365 0.255806
0.037009 0.625441 0.255855
0.096974 0.625557 0.255930
0.164292 0.625732 0.256043
0.239306 0.625996 0.256213
0.325578 0.626392 0.256470
0.423092 0.626994 0.256859
0.530727 0.627904 0.257451
0.633372 0.629272 0.258344
0.725666 0.631320 0.259690
0.812140 0.634366 0.261711
0.887160 0.638861 0.264740
0.951768 0.645419 0.269257
1.006801 0.654781 0.275918
-0.073316 0.716720 0.327499
-0.052964 0.716742 0.327516
-0.023116 0.716774 0.327542
0.021074 0.716823 0.327581
0.082816 0.716897 0.327641
0.154386 0.717008 0.327730
0.231916 0.717177 0.327865
0.319925 0.717430 0.328068
0.418868 0.717814 0.328377
0.527868 0.718397 0.328846
0.631673 0.719275 0.329555
0.724591 0.720593 0.330625
0.811525 0.722565 0.332235
0.886811 0.725498 0.334655
0.951571 0.729828 0.338281
1.006691 0.736117 0.343662
-0.098331 0.803684 0.412480
-0.077978 0.803696 0.412494
-0.048130 0.803715 0.412514
-0.003941 0.803743 0.412545
0.060410 0.803786 0.412591
0.138484 0.803850 0.412662
0.220364 0.803947 0.412767
0.311204 0.804093 0.412927
0.412387 0.804315 0.413170
0.523480 0.804652 0.413538
0.629072 0.805161 0.414095
0.722955 0.805926 0.414935
0.810590 0.807074 0.416200
0.886281 0.808790 0.418102
0.951274 0.811341 0.420951
1.006525 0.815084 0.425181
-0.136105 0.879484 0.509224
-0.115752 0.879491 0.509234
-0.085905 0.879502 0.509248
-0.041715 0.879518 0.509269
0.023790 0.879542 0.509302
0.111709 0.879579 0.509352
0.201927 0.879634 0.509426
0.297599 0.879717 0.509539
0.402373 0.879844 0.509709
0.516691 0.880037 0.509969
0.625067 0.880328 0.510361
0.720452 0.880766 0.510952
0.809167 0.881425 0.511843
0.885477 0.882413 0.513182
0.950823 0.883890 0.515188
1.006273 0.886072 0.518165
-0.193115 0.944987 0.605506
-0.172763 0.944991 0.605512
-0.142915 0.944997 0.605521
-0.098725 0.945006 0.605534
-0.032887 0.945020 0.605555
0.063581 0.945040 0.605585
0.171276 0.945072 0.605631
0.275953 0.945119 0.605701
0.386752 0.945190 0.605806
0.506067 0.945299 0.605967
0.618839 0.945464 0.606209
0.716601 0.945712 0.606575
0.806991 0.946085 0.607127
0.884253 0.946647 0.607956
0.950139 0.947489 0.609201
1.005892 0.948739 0.611051
-0.278663 1.000921 0.692674
-0.258310 1.000924 0.692678
-0.228462 1.000927 0.692683
-0.184273 1.000932 0.692692
-0.118434 1.000940 0.692705
-0.019932 1.000952 0.692725
0.115335 1.000969 0.692754
0.240409 1.000996 0.692799
0.362224 1.001036 0.692867
0.489228 1.001097 0.692971
0.609058 1.001189 0.693127
0.710651 1.001328 0.693363
0.803662 1.001539 0.693719
0.882393 1.001855 0.694255
0.949103 1.002330 0.695061
1.005317 1.003039 0.696263
-0.023732 -0.022065 0.053130
-0.003380 -0.021752 0.053183
0.026468 -0.021278 0.053263
0.068185 -0.020562 0.053384
0.122023 -0.019479 0.053567
0.182843 -0.017843 0.053843
0.253505 -0.015373 0.054260
0.336593 -0.011646 0.054887
0.431360 -0.005984 0.055838
0.536325 0.002629 0.055569
0.636710 0.015659 0.057903
0.727787 0.035359 0.061351
0.813360 0.062889 0.066395
0.887854 0.100970 0.073678
0.952158 0.146625 0.084027
1.007020 0.201423 0.098390
-0.023996 -0.002636 0.056057
-0.003643 -0.002323 0.056110
0.026205 -0.001849 0.056190
0.067930 -0.001132 0.056311
0.121837 -0.000049 0.056494
0.182701 0.001587 0.055248
0.253395 0.004057 0.055695
0.336507 0.007783 0.056367
0.431295 0.013445 0.057380
0.536280 0.022058 0.058906
0.636684 0.034980 0.061180
0.727771 0.052543 0.064544
0.813350 0.080749 0.069473
0.887848 0.115698 0.076604
0.952155 0.158856 0.086762
1.007018 0.211639 0.100897
-0.024394 0.025815 0.059538
-0.004041 0.026128 0.059592
0.025807 0.026602 0.059675
0.067542 0.027318 0.059801
0.121555 0.028401 0.059990
0.182485 0.030037 0.060276
0.253227 0.032507 0.060705
0.336376 0.035526 0.061351
0.431197 0.041292 0.062326
0.536214 0.049625 0.063795
0.636644 0.061425 0.065988
0.727745 0.079838 0.069236
0.813335 0.104102 0.074005
0.887840 0.135521 0.080924
0.952150 0.175574 0.090812
1.007015 0.225680 0.104624
-0.024996 0.065522 0.066827
-0.004643 0.065831 0.066879
0.025205 0.066297 0.066958
0.066954 0.066999 0.067077
0.121127 0.068054 0.067256
0.182159 0.069631 0.067526
0.252974 0.071980 0.067933
0.336178 0.075453 0.068545
0.431048 0.080574 0.069470
0.536113 0.088044 0.070865
0.636583 0.098718 0.072950
0.727707 0.113691 0.076044
0.813313 0.134262 0.080600
0.887827 0.161920 0.087232
0.952143 0.198319 0.096752
1.007011 0.245032 0.110114
-0.025906 0.117800 0.077161
-0.005553 0.118027 0.077209
0.024294 0.118369 0.077282
0.066061 0.118885 0.077393
0.120478 0.119662 0.077560
0.181666 0.120831 0.077811
0.252591 0.122581 0.078190
0.335879 0.125192 0.078761
0.430823 0.129092 0.079623
0.535960 0.134879 0.080925
0.636492 0.143330 0.082873
0.727649 0.155496 0.085773
0.813280 0.172706 0.090056
0.887808 0.196563 0.096317
0.952133 0.228905 0.105350
1.007005 0.271542 0.118110
-0.027281 0.176987 0.091533
-0.006928 0.177160 0.091577
0.022920 0.177422 0.091644
0.064699 0.177817 0.091745
0.119495 0.178414 0.091897
0.180918 0.179312 0.092127
0.252012 0.180661 0.092473
0.335426 0.182683 0.092994
0.430482 0.185723 0.093782
0.535730 0.190275 0.094973
0.636355 0.197007 0.096760
0.727561 0.206859 0.099426
0.813229 0.221084 0.103376
0.887779 0.241278 0.109179
0.952116 0.269374 0.117603
1.006996 0.307396 0.129589
-0.029357 0.245857 0.111117
-0.009004 0.245991 0.111157
0.020844 0.246195 0.111216
0.062617 0.246503 0.111306
0.117999 0.246968 0.111442
0.179786 0.247669 0.111648
0.251135 0.248724 0.111957
0.334741 0.250309 0.112423
0.429967 0.252700 0.113129
0.535381 0.256301 0.114197
0.636146 0.261668 0.115801
0.727428 0.269608 0.118200
0.813153 0.281236 0.121769
