example_ofxGpuLutCube/bin/data/ofxGpuLutCube/LUT/T23 (deep blue).cube
LUT_3D_SIZE 16
0.020659 0.027345 0.032887
0.050079 0.025187 0.024801
0.106455 0.030812 0.020188
0.183392 0.043333 0.018591
0.302669 0.065467 0.021625
0.436843 0.092267 0.027923
0.562858 0.118498 0.037506
0.659971 0.136347 0.046597
0.723634 0.143588 0.050762
0.777846 0.149227 0.055289
0.817573 0.150655 0.057744
0.845879 0.149396 0.058036
0.871756 0.150016 0.058804
0.895739 0.149711 0.059187
0.918118 0.149297 0.059311
0.939394 0.148653 0.059315
0.021077 0.061090 0.047666
0.046631 0.057450 0.034446
0.099944 0.058685 0.029197
0.177341 0.068108 0.024082
0.292222 0.087929 0.024434
0.426878 0.114982 0.029619
0.555979 0.142028 0.038879
0.655947 0.161162 0.047722
0.723068 0.168298 0.052157
0.777488 0.174267 0.056457
0.818598 0.175663 0.058861
0.847543 0.174412 0.059191
0.873371 0.174770 0.059922
0.897327 0.174019 0.060246
0.919755 0.173201 0.060313
0.941176 0.172176 0.060297
0.021504 0.098831 0.071123
0.043212 0.097224 0.057620
0.083506 0.096526 0.043919
0.165910 0.099900 0.034592
0.279444 0.113064 0.029566
0.415098 0.138847 0.032401
0.547432 0.166363 0.040703
0.650589 0.186568 0.049120
0.723739 0.196416 0.054528
0.777808 0.202589 0.058631
0.820389 0.204103 0.060968
0.850300 0.203460 0.061503
0.876210 0.203431 0.062224
0.900348 0.202181 0.062489
0.922944 0.201023 0.062486
0.944462 0.199811 0.062534
0.025818 0.152024 0.108214
0.045878 0.149982 0.097167
0.071625 0.149032 0.075739
0.140326 0.149391 0.058213
0.263211 0.153617 0.042964
0.404394 0.169321 0.037781
0.536333 0.191092 0.042819
0.644220 0.212603 0.050518
0.724016 0.225822 0.057484
0.777991 0.232039 0.061187
0.821913 0.233100 0.063212
0.853241 0.232332 0.063472
0.879070 0.231669 0.064185
0.903145 0.230014 0.064385
0.925844 0.228098 0.063994
0.947434 0.226548 0.064042
0.037475 0.227529 0.155498
0.057286 0.224835 0.146145
0.077250 0.223555 0.124670
0.116008 0.221871 0.097627
0.231599 0.221998 0.076925
0.398654 0.227414 0.054440
0.534074 0.237302 0.051524
0.642086 0.249567 0.055373
0.724081 0.258591 0.060876
0.780091 0.263827 0.064887
0.824267 0.264201 0.066408
0.856474 0.263151 0.066371
0.882644 0.261721 0.066462
0.906549 0.259978 0.066339
0.929080 0.257882 0.065637
0.950755 0.256066 0.065102
0.031313 0.325660 0.222283
0.051787 0.322059 0.212458
0.072841 0.320210 0.191385
0.096183 0.319721 0.158072
0.172906 0.322913 0.127371
0.368356 0.324710 0.103971
0.534821 0.324355 0.075779
0.649909 0.323334 0.070562
0.733866 0.323360 0.072781
0.790141 0.317010 0.073647
0.832527 0.313655 0.073849
0.864286 0.310331 0.073375
0.890060 0.307329 0.072492
0.913504 0.305025 0.071516
0.935810 0.302893 0.070198
0.957349 0.301301 0.068839
0.043557 0.431863 0.276923
0.060230 0.427630 0.267347
0.077286 0.424482 0.248009
0.094984 0.423473 0.217225
0.133856 0.426375 0.180577
0.298403 0.436090 0.164851
0.511356 0.440672 0.137775
0.650378 0.435428 0.102168
0.744444 0.426374 0.092731
0.806960 0.412861 0.090792
0.849403 0.401242 0.089936
0.880446 0.394299 0.089000
0.906573 0.389499 0.087653
0.928753 0.386310 0.086353
0.950484 0.384416 0.084891
0.971750 0.382802 0.083119
0.088603 0.526196 0.296083
0.105713 0.522415 0.287685
0.121991 0.519459 0.272792
0.135936 0.518291 0.249798
0.157308 0.520932 0.217477
0.241593 0.526248 0.187008
0.468089 0.543830 0.195627
0.630831 0.542669 0.160482
0.744514 0.535270 0.122862
0.820643 0.522889 0.112880
0.867643 0.512335 0.110848
0.898402 0.504449 0.109599
0.925206 0.498446 0.108007
0.947276 0.494419 0.107076
0.968913 0.492286 0.105732
0.990785 0.491135 0.103806
0.117575 0.588449 0.292646
0.133821 0.585415 0.282995
0.150369 0.585562 0.269959
0.165561 0.589427 0.251117
0.181988 0.598281 0.226816
0.249424 0.610221 0.200761
0.417536 0.631761 0.207845
0.611408 0.639381 0.197122
0.727074 0.632253 0.159688
0.818994 0.623614 0.133472
0.873948 0.613024 0.126495
0.907679 0.604337 0.124040
0.934181 0.598327 0.122109
0.956179 0.595134 0.121614
0.977667 0.593445 0.120393
0.999356 0.592564 0.118327
0.129506 0.630506 0.274779
0.145577 0.628271 0.265186
0.161850 0.630250 0.253449
0.177155 0.636688 0.238101
0.192075 0.650346 0.219085
0.262904 0.672389 0.199935
0.379916 0.698970 0.202397
0.596112 0.720469 0.197306
0.717940 0.717366 0.174175
0.803640 0.710187 0.150199
0.867918 0.702622 0.136966
0.908324 0.695640 0.133841
0.936472 0.689778 0.132316
0.958919 0.686492 0.132018
0.980336 0.684939 0.131050
1.000000 0.684447 0.129023
0.130049 0.661139 0.251080
0.145568 0.659160 0.241309
0.161746 0.663198 0.230934
0.177972 0.672075 0.218868
0.193761 0.688681 0.203971
0.264070 0.716281 0.193404
0.382126 0.749444 0.197328
0.574848 0.775599 0.185644
0.715155 0.783094 0.167325
0.797263 0.777413 0.153071
0.856916 0.770549 0.141519
0.904244 0.767443 0.137087
0.935123 0.764501 0.135480
0.958734 0.762429 0.135487
0.980340 0.760867 0.135272
1.000000 0.760318 0.134092
0.127468 0.688125 0.226478
0.142297 0.685259 0.216443
0.157728 0.690810 0.206393
0.174321 0.700908 0.196814
0.190697 0.718417 0.185025
0.259774 0.748650 0.182675
0.394534 0.785305 0.188572
0.554255 0.811382 0.174268
0.710533 0.823996 0.155931
0.798783 0.825422 0.145649
0.854377 0.819760 0.140331
0.899672 0.816342 0.137120
0.933036 0.815215 0.136209
0.958543 0.814856 0.135179
0.980343 0.815246 0.133786
1.000000 0.815620 0.132489
0.122007 0.714097 0.200746
0.136768 0.711146 0.191680
0.151757 0.718709 0.182391
0.168796 0.730213 0.174211
0.186902 0.748169 0.165883
0.263961 0.779647 0.171463
0.405881 0.815756 0.175123
0.548337 0.841161 0.161041
0.704383 0.855711 0.143478
0.798863 0.861055 0.138073
0.857590 0.858749 0.134453
0.899263 0.854938 0.132834
0.931134 0.854701 0.132926
0.958223 0.855171 0.132516
0.980318 0.856033 0.131439
1.000000 0.857193 0.129869
0.112852 0.732799 0.178801
0.127835 0.730789 0.170147
0.142801 0.740157 0.161229
0.160235 0.753966 0.153818
0.183685 0.775561 0.153781
0.266911 0.806576 0.160308
0.407142 0.841649 0.162574
0.547118 0.866516 0.146091
0.697529 0.882302 0.132478
0.798166 0.890199 0.129025
0.859735 0.890833 0.127700
0.902779 0.889175 0.127466
0.932955 0.888537 0.127539
0.958970 0.889670 0.127834
0.980413 0.891273 0.127318
1.000000 0.892546 0.125904
0.102736 0.748481 0.159145
0.117809 0.746253 0.150855
0.132866 0.755125 0.142364
0.152770 0.772228 0.139173
0.179808 0.796705 0.144755
0.249562 0.827128 0.150291
0.396563 0.862139 0.152300
0.538009 0.887648 0.136523
0.690067 0.904816 0.122960
0.795072 0.914104 0.119805
0.860524 0.916531 0.119305
0.904261 0.915816 0.118940
0.934271 0.915392 0.119058
0.959290 0.916471 0.119461
0.980421 0.918345 0.119179
1.000000 0.920145 0.118219
0.092467 0.763163 0.140208
0.107828 0.760889 0.132449
0.124044 0.770159 0.125959
0.148981 0.793465 0.130547
0.175731 0.817568 0.135469
0.230122 0.847344 0.139757
0.380865 0.881471 0.140681
0.527564 0.907975 0.126459
0.682353 0.926621 0.113658
0.791610 0.936914 0.110626
0.861419 0.941219 0.110481
0.905386 0.940799 0.110409
0.935334 0.940842 0.110547
0.960343 0.942241 0.111106
0.980443 0.943785 0.110767
1.000000 0.945749 0.110164
0.019857 0.026927 0.059639
0.048219 0.026024 0.051509
0.104727 0.031066 0.046991
0.188760 0.043465 0.044200
0.312663 0.066092 0.046358
0.444464 0.092266 0.051664
0.569614 0.118286 0.060702
0.664282 0.135104 0.069344
0.726981 0.143185 0.073420
0.779582 0.147865 0.077346
0.818481 0.148538 0.079742
0.846835 0.147447 0.079936
0.872142 0.147916 0.080490
0.895396 0.147412 0.080695
0.917619 0.146757 0.080767
0.938887 0.145982 0.080663
0.020749 0.060769 0.074413
0.046941 0.057643 0.063191
0.099300 0.058774 0.054211
0.179577 0.068097 0.048747
0.298055 0.088207 0.048212
0.433352 0.114645 0.052502
0.560908 0.141785 0.061527
0.659560 0.159994 0.069970
0.725970 0.167981 0.074475
0.779528 0.173203 0.078217
0.819890 0.174246 0.080644
0.848555 0.173217 0.080934
0.873860 0.173331 0.081427
0.897289 0.172399 0.081577
0.919664 0.171333 0.081594
0.940895 0.170189 0.081569
0.021625 0.098760 0.097490
0.044064 0.096323 0.087801
0.083780 0.095371 0.069518
0.165363 0.099361 0.060298
0.282882 0.113149 0.053516
0.420171 0.138941 0.055112
0.551325 0.166285 0.063034
0.653782 0.185959 0.071018
0.726060 0.195983 0.076323
0.779588 0.201712 0.080086
0.821597 0.203005 0.082408
0.851334 0.202406 0.082855
0.876783 0.202194 0.083413
0.900418 0.200853 0.083641
0.922936 0.199459 0.083787
0.944383 0.198084 0.083877
0.025047 0.150787 0.134771
0.046230 0.148443 0.126745
0.071168 0.147174 0.105191
0.139189 0.148070 0.082970
0.262920 0.152721 0.068336
0.407085 0.169258 0.061751
0.539588 0.191434 0.065624
0.647057 0.212983 0.072536
0.725895 0.225853 0.079007
0.779580 0.231572 0.082494
0.823272 0.232328 0.084592
0.854026 0.231170 0.084722
0.879422 0.230256 0.085361
0.903120 0.228400 0.085600
0.925840 0.226504 0.085739
0.947420 0.224865 0.085868
0.036398 0.225431 0.181172
0.057138 0.222601 0.174332
0.078204 0.221003 0.156362
0.114394 0.220228 0.123468
0.229235 0.220812 0.100241
0.398287 0.226245 0.078430
0.536241 0.236419 0.074863
0.644709 0.249509 0.078135
0.725951 0.258647 0.083218
0.781464 0.263410 0.086514
0.825528 0.263609 0.088062
0.856938 0.261881 0.087637
0.882634 0.260172 0.087607
0.906270 0.258206 0.087577
0.929027 0.256109 0.087429
0.950744 0.254230 0.087106
0.030611 0.323688 0.246008
0.051799 0.319819 0.238853
0.073814 0.317543 0.222459
0.096523 0.317390 0.187968
0.170407 0.321121 0.149960
0.365313 0.323524 0.125863
0.534493 0.322809 0.099156
0.650617 0.321509 0.093566
0.734622 0.321920 0.095485
0.790424 0.315659 0.095815
0.832772 0.312405 0.095910
0.864059 0.308758 0.095017
0.889729 0.305728 0.093955
0.913144 0.303224 0.092920
0.935693 0.301243 0.091943
0.957280 0.299881 0.090755
0.042141 0.430355 0.299893
0.059103 0.425698 0.292947
0.076827 0.421926 0.278086
0.095273 0.420835 0.248032
0.132868 0.424240 0.205466
0.294198 0.434839 0.185419
0.508811 0.439695 0.160132
0.649608 0.434009 0.125652
0.744501 0.424667 0.115789
0.806648 0.410690 0.113235
0.849054 0.399029 0.112094
0.880177 0.392141 0.110758
0.906060 0.387513 0.109052
0.928153 0.384054 0.107366
0.950023 0.382276 0.105676
0.971354 0.380832 0.103728
0.087050 0.524809 0.320389
0.104790 0.520902 0.313483
0.121990 0.517464 0.299679
0.136760 0.516009 0.277903
0.156887 0.518540 0.243624
0.239205 0.524688 0.208527
0.464430 0.543043 0.215487
0.628905 0.541932 0.183250
0.743443 0.533909 0.146979
0.820049 0.521289 0.136462
0.867374 0.510406 0.133622
0.898723 0.502276 0.131842
0.925148 0.496422 0.129929
0.947083 0.492192 0.128525
0.968374 0.489830 0.126753
0.990181 0.488682 0.124539
0.115900 0.587033 0.313642
0.132803 0.583604 0.304899
0.150419 0.583168 0.293738
0.166460 0.586434 0.276635
0.182344 0.595285 0.252230
0.249286 0.608302 0.223404
0.415164 0.630762 0.225512
0.609154 0.639197 0.218504
0.725441 0.631839 0.183072
0.818053 0.622688 0.157692
0.873914 0.611635 0.149433
0.908157 0.602581 0.146530
0.934324 0.596418 0.144386
0.956330 0.593402 0.143618
0.977585 0.591898 0.142074
0.999193 0.591377 0.139742
0.127785 0.629567 0.295067
0.144296 0.626680 0.286016
0.161158 0.627872 0.275594
0.177215 0.633634 0.261612
0.192512 0.646999 0.243123
0.261910 0.669578 0.222127
0.379677 0.696949 0.219768
0.593772 0.720260 0.216804
0.716577 0.717466 0.196843
0.803121 0.710375 0.174363
0.867875 0.702239 0.160704
0.908793 0.694903 0.156254
0.936911 0.688770 0.154621
0.959180 0.685579 0.154281
0.980358 0.684198 0.153062
1.000000 0.684016 0.150810
0.127876 0.659616 0.270550
0.143779 0.656909 0.261347
0.160353 0.660182 0.251831
0.177108 0.668458 0.240654
0.193474 0.684929 0.226419
0.262569 0.712661 0.212151
0.384324 0.747415 0.214925
0.572376 0.775540 0.204781
0.714124 0.783723 0.189055
0.797298 0.778182 0.176762
0.857311 0.771134 0.165850
0.904998 0.767919 0.159322
0.935981 0.764758 0.157455
0.959276 0.762559 0.157718
0.980389 0.761041 0.157535
1.000000 0.760539 0.156120
0.124477 0.685990 0.246064
0.139692 0.682567 0.236290
0.155578 0.687709 0.226625
0.172738 0.697611 0.217680
0.189648 0.715001 0.206472
0.254532 0.744314 0.199969
0.394340 0.782367 0.206073
0.552450 0.810982 0.193041
0.709994 0.825164 0.177184
0.799139 0.826702 0.168605
0.855164 0.820952 0.163154
0.900772 0.817314 0.159386
0.934148 0.816137 0.157693
0.959522 0.815885 0.156754
0.980440 0.816336 0.155455
1.000000 0.816604 0.154193
0.119236 0.712371 0.222170
0.134201 0.708997 0.212739
0.149470 0.715885 0.201835
0.166895 0.727252 0.194022
0.184193 0.744340 0.184624
0.256897 0.774989 0.187696
0.405225 0.812635 0.193044
0.547743 0.840191 0.180803
0.703780 0.856239 0.164903
0.799431 0.862240 0.159572
0.858679 0.860198 0.156092
0.900812 0.856277 0.154099
0.932514 0.856007 0.153919
0.959107 0.856324 0.153540
0.980419 0.857253 0.152523
1.000000 0.858508 0.150983
0.110158 0.731425 0.200865
0.125373 0.729099 0.191807
0.140644 0.738001 0.181296
0.158345 0.751793 0.173518
0.179263 0.771312 0.169706
0.261144 0.802738 0.176856
0.406692 0.838989 0.180558
0.547510 0.865725 0.166589
0.697407 0.883027 0.153047
0.798929 0.891315 0.149466
0.861443 0.892181 0.148080
0.904503 0.890648 0.147925
0.934115 0.889934 0.148166
0.960001 0.891161 0.148681
0.980443 0.892556 0.148106
1.000000 0.894000 0.146753
0.100089 0.746853 0.180053
0.115424 0.744464 0.171241
0.130723 0.752968 0.161952
0.149076 0.768678 0.156261
0.175163 0.792468 0.160769
0.242237 0.823539 0.166812
0.395424 0.859670 0.170794
0.538485 0.886589 0.157058
0.689945 0.905294 0.143095
0.796159 0.914986 0.139738
0.862416 0.917747 0.138884
0.905940 0.917069 0.139010
0.935549 0.916731 0.139253
0.960379 0.918139 0.139986
0.980443 0.919872 0.139766
1.000000 0.921489 0.138676
0.090192 0.762108 0.160195
0.105621 0.759551 0.151793
0.121353 0.767764 0.144389
0.144500 0.789431 0.146680
0.171218 0.813767 0.151901
0.222273 0.843931 0.156719
0.379757 0.879208 0.159707
0.527575 0.907076 0.147401
0.682255 0.926860 0.133852
0.793083 0.937980 0.129600
0.863377 0.942465 0.129665
0.907401 0.942224 0.129799
0.936540 0.942358 0.130305
0.960533 0.943865 0.131159
0.980443 0.945411 0.131058
1.000000 0.947244 0.130408
0.019330 0.027062 0.087251
0.046097 0.026494 0.079889
0.097319 0.031381 0.076906
0.191822 0.043953 0.074291
0.323225 0.066524 0.073296
0.454641 0.092709 0.076988
0.576287 0.117365 0.084401
0.668324 0.132803 0.092740
0.728880 0.141774 0.096793
0.779270 0.145139 0.100022
0.817507 0.144866 0.102484
0.845843 0.143927 0.102946
0.870600 0.144197 0.103289
0.893583 0.143322 0.103443
0.915891 0.142423 0.103535
0.937451 0.141595 0.103572
0.020296 0.060585 0.105323
0.044554 0.057387 0.093772
0.093154 0.058950 0.083073
0.179340 0.068099 0.077901
0.306948 0.088725 0.075302
0.443499 0.114526 0.077725
0.567226 0.141073 0.085101
0.664079 0.157716 0.093299
0.728500 0.166755 0.097799
0.780105 0.170861 0.100928
0.819034 0.170846 0.103440
0.847311 0.169198 0.103795
0.872344 0.169075 0.104095
0.895687 0.167837 0.104203
0.918047 0.166486 0.104282
0.939346 0.165064 0.104313
0.020489 0.098326 0.132113
0.043491 0.096164 0.120680
0.082366 0.094164 0.101002
0.163231 0.098726 0.088573
0.286958 0.113433 0.080814
0.428659 0.138638 0.080151
0.557498 0.166052 0.086942
0.658889 0.184194 0.094185
0.728940 0.194760 0.099757
0.780865 0.199518 0.102830
0.821535 0.200083 0.105254
0.850735 0.198588 0.105837
0.875975 0.198164 0.106236
0.899541 0.196736 0.106434
0.922118 0.195215 0.106580
0.943665 0.193606 0.106677
0.023001 0.148483 0.168991
0.044636 0.146675 0.160541
0.069718 0.144913 0.142720
0.136969 0.146310 0.115324
0.263151 0.151888 0.098415
0.413951 0.169225 0.088044
0.546248 0.191872 0.089979
0.653159 0.212222 0.096198
0.729066 0.223924 0.102046
0.781312 0.228825 0.105087
0.823189 0.228955 0.107357
0.853525 0.227397 0.108043
0.878936 0.226549 0.108514
0.902586 0.224767 0.108734
0.925364 0.222902 0.108929
0.947070 0.221124 0.109083
0.033360 0.221884 0.215997
0.054332 0.218986 0.208975
0.077059 0.217129 0.196496
0.110423 0.217829 0.164849
0.223512 0.219877 0.133847
0.399961 0.225357 0.109945
0.541369 0.235725 0.101648
0.650194 0.248664 0.102183
0.729582 0.257303 0.106654
0.782500 0.260876 0.108847
0.824956 0.260148 0.110454
0.856449 0.258030 0.110729
0.882153 0.256418 0.110738
0.905769 0.254448 0.110754
0.928604 0.252414 0.110815
0.950482 0.250658 0.110849
0.029906 0.322227 0.278891
0.051027 0.317850 0.271842
0.073286 0.314331 0.260490
0.096717 0.314088 0.231776
0.163746 0.318819 0.184357
0.359385 0.322694 0.155113
0.534321 0.321214 0.127782
0.651961 0.319875 0.119595
0.736203 0.320114 0.120275
0.790032 0.313585 0.119477
0.831946 0.309521 0.119217
0.863486 0.305500 0.118219
0.889190 0.302502 0.116992
0.912607 0.300134 0.115978
0.935177 0.298327 0.115215
0.956947 0.297205 0.114548
0.040102 0.428287 0.330667
0.057148 0.423745 0.323635
0.075509 0.420073 0.313237
0.095276 0.418482 0.289917
0.130185 0.421655 0.240551
0.285052 0.433440 0.210187
0.505098 0.439535 0.188329
0.648977 0.432971 0.154261
0.745116 0.422960 0.141842
0.807106 0.408230 0.137441
0.848383 0.396140 0.135469
0.879315 0.388783 0.133417
0.905172 0.384172 0.131065
0.927405 0.381084 0.128995
0.949253 0.379213 0.126940
0.970737 0.378039 0.124806
0.085389 0.524017 0.352424
0.102946 0.520120 0.345763
0.120866 0.516442 0.335598
0.137070 0.514395 0.313214
0.156255 0.516851 0.276699
0.236174 0.524001 0.234772
0.459812 0.543955 0.237787
0.626588 0.542452 0.210829
0.743039 0.533231 0.174918
0.820639 0.519650 0.162486
0.867106 0.508382 0.157929
0.898521 0.499940 0.155158
0.924860 0.493926 0.152522
0.946881 0.489851 0.150503
0.968134 0.487590 0.148138
0.989527 0.486036 0.145332
0.114150 0.586030 0.347253
0.131081 0.582627 0.337633
0.149221 0.581623 0.324577
0.166463 0.584435 0.305219
0.182840 0.593593 0.281570
0.249639 0.608169 0.250318
0.413004 0.631569 0.244318
0.607594 0.641319 0.242163
0.724750 0.633123 0.209610
0.817869 0.622681 0.184435
0.873981 0.610703 0.174487
0.908131 0.601167 0.170181
0.934381 0.594765 0.167303
0.956363 0.591696 0.165940
0.977703 0.590604 0.164070
0.999137 0.590094 0.161293
0.124294 0.628265 0.327920
0.140920 0.625472 0.316265
0.158502 0.626342 0.302317
0.175744 0.631802 0.286467
0.192361 0.645348 0.269014
0.260428 0.668934 0.247595
0.381889 0.697423 0.237411
0.593072 0.722667 0.236683
0.716450 0.719492 0.220747
0.803188 0.711716 0.199461
0.868188 0.702884 0.186107
0.909145 0.694658 0.180184
0.937311 0.688095 0.178001
0.959467 0.684996 0.177415
0.980396 0.683729 0.175776
1.000000 0.683680 0.173011
0.125372 0.659492 0.303453
0.141290 0.656542 0.291152
0.158244 0.659157 0.276531
0.175729 0.666972 0.263007
0.192834 0.683209 0.249452
0.259100 0.710728 0.234677
0.387417 0.746327 0.232176
0.571665 0.776722 0.223854
0.714217 0.785908 0.210997
0.798080 0.780072 0.200732
0.857805 0.772584 0.191317
0.905400 0.768946 0.183602
0.936602 0.765090 0.180433
0.959921 0.762618 0.180686
0.980429 0.761147 0.180419
1.000000 0.760749 0.178635
0.121788 0.686159 0.284346
0.137158 0.682565 0.272066
0.153373 0.686725 0.254323
0.171088 0.696080 0.240252
0.188488 0.713278 0.228300
0.248048 0.741595 0.217833
0.394819 0.780501 0.222974
0.553334 0.810997 0.212696
0.710320 0.827112 0.198099
0.800191 0.828671 0.191611
0.855834 0.822443 0.187405
0.901548 0.818655 0.182882
0.935042 0.817242 0.180001
0.960282 0.816920 0.178690
0.980440 0.817231 0.177361
1.000000 0.817510 0.176067
0.116351 0.713827 0.273293
0.131415 0.710247 0.263256
0.146929 0.715499 0.245551
0.164756 0.725601 0.224576
0.182366 0.742066 0.207286
0.240294 0.770781 0.203012
0.402719 0.809711 0.210074
0.548490 0.838969 0.200040
0.703294 0.857113 0.185226
0.800159 0.863547 0.181851
0.859625 0.861648 0.178459
0.901722 0.857822 0.177513
0.933745 0.857634 0.176502
0.960099 0.857594 0.175182
0.980443 0.858540 0.173733
1.000000 0.859754 0.172113
0.107541 0.734340 0.259122
0.122671 0.731614 0.250520
0.138101 0.738640 0.236446
0.156054 0.750677 0.214908
0.175060 0.767464 0.193656
0.245167 0.798008 0.192453
0.402408 0.835325 0.197480
0.546840 0.863820 0.186303
0.695960 0.882940 0.172983
0.798657 0.891971 0.170779
0.862558 0.893349 0.169691
0.905685 0.891856 0.169755
0.935299 0.891385 0.169747
0.960406 0.892430 0.170136
0.980443 0.893947 0.169236
1.000000 0.895454 0.167774
0.097465 0.749307 0.240320
0.112856 0.746675 0.231828
0.128369 0.753513 0.215394
0.145995 0.766880 0.193972
0.170027 0.788051 0.182356
0.230117 0.819086 0.182924
0.390144 0.856340 0.188014
0.537528 0.884770 0.176957
0.688583 0.905142 0.162862
0.795977 0.915480 0.159965
0.863576 0.918785 0.159549
0.907276 0.918250 0.159570
0.936401 0.918210 0.160384
0.960576 0.919697 0.161442
0.980443 0.921116 0.161140
1.000000 0.922730 0.160011
0.087817 0.764440 0.221928
0.103325 0.761643 0.213723
0.118958 0.767714 0.195950
0.139841 0.785516 0.176054
0.166393 0.809368 0.171296
0.212288 0.839846 0.173070
0.374883 0.876327 0.177694
0.526700 0.905355 0.167360
0.681144 0.926456 0.153903
0.793310 0.938351 0.150147
0.864731 0.943358 0.149628
0.908507 0.943292 0.150072
0.937232 0.943460 0.151098
0.960704 0.945130 0.152585
0.980443 0.946741 0.152863
1.000000 0.948405 0.152325
0.019450 0.027138 0.115904
0.047577 0.027592 0.108617
0.092392 0.031844 0.107669
0.173810 0.044015 0.110705
0.324532 0.066541 0.106655
0.465350 0.092758 0.106450
0.582726 0.116257 0.110068
0.669997 0.130960 0.116571
0.730042 0.140098 0.120318
0.778966 0.142662 0.123031
0.815722 0.141629 0.125541
0.844013 0.140667 0.126267
0.868558 0.140769 0.126378
0.891403 0.139692 0.126496
0.913684 0.138587 0.126599
0.935282 0.137677 0.126723
0.019205 0.058894 0.133481
0.044474 0.056941 0.124068
0.086532 0.059484 0.115716
0.162907 0.067961 0.113509
0.306012 0.088475 0.108638
0.452432 0.114614 0.107008
0.574259 0.139946 0.110410
0.666169 0.154964 0.116590
0.729712 0.165241 0.121488
0.779594 0.168355 0.123780
0.816943 0.167402 0.126368
0.845442 0.165708 0.127012
0.870363 0.165392 0.127108
0.893541 0.163972 0.127212
0.915728 0.162320 0.127374
0.937121 0.160830 0.127574
0.018280 0.096794 0.177411
0.041191 0.094905 0.161399
0.076533 0.093182 0.138176
0.152261 0.098507 0.123245
0.285395 0.113914 0.113732
0.437695 0.138723 0.109015
0.564776 0.165455 0.112158
0.662337 0.181961 0.117605
0.730181 0.193322 0.123497
0.780629 0.197145 0.125664
0.819944 0.196778 0.128027
0.848944 0.194763 0.128962
0.874050 0.194015 0.129205
0.897583 0.192394 0.129397
0.920031 0.190491 0.129615
0.941570 0.188710 0.129904
0.019930 0.147200 0.214108
0.041733 0.145210 0.204557
0.066893 0.143339 0.184488
0.130675 0.143833 0.153129
0.260122 0.152029 0.131845
0.420259 0.169246 0.116982
0.553520 0.192044 0.115475
0.658071 0.210633 0.120007
0.730449 0.222038 0.125526
0.781117 0.226265 0.128044
0.822087 0.226005 0.130298
0.852407 0.223874 0.131312
0.877750 0.222661 0.131730
0.901407 0.220785 0.132031
0.924110 0.218634 0.132345
0.945817 0.216568 0.132688
0.027842 0.218497 0.258961
0.048985 0.215595 0.252032
0.072394 0.213566 0.239462
0.103709 0.212926 0.214311
0.215623 0.218573 0.176496
0.399760 0.224749 0.147051
0.544533 0.235434 0.130200
0.653515 0.247872 0.127056
0.730527 0.254760 0.129938
0.782190 0.257657 0.131566
0.824027 0.256281 0.133217
0.855529 0.253683 0.134107
0.881263 0.252015 0.134592
0.904885 0.250036 0.134865
0.927706 0.247861 0.135198
0.949608 0.245958 0.135573
0.028133 0.320187 0.317699
0.049342 0.316326 0.311377
0.071741 0.312897 0.301859
0.095347 0.310367 0.282716
0.153232 0.314776 0.238081
0.349579 0.322414 0.203284
0.533498 0.319482 0.167672
0.652825 0.318207 0.149742
0.735957 0.317753 0.146573
0.789284 0.310894 0.143987
0.831051 0.305839 0.143073
0.862523 0.300826 0.142148
0.888281 0.297755 0.141525
0.911675 0.295463 0.140921
0.934203 0.293731 0.140587
0.955948 0.292555 0.140388
0.039625 0.427093 0.366114
0.057066 0.422902 0.359545
0.075565 0.419563 0.350976
0.095352 0.417348 0.336375
0.126844 0.419089 0.297664
0.268691 0.430464 0.250923
0.497769 0.438720 0.225996
0.647341 0.431415 0.192798
0.744762 0.420855 0.173793
0.807341 0.405964 0.165675
0.847839 0.392853 0.161556
0.878452 0.384596 0.158673
0.903750 0.379025 0.155807
0.926112 0.376222 0.153810
0.948038 0.374525 0.152051
0.969488 0.373197 0.150250
0.083071 0.523209 0.390711
0.100771 0.519529 0.384153
0.118791 0.516010 0.375282
0.136048 0.513540 0.361210
0.154320 0.514464 0.327336
0.228439 0.520906 0.273466
0.449593 0.543271 0.263237
0.621545 0.542402 0.245376
