example_ofxGpuLutCube/bin/data/ofxGpuLutCube/LUT/T23 (deep blue).cube
LUT_3D_SIZE 6
0.020659 0.027345 0.032887
0.183392 0.043333 0.018591
0.562858 0.118498 0.037506
0.777846 0.149227 0.055289
0.871756 0.150016 0.058804
0.939394 0.148653 0.059315
0.025818 0.152024 0.108214
0.140326 0.149391 0.058213
0.536333 0.191092 0.042819
0.777991 0.232039 0.061187
0.879070 0.231669 0.064185
0.947434 0.226548 0.064042
0.043557 0.431863 0.276923
0.094984 0.423473 0.217225
0.511356 0.440672 0.137775
0.806960 0.412861 0.090792
0.906573 0.389499 0.087653
0.971750 0.382802 0.083119
0.129506 0.630506 0.274779
0.177155 0.636688 0.238101
0.379916 0.698970 0.202397
0.803640 0.710187 0.150199
0.936472 0.689778 0.132316
1.000000 0.684447 0.129023
0.122007 0.714097 0.200746
0.168796 0.730213 0.174211
0.405881 0.815756 0.175123
0.798863 0.861055 0.138073
0.931134 0.854701 0.132926
1.000000 0.857193 0.129869
0.092467 0.763163 0.140208
0.148981 0.793465 0.130547
0.380865 0.881471 0.140681
0.791610 0.936914 0.110626
0.935334 0.940842 0.110547
1.000000 0.945749 0.110164
0.019450 0.027138 0.115904
0.173810 0.044015 0.110705
0.582726 0.116257 0.110068
0.778966 0.142662 0.123031
0.868558 0.140769 0.126378
0.935282 0.137677 0.126723
0.019930 0.147200 0.214108
0.130675 0.143833 0.153129
0.553520 0.192044 0.115475
0.781117 0.226265 0.128044
0.877750 0.222661 0.131730
0.945817 0.216568 0.132688
0.039625 0.427093 0.366114
0.095352 0.417348 0.336375
0.497769 0.438720 0.225996
0.807341 0.405964 0.165675
0.903750 0.379025 0.155807
0.969488 0.373197 0.150250
0.121131 0.628643 0.371189
0.173198 0.630546 0.332652
0.379698 0.695759 0.259919
0.804016 0.713585 0.233727
0.938610 0.688213 0.206711
1.000000 0.684518 0.199696
0.112808 0.716591 0.323313
0.161728 0.728000 0.293844
0.393402 0.805522 0.233178
0.801955 0.865163 0.207091
0.935637 0.860353 0.203939
1.000000 0.861934 0.195728
0.085065 0.769913 0.278593
0.134925 0.788465 0.254542
0.357625 0.872168 0.208240
0.790883 0.937616 0.171337
0.937679 0.944685 0.174429
1.000000 0.949458 0.176016
0.042251 0.036956 0.225337
0.164686 0.047936 0.230224
0.566794 0.111556 0.236652
0.770546 0.125637 0.219642
0.857503 0.120409 0.216156
0.923563 0.115189 0.214042
0.020094 0.138427 0.350951
0.116196 0.148123 0.306607
0.530305 0.189085 0.251314
0.776079 0.214737 0.227222
0.867257 0.201890 0.222025
0.935414 0.195520 0.225565
0.037182 0.421347 0.501714
0.095815 0.414665 0.492754
0.461099 0.442180 0.437822
0.800046 0.392656 0.301603
0.897628 0.355968 0.267790
0.963213 0.348620 0.268516
0.112947 0.635942 0.548260
0.164387 0.642452 0.534018
0.331703 0.695057 0.509392
0.794010 0.721945 0.466901
0.939453 0.688149 0.399023
1.000000 0.686688 0.378901
0.100236 0.729253 0.523723
0.150262 0.745356 0.517537
0.305550 0.814063 0.510767
0.791409 0.877269 0.467836
0.939104 0.876495 0.440924
1.000000 0.876287 0.422343
0.074248 0.789861 0.501301
0.124944 0.811043 0.498589
0.251302 0.883304 0.493672
0.776010 0.948860 0.460962
0.940369 0.958851 0.433982
1.000000 0.961898 0.421927
0.067005 0.047748 0.360505
0.208434 0.057499 0.362392
0.530782 0.114495 0.400179
0.742052 0.116057 0.382156
0.835957 0.104234 0.364816
0.903092 0.099553 0.366233
0.050233 0.154438 0.453727
0.137523 0.158713 0.444445
0.447293 0.188165 0.432936
0.744456 0.203869 0.399662
0.845074 0.182226 0.383432
0.914602 0.173388 0.390033
0.035902 0.413187 0.632453
0.097458 0.407639 0.629205
0.350129 0.430566 0.597476
0.768869 0.390257 0.508222
0.874390 0.321498 0.464709
0.940626 0.301705 0.468303
0.101134 0.637425 0.717293
0.151572 0.644650 0.723793
0.253340 0.700009 0.732062
0.780848 0.732034 0.711211
0.930854 0.695559 0.655840
0.996828 0.690166 0.649754
0.092372 0.735256 0.725098
0.142073 0.754334 0.736623
0.211738 0.825528 0.754151
0.773967 0.900756 0.770165
0.937693 0.895399 0.730850
1.000000 0.891368 0.720375
0.068497 0.803004 0.730291
0.118998 0.825993 0.740954
0.186144 0.895869 0.757097
0.750847 0.968726 0.768525
0.936616 0.979931 0.750152
1.000000 0.978357 0.740056
0.088834 0.054135 0.463285
0.241913 0.063194 0.463440
0.527016 0.113661 0.502503
0.724420 0.117253 0.500380
0.815113 0.100070 0.495488
0.884990 0.094233 0.496306
0.068270 0.167136 0.537596
0.165793 0.176203 0.540901
0.449862 0.207041 0.545585
0.715761 0.209841 0.536208
0.825357 0.179942 0.524848
0.894950 0.166612 0.530664
0.035526 0.410362 0.713133
0.099875 0.404014 0.713806
0.373750 0.439530 0.694493
0.708567 0.398441 0.644788
0.860721 0.326006 0.623784
0.928026 0.294468 0.626462
0.090618 0.627953 0.809472
0.140663 0.637907 0.821805
0.226462 0.687676 0.833436
0.703811 0.714642 0.812702
0.914562 0.699507 0.816098
0.983901 0.694283 0.824129
0.082947 0.734076 0.828860
0.132570 0.753950 0.844861
0.195731 0.824188 0.871323
0.744435 0.901748 0.905767
0.930306 0.902810 0.896236
1.000000 0.896670 0.890063
0.061255 0.804801 0.842165
0.112614 0.828256 0.858297
0.174767 0.895833 0.881760
0.725861 0.971551 0.911147
0.930221 0.991497 0.916671
1.000000 0.988024 0.904147
0.097349 0.055873 0.538009
0.251066 0.062991 0.536319
0.543677 0.111886 0.571865
0.723361 0.116812 0.574426
0.812482 0.099745 0.570550
0.881104 0.092569 0.576908
0.071946 0.163507 0.601361
0.177440 0.169169 0.602653
0.484424 0.205462 0.613233
0.711678 0.209689 0.616455
0.823744 0.179856 0.604717
0.893118 0.164970 0.614502
0.032868 0.407839 0.779735
0.097674 0.403730 0.782378
0.396279 0.440403 0.758297
0.706761 0.413077 0.737438
0.858150 0.331607 0.708972
0.927132 0.294706 0.715754
0.084018 0.623468 0.875794
0.134568 0.635036 0.887527
0.226171 0.673057 0.889217
0.707532 0.713245 0.893978
0.902898 0.704206 0.879185
0.981319 0.699551 0.908448
0.075853 0.731216 0.898811
0.127398 0.752335 0.913908
0.205032 0.818901 0.935133
0.707660 0.886389 0.960195
0.918971 0.901386 0.949210
0.999828 0.898965 0.964843
0.055612 0.803944 0.913187
0.111393 0.830265 0.927201
0.177854 0.895628 0.949541
0.710068 0.969279 0.979178
0.925771 0.992914 0.990948
1.000000 0.991046 0.984992
