example_ofxGpuLutCube/bin/data/ofxGpuLutCube/LUT/T24 (bright warm).cube
LUT_3D_SIZE 16
0.000000 0.000000 0.012837
0.033613 0.000000 0.013454
0.088919 0.000000 0.013123
0.167372 0.000000 0.008759
0.268718 0.000000 0.004268
0.377445 0.000000 0.005451
0.470992 0.000000 0.007337
0.549323 0.000000 0.014582
0.614697 0.010629 0.022545
0.673088 0.024794 0.028621
0.721714 0.039603 0.032469
0.765207 0.050053 0.034548
0.805510 0.050302 0.034601
0.845286 0.050302 0.034584
0.885078 0.050294 0.034561
0.924841 0.050279 0.034529
0.000000 0.033539 0.014630
0.033262 0.033735 0.014568
0.085128 0.033999 0.014414
0.165103 0.035606 0.010879
0.269330 0.034368 0.006907
0.384388 0.035669 0.009770
0.482771 0.039785 0.014779
0.559655 0.049499 0.020439
0.621573 0.059115 0.025144
0.679186 0.072797 0.030534
0.726715 0.087500 0.034033
0.770318 0.097013 0.035994
0.810419 0.095907 0.035743
0.849504 0.094052 0.035287
0.889040 0.093361 0.035092
0.928618 0.092711 0.034910
0.000000 0.078348 0.016822
0.033262 0.079864 0.017095
0.080982 0.081510 0.016616
0.163729 0.084701 0.013546
0.271195 0.089093 0.011180
0.394081 0.093020 0.015815
0.498057 0.098276 0.022702
0.576930 0.106708 0.028896
0.639737 0.119753 0.034001
0.696258 0.135430 0.038954
0.742377 0.151084 0.042191
0.785818 0.157425 0.043767
0.826845 0.157721 0.043950
0.865414 0.155280 0.043103
0.903654 0.152373 0.042054
0.941845 0.149582 0.040983
0.000000 0.133238 0.019191
0.033262 0.134657 0.019128
0.075556 0.141512 0.020937
0.161119 0.143554 0.017795
0.275820 0.149863 0.015028
0.408020 0.163533 0.023153
0.517123 0.177057 0.032304
0.598135 0.187372 0.039552
0.662742 0.198574 0.045217
0.715305 0.210512 0.048979
0.760337 0.220884 0.051242
0.802997 0.222793 0.051908
0.844583 0.224465 0.052391
0.883664 0.223236 0.051948
0.922266 0.221494 0.051314
0.960795 0.219759 0.050660
0.000000 0.194442 0.023519
0.033262 0.196451 0.023021
0.069781 0.203409 0.022680
0.154478 0.220027 0.024747
0.279285 0.222936 0.021332
0.422436 0.241608 0.030356
0.537455 0.264647 0.042148
0.619857 0.283010 0.051115
0.686866 0.298472 0.058132
0.736517 0.310682 0.061654
0.781222 0.316944 0.063367
0.823888 0.319439 0.064087
0.865795 0.321961 0.064650
0.905397 0.320606 0.064464
0.944169 0.317730 0.063943
0.982770 0.314842 0.063385
0.000000 0.265071 0.027507
0.033262 0.268543 0.026571
0.067677 0.275766 0.023803
0.138938 0.301971 0.028862
0.283411 0.329896 0.037134
0.430189 0.333199 0.037448
0.551109 0.357215 0.049779
0.635431 0.378193 0.059231
0.701998 0.393981 0.066174
0.751149 0.404028 0.069510
0.796000 0.406875 0.070784
0.838711 0.408322 0.071396
0.880552 0.410462 0.071841
0.920846 0.410013 0.071873
0.959855 0.406726 0.071525
0.998150 0.403479 0.071169
0.000000 0.345129 0.032888
0.033262 0.350476 0.030861
0.070528 0.360905 0.029767
0.132079 0.388580 0.034241
0.278978 0.433449 0.051356
0.437996 0.447668 0.052724
0.559745 0.454272 0.057115
0.647596 0.473467 0.066374
0.713634 0.488256 0.073010
0.764239 0.496341 0.076375
0.809306 0.496696 0.077335
0.852198 0.497276 0.077889
0.893951 0.498201 0.078219
0.932737 0.498200 0.078340
0.966730 0.494843 0.078058
1.000000 0.491301 0.077731
0.000000 0.427489 0.037500
0.035885 0.434776 0.037969
0.080306 0.447492 0.038811
0.138070 0.473764 0.042398
0.266691 0.518593 0.060173
0.439489 0.550470 0.074394
0.563758 0.550315 0.066890
0.655773 0.560258 0.073357
0.721521 0.570622 0.078459
0.773524 0.578024 0.081687
0.819527 0.578051 0.082457
0.862840 0.578393 0.082848
0.900160 0.578717 0.083029
0.933476 0.579108 0.083156
0.966738 0.577326 0.083074
1.000000 0.575065 0.082934
0.004162 0.507244 0.046125
0.046313 0.515321 0.047507
0.092839 0.529552 0.049004
0.150696 0.554041 0.051795
0.258480 0.591307 0.066663
0.432057 0.625865 0.085022
0.567419 0.644049 0.094907
0.660044 0.640037 0.081702
0.727309 0.644690 0.084714
0.780592 0.648161 0.086373
0.827220 0.648138 0.086889
0.866952 0.647330 0.087026
0.900214 0.646474 0.086987
0.933476 0.646136 0.086984
0.966738 0.644988 0.086884
1.000000 0.643438 0.086745
0.015431 0.579194 0.055046
0.057983 0.587653 0.056978
0.105978 0.602003 0.058337
0.167311 0.623173 0.060972
0.261096 0.652764 0.073208
0.416458 0.686488 0.093512
0.560935 0.707436 0.106696
0.663010 0.718153 0.111260
0.731085 0.711744 0.091323
0.785766 0.712334 0.091604
0.831698 0.709759 0.090972
0.866952 0.707833 0.090683
0.900214 0.707008 0.090596
0.933476 0.706585 0.090541
0.966738 0.705827 0.090444
1.000000 0.704751 0.090298
0.025392 0.643301 0.064360
0.070147 0.652701 0.066275
0.120355 0.665833 0.066842
0.184949 0.682882 0.070418
0.269545 0.707813 0.081330
0.400084 0.740144 0.101439
0.547070 0.761931 0.114692
0.659459 0.774864 0.123580
0.736439 0.779787 0.120821
0.788591 0.771848 0.098397
0.833660 0.768316 0.095701
0.866952 0.765999 0.095131
0.900214 0.765241 0.095019
0.933476 0.764746 0.094926
0.966738 0.764156 0.094814
1.000000 0.763491 0.094684
0.038551 0.703584 0.074020
0.085561 0.713875 0.076176
0.136992 0.725324 0.076864
0.200907 0.738943 0.080905
0.275899 0.757408 0.088146
0.382320 0.782323 0.102402
0.529730 0.803834 0.114900
0.648428 0.816952 0.123198
0.734156 0.826731 0.129175
0.793319 0.831262 0.129820
0.833690 0.827582 0.115539
0.866952 0.824804 0.112608
0.900214 0.823989 0.112334
0.933476 0.823330 0.111580
0.966738 0.822786 0.110725
1.000000 0.822275 0.109937
0.044191 0.752533 0.077668
0.091006 0.762042 0.079499
0.142436 0.772255 0.079734
0.205616 0.783506 0.083497
0.277590 0.798294 0.088629
0.367750 0.819646 0.099893
0.514047 0.843466 0.114423
0.636112 0.856972 0.122526
0.728949 0.867430 0.129029
0.790581 0.873375 0.130742
0.833690 0.876223 0.131602
0.866952 0.876021 0.131612
0.900214 0.875623 0.131529
0.933476 0.875333 0.131458
0.966738 0.875170 0.131434
1.000000 0.875035 0.131396
0.045493 0.797410 0.078383
0.092244 0.806039 0.080040
0.144254 0.816938 0.080402
0.207518 0.827366 0.084213
0.278836 0.840241 0.089035
0.362779 0.858807 0.098789
0.503284 0.882759 0.114104
0.625833 0.896545 0.122357
0.722928 0.907002 0.128695
0.786548 0.913765 0.130597
0.833690 0.917408 0.131714
0.866952 0.917838 0.131851
0.900214 0.917409 0.131801
0.933476 0.917142 0.131771
0.966738 0.917021 0.131754
1.000000 0.916991 0.131746
0.046556 0.841700 0.079016
0.093038 0.848689 0.080383
0.145538 0.860780 0.080990
0.208971 0.871177 0.084899
0.279881 0.882666 0.089521
0.359987 0.898964 0.098080
0.496830 0.922364 0.113884
0.617365 0.935985 0.122197
0.716386 0.946141 0.128337
0.781931 0.953273 0.130315
0.833690 0.957669 0.131635
0.866952 0.958915 0.131956
0.900214 0.958546 0.131915
0.933476 0.958305 0.131888
0.966738 0.958160 0.131872
1.000000 0.958122 0.131856
0.046708 0.882129 0.079073
0.092902 0.887637 0.080177
0.145415 0.899319 0.080706
0.209212 0.910522 0.084798
0.280102 0.921782 0.089358
0.358799 0.937473 0.097354
0.487650 0.960949 0.113218
0.611933 0.975477 0.122072
0.712635 0.985680 0.128146
0.779745 0.993244 0.130192
0.833690 0.997716 0.131562
0.866952 0.999433 0.131998
0.900214 0.999038 0.131954
0.933476 0.998760 0.131918
0.966738 0.998557 0.131893
1.000000 0.998507 0.131883
0.000000 0.000000 0.057031
0.033481 0.000000 0.056575
0.088662 0.000000 0.055229
0.167762 0.000000 0.051121
0.267865 0.000000 0.045405
0.375453 0.000000 0.044102
0.470879 0.000000 0.047063
0.550627 0.000000 0.055355
0.615935 0.010845 0.062875
0.674358 0.025185 0.068990
0.722795 0.040095 0.072812
0.766199 0.050195 0.074825
0.806514 0.050318 0.074851
0.846310 0.050318 0.074835
0.886132 0.050304 0.074819
0.925931 0.050302 0.074802
0.000000 0.033622 0.057472
0.033262 0.033731 0.056552
0.085228 0.034061 0.056252
0.165950 0.035989 0.053399
0.269042 0.034902 0.048704
0.383803 0.035435 0.049836
0.481548 0.037098 0.053446
0.558411 0.045804 0.058992
0.621933 0.057668 0.065014
0.679988 0.072082 0.070631
0.727229 0.086715 0.074060
0.770268 0.094345 0.075593
0.810568 0.093592 0.075445
0.850055 0.092700 0.075207
0.889712 0.092399 0.075080
0.929295 0.092009 0.074925
0.000000 0.079031 0.059301
0.033262 0.079997 0.058855
0.080513 0.081773 0.058210
0.164639 0.085397 0.055911
0.271968 0.088778 0.052655
0.394785 0.092024 0.055939
0.498647 0.097145 0.062670
0.577329 0.105705 0.068802
0.640046 0.118423 0.073808
0.696221 0.133977 0.078636
0.742137 0.149412 0.081791
0.785270 0.154981 0.083169
0.826451 0.155570 0.083457
0.864991 0.153198 0.082594
0.903272 0.150628 0.081602
0.941459 0.148148 0.080554
0.000000 0.134247 0.061315
0.033262 0.135450 0.060870
0.074547 0.141993 0.062490
0.161389 0.144581 0.059958
0.276842 0.150385 0.055909
0.409440 0.163901 0.063587
0.518476 0.177101 0.072680
0.599147 0.187294 0.079867
0.663657 0.198220 0.085478
0.715770 0.209666 0.089068
0.760617 0.219593 0.091225
0.803185 0.221316 0.091854
0.844881 0.223131 0.092396
0.883854 0.221671 0.091890
0.922236 0.219537 0.091151
0.960578 0.217474 0.090409
0.000000 0.195936 0.065360
0.033262 0.197959 0.064735
0.069485 0.204630 0.064515
0.153411 0.221305 0.066129
0.280178 0.224177 0.061784
0.423947 0.243012 0.070918
0.538772 0.265790 0.082703
0.620993 0.284293 0.091678
0.687778 0.299504 0.098615
0.737112 0.311116 0.102040
0.781649 0.316663 0.103605
0.824107 0.318533 0.104205
0.865902 0.320752 0.104712
0.905424 0.319320 0.104493
0.944041 0.316343 0.103946
0.982481 0.313337 0.103348
0.000000 0.267204 0.069281
0.033262 0.270644 0.068352
0.067558 0.277528 0.065804
0.137299 0.302764 0.069206
0.282955 0.331378 0.077671
0.430708 0.334420 0.077897
0.551721 0.358245 0.090230
0.636034 0.379028 0.099660
0.702287 0.394433 0.106521
0.751392 0.404159 0.109824
0.796129 0.406547 0.111035
0.838716 0.407825 0.111617
0.880457 0.409813 0.112039
0.920769 0.409466 0.112090
0.959744 0.406145 0.111733
0.998112 0.402732 0.111371
0.000000 0.347678 0.075099
0.033262 0.352750 0.073333
0.070720 0.362371 0.070558
0.131573 0.389325 0.074487
0.277030 0.434005 0.091584
0.437576 0.448466 0.093099
0.559481 0.454646 0.097425
0.647573 0.473504 0.106680
0.713364 0.487981 0.113239
0.764061 0.495745 0.116572
0.809140 0.496011 0.117542
0.852016 0.496431 0.118078
0.893744 0.497288 0.118405
0.932656 0.497118 0.118518
0.966724 0.493827 0.118247
1.000000 0.490112 0.117903
0.000000 0.429272 0.079414
0.036129 0.435921 0.078620
0.080542 0.448231 0.079267
0.137535 0.473701 0.082567
0.264027 0.518028 0.100114
0.437719 0.550200 0.114635
0.562853 0.550387 0.107283
0.655319 0.559936 0.113559
0.721061 0.570245 0.118651
0.773204 0.577444 0.121870
0.819236 0.577350 0.122654
0.862555 0.577556 0.123031
0.900152 0.577899 0.123238
0.933476 0.578362 0.123381
0.966738 0.576706 0.123319
1.000000 0.574175 0.123149
0.004475 0.508237 0.086621
0.046543 0.515810 0.087937
0.092997 0.529660 0.089393
0.150442 0.553456 0.091985
0.256866 0.590407 0.106561
0.428974 0.624992 0.125005
0.565435 0.643311 0.134990
0.659113 0.639499 0.121836
0.726784 0.644111 0.124842
0.780084 0.647566 0.126518
0.826868 0.647571 0.127062
0.866952 0.646782 0.127220
0.900214 0.645996 0.127199
0.933476 0.645637 0.127191
0.966738 0.644542 0.127111
1.000000 0.643020 0.126981
0.015704 0.579743 0.095546
0.058164 0.587903 0.097387
0.105994 0.601923 0.098778
0.166715 0.622422 0.101081
0.258958 0.651358 0.112765
0.412811 0.685272 0.133250
0.558439 0.706642 0.146642
0.661871 0.717755 0.152088
0.730375 0.711379 0.131469
0.785266 0.711912 0.131759
0.831534 0.709391 0.131151
0.866952 0.707546 0.130881
0.900214 0.706707 0.130792
0.933476 0.706258 0.130739
0.966738 0.705439 0.130633
1.000000 0.704408 0.130494
0.025641 0.643552 0.104947
0.070109 0.652526 0.106775
0.119959 0.665301 0.107346
0.183639 0.681906 0.110464
0.267426 0.706407 0.120899
0.395604 0.738770 0.140857
0.544006 0.761032 0.154432
0.657640 0.774312 0.163557
0.735768 0.779538 0.161459
0.788070 0.771514 0.138462
0.833554 0.768079 0.135873
0.866952 0.765835 0.135333
0.900214 0.765029 0.135203
0.933476 0.764458 0.135100
0.966738 0.763862 0.134984
1.000000 0.763201 0.134848
0.038762 0.703761 0.114710
0.085239 0.713453 0.116766
0.136130 0.724733 0.117280
0.199494 0.738110 0.121005
0.274265 0.756509 0.128123
0.378807 0.781186 0.141937
0.526296 0.803165 0.154725
0.646112 0.816412 0.163085
0.733300 0.826330 0.169290
0.792823 0.830987 0.169943
0.833690 0.827394 0.155679
0.866952 0.824716 0.152782
0.900214 0.823844 0.152542
0.933476 0.823150 0.151778
0.966738 0.822621 0.150907
1.000000 0.822112 0.150101
0.043777 0.751991 0.118085
0.090190 0.761110 0.119901
0.141142 0.771563 0.120006
0.204083 0.782845 0.123643
0.275971 0.797555 0.128798
0.363753 0.818332 0.139222
0.510354 0.842747 0.154211
0.633721 0.856521 0.162453
0.728057 0.867092 0.169152
0.789980 0.873152 0.170899
0.833690 0.876128 0.171793
0.866952 0.875952 0.171827
0.900214 0.875549 0.171727
0.933476 0.875231 0.171668
0.966738 0.875074 0.171648
1.000000 0.874957 0.171609
0.045011 0.796910 0.118825
0.091359 0.805016 0.120433
0.142790 0.816212 0.120615
0.205893 0.826716 0.124364
0.277182 0.839506 0.129180
0.359631 0.857637 0.138204
0.499133 0.882057 0.153873
0.623272 0.896109 0.162297
0.721855 0.906676 0.168817
0.785889 0.913546 0.170748
0.833690 0.917308 0.171899
0.866952 0.917796 0.172067
0.900214 0.917359 0.172014
0.933476 0.917093 0.171982
0.966738 0.916976 0.171966
1.000000 0.916946 0.171958
0.046074 0.841343 0.119481
0.092194 0.847940 0.120822
0.144056 0.860106 0.121170
0.207401 0.870674 0.125084
0.278358 0.882119 0.129694
0.358237 0.898267 0.137855
0.492889 0.921619 0.153642
0.614811 0.935565 0.162152
0.715179 0.945816 0.168465
0.781300 0.953195 0.170481
0.833690 0.957534 0.171810
0.866952 0.958902 0.172172
0.900214 0.958533 0.172133
0.933476 0.958292 0.172102
0.966738 0.958143 0.172083
1.000000 0.958098 0.172075
0.046227 0.881784 0.119531
0.092107 0.886999 0.120628
0.144049 0.898919 0.120908
0.207788 0.910249 0.125029
0.278724 0.921458 0.129566
0.356790 0.936859 0.137102
0.484416 0.960416 0.153033
0.609908 0.975184 0.162064
0.711702 0.985457 0.168299
0.779191 0.993066 0.170355
0.833690 0.997595 0.171742
0.866952 0.999405 0.172206
0.900214 0.999013 0.172166
0.933476 0.998733 0.172131
0.966738 0.998539 0.172111
1.000000 0.998484 0.172102
0.000000 0.000000 0.107451
0.033262 0.000000 0.106174
0.082494 0.000000 0.104126
0.163641 0.000000 0.102071
0.265202 0.000000 0.091925
0.371291 0.000000 0.088194
0.470712 0.000000 0.092432
0.551477 0.000000 0.099026
0.616939 0.011391 0.105194
0.675526 0.026281 0.110682
0.723578 0.040595 0.113970
0.766882 0.050306 0.115738
0.807234 0.050343 0.115621
0.847090 0.050320 0.115484
0.886937 0.050298 0.115327
0.926747 0.050274 0.115163
0.000000 0.033697 0.105107
0.033262 0.034046 0.105155
0.081839 0.034898 0.103769
0.164827 0.037101 0.099696
0.268338 0.036042 0.093853
0.380832 0.034815 0.092127
0.477827 0.034779 0.093416
0.556476 0.042815 0.098866
0.621537 0.055565 0.105224
0.680200 0.070586 0.110971
0.727342 0.085261 0.114244
0.770225 0.092298 0.115557
0.810587 0.091469 0.115373
0.850434 0.091190 0.115360
0.890208 0.091036 0.115290
0.929939 0.090873 0.115230
0.000000 0.079814 0.105920
0.033262 0.080543 0.104363
0.077784 0.082199 0.103195
0.164042 0.086516 0.100583
0.271466 0.088905 0.096598
0.392572 0.091254 0.097861
0.495968 0.094908 0.102675
0.574660 0.101385 0.107562
0.637405 0.114086 0.112392
0.693883 0.129569 0.117101
0.739831 0.144781 0.120227
0.783111 0.150864 0.121727
0.824153 0.151060 0.121873
0.862723 0.148814 0.120949
0.901056 0.146210 0.119962
0.939441 0.143619 0.119046
0.000000 0.136275 0.107257
0.033262 0.136704 0.105339
0.071762 0.141591 0.105811
0.159169 0.145344 0.103788
0.275053 0.150740 0.098981
0.406829 0.162698 0.104085
0.515963 0.174249 0.112195
0.596830 0.182987 0.118939
0.661170 0.192555 0.124217
0.714377 0.203230 0.127894
0.759410 0.213864 0.130174
0.802283 0.216979 0.131082
0.844222 0.219121 0.131739
0.883323 0.217724 0.131259
0.921713 0.215445 0.130485
0.960132 0.213430 0.129751
0.000000 0.197987 0.110243
0.033262 0.199635 0.108740
0.068703 0.205160 0.107957
0.148912 0.221022 0.109285
0.276998 0.224157 0.103219
0.421512 0.242543 0.111024
0.537558 0.265260 0.122669
0.620025 0.283310 0.131543
0.686735 0.297711 0.138305
0.737169 0.307800 0.141710
0.781911 0.314210 0.143435
0.824359 0.315710 0.143973
0.866312 0.318224 0.144540
0.905939 0.316995 0.144360
0.944576 0.314090 0.143828
0.983114 0.311117 0.143227
0.000000 0.269709 0.113890
0.033262 0.273042 0.112409
0.067271 0.279565 0.109991
0.132333 0.301035 0.110727
0.276803 0.330392 0.117836
0.428336 0.334721 0.117837
0.551059 0.358959 0.130351
0.636039 0.379693 0.139859
0.703120 0.395126 0.146881
0.752421 0.404833 0.150185
0.797284 0.407783 0.151545
0.839931 0.409260 0.152149
0.881661 0.411272 0.152577
0.921989 0.410997 0.152640
0.960915 0.407593 0.152276
0.998472 0.404131 0.151906
0.000000 0.351621 0.119809
0.033262 0.356572 0.118332
0.070945 0.365242 0.115102
0.128273 0.387731 0.114666
0.268848 0.432730 0.130654
0.434823 0.451232 0.133492
0.559314 0.456797 0.137732
0.648053 0.475965 0.147114
0.714498 0.490042 0.153744
0.765214 0.497924 0.157104
0.810430 0.498285 0.158156
0.853277 0.498619 0.158690
0.894922 0.499217 0.158995
0.932940 0.499152 0.159118
0.966738 0.495622 0.158830
1.000000 0.491902 0.158490
0.000000 0.434406 0.126846
0.036735 0.439918 0.124594
0.080842 0.450924 0.121786
0.134940 0.473050 0.122490
0.254921 0.516852 0.138832
0.433656 0.551372 0.154497
0.562899 0.554347 0.148899
0.655720 0.562349 0.154016
0.722134 0.572571 0.159223
0.774388 0.579831 0.162470
0.820372 0.579509 0.163202
0.863470 0.579441 0.163541
0.900182 0.579519 0.163705
0.933476 0.579735 0.163808
0.966738 0.577767 0.163714
1.000000 0.574875 0.163514
0.005907 0.512912 0.131865
0.047302 0.519011 0.130296
0.093082 0.531929 0.130640
0.147985 0.553175 0.132203
0.249629 0.589357 0.145423
0.422491 0.625107 0.164293
0.563708 0.644232 0.174971
0.658719 0.641570 0.162366
0.727339 0.645395 0.165244
0.780853 0.648954 0.166995
0.827445 0.648866 0.167539
0.866952 0.647706 0.167624
0.900214 0.646655 0.167571
0.933476 0.646241 0.167556
0.966738 0.645061 0.167461
1.000000 0.643419 0.167320
0.016878 0.583314 0.138716
0.058752 0.590248 0.138956
0.105526 0.603174 0.139901
0.162874 0.622104 0.141092
0.252017 0.650186 0.151476
0.405904 0.684846 0.172188
0.555121 0.706431 0.185619
0.660541 0.718344 0.193367
0.730609 0.712233 0.171865
0.785469 0.712378 0.172042
0.831640 0.709890 0.171472
0.866952 0.708042 0.171249
0.900214 0.707110 0.171144
0.933476 0.706513 0.171070
0.966738 0.705574 0.170949
1.000000 0.704516 0.170808
0.026337 0.645849 0.147794
0.069767 0.653463 0.148071
0.118638 0.665499 0.148367
0.178835 0.681184 0.150014
0.260867 0.704665 0.159647
0.388106 0.737339 0.179454
0.539389 0.760059 0.193197
0.654922 0.774301 0.203068
0.735475 0.779720 0.202800
0.787927 0.771503 0.178500
0.833547 0.768013 0.176034
0.866952 0.765681 0.175494
0.900214 0.764762 0.175351
0.933476 0.764082 0.175233
0.966738 0.763485 0.175120
1.000000 0.762838 0.174991
0.038648 0.705189 0.157868
0.084189 0.713289 0.157751
0.133870 0.724277 0.158088
0.195218 0.737370 0.160462
0.269863 0.755833 0.168074
0.372981 0.780684 0.181892
0.521199 0.802897 0.194369
0.642260 0.816074 0.202450
0.732531 0.826146 0.209423
0.792392 0.830824 0.209879
0.833690 0.826851 0.194784
0.866952 0.824176 0.191607
0.900214 0.823234 0.191245
0.933476 0.822494 0.190417
0.966738 0.821942 0.189541
1.000000 0.821444 0.188741
0.043295 0.752572 0.161495
0.088657 0.760062 0.160804
0.138756 0.770929 0.160889
0.200085 0.782472 0.163206
0.272033 0.797098 0.169271
0.357859 0.817308 0.179018
0.504879 0.842143 0.193826
0.629623 0.856011 0.201847
0.726840 0.866787 0.209197
0.789395 0.873010 0.211064
0.833690 0.876031 0.211972
0.866952 0.875895 0.211984
0.900214 0.875456 0.211872
0.933476 0.875125 0.211821
0.966738 0.874973 0.211799
1.000000 0.874828 0.211731
0.044539 0.797483 0.163996
0.089778 0.803735 0.162212
0.140294 0.815349 0.161625
0.201821 0.826082 0.163904
0.273214 0.838854 0.169631
0.354304 0.856470 0.177929
0.492785 0.881283 0.193401
0.618910 0.895559 0.201687
0.720382 0.906320 0.208864
0.785237 0.913327 0.210903
0.833690 0.917192 0.212077
0.866952 0.917750 0.212240
0.900214 0.917310 0.212189
0.933476 0.917043 0.212154
0.966738 0.916920 0.212135
1.000000 0.916890 0.212131
0.045393 0.841698 0.163286
0.090629 0.846859 0.162653
0.141539 0.859271 0.162281
0.203385 0.870144 0.164669
0.274489 0.881615 0.170175
0.354105 0.897476 0.177911
0.486910 0.920828 0.193137
0.610375 0.935006 0.201539
0.713611 0.945458 0.208520
0.780629 0.952985 0.210636
0.833690 0.957386 0.211980
0.866952 0.958883 0.212359
0.900214 0.958518 0.212321
0.933476 0.958271 0.212289
0.966738 0.958114 0.212269
1.000000 0.958074 0.212258
0.045455 0.881927 0.162639
0.090473 0.885844 0.161938
0.141578 0.898339 0.161894
0.203879 0.909932 0.164643
0.274950 0.921169 0.170094
0.352321 0.936226 0.177117
0.479219 0.959834 0.192569
0.606064 0.974770 0.201494
0.710443 0.985190 0.208387
0.778548 0.992856 0.210510
0.833617 0.997466 0.211917
0.866952 0.999378 0.212404
0.900214 0.998989 0.212367
0.933476 0.998706 0.212332
0.966738 0.998518 0.212306
1.000000 0.998467 0.212297
0.000000 0.000000 0.167809
0.033262 0.000000 0.166366
0.078046 0.000000 0.161938
0.154102 0.000000 0.156742
0.255176 0.000000 0.152670
0.368110 0.000000 0.141144
0.473295 0.000000 0.142199
0.554276 0.000858 0.148219
0.619343 0.013000 0.154172
0.677615 0.027695 0.159560
0.725139 0.042144 0.162654
0.768293 0.051329 0.164294
0.808631 0.051293 0.163824
0.848416 0.051224 0.163207
0.888177 0.051129 0.162385
0.927894 0.051035 0.161548
0.000000 0.038556 0.164186
0.033262 0.039658 0.164475
0.076002 0.040088 0.161714
0.155235 0.042074 0.157779
0.260355 0.044204 0.152921
0.378263 0.041051 0.143953
0.477769 0.037863 0.142826
0.556850 0.042502 0.146773
0.622303 0.054777 0.152598
0.681026 0.069965 0.157817
0.727720 0.084584 0.160542
0.770605 0.091456 0.161623
0.811176 0.091405 0.161087
0.850971 0.091320 0.160338
0.890757 0.091226 0.159692
0.930532 0.091125 0.159180
0.000000 0.082055 0.160894
0.033262 0.083401 0.160006
0.072290 0.086369 0.160966
0.158593 0.089887 0.157040
0.270017 0.091375 0.148512
0.392237 0.093279 0.146770
0.493952 0.094683 0.149368
0.569622 0.098229 0.150841
0.630944 0.106158 0.153071
0.687692 0.119686 0.156765
0.733253 0.133351 0.158985
0.776872 0.140603 0.160357
0.818986 0.142908 0.161022
0.858561 0.141974 0.160458
0.897781 0.140560 0.159618
0.936719 0.138702 0.158657
0.000000 0.137865 0.161542
0.033262 0.139397 0.159475
0.069230 0.142863 0.158389
0.153616 0.147812 0.156834
0.273986 0.153504 0.149236
0.405052 0.161753 0.151206
0.512208 0.168349 0.156247
0.591316 0.173273 0.159420
0.654851 0.181045 0.163133
0.709024 0.191316 0.166415
0.754627 0.203630 0.168628
0.798113 0.209067 0.169728
0.840342 0.211272 0.170225
0.879531 0.209630 0.169525
0.918102 0.207265 0.168619
0.956843 0.205605 0.167963
0.000000 0.204970 0.165608
0.033262 0.204790 0.162086
0.067446 0.207360 0.158237
0.139786 0.221129 0.158856
0.272624 0.227084 0.152510
0.416700 0.242397 0.155678
0.533160 0.262433 0.164660
0.615641 0.277822 0.171444
0.682010 0.289410 0.177029
0.734544 0.297977 0.180340
0.779650 0.305601 0.182146
0.822463 0.307830 0.182840
0.864678 0.310940 0.183587
0.904531 0.310198 0.183465
0.943273 0.307505 0.182876
0.981833 0.304760 0.182251
0.000000 0.277498 0.167583
0.033262 0.278604 0.164165
0.066940 0.283098 0.159485
0.125274 0.299871 0.158130
0.265373 0.329150 0.163359
0.421132 0.333049 0.159191
0.546841 0.356824 0.170451
0.633332 0.377597 0.179701
0.701850 0.392603 0.186682
0.751734 0.401440 0.189892
0.796964 0.405975 0.191596
0.839708 0.407531 0.192198
0.881518 0.409707 0.192660
0.922028 0.409841 0.192780
0.961069 0.406621 0.192449
0.998494 0.403441 0.192117
0.000000 0.360262 0.172165
0.033262 0.363070 0.168989
0.070879 0.369964 0.164672
0.124521 0.387300 0.160738
0.252916 0.428187 0.171362
0.425894 0.452534 0.174934
0.555571 0.456366 0.177576
0.646085 0.476032 0.187068
0.714334 0.490264 0.194020
0.765353 0.497911 0.197346
0.810810 0.498900 0.198590
0.853744 0.499243 0.199128
0.895498 0.500053 0.199460
0.933029 0.500027 0.199598
0.966738 0.496705 0.199338
1.000000 0.493121 0.199022
0.000000 0.443090 0.178542
0.038113 0.446981 0.175699
0.081348 0.455468 0.171508
0.132367 0.472972 0.166195
0.239018 0.511991 0.177339
0.423044 0.550007 0.193693
0.559668 0.557754 0.190404
0.654276 0.563789 0.194213
