example_ofxGpuLutCube/bin/data/ofxGpuLutCube/LUT/T24 (bright warm).cube
LUT_3D_SIZE 6
0.000000 0.000000 0.012837
0.167372 0.000000 0.008759
0.470992 0.000000 0.007337
0.673088 0.024794 0.028621
0.805510 0.050302 0.034601
0.924841 0.050279 0.034529
0.000000 0.133238 0.019191
0.161119 0.143554 0.017795
0.517123 0.177057 0.032304
0.715305 0.210512 0.048979
0.844583 0.224465 0.052391
0.960795 0.219759 0.050660
0.000000 0.345129 0.032888
0.132079 0.388580 0.034241
0.559745 0.454272 0.057115
0.764239 0.496341 0.076375
0.893951 0.498201 0.078219
1.000000 0.491301 0.077731
0.015431 0.579194 0.055046
0.167311 0.623173 0.060972
0.560935 0.707436 0.106696
0.785766 0.712334 0.091604
0.900214 0.707008 0.090596
1.000000 0.704751 0.090298
0.044191 0.752533 0.077668
0.205616 0.783506 0.083497
0.514047 0.843466 0.114423
0.790581 0.873375 0.130742
0.900214 0.875623 0.131529
1.000000 0.875035 0.131396
0.046708 0.882129 0.079073
0.209212 0.910522 0.084798
0.487650 0.960949 0.113218
0.779745 0.993244 0.130192
0.900214 0.999038 0.131954
1.000000 0.998507 0.131883
0.000000 0.000000 0.167809
0.154102 0.000000 0.156742
0.473295 0.000000 0.142199
0.677615 0.027695 0.159560
0.808631 0.051293 0.163824
0.927894 0.051035 0.161548
0.000000 0.137865 0.161542
0.153616 0.147812 0.156834
0.512208 0.168349 0.156247
0.709024 0.191316 0.166415
0.840342 0.211272 0.170225
0.956843 0.205605 0.167963
0.000000 0.360262 0.172165
0.124521 0.387300 0.160738
0.555571 0.456366 0.177576
0.765353 0.497911 0.197346
0.895498 0.500053 0.199460
1.000000 0.493121 0.199022
0.019820 0.590520 0.194292
0.160246 0.622712 0.182854
0.549990 0.706526 0.224784
0.786432 0.713935 0.212508
0.900214 0.708629 0.211610
1.000000 0.706046 0.211265
0.041096 0.756391 0.220080
0.195793 0.783091 0.204865
0.497660 0.842673 0.234817
0.789467 0.873515 0.251343
0.900214 0.875747 0.252207
1.000000 0.875023 0.251988
0.043848 0.886202 0.223499
0.199959 0.910317 0.209545
0.469470 0.958937 0.232942
0.777637 0.992525 0.250641
0.900214 0.998942 0.252590
1.000000 0.998447 0.252530
0.000000 0.029505 0.416099
0.136689 0.025782 0.403916
0.439393 0.011815 0.355969
0.678843 0.056868 0.379572
0.821196 0.074588 0.386236
0.940888 0.075414 0.379845
0.000000 0.173170 0.415481
0.125686 0.193109 0.428556
0.483630 0.198413 0.390657
0.716440 0.228249 0.404940
0.851079 0.238865 0.403530
0.965414 0.230314 0.391560
0.000000 0.384389 0.426545
0.123970 0.424079 0.432135
0.532737 0.476501 0.428195
0.767025 0.500289 0.412614
0.896409 0.498981 0.396931
1.000000 0.492701 0.389736
0.035209 0.630270 0.474531
0.159620 0.649901 0.445165
0.494152 0.704540 0.414923
0.778608 0.711404 0.353982
0.900214 0.709812 0.340929
1.000000 0.707618 0.338555
0.048226 0.779257 0.478294
0.173866 0.796939 0.447989
0.437171 0.845994 0.416518
0.781044 0.871153 0.388215
0.900214 0.874906 0.381083
1.000000 0.874041 0.380678
0.049865 0.907195 0.479979
0.176182 0.924615 0.453960
0.412914 0.963093 0.430158
0.767881 0.990355 0.405485
0.900214 0.996916 0.382529
1.000000 0.996823 0.381421
0.001450 0.097563 0.652102
0.161129 0.093809 0.652113
0.406218 0.065744 0.614483
0.675668 0.075850 0.608088
0.838742 0.105043 0.651479
0.958072 0.105057 0.647035
0.003186 0.228146 0.663997
0.141926 0.254926 0.682306
0.439902 0.246935 0.666783
0.704936 0.233354 0.650020
0.859830 0.258285 0.677816
0.973681 0.248191 0.667356
0.012250 0.428963 0.684838
0.140092 0.458002 0.697922
0.468808 0.506361 0.731337
0.763553 0.515503 0.727884
0.900214 0.519430 0.732710
1.000000 0.514497 0.727911
0.032725 0.627935 0.707827
0.164148 0.660186 0.720360
0.371782 0.716964 0.743585
0.775917 0.725088 0.721950
0.900214 0.723972 0.712168
1.000000 0.722219 0.706760
0.053360 0.794215 0.731904
0.181804 0.816671 0.737836
0.356442 0.856112 0.727257
0.755315 0.877303 0.703412
0.900214 0.880190 0.687922
1.000000 0.878701 0.680351
0.055876 0.923124 0.730700
0.183658 0.942951 0.735601
0.366404 0.975591 0.721897
0.741223 0.997263 0.701139
0.900214 0.999995 0.685355
1.000000 0.999992 0.676583
0.018638 0.143861 0.818255
0.189285 0.166162 0.835902
0.430100 0.130675 0.819720
0.680758 0.121990 0.823171
0.848830 0.125431 0.826884
0.968706 0.125937 0.826005
0.023080 0.284617 0.834530
0.155331 0.309052 0.850444
0.445569 0.312162 0.863312
0.722406 0.295746 0.865290
0.878013 0.292699 0.865528
0.989300 0.277351 0.855527
0.031815 0.471582 0.858006
0.157138 0.491869 0.869960
0.423903 0.527562 0.894174
0.754958 0.528202 0.899928
0.900214 0.523890 0.899897
1.000000 0.519377 0.899337
0.042331 0.645779 0.873520
0.170723 0.670162 0.886393
0.325097 0.716484 0.900214
0.759333 0.728389 0.900214
0.900214 0.726297 0.900214
1.000000 0.724812 0.900214
0.049447 0.786361 0.881693
0.177929 0.808170 0.891555
0.315794 0.851248 0.900214
0.740876 0.881765 0.900214
0.900214 0.887812 0.900176
1.000000 0.887468 0.899498
0.052365 0.916351 0.885043
0.180868 0.936731 0.894161
0.316057 0.972177 0.900214
0.724178 0.999998 0.900214
0.900214 1.000000 0.898731
1.000000 1.000000 0.897900
0.020369 0.148169 0.941401
0.187485 0.172268 0.960527
0.435130 0.146897 0.953017
0.678861 0.130740 0.956203
0.850962 0.130672 0.960052
0.971129 0.130212 0.959165
0.025702 0.293296 0.961222
0.154202 0.317239 0.975257
0.448529 0.332844 0.995207
0.735730 0.328490 1.000000
0.895195 0.330871 1.000000
1.000000 0.327177 1.000000
0.035012 0.480098 0.985918
0.159271 0.498686 0.995021
0.414969 0.535998 1.000000
0.753877 0.539099 1.000000
0.900214 0.535588 1.000000
1.000000 0.533764 1.000000
0.044649 0.650087 0.999978
0.172138 0.672571 1.000000
0.321581 0.716547 1.000000
0.755679 0.728301 1.000000
0.900214 0.725762 1.000000
1.000000 0.724242 1.000000
0.049997 0.787580 1.000000
0.178216 0.808580 1.000000
0.314512 0.848286 1.000000
0.737285 0.875691 1.000000
0.900214 0.889164 1.000000
1.000000 0.889076 1.000000
0.053075 0.917791 1.000000
0.180979 0.936700 1.000000
0.314188 0.968053 1.000000
0.715826 0.996815 1.000000
0.900214 1.000000 1.000000
1.000000 1.000000 1.000000
