example_ofxGpuLutCube/bin/data/ofxGpuLutCube/LUT/T25 (bright teal orange).cube
LUT_3D_SIZE 6
0.004456 0.008209 0.009094
0.197229 0.021356 0.000019
0.416535 0.026117 0.000000
0.553223 0.027746 0.000000
0.659039 0.030914 0.000000
0.751781 0.037401 0.000031
0.054907 0.146185 0.074658
0.174002 0.126507 0.023071
0.356430 0.152479 0.000015
0.522821 0.168815 0.000029
0.634889 0.174275 0.000019
0.739187 0.183703 0.000018
0.133722 0.294086 0.156287
0.212722 0.294454 0.157258
0.423869 0.288066 0.014690
0.611706 0.319778 0.002826
0.733882 0.343776 0.001571
0.833049 0.364190 0.000006
0.169422 0.431360 0.192652
0.214108 0.462945 0.185295
0.427217 0.452469 0.151561
0.621243 0.458689 0.028079
0.773144 0.491080 0.011106
0.873199 0.540702 0.115595
0.170654 0.586035 0.193323
0.192110 0.628367 0.173251
0.427079 0.612478 0.156464
0.615221 0.618567 0.074391
0.780188 0.632177 0.035702
0.876587 0.668894 0.142893
0.123802 0.760173 0.160646
0.161959 0.792574 0.123023
0.425094 0.779795 0.085412
0.613312 0.759983 0.043774
0.782325 0.780648 0.025688
0.871366 0.799665 0.140941
0.000000 0.037939 0.050269
0.154908 0.052667 0.136920
0.453549 0.019057 0.101031
0.629475 0.003125 0.071392
0.742533 0.003795 0.057008
0.836913 0.004399 0.047313
0.000000 0.138558 0.130415
0.113315 0.157059 0.159229
0.370386 0.168459 0.131546
0.590305 0.160207 0.094682
0.726578 0.150807 0.072045
0.837685 0.149608 0.059049
0.078123 0.304673 0.211324
0.145318 0.319942 0.219553
0.408365 0.323072 0.178968
0.622828 0.336582 0.096602
0.761528 0.350538 0.052539
0.857811 0.373436 0.060422
0.141533 0.462576 0.253336
0.172041 0.492129 0.255703
0.411459 0.490037 0.230831
0.625705 0.503675 0.172277
0.783200 0.527288 0.115458
0.878456 0.564848 0.168261
0.147192 0.621170 0.267822
0.164365 0.658499 0.261274
0.407305 0.679077 0.233602
0.618089 0.660595 0.192450
0.789754 0.675614 0.172583
0.883913 0.697639 0.206451
0.097386 0.787894 0.267328
0.115796 0.816992 0.259859
0.404684 0.848156 0.237518
0.630521 0.817011 0.222545
0.796303 0.822950 0.202718
0.888095 0.836285 0.279576
0.000000 0.087018 0.109235
0.030405 0.145757 0.201667
0.345376 0.118221 0.284639
0.564415 0.098953 0.281249
0.713905 0.086062 0.264791
0.831308 0.055910 0.249615
0.000000 0.164899 0.184997
0.035465 0.189048 0.223364
0.314152 0.216268 0.303660
0.587782 0.200674 0.299330
0.760073 0.182543 0.280756
0.881880 0.168207 0.264309
0.000000 0.302802 0.292614
0.000211 0.321704 0.308144
0.330687 0.389465 0.402605
0.619680 0.404159 0.365506
0.784715 0.413881 0.345144
0.888758 0.422651 0.334056
0.005614 0.473473 0.342948
0.051559 0.506537 0.355729
0.374417 0.574680 0.415719
0.633301 0.574217 0.406533
0.800303 0.602711 0.373818
0.896020 0.620042 0.361572
0.049447 0.639316 0.367548
0.082450 0.676910 0.376883
0.363267 0.733661 0.423120
0.632872 0.721989 0.413957
0.808237 0.734728 0.418846
0.905980 0.750344 0.403331
0.017661 0.803911 0.374957
0.053891 0.832380 0.383065
0.366033 0.875285 0.431927
0.645378 0.881799 0.427431
0.811729 0.864807 0.425770
0.909994 0.876200 0.501897
0.000000 0.125361 0.154767
0.013557 0.177357 0.230931
0.317441 0.191530 0.347915
0.491403 0.157430 0.396545
0.639955 0.137904 0.404234
0.776361 0.122926 0.407168
0.000000 0.188010 0.217797
0.031418 0.218627 0.265756
0.253826 0.264105 0.478047
0.499128 0.244348 0.446057
0.677531 0.223608 0.460482
0.829788 0.202907 0.461495
0.000000 0.320426 0.351337
0.000000 0.334952 0.370632
0.282821 0.423663 0.498487
0.577298 0.430592 0.553336
0.793428 0.420419 0.541313
0.920304 0.413277 0.514038
0.000000 0.460535 0.446662
0.000000 0.490981 0.469217
0.303988 0.582517 0.573463
0.607466 0.626833 0.628668
0.815250 0.639881 0.589043
0.918296 0.646679 0.573337
0.000000 0.617704 0.480308
0.000000 0.670794 0.500499
0.300451 0.740106 0.572599
0.639889 0.777221 0.621138
0.820896 0.773210 0.628615
0.920415 0.787277 0.605883
0.000000 0.790120 0.500881
0.000000 0.835321 0.512919
0.315879 0.886345 0.591685
0.636708 0.914510 0.631276
0.826342 0.901393 0.635796
0.926571 0.903621 0.684838
0.000000 0.162970 0.200055
0.014742 0.210975 0.272610
0.245644 0.253294 0.529694
0.490347 0.202740 0.487965
0.601729 0.184531 0.526714
0.723409 0.169887 0.542528
0.000000 0.215686 0.256408
0.034489 0.252475 0.314964
0.172516 0.319252 0.506700
0.484571 0.283351 0.535912
0.637836 0.252038 0.587673
0.770029 0.233383 0.605237
0.000000 0.341276 0.406314
0.000078 0.366997 0.454395
0.262892 0.459853 0.586704
0.564745 0.452925 0.717107
0.729614 0.456976 0.686458
0.868502 0.438872 0.695920
0.000000 0.483967 0.543669
0.000000 0.506426 0.567922
0.286947 0.606168 0.697426
0.594846 0.650299 0.745470
0.803514 0.649848 0.745157
0.936078 0.640917 0.727655
0.000000 0.625773 0.604371
0.000000 0.664200 0.632355
0.288674 0.742504 0.712416
0.613499 0.778221 0.751323
0.832884 0.798670 0.767550
0.935721 0.807557 0.752089
0.000000 0.777431 0.617535
0.000000 0.820199 0.636470
0.290128 0.887707 0.706299
0.620184 0.921341 0.761186
0.838934 0.933992 0.778671
0.939223 0.921994 0.802858
0.000000 0.209759 0.260482
0.026772 0.255185 0.336345
0.177363 0.311720 0.559718
0.459417 0.283117 0.588666
0.603544 0.232455 0.615139
0.718529 0.200332 0.660651
0.000000 0.262261 0.328643
0.046437 0.298101 0.388838
0.145804 0.365367 0.564388
0.474854 0.329049 0.737450
0.623740 0.302222 0.669011
0.762523 0.258354 0.722312
0.000000 0.373326 0.481770
0.044496 0.432741 0.581789
0.255245 0.506504 0.691453
0.521741 0.488453 0.879715
0.722462 0.480453 0.781797
0.839597 0.462784 0.810472
0.000000 0.512024 0.647632
0.000000 0.547643 0.697510
0.301888 0.650125 0.796082
0.583584 0.677032 0.857353
0.794776 0.667085 0.853957
0.888093 0.669564 0.860495
0.000000 0.650550 0.726975
0.000000 0.679665 0.754694
0.309305 0.764700 0.854346
0.584413 0.799170 0.870592
0.826834 0.814390 0.908350
0.926898 0.817601 0.891917
0.000000 0.795170 0.758685
0.000000 0.832278 0.786292
0.317476 0.890770 0.846068
0.593682 0.917203 0.872758
0.831881 0.941454 0.901035
0.954555 0.943003 0.916369
