example_ofxGpuLutCube/bin/data/ofxGpuLutCube/LUT/T25 (bright teal orange).cube
LUT_3D_SIZE 16
0.004456 0.008209 0.009094
0.039411 0.009700 0.004705
0.114333 0.014775 0.000008
0.197229 0.021356 0.000019
0.270581 0.023452 0.000031
0.342469 0.024780 0.000010
0.416535 0.026117 0.000000
0.469619 0.026874 0.000000
0.514042 0.027087 0.000031
0.553223 0.027746 0.000000
0.590525 0.028504 0.000010
0.626311 0.029809 0.000017
0.659039 0.030914 0.000000
0.689384 0.032381 0.000000
0.720368 0.034662 0.000004
0.751781 0.037401 0.000031
0.018679 0.036619 0.017090
0.045367 0.033091 0.009942
0.085136 0.033542 0.002316
0.141939 0.038627 0.000016
0.200088 0.044154 0.000014
0.260414 0.046885 0.000021
0.316586 0.045222 0.000001
0.384984 0.042507 0.000004
0.454286 0.041664 0.000004
0.503286 0.040934 0.000006
0.547617 0.040814 0.000009
0.591593 0.041031 0.000017
0.634598 0.042327 0.000018
0.675033 0.044521 0.000007
0.707936 0.047023 0.000004
0.738542 0.050214 0.000027
0.034261 0.090908 0.042387
0.061294 0.080349 0.037823
0.097193 0.076286 0.022773
0.157733 0.078281 0.000676
0.209150 0.087641 0.000004
0.269700 0.096994 0.000015
0.331762 0.102011 0.000005
0.388278 0.102683 0.000008
0.445158 0.099492 0.000008
0.492354 0.095382 0.000029
0.526421 0.092864 0.000015
0.560411 0.090353 0.000027
0.597890 0.088944 0.000005
0.637536 0.088705 0.000000
0.672655 0.090229 0.000030
0.702876 0.093848 0.000031
0.054907 0.146185 0.074658
0.077624 0.142426 0.070029
0.113487 0.130865 0.066300
0.174002 0.126507 0.023071
0.234385 0.130828 0.000756
0.293231 0.141402 0.000004
0.356430 0.152479 0.000015
0.410384 0.159712 0.000029
0.467230 0.164712 0.000013
0.522821 0.168815 0.000029
0.564927 0.170831 0.000019
0.599332 0.172378 0.000019
0.634889 0.174275 0.000019
0.672577 0.176744 0.000017
0.709895 0.179877 0.000012
0.739187 0.183703 0.000018
0.082518 0.197786 0.106419
0.093425 0.195872 0.100413
0.128403 0.191184 0.100978
0.187348 0.182397 0.088324
0.252977 0.178140 0.016963
0.319187 0.185758 0.001346
0.388195 0.197373 0.000615
0.450231 0.206595 0.000017
0.504549 0.214649 0.000002
0.557892 0.222444 0.000015
0.603331 0.228966 0.000006
0.635756 0.233264 0.000022
0.667005 0.237732 0.000000
0.701025 0.242495 0.000016
0.736167 0.247954 0.000016
0.765827 0.253167 0.000017
0.111328 0.247579 0.134440
0.115658 0.247541 0.128024
0.136655 0.247654 0.126620
0.202836 0.236326 0.130774
0.263795 0.234817 0.096173
0.335391 0.230964 0.012594
0.412513 0.242112 0.003162
0.481682 0.253226 0.001520
0.537285 0.261893 0.001008
0.590021 0.270772 0.000834
0.640740 0.279528 0.000014
0.675798 0.285523 0.000010
0.706065 0.290517 0.000027
0.737553 0.296207 0.000010
0.769585 0.302608 0.000000
0.799405 0.309347 0.000021
0.133722 0.294086 0.156287
0.136350 0.295071 0.150757
0.146545 0.297587 0.148164
0.212722 0.294454 0.157258
0.275681 0.287732 0.146004
0.340898 0.288526 0.090955
0.423869 0.288066 0.014690
0.501747 0.300209 0.004887
0.558353 0.309989 0.004278
0.611706 0.319778 0.002826
0.662687 0.330001 0.001823
0.703542 0.337961 0.001507
0.733882 0.343776 0.001571
0.765039 0.349838 0.000434
0.795989 0.357093 0.000000
0.833049 0.364190 0.000006
0.150904 0.341425 0.173563
0.153028 0.342974 0.168911
0.159630 0.347052 0.165401
0.216892 0.352115 0.172382
0.285670 0.338217 0.172750
0.347387 0.342660 0.147132
0.420894 0.340477 0.066911
0.505766 0.343955 0.017151
0.567569 0.355082 0.011390
0.622880 0.365767 0.005567
0.674280 0.377940 0.005759
0.720162 0.389274 0.005798
0.753081 0.395595 0.002088
0.783940 0.402761 0.002153
0.814241 0.410765 0.002191
0.857745 0.425745 0.032270
0.162371 0.387345 0.185364
0.164271 0.390481 0.181363
0.168784 0.397932 0.177289
0.216873 0.409539 0.181579
0.291588 0.397566 0.186094
0.354601 0.392658 0.170503
0.422767 0.400253 0.129801
0.498123 0.395768 0.042531
0.568101 0.400642 0.025229
0.625916 0.411695 0.017875
0.679675 0.423717 0.011519
0.730795 0.435991 0.006734
0.764439 0.444075 0.006660
0.795132 0.451805 0.006824
0.826858 0.459136 0.003244
0.865453 0.487390 0.083310
0.169422 0.431360 0.192652
0.171086 0.435906 0.188724
0.174009 0.446579 0.184109
0.214108 0.462945 0.185295
0.292467 0.457876 0.190792
0.357788 0.444893 0.183350
0.427217 0.452469 0.151561
0.497844 0.458106 0.102319
0.561946 0.455069 0.043093
0.621243 0.458689 0.028079
0.680860 0.469425 0.023686
0.733597 0.482472 0.018039
0.773144 0.491080 0.011106
0.805192 0.497926 0.007599
0.835956 0.506059 0.007404
0.873199 0.540702 0.115595
0.173493 0.478312 0.196706
0.174784 0.483929 0.192671
0.176320 0.496555 0.187206
0.210148 0.513840 0.185535
0.290098 0.515453 0.189939
0.359714 0.501811 0.185133
0.428164 0.499737 0.164630
0.499892 0.509711 0.122630
0.560449 0.512298 0.082374
0.616803 0.511452 0.039240
0.674774 0.517494 0.030809
0.733922 0.527992 0.029957
0.778741 0.538342 0.023079
0.811285 0.545801 0.018695
0.844262 0.552499 0.011455
0.875811 0.586733 0.126175
0.174253 0.529865 0.197296
0.174849 0.537178 0.192524
0.175015 0.551732 0.186060
0.202840 0.568869 0.182023
0.284515 0.576276 0.183991
0.358562 0.562383 0.180270
0.426683 0.550288 0.165730
0.500753 0.558339 0.134521
0.561281 0.563870 0.097586
0.615084 0.565727 0.067925
0.671068 0.568029 0.039023
0.729054 0.574847 0.033047
0.780379 0.582772 0.034625
0.816481 0.588789 0.028390
0.849249 0.596521 0.023128
0.877902 0.627165 0.127931
0.170654 0.586035 0.193323
0.169827 0.597300 0.186973
0.168814 0.612586 0.179518
0.192110 0.628367 0.173251
0.276521 0.638502 0.172968
0.354181 0.626081 0.168361
0.427079 0.612478 0.156464
0.498655 0.608436 0.133350
0.562424 0.615233 0.103800
0.615221 0.618567 0.074391
0.669492 0.621751 0.055957
0.726986 0.626164 0.038024
0.780188 0.632177 0.035702
0.816626 0.635089 0.037043
0.853803 0.640826 0.037847
0.876587 0.668894 0.142893
0.161783 0.642472 0.185101
0.159175 0.658366 0.175337
0.157459 0.673241 0.166437
0.179661 0.688990 0.158662
0.267248 0.701522 0.155288
0.348094 0.691516 0.148856
0.425742 0.678026 0.137001
0.496181 0.664402 0.119714
0.561074 0.667778 0.097481
0.616076 0.672226 0.073432
0.669598 0.675890 0.048919
0.726296 0.681149 0.046577
0.780884 0.686194 0.038473
0.818678 0.688450 0.038086
0.853791 0.691840 0.047309
0.873309 0.712327 0.157041
0.146185 0.702568 0.173846
0.146187 0.715858 0.164129
0.141628 0.728640 0.149185
0.169922 0.742611 0.139803
0.260924 0.754770 0.133340
0.344295 0.744913 0.125846
0.423943 0.733812 0.112010
0.497936 0.721906 0.095910
0.557826 0.715837 0.079053
0.615144 0.721950 0.061085
0.670424 0.727242 0.041516
0.726544 0.733069 0.028903
0.782266 0.739854 0.041782
0.822186 0.742844 0.040377
0.855285 0.745908 0.046626
0.871299 0.759234 0.145143
0.123802 0.760173 0.160646
0.126787 0.770349 0.153003
0.127260 0.780623 0.140209
0.161959 0.792574 0.123023
0.258573 0.801897 0.110494
0.342571 0.791557 0.098254
0.425094 0.779795 0.085412
0.500853 0.768274 0.071818
0.557369 0.757853 0.058122
0.613312 0.759983 0.043774
0.669662 0.766213 0.030939
0.726722 0.773161 0.022490
0.782325 0.780648 0.025688
0.824223 0.785542 0.041186
0.856497 0.789210 0.045987
0.871366 0.799665 0.140941
0.000000 0.013855 0.018581
0.029083 0.015672 0.032875
0.116426 0.015017 0.023588
0.207102 0.012456 0.011173
0.288056 0.008353 0.002352
0.358606 0.009775 0.000824
0.435123 0.012583 0.000281
0.497889 0.014729 0.000129
0.540535 0.015903 0.000082
0.578471 0.017249 0.000006
0.614727 0.018509 0.000009
0.650786 0.019983 0.000014
0.685832 0.021436 0.000012
0.715453 0.023244 0.000021
0.745224 0.025518 0.000008
0.775553 0.028272 0.000000
0.000737 0.037017 0.036575
0.023854 0.039315 0.041777
0.070588 0.039674 0.034331
0.136530 0.041339 0.025119
0.207525 0.039446 0.012564
0.278784 0.034875 0.002557
0.338173 0.031675 0.000315
0.402031 0.029613 0.000030
0.473620 0.028948 0.000002
0.530509 0.028251 0.000021
0.574194 0.028839 0.000011
0.616266 0.030026 0.000016
0.658918 0.031512 0.000002
0.700737 0.033782 0.000004
0.734611 0.036551 0.000007
0.765238 0.039601 0.000004
0.012203 0.083683 0.056450
0.044429 0.083373 0.056980
0.084420 0.078093 0.049419
0.148938 0.078591 0.027055
0.212220 0.077696 0.005456
0.267159 0.082281 0.000772
0.324703 0.085603 0.000021
0.376944 0.085064 0.000018
0.430956 0.081615 0.000002
0.482827 0.076642 0.000017
0.523415 0.074134 0.000017
0.563107 0.072692 0.000015
0.605794 0.071583 0.000012
0.651005 0.070871 0.000014
0.692021 0.071492 0.000017
0.722469 0.075450 0.000030
0.035041 0.139188 0.084815
0.061614 0.138284 0.084752
0.101564 0.132281 0.079538
0.163966 0.127098 0.054364
0.229070 0.124467 0.007464
0.284963 0.132008 0.000291
0.344503 0.142591 0.000014
0.399979 0.149413 0.000002
0.455607 0.154205 0.000016
0.513513 0.157544 0.000018
0.559496 0.159573 0.000014
0.594981 0.161170 0.000019
0.631409 0.163095 0.000012
0.669372 0.165598 0.000015
0.708190 0.169061 0.000024
0.739952 0.173678 0.000000
0.069340 0.193082 0.115710
0.083614 0.191943 0.114875
0.113305 0.191198 0.109884
0.178432 0.180697 0.101706
0.245629 0.177071 0.041703
0.311215 0.178980 0.001863
0.378018 0.189862 0.000595
0.440150 0.199370 0.000003
0.493955 0.207202 0.000002
0.546968 0.214907 0.000014
0.595820 0.221887 0.000005
0.630033 0.226566 0.000008
0.663437 0.230905 0.000003
0.698713 0.236081 0.000014
0.735022 0.242130 0.000002
0.767222 0.248253 0.000002
0.103455 0.245534 0.145239
0.112354 0.244422 0.143194
0.126893 0.245453 0.138680
0.192748 0.238484 0.138286
0.256359 0.234518 0.114242
0.328054 0.228685 0.025313
0.404189 0.236851 0.003124
0.474353 0.247883 0.001371
0.529821 0.256382 0.000988
0.583184 0.264958 0.000041
0.634449 0.274007 0.000007
0.672789 0.280809 0.000017
0.704122 0.286311 0.000002
0.736677 0.292567 0.000010
0.769256 0.299590 0.000002
0.800923 0.307172 0.000003
0.128399 0.294174 0.167455
0.135939 0.294701 0.165938
0.144698 0.297339 0.162558
0.199718 0.300721 0.162402
0.268705 0.288884 0.155388
0.334507 0.290845 0.113824
0.416405 0.286520 0.023073
0.495289 0.296744 0.004843
0.553365 0.306570 0.004225
0.607431 0.315984 0.001725
0.658675 0.326410 0.001790
0.702385 0.335326 0.001514
0.733757 0.341653 0.001546
0.765630 0.347976 0.000008
0.796784 0.355422 0.000001
0.835753 0.362687 0.000006
0.147298 0.343369 0.184607
0.153876 0.344294 0.183133
0.160823 0.348192 0.180360
0.201007 0.357842 0.176483
0.277895 0.343500 0.180088
0.341522 0.344920 0.158118
0.415283 0.345374 0.094564
0.500084 0.343680 0.019007
0.563715 0.354739 0.011971
0.619644 0.365156 0.005560
0.671708 0.377280 0.005734
0.719830 0.389272 0.005810
0.753998 0.396069 0.002106
0.784975 0.403460 0.002158
0.815703 0.411589 0.002218
0.859012 0.428794 0.041205
0.159965 0.392423 0.196229
0.166094 0.394841 0.194995
0.172114 0.401387 0.192633
0.198988 0.415610 0.185474
0.282331 0.407679 0.191363
0.348116 0.396817 0.179755
0.417082 0.404273 0.142951
0.494942 0.403585 0.076178
0.563345 0.402942 0.030087
0.622430 0.412560 0.018694
0.676663 0.424671 0.012882
0.729343 0.436978 0.006754
0.765228 0.445915 0.006696
0.796218 0.453572 0.006862
0.828125 0.461009 0.003248
0.866561 0.491781 0.092820
0.167444 0.438789 0.203687
0.173257 0.442521 0.202271
0.178697 0.452492 0.199892
0.197371 0.469970 0.190954
0.280366 0.472174 0.194925
0.351076 0.454877 0.189727
0.421430 0.458092 0.163248
0.493471 0.464971 0.121377
0.559493 0.463239 0.068753
0.617452 0.462889 0.033956
0.677597 0.471463 0.024769
0.731620 0.484525 0.018782
0.773446 0.493690 0.011657
0.805763 0.500497 0.007670
0.836794 0.508617 0.007435
0.874037 0.544953 0.122848
0.171297 0.487062 0.208157
0.176638 0.492057 0.206539
0.181613 0.503691 0.203685
0.194559 0.522000 0.193079
0.275297 0.531211 0.193524
0.352065 0.515674 0.190402
0.421417 0.507448 0.172974
0.495861 0.517131 0.135043
0.557649 0.521126 0.102317
0.615246 0.521285 0.065463
0.672316 0.524392 0.043278
0.731553 0.532222 0.032600
0.778945 0.542113 0.024498
0.811661 0.548995 0.019429
0.844775 0.555606 0.011867
0.876607 0.591258 0.132608
0.171504 0.539452 0.209348
0.176384 0.546052 0.207245
0.180482 0.559573 0.203419
0.189620 0.577127 0.191253
0.268029 0.589684 0.188333
0.349259 0.576768 0.185024
0.420526 0.561557 0.171982
0.495726 0.565777 0.144948
0.558336 0.571850 0.108502
0.613063 0.575104 0.089157
0.670009 0.577714 0.062694
0.727776 0.582609 0.047253
0.780534 0.589299 0.043248
0.817109 0.594607 0.035786
0.850188 0.602247 0.030665
0.878599 0.632733 0.134840
0.166883 0.596428 0.206935
0.171064 0.606581 0.203440
0.174577 0.620478 0.198575
0.181291 0.636580 0.184636
0.257901 0.651396 0.178321
0.343388 0.640767 0.173662
0.420407 0.625627 0.161793
0.492768 0.616161 0.141740
0.558813 0.623133 0.115990
0.613103 0.626980 0.088117
0.668272 0.631078 0.077580
0.726389 0.635430 0.060283
0.780728 0.640728 0.053131
0.817402 0.642993 0.051398
0.854684 0.648033 0.050948
0.877336 0.674928 0.151706
0.156741 0.654973 0.202607
0.159334 0.669519 0.196451
0.162287 0.683101 0.189725
0.169371 0.698752 0.175304
0.244638 0.714936 0.163535
0.335303 0.707597 0.156002
0.417615 0.692086 0.143585
0.491757 0.676720 0.126379
0.556654 0.675711 0.108024
0.613274 0.680537 0.088198
0.668189 0.684779 0.066767
0.725452 0.690186 0.066910
0.781049 0.695176 0.059538
0.819872 0.697335 0.057714
0.855020 0.700083 0.064059
0.874052 0.718753 0.166757
0.140060 0.713742 0.195375
0.142591 0.726269 0.188769
0.145562 0.738029 0.182060
0.158265 0.751729 0.169310
0.237609 0.767000 0.152255
0.330694 0.763504 0.140115
0.416576 0.749651 0.125931
0.494548 0.736694 0.108417
0.553516 0.725887 0.092676
0.612158 0.730879 0.076151
0.668828 0.736228 0.060717
0.725862 0.742031 0.047911
0.782292 0.748786 0.061779
0.823319 0.751670 0.061012
0.856716 0.753959 0.065763
0.872861 0.766127 0.158070
0.117356 0.769303 0.188208
0.120928 0.779104 0.182551
0.124667 0.788846 0.175914
0.143797 0.800341 0.164557
0.236101 0.813453 0.148510
0.331464 0.812072 0.136071
0.420163 0.797860 0.118184
0.499287 0.784766 0.097366
0.558258 0.773726 0.083387
0.611885 0.769860 0.069458
0.668786 0.775440 0.054016
0.726142 0.781927 0.043363
0.782441 0.789066 0.039999
0.825257 0.794159 0.061944
0.858030 0.797267 0.064102
0.873289 0.807079 0.156527
0.000000 0.023078 0.030914
0.003039 0.033808 0.056020
0.087834 0.031903 0.082280
0.191239 0.025642 0.073509
0.288977 0.013524 0.051795
0.374415 0.003821 0.036715
0.460886 0.002496 0.027605
0.536577 0.002865 0.020854
0.583208 0.003082 0.016639
0.623764 0.003298 0.012938
0.661500 0.003583 0.009662
0.696106 0.004948 0.007860
0.729924 0.006650 0.006281
0.759108 0.008136 0.004979
0.787466 0.009763 0.003696
0.816960 0.011482 0.002499
0.000000 0.041871 0.050560
0.005385 0.047234 0.058698
0.051731 0.050687 0.073397
0.134150 0.050275 0.065153
0.214086 0.049529 0.055273
0.299232 0.042724 0.042765
0.382468 0.028879 0.028206
0.464950 0.015318 0.014766
0.539064 0.008979 0.006809
0.592948 0.008342 0.004801
0.633292 0.009367 0.003750
0.672371 0.010852 0.002743
0.711110 0.012859 0.001956
0.750398 0.015196 0.001142
0.782422 0.017927 0.000849
0.810891 0.020655 0.000675
0.000000 0.083511 0.076466
0.010219 0.086604 0.083766
0.056194 0.090103 0.090685
0.136745 0.094177 0.082886
0.207640 0.096931 0.072698
0.282582 0.096007 0.056779
0.362838 0.089853 0.037599
0.432412 0.079496 0.020594
0.490864 0.070382 0.011761
0.548095 0.062706 0.007534
0.590922 0.057599 0.004764
0.628543 0.054566 0.002778
0.668571 0.051418 0.001031
0.709979 0.049822 0.000255
0.747712 0.050401 0.000027
0.776067 0.053596 0.000012
0.004404 0.138296 0.102281
0.023829 0.138814 0.106074
0.074281 0.141215 0.110595
0.152310 0.139799 0.101243
0.223306 0.141946 0.079415
0.295155 0.141825 0.050993
0.372632 0.139624 0.020187
0.427691 0.142430 0.010943
0.476878 0.145137 0.005442
0.533060 0.146514 0.000946
0.578197 0.148311 0.000000
0.611499 0.149801 0.000010
0.645228 0.151418 0.000006
0.681225 0.153854 0.000000
0.718760 0.157181 0.000003
0.750702 0.161689 0.000023
0.041455 0.194012 0.133243
0.058329 0.193635 0.134671
0.088858 0.195423 0.136629
0.166415 0.192854 0.131192
0.237484 0.191369 0.107650
0.312707 0.190304 0.058456
0.388970 0.191066 0.017868
0.449751 0.197394 0.005886
0.501366 0.203506 0.000015
0.550687 0.211094 0.000004
0.599759 0.218194 0.000014
0.635282 0.222649 0.000010
0.668483 0.226903 0.000014
0.703466 0.232121 0.000024
0.739557 0.238115 0.000017
0.773063 0.244235 0.000004
0.084123 0.247707 0.161806
0.096175 0.247479 0.162384
0.112395 0.248838 0.163007
0.174865 0.251906 0.158880
0.249093 0.243018 0.146919
0.324033 0.243264 0.098244
0.407058 0.241468 0.028867
0.477837 0.248035 0.006432
0.531296 0.255322 0.000990
0.583671 0.263616 0.000009
0.634821 0.272682 0.000019
0.674886 0.279876 0.000006
0.706463 0.285360 0.000002
0.739033 0.291532 0.000007
0.771777 0.298505 0.000008
0.803756 0.306040 0.000000
0.115421 0.299133 0.185010
0.125525 0.300116 0.185849
0.136927 0.302652 0.186055
0.180055 0.311950 0.181960
0.260856 0.300260 0.177599
0.329149 0.300542 0.152908
0.414141 0.297971 0.077523
0.494373 0.299766 0.017143
0.553679 0.307176 0.004810
0.606730 0.316339 0.002494
0.658204 0.326491 0.001787
0.703765 0.335669 0.001515
0.735583 0.341867 0.001555
0.767589 0.348057 0.000006
0.798917 0.355536 0.000019
0.840029 0.362693 0.000000
0.138297 0.350083 0.203746
0.146204 0.351244 0.203552
0.155084 0.355016 0.203042
0.184088 0.366492 0.198939
0.266829 0.362299 0.196697
0.336108 0.353778 0.179231
0.411775 0.357801 0.140245
0.498865 0.354732 0.061472
0.562726 0.359265 0.022406
0.618933 0.367729 0.007719
0.671594 0.379162 0.005748
0.720980 0.391327 0.005828
0.756016 0.398103 0.002093
0.786997 0.405185 0.002174
0.817613 0.413067 0.002199
0.860634 0.432562 0.049704
0.153050 0.402018 0.216845
0.160222 0.404143 0.216179
0.168124 0.409983 0.215416
0.186483 0.423563 0.209866
0.265985 0.428878 0.205792
0.341619 0.409697 0.199136
0.412998 0.414321 0.168644
0.492940 0.416941 0.120355
0.562827 0.413607 0.063695
0.621021 0.418107 0.030414
0.675194 0.428470 0.017636
0.728975 0.440117 0.008176
0.766938 0.449200 0.006780
0.798020 0.456835 0.006872
0.830272 0.464149 0.003278
0.868108 0.497588 0.102630
0.161437 0.450268 0.225236
0.167903 0.453779 0.224032
0.174790 0.463155 0.222538
0.188433 0.479212 0.217202
0.259993 0.492198 0.208903
0.344170 0.475186 0.206620
0.416405 0.468354 0.184377
0.490700 0.475692 0.146573
0.558746 0.476158 0.106438
0.617069 0.474122 0.065811
0.676315 0.479264 0.043705
0.731088 0.490351 0.029257
0.774343 0.499538 0.020259
0.807754 0.505415 0.012166
0.839926 0.513113 0.010289
0.875030 0.550996 0.131671
0.165352 0.498831 0.230268
0.171158 0.503764 0.228603
0.177213 0.515054 0.226474
0.188783 0.531790 0.221579
0.252404 0.549352 0.209184
0.342008 0.538194 0.206598
0.415947 0.521480 0.192128
0.492762 0.528273 0.158004
0.556196 0.533088 0.127715
0.614580 0.534164 0.097529
0.671988 0.535978 0.070713
0.731282 0.541717 0.053813
0.780250 0.550640 0.042639
0.813102 0.556924 0.035880
0.846458 0.563426 0.028529
0.877606 0.597179 0.140714
0.165195 0.551375 0.232653
0.170493 0.557956 0.230517
0.175706 0.571116 0.227569
0.185184 0.586895 0.222656
0.243454 0.604836 0.207700
0.336846 0.600094 0.202986
0.416478 0.581933 0.191305
0.491725 0.577316 0.166350
0.557054 0.583588 0.133777
0.612124 0.587124 0.114413
0.669722 0.590017 0.092488
0.728135 0.594201 0.074897
0.781909 0.599849 0.066747
0.818781 0.604685 0.058734
0.852055 0.611902 0.052056
0.879563 0.639554 0.144216
0.160255 0.608423 0.232638
0.164853 0.618500 0.229283
0.168877 0.631691 0.224953
0.176113 0.646141 0.219466
0.230782 0.663044 0.203226
0.329090 0.664486 0.196072
0.414866 0.646682 0.184885
0.489408 0.630722 0.165794
0.556769 0.634796 0.141538
0.612435 0.638602 0.115582
0.667836 0.642578 0.102149
0.726497 0.647017 0.089130
0.781709 0.651833 0.080379
0.819292 0.653896 0.077583
0.856414 0.658169 0.074852
0.878459 0.682141 0.163212
0.149362 0.667402 0.230113
0.152572 0.681285 0.225215
0.155873 0.694244 0.219949
0.161023 0.708464 0.213298
0.215922 0.724180 0.197502
0.320042 0.730653 0.187301
0.411730 0.713807 0.175574
0.492072 0.697141 0.158453
0.555096 0.688032 0.141098
0.613033 0.692491 0.122249
0.668814 0.696382 0.100209
0.725920 0.701122 0.094301
0.781982 0.705791 0.088478
0.821766 0.707853 0.086255
0.857033 0.709903 0.089123
0.875464 0.726148 0.179369
0.132443 0.724689 0.226698
0.135517 0.736664 0.221597
0.138943 0.747920 0.216269
0.145463 0.760879 0.209532
0.208784 0.775786 0.195645
0.315094 0.786289 0.183270
0.410801 0.773932 0.170770
0.496126 0.760056 0.154530
0.558292 0.747148 0.138910
0.614032 0.744696 0.126232
0.671360 0.749624 0.110766
0.728348 0.754556 0.093886
0.784064 0.759756 0.095620
0.825413 0.761943 0.094063
0.859070 0.763394 0.095304
0.875107 0.773829 0.176375
0.109480 0.778333 0.224574
0.113800 0.787807 0.220145
0.118337 0.797172 0.215289
0.129559 0.808150 0.209274
0.209493 0.820927 0.197662
0.316070 0.832225 0.186255
0.415716 0.822196 0.177302
0.503693 0.810232 0.164931
0.568066 0.799042 0.154258
0.618652 0.789413 0.143312
0.674957 0.791715 0.129711
0.731880 0.797306 0.115501
0.787425 0.803209 0.103410
0.829927 0.807479 0.117350
0.862763 0.809840 0.116952
0.877980 0.817993 0.195307
0.000000 0.037939 0.050269
0.000000 0.048200 0.066007
0.033874 0.067667 0.117061
0.154908 0.052667 0.136920
0.257408 0.041023 0.135740
0.357746 0.030839 0.119147
0.453549 0.019057 0.101031
0.536724 0.009143 0.085968
0.588565 0.005140 0.077671
0.629475 0.003125 0.071392
0.667556 0.003304 0.065861
0.704980 0.003570 0.061268
0.742533 0.003795 0.057008
0.775542 0.004001 0.053239
0.805801 0.004193 0.049890
0.836913 0.004399 0.047313
0.000000 0.051871 0.064634
0.000012 0.058504 0.075525
0.012965 0.069289 0.097157
0.106970 0.071172 0.123485
0.196329 0.069166 0.119976
0.293299 0.061801 0.107312
0.381133 0.049851 0.093192
0.465943 0.035161 0.080412
0.548814 0.022099 0.068710
0.610389 0.013961 0.061080
0.654077 0.009409 0.056020
0.695972 0.006933 0.051982
0.737888 0.005281 0.048268
0.780740 0.004556 0.044699
0.816634 0.004344 0.042215
0.847877 0.004560 0.040185
0.000000 0.089677 0.097090
0.000000 0.093437 0.103968
0.019101 0.100795 0.116891
0.105480 0.111557 0.140891
0.199348 0.111828 0.131719
0.285384 0.113081 0.121863
0.374929 0.111277 0.112099
0.454176 0.105532 0.102465
0.535161 0.095044 0.091150
0.611468 0.080212 0.078808
0.662900 0.069887 0.070136
0.704933 0.061675 0.063253
0.746882 0.052646 0.056065
0.789206 0.043518 0.048924
0.829502 0.036578 0.042763
0.860263 0.035148 0.039592
0.000000 0.138558 0.130415
0.000015 0.141719 0.134446
0.019195 0.147029 0.143072
0.113315 0.157059 0.159229
0.206517 0.162662 0.152653
0.284839 0.167199 0.145043
0.370386 0.168459 0.131546
0.448844 0.167074 0.118684
0.520777 0.164307 0.106883
0.590305 0.160207 0.094682
0.647527 0.155917 0.084433
0.687680 0.153168 0.077815
0.726578 0.150807 0.072045
0.765931 0.149227 0.066744
0.805315 0.148168 0.061727
0.837685 0.149608 0.059049
0.002588 0.194000 0.158388
0.010093 0.195999 0.161313
0.032918 0.197877 0.164615
0.128433 0.207580 0.177315
0.221273 0.210171 0.168812
0.300504 0.214899 0.154753
0.386893 0.218306 0.136002
0.469037 0.219061 0.115820
0.537741 0.218454 0.097966
0.602740 0.218513 0.082491
0.662441 0.218971 0.068908
0.704602 0.219210 0.060561
0.740929 0.219870 0.054480
0.777695 0.221376 0.049146
0.814217 0.224071 0.045201
0.848312 0.227690 0.042635
0.035608 0.250407 0.186515
0.050533 0.250641 0.188103
0.068829 0.252401 0.190158
0.135702 0.262408 0.198943
0.234681 0.262125 0.193444
0.312156 0.264007 0.178941
0.402746 0.268720 0.149633
0.487198 0.272800 0.123001
0.551753 0.275174 0.101590
0.611492 0.277677 0.081768
0.668324 0.281048 0.063902
0.713940 0.284596 0.051696
0.747703 0.287661 0.044828
0.782479 0.291309 0.039333
0.817416 0.295940 0.036278
0.851651 0.301295 0.034688
0.078123 0.304673 0.211324
0.090735 0.305920 0.212550
0.105063 0.309230 0.214121
0.145318 0.319942 0.219553
0.240998 0.326014 0.216283
0.320709 0.317083 0.204578
0.408365 0.323072 0.178968
0.498440 0.328425 0.143386
0.564895 0.332585 0.118595
0.622828 0.336582 0.096602
0.677766 0.341845 0.077621
0.727688 0.346611 0.059921
0.761528 0.350538 0.052539
0.794472 0.355182 0.046900
0.827274 0.361184 0.044065
0.857811 0.373436 0.060422
0.108438 0.357621 0.229790
0.118971 0.358955 0.230506
0.131271 0.363640 0.231885
0.156823 0.375858 0.235504
0.240755 0.388659 0.231115
0.327990 0.374105 0.223324
0.406825 0.378729 0.205776
0.500136 0.384475 0.173526
