example_ofxGpuLutCube/bin/data/ofxGpuLutCube/LUT/T26 (deep teal fade).cube
LUT_3D_SIZE 16
0.007428 0.022551 0.022079
0.036188 0.023454 0.024161
0.077963 0.022422 0.024121
0.120069 0.023404 0.024397
0.172016 0.025080 0.026210
0.233117 0.028146 0.029090
0.290821 0.031132 0.032067
0.344909 0.033849 0.034660
0.397394 0.036425 0.037244
0.450619 0.038855 0.039701
0.506069 0.041360 0.042195
0.565481 0.043742 0.044562
0.629834 0.046017 0.046718
0.697473 0.047899 0.048586
0.764323 0.049222 0.049869
0.825228 0.049920 0.050618
0.008663 0.049916 0.026760
0.034696 0.051557 0.027731
0.074932 0.051496 0.024998
0.121754 0.050646 0.025684
0.175017 0.052054 0.027278
0.235956 0.054501 0.029794
0.293728 0.057344 0.032673
0.347433 0.059837 0.035494
0.399753 0.062345 0.037988
0.452974 0.064809 0.040357
0.508582 0.067285 0.042670
0.568060 0.069676 0.044898
0.632448 0.071879 0.046973
0.700113 0.073773 0.048704
0.767002 0.075199 0.049824
0.827953 0.075878 0.050430
0.014390 0.081954 0.032927
0.040832 0.083927 0.032934
0.076126 0.085336 0.027698
0.125511 0.083632 0.027376
0.182201 0.083288 0.027561
0.243425 0.084765 0.029466
0.300997 0.086591 0.031823
0.355083 0.088646 0.034306
0.407283 0.090553 0.036393
0.460562 0.092687 0.038528
0.516224 0.094820 0.040707
0.575680 0.096855 0.042777
0.639764 0.099036 0.044790
0.707171 0.101009 0.046469
0.773647 0.102623 0.047637
0.834086 0.103736 0.048267
0.025452 0.123348 0.039261
0.051370 0.125358 0.034855
0.084448 0.127889 0.030549
0.128108 0.128417 0.031650
0.188896 0.127467 0.031211
0.252467 0.126784 0.030339
0.311535 0.127028 0.031138
0.365849 0.128109 0.032932
0.418502 0.129440 0.034909
0.471538 0.131097 0.037045
0.526882 0.133003 0.039139
0.585894 0.135066 0.041189
0.649551 0.137265 0.043188
0.716269 0.139402 0.044897
0.782035 0.141332 0.046146
0.841995 0.142770 0.046802
0.036953 0.173677 0.045751
0.061162 0.175703 0.041089
0.093692 0.178031 0.037878
0.135315 0.181318 0.037454
0.194885 0.182194 0.038686
0.259503 0.181600 0.036071
0.319637 0.181207 0.034114
0.374784 0.181404 0.033994
0.428394 0.181789 0.034420
0.482306 0.182627 0.035438
0.538377 0.183826 0.036877
0.598284 0.185288 0.038309
0.661874 0.187181 0.040063
0.728956 0.189164 0.041534
0.793822 0.191325 0.042948
0.852883 0.193091 0.043911
0.047215 0.226510 0.052461
0.070997 0.228403 0.048189
0.102663 0.230384 0.046830
0.147613 0.234587 0.046110
0.202827 0.238771 0.044762
0.264028 0.239845 0.044356
0.323868 0.240048 0.042208
0.379894 0.240393 0.039443
0.433992 0.240734 0.037813
0.487721 0.241478 0.037725
0.543551 0.242494 0.038180
0.602811 0.243772 0.039065
0.666499 0.245397 0.039754
0.733384 0.247118 0.040559
0.798375 0.248958 0.041510
0.858063 0.250485 0.042037
0.055948 0.277713 0.058209
0.079605 0.279563 0.054522
0.114491 0.281308 0.054536
0.160230 0.285662 0.054976
0.213273 0.291588 0.051799
0.268692 0.295480 0.050312
0.326662 0.296757 0.048762
0.381407 0.297571 0.047151
0.434489 0.298599 0.045479
0.488449 0.299670 0.043577
0.544796 0.300684 0.041862
0.604035 0.301968 0.041026
0.667477 0.303539 0.041388
0.733027 0.305492 0.042466
0.797923 0.307334 0.043026
0.857767 0.308657 0.042859
0.062703 0.326171 0.062779
0.090044 0.328071 0.059385
0.126314 0.329771 0.060760
0.170666 0.333938 0.061624
0.221893 0.340827 0.059385
0.275503 0.346685 0.054467
0.328626 0.349721 0.053713
0.382667 0.351175 0.052399
0.435070 0.352474 0.050739
0.488033 0.353895 0.049538
0.543602 0.355399 0.047696
0.602435 0.357089 0.046463
0.665465 0.358863 0.045318
0.731582 0.360685 0.044578
0.795806 0.362573 0.044606
0.855050 0.364125 0.044802
0.068838 0.373972 0.063365
0.100321 0.375184 0.064309
0.135572 0.377148 0.065575
0.179116 0.381191 0.066680
0.229024 0.388749 0.064913
0.281637 0.395494 0.060985
0.333259 0.400220 0.056685
0.383564 0.402867 0.056450
0.435724 0.404515 0.055061
0.488266 0.406146 0.053726
0.542003 0.407986 0.053180
0.600663 0.409990 0.051314
0.663648 0.412114 0.049775
0.728546 0.414370 0.049417
0.793418 0.416279 0.048337
0.852590 0.417875 0.047653
0.077665 0.421700 0.067529
0.108471 0.423013 0.068379
0.143048 0.425118 0.069500
0.186002 0.429251 0.070627
0.234996 0.437172 0.069141
0.286863 0.444484 0.066087
0.337958 0.450598 0.061378
0.387281 0.454119 0.058589
0.436407 0.456711 0.058243
0.488700 0.458623 0.057537
0.542886 0.460655 0.056524
0.599586 0.462912 0.056149
0.661317 0.465421 0.055271
0.727294 0.467847 0.053194
0.791169 0.470125 0.052642
0.849934 0.471898 0.051996
0.084635 0.471131 0.070922
0.114766 0.472646 0.071688
0.148757 0.474933 0.072667
0.191401 0.479064 0.073872
0.240132 0.487278 0.072665
0.291171 0.495355 0.069768
0.341941 0.501972 0.065933
0.391085 0.506809 0.062195
0.439948 0.509824 0.060379
0.490001 0.512539 0.059944
0.543792 0.514803 0.059729
0.601069 0.517149 0.059179
0.661745 0.519759 0.059149
0.725206 0.522566 0.059130
0.789692 0.525100 0.057367
0.848329 0.527092 0.056513
0.089723 0.523514 0.073740
0.119274 0.525165 0.074339
0.153108 0.527596 0.075131
0.195752 0.531725 0.076395
0.244525 0.540051 0.075491
0.295056 0.548994 0.072661
0.345602 0.555908 0.069638
0.394482 0.561519 0.066082
0.443231 0.565801 0.062934
0.493603 0.568570 0.062032
0.546157 0.571312 0.061797
0.602904 0.573930 0.062013
0.664189 0.576608 0.061926
0.727517 0.579471 0.062371
0.789550 0.582203 0.062762
0.848010 0.584422 0.061637
0.092690 0.579573 0.075819
0.122511 0.581275 0.076459
0.156383 0.583857 0.077212
0.199334 0.588210 0.078485
0.248833 0.596034 0.078205
0.299165 0.605439 0.075582
0.349237 0.613263 0.072375
0.397915 0.619490 0.069204
0.446678 0.624224 0.066450
0.497100 0.628258 0.064078
0.550265 0.630958 0.063830
0.606694 0.633828 0.063885
0.667627 0.636699 0.064472
0.731484 0.639587 0.064998
0.793711 0.642352 0.065771
0.850269 0.644642 0.066512
0.094471 0.637812 0.077515
0.124259 0.639614 0.078185
0.158673 0.642299 0.078909
0.202092 0.646827 0.080187
0.253218 0.653817 0.080858
0.303394 0.664046 0.078032
0.353641 0.672134 0.075395
0.402322 0.678672 0.072640
0.450833 0.684156 0.069764
0.501137 0.688839 0.067160
0.554359 0.692663 0.065491
0.611557 0.695434 0.065884
0.672741 0.698449 0.066420
0.736523 0.701440 0.067391
0.799188 0.704218 0.068261
0.856149 0.706551 0.069016
0.095368 0.694975 0.078940
0.125687 0.696808 0.079539
0.160463 0.699584 0.080401
0.204703 0.704172 0.081808
0.256907 0.710957 0.083001
0.308162 0.720936 0.080870
0.358722 0.729267 0.078505
0.407527 0.736154 0.075995
0.455947 0.742098 0.073328
0.506040 0.747193 0.070915
0.558920 0.752277 0.067841
0.616376 0.755599 0.067585
0.678091 0.758529 0.068444
0.742348 0.761523 0.069389
0.805140 0.764345 0.070510
0.862246 0.766688 0.071354
0.096374 0.747211 0.080326
0.126992 0.749103 0.080983
0.162291 0.751910 0.081840
0.207220 0.756575 0.083396
0.260590 0.763053 0.084983
0.312567 0.773033 0.083275
0.363346 0.781779 0.080968
0.412134 0.789089 0.078398
0.460965 0.794905 0.076340
0.511087 0.800251 0.073999
0.563981 0.805301 0.071685
0.621062 0.809675 0.069981
0.683026 0.813076 0.070108
0.747542 0.816071 0.071226
0.810602 0.818885 0.072351
0.867738 0.821285 0.073303
0.006966 0.023530 0.047002
0.035448 0.024038 0.049837
0.078124 0.022394 0.052405
0.119033 0.024449 0.051398
0.170391 0.026322 0.052991
0.231805 0.029352 0.055743
0.289809 0.032161 0.058443
0.343972 0.034846 0.061089
0.396602 0.037368 0.063444
0.449821 0.039897 0.065786
0.505398 0.042194 0.068109
0.564937 0.044457 0.070370
0.629209 0.046599 0.072543
0.697102 0.048471 0.074339
0.763888 0.049740 0.075681
0.824964 0.050439 0.076507
0.008221 0.051068 0.050222
0.033269 0.052599 0.052117
0.069551 0.053049 0.054678
0.118710 0.052630 0.053832
0.171693 0.054157 0.055101
0.233090 0.057072 0.057629
0.291071 0.060047 0.060381
0.345165 0.062664 0.062916
0.397684 0.065100 0.065202
0.450966 0.067423 0.067515
0.506626 0.069757 0.069631
0.566205 0.072026 0.071824
0.630621 0.074204 0.073852
0.698506 0.076127 0.075602
0.765365 0.077370 0.076773
0.826435 0.078130 0.077431
0.012046 0.083746 0.056860
0.037050 0.085136 0.059660
0.068107 0.087444 0.059233
0.120325 0.086570 0.055264
0.176803 0.086990 0.056908
0.238353 0.088922 0.058987
0.296232 0.091093 0.061255
0.350450 0.093235 0.063485
0.402906 0.095164 0.065446
0.456262 0.097201 0.067500
0.511996 0.099201 0.069446
0.571604 0.101218 0.071348
0.636070 0.103206 0.073233
0.703746 0.105011 0.074731
0.770592 0.106385 0.075839
0.831356 0.107356 0.076470
0.022124 0.124688 0.065833
0.049440 0.126038 0.067117
0.078648 0.129102 0.062266
0.122810 0.130534 0.059339
0.185506 0.129399 0.059745
0.249392 0.129110 0.059797
0.308272 0.129837 0.060909
0.362605 0.131002 0.062598
0.415030 0.132475 0.064368
0.468271 0.134087 0.066192
0.523809 0.135873 0.067970
0.583076 0.137704 0.069801
0.647090 0.139700 0.071558
0.714095 0.141701 0.073019
0.780282 0.143436 0.074060
0.840395 0.144683 0.074652
0.036371 0.174547 0.074700
0.062148 0.176019 0.073607
0.089235 0.178997 0.066842
0.131670 0.182556 0.064042
0.191530 0.183701 0.066619
0.256884 0.183165 0.065267
0.317299 0.182842 0.063871
0.372888 0.183012 0.063769
0.426517 0.183474 0.064305
0.481091 0.184157 0.064989
0.537288 0.185346 0.066262
0.596955 0.186845 0.067585
0.660721 0.188649 0.069171
0.727099 0.190791 0.070587
0.792264 0.192765 0.071675
0.851540 0.194376 0.072378
0.047126 0.227365 0.081182
0.072344 0.228759 0.080686
0.098605 0.231548 0.074310
0.144375 0.235346 0.072385
0.200522 0.239787 0.071923
0.261696 0.240959 0.072697
0.321986 0.241231 0.071174
0.378066 0.241534 0.069096
0.432322 0.241906 0.067559
0.486726 0.242500 0.067149
0.542463 0.243550 0.067749
0.602426 0.244648 0.068204
0.666385 0.246140 0.068778
0.733561 0.247764 0.069366
0.799901 0.249334 0.069746
0.859584 0.250816 0.070130
0.055939 0.278764 0.085323
0.081450 0.280031 0.085153
0.109846 0.282657 0.079839
0.157257 0.286269 0.080808
0.211478 0.292256 0.078332
0.267099 0.296301 0.077660
0.324846 0.297703 0.077146
0.379790 0.298561 0.076237
0.433743 0.299464 0.074079
0.487934 0.300397 0.072595
0.544337 0.301431 0.071083
0.603615 0.302658 0.070573
0.667299 0.304190 0.070654
0.733195 0.306036 0.071388
0.798568 0.307694 0.071587
0.858496 0.309018 0.071336
0.062562 0.327397 0.090076
0.088556 0.328809 0.087982
0.122351 0.331064 0.085559
0.168109 0.334562 0.087116
0.220424 0.341257 0.085701
0.274592 0.347311 0.081071
0.327574 0.350412 0.081303
0.381479 0.351912 0.080531
0.433881 0.353215 0.079371
0.486988 0.354643 0.078450
0.543001 0.356117 0.076551
0.602218 0.357713 0.075208
0.665446 0.359432 0.074250
0.732040 0.361117 0.073327
0.796599 0.362937 0.073303
0.856020 0.364368 0.073347
0.068194 0.374863 0.092581
0.095558 0.376525 0.089241
0.132166 0.378333 0.090364
0.176921 0.381977 0.092046
0.227977 0.388963 0.091201
0.280753 0.395782 0.087703
0.332670 0.400787 0.083505
0.382894 0.403438 0.084168
0.435003 0.405111 0.083244
0.487482 0.406831 0.082205
0.541628 0.408655 0.081626
0.600341 0.410582 0.080060
0.663278 0.412704 0.078768
0.729715 0.414683 0.077365
0.794314 0.416613 0.076689
0.852753 0.418246 0.076422
0.073113 0.423065 0.093279
0.104203 0.424272 0.093041
0.140260 0.426247 0.094502
0.184333 0.429860 0.096211
0.234240 0.437366 0.095424
0.286066 0.445029 0.092352
0.337506 0.450986 0.088273
0.386925 0.454717 0.085529
0.436091 0.457286 0.085736
0.488323 0.459185 0.085430
0.542495 0.461230 0.084753
0.599347 0.463503 0.084566
0.661790 0.465901 0.083108
0.727469 0.468304 0.081654
0.791515 0.470550 0.081053
0.850291 0.472279 0.080485
0.077414 0.472911 0.094015
0.111305 0.473822 0.096472
0.146628 0.475954 0.097846
0.190111 0.479788 0.099410
0.239800 0.487278 0.099080
0.290786 0.495725 0.096296
0.341662 0.502274 0.092866
0.390851 0.507395 0.089024
0.439771 0.510384 0.087556
0.489963 0.513038 0.087486
0.543736 0.515256 0.087563
0.600977 0.517631 0.087260
0.661737 0.520274 0.087407
0.725757 0.523043 0.086979
0.790201 0.525503 0.085502
0.849143 0.527447 0.084471
0.083094 0.525270 0.096216
0.116925 0.526176 0.099418
0.151514 0.528567 0.100654
0.194653 0.532666 0.102090
0.244620 0.539873 0.102236
0.295207 0.548929 0.099636
0.345613 0.556129 0.096632
0.394478 0.561949 0.093157
0.443219 0.566294 0.090135
0.493703 0.569058 0.089392
0.546286 0.571786 0.089490
0.603103 0.574393 0.089847
0.664385 0.577062 0.089971
0.727738 0.579927 0.090464
0.790210 0.582688 0.090545
0.848766 0.584854 0.089556
0.086875 0.581138 0.098951
0.120716 0.582236 0.101929
0.155291 0.584730 0.103016
0.198504 0.589067 0.104363
0.249125 0.595967 0.105039
0.299485 0.605609 0.102535
0.349618 0.613352 0.099813
0.398255 0.619678 0.096686
0.446883 0.624599 0.093824
0.497315 0.628688 0.091475
0.550494 0.631422 0.091363
0.606959 0.634255 0.091630
0.667962 0.637180 0.092384
0.731828 0.640051 0.092945
0.794129 0.642792 0.093740
0.850724 0.645098 0.094549
0.089579 0.639223 0.101280
0.123151 0.640481 0.103924
0.157959 0.643129 0.104985
0.201700 0.647627 0.106424
0.253441 0.654146 0.107648
0.304302 0.663852 0.105593
0.354184 0.672309 0.102798
0.402781 0.678958 0.100070
0.451413 0.684180 0.097785
0.501675 0.688996 0.095223
0.554756 0.693111 0.093224
0.611924 0.695927 0.093668
0.673182 0.698899 0.094275
0.737053 0.701895 0.095326
0.799723 0.704618 0.096196
0.856642 0.707002 0.097076
0.092195 0.696137 0.103803
0.125025 0.697634 0.105817
0.160143 0.700351 0.106817
0.204575 0.704933 0.108276
0.257685 0.711090 0.110125
0.309115 0.720922 0.108376
0.359624 0.729240 0.106328
0.408386 0.736215 0.103990
0.456708 0.742140 0.101484
0.506800 0.747284 0.099132
0.559542 0.752301 0.096271
0.616821 0.756043 0.095500
0.678600 0.758956 0.096344
0.742857 0.761982 0.097336
0.805676 0.764738 0.098478
0.862771 0.767098 0.099355
0.094305 0.748220 0.105842
0.126664 0.749918 0.107409
0.162189 0.752680 0.108468
0.207300 0.757303 0.110054
0.261319 0.763393 0.112143
0.314320 0.772293 0.111537
0.364932 0.781175 0.109398
0.413690 0.788403 0.107134
0.462321 0.794355 0.105188
0.511979 0.800219 0.102477
0.564970 0.804998 0.100684
0.621534 0.810147 0.097876
0.683515 0.813525 0.098090
0.748063 0.816500 0.099246
0.811204 0.819313 0.100294
0.868368 0.821726 0.101267
0.005117 0.025257 0.072659
0.031342 0.026211 0.076197
0.070330 0.025611 0.084499
0.118941 0.025902 0.082549
0.169700 0.028460 0.082894
0.230197 0.031330 0.085299
0.287745 0.034378 0.087872
0.342063 0.036973 0.090207
0.394795 0.039372 0.092427
0.448251 0.041712 0.094647
0.504028 0.043877 0.096736
0.563652 0.046132 0.098946
0.628200 0.048135 0.100969
0.696240 0.049901 0.102834
0.763197 0.051022 0.104172
0.824432 0.051653 0.105062
0.006555 0.052744 0.076223
0.031719 0.053861 0.078238
0.066974 0.054410 0.083056
0.118301 0.053787 0.084734
0.169338 0.056856 0.084843
0.230823 0.059848 0.087096
0.288875 0.062753 0.089611
0.343245 0.065313 0.091967
0.395943 0.067606 0.094103
0.449452 0.069962 0.096176
0.505246 0.072062 0.098265
0.564906 0.074150 0.100332
0.629499 0.076116 0.102280
0.697588 0.077795 0.104009
0.764630 0.078934 0.105278
0.825844 0.079644 0.106045
0.009752 0.086086 0.082452
0.035085 0.087542 0.084395
0.062103 0.089529 0.087426
0.107562 0.091161 0.089152
0.169786 0.091281 0.088388
0.232658 0.093323 0.090164
0.290899 0.095914 0.092536
0.345261 0.098232 0.094752
0.397946 0.100284 0.096739
0.451483 0.102266 0.098665
0.507366 0.104287 0.100581
0.567120 0.106169 0.102427
0.631889 0.107997 0.104179
0.699919 0.109572 0.105675
0.767088 0.110733 0.106689
0.828277 0.111490 0.107332
0.017011 0.128511 0.091105
0.043966 0.129020 0.093945
0.073528 0.130463 0.097309
0.112087 0.133858 0.093628
0.178239 0.133047 0.090805
0.242521 0.133545 0.092481
0.301339 0.134803 0.093986
0.355714 0.136310 0.095649
0.408427 0.137819 0.097286
0.461920 0.139420 0.098879
0.517840 0.141087 0.100477
0.577463 0.142772 0.102019
0.641986 0.144526 0.103513
0.709641 0.146207 0.104745
0.776315 0.147499 0.105641
0.836963 0.148509 0.106114
0.030526 0.177704 0.101017
0.058471 0.178001 0.103508
0.088127 0.179720 0.104580
0.123026 0.184757 0.094371
0.185401 0.186212 0.096681
0.252168 0.185731 0.097179
0.313358 0.185528 0.096602
0.369544 0.185658 0.096587
0.423487 0.186189 0.097107
0.477535 0.187144 0.098067
0.533808 0.188332 0.099127
0.593216 0.189884 0.100433
0.657028 0.191687 0.101739
0.723693 0.193553 0.102880
0.789380 0.195252 0.103680
0.849118 0.196663 0.104197
0.044302 0.229344 0.108621
0.071150 0.230260 0.111612
0.099440 0.232242 0.111283
0.137404 0.236979 0.101537
0.196191 0.241386 0.101772
0.257554 0.242900 0.103596
0.318639 0.243164 0.103150
0.375430 0.243354 0.101406
0.429987 0.243642 0.100337
0.484730 0.244177 0.099992
0.541335 0.245018 0.100185
0.601787 0.246023 0.100416
0.666115 0.247416 0.100906
0.733763 0.248921 0.101324
0.799425 0.250563 0.101835
0.859000 0.252038 0.102182
0.054717 0.280335 0.114032
0.081502 0.281421 0.116080
0.108957 0.283622 0.114883
0.151322 0.287790 0.108360
0.207942 0.293412 0.107549
0.264387 0.297695 0.107592
0.321864 0.299174 0.108414
0.377050 0.300105 0.108194
0.431463 0.300911 0.106411
0.486510 0.301689 0.104736
0.542936 0.302656 0.103708
0.603045 0.303742 0.102941
0.667195 0.305130 0.102860
0.734002 0.306736 0.103097
0.799032 0.308390 0.103299
0.859367 0.309633 0.103067
0.062156 0.328846 0.119127
0.088429 0.330116 0.119883
0.117812 0.332665 0.115609
0.163168 0.336111 0.114376
0.217426 0.342225 0.114328
0.272677 0.348154 0.110691
0.325682 0.351547 0.111865
0.379405 0.353187 0.111683
0.431945 0.354470 0.111288
0.485601 0.355830 0.110239
0.542278 0.357177 0.108349
0.601609 0.358669 0.107246
0.665701 0.360200 0.106072
0.732895 0.361776 0.105087
0.797327 0.363532 0.105212
0.857566 0.364812 0.104949
0.068070 0.376168 0.122916
0.094163 0.377842 0.121836
0.125755 0.380270 0.117644
0.172723 0.383383 0.119257
0.225677 0.389591 0.119769
0.279173 0.396623 0.116808
0.331598 0.401736 0.113055
0.381623 0.404485 0.114697
0.433625 0.406191 0.114230
0.486171 0.407894 0.113775
0.540687 0.409680 0.113344
0.600354 0.411474 0.111365
0.663687 0.413476 0.110138
0.730294 0.415348 0.108824
0.796021 0.417037 0.107745
0.854595 0.418627 0.107658
0.073748 0.424160 0.125746
0.099720 0.426098 0.122776
0.134194 0.428148 0.121134
0.180700 0.431455 0.123349
0.232747 0.437788 0.124064
0.284997 0.445476 0.121700
0.336596 0.451602 0.118010
0.386246 0.455557 0.115306
0.435457 0.458161 0.116122
0.487612 0.460090 0.116384
0.541801 0.462140 0.116086
0.599004 0.464405 0.115937
0.661790 0.466726 0.114553
0.728160 0.468985 0.112906
0.792823 0.471072 0.112152
0.852235 0.472688 0.111308
0.078831 0.473894 0.127260
0.104442 0.475955 0.123887
0.141339 0.477816 0.124326
0.187339 0.481319 0.126795
0.239028 0.487450 0.127986
0.290274 0.495921 0.125777
0.341138 0.502767 0.122602
0.390475 0.507921 0.119211
0.439508 0.511181 0.117505
0.489765 0.513844 0.117975
0.543559 0.516074 0.118476
0.600878 0.518437 0.118427
0.661660 0.521061 0.118708
0.726628 0.523788 0.117651
0.791599 0.526099 0.116128
0.850269 0.528040 0.115502
0.083217 0.526406 0.127723
0.109174 0.528472 0.124979
0.147526 0.530207 0.127555
0.192791 0.534062 0.129837
0.244305 0.540166 0.131175
0.295286 0.549071 0.129295
0.345556 0.556463 0.126540
0.394420 0.562301 0.123421
0.443194 0.566901 0.120276
0.493720 0.569807 0.119665
0.546436 0.572536 0.120054
0.603324 0.575134 0.120739
0.664672 0.577798 0.121013
0.728047 0.580632 0.121607
0.790769 0.583331 0.121636
0.849647 0.585479 0.120441
0.087054 0.582311 0.129559
0.114362 0.584313 0.127596
0.152569 0.586230 0.130469
0.197177 0.590383 0.132466
0.249202 0.596378 0.134151
0.300385 0.605352 0.132709
0.350172 0.613501 0.130040
0.398831 0.619760 0.127374
0.447290 0.624950 0.124532
0.497609 0.629244 0.122053
0.550844 0.632113 0.121908
0.607392 0.634995 0.122390
0.668500 0.637838 0.123307
0.732386 0.640710 0.123972
0.794720 0.643465 0.124818
0.851371 0.645823 0.125619
0.089891 0.640375 0.131661
0.118374 0.642312 0.130554
0.156195 0.644481 0.132997
0.200934 0.648825 0.134917
0.253640 0.654801 0.136795
0.305453 0.663696 0.135839
0.355382 0.672175 0.133509
0.403882 0.678859 0.131143
0.452142 0.684532 0.128569
0.502262 0.689388 0.126210
0.555238 0.693761 0.123924
0.612502 0.696581 0.124438
0.673768 0.699553 0.125163
0.737694 0.702532 0.126270
0.800421 0.705311 0.127227
0.857325 0.707656 0.128078
0.092084 0.697329 0.133558
0.121665 0.699251 0.133230
0.159125 0.701601 0.135318
0.204323 0.706111 0.137139
0.257847 0.712122 0.139214
0.310974 0.720396 0.139172
0.361185 0.729061 0.137167
0.409481 0.736415 0.134730
0.457849 0.742274 0.132558
0.507783 0.747531 0.130447
0.560483 0.752423 0.128068
0.617471 0.756691 0.126333
0.679292 0.759624 0.127265
0.743570 0.762656 0.128335
0.806393 0.765433 0.129452
0.863555 0.767790 0.130410
0.094250 0.749399 0.135436
0.124588 0.751303 0.135550
0.161727 0.753866 0.137350
0.207419 0.758431 0.139188
0.261651 0.764495 0.141388
0.316075 0.772176 0.142091
0.366453 0.781227 0.140134
0.415114 0.788561 0.138015
0.463204 0.794978 0.135740
0.513494 0.800121 0.134231
0.565871 0.805461 0.131722
0.622404 0.810496 0.129323
0.684220 0.814218 0.129054
0.748835 0.817145 0.130218
0.811948 0.820009 0.131357
0.869184 0.822365 0.132390
0.003263 0.029092 0.100715
0.026493 0.030714 0.103654
0.056260 0.032437 0.111469
0.109061 0.031923 0.122012
0.168089 0.033888 0.120683
0.230709 0.036927 0.121367
0.288557 0.039779 0.123285
0.342145 0.042482 0.125270
0.393912 0.044830 0.127236
0.446329 0.047159 0.129300
0.501728 0.049123 0.131226
0.560901 0.051000 0.133237
0.625433 0.052699 0.135262
0.693860 0.053886 0.137021
0.761386 0.054731 0.138456
0.822873 0.054958 0.139377
0.004197 0.057300 0.105091
0.028322 0.058544 0.106933
0.056391 0.060578 0.112625
0.107728 0.060036 0.123436
0.168079 0.061530 0.122116
0.230386 0.064932 0.122639
0.288049 0.067905 0.124617
0.341621 0.070513 0.126637
0.393314 0.072842 0.128659
0.446660 0.074857 0.130605
0.501937 0.076833 0.132536
0.561797 0.078566 0.134514
0.626816 0.080171 0.136398
0.695297 0.081496 0.138080
0.762841 0.082225 0.139413
0.824340 0.082569 0.140277
0.005303 0.090246 0.112168
0.031002 0.091482 0.113311
0.058295 0.093219 0.116588
0.101197 0.094780 0.122805
0.167096 0.094473 0.125324
0.229476 0.097786 0.125231
0.287638 0.100535 0.127187
0.341617 0.102963 0.129207
0.394110 0.105062 0.131140
0.447617 0.106932 0.133002
0.503815 0.108698 0.134824
0.563938 0.110383 0.136623
0.629043 0.111864 0.138396
0.697550 0.113111 0.139910
0.765028 0.113999 0.141061
0.826572 0.114378 0.141772
0.010621 0.132203 0.121248
0.037464 0.133163 0.122589
0.066636 0.134843 0.125622
0.099197 0.137629 0.131528
0.159031 0.139954 0.129805
0.231089 0.140079 0.130115
0.290731 0.141888 0.131626
0.345834 0.143541 0.133233
0.398891 0.145288 0.134915
0.452757 0.146916 0.136489
0.508876 0.148479 0.138028
0.569121 0.150027 0.139512
0.634231 0.151486 0.140964
0.702704 0.152746 0.142132
0.770189 0.153663 0.142971
0.831584 0.154213 0.143426
0.021493 0.183726 0.131462
0.048819 0.184164 0.133330
0.079363 0.184760 0.136714
0.115430 0.186867 0.141393
0.169200 0.191494 0.133388
0.242003 0.190718 0.133763
0.303438 0.191075 0.135402
0.359781 0.191648 0.135948
0.413403 0.192582 0.136834
0.467472 0.193740 0.137902
0.523733 0.194986 0.138993
0.583743 0.196396 0.140034
0.648363 0.197836 0.141061
0.716167 0.199272 0.141878
0.782833 0.200542 0.142505
0.843552 0.201502 0.142825
0.036530 0.235576 0.140515
0.063628 0.235710 0.142345
0.093968 0.236046 0.145536
0.130660 0.238850 0.145567
0.184457 0.244995 0.135882
0.248927 0.246665 0.139164
0.311690 0.246809 0.140063
0.369204 0.246911 0.139915
0.424440 0.247137 0.139431
0.479909 0.247637 0.139259
0.537406 0.248264 0.139229
0.598383 0.249182 0.139453
0.663002 0.250560 0.140050
0.730316 0.252084 0.140575
0.795914 0.253652 0.141104
0.855615 0.254967 0.141421
0.049544 0.285472 0.146467
0.076517 0.285556 0.148010
0.106000 0.286431 0.151252
0.143793 0.290183 0.148598
0.199317 0.295788 0.141676
0.258187 0.300317 0.143204
0.315860 0.302094 0.144582
0.372069 0.302972 0.145123
0.427762 0.303436 0.144038
0.482982 0.304154 0.143040
0.540485 0.304879 0.142100
0.601462 0.305712 0.141531
0.666832 0.306795 0.141163
0.734490 0.308153 0.141186
0.801056 0.309442 0.141013
0.861346 0.310615 0.140946
0.058380 0.332879 0.151578
0.085464 0.333178 0.152678
0.116051 0.334772 0.154248
0.153563 0.339197 0.149347
0.210600 0.344018 0.147779
0.267779 0.350094 0.146042
0.321781 0.353694 0.147648
0.375349 0.355453 0.148206
