example_ofxGpuLutCube/bin/data/ofxGpuLutCube/LUT/T26 (deep teal fade).cube
LUT_3D_SIZE 6
0.007428 0.022551 0.022079
0.120069 0.023404 0.024397
0.290821 0.031132 0.032067
0.450619 0.038855 0.039701
0.629834 0.046017 0.046718
0.825228 0.049920 0.050618
0.025452 0.123348 0.039261
0.128108 0.128417 0.031650
0.311535 0.127028 0.031138
0.471538 0.131097 0.037045
0.649551 0.137265 0.043188
0.841995 0.142770 0.046802
0.055948 0.277713 0.058209
0.160230 0.285662 0.054976
0.326662 0.296757 0.048762
0.488449 0.299670 0.043577
0.667477 0.303539 0.041388
0.857767 0.308657 0.042859
0.077665 0.421700 0.067529
0.186002 0.429251 0.070627
0.337958 0.450598 0.061378
0.488700 0.458623 0.057537
0.661317 0.465421 0.055271
0.849934 0.471898 0.051996
0.092690 0.579573 0.075819
0.199334 0.588210 0.078485
0.349237 0.613263 0.072375
0.497100 0.628258 0.064078
0.667627 0.636699 0.064472
0.850269 0.644642 0.066512
0.096374 0.747211 0.080326
0.207220 0.756575 0.083396
0.363346 0.781779 0.080968
0.511087 0.800251 0.073999
0.683026 0.813076 0.070108
0.867738 0.821285 0.073303
0.003263 0.029092 0.100715
0.109061 0.031923 0.122012
0.288557 0.039779 0.123285
0.446329 0.047159 0.129300
0.625433 0.052699 0.135262
0.822873 0.054958 0.139377
0.010621 0.132203 0.121248
0.099197 0.137629 0.131528
0.290731 0.141888 0.131626
0.452757 0.146916 0.136489
0.634231 0.151486 0.140964
0.831584 0.154213 0.143426
0.049544 0.285472 0.146467
0.143793 0.290183 0.148598
0.315860 0.302094 0.144582
0.482982 0.304154 0.143040
0.666832 0.306795 0.141163
0.861346 0.310615 0.140946
0.071337 0.426578 0.158594
0.172041 0.434656 0.154427
0.334623 0.452728 0.153542
0.486089 0.461703 0.153158
0.662299 0.468053 0.151476
0.854413 0.473408 0.148426
0.087317 0.583952 0.163420
0.193123 0.592844 0.164423
0.351307 0.613532 0.166249
0.498072 0.630160 0.158751
0.669241 0.638985 0.160167
0.852945 0.646913 0.162229
0.094969 0.751143 0.169985
0.207102 0.760341 0.174232
0.369626 0.780893 0.179798
0.515656 0.800268 0.173021
0.685409 0.815301 0.166035
0.870522 0.823440 0.169833
0.000000 0.058357 0.196186
0.069186 0.067477 0.210397
0.264333 0.075147 0.258767
0.450876 0.079983 0.262803
0.645393 0.075548 0.266697
0.849785 0.068856 0.271228
0.000000 0.150789 0.217301
0.080665 0.156214 0.223785
0.266603 0.161398 0.267862
0.450266 0.164700 0.265782
0.640221 0.164809 0.269651
0.839600 0.163800 0.274750
0.006996 0.302586 0.263978
0.112432 0.306201 0.268426
0.254059 0.318851 0.295858
0.453676 0.317943 0.282754
0.643910 0.319633 0.285985
0.846162 0.321008 0.287841
0.045604 0.452918 0.282925
0.146381 0.453757 0.287664
0.308008 0.460917 0.300057
0.472602 0.469933 0.295681
0.662326 0.473077 0.293356
0.863941 0.475398 0.292162
0.065399 0.609560 0.291954
0.178488 0.609608 0.299715
0.346159 0.618273 0.311223
0.499085 0.632743 0.311724
0.671189 0.643578 0.310454
0.859694 0.650959 0.311744
0.077006 0.773538 0.304222
0.202048 0.772910 0.314434
0.375965 0.784745 0.329026
0.527747 0.799444 0.334422
0.691075 0.817974 0.324974
0.875609 0.827532 0.326846
0.000000 0.084223 0.286912
0.065525 0.091520 0.298741
0.195583 0.110789 0.380186
0.426607 0.103457 0.404790
0.649878 0.098456 0.415032
0.872743 0.083254 0.419416
0.000000 0.170529 0.306975
0.070665 0.175633 0.314999
0.204117 0.190836 0.384032
0.430797 0.182626 0.409139
0.651240 0.177940 0.416058
0.866666 0.168988 0.418964
0.000000 0.312401 0.375380
0.080144 0.317867 0.383040
0.241317 0.327372 0.404500
0.445350 0.320757 0.430735
0.656329 0.318999 0.424672
0.858626 0.320852 0.425401
0.008562 0.459266 0.412198
0.123659 0.462486 0.415012
0.295311 0.470806 0.424962
0.426843 0.481862 0.441905
0.650971 0.478559 0.432150
0.863628 0.477530 0.431653
0.046369 0.627658 0.423973
0.151321 0.629733 0.426358
0.336692 0.630841 0.435577
0.492975 0.636407 0.444187
0.670132 0.647546 0.442797
0.868981 0.652263 0.440795
0.061186 0.794637 0.430363
0.178391 0.795086 0.434956
0.372707 0.794284 0.449648
0.534755 0.802044 0.460524
0.697579 0.818763 0.461048
0.879274 0.830512 0.459328
0.000000 0.112688 0.387008
0.065525 0.118522 0.398612
0.170341 0.139644 0.469844
0.370899 0.126131 0.575010
0.632772 0.114699 0.561224
0.884190 0.094777 0.573464
0.000000 0.194652 0.406625
0.065649 0.198893 0.413963
0.177519 0.215836 0.478313
0.376768 0.202212 0.578120
0.635953 0.191553 0.563047
0.891863 0.166721 0.575639
0.000000 0.326985 0.480736
0.069294 0.331564 0.490052
0.231383 0.339796 0.512325
0.411464 0.327888 0.593438
0.657186 0.320553 0.574995
0.900664 0.306720 0.578909
0.000000 0.465721 0.532800
0.103072 0.470787 0.540239
0.279612 0.479219 0.555008
0.441787 0.481651 0.568854
0.668767 0.471694 0.581217
0.889994 0.469519 0.575839
0.032222 0.630663 0.559362
0.141774 0.633923 0.561815
0.323902 0.640609 0.567050
0.486301 0.645905 0.571715
0.653228 0.653905 0.580374
0.876812 0.652318 0.576823
0.048631 0.809468 0.567020
0.156357 0.812790 0.569351
0.344921 0.815757 0.573890
0.520884 0.816074 0.579551
0.707448 0.819375 0.590628
0.883048 0.833515 0.590239
0.000000 0.141327 0.492820
0.065525 0.146428 0.503338
0.164241 0.165177 0.567266
0.313434 0.158432 0.696689
0.605395 0.131759 0.714726
0.878450 0.102576 0.720957
0.000000 0.220621 0.511179
0.065525 0.224257 0.519963
0.167780 0.239352 0.582440
0.323460 0.231119 0.699494
0.614646 0.201398 0.721600
0.884054 0.174655 0.723710
0.000000 0.343998 0.587879
0.065592 0.348143 0.600258
0.200208 0.352613 0.652094
0.385290 0.338393 0.729328
0.642651 0.325443 0.726704
0.895193 0.310542 0.727798
0.000000 0.477366 0.656381
0.099100 0.481098 0.665745
0.248192 0.486943 0.702897
0.442724 0.478402 0.729297
0.667749 0.471619 0.727547
0.899243 0.465215 0.726938
0.023852 0.633757 0.689040
0.137902 0.637213 0.692369
0.315133 0.645841 0.704047
0.474227 0.650300 0.717680
0.676022 0.647848 0.724888
0.896437 0.644200 0.723819
0.047653 0.811379 0.701286
0.156447 0.814826 0.703614
0.339567 0.821432 0.708133
0.506256 0.826353 0.711527
0.691734 0.831327 0.714929
0.887442 0.836006 0.718758
