example_ofxGpuLutCube/bin/data/ofxGpuLutCube/LUT/T27 (deep warm fade).cube
LUT_3D_SIZE 6
0.000000 0.000000 0.000000
0.130472 0.023499 0.016030
0.317225 0.054442 0.045594
0.516618 0.072889 0.075408
0.724883 0.080620 0.094565
0.908865 0.086654 0.100670
0.059133 0.152325 0.047391
0.145623 0.150872 0.045671
0.343785 0.190826 0.067940
0.528758 0.210354 0.083728
0.736468 0.217464 0.098016
0.936314 0.215177 0.114169
0.144390 0.367227 0.126908
0.234202 0.375590 0.129638
0.366935 0.346730 0.106320
0.567766 0.391747 0.101218
0.749012 0.389172 0.092945
0.926377 0.389950 0.094088
0.200478 0.587311 0.186122
0.304839 0.594214 0.191917
0.436535 0.598370 0.142738
0.590340 0.551050 0.137217
0.776552 0.595133 0.107495
0.928959 0.611092 0.095811
0.253643 0.777486 0.224637
0.361532 0.782847 0.230272
0.405454 0.775908 0.221483
0.667372 0.799291 0.137954
0.787688 0.744453 0.154534
0.936698 0.763131 0.137723
0.319538 0.912839 0.256476
0.421371 0.921573 0.257694
0.462661 0.915449 0.256567
0.681876 0.947009 0.162116
0.858970 0.949318 0.204882
0.946520 0.904586 0.185005
0.032346 0.031768 0.110491
0.125460 0.025821 0.116167
0.314763 0.051341 0.135646
0.524153 0.060065 0.155274
0.718808 0.065474 0.167213
0.897744 0.075048 0.179173
0.059180 0.155394 0.137625
0.168128 0.173643 0.154467
0.373055 0.201178 0.165697
0.582730 0.216243 0.180058
0.831775 0.211632 0.198506
0.937718 0.238721 0.210738
0.133687 0.361553 0.190637
0.232366 0.374758 0.199162
0.383425 0.373783 0.213975
0.576381 0.389558 0.195983
0.797312 0.383576 0.177955
0.932893 0.404107 0.193665
0.192886 0.584036 0.256839
0.301315 0.592282 0.267196
0.402112 0.597531 0.258668
0.601506 0.574210 0.249980
0.785397 0.609142 0.209664
0.937805 0.614339 0.192378
0.247384 0.774737 0.300893
0.359174 0.781972 0.310594
0.405624 0.778506 0.315156
0.652363 0.798057 0.234643
0.794943 0.760460 0.276033
0.941796 0.781667 0.262905
0.314756 0.912059 0.335033
0.420047 0.921435 0.341471
0.482516 0.920691 0.349189
0.663019 0.944970 0.294156
0.863200 0.958857 0.322576
0.952745 0.917847 0.310240
0.080727 0.089756 0.269649
0.157380 0.064390 0.269618
0.330569 0.051631 0.290994
0.542717 0.061600 0.314009
0.732953 0.066871 0.302448
0.895357 0.067135 0.292885
0.104341 0.217301 0.294591
0.206483 0.227125 0.303705
0.365293 0.199031 0.321380
0.584884 0.195289 0.331736
0.817301 0.166973 0.324252
0.945657 0.183933 0.333796
0.111410 0.359826 0.318522
0.221412 0.374446 0.333474
0.401033 0.403737 0.359931
0.603616 0.402963 0.337825
0.820566 0.414632 0.336505
0.946190 0.440828 0.353290
0.164342 0.575022 0.362346
0.270210 0.584094 0.369427
0.413374 0.596460 0.383396
0.618718 0.602026 0.396026
0.794508 0.605880 0.348809
0.944332 0.611984 0.356262
0.216332 0.764590 0.377649
0.327255 0.771655 0.381129
0.383766 0.774761 0.356519
0.631266 0.800216 0.363779
0.806246 0.779740 0.421059
0.951009 0.803480 0.409843
0.282044 0.906275 0.377839
0.389726 0.913575 0.379955
0.467950 0.916397 0.386290
0.632422 0.939950 0.380962
0.860778 0.963464 0.452485
0.961318 0.933730 0.456171
0.118507 0.150620 0.450517
0.197963 0.120754 0.447159
0.340624 0.057078 0.459591
0.557055 0.055689 0.487716
0.746679 0.059172 0.495027
0.908574 0.063064 0.492950
0.137226 0.283481 0.471289
0.246433 0.290675 0.479991
0.358097 0.204725 0.482771
0.585648 0.206555 0.511792
0.802833 0.188584 0.539267
0.963330 0.186173 0.539341
0.140648 0.414608 0.490771
0.256406 0.432785 0.502493
0.427238 0.447606 0.509782
0.609339 0.414335 0.527717
0.818614 0.402894 0.526700
0.955619 0.417681 0.512875
0.117167 0.574444 0.506853
0.237570 0.586068 0.518166
0.457648 0.602607 0.542303
0.628062 0.621186 0.549223
0.820401 0.619049 0.526440
0.958876 0.641852 0.538205
0.173426 0.762963 0.531343
0.277559 0.769380 0.537833
0.440344 0.779963 0.550719
0.632295 0.800302 0.552473
0.817557 0.799199 0.573227
0.959990 0.816314 0.564060
0.258904 0.906290 0.546107
0.362591 0.915111 0.554961
0.438411 0.916325 0.551533
0.645543 0.939438 0.555605
0.849524 0.964491 0.586399
0.970527 0.951029 0.608343
0.144817 0.205452 0.628393
0.224165 0.165752 0.622640
0.303459 0.077654 0.621873
0.569624 0.052506 0.659803
0.758780 0.054079 0.667520
0.916413 0.054876 0.672862
0.162884 0.342196 0.645546
0.276073 0.345119 0.653678
0.349307 0.265490 0.643139
0.597163 0.204862 0.682110
0.805398 0.192023 0.710314
0.975003 0.184131 0.729738
0.163657 0.473512 0.659132
0.290137 0.489186 0.668884
0.458245 0.503231 0.678463
0.618301 0.412096 0.697556
0.812676 0.414834 0.708647
0.964052 0.418139 0.713310
0.150319 0.606943 0.670113
0.275379 0.621244 0.680117
0.472116 0.644196 0.693748
0.650450 0.657665 0.701406
0.822000 0.626539 0.713014
0.966496 0.633794 0.709250
0.145210 0.756410 0.673661
0.262890 0.769897 0.686671
0.470081 0.785417 0.704947
0.665546 0.798547 0.725445
0.820956 0.814786 0.730014
0.966130 0.828197 0.730493
0.228379 0.900133 0.683029
0.320196 0.909607 0.693127
0.507635 0.928350 0.720163
0.690606 0.943663 0.745402
0.840955 0.963880 0.743428
0.978734 0.967993 0.765170
0.169034 0.244036 0.787125
0.249260 0.203181 0.783463
0.300382 0.122821 0.773897
0.582688 0.048688 0.814485
0.769548 0.050813 0.821417
0.925566 0.052734 0.827399
0.188503 0.381114 0.797595
0.301687 0.382405 0.807017
0.382915 0.319406 0.801115
0.601129 0.203989 0.832548
0.814559 0.189996 0.863029
0.981783 0.183306 0.881657
0.196144 0.511995 0.805549
0.321949 0.526148 0.815723
0.482477 0.537355 0.826223
0.576579 0.426993 0.828722
0.820150 0.414268 0.859338
0.969355 0.420289 0.865151
0.191736 0.638441 0.809771
0.320929 0.654956 0.821262
0.503250 0.677754 0.834248
0.669611 0.690345 0.842231
0.826389 0.626636 0.861782
0.970740 0.635770 0.867635
0.189153 0.766783 0.810837
0.304803 0.782395 0.824619
0.497678 0.804803 0.843035
0.685704 0.824526 0.858916
0.836978 0.837152 0.867594
0.972083 0.825752 0.876334
0.228360 0.891404 0.808010
0.334867 0.909441 0.826302
0.522249 0.933171 0.853405
0.707956 0.949859 0.877514
0.859753 0.967791 0.896322
0.987579 0.983646 0.904963
