example_ofxGpuLutCube/bin/data/ofxGpuLutCube/LUT/T27 (deep warm fade).cube
LUT_3D_SIZE 16
0.000000 0.000000 0.000000
0.034247 0.005410 0.000286
0.074511 0.011521 0.005882
0.130472 0.023499 0.016030
0.190998 0.035377 0.026313
0.252535 0.045457 0.035806
0.317225 0.054442 0.045594
0.383929 0.063615 0.055966
0.449828 0.069681 0.065682
0.516618 0.072889 0.075408
0.584446 0.075231 0.084410
0.653003 0.078300 0.090506
0.724883 0.080620 0.094565
0.800746 0.083741 0.098014
0.868940 0.086635 0.100880
0.908865 0.086654 0.100670
0.012663 0.039159 0.006884
0.042415 0.042052 0.009412
0.083714 0.050858 0.015783
0.146055 0.066664 0.027246
0.208951 0.081058 0.037925
0.268254 0.091517 0.046501
0.329872 0.100891 0.054632
0.391711 0.108345 0.062464
0.454607 0.113903 0.070121
0.518674 0.117589 0.078105
0.586548 0.119130 0.087080
0.659391 0.118807 0.096415
0.736337 0.118841 0.105279
0.814312 0.120066 0.110676
0.884305 0.122539 0.113132
0.924235 0.122420 0.112845
0.034660 0.093177 0.026202
0.063706 0.095880 0.027922
0.089956 0.094009 0.027147
0.141500 0.105881 0.034184
0.210767 0.122590 0.044921
0.275927 0.135237 0.053924
0.337798 0.144992 0.061470
0.399510 0.153043 0.068291
0.460330 0.159095 0.074381
0.523164 0.163897 0.080466
0.588261 0.166642 0.086773
0.659093 0.167087 0.094158
0.736712 0.165968 0.103703
0.822240 0.163706 0.114276
0.895711 0.163548 0.120109
0.936669 0.162659 0.120927
0.059133 0.152325 0.047391
0.090016 0.156618 0.049920
0.116438 0.156879 0.047906
0.145623 0.150872 0.045671
0.205473 0.164723 0.054029
0.275968 0.180095 0.061103
0.343785 0.190826 0.067940
0.406481 0.198970 0.073928
0.467493 0.205380 0.079118
0.528758 0.210354 0.083728
0.592682 0.214164 0.088059
0.661666 0.216432 0.092582
0.736468 0.217464 0.098016
0.817290 0.217454 0.104871
0.893070 0.216981 0.111197
0.936314 0.215177 0.114169
0.087010 0.218590 0.072321
0.118046 0.222655 0.074667
0.147444 0.225510 0.074983
0.173200 0.221658 0.069861
0.214024 0.212586 0.066801
0.276090 0.226171 0.073607
0.349998 0.243770 0.078265
0.415967 0.251779 0.080738
0.476922 0.256002 0.084093
0.536121 0.259907 0.087261
0.598160 0.263229 0.089989
0.665576 0.266594 0.092542
0.738492 0.268913 0.095263
0.816543 0.271232 0.097994
0.888771 0.272680 0.101001
0.930336 0.271701 0.102443
0.116365 0.290886 0.099820
0.147754 0.294852 0.101951
0.178713 0.298428 0.102812
0.200777 0.297395 0.100820
0.249536 0.296087 0.092049
0.288569 0.278328 0.087918
0.354900 0.291702 0.092563
0.428477 0.311779 0.094315
0.491770 0.319568 0.092107
0.550012 0.321106 0.091290
0.608930 0.321316 0.091854
0.671664 0.321958 0.092689
0.741747 0.323879 0.093586
0.817260 0.327084 0.094697
0.887204 0.329843 0.096009
0.927664 0.329384 0.096704
0.144390 0.367227 0.126908
0.176711 0.371784 0.129320
0.208312 0.374729 0.130213
0.234202 0.375590 0.129638
0.264820 0.374861 0.121992
0.331886 0.370489 0.108059
0.366935 0.346730 0.106320
0.433103 0.358328 0.108176
0.505659 0.379728 0.107098
0.567766 0.391747 0.101218
0.624791 0.393221 0.095536
0.684086 0.391445 0.093312
0.749012 0.389172 0.092945
0.819211 0.388820 0.093353
0.886888 0.389931 0.093908
0.926377 0.389950 0.094088
0.167233 0.443904 0.150365
0.200390 0.446725 0.152724
0.233408 0.450139 0.154339
0.263095 0.452899 0.154656
0.274393 0.448117 0.151673
0.350555 0.456411 0.129066
0.412434 0.443955 0.123280
0.444894 0.415574 0.120911
0.509751 0.424851 0.120429
0.577658 0.445774 0.115742
0.639396 0.461338 0.105693
0.698489 0.466668 0.097773
0.759103 0.465707 0.095037
0.824909 0.463506 0.093819
0.887259 0.461030 0.093060
0.925941 0.462353 0.092793
0.186451 0.519250 0.170860
0.220591 0.521051 0.172875
0.254208 0.523274 0.174617
0.286103 0.526116 0.175346
0.302444 0.523768 0.174071
0.343484 0.524272 0.160115
0.437655 0.532461 0.124994
0.487034 0.511639 0.132399
0.519180 0.483212 0.130572
0.580234 0.490945 0.128303
0.646314 0.510759 0.120556
0.709376 0.529155 0.107121
0.769982 0.538872 0.098855
0.830815 0.539069 0.095551
0.889399 0.538409 0.093909
0.927196 0.539286 0.093390
0.200478 0.587311 0.186122
0.236086 0.589745 0.188500
0.271110 0.591656 0.190409
0.304839 0.594214 0.191917
0.326494 0.593567 0.191383
0.337919 0.588604 0.185322
0.436535 0.598370 0.142738
0.517726 0.602919 0.132850
0.556192 0.577101 0.138209
0.590340 0.551050 0.137217
0.648076 0.556160 0.133147
0.712534 0.574810 0.123169
0.776552 0.595133 0.107495
0.837053 0.606465 0.099408
0.891886 0.609912 0.096402
0.928959 0.611092 0.095811
0.214707 0.652734 0.199366
0.250690 0.654501 0.201266
0.286345 0.656269 0.203082
0.321191 0.658458 0.204681
0.347099 0.659016 0.204946
0.337136 0.652153 0.199058
0.428400 0.659559 0.175907
0.519481 0.667291 0.121962
0.587494 0.667321 0.139825
0.621650 0.640701 0.143416
0.657536 0.616990 0.141880
0.714463 0.621082 0.137212
0.778592 0.639254 0.124642
0.841847 0.659311 0.107343
0.896905 0.670942 0.100621
0.933616 0.672421 0.100068
0.231848 0.716619 0.211785
0.268018 0.718246 0.213622
0.303787 0.719497 0.215211
0.339801 0.721807 0.217333
0.367847 0.722138 0.217658
0.369995 0.717724 0.214913
0.414109 0.717096 0.202821
0.516506 0.727570 0.148114
0.595703 0.733653 0.123523
0.653907 0.729397 0.147430
0.686447 0.703035 0.148814
0.722651 0.681507 0.146776
0.780266 0.685311 0.141441
0.843401 0.702939 0.127498
0.899794 0.719605 0.112553
0.936379 0.721644 0.110362
0.253643 0.777486 0.224637
0.290073 0.778988 0.226713
0.326366 0.780950 0.228654
0.361532 0.782847 0.230272
0.391470 0.784352 0.231063
0.402642 0.781555 0.230019
0.405454 0.775908 0.221483
0.512521 0.787469 0.187925
0.594766 0.794129 0.119784
0.667372 0.799291 0.137954
0.720252 0.791450 0.159315
0.752084 0.766143 0.158682
0.787688 0.744453 0.154534
0.844288 0.748464 0.149821
0.900235 0.760974 0.139549
0.936698 0.763131 0.137723
0.283173 0.836152 0.239436
0.318989 0.837871 0.241608
0.354782 0.840159 0.243470
0.389595 0.842363 0.244614
0.419262 0.844399 0.244181
0.437815 0.843405 0.244884
0.420398 0.834993 0.238192
0.506899 0.843851 0.220418
0.596052 0.853169 0.173490
0.670158 0.858400 0.116631
0.738845 0.862677 0.157008
0.789118 0.855782 0.177347
0.818309 0.830067 0.173670
0.851777 0.807366 0.167059
0.901244 0.808639 0.165264
0.937207 0.809492 0.163849
0.308336 0.878755 0.252656
0.343357 0.881050 0.254320
0.377896 0.883663 0.255184
0.411954 0.886806 0.254690
0.442217 0.889150 0.254177
0.462981 0.888864 0.254695
0.455585 0.881769 0.253671
0.498075 0.886350 0.243432
0.595619 0.902524 0.211252
0.674402 0.911185 0.153791
0.745549 0.917340 0.128842
0.809386 0.921403 0.186088
0.852191 0.911064 0.199624
0.878259 0.884770 0.190380
0.908315 0.864936 0.181721
0.943109 0.865356 0.181802
0.319538 0.912839 0.256476
0.354073 0.915337 0.258092
0.388011 0.918370 0.258397
0.421371 0.921573 0.257694
0.451883 0.924021 0.257305
0.472766 0.923765 0.257771
0.462661 0.915449 0.256567
0.507772 0.921287 0.246517
0.605876 0.938252 0.215594
0.681876 0.947009 0.162116
0.752364 0.953719 0.130498
0.815970 0.958406 0.191449
0.858970 0.949318 0.204882
0.884055 0.924741 0.194522
0.911991 0.903914 0.184350
0.946520 0.904586 0.185005
0.008823 0.008710 0.028702
0.040857 0.012902 0.033018
0.072501 0.014850 0.035052
0.119000 0.019178 0.039577
0.177958 0.030306 0.048181
0.242656 0.040124 0.057822
0.312723 0.050101 0.069318
0.382256 0.056846 0.080231
0.451297 0.061338 0.091288
0.517810 0.065327 0.100855
0.584465 0.068607 0.108397
0.652708 0.072321 0.113865
0.723357 0.076011 0.118440
0.796835 0.079859 0.122918
0.864934 0.082551 0.125555
0.904864 0.082665 0.125551
0.018303 0.045084 0.037777
0.049521 0.049611 0.041521
0.093442 0.055965 0.045936
0.154149 0.067600 0.054201
0.219348 0.079691 0.063521
0.289542 0.090638 0.073538
0.362382 0.099587 0.083561
0.434052 0.104634 0.093063
0.507228 0.106581 0.103142
0.580697 0.106897 0.112971
0.652777 0.107906 0.120719
0.727192 0.110367 0.125668
0.802793 0.113530 0.129246
0.860651 0.114753 0.130416
0.896572 0.117159 0.132976
0.927546 0.125267 0.141486
0.034140 0.093127 0.051970
0.064318 0.096964 0.055345
0.097060 0.100451 0.057888
0.157584 0.114104 0.065049
0.227990 0.127724 0.073390
0.296467 0.138226 0.081256
0.364772 0.146568 0.088938
0.432736 0.152157 0.095922
0.501990 0.155169 0.103115
0.574318 0.155799 0.111423
0.649624 0.154967 0.121081
0.731196 0.153347 0.131389
0.813360 0.152713 0.139217
0.876146 0.153166 0.142103
0.912320 0.156165 0.144322
0.938785 0.167787 0.148466
0.057804 0.151635 0.070671
0.088851 0.156321 0.073801
0.117719 0.158284 0.074713
0.149994 0.157408 0.075541
0.215675 0.171223 0.083645
0.289574 0.183998 0.089035
0.360988 0.192793 0.094283
0.429625 0.199051 0.099777
0.499231 0.203219 0.105085
0.570268 0.205283 0.110224
0.643411 0.206169 0.116254
0.722216 0.205677 0.124032
0.808014 0.203543 0.133724
0.878239 0.201695 0.140365
0.916000 0.204005 0.142203
0.937035 0.218686 0.141218
0.086185 0.217833 0.096090
0.116699 0.221518 0.098225
0.147233 0.224967 0.099778
0.174765 0.224840 0.098254
0.219068 0.220475 0.097336
0.283269 0.233687 0.103928
0.358624 0.246866 0.105876
0.428146 0.251741 0.106518
0.494136 0.254460 0.108634
0.563028 0.256925 0.111700
0.638609 0.258096 0.114606
0.716714 0.258947 0.118283
0.798262 0.259882 0.122578
0.869767 0.259677 0.126865
0.909866 0.260707 0.128988
0.931294 0.276418 0.128317
0.115845 0.290523 0.124603
0.147138 0.294448 0.127003
0.178619 0.298336 0.128557
0.205920 0.300350 0.129381
0.246127 0.298631 0.121507
0.293130 0.285962 0.119430
0.360386 0.300381 0.123700
0.434019 0.315794 0.122002
0.499851 0.318816 0.117903
0.563108 0.317614 0.115978
0.631087 0.316019 0.115400
0.708094 0.315660 0.115942
0.789858 0.317202 0.117348
0.864005 0.318340 0.119189
0.905944 0.318296 0.120247
0.929002 0.333593 0.121050
0.144771 0.367621 0.152822
0.176177 0.370692 0.154713
0.208331 0.374783 0.156341
0.238119 0.377858 0.158004
0.261428 0.376248 0.153321
0.332079 0.376452 0.139773
0.371902 0.355180 0.138731
0.438323 0.367963 0.140337
0.509518 0.386478 0.135883
0.573263 0.392349 0.126694
0.635922 0.389753 0.119823
0.703861 0.384878 0.116535
0.781027 0.380846 0.115467
0.856796 0.380619 0.116021
0.902589 0.380042 0.116478
0.928240 0.393295 0.117917
0.168049 0.444858 0.177243
0.200559 0.446793 0.179049
0.233679 0.450506 0.180981
0.265569 0.454162 0.182650
0.281929 0.451406 0.181334
0.342097 0.456563 0.163253
0.414261 0.450838 0.154553
0.449446 0.423588 0.153722
0.513218 0.433604 0.152584
0.580992 0.454197 0.146086
0.644535 0.465024 0.131414
0.707663 0.465020 0.120668
0.776385 0.460231 0.117139
0.850061 0.454125 0.115426
0.900079 0.452086 0.114944
0.929041 0.463366 0.117448
0.186356 0.518644 0.197164
0.220206 0.520558 0.199593
0.253928 0.523025 0.201252
0.288217 0.527497 0.203812
0.308484 0.526288 0.203554
0.334947 0.524215 0.194515
0.432783 0.534144 0.159203
0.489892 0.518898 0.165365
0.522768 0.490704 0.163826
0.583785 0.498927 0.160999
0.649080 0.519333 0.152344
0.713206 0.534413 0.133798
0.777463 0.538576 0.121280
0.845254 0.535686 0.117461
0.899009 0.532648 0.115760
0.930519 0.540643 0.118039
0.200855 0.587412 0.213187
0.235704 0.589322 0.215405
0.271168 0.591922 0.217765
0.306204 0.594637 0.220301
0.331467 0.595421 0.220743
0.333683 0.588923 0.215667
0.427545 0.598812 0.182805
0.514250 0.603945 0.162395
0.558742 0.583996 0.172735
0.593262 0.558282 0.171351
0.651403 0.564137 0.167377
0.715025 0.582440 0.156406
0.779811 0.600701 0.135090
0.844040 0.608677 0.121746
0.898346 0.609144 0.118595
0.932632 0.613586 0.119750
0.215237 0.652868 0.226790
0.251012 0.654682 0.228715
0.286787 0.656578 0.230793
0.322577 0.658961 0.233580
0.350476 0.660033 0.234289
0.352566 0.655069 0.231385
0.416466 0.658691 0.213517
0.514104 0.667045 0.155799
0.585847 0.669793 0.173512
0.623996 0.646569 0.178743
0.659905 0.623531 0.177157
0.717106 0.628115 0.172438
0.780816 0.646077 0.159784
0.844248 0.665184 0.136033
0.900148 0.674146 0.123687
0.935619 0.676932 0.123676
0.231700 0.715149 0.239612
0.267937 0.717246 0.241523
0.304053 0.718841 0.243479
0.340767 0.721830 0.246369
0.370044 0.722669 0.247319
0.378442 0.719686 0.246148
0.405238 0.716763 0.236858
0.509995 0.727866 0.190858
0.590223 0.733562 0.154023
0.653298 0.732000 0.182964
0.688635 0.708216 0.185862
0.725079 0.687146 0.183592
0.782104 0.691376 0.178418
0.845066 0.709200 0.164337
0.901466 0.725034 0.145301
0.938070 0.727186 0.142840
0.254366 0.777583 0.253162
0.290164 0.779323 0.254984
0.326541 0.781299 0.257113
0.362575 0.782956 0.259592
0.392922 0.784658 0.260723
0.408951 0.783019 0.260850
0.397894 0.775917 0.252570
0.503753 0.786812 0.226898
0.589058 0.793693 0.167219
0.662591 0.798646 0.167093
0.721315 0.794701 0.195998
0.753757 0.770761 0.196285
0.789775 0.749761 0.192495
0.845445 0.753340 0.187246
0.901359 0.766555 0.178044
0.937770 0.768681 0.177357
0.283561 0.835947 0.268143
0.319471 0.838362 0.270391
0.354650 0.839923 0.272035
0.391015 0.843331 0.274564
0.421172 0.845214 0.274557
0.440899 0.844325 0.275151
0.429853 0.836857 0.270790
0.495430 0.842332 0.257164
0.590065 0.852944 0.215519
0.664111 0.857670 0.153740
0.735090 0.862083 0.188478
0.789019 0.858196 0.213613
0.819847 0.833751 0.211991
0.854197 0.812063 0.205830
0.903308 0.813342 0.203424
0.939263 0.814923 0.202865
0.308756 0.878842 0.281043
0.342859 0.881104 0.282702
0.378086 0.883886 0.283858
0.412966 0.887234 0.284971
0.442993 0.889513 0.284724
0.464989 0.889566 0.285329
0.462687 0.883430 0.285284
0.488907 0.884075 0.277547
0.590669 0.902107 0.248396
0.668634 0.910550 0.202514
0.741132 0.917292 0.161581
0.807452 0.921637 0.218351
0.854055 0.914711 0.237040
0.879890 0.888060 0.228830
0.909930 0.868906 0.220227
0.944660 0.869646 0.220534
0.319759 0.912902 0.284859
0.353637 0.915401 0.286367
0.388160 0.918547 0.287061
0.422700 0.922096 0.288032
0.452620 0.924386 0.287935
0.474732 0.924470 0.288496
0.475092 0.918485 0.288979
0.497327 0.918402 0.280851
0.598388 0.937192 0.253556
0.676510 0.946404 0.209879
0.747431 0.953355 0.167226
0.813990 0.958421 0.223560
0.860971 0.953203 0.242699
0.885840 0.928166 0.233192
0.913685 0.908079 0.223447
0.947990 0.908581 0.224800
0.018975 0.017979 0.066398
0.050547 0.021773 0.070490
0.083137 0.024748 0.074128
0.121675 0.021828 0.075648
0.177902 0.030763 0.082416
0.240757 0.041043 0.088036
0.311007 0.049386 0.096146
0.382061 0.052925 0.106284
0.453420 0.056819 0.117894
0.518514 0.058523 0.125634
0.585000 0.063953 0.133368
0.652403 0.068527 0.139283
0.721825 0.072357 0.144313
0.795246 0.076139 0.149098
0.861086 0.078472 0.152146
0.900818 0.078450 0.152187
0.030377 0.058636 0.076881
0.060031 0.060992 0.079531
0.091526 0.062225 0.081938
0.134711 0.059190 0.083953
0.200703 0.068564 0.089951
0.277091 0.079006 0.097180
0.356692 0.086920 0.108387
0.434431 0.091248 0.120274
0.509051 0.095297 0.131159
0.582190 0.098440 0.139843
0.653008 0.101853 0.145967
0.725767 0.105225 0.150645
0.800809 0.108854 0.154493
0.857102 0.110276 0.155756
0.893658 0.114176 0.159467
0.925139 0.122874 0.167928
0.038859 0.098265 0.085939
0.070118 0.103329 0.090744
0.104980 0.108555 0.094658
0.160968 0.116975 0.098712
0.225699 0.127223 0.104911
0.295047 0.138785 0.112664
0.366196 0.148593 0.120218
0.436687 0.155271 0.126799
0.507678 0.159273 0.133495
0.581789 0.159530 0.141110
0.663120 0.157220 0.150692
0.751609 0.153756 0.160889
0.834801 0.152903 0.166660
0.884928 0.151525 0.166722
0.915022 0.160337 0.172576
0.940905 0.173952 0.178689
0.055653 0.150381 0.100456
0.086586 0.154910 0.104775
0.118356 0.159488 0.110024
0.160378 0.164873 0.112337
0.229244 0.177808 0.117004
0.300479 0.188695 0.121677
0.369052 0.197057 0.126310
0.435780 0.203224 0.130260
0.503641 0.207462 0.134813
0.574302 0.209257 0.139524
0.652765 0.209013 0.145319
0.740223 0.206542 0.153827
0.831369 0.202782 0.164032
0.890502 0.198470 0.168718
0.916842 0.209563 0.168143
0.936658 0.227236 0.167946
0.081968 0.214466 0.119295
0.112871 0.218841 0.122810
0.143935 0.222952 0.125168
0.175032 0.226213 0.127114
0.223796 0.228253 0.132154
0.292743 0.240278 0.137473
0.366004 0.248925 0.137434
0.433605 0.253561 0.137833
0.500477 0.257177 0.139051
0.570024 0.259362 0.140509
0.646386 0.260178 0.142799
0.730553 0.260103 0.146314
0.819628 0.259060 0.151423
0.882807 0.255680 0.155875
0.911338 0.264707 0.155789
0.932272 0.281992 0.156690
0.111099 0.287570 0.143379
0.142639 0.291460 0.146104
0.174247 0.295614 0.148230
0.205507 0.299919 0.152171
0.242201 0.300915 0.151766
0.299196 0.295278 0.155217
0.366578 0.308290 0.158248
0.438404 0.318249 0.154520
0.502220 0.318090 0.149919
0.566341 0.317243 0.147162
0.636601 0.317027 0.145111
0.716901 0.317250 0.143611
0.804608 0.317853 0.143735
0.874686 0.316070 0.144893
0.908153 0.321648 0.146229
0.930801 0.338729 0.151731
0.140462 0.365066 0.172938
0.173064 0.369657 0.176045
0.204883 0.372883 0.177765
0.238189 0.377774 0.182107
0.258927 0.376406 0.181559
0.328918 0.380500 0.172493
0.377906 0.365050 0.175050
0.444401 0.377729 0.175990
0.513357 0.391419 0.168820
0.575185 0.392185 0.159727
0.637926 0.387818 0.152934
0.708176 0.383485 0.147173
0.788138 0.381471 0.142289
0.865326 0.380892 0.140211
0.905986 0.381526 0.140709
0.930889 0.398640 0.149494
0.164684 0.442135 0.199212
0.198004 0.445901 0.202005
0.231209 0.449394 0.204217
0.265599 0.454521 0.208171
0.286576 0.453564 0.209447
0.330409 0.455878 0.197081
0.415179 0.456427 0.188577
0.454494 0.432632 0.189936
0.518907 0.444003 0.188773
0.584692 0.461609 0.180198
0.646458 0.466998 0.164652
0.710705 0.464340 0.152839
0.781461 0.458953 0.145126
0.856401 0.453942 0.140440
0.904659 0.450691 0.139400
0.931972 0.465339 0.147298
0.183342 0.516277 0.220624
0.217495 0.518775 0.223106
0.252057 0.522490 0.225647
0.287262 0.526343 0.229256
0.313352 0.527991 0.231408
0.329061 0.523191 0.226453
0.423960 0.534290 0.192271
0.492652 0.526250 0.201233
0.527291 0.499356 0.200776
0.588714 0.508824 0.198006
0.652267 0.527366 0.188014
0.715526 0.538378 0.166823
0.781513 0.539749 0.149770
0.850650 0.535493 0.142722
0.903225 0.532131 0.140399
0.933763 0.540029 0.145395
0.198731 0.586012 0.237957
0.233677 0.588310 0.240034
0.268779 0.590290 0.242278
0.305623 0.594515 0.246481
0.334146 0.596416 0.248738
0.337406 0.591004 0.246302
0.416283 0.598325 0.222483
0.510039 0.605541 0.196669
0.562554 0.591609 0.210375
0.597024 0.566162 0.208952
0.654989 0.572792 0.205026
0.718380 0.591166 0.194089
0.782662 0.605905 0.168797
0.848013 0.611056 0.147744
0.902717 0.610075 0.143016
0.936177 0.614902 0.146917
0.212920 0.651422 0.252134
0.248567 0.653271 0.254021
0.284534 0.655243 0.256183
0.322146 0.658800 0.260359
0.352372 0.660723 0.262907
0.359967 0.657092 0.262014
0.403158 0.657533 0.250129
0.505736 0.667196 0.199359
0.584120 0.671571 0.209664
0.627142 0.652863 0.217637
0.663297 0.630929 0.215940
0.720131 0.635772 0.211397
0.783312 0.653634 0.198865
0.846320 0.670211 0.171948
0.902922 0.677825 0.150735
0.937986 0.680657 0.153000
0.230214 0.715139 0.265347
0.266073 0.716653 0.267223
0.302178 0.718306 0.269275
0.339979 0.720935 0.273360
0.371462 0.722993 0.276281
0.384914 0.721002 0.276357
0.393124 0.715922 0.269395
0.500095 0.727425 0.233534
0.583795 0.733175 0.187458
0.652650 0.734351 0.220703
0.691295 0.713662 0.225685
0.728081 0.693434 0.223457
0.784668 0.698006 0.218236
0.846975 0.715332 0.204844
0.902919 0.730309 0.184293
0.939213 0.732765 0.183060
0.252251 0.776174 0.279088
0.288308 0.778079 0.281132
0.324323 0.779762 0.283127
0.362445 0.783067 0.287351
0.394449 0.785187 0.289972
0.412034 0.783718 0.290534
0.401181 0.777186 0.284963
0.493250 0.786340 0.265892
0.582896 0.793489 0.211923
0.657718 0.798162 0.200278
0.720642 0.797515 0.233916
0.756658 0.775969 0.236889
0.792157 0.754855 0.232993
0.848454 0.759514 0.228053
0.903100 0.772943 0.219839
0.939235 0.774839 0.218621
0.282541 0.836009 0.294861
0.317643 0.837158 0.297034
0.353001 0.839398 0.298706
0.390639 0.843151 0.302479
0.422378 0.845588 0.304312
0.442966 0.845154 0.305169
0.436396 0.838042 0.302940
0.484817 0.840961 0.293536
0.582360 0.852678 0.256937
0.659152 0.857808 0.200059
0.730865 0.862423 0.220299
0.789557 0.860853 0.252328
0.822144 0.838551 0.252737
0.855905 0.816778 0.246632
0.905389 0.818882 0.244831
0.940988 0.820055 0.244734
0.307178 0.878603 0.308322
0.341783 0.880923 0.309740
0.376612 0.883652 0.311274
0.412585 0.887218 0.313525
0.444293 0.890001 0.315051
0.466467 0.890095 0.315648
0.469245 0.885036 0.316778
0.474970 0.881225 0.309697
0.581993 0.900858 0.286902
0.662242 0.909981 0.247056
0.735261 0.916556 0.199189
0.803494 0.921383 0.250995
0.855273 0.918003 0.275914
0.881952 0.892525 0.269783
0.911776 0.873479 0.261992
0.946375 0.874322 0.262619
0.318138 0.912667 0.312138
0.352676 0.915211 0.313922
0.386713 0.918222 0.314664
0.422401 0.922089 0.316632
0.454323 0.924971 0.318303
0.476307 0.925024 0.318901
0.480780 0.920167 0.320310
0.483888 0.915221 0.313369
0.589588 0.935783 0.291734
0.670115 0.945762 0.253878
0.742143 0.952632 0.206299
0.810167 0.958151 0.255554
0.862061 0.955947 0.281900
0.888042 0.932508 0.274651
0.915558 0.912410 0.265504
0.949801 0.913077 0.266205
0.032346 0.031768 0.110491
0.061668 0.031613 0.112654
0.094007 0.034705 0.117075
0.125460 0.025821 0.116167
0.182334 0.031924 0.124820
0.245689 0.042594 0.131304
0.314763 0.051341 0.135646
0.386285 0.056865 0.140427
0.458093 0.059318 0.148953
0.524153 0.060065 0.155274
0.586136 0.060739 0.159281
0.649932 0.062237 0.162609
0.718808 0.065474 0.167213
0.791346 0.071207 0.174147
0.857746 0.074882 0.178673
0.897744 0.075048 0.179173
0.043273 0.073928 0.120112
0.072451 0.074525 0.122130
0.102136 0.072906 0.123926
0.135044 0.064468 0.124740
0.193096 0.069355 0.132641
0.265136 0.077627 0.138554
0.345807 0.084773 0.142343
0.428126 0.087804 0.149811
0.505327 0.086636 0.158046
0.577346 0.088186 0.163507
0.646458 0.091750 0.168515
0.719318 0.097023 0.174752
0.793189 0.101845 0.180173
0.850552 0.103969 0.182523
0.886451 0.106981 0.185467
0.917864 0.115494 0.193611
0.051763 0.113431 0.128835
0.082812 0.117619 0.132935
0.113637 0.119882 0.135533
0.150929 0.119891 0.138419
0.209183 0.120793 0.143552
0.281393 0.127113 0.146564
0.360064 0.134314 0.150547
0.437352 0.140265 0.157377
0.512261 0.144323 0.165999
0.587876 0.146389 0.175231
0.667488 0.146880 0.184234
0.750128 0.147195 0.191727
0.830777 0.148226 0.196282
0.880821 0.147006 0.195609
0.913173 0.156250 0.205316
0.941399 0.170772 0.215857
0.059180 0.155394 0.137625
0.090140 0.159216 0.141733
0.124233 0.165161 0.148249
0.168128 0.173643 0.154467
0.231845 0.181274 0.155478
0.302211 0.190792 0.159470
0.373055 0.201178 0.165697
0.443164 0.209258 0.171480
0.511901 0.214154 0.176010
0.582730 0.216243 0.180058
0.659217 0.216412 0.184605
0.744366 0.214987 0.191002
0.831775 0.211632 0.198506
0.891296 0.206688 0.202535
0.917971 0.218971 0.206442
0.937718 0.238721 0.210738
0.078855 0.213884 0.154244
0.109898 0.217483 0.158457
0.141569 0.221337 0.163035
0.181977 0.228738 0.173122
0.232465 0.235977 0.173890
0.304174 0.244855 0.171959
0.374643 0.251811 0.172297
0.441635 0.257724 0.174668
0.507630 0.262279 0.177085
0.576473 0.265256 0.179140
0.650616 0.266840 0.180757
0.732895 0.267217 0.182435
0.820047 0.266847 0.184548
0.882988 0.263899 0.186879
0.912404 0.273668 0.191518
0.934198 0.292784 0.201006
0.107613 0.285372 0.173813
0.139288 0.289182 0.177405
0.170860 0.293044 0.180434
0.202781 0.297394 0.182421
0.240182 0.302272 0.184795
0.304797 0.304696 0.193927
0.374397 0.314119 0.193822
0.442574 0.317712 0.188190
0.506144 0.317770 0.184915
0.572804 0.319090 0.183391
0.645161 0.320196 0.182000
0.725898 0.320938 0.180057
0.811493 0.321831 0.177528
0.877520 0.320779 0.176062
0.909996 0.327552 0.181527
0.932860 0.345797 0.196067
0.133687 0.361553 0.190637
0.165911 0.364826 0.193457
0.198241 0.368930 0.195977
0.232366 0.374758 0.199162
0.256811 0.376151 0.201779
0.322109 0.382841 0.204171
0.383425 0.373783 0.213975
0.450233 0.386163 0.213851
0.516294 0.392721 0.204377
0.576381 0.389558 0.195983
0.640873 0.385451 0.189366
0.714495 0.383409 0.183912
0.797312 0.383576 0.177955
0.871106 0.383238 0.172640
0.908972 0.386140 0.175468
0.932893 0.404107 0.193665
0.157046 0.438371 0.213735
0.190335 0.441351 0.216539
0.223793 0.445157 0.219270
0.259858 0.451009 0.224905
0.286629 0.453769 0.230385
0.320471 0.454953 0.226666
0.413504 0.461393 0.222991
0.459348 0.441495 0.229616
