example_ofxGpuLutCube/bin/data/ofxGpuLutCube/LUT/T28 (neutral teal orange).cube
LUT_3D_SIZE 6
0.000000 0.004841 0.006003
0.181029 0.018635 0.000025
0.379804 0.020735 0.000020
0.539363 0.022019 0.000000
0.675227 0.024672 0.000010
0.793746 0.032258 0.000000
0.043564 0.167107 0.072583
0.176051 0.155510 0.042983
0.355411 0.172315 0.000078
0.525011 0.193833 0.000011
0.659519 0.209055 0.000009
0.788676 0.230647 0.000000
0.109383 0.328341 0.141822
0.189395 0.338420 0.133503
0.376419 0.328449 0.071586
0.581232 0.345310 0.004164
0.732216 0.370448 0.001586
0.855438 0.394933 0.001427
0.135222 0.486131 0.173173
0.187159 0.503336 0.163181
0.370968 0.497470 0.149404
0.568245 0.504735 0.050325
0.751024 0.523113 0.018301
0.880216 0.546008 0.007423
0.129876 0.648169 0.185924
0.179898 0.670391 0.172345
0.338365 0.694293 0.142538
0.555202 0.667328 0.089685
0.740635 0.676058 0.033963
0.888013 0.687631 0.046519
0.092289 0.808900 0.200580
0.143767 0.827186 0.188014
0.272209 0.856466 0.159605
0.544611 0.834745 0.124303
0.729928 0.823312 0.068838
0.883038 0.826935 0.036186
0.000000 0.043222 0.097227
0.285322 0.023468 0.129289
0.484697 0.003386 0.089187
0.633422 0.002648 0.072674
0.751549 0.003137 0.060657
0.868220 0.004330 0.048090
0.000000 0.168402 0.168546
0.141559 0.189706 0.194873
0.396849 0.198342 0.160263
0.605825 0.192026 0.109773
0.740094 0.190601 0.065725
0.838161 0.211106 0.046454
0.026216 0.339912 0.236252
0.132817 0.356665 0.240721
0.397366 0.366298 0.224132
0.613889 0.377782 0.154731
0.759667 0.386067 0.095746
0.875334 0.400153 0.055561
0.079758 0.509427 0.275807
0.152856 0.532546 0.274492
0.375273 0.561893 0.261494
0.594332 0.552352 0.225592
0.769343 0.563710 0.171798
0.894293 0.580552 0.144102
0.084137 0.673220 0.294402
0.147720 0.698533 0.290266
0.318855 0.737169 0.278411
0.576529 0.713256 0.252522
0.766130 0.720830 0.229022
0.903449 0.725178 0.202376
0.044917 0.823322 0.310736
0.111026 0.842621 0.307611
0.252885 0.873726 0.310439
0.562540 0.881219 0.289952
0.755370 0.859890 0.272021
0.903898 0.866098 0.265482
0.048302 0.136951 0.270243
0.369848 0.095238 0.317364
0.473629 0.076726 0.292634
0.630171 0.069176 0.277995
0.755081 0.051784 0.263066
0.879629 0.024069 0.247795
0.000000 0.189386 0.246274
0.108260 0.220547 0.292024
0.378686 0.233940 0.341900
0.634095 0.220410 0.319542
0.785618 0.216672 0.295696
0.908811 0.222237 0.280066
0.000000 0.342274 0.346125
0.040113 0.366110 0.364515
0.371506 0.425957 0.439461
0.636811 0.436557 0.392267
0.786984 0.444052 0.362203
0.908544 0.458116 0.339579
0.000000 0.501936 0.398222
0.043031 0.545168 0.408105
0.362609 0.605979 0.455102
0.622223 0.607807 0.442545
0.790420 0.624616 0.408015
0.915597 0.638632 0.378407
0.000000 0.683194 0.423924
0.066155 0.712147 0.428659
0.299738 0.760829 0.465250
0.605578 0.775784 0.466826
0.790226 0.765324 0.457901
0.921325 0.773215 0.429255
0.000000 0.825654 0.445098
0.052851 0.852937 0.447678
0.219228 0.889015 0.472634
0.568469 0.916898 0.503858
0.781334 0.899226 0.491244
0.920116 0.898741 0.485051
0.163683 0.183483 0.469936
0.386352 0.139471 0.443301
0.483362 0.126794 0.435750
0.581730 0.116562 0.434190
0.704504 0.104470 0.434459
0.835750 0.094051 0.432217
0.000000 0.213311 0.322604
0.111534 0.251911 0.384250
0.382985 0.256428 0.479737
0.563589 0.251834 0.490117
0.739803 0.238706 0.492518
0.885431 0.234320 0.482046
0.000000 0.361112 0.437723
0.062908 0.401859 0.505059
0.358480 0.459109 0.573158
0.632496 0.456096 0.587957
0.808592 0.448194 0.563999
0.941990 0.453074 0.529993
0.000000 0.518467 0.529242
0.038116 0.539035 0.538713
0.360312 0.620282 0.624302
0.628884 0.649035 0.652002
0.808689 0.655920 0.610954
0.936506 0.664517 0.584024
0.000000 0.669106 0.562412
0.038116 0.709360 0.576287
0.310578 0.768248 0.618020
0.622902 0.798397 0.657625
0.807513 0.792753 0.651707
0.935121 0.802536 0.624048
0.000000 0.811167 0.578192
0.038116 0.849930 0.586554
0.245108 0.898727 0.624884
0.580992 0.927753 0.674723
0.804087 0.930204 0.670180
0.933158 0.921108 0.667229
0.220432 0.209519 0.608088
0.393581 0.185591 0.532722
0.517098 0.155876 0.564049
0.581957 0.147578 0.564711
0.672424 0.145796 0.576747
0.790153 0.132226 0.586338
0.021156 0.245676 0.411750
0.122455 0.284139 0.488020
0.385250 0.281119 0.661741
0.564805 0.258315 0.613083
0.697871 0.249383 0.639545
0.832622 0.250484 0.647991
0.000000 0.378652 0.525924
0.151595 0.439805 0.619562
0.362580 0.485275 0.721530
0.633603 0.470385 0.723492
0.764396 0.472594 0.728961
0.909104 0.464470 0.727553
0.000000 0.538485 0.641973
0.064236 0.593960 0.719592
0.376447 0.643962 0.757573
0.652713 0.666834 0.800007
0.805013 0.665697 0.779210
0.951963 0.663179 0.759128
0.000000 0.687124 0.689882
0.038116 0.719267 0.713702
0.345208 0.780112 0.777566
0.629016 0.801269 0.796976
0.824653 0.814468 0.807040
0.950826 0.821633 0.786351
0.000000 0.821800 0.702192
0.038116 0.855639 0.719906
0.293969 0.905314 0.761865
0.583025 0.932396 0.796180
0.815020 0.949767 0.819268
0.946923 0.941090 0.818729
0.223106 0.246129 0.734757
0.394409 0.229349 0.678420
0.503436 0.212778 0.655671
0.608581 0.180177 0.684397
0.678278 0.168224 0.689162
0.776304 0.157784 0.717162
0.044339 0.285363 0.524653
0.145856 0.322681 0.635871
0.364329 0.303776 0.806222
0.559397 0.286831 0.710780
0.693735 0.253343 0.740858
0.813466 0.246149 0.770815
0.083036 0.451244 0.696320
0.225540 0.482261 0.734475
0.418442 0.494037 0.883126
0.644731 0.469005 0.875492
0.766097 0.476355 0.830386
0.882270 0.470548 0.850435
0.000000 0.609714 0.826980
0.212698 0.644522 0.847829
0.414527 0.677027 0.874908
0.668469 0.673359 0.931382
0.810878 0.671416 0.884094
0.916986 0.674746 0.891358
0.000000 0.712681 0.817198
0.179379 0.773566 0.893545
0.403943 0.797189 0.905022
0.662624 0.820819 0.911954
0.826643 0.822810 0.934086
0.944667 0.825917 0.917708
0.000000 0.845943 0.835235
0.110919 0.891937 0.878040
0.374615 0.916341 0.902063
0.630013 0.935851 0.917793
0.814498 0.949246 0.928098
0.964087 0.956737 0.939263
