example_ofxGpuLutCube/bin/data/ofxGpuLutCube/LUT/T28 (neutral teal orange).cube
LUT_3D_SIZE 16
0.000000 0.004841 0.006003
0.056457 0.008267 0.002745
0.116926 0.012736 0.000007
0.181029 0.018635 0.000025
0.244233 0.021709 0.000013
0.308327 0.021589 0.000017
0.379804 0.020735 0.000020
0.438004 0.021347 0.000002
0.489139 0.021784 0.000002
0.539363 0.022019 0.000000
0.587753 0.022758 0.000008
0.634379 0.023608 0.000013
0.675227 0.024672 0.000010
0.716927 0.025828 0.000000
0.758234 0.027819 0.000003
0.793746 0.032258 0.000000
0.011337 0.061539 0.023261
0.059497 0.053269 0.014856
0.107731 0.054801 0.004167
0.157090 0.059854 0.000001
0.211705 0.067409 0.000002
0.274242 0.074021 0.000022
0.331881 0.076321 0.000017
0.388766 0.076087 0.000003
0.442901 0.074030 0.000020
0.485573 0.073516 0.000022
0.527083 0.073459 0.000023
0.571196 0.074043 0.000002
0.618811 0.076096 0.000023
0.662927 0.081803 0.000017
0.704442 0.090373 0.000022
0.745734 0.101045 0.000022
0.023705 0.113216 0.045510
0.071112 0.104159 0.038573
0.115900 0.101701 0.026057
0.168153 0.102460 0.003841
0.219159 0.108745 0.000058
0.276669 0.118514 0.000019
0.336254 0.126962 0.000000
0.392929 0.132021 0.000023
0.452491 0.135970 0.000007
0.506722 0.139213 0.000004
0.550951 0.142004 0.000002
0.595242 0.145250 0.000018
0.641759 0.149356 0.000000
0.688895 0.154998 0.000000
0.730762 0.162222 0.000009
0.770990 0.170472 0.000025
0.043564 0.167107 0.072583
0.080925 0.164780 0.065744
0.126761 0.157337 0.063674
0.176051 0.155510 0.042983
0.232041 0.154701 0.004308
0.291103 0.162460 0.000422
0.355411 0.172315 0.000078
0.412595 0.179922 0.000001
0.468634 0.186939 0.000000
0.525011 0.193833 0.000011
0.572129 0.199094 0.000003
0.614944 0.203630 0.000012
0.659519 0.209055 0.000009
0.706633 0.215667 0.000007
0.750056 0.223026 0.000012
0.788676 0.230647 0.000000
0.068735 0.220870 0.099547
0.092990 0.220075 0.093910
0.133881 0.220106 0.091684
0.185999 0.212933 0.090009
0.238560 0.211917 0.061245
0.302735 0.210328 0.005948
0.372341 0.219548 0.001493
0.437124 0.228274 0.000579
0.494544 0.235828 0.000564
0.551775 0.243298 0.000025
0.604878 0.250798 0.000009
0.647537 0.256478 0.000005
0.689507 0.262524 0.000020
0.733660 0.269605 0.000000
0.777625 0.277566 0.000002
0.814391 0.284764 0.000000
0.091297 0.274758 0.123005
0.111863 0.275224 0.119637
0.136207 0.278953 0.113689
0.193125 0.276355 0.118312
0.246304 0.270268 0.111176
0.305604 0.270545 0.072625
0.380766 0.269322 0.009275
0.454671 0.278784 0.003023
0.514059 0.286794 0.002726
0.571458 0.294786 0.001273
0.627498 0.303425 0.000922
0.673936 0.310500 0.000950
0.715216 0.316656 0.000404
0.757944 0.323961 0.000002
0.801159 0.332438 0.000000
0.838472 0.340175 0.000017
0.109383 0.328341 0.141822
0.128749 0.328989 0.139027
0.147698 0.332925 0.135829
0.189395 0.338420 0.133503
0.251752 0.329266 0.136668
0.308758 0.328001 0.121099
0.376419 0.328449 0.071586
0.457017 0.327972 0.012685
0.522720 0.336699 0.007238
0.581232 0.345310 0.004164
0.638125 0.354977 0.003816
0.690113 0.363929 0.002840
0.732216 0.370448 0.001586
0.773877 0.377880 0.001642
0.816060 0.386309 0.001407
0.855438 0.394933 0.001427
0.122739 0.382182 0.155832
0.141319 0.383463 0.153401
0.159956 0.387964 0.151429
0.184546 0.396352 0.145116
0.249399 0.395975 0.148539
0.311118 0.383752 0.144814
0.375415 0.388312 0.122994
0.448857 0.387612 0.060433
0.519908 0.386446 0.019110
0.582338 0.394898 0.013026
0.641097 0.404525 0.008050
0.698232 0.414971 0.004927
0.741824 0.422720 0.005074
0.783383 0.430259 0.005029
0.826095 0.437990 0.001821
0.866839 0.446986 0.001897
0.130806 0.434176 0.165965
0.148976 0.436061 0.163126
0.167260 0.441507 0.161168
0.184704 0.451137 0.154342
0.239989 0.458742 0.153672
0.309800 0.447900 0.154070
0.374696 0.442297 0.141377
0.445644 0.449568 0.109562
0.512358 0.448000 0.054365
0.574394 0.447030 0.021787
0.639123 0.454859 0.019385
0.698558 0.465884 0.014047
0.748495 0.474117 0.008104
0.791112 0.481139 0.005678
0.832775 0.489454 0.005729
0.873489 0.498437 0.005935
0.135222 0.486131 0.173173
0.152991 0.488170 0.170234
0.170874 0.494002 0.167743
0.187159 0.503336 0.163181
0.226221 0.514772 0.155493
0.302792 0.510992 0.156175
0.370968 0.497470 0.149404
0.443558 0.501597 0.125213
0.508996 0.506348 0.092279
0.568245 0.504735 0.050325
0.629436 0.505688 0.024250
0.694762 0.513437 0.022897
0.751024 0.523113 0.018301
0.794350 0.530180 0.014277
0.838016 0.537353 0.007984
0.880216 0.546008 0.007423
0.136633 0.540137 0.178362
0.154097 0.542457 0.175249
0.171614 0.548720 0.172530
0.188734 0.557692 0.168597
0.214187 0.569665 0.157181
0.290004 0.574513 0.155755
0.365482 0.560583 0.149619
0.436680 0.551669 0.134033
0.506455 0.558155 0.104815
0.563977 0.560045 0.077036
0.623466 0.559849 0.044029
0.686744 0.562963 0.026177
0.748980 0.569830 0.026533
0.796683 0.575699 0.021689
0.840138 0.583240 0.017390
0.883025 0.593301 0.022919
0.134817 0.596033 0.182362
0.152186 0.599000 0.178875
0.169159 0.605826 0.175203
0.186077 0.614642 0.170947
0.203837 0.626155 0.160438
0.270447 0.637800 0.152890
0.354411 0.626811 0.146434
0.429652 0.611680 0.132673
0.500317 0.610051 0.112488
0.561178 0.613751 0.086584
0.618903 0.615487 0.062578
0.680957 0.616965 0.038426
0.744320 0.620992 0.027451
0.794629 0.624355 0.028330
0.842030 0.629281 0.026490
0.885894 0.639801 0.036298
0.129876 0.648169 0.185924
0.146867 0.653383 0.181742
0.163430 0.660888 0.177450
0.179898 0.670391 0.172345
0.197966 0.681936 0.164958
0.247765 0.695463 0.150148
0.338365 0.694293 0.142538
0.420584 0.678654 0.127939
0.490968 0.664900 0.108650
0.555202 0.667328 0.089685
0.615143 0.670443 0.065864
0.675936 0.672891 0.047046
0.740635 0.676058 0.033963
0.793883 0.678419 0.029326
0.840253 0.680428 0.030252
0.888013 0.687631 0.046519
0.121356 0.701067 0.190133
0.138103 0.707354 0.185377
0.154621 0.714140 0.180778
0.171017 0.722895 0.175054
0.188753 0.733360 0.167885
0.225911 0.746193 0.153478
0.319339 0.754517 0.142498
0.408642 0.741152 0.128551
0.485395 0.726591 0.108120
0.545858 0.716619 0.086128
0.608277 0.720508 0.065449
0.670687 0.724239 0.042534
0.736291 0.728837 0.035301
0.793423 0.732304 0.032566
0.840213 0.734362 0.031232
0.886716 0.739380 0.048347
0.108287 0.756511 0.195593
0.125152 0.762321 0.190985
0.142008 0.768480 0.186190
0.158623 0.776196 0.180184
0.176190 0.785428 0.172780
0.202221 0.796430 0.163251
0.296376 0.809019 0.147369
0.394792 0.801123 0.134862
0.479931 0.787459 0.118844
0.544135 0.774619 0.102143
0.602087 0.768151 0.079706
0.665002 0.770764 0.051884
0.730449 0.774080 0.025576
0.791006 0.778636 0.032691
0.838771 0.780886 0.032867
0.884810 0.784160 0.039464
0.092289 0.808900 0.200580
0.109431 0.814257 0.196708
0.126704 0.820002 0.192923
0.143767 0.827186 0.188014
0.162063 0.835542 0.181882
0.187812 0.845275 0.173377
0.272209 0.856466 0.159605
0.378808 0.859285 0.148085
0.473069 0.846264 0.135761
0.544611 0.834745 0.124303
0.602365 0.823696 0.110997
0.663822 0.820271 0.093364
0.729928 0.823312 0.068838
0.789789 0.824089 0.033182
0.837132 0.824656 0.033178
0.883038 0.826935 0.036186
0.000000 0.012402 0.030731
0.094073 0.011787 0.040990
0.165051 0.009677 0.027994
0.239205 0.005423 0.018092
0.302966 0.005816 0.013836
0.367425 0.008813 0.012977
0.430400 0.011138 0.012817
0.480677 0.012817 0.012712
0.530681 0.013384 0.012710
0.577804 0.014251 0.012728
0.623576 0.015116 0.012728
0.664178 0.016195 0.012729
0.702837 0.017258 0.012720
0.741879 0.018834 0.012728
0.781399 0.020779 0.012709
0.819484 0.023199 0.012705
0.000000 0.061390 0.060450
0.038752 0.065473 0.066922
0.104884 0.068271 0.058762
0.168402 0.070296 0.049614
0.241380 0.067373 0.030790
0.305642 0.063580 0.015466
0.351639 0.062697 0.012899
0.406510 0.061619 0.012709
0.458575 0.059334 0.012708
0.503974 0.058737 0.012726
0.550494 0.058083 0.012714
0.599355 0.058488 0.012724
0.647138 0.060005 0.012716
0.684037 0.065094 0.012721
0.717101 0.073558 0.012711
0.749668 0.084327 0.012708
0.000000 0.110933 0.079494
0.049789 0.114854 0.082452
0.110445 0.114146 0.077424
0.169634 0.115185 0.062540
0.233853 0.114893 0.037851
0.299715 0.115427 0.015482
0.352737 0.121109 0.012725
0.407366 0.126023 0.012729
0.466849 0.129492 0.012712
0.516251 0.132230 0.012710
0.559149 0.134453 0.012722
0.602714 0.137288 0.012714
0.648477 0.141031 0.012713
0.693622 0.146478 0.012721
0.734622 0.154043 0.012711
0.775139 0.162865 0.012708
0.013025 0.167101 0.103403
0.059914 0.168509 0.103842
0.117602 0.170191 0.101865
0.175080 0.165599 0.092614
0.238312 0.165122 0.058902
0.306520 0.164303 0.020192
0.367130 0.171326 0.012734
0.422387 0.178604 0.012727
0.478708 0.185615 0.012710
0.533864 0.191880 0.012718
0.579337 0.196106 0.012707
0.621840 0.200417 0.012710
0.666221 0.205560 0.012714
0.712847 0.211974 0.012718
0.754483 0.218966 0.012725
0.792860 0.226613 0.012707
0.045689 0.222340 0.128725
0.077438 0.223023 0.127280
0.122019 0.226619 0.126669
0.182889 0.222068 0.121568
0.240940 0.220333 0.106371
0.312157 0.217256 0.045700
0.383885 0.220580 0.014326
0.446029 0.228467 0.013269
0.503849 0.235740 0.012727
0.561002 0.243289 0.012724
0.611224 0.249985 0.012717
0.652639 0.255299 0.012719
0.694510 0.261162 0.012706
0.738348 0.268130 0.012706
0.781014 0.275805 0.012708
0.816840 0.282927 0.012717
0.075361 0.278527 0.152128
0.101601 0.279508 0.150264
0.130943 0.283140 0.150207
0.184164 0.286513 0.144447
0.246990 0.277403 0.140192
0.311160 0.277798 0.113151
0.390514 0.273993 0.037185
0.462359 0.279588 0.015453
0.521488 0.287403 0.015338
0.579031 0.295248 0.013896
0.634540 0.303539 0.013623
0.678455 0.309976 0.013657
0.719554 0.315842 0.012710
0.762026 0.323117 0.012718
0.804662 0.331485 0.012714
0.840848 0.338959 0.012716
0.097169 0.333810 0.171024
0.120952 0.334567 0.169437
0.143470 0.338330 0.168576
0.182005 0.344875 0.163248
0.249478 0.340456 0.162014
0.312149 0.334553 0.148190
0.385272 0.335689 0.106874
0.465147 0.331524 0.029647
0.529414 0.338786 0.019689
0.588379 0.347232 0.016849
0.645008 0.356758 0.016561
0.695241 0.364614 0.014252
0.736248 0.371142 0.014298
0.777825 0.378515 0.014350
0.819867 0.386927 0.014084
0.858002 0.395130 0.014132
0.113333 0.390055 0.186531
0.135408 0.391097 0.185184
0.155564 0.395326 0.183149
0.181368 0.402417 0.179407
0.241913 0.407881 0.172999
0.312537 0.393305 0.170519
0.380905 0.395092 0.146953
0.456983 0.394581 0.093160
0.526007 0.389954 0.035546
0.588126 0.397597 0.025575
0.647372 0.407120 0.020603
0.702976 0.416961 0.017649
0.745393 0.424151 0.017755
0.786884 0.431608 0.017758
0.829461 0.439208 0.014532
0.869757 0.447915 0.014584
0.122611 0.443912 0.197948
0.143231 0.445913 0.195521
0.162782 0.451270 0.193443
0.183612 0.459246 0.190803
0.228808 0.470021 0.180332
0.308467 0.463311 0.179838
0.378710 0.451780 0.166012
0.451225 0.457011 0.133236
0.518901 0.456003 0.087694
0.580207 0.452215 0.043580
0.644387 0.458218 0.032448
0.703609 0.468853 0.026620
0.751671 0.476241 0.020794
0.794227 0.483117 0.018423
0.835771 0.491292 0.018468
0.878735 0.500399 0.019557
0.127893 0.496322 0.206897
0.147089 0.498671 0.203663
0.166079 0.504683 0.200981
0.184977 0.513241 0.197706
0.218418 0.524667 0.188483
0.297300 0.529127 0.183376
0.373939 0.512743 0.175851
0.448222 0.511079 0.150215
0.514007 0.515043 0.118610
0.574153 0.513763 0.081741
0.635296 0.513185 0.050784
0.699290 0.518107 0.037194
0.753936 0.526593 0.031348
0.797178 0.533451 0.027221
0.840951 0.540457 0.020807
0.883901 0.552659 0.035845
0.129582 0.550624 0.213815
0.148109 0.553203 0.209925
0.166326 0.559663 0.206770
0.184456 0.568137 0.202792
0.210644 0.578954 0.195931
0.280435 0.591003 0.184779
0.365916 0.578346 0.178951
0.441548 0.563692 0.161378
0.511048 0.567613 0.131135
0.568827 0.569341 0.105422
0.629058 0.569316 0.075493
0.692100 0.571062 0.052377
0.752252 0.575532 0.044287
0.799199 0.580289 0.037049
0.842852 0.587372 0.031438
0.886575 0.600332 0.050289
0.127523 0.606354 0.219203
0.145737 0.610050 0.215033
0.163432 0.616665 0.211052
0.180987 0.625137 0.206360
0.201476 0.635350 0.200694
0.259660 0.648387 0.186408
0.352364 0.645644 0.179662
0.434864 0.628295 0.166177
0.504510 0.620477 0.143044
0.565430 0.623182 0.116249
0.624034 0.624924 0.093945
0.686448 0.626153 0.069819
0.748779 0.628971 0.054852
0.797391 0.630850 0.050735
0.844736 0.635094 0.046811
0.889106 0.647281 0.065421
0.122174 0.658740 0.224361
0.139881 0.664812 0.219911
0.157192 0.672039 0.215431
0.174258 0.681185 0.210063
0.192983 0.691935 0.203330
0.238118 0.704764 0.189819
0.333362 0.712360 0.179505
0.424441 0.696965 0.167769
0.497763 0.681397 0.150337
0.559850 0.678182 0.128073
0.620101 0.680313 0.101846
0.681610 0.682593 0.083842
0.745169 0.684587 0.066073
0.796949 0.685940 0.058365
0.843072 0.687310 0.056675
0.890856 0.695083 0.076883
0.112951 0.710784 0.229100
0.130958 0.717295 0.225587
0.148151 0.724142 0.221271
0.164950 0.732739 0.215763
0.182681 0.742889 0.208969
0.214720 0.755004 0.199666
0.310966 0.768874 0.184085
0.410146 0.760367 0.172680
0.492653 0.746197 0.158615
0.554305 0.734009 0.142827
0.615480 0.733883 0.121663
0.677855 0.736509 0.095274
0.742274 0.739917 0.081687
0.797212 0.741562 0.070769
0.843145 0.742224 0.062021
0.889272 0.746657 0.076751
0.099396 0.763740 0.232843
0.118613 0.769829 0.231165
0.135933 0.776269 0.227391
0.152893 0.784115 0.222427
0.170896 0.793311 0.216060
0.196435 0.804221 0.208354
0.288173 0.816691 0.194548
0.393942 0.819361 0.183792
0.485591 0.806039 0.172900
0.553471 0.794250 0.160893
0.611417 0.784522 0.148210
0.675112 0.786306 0.130240
0.740693 0.789516 0.106174
0.797795 0.791467 0.097045
0.843755 0.791648 0.085753
0.888626 0.793332 0.082890
0.082022 0.814147 0.237076
0.102389 0.819654 0.236009
0.121163 0.825842 0.233731
0.139059 0.832818 0.229398
0.157982 0.841128 0.224059
0.183306 0.851093 0.217543
0.265121 0.862343 0.207734
0.375994 0.873756 0.198093
0.476139 0.862967 0.189501
0.551784 0.852082 0.181655
0.613120 0.841788 0.173455
0.672317 0.834017 0.163300
0.739794 0.837641 0.149213
0.800247 0.840486 0.133498
0.846969 0.841334 0.134078
0.890455 0.840843 0.118891
0.000000 0.023749 0.058916
0.120770 0.021916 0.096510
0.198886 0.012837 0.078571
0.262229 0.006957 0.061618
0.332104 0.002132 0.050170
0.406828 0.001896 0.042434
0.469660 0.002144 0.036916
0.523873 0.002335 0.032986
0.572023 0.003330 0.030491
0.615683 0.004789 0.028973
0.657130 0.006293 0.027466
0.694321 0.007564 0.026410
0.730213 0.009031 0.026012
0.767096 0.010847 0.025814
0.804416 0.013044 0.025633
0.840854 0.015414 0.025424
0.000000 0.066894 0.087294
0.022181 0.073857 0.097868
0.093315 0.080000 0.112798
0.174563 0.080426 0.100237
0.253362 0.082293 0.089914
0.330250 0.080046 0.077494
0.404206 0.072862 0.063751
0.482439 0.059176 0.045472
0.539623 0.047835 0.033227
0.579816 0.044691 0.028842
0.618462 0.043276 0.026548
0.655865 0.043936 0.025582
0.691221 0.046714 0.025421
0.724104 0.051501 0.025415
0.752488 0.058986 0.025414
0.776099 0.070212 0.025432
0.000000 0.112676 0.111931
0.020111 0.119283 0.118512
0.088276 0.125062 0.127715
0.163839 0.128728 0.118362
0.236455 0.131357 0.109059
0.316818 0.129634 0.088340
0.389859 0.124985 0.065592
0.461611 0.117509 0.040539
0.505989 0.118131 0.031901
0.543398 0.119358 0.027054
0.579711 0.121930 0.025432
0.615671 0.125880 0.025416
0.655358 0.131164 0.025432
0.697239 0.137349 0.025426
0.737820 0.145615 0.025416
0.778100 0.155472 0.025415
0.000000 0.164998 0.135345
0.023266 0.169581 0.135999
0.093635 0.175570 0.143176
0.168752 0.177407 0.137532
0.237577 0.179410 0.123403
0.314946 0.180385 0.099164
0.392680 0.178161 0.067073
0.458069 0.176184 0.038437
0.507290 0.180963 0.030589
0.553449 0.186161 0.025441
0.592174 0.191218 0.025427
0.631332 0.196183 0.025426
0.673281 0.201958 0.025420
0.718355 0.208436 0.025416
0.758910 0.215334 0.025420
0.796836 0.223135 0.025410
0.008497 0.222738 0.158877
0.042889 0.224497 0.158403
0.095908 0.229681 0.162556
0.172954 0.234480 0.163125
0.240494 0.230450 0.152019
0.316690 0.232678 0.122663
0.399538 0.232483 0.082513
0.468189 0.230756 0.042306
0.520857 0.235650 0.031998
0.574383 0.242054 0.025428
0.618269 0.248744 0.025420
0.658178 0.254141 0.025422
0.699136 0.260204 0.025419
0.742586 0.267152 0.025414
0.784092 0.274671 0.025428
0.819481 0.281691 0.025414
0.041741 0.281053 0.183514
0.073619 0.282571 0.182414
0.106402 0.286918 0.183417
0.171639 0.294260 0.185287
0.244172 0.289888 0.177104
0.314395 0.288479 0.162110
0.400024 0.289437 0.115971
0.475922 0.288143 0.065800
0.534578 0.290237 0.039118
0.590823 0.296319 0.029493
0.641450 0.303815 0.026335
0.683558 0.309903 0.025930
0.723854 0.315922 0.025412
0.766068 0.323098 0.025423
0.808124 0.331362 0.025425
0.843437 0.338551 0.025415
0.070034 0.337634 0.203675
0.097665 0.339289 0.201744
0.124781 0.344046 0.201833
0.168500 0.351672 0.202989
0.240349 0.356795 0.196022
0.314211 0.346040 0.186635
0.392526 0.349108 0.163857
0.476594 0.349227 0.111913
0.540633 0.348599 0.066366
0.598421 0.352124 0.040561
0.653243 0.359445 0.030272
0.700359 0.366529 0.026965
0.740805 0.372862 0.027016
0.782033 0.380130 0.027069
0.823657 0.388463 0.026808
0.860758 0.396360 0.026838
0.090180 0.395725 0.219499
0.115512 0.397376 0.217543
0.139915 0.402679 0.216986
0.168272 0.410375 0.217168
0.230794 0.420211 0.210394
0.312058 0.412114 0.205164
0.386131 0.407061 0.184530
0.466775 0.410564 0.159536
0.538226 0.408421 0.115214
0.597444 0.409300 0.074223
0.654935 0.413172 0.044170
0.708215 0.420579 0.033068
0.749981 0.426882 0.030737
0.790996 0.434165 0.030491
0.832962 0.441692 0.027243
0.874686 0.450176 0.027296
0.102128 0.451311 0.231233
0.125992 0.454099 0.229184
0.149303 0.460385 0.228628
0.173022 0.468907 0.228076
0.219842 0.479837 0.222272
0.302268 0.484351 0.213841
0.382055 0.466894 0.204355
0.458337 0.470891 0.179322
0.528010 0.472342 0.154061
0.592125 0.469788 0.119327
0.652803 0.470253 0.077595
0.709711 0.475894 0.051777
0.755352 0.480838 0.038613
0.797792 0.486830 0.033228
0.839263 0.494477 0.031312
0.883704 0.507447 0.048489
0.108874 0.504144 0.240262
0.131437 0.507666 0.238203
0.153472 0.514819 0.237137
0.175832 0.523713 0.236120
0.210287 0.534790 0.231831
0.287425 0.547605 0.219131
0.376245 0.533924 0.213314
0.453692 0.525523 0.194037
0.521405 0.529724 0.170210
0.583756 0.530595 0.147826
0.645833 0.529796 0.118495
0.707789 0.531133 0.085976
0.758139 0.535111 0.062370
0.800863 0.540546 0.052988
0.844411 0.546661 0.043617
0.887465 0.561415 0.069611
0.111535 0.558377 0.247341
0.133187 0.562825 0.245480
0.154633 0.569715 0.244236
0.175836 0.578584 0.242553
0.200716 0.589253 0.238361
0.269472 0.602698 0.225095
0.364682 0.600345 0.217704
0.447101 0.581586 0.204827
0.517746 0.582382 0.182215
0.577192 0.584809 0.162287
0.639130 0.586425 0.143609
0.701760 0.587007 0.117763
0.758650 0.588051 0.093302
0.803298 0.589774 0.071960
0.846482 0.595734 0.062032
0.890112 0.609318 0.084486
0.111053 0.613527 0.253001
0.131811 0.619352 0.251473
0.152111 0.626568 0.250076
0.172619 0.635320 0.247926
0.194202 0.645350 0.243279
0.250675 0.658105 0.231399
0.347708 0.666026 0.220538
0.440493 0.649163 0.210561
0.511205 0.636041 0.194642
0.573287 0.638368 0.174714
0.633503 0.640961 0.158143
0.696533 0.642689 0.139711
0.757096 0.643835 0.119266
0.803080 0.642904 0.101544
0.848687 0.644539 0.083831
0.892392 0.655749 0.098379
0.105708 0.666422 0.257385
0.126225 0.673727 0.255896
0.146258 0.681440 0.254663
0.165907 0.691115 0.252550
0.185865 0.701667 0.247711
0.228503 0.713818 0.239148
0.325584 0.727567 0.224433
0.427330 0.718040 0.214969
0.506544 0.702512 0.202633
0.567280 0.693657 0.188732
0.629518 0.696353 0.171111
0.691989 0.699128 0.156648
0.754730 0.700810 0.140875
0.804049 0.700421 0.126429
0.848571 0.699181 0.110456
0.894389 0.704525 0.116795
0.097443 0.717246 0.261863
0.117134 0.724425 0.260284
0.136787 0.731806 0.258944
0.156726 0.740698 0.257215
0.176332 0.751307 0.253293
0.204813 0.763566 0.246551
0.302720 0.777470 0.232615
0.410146 0.780612 0.222811
0.499302 0.766933 0.212727
0.564159 0.754647 0.202027
0.624191 0.749458 0.189550
0.688407 0.753286 0.173810
0.752644 0.757013 0.164026
0.805649 0.757852 0.151743
0.850659 0.757391 0.137851
0.894612 0.758956 0.135935
0.083439 0.769370 0.266091
0.103467 0.775647 0.264656
0.124002 0.782014 0.263614
0.143906 0.790213 0.261889
0.164914 0.799754 0.259637
0.191131 0.810937 0.254081
0.282524 0.823273 0.243616
0.392079 0.834829 0.233349
0.489915 0.823467 0.225681
0.561766 0.812608 0.217920
0.621232 0.802142 0.209421
0.684008 0.800437 0.198565
0.750632 0.804895 0.185351
0.807084 0.807676 0.182789
0.852435 0.807887 0.174036
0.896135 0.808005 0.162582
0.064778 0.819110 0.271083
0.086017 0.824755 0.270091
0.106798 0.830711 0.269056
0.128189 0.837735 0.267800
0.150936 0.846397 0.266432
0.178864 0.856444 0.263439
0.260243 0.867555 0.255858
0.374387 0.878893 0.246228
0.479158 0.876418 0.239821
0.557289 0.866415 0.233080
0.621754 0.856720 0.227676
0.681166 0.847546 0.220771
0.747617 0.849187 0.211957
0.807379 0.852613 0.202329
0.853975 0.854250 0.206658
0.898104 0.854953 0.200574
0.000000 0.043222 0.097227
0.145430 0.039872 0.154722
0.244148 0.029021 0.146428
0.285322 0.023468 0.129289
0.355415 0.015389 0.112732
0.425703 0.007694 0.098308
0.484697 0.003386 0.089187
0.537767 0.002297 0.082309
0.587244 0.002481 0.077325
0.633422 0.002648 0.072674
0.675312 0.002816 0.068491
0.713595 0.002979 0.064497
0.751549 0.003137 0.060657
0.790708 0.003302 0.056554
0.830429 0.003476 0.052056
0.868220 0.004330 0.048090
0.000000 0.075714 0.113743
0.014633 0.084548 0.127162
0.069653 0.096034 0.151543
0.165799 0.095666 0.156083
0.262222 0.092214 0.144984
0.348125 0.087275 0.130208
0.431401 0.078381 0.116956
0.514126 0.065532 0.102933
0.571574 0.055409 0.092528
0.621612 0.046600 0.083346
0.669628 0.039068 0.074665
0.716632 0.033257 0.066303
0.758658 0.031359 0.059023
0.795196 0.032983 0.052982
0.828116 0.036760 0.047500
0.857155 0.050160 0.045813
0.000000 0.119656 0.140397
0.013288 0.125448 0.148404
0.065065 0.134847 0.162185
0.145793 0.143286 0.175734
0.240982 0.142487 0.165325
0.325911 0.144662 0.154167
0.401720 0.144173 0.143715
0.477132 0.142167 0.133015
0.547145 0.138281 0.121384
0.598341 0.134801 0.110968
0.644068 0.130812 0.100074
0.689482 0.126196 0.087474
0.735190 0.120799 0.071982
0.772458 0.122372 0.061321
0.799977 0.129207 0.055631
0.829091 0.137306 0.049370
0.000000 0.168402 0.168546
0.012705 0.171089 0.169593
0.056240 0.182343 0.182861
0.141559 0.189706 0.194873
0.230124 0.194942 0.186259
0.316052 0.198114 0.175775
0.396849 0.198342 0.160263
0.472503 0.196214 0.143177
0.545389 0.194048 0.126008
0.605825 0.192026 0.109773
0.652078 0.190832 0.096422
0.696055 0.190246 0.082433
0.740094 0.190601 0.065725
0.775785 0.196007 0.056754
0.806004 0.203172 0.051412
0.838161 0.211106 0.046454
0.000000 0.219959 0.192837
0.013036 0.225132 0.193126
0.050844 0.232899 0.198861
0.143173 0.241239 0.209506
0.231815 0.245885 0.204442
0.316164 0.249516 0.190542
0.403337 0.252601 0.172553
0.477303 0.252987 0.152757
0.546655 0.253087 0.132641
0.610439 0.253612 0.111919
0.659796 0.254506 0.095048
0.701719 0.255488 0.080006
0.741948 0.257783 0.063919
0.777401 0.263931 0.056617
0.811701 0.270639 0.050402
0.844980 0.277042 0.045319
0.002302 0.280511 0.216331
0.028232 0.284548 0.215761
0.062950 0.289538 0.217370
0.137496 0.298260 0.225560
0.232734 0.307024 0.228223
0.314846 0.303134 0.215375
0.404180 0.308283 0.193922
0.483071 0.311015 0.172405
0.550062 0.312964 0.151129
0.612859 0.315242 0.129849
0.668069 0.317173 0.108256
0.710980 0.318502 0.090960
0.751792 0.320477 0.073656
0.790334 0.325123 0.060885
0.826835 0.332308 0.054062
0.861090 0.338389 0.048829
0.026216 0.339912 0.236252
0.057801 0.342629 0.235758
0.087920 0.348344 0.237114
0.132817 0.356665 0.240721
0.225298 0.369314 0.246655
0.313447 0.365372 0.236293
0.397366 0.366298 0.224132
0.483201 0.370694 0.196579
0.551711 0.374163 0.176113
0.613889 0.377782 0.154731
0.672711 0.381799 0.132717
0.719104 0.384102 0.113375
0.759667 0.386067 0.095746
0.800785 0.388740 0.076065
0.840141 0.394098 0.062387
0.875334 0.400153 0.055561
0.052900 0.399065 0.253533
0.080571 0.402216 0.253137
0.108269 0.408477 0.253786
0.137946 0.416656 0.254577
0.213198 0.429698 0.259588
0.305083 0.437472 0.251706
0.391513 0.424596 0.237484
0.474671 0.430120 0.227587
