example_ofxGpuLutCube/bin/data/ofxGpuLutCube/LUT/T29 (deep high contrast).cube
LUT_3D_SIZE 6
0.000000 0.000000 0.000000
0.144762 0.000000 0.000000
0.360474 0.000000 0.000000
0.579113 0.000000 0.000000
0.795940 0.000000 0.000000
0.997983 0.000000 0.000000
0.000000 0.143485 0.000000
0.144242 0.141854 0.000000
0.361402 0.138186 0.000000
0.586031 0.136109 0.000000
0.809795 0.135239 0.000000
1.000000 0.139587 0.000000
0.000000 0.352617 0.000000
0.141608 0.357544 0.000000
0.363076 0.358068 0.000000
0.589494 0.357688 0.000000
0.814575 0.358030 0.000000
1.000000 0.363368 0.000000
0.000000 0.577184 0.000000
0.140079 0.583272 0.000000
0.362267 0.584683 0.000000
0.589319 0.584899 0.000000
0.814789 0.585589 0.000000
1.000000 0.591048 0.000000
0.000000 0.804383 0.000000
0.140879 0.810762 0.000000
0.362988 0.812271 0.000000
0.589888 0.812306 0.000000
0.814940 0.812601 0.000000
1.000000 0.817457 0.000000
0.000000 1.000000 0.000000
0.156129 1.000000 0.000000
0.377385 1.000000 0.000000
0.603194 1.000000 0.000000
0.824556 1.000000 0.000000
1.000000 1.000000 0.000000
0.000000 0.000000 0.143028
0.145055 0.000000 0.143056
0.360543 0.000000 0.137785
0.578558 0.000000 0.129624
0.795867 0.000000 0.122375
0.999219 0.000000 0.122331
0.000000 0.143123 0.143538
0.144494 0.142118 0.142495
0.362993 0.139680 0.140065
0.587974 0.137991 0.138368
0.811917 0.137281 0.137660
1.000000 0.141754 0.142129
0.000000 0.354596 0.136621
0.143620 0.359689 0.141639
0.365313 0.360304 0.142255
0.591815 0.360021 0.142005
0.816918 0.360419 0.142442
1.000000 0.365858 0.147923
0.000000 0.579596 0.134487
0.142482 0.585717 0.140477
0.364805 0.587145 0.141832
0.591840 0.587389 0.142040
0.817197 0.588094 0.142719
1.000000 0.593571 0.148180
0.000000 0.806917 0.135087
0.143262 0.813245 0.141269
0.365426 0.814686 0.142662
0.592238 0.814673 0.142549
0.817187 0.814888 0.142714
1.000000 0.819693 0.147477
0.000000 1.000000 0.150613
0.158352 1.000000 0.156391
0.379765 1.000000 0.157160
0.604938 1.000000 0.155391
0.825073 1.000000 0.150700
1.000000 1.000000 0.149263
0.000000 0.000000 0.360569
0.143484 0.000000 0.360360
0.358618 0.000000 0.354455
0.576389 0.000000 0.345454
0.794309 0.000000 0.338362
0.999056 0.000000 0.339264
0.000000 0.141091 0.360484
0.143387 0.141006 0.360291
0.362883 0.139590 0.358733
0.588135 0.138157 0.357122
0.812256 0.137608 0.356501
1.000000 0.142185 0.360976
0.000000 0.354773 0.355629
0.143953 0.360040 0.360887
0.365769 0.360763 0.361611
0.592351 0.360569 0.361421
0.817499 0.361044 0.361896
1.000000 0.366481 0.367337
0.000000 0.580204 0.353616
0.143103 0.586368 0.359876
0.365477 0.587817 0.361323
0.592508 0.588072 0.361576
0.817852 0.588761 0.362265
1.000000 0.594220 0.367723
0.000000 0.807586 0.354103
0.143882 0.813916 0.360461
0.366036 0.815274 0.361883
0.592774 0.815189 0.361825
0.817583 0.815335 0.361990
1.000000 0.820032 0.366693
0.000000 1.000000 0.369153
0.158847 1.000000 0.375227
0.380159 1.000000 0.376007
0.604186 1.000000 0.373165
0.823564 1.000000 0.367863
1.000000 1.000000 0.366435
0.000000 0.000000 0.585646
0.141222 0.000000 0.585234
0.355249 0.000000 0.578355
0.573638 0.000000 0.569942
0.792430 0.000000 0.563681
0.998397 0.000000 0.565736
0.000000 0.138616 0.585141
0.142137 0.139737 0.586201
0.362215 0.139009 0.585321
0.587697 0.137746 0.583971
0.811966 0.137344 0.583487
1.000000 0.142025 0.588047
0.000000 0.354435 0.582549
0.143738 0.359800 0.587892
0.365659 0.360651 0.588742
0.592325 0.360536 0.588632
0.817521 0.361066 0.589160
1.000000 0.366545 0.594645
0.000000 0.580190 0.580877
0.143136 0.586401 0.587170
0.365548 0.587884 0.588630
0.592578 0.588141 0.588887
0.817897 0.588808 0.589563
1.000000 0.594228 0.594992
0.000000 0.807638 0.581422
0.143878 0.813916 0.587753
0.365998 0.815232 0.589107
0.592665 0.815081 0.588969
0.817379 0.815129 0.589031
1.000000 0.819625 0.593551
0.000000 1.000000 0.596315
0.158641 1.000000 0.602306
0.379531 1.000000 0.602678
0.602426 1.000000 0.598715
0.821241 1.000000 0.592826
1.000000 1.000000 0.591344
0.000000 0.000000 0.809968
0.138892 0.000000 0.809320
0.352185 0.000000 0.802007
0.571021 0.000000 0.794114
0.791267 0.000000 0.789348
0.997883 0.000000 0.792001
0.000000 0.136548 0.809461
0.141298 0.138943 0.811806
0.361663 0.138546 0.811327
0.587335 0.137441 0.810166
0.811765 0.137189 0.809853
1.000000 0.141961 0.814543
0.000000 0.354128 0.808769
0.143629 0.359622 0.814232
0.365628 0.360619 0.815223
0.592380 0.360584 0.815190
0.817637 0.361158 0.815767
1.000000 0.366655 0.821269
0.000000 0.580186 0.807431
0.143254 0.586498 0.813788
0.365656 0.587996 0.815254
0.592688 0.588251 0.815493
0.817981 0.588889 0.816128
1.000000 0.594220 0.821459
0.000000 0.807717 0.808102
0.143930 0.813965 0.814345
0.365998 0.815230 0.815629
0.592581 0.814994 0.815392
0.817199 0.814948 0.815348
1.000000 0.819060 0.819454
0.000000 1.000000 0.822926
0.158432 1.000000 0.828707
0.378638 1.000000 0.828302
0.600356 1.000000 0.823199
0.818917 1.000000 0.817029
1.000000 1.000000 0.815782
0.000000 0.000000 1.000000
0.137993 0.000000 0.999999
0.350823 0.000000 0.999932
0.570239 0.000000 0.999163
0.791785 0.000000 0.995962
0.998901 0.000000 0.999291
0.000000 0.136510 1.000000
0.142225 0.139888 1.000000
0.362761 0.139688 1.000000
0.588584 0.138778 1.000000
0.813153 0.138642 1.000000
1.000000 0.143495 1.000000
0.000000 0.355478 1.000000
0.145184 0.361099 1.000000
0.367234 0.362226 1.000000
0.594062 0.362257 1.000000
0.819385 0.362864 1.000000
1.000000 0.368369 1.000000
0.000000 0.581823 1.000000
0.144932 0.588169 1.000000
0.367366 0.589707 1.000000
0.594410 0.589969 1.000000
0.819611 0.590517 1.000000
1.000000 0.595833 1.000000
0.000000 0.809359 1.000000
0.145562 0.815585 1.000000
0.367558 0.816794 1.000000
0.594077 0.816492 1.000000
0.818590 0.816337 1.000000
1.000000 0.819721 1.000000
0.000000 1.000000 1.000000
0.159652 1.000000 1.000000
0.378701 1.000000 1.000000
0.599753 1.000000 1.000000
0.818198 1.000000 1.000000
1.000000 1.000000 1.000000
