example_ofxGpuLutCube/bin/data/ofxGpuLutCube/LUT/T29 (deep high contrast).cube
LUT_3D_SIZE 16
0.000000 0.000000 0.000000
0.037545 0.000000 0.000000
0.079114 0.000000 0.000000
0.144762 0.000000 0.000000
0.215292 0.000000 0.000000
0.287638 0.000000 0.000000
0.360474 0.000000 0.000000
0.433569 0.000000 0.000000
0.506685 0.000000 0.000000
0.579113 0.000000 0.000000
0.651627 0.000000 0.000000
0.723981 0.000000 0.000000
0.795940 0.000000 0.000000
0.866777 0.000000 0.000000
0.933095 0.000000 0.000000
0.997983 0.000000 0.000000
0.000000 0.037545 0.000000
0.037545 0.037545 0.000000
0.079116 0.037545 0.000000
0.144570 0.037545 0.000000
0.214751 0.037545 0.000000
0.286609 0.037545 0.000000
0.358431 0.037545 0.000000
0.430971 0.037545 0.000000
0.503956 0.037545 0.000000
0.576927 0.037545 0.000000
0.649986 0.037545 0.000000
0.723087 0.037545 0.000000
0.796084 0.037545 0.000000
0.868307 0.037545 0.000000
0.935968 0.037545 0.000000
0.999887 0.037545 0.000000
0.000000 0.080332 0.000000
0.037545 0.079716 0.000000
0.079618 0.079204 0.000000
0.144203 0.078406 0.000000
0.213993 0.077789 0.000000
0.285789 0.077206 0.000000
0.358296 0.076666 0.000000
0.431403 0.076175 0.000000
0.505137 0.075855 0.000000
0.579393 0.075621 0.000000
0.653924 0.075455 0.000000
0.728298 0.075358 0.000000
0.802295 0.075310 0.000000
0.874753 0.075383 0.000000
0.942486 0.075818 0.000000
0.999953 0.076349 0.000000
0.000000 0.143485 0.000000
0.037545 0.142622 0.000000
0.078988 0.142128 0.000000
0.144242 0.141854 0.000000
0.214759 0.140592 0.000000
0.287587 0.139258 0.000000
0.361402 0.138186 0.000000
0.436000 0.137385 0.000000
0.510946 0.136683 0.000000
0.586031 0.136109 0.000000
0.660934 0.135663 0.000000
0.735583 0.135358 0.000000
0.809795 0.135239 0.000000
0.882257 0.135666 0.000000
0.949979 0.137503 0.000000
1.000000 0.139587 0.000000
0.000000 0.209131 0.000000
0.037545 0.209016 0.000000
0.077935 0.209609 0.000000
0.142729 0.210663 0.000000
0.214562 0.210688 0.000000
0.288427 0.210343 0.000000
0.362984 0.209936 0.000000
0.438036 0.209529 0.000000
0.513304 0.209090 0.000000
0.588601 0.208735 0.000000
0.663747 0.208447 0.000000
0.738630 0.208331 0.000000
0.813007 0.208364 0.000000
0.885488 0.208962 0.000000
0.953242 0.210880 0.000000
1.000000 0.213074 0.000000
0.000000 0.279260 0.000000
0.037545 0.280379 0.000000
0.077706 0.281898 0.000000
0.142150 0.283549 0.000000
0.214339 0.283960 0.000000
0.288451 0.283847 0.000000
0.363194 0.283635 0.000000
0.438361 0.283359 0.000000
0.513788 0.283080 0.000000
0.589181 0.282854 0.000000
0.664486 0.282706 0.000000
0.739483 0.282687 0.000000
0.813963 0.282849 0.000000
0.886501 0.283580 0.000000
0.954342 0.285602 0.000000
1.000000 0.287928 0.000000
0.000000 0.352617 0.000000
0.037545 0.354013 0.000000
0.077539 0.355710 0.000000
0.141608 0.357544 0.000000
0.213878 0.358079 0.000000
0.288161 0.358128 0.000000
0.363076 0.358068 0.000000
0.438407 0.357937 0.000000
0.513969 0.357785 0.000000
0.589494 0.357688 0.000000
0.664907 0.357650 0.000000
0.740001 0.357736 0.000000
0.814575 0.358030 0.000000
0.887145 0.358851 0.000000
0.955061 0.361021 0.000000
1.000000 0.363368 0.000000
0.000000 0.426837 0.000000
0.037545 0.428398 0.000000
0.077353 0.430238 0.000000
0.141005 0.432287 0.000000
0.213450 0.433013 0.000000
0.287838 0.433208 0.000000
0.362874 0.433267 0.000000
0.438312 0.433241 0.000000
0.513971 0.433184 0.000000
0.589576 0.433173 0.000000
0.665074 0.433219 0.000000
0.740244 0.433374 0.000000
0.814862 0.433700 0.000000
0.887474 0.434581 0.000000
0.955365 0.436746 0.000000
1.000000 0.439147 0.000000
0.000000 0.501820 0.000000
0.037545 0.503527 0.000000
0.077218 0.505487 0.000000
0.140498 0.507630 0.000000
0.212977 0.508413 0.000000
0.287425 0.508698 0.000000
0.362532 0.508837 0.000000
0.438049 0.508882 0.000000
0.513775 0.508900 0.000000
0.589440 0.508949 0.000000
0.664989 0.509041 0.000000
0.740198 0.509240 0.000000
0.814850 0.509594 0.000000
0.887475 0.510506 0.000000
0.955365 0.512694 0.000000
1.000000 0.515104 0.000000
0.000000 0.577184 0.000000
0.037545 0.578984 0.000000
0.077101 0.581043 0.000000
0.140079 0.583272 0.000000
0.212587 0.584143 0.000000
0.287100 0.584495 0.000000
0.362267 0.584683 0.000000
0.437840 0.584774 0.000000
0.513619 0.584822 0.000000
0.589319 0.584899 0.000000
0.664896 0.585018 0.000000
0.740123 0.585221 0.000000
0.814789 0.585589 0.000000
0.887403 0.586484 0.000000
0.955284 0.588672 0.000000
1.000000 0.591048 0.000000
0.000000 0.652904 0.000000
0.037545 0.654771 0.000000
0.077092 0.656884 0.000000
0.140074 0.659156 0.000000
0.212550 0.660094 0.000000
0.287137 0.660471 0.000000
0.362283 0.660698 0.000000
0.437871 0.660811 0.000000
0.513652 0.660866 0.000000
0.589374 0.660942 0.000000
0.664915 0.661056 0.000000
0.740127 0.661246 0.000000
0.814758 0.661584 0.000000
0.887349 0.662453 0.000000
0.955183 0.664590 0.000000
1.000000 0.666932 0.000000
0.000000 0.728663 0.000000
0.037545 0.730592 0.000000
0.077157 0.732732 0.000000
0.140304 0.735047 0.000000
0.212755 0.736008 0.000000
0.287339 0.736393 0.000000
0.362472 0.736622 0.000000
0.438026 0.736734 0.000000
0.513786 0.736773 0.000000
0.589516 0.736798 0.000000
0.664992 0.736892 0.000000
0.740139 0.737020 0.000000
0.814735 0.737317 0.000000
0.887253 0.738092 0.000000
0.955038 0.740171 0.000000
1.000000 0.742411 0.000000
0.000000 0.804383 0.000000
0.037545 0.806315 0.000000
0.077315 0.808466 0.000000
0.140879 0.810762 0.000000
0.213294 0.811716 0.000000
0.287830 0.812083 0.000000
0.362988 0.812271 0.000000
0.438451 0.812352 0.000000
0.514177 0.812343 0.000000
0.589888 0.812306 0.000000
0.665321 0.812326 0.000000
0.740415 0.812398 0.000000
0.814940 0.812601 0.000000
0.887414 0.813314 0.000000
0.955110 0.815287 0.000000
1.000000 0.817457 0.000000
0.000000 0.879594 0.000000
0.037545 0.881482 0.000000
0.077848 0.883576 0.000000
0.142832 0.885834 0.000000
0.215168 0.886748 0.000000
0.289702 0.887058 0.000000
0.364793 0.887165 0.000000
0.440220 0.887188 0.000000
0.515869 0.887085 0.000000
0.591512 0.886975 0.000000
0.666869 0.886893 0.000000
0.741868 0.886876 0.000000
0.816329 0.886961 0.000000
0.888715 0.887559 0.000000
0.956321 0.889396 0.000000
1.000000 0.891288 0.000000
0.000000 0.952914 0.000000
0.037545 0.954751 0.000000
0.081626 0.956782 0.000000
0.149017 0.958967 0.000000
0.221245 0.959829 0.000000
0.295736 0.960037 0.000000
0.370794 0.960066 0.000000
0.446168 0.959966 0.000000
0.521744 0.959775 0.000000
0.597296 0.959544 0.000000
0.672564 0.959348 0.000000
0.747447 0.959178 0.000000
0.821590 0.958914 0.000000
0.893487 0.958951 0.000000
0.960097 0.959766 0.000000
1.000000 0.960534 0.000000
0.000000 1.000000 0.000000
0.037545 1.000000 0.000000
0.088815 1.000000 0.000000
0.156129 1.000000 0.000000
0.228111 1.000000 0.000000
0.302525 1.000000 0.000000
0.377385 1.000000 0.000000
0.452705 1.000000 0.000000
0.528047 1.000000 0.000000
0.603194 1.000000 0.000000
0.677860 1.000000 0.000000
0.751587 1.000000 0.000000
0.824556 1.000000 0.000000
0.895272 1.000000 0.000000
0.960799 1.000000 0.000000
1.000000 1.000000 0.000000
0.000000 0.000000 0.037545
0.037545 0.000000 0.037545
0.079125 0.000000 0.037545
0.144763 0.000000 0.037545
0.215271 0.000000 0.037545
0.287591 0.000000 0.037545
0.360389 0.000000 0.037545
0.433439 0.000000 0.037545
0.506427 0.000000 0.037545
0.578730 0.000000 0.037545
0.651349 0.000000 0.037545
0.723814 0.000000 0.037545
0.795799 0.000000 0.037545
0.866693 0.000000 0.037545
0.933075 0.000000 0.037545
0.998195 0.000000 0.037545
0.000000 0.037545 0.037545
0.037545 0.037545 0.037545
0.079069 0.037545 0.037545
0.144481 0.037545 0.037545
0.214566 0.037545 0.037545
0.286298 0.037545 0.037545
0.358116 0.037545 0.037545
0.430782 0.037545 0.037545
0.503731 0.037545 0.037545
0.576747 0.037545 0.037545
0.649930 0.037545 0.037545
0.723135 0.037545 0.037545
0.796436 0.037545 0.037545
0.868761 0.037545 0.037545
0.936454 0.037545 0.037545
0.999892 0.037545 0.037545
0.000000 0.080237 0.037545
0.037545 0.079531 0.037545
0.079340 0.078916 0.037545
0.143981 0.078260 0.037545
0.213747 0.077732 0.037545
0.285580 0.077177 0.037545
0.358146 0.076657 0.037545
0.431472 0.076232 0.037545
0.505333 0.075969 0.037545
0.579753 0.075755 0.037545
0.654338 0.075601 0.037545
0.728761 0.075496 0.037545
0.802773 0.075441 0.037545
0.875243 0.075519 0.037545
0.942988 0.075959 0.037545
0.999958 0.076494 0.037545
0.000000 0.143220 0.037545
0.037545 0.142395 0.037545
0.078883 0.141992 0.037545
0.144217 0.141827 0.037545
0.214865 0.140698 0.037545
0.287788 0.139454 0.037545
0.361760 0.138539 0.037545
0.436405 0.137788 0.037545
0.511414 0.137139 0.037545
0.586532 0.136597 0.037545
0.661506 0.136221 0.037545
0.736167 0.135934 0.037545
0.810434 0.135866 0.037545
0.882901 0.136310 0.037545
0.950584 0.138113 0.037545
1.000000 0.140207 0.037545
0.000000 0.209087 0.037545
0.037545 0.209131 0.037545
0.078012 0.209844 0.037545
0.143108 0.211042 0.037545
0.215025 0.211145 0.037545
0.288973 0.210883 0.037545
0.363563 0.210511 0.037545
0.438609 0.210100 0.037545
0.513886 0.209668 0.037545
0.589162 0.209311 0.037545
0.664329 0.209036 0.037545
0.739206 0.208907 0.037545
0.813600 0.208950 0.037545
0.886078 0.209566 0.037545
0.953827 0.211499 0.037545
1.000000 0.213708 0.037545
0.000000 0.279761 0.037545
0.037545 0.280918 0.037545
0.077847 0.282439 0.037545
0.142693 0.284095 0.037545
0.214864 0.284472 0.037545
0.288994 0.284374 0.037545
0.363758 0.284180 0.037545
0.438943 0.283924 0.037545
0.514370 0.283665 0.037545
0.589809 0.283482 0.037545
0.665126 0.283346 0.037545
0.740134 0.283337 0.037545
0.814616 0.283514 0.037545
0.887170 0.284273 0.037545
0.955004 0.286307 0.037545
1.000000 0.288661 0.037545
0.000000 0.353121 0.037545
0.037545 0.354538 0.037545
0.077686 0.356278 0.037545
0.142170 0.358126 0.037545
0.214482 0.358688 0.037545
0.288792 0.358760 0.037545
0.363754 0.358746 0.037545
0.439105 0.358637 0.037545
0.514651 0.358496 0.037545
0.590206 0.358400 0.037545
0.665627 0.358375 0.037545
0.740735 0.358468 0.037545
0.815299 0.358737 0.037545
0.887864 0.359570 0.037545
0.955724 0.361707 0.037545
1.000000 0.364074 0.037545
0.000000 0.427500 0.037545
0.037545 0.429076 0.037545
0.077531 0.430931 0.037545
0.141659 0.432965 0.037545
0.214062 0.433651 0.037545
0.288475 0.433845 0.037545
0.363509 0.433903 0.037545
0.438954 0.433886 0.037545
0.514595 0.433843 0.037545
0.590240 0.433832 0.037545
0.665739 0.433886 0.037545
0.740909 0.434046 0.037545
0.815534 0.434379 0.037545
0.888131 0.435269 0.037545
0.956011 0.437447 0.037545
1.000000 0.439845 0.037545
0.000000 0.502444 0.037545
0.037545 0.504153 0.037545
0.077379 0.506127 0.037545
0.141117 0.508271 0.037545
0.213615 0.509062 0.037545
0.288081 0.509355 0.037545
0.363192 0.509497 0.037545
0.438714 0.509550 0.037545
0.514441 0.509574 0.037545
0.590123 0.509627 0.037545
0.665666 0.509722 0.037545
0.740893 0.509942 0.037545
0.815530 0.510292 0.037545
0.888168 0.511236 0.037545
0.956007 0.513400 0.037545
1.000000 0.515858 0.037545
0.000000 0.577850 0.037545
0.037545 0.579727 0.037545
0.077290 0.581777 0.037545
0.140801 0.584025 0.037545
0.213345 0.584894 0.037545
0.287875 0.585243 0.037545
0.363056 0.585436 0.037545
0.438634 0.585532 0.037545
0.514413 0.585581 0.037545
0.590116 0.585660 0.037545
0.665684 0.585777 0.037545
0.740907 0.585985 0.037545
0.815553 0.586344 0.037545
0.888151 0.587254 0.037545
0.955995 0.589435 0.037545
1.000000 0.591824 0.037545
0.000000 0.653613 0.037545
0.037545 0.655487 0.037545
0.077273 0.657599 0.037545
0.140752 0.659882 0.037545
0.213267 0.660815 0.037545
0.287843 0.661193 0.037545
0.363017 0.661416 0.037545
0.438599 0.661529 0.037545
0.514379 0.661588 0.037545
0.590077 0.661665 0.037545
0.665634 0.661771 0.037545
0.740837 0.661962 0.037545
0.815461 0.662296 0.037545
0.888024 0.663164 0.037545
0.955822 0.665299 0.037545
1.000000 0.667635 0.037545
0.000000 0.729366 0.037545
0.037545 0.731280 0.037545
0.077330 0.733435 0.037545
0.140968 0.735737 0.037545
0.213429 0.736700 0.037545
0.288027 0.737077 0.037545
0.363145 0.737310 0.037545
0.438708 0.737409 0.037545
0.514468 0.737449 0.037545
0.590164 0.737486 0.037545
0.665658 0.737559 0.037545
0.740821 0.737702 0.037545
0.815393 0.737973 0.037545
0.887923 0.738779 0.037545
0.955663 0.740833 0.037545
1.000000 0.743093 0.037545
0.000000 0.805097 0.037545
0.037545 0.807046 0.037545
0.077504 0.809181 0.037545
0.141586 0.811484 0.037545
0.214003 0.812428 0.037545
0.288543 0.812791 0.037545
0.363681 0.812980 0.037545
0.439161 0.813032 0.037545
0.514908 0.813030 0.037545
0.590579 0.812965 0.037545
0.665994 0.812997 0.037545
0.741058 0.813039 0.037545
0.815568 0.813245 0.037545
0.888007 0.813942 0.037545
0.955667 0.815907 0.037545
1.000000 0.818067 0.037545
0.000000 0.880301 0.037545
0.037545 0.882180 0.037545
0.078028 0.884267 0.037545
0.143529 0.886526 0.037545
0.215874 0.887419 0.037545
0.290391 0.887723 0.037545
0.365502 0.887832 0.037545
0.440908 0.887833 0.037545
0.516562 0.887739 0.037545
0.592193 0.887611 0.037545
0.667533 0.887528 0.037545
0.742526 0.887493 0.037545
0.816962 0.887574 0.037545
0.889326 0.888160 0.037545
0.956878 0.889965 0.037545
1.000000 0.891771 0.037545
0.000000 0.953664 0.037545
0.037545 0.955495 0.037545
0.082362 0.957519 0.037545
0.149758 0.959689 0.037545
0.222018 0.960298 0.037545
0.296524 0.960332 0.037545
0.371567 0.960339 0.037545
0.446876 0.960333 0.037545
0.522470 0.960309 0.037545
0.597967 0.960131 0.037545
0.673218 0.959929 0.037545
0.748029 0.959696 0.037545
0.822073 0.959337 0.037545
0.893793 0.959243 0.037545
0.960269 0.959938 0.037545
1.000000 0.960577 0.037545
0.000000 1.000000 0.037545
0.037545 1.000000 0.037545
0.089461 1.000000 0.037545
0.156758 1.000000 0.037697
0.228826 1.000000 0.037798
0.303192 1.000000 0.037809
0.378115 1.000000 0.037802
0.453381 1.000000 0.037771
0.528689 1.000000 0.037712
0.603751 1.000000 0.037613
0.678204 1.000000 0.037545
0.751832 1.000000 0.037545
0.824683 1.000000 0.037545
0.895242 1.000000 0.037545
0.960796 1.000000 0.037545
1.000000 1.000000 0.037545
0.000000 0.000000 0.078982
0.037545 0.000000 0.078853
0.079282 0.000000 0.078942
0.144909 0.000000 0.079049
0.215420 0.000000 0.078116
0.287706 0.000000 0.077629
0.360467 0.000000 0.077081
0.433455 0.000000 0.076475
0.506197 0.000000 0.075736
0.578619 0.000000 0.075089
0.651329 0.000000 0.075089
0.723741 0.000000 0.075089
0.795783 0.000000 0.075089
0.866772 0.000000 0.075089
0.933247 0.000000 0.075089
0.998690 0.000000 0.075089
0.000000 0.037545 0.079175
0.037545 0.037545 0.078904
0.079161 0.037545 0.078812
0.144528 0.037545 0.078687
0.214539 0.037545 0.077912
0.286015 0.037545 0.077231
0.358039 0.037545 0.076554
0.430715 0.037545 0.075869
0.503681 0.037545 0.075196
0.576761 0.037545 0.075089
0.650153 0.037545 0.075089
0.723482 0.037545 0.075089
0.796943 0.037545 0.075089
0.869307 0.037545 0.075089
0.937034 0.037545 0.075089
0.999898 0.037545 0.075089
0.000000 0.080260 0.080328
0.037545 0.079509 0.079578
0.079089 0.078666 0.078736
0.143878 0.078193 0.078216
0.213688 0.077721 0.077683
0.285621 0.077208 0.077095
0.358290 0.076716 0.076530
0.431692 0.076355 0.076055
0.505702 0.076104 0.075661
0.580290 0.075905 0.075400
0.654920 0.075763 0.075300
0.729403 0.075660 0.075276
0.803477 0.075609 0.075264
0.875956 0.075698 0.075287
0.943704 0.076145 0.075516
0.999965 0.076704 0.076041
0.000000 0.143139 0.079651
0.037545 0.142404 0.078919
0.078889 0.142040 0.078567
0.144322 0.141943 0.078464
0.215141 0.140950 0.078060
0.288219 0.139843 0.077785
0.362347 0.139072 0.077587
0.437056 0.138395 0.077406
0.512141 0.137827 0.077252
0.587277 0.137315 0.077136
0.662234 0.136906 0.077033
0.736919 0.136640 0.076971
0.811169 0.136562 0.076959
0.883609 0.137025 0.077097
0.951286 0.138837 0.077592
1.000000 0.140943 0.078507
0.000000 0.209246 0.077484
0.037545 0.209470 0.077566
0.078155 0.210350 0.077805
0.143722 0.211684 0.078162
0.215708 0.211804 0.078217
0.289667 0.211539 0.078161
0.364263 0.211182 0.078080
0.439293 0.210776 0.077980
0.514574 0.210360 0.077883
0.589852 0.210016 0.077804
0.665060 0.209774 0.077748
0.739956 0.209652 0.077727
0.814364 0.209731 0.077757
0.886829 0.210366 0.077938
0.954603 0.212319 0.079014
1.000000 0.214535 0.081219
0.000000 0.280356 0.076909
0.037545 0.281541 0.077236
0.078001 0.283097 0.077645
0.143319 0.284776 0.078086
0.215554 0.285161 0.078190
0.289733 0.285094 0.078175
0.364526 0.284907 0.078133
0.439774 0.284708 0.078076
0.515164 0.284472 0.078021
0.590652 0.284289 0.077979
0.665958 0.284168 0.077952
0.740963 0.284170 0.077959
0.815447 0.284359 0.078017
0.887960 0.285121 0.078291
0.955776 0.287175 0.080211
1.000000 0.289495 0.082561
0.000000 0.353868 0.076639
0.037545 0.355309 0.077023
0.077877 0.357069 0.077480
0.142909 0.358929 0.077965
0.215271 0.359485 0.078115
0.289584 0.359558 0.078135
0.364542 0.359534 0.078147
0.439888 0.359417 0.078120
0.515396 0.359307 0.078099
0.591011 0.359205 0.078077
0.666440 0.359191 0.078079
0.741533 0.359294 0.078113
0.816108 0.359565 0.078193
0.888659 0.360416 0.078780
0.956493 0.362554 0.080962
1.000000 0.364935 0.083366
0.000000 0.428238 0.076423
0.037545 0.429835 0.076846
0.077719 0.431727 0.077330
0.142389 0.433744 0.077849
0.214830 0.434441 0.078027
0.289265 0.434639 0.078077
0.364310 0.434704 0.078094
0.439761 0.434696 0.078093
0.515362 0.434678 0.078090
0.591062 0.434662 0.078087
0.666574 0.434724 0.078105
0.741712 0.434897 0.078156
0.816364 0.435255 0.078249
0.888939 0.436144 0.078944
0.956824 0.438372 0.081184
1.000000 0.440743 0.083585
0.000000 0.503225 0.076214
0.037545 0.504945 0.076664
0.077587 0.506991 0.077169
0.141932 0.509136 0.077723
0.214464 0.509961 0.077927
0.288973 0.510255 0.077996
0.364097 0.510403 0.078031
0.439623 0.510464 0.078045
0.515295 0.510508 0.078056
0.591034 0.510545 0.078063
0.666585 0.510649 0.078091
0.741766 0.510867 0.078152
0.816404 0.511226 0.078245
0.889008 0.512148 0.079007
0.956843 0.514347 0.081212
1.000000 0.516759 0.083620
0.000000 0.578743 0.076088
0.037545 0.580569 0.076555
0.077499 0.582644 0.077088
0.141631 0.584871 0.077671
0.214223 0.585731 0.077897
0.288773 0.586085 0.077983
0.363944 0.586285 0.078028
0.439515 0.586392 0.078051
0.515255 0.586460 0.078064
0.590991 0.586532 0.078078
0.666556 0.586652 0.078106
0.741745 0.586869 0.078162
0.816381 0.587230 0.078257
0.888967 0.588142 0.078966
0.956774 0.590326 0.081143
1.000000 0.592707 0.083518
0.000000 0.654442 0.076034
0.037545 0.656321 0.076531
0.077477 0.658445 0.077070
0.141535 0.660731 0.077659
0.214120 0.661644 0.077891
0.288672 0.662030 0.077984
0.363864 0.662254 0.078032
0.439446 0.662367 0.078055
0.515218 0.662428 0.078065
0.590917 0.662503 0.078077
0.666475 0.662614 0.078099
0.741658 0.662806 0.078146
0.816264 0.663139 0.078230
0.888804 0.664013 0.078809
0.956565 0.666155 0.080936
1.000000 0.668479 0.083247
0.000000 0.730251 0.076101
0.037545 0.732163 0.076586
0.077548 0.734329 0.077127
0.141794 0.736629 0.077716
0.214301 0.737583 0.077951
0.288874 0.737966 0.078041
0.364026 0.738186 0.078086
0.439596 0.738285 0.078104
0.515350 0.738313 0.078107
0.591026 0.738353 0.078113
0.666542 0.738407 0.078124
0.741709 0.738549 0.078157
0.816252 0.738805 0.078224
0.888751 0.739626 0.078774
0.956417 0.741664 0.080781
1.000000 0.743926 0.083026
0.000000 0.805982 0.076278
0.037545 0.807927 0.076770
0.077725 0.810057 0.077310
0.142408 0.812353 0.077885
0.214852 0.813299 0.078125
0.289408 0.813629 0.078203
0.364536 0.813828 0.078262
0.440040 0.813844 0.078249
0.515766 0.813845 0.078238
0.591367 0.813797 0.078218
0.666806 0.813797 0.078208
0.741880 0.813853 0.078217
0.816357 0.814037 0.078260
0.888761 0.814754 0.078885
0.956371 0.816719 0.080772
1.000000 0.818875 0.082860
0.000000 0.881170 0.076805
0.037545 0.883055 0.077312
0.078259 0.885146 0.077855
0.144400 0.887393 0.078956
0.216793 0.888281 0.079675
0.291299 0.888572 0.079955
0.366395 0.888682 0.080052
0.441812 0.888666 0.080028
0.517463 0.888560 0.079915
0.593071 0.888427 0.079777
0.668397 0.888335 0.079686
0.743394 0.888282 0.079633
0.817788 0.888346 0.079698
0.890096 0.888913 0.080260
0.957544 0.890667 0.082012
1.000000 0.892375 0.083684
0.000000 0.954470 0.079165
0.037545 0.956299 0.080839
0.083185 0.958316 0.082840
0.150595 0.960209 0.085055
0.222919 0.960401 0.085915
0.297396 0.960433 0.086144
0.372429 0.960439 0.086162
0.447759 0.960431 0.086073
0.523305 0.960407 0.085851
0.598843 0.960381 0.085620
0.674052 0.960359 0.085393
0.748797 0.960291 0.085101
0.822750 0.959942 0.084701
0.894255 0.959659 0.084430
0.960580 0.960273 0.085055
1.000000 0.960658 0.085573
0.000000 1.000000 0.086132
0.037545 1.000000 0.087908
0.090243 1.000000 0.089887
0.157532 1.000000 0.092004
0.229664 1.000000 0.092773
0.304030 1.000000 0.092882
0.378938 1.000000 0.092790
0.454139 1.000000 0.092563
0.529388 1.000000 0.092039
0.604379 1.000000 0.091245
0.678619 1.000000 0.090031
0.752162 1.000000 0.088539
0.824885 1.000000 0.086871
0.895391 1.000000 0.085581
0.960803 1.000000 0.085416
1.000000 1.000000 0.085475
0.000000 0.000000 0.143028
0.037545 0.000000 0.142886
0.079442 0.000000 0.142960
0.145055 0.000000 0.143056
0.215555 0.000000 0.141763
0.287824 0.000000 0.139878
0.360543 0.000000 0.137785
0.433457 0.000000 0.135417
0.505835 0.000000 0.132371
0.578558 0.000000 0.129624
0.651283 0.000000 0.127030
0.723695 0.000000 0.124545
0.795867 0.000000 0.122375
0.866970 0.000000 0.120896
0.933623 0.000000 0.121093
0.999219 0.000000 0.122331
0.000000 0.037545 0.143189
0.037545 0.037545 0.142876
0.079250 0.037545 0.142762
0.144552 0.037545 0.142549
0.214507 0.037545 0.140842
0.285796 0.037545 0.138122
0.357960 0.037545 0.135498
0.430699 0.037545 0.132966
0.503722 0.037545 0.130419
0.576919 0.037545 0.128117
0.650385 0.037545 0.126182
0.723877 0.037545 0.124718
0.797491 0.037545 0.123956
0.869915 0.037545 0.123809
0.937695 0.037545 0.125184
0.999904 0.037545 0.127040
0.000000 0.080193 0.144297
0.037545 0.079444 0.143399
0.078939 0.078509 0.142440
0.143818 0.078183 0.141818
0.213706 0.077739 0.140017
0.285664 0.077249 0.137835
0.358444 0.076792 0.135738
0.431955 0.076487 0.133947
0.506176 0.076249 0.132534
0.580909 0.076068 0.131624
0.655607 0.075939 0.130932
0.730128 0.075857 0.130497
0.804222 0.075810 0.130272
0.876687 0.075903 0.130525
0.944444 0.076364 0.132147
0.999972 0.076910 0.134158
0.000000 0.143123 0.143538
0.037545 0.142392 0.142762
0.078914 0.142071 0.142429
0.144494 0.142118 0.142495
0.215481 0.141277 0.141671
0.288760 0.140362 0.140757
0.362993 0.139680 0.140065
0.437761 0.139063 0.139429
0.512841 0.138496 0.138864
0.587974 0.137991 0.138368
0.662953 0.137600 0.137981
0.737655 0.137349 0.137727
0.811917 0.137281 0.137660
0.884385 0.137807 0.138183
0.952062 0.139635 0.140007
1.000000 0.141754 0.142129
0.000000 0.209533 0.139496
0.037545 0.209885 0.139894
0.078302 0.210920 0.140924
0.144307 0.212287 0.142294
0.216341 0.212436 0.142479
0.290330 0.212182 0.142265
0.364965 0.211860 0.141954
0.440018 0.211479 0.141576
0.515303 0.211111 0.141219
0.590625 0.210780 0.140912
0.665865 0.210577 0.140741
0.740776 0.210471 0.140674
0.815175 0.210560 0.140801
0.887628 0.211210 0.141489
0.955405 0.213169 0.143479
1.000000 0.215396 0.145725
0.000000 0.280948 0.137503
0.037545 0.282200 0.138774
0.078168 0.283780 0.140318
0.144036 0.285517 0.142031
0.216310 0.285916 0.142439
0.290496 0.285859 0.142403
0.365305 0.285683 0.142254
0.440556 0.285473 0.142063
0.515943 0.285253 0.141861
0.591466 0.285065 0.141683
0.666787 0.284959 0.141577
0.741788 0.284987 0.141605
0.816273 0.285188 0.141807
0.888762 0.285965 0.142600
0.956573 0.288049 0.144706
1.000000 0.290359 0.147040
0.000000 0.354596 0.136621
0.037545 0.356045 0.138069
0.078056 0.357818 0.139802
0.143620 0.359689 0.141639
0.216025 0.360246 0.142186
0.290360 0.360334 0.142277
0.365313 0.360304 0.142255
0.440683 0.360212 0.142175
0.516194 0.360114 0.142087
0.591815 0.360021 0.142005
0.667262 0.360012 0.142011
0.742341 0.360141 0.142150
0.816918 0.360419 0.142442
0.889493 0.361302 0.143338
0.957300 0.363443 0.145493
1.000000 0.365858 0.147923
0.000000 0.428999 0.135708
0.037545 0.430607 0.137302
0.077922 0.432524 0.139163
0.143154 0.434566 0.141162
0.215659 0.435277 0.141853
0.290122 0.435501 0.142069
0.365182 0.435577 0.142142
0.440642 0.435577 0.142141
