example_ofxGpuLutCube/bin/data/ofxGpuLutCube/LUT/T3 (greenish contrasty).cube
LUT_3D_SIZE 16
0.000000 0.000000 0.000000
0.076572 0.000000 0.000000
0.146668 0.000000 0.000000
0.230207 0.000000 0.000000
0.327142 0.000000 0.000000
0.433317 0.000000 0.000000
0.555085 0.000000 0.000000
0.684208 0.000000 0.000000
0.762520 0.000000 0.000000
0.796721 0.000000 0.000000
0.830601 0.000000 0.000000
0.864481 0.000000 0.000000
0.898361 0.000000 0.000000
0.932240 0.000000 0.000000
0.966120 0.000000 0.000000
1.000000 0.000000 0.000000
0.028275 0.095080 0.018305
0.066638 0.081881 0.001343
0.140334 0.078586 0.000000
0.224630 0.070613 0.000000
0.321941 0.059144 0.000000
0.428722 0.045422 0.000000
0.550601 0.037197 0.000000
0.679647 0.036179 0.000000
0.760807 0.035205 0.000000
0.796721 0.034230 0.000000
0.830601 0.033880 0.000000
0.864481 0.033880 0.000000
0.898361 0.033880 0.000000
0.932240 0.033880 0.000000
0.966120 0.033880 0.000000
1.000000 0.033880 0.000000
0.051797 0.205019 0.033118
0.071276 0.183918 0.022696
0.127579 0.165936 0.002461
0.216040 0.166442 0.000000
0.314968 0.155714 0.000000
0.421046 0.142003 0.000000
0.543690 0.127486 0.000000
0.672077 0.111783 0.000000
0.756954 0.096656 0.000000
0.796721 0.081677 0.000000
0.830601 0.075259 0.000000
0.864481 0.073781 0.000000
0.898361 0.072725 0.000000
0.932240 0.072058 0.000000
0.966120 0.071591 0.000000
1.000000 0.071355 0.000000
0.081030 0.326571 0.045925
0.085930 0.305807 0.042359
0.128036 0.283500 0.022073
0.194348 0.265077 0.002778
0.301818 0.265424 0.000000
0.413238 0.256875 0.000000
0.535653 0.240125 0.000000
0.664030 0.221689 0.000000
0.753427 0.203381 0.000000
0.796721 0.186316 0.000000
0.830601 0.172118 0.000000
0.864481 0.160744 0.000000
0.898361 0.152295 0.000000
0.932240 0.147003 0.000000
0.966120 0.143384 0.000000
1.000000 0.141570 0.000000
0.113148 0.449722 0.060430
0.107633 0.427240 0.060913
0.137895 0.403043 0.041337
0.193483 0.376303 0.018767
0.276558 0.356610 0.001885
0.398174 0.359503 0.000000
0.528036 0.351293 0.000000
0.656382 0.333041 0.000000
0.749578 0.315475 0.000000
0.796721 0.298953 0.000000
0.830601 0.284022 0.000000
0.864481 0.271489 0.000000
0.898361 0.261141 0.000000
0.932240 0.254565 0.000000
0.966120 0.250591 0.000000
1.000000 0.248645 0.000000
0.149033 0.586530 0.080377
0.142494 0.563925 0.086659
0.157298 0.541400 0.063896
0.203102 0.512209 0.039813
0.269502 0.477861 0.012814
0.366454 0.457749 0.000208
0.509420 0.463917 0.000000
0.648680 0.457166 0.000000
0.745965 0.439199 0.000000
0.796721 0.421533 0.000000
0.830601 0.406607 0.000000
0.864481 0.393693 0.000000
0.898361 0.383848 0.000000
0.932240 0.376742 0.000000
0.966120 0.372725 0.000000
1.000000 0.370955 0.000000
0.187879 0.687321 0.103190
0.182577 0.677690 0.116157
0.184933 0.667331 0.094696
0.219271 0.649421 0.067170
0.276335 0.619769 0.034677
0.351527 0.586098 0.007115
0.467131 0.567913 0.000000
0.624033 0.579127 0.000000
0.741764 0.576898 0.000000
0.796721 0.559437 0.000000
0.830601 0.543446 0.000000
0.864481 0.529290 0.000000
0.898361 0.519144 0.000000
0.932240 0.511164 0.000000
0.966120 0.506742 0.000000
1.000000 0.505083 0.000000
0.225030 0.728962 0.117879
0.220296 0.728962 0.138254
0.216140 0.728962 0.122870
0.240374 0.727844 0.098735
0.288615 0.720213 0.065275
0.355529 0.705460 0.028986
0.444709 0.681937 0.004682
0.573195 0.674819 0.000000
0.718652 0.691273 0.000000
0.796290 0.688070 0.000000
0.830601 0.674927 0.000000
0.864481 0.662631 0.000000
0.898361 0.654088 0.000000
0.932240 0.647437 0.000000
0.966120 0.644317 0.000000
1.000000 0.642785 0.000000
0.246407 0.762842 0.107807
0.231827 0.762842 0.124986
0.232405 0.762842 0.129417
0.254302 0.762842 0.116188
0.299430 0.762842 0.091094
0.363398 0.762842 0.055775
0.445464 0.759537 0.017650
0.544481 0.750809 0.000000
0.675277 0.755191 0.000000
0.783249 0.760565 0.000000
0.830601 0.756431 0.000000
0.864481 0.752078 0.000000
0.898361 0.749067 0.000000
0.932240 0.747097 0.000000
0.966120 0.746075 0.000000
1.000000 0.745405 0.000000
0.316072 0.796721 0.166899
0.279429 0.796721 0.155411
0.255809 0.796721 0.140192
0.257047 0.796721 0.115316
0.289697 0.796721 0.086382
0.361520 0.796721 0.067928
0.447337 0.796721 0.034678
0.541730 0.796721 0.006500
0.650480 0.796721 0.000000
0.760938 0.796721 0.000000
0.827060 0.796721 0.000000
0.864481 0.796721 0.000000
0.898361 0.796721 0.000000
0.932240 0.796721 0.000000
0.966120 0.796721 0.000000
1.000000 0.796721 0.000000
0.435508 0.830601 0.351902
0.420371 0.830601 0.328129
0.390216 0.830601 0.274588
0.333387 0.830601 0.192817
0.308875 0.830601 0.112454
0.353710 0.830601 0.066984
0.435498 0.830601 0.028984
0.539307 0.830601 0.010396
0.642765 0.830601 0.000000
0.743718 0.830601 0.000000
0.820350 0.830601 0.000000
0.864481 0.830601 0.000000
0.898361 0.830601 0.000000
0.932240 0.830601 0.000000
0.966120 0.830601 0.000000
1.000000 0.830601 0.000000
0.486938 0.864481 0.472997
0.511874 0.864481 0.467019
0.525963 0.864481 0.444650
0.488838 0.864481 0.363848
0.431941 0.864481 0.249226
0.399681 0.864481 0.132013
0.435658 0.864481 0.043182
0.529400 0.864481 0.006407
0.638177 0.864481 0.000000
0.735041 0.864481 0.000000
0.813474 0.864481 0.000000
0.863356 0.864481 0.000000
0.898361 0.864481 0.000000
0.932240 0.864481 0.000000
0.966120 0.864481 0.000000
1.000000 0.864481 0.000000
0.491803 0.898361 0.491803
0.525683 0.898361 0.491803
0.558356 0.898361 0.490220
0.577908 0.898361 0.470762
0.565437 0.898361 0.405385
0.514789 0.898361 0.275449
0.484453 0.898361 0.121495
0.531056 0.898361 0.023250
0.633258 0.898361 0.000000
0.730857 0.898361 0.000000
0.806414 0.898361 0.000000
0.861121 0.898361 0.000000
0.898361 0.898361 0.000000
0.932240 0.898361 0.000000
0.966120 0.898361 0.000000
1.000000 0.898361 0.000000
0.491803 0.932240 0.491803
0.525683 0.932240 0.491803
0.559563 0.932240 0.491803
0.592918 0.932240 0.490969
0.616912 0.932240 0.474795
0.604939 0.932240 0.393813
0.561728 0.932240 0.232844
0.557691 0.932240 0.076590
0.633106 0.932240 0.008096
0.727936 0.932240 0.000000
0.803102 0.932240 0.000000
0.860073 0.932240 0.000000
0.898361 0.932240 0.000000
0.932240 0.932240 0.000000
0.966120 0.932240 0.000000
1.000000 0.932240 0.000000
0.491803 0.966120 0.491803
0.525683 0.966120 0.491803
0.559563 0.966120 0.491803
0.593443 0.966120 0.491803
0.626916 0.966120 0.490603
0.637929 0.966120 0.449472
0.599303 0.966120 0.298531
0.579396 0.966120 0.116128
0.635156 0.966120 0.017138
0.726593 0.966120 0.000000
0.802354 0.966120 0.000000
0.860032 0.966120 0.000000
0.898361 0.966120 0.000000
0.932240 0.966120 0.000000
0.966120 0.966120 0.000000
1.000000 0.966120 0.000000
0.491803 1.000000 0.491803
0.525683 1.000000 0.491803
0.559563 1.000000 0.491803
0.593443 1.000000 0.491803
0.627322 1.000000 0.491798
0.645827 1.000000 0.465167
0.623020 1.000000 0.337522
0.602090 1.000000 0.155400
0.643006 1.000000 0.034918
0.725372 1.000000 0.000000
0.801738 1.000000 0.000000
0.860100 1.000000 0.000000
0.898361 1.000000 0.000000
0.932240 1.000000 0.000000
0.966120 1.000000 0.000000
1.000000 1.000000 0.000000
0.000000 0.030859 0.074870
0.058483 0.000239 0.077258
0.143521 0.000000 0.083215
0.229056 0.000000 0.076815
0.326069 0.000000 0.065047
0.432398 0.000000 0.049878
0.554034 0.000000 0.038065
0.683128 0.000000 0.037043
0.762184 0.000000 0.036032
0.796721 0.000000 0.034938
0.830601 0.000000 0.034096
0.864481 0.000000 0.033880
0.898361 0.000000 0.033880
0.932240 0.000000 0.033880
0.966120 0.000000 0.033880
1.000000 0.000000 0.033880
0.003574 0.085349 0.037258
0.070086 0.078935 0.068772
0.130369 0.070480 0.062245
0.207690 0.065819 0.057027
0.300794 0.057919 0.048240
0.403582 0.047115 0.039745
0.521691 0.038132 0.036880
0.648673 0.036368 0.036124
0.746603 0.035549 0.035268
0.796721 0.034690 0.034428
0.830601 0.034050 0.033959
0.864481 0.033880 0.033880
0.898361 0.033880 0.033880
0.932240 0.033880 0.033880
0.966120 0.033880 0.033880
1.000000 0.033880 0.033880
0.047558 0.184840 0.050949
0.092206 0.176751 0.079287
0.128407 0.157363 0.068486
0.202280 0.150182 0.053329
0.296457 0.144069 0.043101
0.397559 0.136281 0.036432
0.514598 0.125399 0.035806
0.640298 0.113475 0.035062
0.742559 0.100912 0.034242
0.796721 0.087806 0.033880
0.830601 0.077879 0.033880
0.864481 0.074460 0.033880
0.898361 0.073499 0.033880
0.932240 0.072905 0.033880
0.966120 0.072500 0.033880
1.000000 0.072295 0.033880
0.086802 0.306411 0.065273
0.121980 0.298754 0.092698
0.136713 0.277041 0.085611
0.194248 0.255849 0.064472
0.287894 0.246787 0.042120
0.390959 0.239723 0.036142
0.507731 0.228092 0.035480
0.633482 0.214660 0.034724
0.739389 0.200645 0.034109
0.796712 0.186507 0.033880
0.830601 0.174324 0.033880
0.864481 0.165010 0.033880
0.898361 0.157487 0.033880
0.932240 0.152693 0.033880
0.966120 0.149749 0.033880
1.000000 0.148185 0.033880
0.126666 0.428204 0.077768
0.154852 0.419289 0.110259
0.155985 0.396052 0.106082
0.198874 0.369078 0.083464
0.273789 0.344149 0.055195
0.380632 0.338118 0.037396
0.500496 0.331382 0.035188
0.626053 0.318890 0.034437
0.735810 0.306117 0.033967
0.796621 0.293446 0.033880
0.830601 0.281197 0.033880
0.864481 0.270905 0.033880
0.898361 0.262282 0.033880
0.932240 0.256209 0.033880
0.966120 0.253514 0.033880
1.000000 0.251888 0.033880
0.165978 0.565362 0.095153
0.190114 0.558087 0.130790
0.185451 0.533647 0.132946
0.213790 0.504798 0.107866
0.273281 0.469570 0.076458
0.360629 0.442144 0.047022
0.486860 0.438264 0.035068
0.619380 0.433104 0.034166
0.731560 0.420445 0.033880
0.795860 0.407999 0.033880
0.830601 0.396657 0.033880
0.864481 0.386572 0.033880
0.898361 0.378131 0.033880
0.932240 0.372257 0.033880
0.966120 0.369224 0.033880
1.000000 0.367783 0.033880
0.209555 0.678191 0.117718
0.228775 0.675098 0.153587
0.221958 0.663577 0.161700
0.235626 0.643788 0.137898
0.282830 0.613227 0.104264
0.353590 0.576136 0.067033
0.458509 0.547423 0.039886
0.600819 0.549003 0.034158
0.724370 0.548266 0.033880
0.793221 0.535623 0.033880
0.830601 0.524323 0.033880
0.864481 0.514018 0.033880
0.898361 0.505395 0.033880
0.932240 0.499042 0.033880
0.966120 0.496022 0.033880
1.000000 0.494643 0.033880
0.253079 0.728962 0.136384
0.268438 0.728962 0.171724
0.261155 0.728961 0.187406
0.262870 0.727362 0.167091
0.298212 0.717581 0.135928
0.360404 0.701068 0.095706
0.444839 0.671857 0.055709
0.562308 0.654859 0.035333
0.701459 0.664940 0.033880
0.790096 0.662441 0.033880
0.830601 0.653295 0.033880
0.864481 0.644222 0.033880
0.898361 0.637498 0.033880
0.932240 0.632137 0.033880
0.966120 0.629597 0.033880
1.000000 0.628444 0.033880
0.278560 0.762842 0.122188
0.288277 0.762842 0.158610
0.284986 0.762842 0.191949
0.283714 0.762842 0.183963
0.312952 0.762842 0.160761
0.370065 0.762832 0.125952
0.448690 0.757888 0.080253
0.542586 0.745306 0.043833
0.663676 0.742499 0.034289
0.776464 0.747890 0.033880
0.830601 0.747905 0.033880
0.864481 0.744686 0.033880
0.898361 0.742108 0.033880
0.932240 0.740384 0.033880
0.966120 0.739465 0.033880
1.000000 0.739029 0.033880
0.326811 0.796721 0.149095
0.335235 0.796721 0.185633
0.311192 0.796721 0.198180
0.293060 0.796721 0.183862
0.306032 0.796721 0.156129
0.369896 0.796721 0.137757
0.451774 0.796721 0.103606
0.543627 0.796721 0.062052
0.645657 0.793526 0.038077
0.752655 0.794325 0.033948
0.824597 0.796721 0.033880
0.864481 0.796704 0.033880
0.898361 0.796628 0.033880
0.932240 0.796536 0.033880
0.966120 0.796467 0.033880
1.000000 0.796446 0.033880
0.423650 0.830601 0.319842
0.448198 0.830601 0.355665
0.429443 0.830601 0.330747
0.379976 0.830601 0.267541
0.332981 0.830601 0.184868
0.363766 0.830601 0.137066
0.439886 0.830601 0.099667
0.542723 0.830601 0.074537
0.643548 0.830601 0.045411
0.738871 0.830601 0.034367
0.817945 0.830601 0.033880
0.864448 0.830601 0.033880
0.898361 0.830601 0.033880
0.932240 0.830601 0.033880
0.966120 0.830601 0.033880
1.000000 0.830601 0.033880
0.482666 0.864481 0.487259
0.516020 0.864481 0.497884
0.537123 0.864481 0.487165
0.525183 0.864481 0.432449
0.465452 0.864481 0.328914
0.417934 0.864481 0.206379
0.441403 0.864481 0.113027
0.532182 0.864481 0.067902
0.639935 0.864481 0.044098
0.734410 0.864481 0.034885
0.810076 0.864481 0.033974
0.862233 0.864481 0.033880
0.898361 0.864481 0.033880
0.932240 0.864481 0.033880
0.966120 0.864481 0.033880
1.000000 0.864481 0.033880
0.491803 0.898361 0.525020
0.525683 0.898361 0.525335
0.559134 0.898361 0.524817
0.587274 0.898361 0.515593
0.588793 0.898361 0.475367
0.536664 0.898361 0.353077
0.498148 0.898361 0.195992
0.534603 0.898361 0.086859
0.634663 0.898361 0.044733
0.731165 0.898361 0.034572
0.804898 0.898361 0.034011
0.860513 0.898361 0.033880
0.898361 0.898361 0.033880
0.932240 0.898361 0.033880
0.966120 0.898361 0.033880
1.000000 0.898361 0.033880
0.491803 0.932240 0.525683
0.525683 0.932240 0.525683
0.559563 0.932240 0.525683
0.593443 0.932240 0.525629
0.624899 0.932240 0.519553
0.626291 0.932240 0.463693
0.578766 0.932240 0.312086
0.567090 0.932240 0.149679
0.635164 0.932240 0.059835
0.728365 0.932240 0.034537
0.803197 0.932240 0.033897
0.860102 0.932240 0.033880
0.898361 0.932240 0.033880
0.932240 0.932240 0.033880
0.966120 0.932240 0.033880
1.000000 0.932240 0.033880
0.491803 0.966120 0.525683
0.525683 0.966120 0.525683
0.559563 0.966120 0.525683
0.593443 0.966120 0.525683
0.627322 0.966120 0.525469
0.644766 0.966120 0.498534
0.617261 0.966120 0.372687
0.593580 0.966120 0.193163
0.640192 0.966120 0.072984
0.727234 0.966120 0.035379
0.802500 0.966120 0.033880
0.860085 0.966120 0.033880
0.898361 0.966120 0.033880
0.932240 0.966120 0.033880
0.966120 0.966120 0.033880
1.000000 0.966120 0.033880
0.491803 1.000000 0.525683
0.525683 1.000000 0.525683
0.559563 1.000000 0.525683
0.593443 1.000000 0.525683
0.627322 1.000000 0.525683
0.652015 1.000000 0.508377
0.641310 1.000000 0.407196
0.616881 1.000000 0.234482
0.649203 1.000000 0.095220
0.726116 1.000000 0.038819
0.801784 1.000000 0.033880
0.860110 1.000000 0.033880
0.898361 1.000000 0.033880
0.932240 1.000000 0.033880
0.966120 1.000000 0.033880
1.000000 1.000000 0.033880
0.000000 0.058131 0.146953
0.035983 0.007877 0.150261
0.109251 0.000000 0.153837
0.220725 0.000000 0.177228
0.323829 0.000000 0.170809
0.431049 0.000000 0.156603
0.552212 0.000000 0.140806
0.681185 0.000000 0.125808
0.761562 0.000000 0.110217
0.796721 0.000000 0.093530
0.830601 0.000000 0.080411
0.864481 0.000000 0.075921
0.898361 0.000000 0.074914
0.932240 0.000000 0.074188
0.966120 0.000000 0.073684
1.000000 0.000000 0.073440
0.000000 0.112904 0.109536
0.059940 0.097190 0.131720
0.118247 0.070648 0.135313
0.201787 0.063407 0.141445
0.297866 0.055616 0.139518
0.399951 0.045036 0.131541
0.516859 0.036965 0.121733
0.642181 0.036180 0.110122
0.743240 0.035407 0.097140
0.796721 0.034658 0.084291
0.830601 0.034053 0.076664
0.864481 0.033880 0.074498
0.898361 0.033880 0.073581
0.932240 0.033880 0.072982
0.966120 0.033880 0.072555
1.000000 0.033880 0.072342
0.006027 0.170198 0.072050
0.075050 0.159223 0.103517
0.136560 0.153562 0.129657
0.197275 0.142394 0.126513
0.289138 0.136573 0.120539
0.387896 0.129127 0.113036
0.501417 0.120245 0.103452
0.623831 0.109968 0.092293
0.734167 0.098246 0.080241
0.796702 0.086945 0.074324
0.830601 0.077740 0.073203
0.864481 0.074386 0.072123
0.898361 0.073476 0.071199
0.932240 0.072923 0.070633
0.966120 0.072555 0.070223
1.000000 0.072379 0.070022
0.054161 0.284109 0.080645
0.115942 0.275564 0.111629
0.165065 0.267402 0.141146
0.200161 0.248260 0.134644
0.282048 0.234676 0.116332
0.381228 0.228164 0.106769
0.494318 0.218014 0.096952
0.616748 0.206172 0.085867
0.730304 0.193911 0.076612
0.796370 0.182279 0.072419
0.830601 0.172288 0.071316
0.864481 0.163717 0.070232
0.898361 0.156621 0.069389
0.932240 0.152387 0.068837
0.966120 0.149554 0.068456
1.000000 0.148183 0.068252
0.103120 0.403064 0.094263
0.160074 0.394537 0.125822
0.197984 0.385738 0.159715
0.214050 0.362274 0.156446
0.275038 0.335690 0.127609
0.373198 0.324652 0.104989
0.488452 0.317517 0.092617
0.609934 0.306904 0.081561
0.724702 0.296253 0.074175
0.794778 0.285213 0.071778
0.830601 0.275333 0.070653
0.864481 0.265782 0.069618
0.898361 0.257887 0.068825
0.932240 0.253110 0.068209
0.966120 0.250074 0.067973
1.000000 0.248561 0.067828
0.154868 0.541213 0.110233
0.203940 0.532507 0.144307
0.233324 0.523274 0.181251
0.237859 0.497025 0.182733
0.279920 0.461906 0.151654
0.359857 0.431372 0.116887
0.476716 0.422117 0.090835
0.602831 0.416792 0.077325
0.717511 0.406612 0.072363
0.791783 0.396200 0.071136
0.830601 0.386686 0.069995
0.864481 0.377503 0.068979
0.898361 0.370398 0.068227
0.932240 0.365262 0.067805
0.966120 0.362502 0.067760
1.000000 0.361222 0.067760
0.206601 0.667073 0.129868
0.249880 0.663007 0.166744
0.273345 0.656922 0.203261
0.269549 0.637914 0.210602
0.294505 0.605946 0.181858
0.357551 0.566839 0.142291
0.455227 0.533395 0.101304
0.586965 0.529772 0.076943
0.709913 0.528667 0.071678
0.788837 0.518532 0.070361
0.830601 0.509416 0.069210
0.864481 0.499953 0.068279
0.898361 0.492885 0.067821
0.932240 0.488118 0.067760
0.966120 0.485489 0.067760
1.000000 0.483924 0.067760
0.259609 0.728962 0.151097
0.296993 0.728953 0.187440
0.316074 0.728771 0.224041
0.307155 0.726376 0.237967
0.315796 0.714627 0.212691
0.367565 0.696607 0.174232
0.446928 0.663806 0.126469
0.556420 0.640048 0.086050
0.690139 0.645662 0.071349
0.785764 0.644660 0.069718
0.830601 0.637043 0.068558
0.864481 0.629768 0.067879
0.898361 0.623393 0.067760
0.932240 0.619149 0.067760
0.966120 0.616879 0.067760
1.000000 0.615376 0.067760
0.301104 0.762842 0.150786
0.332956 0.762842 0.187614
0.347147 0.762842 0.227784
0.338622 0.762842 0.253937
0.337234 0.762842 0.236038
0.380471 0.762610 0.203113
0.453800 0.756363 0.158428
0.542797 0.740834 0.108824
0.657072 0.732383 0.077733
0.772344 0.738476 0.069286
0.830601 0.741097 0.068106
0.864481 0.738117 0.067773
0.898361 0.733958 0.067760
0.932240 0.730468 0.067760
0.966120 0.728280 0.067760
1.000000 0.727484 0.067760
0.343676 0.796721 0.154874
0.369566 0.796721 0.191239
0.377619 0.796721 0.230575
0.355734 0.796721 0.250643
0.338280 0.796721 0.231856
0.384003 0.796721 0.214611
0.458920 0.796721 0.181581
0.546693 0.796632 0.137204
0.644226 0.790959 0.093352
0.749060 0.792361 0.071050
0.823628 0.796365 0.068025
0.864481 0.795879 0.067760
0.898361 0.794711 0.067760
0.932240 0.793380 0.067760
0.966120 0.792413 0.067760
1.000000 0.792107 0.067760
0.415436 0.830601 0.273090
0.446426 0.830601 0.312139
0.466520 0.830601 0.351870
0.440856 0.830601 0.333377
0.377198 0.830601 0.266277
0.380880 0.830601 0.214717
0.446969 0.830601 0.177558
0.546662 0.830601 0.152788
0.645283 0.830601 0.112403
0.737372 0.830601 0.079102
0.815684 0.830601 0.068635
0.863914 0.830601 0.067760
0.898361 0.830601 0.067760
0.932240 0.830601 0.067760
0.966120 0.830601 0.067760
1.000000 0.830601 0.067760
0.478455 0.864481 0.454793
0.512589 0.864481 0.484084
0.544719 0.864481 0.512834
0.555636 0.864481 0.488987
0.506065 0.864481 0.409854
0.446900 0.864481 0.289162
0.451130 0.864481 0.191014
0.536027 0.864481 0.147233
0.642345 0.864481 0.117951
0.734863 0.864481 0.088263
0.808114 0.864481 0.071655
0.861528 0.864481 0.068093
0.898361 0.864481 0.067760
0.932240 0.864481 0.067760
0.966120 0.864481 0.067760
1.000000 0.864481 0.067760
0.491803 0.898361 0.547425
0.525683 0.898361 0.552822
0.559563 0.898361 0.557683
0.591289 0.898361 0.553612
0.602319 0.898361 0.527134
0.566939 0.898361 0.430636
0.518569 0.898361 0.278841
0.539912 0.898361 0.165347
0.636777 0.898361 0.111974
0.731964 0.898361 0.083983
0.804316 0.898361 0.073477
0.860228 0.898361 0.068511
0.898361 0.898361 0.067760
0.932240 0.898361 0.067760
0.966120 0.898361 0.067760
1.000000 0.898361 0.067760
0.491803 0.932240 0.559496
0.525683 0.932240 0.559563
0.559563 0.932240 0.559563
0.593443 0.932240 0.559563
0.625897 0.932240 0.557662
0.636531 0.932240 0.524381
0.600818 0.932240 0.396900
0.580344 0.932240 0.231869
0.638400 0.932240 0.129233
0.728991 0.932240 0.082530
0.803178 0.932240 0.071249
0.860088 0.932240 0.068841
0.898361 0.932240 0.067850
0.932240 0.932240 0.067760
0.966120 0.932240 0.067760
1.000000 0.932240 0.067760
0.491803 0.966120 0.559563
0.525683 0.966120 0.559563
0.559563 0.966120 0.559563
0.593443 0.966120 0.559563
0.627322 0.966120 0.559563
0.652481 0.966120 0.544689
0.640859 0.966120 0.450588
0.611621 0.966120 0.281589
0.646194 0.966120 0.153218
0.727812 0.966120 0.087762
0.802404 0.966120 0.070154
0.860069 0.966120 0.068702
0.898361 0.966120 0.067862
0.932240 0.966120 0.067760
0.966120 0.966120 0.067760
1.000000 0.966120 0.067760
0.491803 1.000000 0.559563
0.525683 1.000000 0.559563
0.559563 1.000000 0.559563
0.593443 1.000000 0.559563
0.627322 1.000000 0.559563
0.660517 1.000000 0.552993
0.663750 1.000000 0.483772
0.632728 1.000000 0.323524
0.656379 1.000000 0.177158
0.726894 1.000000 0.093355
0.801737 1.000000 0.069871
0.860060 1.000000 0.068208
0.898361 1.000000 0.067810
0.932240 1.000000 0.067760
0.966120 1.000000 0.067760
1.000000 1.000000 0.067760
0.000000 0.089016 0.232144
0.033880 0.041660 0.236506
0.073074 0.003103 0.241138
0.162208 0.000000 0.246708
0.301853 0.000000 0.277561
0.425730 0.000000 0.279767
0.550714 0.000000 0.265868
0.679701 0.000000 0.247559
0.760868 0.000000 0.229476
0.796721 0.000000 0.211249
0.830601 0.000000 0.195095
0.864481 0.000000 0.182366
0.898361 0.000000 0.174332
0.932240 0.000000 0.168736
0.966120 0.000000 0.164887
1.000000 0.000000 0.163013
0.000000 0.162515 0.197965
0.050267 0.127355 0.209340
0.098873 0.087438 0.212605
0.170350 0.064035 0.219222
0.287551 0.054644 0.240653
0.397896 0.044078 0.241130
0.515401 0.036714 0.230976
0.640699 0.036013 0.217971
0.742533 0.035313 0.204361
0.796721 0.034560 0.190096
0.830601 0.034007 0.178511
0.864481 0.033880 0.169744
0.898361 0.033880 0.162641
0.932240 0.033880 0.157703
0.966120 0.033880 0.154401
1.000000 0.033880 0.152770
0.000016 0.200857 0.133172
0.053451 0.181897 0.163459
0.119547 0.171754 0.192538
0.184888 0.144026 0.205411
0.281229 0.132999 0.210423
0.384498 0.126273 0.208121
0.497019 0.117285 0.197785
0.618904 0.106722 0.186749
0.731421 0.096119 0.176321
0.796530 0.084831 0.166907
0.830601 0.076475 0.158018
0.864481 0.073870 0.149756
0.898361 0.073170 0.142711
0.932240 0.072533 0.138217
0.966120 0.072191 0.135318
1.000000 0.072036 0.133793
0.008310 0.269537 0.104535
0.075461 0.257163 0.133643
0.142790 0.249695 0.166413
0.210392 0.241112 0.197574
0.278028 0.225389 0.195138
0.375849 0.217393 0.186666
0.486614 0.208275 0.177691
0.606112 0.197801 0.168142
0.722584 0.186718 0.158444
0.794656 0.175529 0.149042
0.830601 0.166696 0.140391
0.864481 0.159187 0.132083
0.898361 0.153691 0.125710
0.932240 0.148779 0.121266
0.966120 0.146030 0.118278
1.000000 0.144750 0.116761
0.055649 0.378050 0.110014
0.121622 0.367971 0.140357
0.188508 0.360061 0.175204
0.240504 0.350011 0.210692
0.281656 0.327949 0.206028
0.369057 0.313236 0.183856
0.480608 0.305632 0.171375
0.599347 0.296668 0.161610
0.714996 0.286624 0.151776
0.791531 0.275992 0.142049
0.830601 0.266905 0.133457
0.864481 0.258179 0.125604
0.898361 0.251681 0.119402
0.932240 0.246332 0.114500
0.966120 0.243012 0.112326
1.000000 0.241359 0.111158
0.115354 0.513284 0.124138
0.178923 0.503320 0.155680
0.237478 0.494334 0.195452
0.276567 0.482610 0.231990
0.295671 0.453642 0.230330
0.361365 0.422431 0.197586
0.470906 0.409362 0.169595
0.592645 0.403518 0.156227
0.708274 0.394318 0.146677
0.788926 0.384691 0.137251
0.830601 0.375891 0.128466
0.864481 0.367873 0.120634
0.898361 0.361501 0.114873
0.932240 0.356494 0.111060
0.966120 0.353740 0.109993
1.000000 0.352401 0.109526
0.177893 0.650373 0.141456
0.235782 0.642835 0.176704
0.287007 0.635324 0.217253
0.316297 0.625116 0.254610
0.319737 0.598121 0.258431
0.364080 0.560172 0.224722
0.454606 0.523512 0.181881
0.578850 0.514847 0.154037
0.700819 0.512653 0.141448
0.785895 0.503378 0.131466
0.830601 0.494851 0.122702
0.864481 0.487250 0.115441
0.898361 0.480957 0.111376
0.932240 0.476110 0.109623
0.966120 0.473651 0.108939
1.000000 0.472455 0.108579
0.240565 0.728059 0.163230
0.293180 0.727267 0.199728
0.338158 0.725557 0.239022
0.359656 0.721343 0.277390
0.351958 0.710953 0.287149
0.379335 0.692353 0.255951
0.450792 0.656749 0.209083
0.554013 0.628653 0.164466
