example_ofxGpuLutCube/bin/data/ofxGpuLutCube/LUT/T3 (greenish contrasty).cube
LUT_3D_SIZE 6
0.000000 0.000000 0.000000
0.230207 0.000000 0.000000
0.555085 0.000000 0.000000
0.796721 0.000000 0.000000
0.898361 0.000000 0.000000
1.000000 0.000000 0.000000
0.081030 0.326571 0.045925
0.194348 0.265077 0.002778
0.535653 0.240125 0.000000
0.796721 0.186316 0.000000
0.898361 0.152295 0.000000
1.000000 0.141570 0.000000
0.187879 0.687321 0.103190
0.219271 0.649421 0.067170
0.467131 0.567913 0.000000
0.796721 0.559437 0.000000
0.898361 0.519144 0.000000
1.000000 0.505083 0.000000
0.316072 0.796721 0.166899
0.257047 0.796721 0.115316
0.447337 0.796721 0.034678
0.760938 0.796721 0.000000
0.898361 0.796721 0.000000
1.000000 0.796721 0.000000
0.491803 0.898361 0.491803
0.577908 0.898361 0.470762
0.484453 0.898361 0.121495
0.730857 0.898361 0.000000
0.898361 0.898361 0.000000
1.000000 0.898361 0.000000
0.491803 1.000000 0.491803
0.593443 1.000000 0.491803
0.623020 1.000000 0.337522
0.725372 1.000000 0.000000
0.898361 1.000000 0.000000
1.000000 1.000000 0.000000
0.000000 0.089016 0.232144
0.162208 0.000000 0.246708
0.550714 0.000000 0.265868
0.796721 0.000000 0.211249
0.898361 0.000000 0.174332
1.000000 0.000000 0.163013
0.008310 0.269537 0.104535
0.210392 0.241112 0.197574
0.486614 0.208275 0.177691
0.794656 0.175529 0.149042
0.898361 0.153691 0.125710
1.000000 0.144750 0.116761
0.177893 0.650373 0.141456
0.316297 0.625116 0.254610
0.454606 0.523512 0.181881
0.785895 0.503378 0.131466
0.898361 0.480957 0.111376
1.000000 0.472455 0.108579
0.341699 0.796721 0.164671
0.422800 0.796721 0.282623
0.467597 0.796721 0.262595
0.747318 0.789751 0.129815
0.898361 0.789825 0.108280
1.000000 0.788142 0.105724
0.490534 0.898361 0.550841
0.592600 0.898361 0.584467
0.545889 0.898361 0.370438
0.733124 0.898361 0.166270
0.898361 0.898361 0.107838
1.000000 0.898361 0.104196
0.491803 1.000000 0.593443
0.593443 1.000000 0.593443
0.673128 1.000000 0.554622
0.728079 1.000000 0.170377
0.898361 1.000000 0.109664
1.000000 1.000000 0.104556
0.000000 0.244692 0.555902
0.101639 0.060677 0.574142
0.360642 0.000000 0.592647
0.796721 0.000000 0.675860
0.898361 0.000000 0.650424
1.000000 0.000000 0.641648
0.000000 0.447652 0.405056
0.158037 0.372763 0.486053
0.401092 0.201042 0.514183
0.791112 0.167858 0.564717
0.898361 0.146046 0.544443
1.000000 0.135827 0.535481
0.003848 0.586020 0.209298
0.181705 0.534713 0.298385
0.461449 0.495637 0.455856
0.778213 0.458137 0.451987
0.898361 0.435694 0.429287
1.000000 0.423950 0.417045
0.173375 0.796721 0.212255
0.386144 0.796721 0.326126
0.588491 0.796504 0.508957
0.747569 0.771316 0.437526
0.898361 0.771487 0.403313
1.000000 0.767658 0.390106
0.357799 0.898361 0.272597
0.535326 0.898361 0.398183
0.667682 0.898361 0.591548
0.741476 0.898361 0.483517
0.898361 0.898361 0.398437
1.000000 0.898361 0.379291
0.464151 1.000000 0.482972
0.589082 1.000000 0.607321
0.695082 1.000000 0.694059
0.739503 1.000000 0.494863
0.898361 1.000000 0.409107
1.000000 1.000000 0.380401
0.000000 0.429334 0.796721
0.101639 0.233774 0.796721
0.203279 0.000000 0.796721
0.601418 0.000000 0.796721
0.898361 0.000000 0.796721
1.000000 0.000000 0.796721
0.000000 0.593443 0.782831
0.121656 0.548230 0.790239
0.272832 0.285821 0.795860
0.637219 0.169016 0.796366
0.898361 0.144371 0.796721
1.000000 0.133008 0.796721
0.000000 0.695082 0.529493
0.123673 0.688138 0.640492
0.409046 0.638441 0.767643
0.687973 0.451373 0.789710
0.898361 0.426221 0.794331
1.000000 0.414018 0.793818
0.000000 0.796721 0.308801
0.134704 0.794518 0.390015
0.433319 0.787560 0.570884
0.748006 0.756691 0.750538
0.898361 0.736379 0.749823
1.000000 0.729362 0.742839
0.040489 0.898361 0.304918
0.261955 0.898361 0.344534
0.571878 0.898361 0.548323
0.790035 0.898361 0.763734
0.898361 0.898361 0.734272
1.000000 0.898361 0.723853
0.109127 1.000000 0.304918
0.330254 1.000000 0.346114
0.621212 1.000000 0.548127
0.790525 1.000000 0.765893
0.898361 1.000000 0.745862
1.000000 1.000000 0.721872
0.000000 0.491803 0.898361
0.101639 0.366612 0.898361
0.203279 0.055056 0.898361
0.382592 0.000000 0.898361
0.803187 0.000000 0.898361
1.000000 0.000000 0.898361
0.000000 0.593443 0.898361
0.106328 0.592830 0.898361
0.245032 0.406652 0.898361
0.458083 0.157068 0.898361
0.835182 0.147761 0.898361
1.000000 0.136728 0.898361
0.000000 0.695082 0.849332
0.107847 0.695082 0.890292
0.380514 0.689367 0.898361
0.552133 0.471737 0.898361
0.871768 0.428445 0.898361
1.000000 0.416152 0.898361
0.000000 0.796721 0.537237
0.108416 0.796721 0.664655
0.389898 0.796721 0.838270
0.717623 0.789805 0.898361
0.894230 0.734260 0.898361
1.000000 0.726381 0.898361
0.000000 0.898361 0.406557
0.109455 0.898361 0.471489
0.393851 0.898361 0.649437
0.731298 0.898361 0.854846
0.898361 0.898361 0.898361
1.000000 0.898361 0.898361
0.000000 1.000000 0.406557
0.114964 1.000000 0.417503
0.412164 1.000000 0.600422
0.757394 1.000000 0.838838
0.898361 1.000000 0.898361
1.000000 1.000000 0.898361
0.000000 0.491803 1.000000
0.101639 0.411678 1.000000
0.203279 0.085933 1.000000
0.339666 0.000000 1.000000
0.726106 0.000000 1.000000
0.940530 0.000000 1.000000
0.000000 0.593443 1.000000
0.104384 0.593443 1.000000
0.233142 0.446086 1.000000
0.408964 0.155204 1.000000
0.774109 0.141809 1.000000
0.971198 0.138614 1.000000
0.000000 0.695082 0.985710
0.105254 0.695082 1.000000
0.367342 0.694993 1.000000
0.524395 0.493678 1.000000
0.831780 0.420404 1.000000
0.996197 0.418168 1.000000
0.000000 0.796721 0.705911
0.105845 0.796721 0.832027
0.376175 0.796721 0.979635
0.707930 0.795566 1.000000
0.873632 0.730834 1.000000
1.000000 0.728548 1.000000
0.000000 0.898361 0.512039
0.106432 0.898361 0.627219
0.378632 0.898361 0.804402
0.719492 0.898361 0.985487
0.898361 0.898361 1.000000
1.000000 0.898361 1.000000
0.000000 1.000000 0.508197
0.106656 1.000000 0.553829
0.379663 1.000000 0.729407
0.720495 1.000000 0.942136
0.898361 1.000000 1.000000
1.000000 1.000000 1.000000
