example_ofxGpuLutCube/bin/data/ofxGpuLutCube/LUT/T30 (deep dark warm).cube
LUT_3D_SIZE 16
0.000000 0.000000 0.000000
0.040029 0.000000 0.000000
0.081942 0.000000 0.000343
0.130792 0.000000 0.001884
0.179900 0.000000 0.003426
0.233976 0.000000 0.006852
0.284711 0.002056 0.011563
0.340414 0.002056 0.018673
0.398173 0.004968 0.027238
0.458929 0.010278 0.038030
0.521056 0.018844 0.047966
0.584725 0.025353 0.060814
0.647366 0.031178 0.071435
0.699129 0.034775 0.078629
0.761342 0.039572 0.084283
0.823362 0.066552 0.097548
0.000000 0.039258 0.000000
0.041673 0.040337 0.000000
0.092699 0.041450 0.000771
0.145764 0.041074 0.003615
0.199069 0.043900 0.008360
0.254790 0.044054 0.013962
0.312720 0.049382 0.023777
0.372654 0.052740 0.033182
0.436580 0.058153 0.044694
0.500420 0.063583 0.055538
0.564054 0.069322 0.068351
0.625239 0.071480 0.077876
0.681165 0.075386 0.085054
0.738478 0.084876 0.093961
0.792091 0.087703 0.102081
0.847741 0.092869 0.110124
0.001884 0.083997 0.000171
0.043523 0.083689 0.000428
0.091809 0.084648 0.000822
0.145456 0.085813 0.003598
0.199943 0.088640 0.008171
0.257787 0.093077 0.015418
0.315392 0.095218 0.024685
0.377690 0.099518 0.035597
0.445111 0.106335 0.048617
0.511041 0.110121 0.059375
0.572619 0.110721 0.071264
0.634267 0.119183 0.082484
0.691152 0.125762 0.089456
0.745005 0.120177 0.096103
0.804340 0.134909 0.106295
0.854148 0.135064 0.109976
0.005996 0.131991 0.002741
0.047737 0.132711 0.002073
0.093967 0.133602 0.002193
0.146655 0.136822 0.005790
0.200937 0.137696 0.009165
0.259329 0.141927 0.017987
0.317310 0.144308 0.026501
0.381219 0.149327 0.036180
0.447680 0.155186 0.050021
0.517550 0.158732 0.063246
0.582041 0.162998 0.074690
0.644991 0.169610 0.085739
0.700403 0.168583 0.094561
0.752748 0.172591 0.103126
0.811637 0.182698 0.109002
0.862000 0.191861 0.116784
0.010450 0.182213 0.004111
0.051369 0.182829 0.004608
0.096503 0.182812 0.004762
0.145730 0.186101 0.006989
0.199617 0.187712 0.010210
0.257873 0.190607 0.017559
0.318527 0.193313 0.026929
0.382744 0.198041 0.038047
0.450336 0.204277 0.052163
0.519520 0.203883 0.062869
0.589664 0.213134 0.077944
0.648365 0.216714 0.089884
0.708060 0.222058 0.098073
0.759652 0.219318 0.104651
0.817256 0.227866 0.113302
0.870406 0.233852 0.118685
0.013705 0.235689 0.006852
0.056731 0.235689 0.006852
0.101642 0.238772 0.009936
0.147923 0.239115 0.011478
0.199600 0.239800 0.011221
0.256246 0.242541 0.018844
0.316317 0.249650 0.028523
0.383583 0.252477 0.037859
0.449736 0.258130 0.052420
0.523512 0.261556 0.066895
0.594718 0.266524 0.082227
0.656503 0.265839 0.091906
0.710407 0.269093 0.102098
0.768851 0.273719 0.109293
0.822498 0.282798 0.114861
0.873148 0.285329 0.123263
0.020814 0.292591 0.010878
0.061921 0.292831 0.010570
0.104965 0.292899 0.011820
0.151623 0.295263 0.012985
0.202273 0.297662 0.016034
0.255732 0.298672 0.020129
0.313850 0.302544 0.029448
0.378307 0.304600 0.039863
0.450318 0.311041 0.055418
0.522775 0.312908 0.067769
0.596688 0.320942 0.082569
0.660306 0.322638 0.094133
0.718732 0.324899 0.103092
0.774161 0.326236 0.111109
0.829042 0.332265 0.119041
0.884226 0.337766 0.124659
0.020043 0.351378 0.014047
0.060671 0.351857 0.014253
0.104554 0.353399 0.014595
0.148334 0.354598 0.017507
0.197425 0.355832 0.017233
0.250935 0.358059 0.020214
0.310013 0.364243 0.029328
0.377313 0.364568 0.038578
0.448537 0.370564 0.055400
0.524728 0.374333 0.069122
0.602427 0.382555 0.083597
0.665513 0.382538 0.096017
0.719692 0.382384 0.105011
0.781664 0.385330 0.115358
0.834747 0.387163 0.121302
0.890231 0.399057 0.126710
0.019186 0.415989 0.018158
0.057725 0.415269 0.018570
0.098079 0.416468 0.017131
0.141585 0.417256 0.019495
0.188757 0.420408 0.020591
0.235517 0.418729 0.024325
0.294972 0.426730 0.031383
0.366727 0.429350 0.040565
0.445350 0.433702 0.055195
0.521542 0.441068 0.068163
0.593519 0.443911 0.082056
0.666164 0.445950 0.096257
0.730004 0.445898 0.106792
0.793622 0.455697 0.119058
0.839749 0.449822 0.124180
0.895896 0.451786 0.130667
0.007195 0.478801 0.024411
0.044654 0.481251 0.024497
0.082096 0.479777 0.021704
0.120600 0.479263 0.021328
0.163283 0.482998 0.022784
0.207680 0.484197 0.024325
0.270355 0.487949 0.028694
0.352011 0.490278 0.037362
0.432246 0.499666 0.052917
0.512942 0.503092 0.066193
0.597630 0.512120 0.083083
0.665188 0.508642 0.096634
0.729799 0.505885 0.107152
0.793279 0.513559 0.120788
0.848211 0.512206 0.126304
0.905823 0.519232 0.136274
0.000000 0.551892 0.032548
0.037545 0.549922 0.030664
0.075089 0.552063 0.028608
0.112634 0.553776 0.028094
0.150178 0.552234 0.023726
0.187723 0.553604 0.027409
0.244283 0.553604 0.027152
0.325339 0.558401 0.037516
0.405539 0.552919 0.046767
0.495675 0.566024 0.061670
0.575875 0.562170 0.075375
0.660271 0.578444 0.094219
0.734732 0.577759 0.108951
0.803283 0.586838 0.123169
0.851792 0.580757 0.128480
0.907323 0.569071 0.138687
0.000428 0.610078 0.036745
0.038932 0.615595 0.037053
0.075432 0.614687 0.035289
0.112634 0.608691 0.031966
0.150178 0.612408 0.028008
0.188580 0.616331 0.023811
0.227991 0.617205 0.026655
0.281656 0.624485 0.030441
0.373094 0.630413 0.043940
0.469259 0.630806 0.055760
0.570393 0.643997 0.074433
0.653676 0.645624 0.094287
0.727469 0.644186 0.108865
0.799480 0.647886 0.125448
0.860545 0.646961 0.131375
0.919364 0.648203 0.144823
0.000857 0.676317 0.044197
0.037545 0.679846 0.043186
0.076117 0.683820 0.040805
0.112702 0.680017 0.039024
0.150247 0.678561 0.032548
0.187894 0.678886 0.030321
0.225319 0.676060 0.023606
0.263224 0.680908 0.026655
0.319954 0.680326 0.033336
0.424788 0.687932 0.047195
0.536988 0.696531 0.063212
0.635449 0.708094 0.086801
0.726133 0.714689 0.109876
0.799378 0.712668 0.122176
0.863954 0.714946 0.134030
0.926321 0.706859 0.146038
0.000171 0.734247 0.047452
0.037545 0.739763 0.043015
0.075158 0.734795 0.043889
0.112702 0.724551 0.037859
0.150247 0.735634 0.038064
0.188237 0.745725 0.034604
0.225319 0.739472 0.030972
0.264457 0.745793 0.025319
0.301453 0.743840 0.027615
0.356403 0.748260 0.037396
0.492791 0.760971 0.055675
0.603483 0.763797 0.074570
0.703726 0.766966 0.099015
0.792183 0.779472 0.123238
0.861933 0.773630 0.134818
0.926525 0.768066 0.148069
0.000257 0.799715 0.050707
0.037802 0.801684 0.051289
0.075192 0.803740 0.050552
0.112737 0.799389 0.049559
0.151001 0.798464 0.044249
0.187723 0.797659 0.041627
0.226398 0.803003 0.037036
0.263086 0.806892 0.032377
0.300665 0.797950 0.024874
0.338210 0.804357 0.025987
0.395832 0.805196 0.038201
0.527971 0.822121 0.055161
0.658004 0.829556 0.084060
0.764825 0.836100 0.111572
0.853813 0.841410 0.131683
0.929714 0.838286 0.148341
0.000000 0.845854 0.058197
0.039247 0.863284 0.059670
0.075259 0.857406 0.058207
0.112803 0.844951 0.051571
0.150195 0.860011 0.054921
0.187723 0.844081 0.049651
0.228151 0.864191 0.047387
0.265188 0.863485 0.038004
0.300362 0.859204 0.036761
0.337901 0.867280 0.028197
0.378872 0.873107 0.030878
0.413628 0.872668 0.028159
0.528643 0.881407 0.044996
0.689415 0.889210 0.082791
0.809079 0.894402 0.116173
0.917390 0.903785 0.145425
0.000000 0.000000 0.040029
0.057091 0.000000 0.040577
0.108665 0.000617 0.042564
0.155186 0.002467 0.044174
0.198984 0.004043 0.045630
0.247851 0.005739 0.049450
0.294955 0.006938 0.053493
0.347729 0.009833 0.059146
0.401959 0.013944 0.066992
0.459101 0.018415 0.075763
0.520885 0.023983 0.086966
0.583269 0.032240 0.097365
0.644916 0.038458 0.107729
0.703292 0.043289 0.115986
0.758481 0.046835 0.124225
0.815209 0.049831 0.130359
0.001302 0.041587 0.040131
0.049351 0.043348 0.041540
0.103399 0.044678 0.042985
0.157389 0.047364 0.046041
0.211037 0.050382 0.050047
0.267672 0.053356 0.057999
0.325677 0.056954 0.066447
0.385012 0.061791 0.076099
0.446135 0.065307 0.087131
0.509530 0.071648 0.097426
0.573545 0.076414 0.108208
0.631577 0.080799 0.118048
0.688911 0.086973 0.126250
0.744121 0.088817 0.133644
0.796494 0.091862 0.141123
0.852394 0.096909 0.147473
0.004951 0.086413 0.041022
0.049187 0.088263 0.042763
0.100902 0.089880 0.044921
0.154186 0.092970 0.046422
0.210122 0.095691 0.050266
0.268340 0.098061 0.057827
0.328699 0.102296 0.068253
0.393060 0.106904 0.079021
0.458397 0.110097 0.092322
0.522635 0.116312 0.103775
0.587626 0.122969 0.115301
0.646837 0.126632 0.124859
0.705069 0.132672 0.133291
0.758895 0.132460 0.139328
0.810997 0.137623 0.147109
0.862595 0.140691 0.151819
0.008651 0.133619 0.043283
0.051879 0.136661 0.045010
0.099285 0.138210 0.046127
0.152240 0.139628 0.047655
0.207182 0.142136 0.051390
0.265290 0.146090 0.057896
0.326061 0.148632 0.067390
0.390059 0.153459 0.078377
0.457342 0.155200 0.091486
0.525335 0.163080 0.105091
0.593108 0.168908 0.117048
0.650236 0.170700 0.126189
0.710297 0.180927 0.136587
0.764452 0.182523 0.141363
0.813738 0.181101 0.148643
0.869371 0.186811 0.155877
0.013722 0.185108 0.046727
0.055662 0.186125 0.046891
0.101347 0.187256 0.048916
0.150232 0.188873 0.050218
0.205079 0.192015 0.053003
0.263389 0.194290 0.057827
0.324416 0.198189 0.067883
0.389014 0.202197 0.079014
0.457846 0.206172 0.091903
0.527592 0.211126 0.105560
0.593245 0.214795 0.117305
0.656084 0.221870 0.129207
0.714354 0.226273 0.137807
0.769091 0.229178 0.143864
0.819589 0.230590 0.150374
0.871172 0.234887 0.158222
0.018159 0.239458 0.049879
0.059986 0.239132 0.050444
0.105530 0.241804 0.051883
0.151914 0.242284 0.053288
0.203095 0.245299 0.056131
0.259929 0.247252 0.059815
0.322330 0.251158 0.067146
0.387078 0.254532 0.079309
0.456862 0.256280 0.092534
0.527178 0.262995 0.106170
0.599857 0.273719 0.121056
0.656468 0.269282 0.129724
0.716694 0.275535 0.138975
0.775583 0.284991 0.148328
0.828031 0.284768 0.154444
0.882605 0.288608 0.159582
0.023658 0.294510 0.053613
0.064512 0.295414 0.053730
0.107504 0.295633 0.054473
0.153881 0.297627 0.056090
0.204469 0.298861 0.058475
0.258507 0.303657 0.062350
0.317156 0.303771 0.068733
0.385139 0.309324 0.079573
0.456362 0.317184 0.093771
0.529072 0.319291 0.107287
0.596517 0.317533 0.120234
0.661995 0.324516 0.132870
0.723686 0.330710 0.142511
0.778403 0.333348 0.149555
0.830406 0.333444 0.156147
0.884412 0.336345 0.163183
0.020505 0.354615 0.056046
0.061003 0.353587 0.056501
0.105339 0.355794 0.058238
0.148235 0.356335 0.058197
0.198470 0.360272 0.060931
0.250078 0.363352 0.063806
0.310801 0.364544 0.068668
0.377659 0.367391 0.079302
0.451747 0.370639 0.092356
0.527517 0.378084 0.107708
0.597870 0.377605 0.119994
0.667021 0.387588 0.134672
0.728144 0.387273 0.144272
0.784025 0.389692 0.152351
0.839351 0.395119 0.159755
0.891439 0.391863 0.165162
0.018964 0.417034 0.061219
0.057776 0.419541 0.060119
0.098431 0.416711 0.059321
0.140752 0.420898 0.061198
0.187698 0.422861 0.062542
0.236751 0.425633 0.065348
0.297213 0.428922 0.070429
0.369574 0.430748 0.078069
0.447252 0.436463 0.092465
0.522994 0.440407 0.107071
0.596294 0.444168 0.120131
0.667918 0.445299 0.134946
0.731645 0.452617 0.147718
0.787719 0.451802 0.153440
0.843846 0.451069 0.162865
0.900418 0.453388 0.169836
0.006013 0.482672 0.065861
0.042759 0.481586 0.064450
0.081249 0.482686 0.062809
0.120089 0.482501 0.062274
0.161934 0.484540 0.064327
0.206481 0.489233 0.066958
0.272219 0.489823 0.070439
0.352474 0.493365 0.077723
0.432304 0.495880 0.089166
0.515645 0.503746 0.104738
0.598572 0.511486 0.120834
0.668566 0.511575 0.135737
0.735579 0.513620 0.148520
0.794351 0.514093 0.157017
0.850270 0.515251 0.165993
0.906760 0.516457 0.172846
0.002313 0.555660 0.073604
0.038059 0.554101 0.072971
0.076117 0.551977 0.069168
0.112634 0.551909 0.067386
0.150435 0.549973 0.064834
0.187980 0.555917 0.066324
0.244026 0.555472 0.068859
0.330273 0.562701 0.074684
0.412391 0.565887 0.086024
0.498569 0.572071 0.101150
0.587609 0.577588 0.117459
0.666781 0.585074 0.134487
0.736822 0.586084 0.152440
0.801228 0.589134 0.159977
0.856605 0.582367 0.169485
0.916182 0.578908 0.179070
0.000463 0.616520 0.077579
0.037874 0.616064 0.076616
0.075761 0.618109 0.075122
0.112983 0.617972 0.073848
0.150610 0.617236 0.068846
0.187723 0.615029 0.066889
0.230335 0.625462 0.068397
0.282088 0.625859 0.073087
0.374115 0.627963 0.080447
0.476190 0.634836 0.096128
0.575018 0.644836 0.112320
0.655714 0.642579 0.131880
0.735003 0.649904 0.149195
0.800786 0.649198 0.162228
0.862067 0.647882 0.170996
0.923248 0.649608 0.181009
0.000000 0.673764 0.081930
0.038100 0.679466 0.082376
0.075192 0.678390 0.081793
0.113052 0.679438 0.077545
0.150648 0.679781 0.075619
0.188340 0.683872 0.071241
0.225268 0.679908 0.066824
0.262864 0.685078 0.068739
0.328605 0.691238 0.075695
0.432559 0.695503 0.085603
0.542059 0.704497 0.103309
0.640962 0.711428 0.125545
0.725872 0.714823 0.148750
0.799912 0.717399 0.162920
0.864729 0.713254 0.173116
0.927337 0.708877 0.184508
0.000000 0.738170 0.087309
0.037874 0.740582 0.086562
0.075610 0.739006 0.086110
0.113936 0.741973 0.084027
0.150278 0.738697 0.078223
0.187723 0.745296 0.077545
0.226008 0.744710 0.069949
0.262912 0.743124 0.067191
0.301409 0.750243 0.067376
0.361199 0.749096 0.076503
0.489844 0.761159 0.092037
0.606529 0.767090 0.114800
0.709968 0.780606 0.141178
0.791792 0.777947 0.159515
0.864941 0.779832 0.173966
0.930005 0.774427 0.186961
0.000463 0.802798 0.093082
0.037812 0.799331 0.092294
0.075603 0.800931 0.089608
0.112956 0.798430 0.088251
0.150240 0.802911 0.084822
0.187929 0.805076 0.081536
0.225487 0.801983 0.076332
0.263419 0.803675 0.070514
0.300634 0.806450 0.065122
0.338487 0.810829 0.064848
0.399395 0.815492 0.076465
0.527197 0.819332 0.093192
0.662020 0.832598 0.123013
0.767052 0.836751 0.148866
0.856479 0.842034 0.171767
0.929817 0.837385 0.186715
0.000012 0.859559 0.105886
0.037649 0.856905 0.100791
0.075584 0.858653 0.101506
0.113336 0.854136 0.098158
0.151248 0.861301 0.094480
0.188237 0.864340 0.089395
0.225676 0.860672 0.087548
0.263394 0.864935 0.081616
0.300799 0.865962 0.074399
0.339329 0.867534 0.068755
0.375446 0.870610 0.058635
0.414596 0.878738 0.069538
0.528968 0.884672 0.085162
0.692066 0.888636 0.120589
0.811984 0.897799 0.154068
0.918876 0.904056 0.184681
0.001713 0.000000 0.082627
0.063223 0.000223 0.084460
0.120040 0.002021 0.087012
0.173584 0.003084 0.089616
0.219986 0.006458 0.092237
0.262755 0.007880 0.093247
0.311726 0.012522 0.097959
0.358812 0.014458 0.103321
0.412905 0.018775 0.109967
0.469293 0.026450 0.118156
0.529964 0.032206 0.126824
0.587911 0.035889 0.135509
0.644214 0.039983 0.145599
0.703617 0.042929 0.153239
0.761839 0.055760 0.164117
0.811365 0.050999 0.172861
0.003255 0.043934 0.084391
0.055018 0.046672 0.085583
0.108826 0.048244 0.088026
0.162734 0.050156 0.089986
0.215943 0.053723 0.092645
0.270190 0.057827 0.097376
0.325746 0.060424 0.103889
0.382963 0.065142 0.113013
0.444429 0.070247 0.123353
0.506436 0.076551 0.133926
0.566915 0.080731 0.144571
0.627737 0.084870 0.153613
0.685149 0.088484 0.162949
0.742168 0.095261 0.171103
0.794699 0.097334 0.176571
0.851975 0.104445 0.184302
0.009148 0.090335 0.086498
0.053740 0.091278 0.087283
0.104938 0.093816 0.088835
0.159263 0.095742 0.091357
0.214634 0.098952 0.094601
0.273616 0.102669 0.099655
0.332930 0.106805 0.107809
0.394814 0.112749 0.118731
0.459343 0.116333 0.129606
0.522364 0.120537 0.141278
0.584474 0.124186 0.152554
0.646238 0.132001 0.163624
0.703973 0.133142 0.170096
0.760217 0.138377 0.177003
0.811576 0.141679 0.185911
0.867018 0.143525 0.191831
0.015109 0.139221 0.089719
0.057283 0.139073 0.089736
0.103177 0.141756 0.091336
0.156653 0.143599 0.093775
0.212962 0.146131 0.096437
0.272451 0.150527 0.100922
0.333245 0.153833 0.108624
0.397918 0.158578 0.119663
0.467188 0.165095 0.132456
0.531512 0.169319 0.145664
0.592114 0.168411 0.154884
0.655146 0.174033 0.165227
0.715005 0.183774 0.176427
0.771222 0.188872 0.185006
0.823156 0.188200 0.189111
0.875751 0.187734 0.195762
0.018792 0.187626 0.092014
0.060788 0.189161 0.092305
0.105688 0.190973 0.093806
0.154847 0.192940 0.095869
0.209697 0.195667 0.098884
0.269282 0.199258 0.102464
0.331029 0.203167 0.108686
0.396448 0.207367 0.120139
0.465595 0.213027 0.132247
0.533835 0.218156 0.146983
0.599583 0.220380 0.159629
0.657893 0.224522 0.169229
0.716827 0.225820 0.176283
0.773003 0.236085 0.185794
0.827634 0.235746 0.190721
0.883095 0.235615 0.198164
0.022955 0.240828 0.095132
0.065056 0.243381 0.096091
0.110207 0.245899 0.096742
0.156728 0.247475 0.098147
0.207515 0.249342 0.101196
0.264468 0.251792 0.104040
0.325756 0.254498 0.109847
0.393793 0.259672 0.119903
0.462036 0.263886 0.132511
0.533054 0.265719 0.145599
0.597802 0.263440 0.156460
0.663629 0.275089 0.169976
0.722227 0.281736 0.180682
0.780568 0.288074 0.187192
0.832742 0.289804 0.193650
0.880039 0.283871 0.198929
0.026364 0.297679 0.097907
0.068373 0.298974 0.098473
0.111218 0.299306 0.099141
0.158136 0.301520 0.101183
0.207569 0.303061 0.103166
0.262618 0.306964 0.107466
0.324255 0.311599 0.110580
0.390847 0.313326 0.119807
0.462461 0.317547 0.132203
0.532543 0.322487 0.146644
0.604106 0.324283 0.162044
0.665876 0.328302 0.171781
0.725389 0.329771 0.179480
0.782360 0.338878 0.189978
0.838276 0.340591 0.195634
0.893087 0.341468 0.203369
0.022578 0.359258 0.102053
0.062514 0.359463 0.101840
0.105410 0.358648 0.102396
0.151726 0.362184 0.102396
0.201125 0.363253 0.105184
0.252066 0.367138 0.107500
0.315440 0.368371 0.111159
0.385248 0.367912 0.116957
0.457342 0.375655 0.132977
0.534458 0.384313 0.147411
0.604894 0.382041 0.158241
0.669340 0.390915 0.174844
0.728086 0.389695 0.181189
0.789312 0.396486 0.191016
0.842140 0.399254 0.198913
0.892728 0.392779 0.204535
0.016069 0.420237 0.103834
0.057354 0.420422 0.103972
0.097373 0.419778 0.104842
0.140646 0.422985 0.104622
0.186495 0.424595 0.105924
0.237162 0.430653 0.112400
0.301400 0.431701 0.112900
0.375134 0.434284 0.118163
0.449969 0.436573 0.130784
0.525989 0.441140 0.146520
0.604414 0.448331 0.160674
0.672492 0.451744 0.174083
0.736617 0.456705 0.184780
0.794389 0.459027 0.195483
0.849301 0.457499 0.202839
0.902283 0.455896 0.208835
0.004848 0.485996 0.110601
0.042677 0.485050 0.108401
0.080040 0.482309 0.106681
0.120127 0.485427 0.106764
0.162122 0.488031 0.108443
0.206002 0.493568 0.110858
0.278136 0.495349 0.113318
0.358274 0.493626 0.116600
0.439667 0.504007 0.129140
0.519469 0.505360 0.145068
0.601039 0.513490 0.158550
0.671704 0.515436 0.175194
0.736832 0.519925 0.185578
0.797092 0.517307 0.195754
0.852987 0.517691 0.204014
0.910118 0.515605 0.212775
0.000171 0.558058 0.119115
0.037956 0.555146 0.116391
0.075226 0.553981 0.114318
0.112908 0.554872 0.109522
0.150795 0.554615 0.108442
0.187723 0.556688 0.113119
0.253173 0.560183 0.115449
0.327874 0.559772 0.116477
0.416571 0.571866 0.125076
0.503383 0.573750 0.140580
0.594718 0.585125 0.160228
0.670156 0.585005 0.173864
0.736308 0.582898 0.188323
0.804277 0.585673 0.200451
0.861162 0.584525 0.208314
0.921039 0.583914 0.216361
0.000000 0.616194 0.121770
0.037733 0.618240 0.121643
0.075692 0.617527 0.118341
0.113250 0.623194 0.117258
0.150220 0.620508 0.112968
0.187723 0.621453 0.109676
0.230445 0.624643 0.111225
0.283520 0.628610 0.114904
0.384489 0.636902 0.122531
0.479637 0.634298 0.134817
0.576834 0.644340 0.150515
0.661046 0.645155 0.173145
0.738069 0.655420 0.188501
0.804928 0.654666 0.201568
0.866897 0.652192 0.210246
0.925741 0.650818 0.219866
0.000959 0.684266 0.127715
0.037723 0.680284 0.125128
0.075206 0.678503 0.123754
0.112634 0.684334 0.122164
0.150302 0.676163 0.117940
0.187723 0.684060 0.114181
0.225432 0.680346 0.109645
0.263278 0.688110 0.113119
0.334228 0.696264 0.116258
0.439130 0.699772 0.127197
0.549904 0.707563 0.144091
0.645464 0.709776 0.166025
0.727976 0.710455 0.184177
0.804969 0.719582 0.202452
0.869104 0.718736 0.211309
0.931901 0.715496 0.221865
0.000000 0.742709 0.130181
0.038059 0.740846 0.130061
0.075226 0.744128 0.129023
0.112654 0.749466 0.127242
0.150411 0.744351 0.122894
0.187860 0.745587 0.118567
0.225281 0.742360 0.112646
0.262977 0.743881 0.108659
0.305284 0.756859 0.110509
0.365235 0.756969 0.115459
0.498033 0.760560 0.130421
0.610037 0.765315 0.154644
0.710695 0.777526 0.177873
0.797884 0.780815 0.198587
0.867713 0.781490 0.213775
0.934733 0.780825 0.222639
0.000223 0.804562 0.136331
0.037836 0.800280 0.135221
0.075692 0.799937 0.132987
0.112826 0.802904 0.131363
0.151086 0.802455 0.128037
0.189642 0.808965 0.124974
0.225788 0.806094 0.118320
0.263086 0.802897 0.112639
0.300823 0.810565 0.105616
0.338313 0.814180 0.105510
0.402135 0.815029 0.113822
0.534221 0.824969 0.131004
0.667700 0.835918 0.162233
0.771444 0.842819 0.190115
0.859209 0.846128 0.210161
0.932236 0.839305 0.224972
0.000848 0.864322 0.151378
0.037905 0.853928 0.148277
0.075170 0.863000 0.149340
0.113553 0.866518 0.143737
0.150496 0.864112 0.138616
0.187725 0.857753 0.133592
0.225292 0.862089 0.126927
0.266751 0.873776 0.122528
0.302231 0.869748 0.121088
0.338139 0.867622 0.106672
0.380197 0.879417 0.100674
0.413894 0.884360 0.106602
0.534367 0.888139 0.123555
0.697342 0.890832 0.159618
0.815768 0.901527 0.193934
0.924122 0.910649 0.222591
0.003255 0.000171 0.129079
0.068945 0.002998 0.132351
0.125762 0.005311 0.134321
0.179580 0.005550 0.137336
0.234512 0.008205 0.140437
0.286567 0.012848 0.142270
0.330330 0.017113 0.144171
0.376388 0.022270 0.148128
0.425136 0.023983 0.152720
0.481559 0.030904 0.160600
0.538530 0.035632 0.168651
0.596237 0.042296 0.176857
0.651991 0.044574 0.185096
0.710572 0.051358 0.194381
0.766533 0.059392 0.202998
0.819184 0.062365 0.212785
0.006133 0.047121 0.131700
0.059040 0.048906 0.133215
0.114555 0.051945 0.135198
0.168819 0.053993 0.137597
0.224721 0.057019 0.140392
0.279269 0.062555 0.143006
0.332002 0.065598 0.146806
0.388089 0.069569 0.152504
0.447636 0.075441 0.162158
0.507957 0.081026 0.172286
0.567532 0.082889 0.183178
0.629374 0.092195 0.192014
0.687472 0.099064 0.200494
0.743066 0.100441 0.209388
0.796720 0.107366 0.216363
0.852293 0.112247 0.224846
0.011169 0.093145 0.134561
0.058352 0.095526 0.135030
0.110481 0.099257 0.136678
0.165602 0.100031 0.138761
0.220459 0.104448 0.141444
0.276357 0.107089 0.144257
0.335013 0.111355 0.148629
0.396383 0.116806 0.157023
0.455924 0.117922 0.166499
0.520987 0.123778 0.178254
0.584440 0.127098 0.187666
0.643874 0.131761 0.197619
0.701670 0.138788 0.206564
0.761724 0.144297 0.216432
0.812206 0.145503 0.222112
0.868250 0.150209 0.232100
0.018227 0.142715 0.136959
0.062881 0.143952 0.138141
0.109597 0.146128 0.138467
0.162333 0.148245 0.141235
0.217772 0.150119 0.142431
0.277522 0.153713 0.145936
0.338234 0.156656 0.150458
0.401790 0.162141 0.158612
0.469799 0.167616 0.171104
0.533314 0.170970 0.183352
0.596602 0.172557 0.194655
0.658976 0.182811 0.206458
0.718732 0.188296 0.215390
0.776786 0.195423 0.222763
0.828720 0.193148 0.228327
0.882722 0.195241 0.237155
0.025576 0.192868 0.140420
0.066577 0.193971 0.140259
0.111355 0.195530 0.141698
0.160130 0.198182 0.142993
0.215940 0.200361 0.145042
0.274318 0.202752 0.148334
0.336209 0.206552 0.153000
0.403958 0.212753 0.160555
0.468693 0.211314 0.171813
0.538090 0.219307 0.185206
0.603318 0.221168 0.197722
0.664218 0.229456 0.207692
0.723433 0.232892 0.216048
0.779910 0.234358 0.225669
0.833637 0.236883 0.231582
0.887102 0.237594 0.239472
0.031178 0.246139 0.144154
0.072491 0.247458 0.145182
0.115792 0.249393 0.145388
0.162313 0.250969 0.146792
0.212551 0.254207 0.147957
0.271149 0.252306 0.151349
0.332951 0.259055 0.154141
0.400474 0.263543 0.161696
0.470361 0.264605 0.173071
0.539118 0.272160 0.185781
0.606709 0.272862 0.199829
0.666849 0.278687 0.211323
0.729148 0.287389 0.220351
0.782007 0.284408 0.225764
0.838121 0.289359 0.232120
0.896914 0.293879 0.242569
0.034895 0.300934 0.148437
0.075342 0.303140 0.148851
0.117481 0.304747 0.148416
0.162782 0.307234 0.149197
0.211852 0.308221 0.150475
0.265702 0.311212 0.152480
0.328949 0.314963 0.157102
0.398322 0.320624 0.162052
0.468675 0.323638 0.173489
0.539457 0.326386 0.186498
0.608594 0.328154 0.199246
0.670234 0.336202 0.211217
0.729535 0.334198 0.219375
0.785382 0.339083 0.230475
0.845039 0.343325 0.236433
0.900982 0.348116 0.245159
0.025970 0.362273 0.151520
0.065803 0.362882 0.151472
0.108693 0.367494 0.151877
0.152541 0.365959 0.151356
0.201728 0.368248 0.152164
0.256657 0.370016 0.153987
0.320449 0.374237 0.157228
0.392628 0.378780 0.163142
