example_ofxGpuLutCube/bin/data/ofxGpuLutCube/LUT/T30 (deep dark warm).cube
LUT_3D_SIZE 6
0.000000 0.000000 0.000000
0.130792 0.000000 0.001884
0.284711 0.002056 0.011563
0.458929 0.010278 0.038030
0.647366 0.031178 0.071435
0.823362 0.066552 0.097548
0.005996 0.131991 0.002741
0.146655 0.136822 0.005790
0.317310 0.144308 0.026501
0.517550 0.158732 0.063246
0.700403 0.168583 0.094561
0.862000 0.191861 0.116784
0.020814 0.292591 0.010878
0.151623 0.295263 0.012985
0.313850 0.302544 0.029448
0.522775 0.312908 0.067769
0.718732 0.324899 0.103092
0.884226 0.337766 0.124659
0.007195 0.478801 0.024411
0.120600 0.479263 0.021328
0.270355 0.487949 0.028694
0.512942 0.503092 0.066193
0.729799 0.505885 0.107152
0.905823 0.519232 0.136274
0.000857 0.676317 0.044197
0.112702 0.680017 0.039024
0.225319 0.676060 0.023606
0.424788 0.687932 0.047195
0.726133 0.714689 0.109876
0.926321 0.706859 0.146038
0.000000 0.845854 0.058197
0.112803 0.844951 0.051571
0.228151 0.864191 0.047387
0.337901 0.867280 0.028197
0.528643 0.881407 0.044996
0.917390 0.903785 0.145425
0.003255 0.000171 0.129079
0.179580 0.005550 0.137336
0.330330 0.017113 0.144171
0.481559 0.030904 0.160600
0.651991 0.044574 0.185096
0.819184 0.062365 0.212785
0.018227 0.142715 0.136959
0.162333 0.148245 0.141235
0.338234 0.156656 0.150458
0.533314 0.170970 0.183352
0.718732 0.188296 0.215390
0.882722 0.195241 0.237155
0.034895 0.300934 0.148437
0.162782 0.307234 0.149197
0.328949 0.314963 0.157102
0.539457 0.326386 0.186498
0.729535 0.334198 0.219375
0.900982 0.348116 0.245159
0.004985 0.490587 0.156917
0.120216 0.493485 0.155861
0.285112 0.500995 0.160558
0.528829 0.513884 0.183606
0.744685 0.526352 0.227049
0.917299 0.521015 0.250776
0.000000 0.684505 0.170946
0.112654 0.683272 0.168288
0.225638 0.686129 0.156509
0.448442 0.704164 0.164982
0.734122 0.720952 0.224531
0.937017 0.720117 0.262396
0.001189 0.867077 0.205335
0.113007 0.866372 0.198340
0.225697 0.865166 0.176362
0.338648 0.874704 0.148606
0.542511 0.882599 0.158865
0.927077 0.914788 0.261528
0.014304 0.005910 0.284026
0.196934 0.016548 0.285790
0.372146 0.027683 0.291683
0.528154 0.046561 0.296771
0.680257 0.069653 0.309670
0.842104 0.085953 0.331337
0.035512 0.159212 0.296514
0.180437 0.162248 0.298436
0.361384 0.175013 0.302458
0.545631 0.191123 0.307704
0.718242 0.204084 0.326842
0.883029 0.214640 0.349175
0.050604 0.322056 0.310767
0.177220 0.325560 0.312692
0.351760 0.335387 0.316526
0.562809 0.348063 0.321127
0.753107 0.362936 0.342856
0.910659 0.360606 0.362023
0.004574 0.505713 0.327298
0.125913 0.510424 0.327599
0.312853 0.522326 0.325890
0.555676 0.538936 0.331889
0.763546 0.547234 0.347399
0.932878 0.550630 0.374482
0.000051 0.697028 0.340848
0.113682 0.701632 0.337823
0.225514 0.703788 0.332896
0.486102 0.722114 0.331649
0.760641 0.740940 0.350013
0.951138 0.741130 0.382450
0.000001 0.880500 0.367889
0.112652 0.876302 0.365007
0.225277 0.880841 0.353979
0.338110 0.886513 0.323695
0.577685 0.909372 0.307515
0.946205 0.930725 0.382508
0.036317 0.021670 0.445825
0.215589 0.034295 0.450878
0.390253 0.044420 0.454595
0.571066 0.063503 0.450518
0.719863 0.087589 0.446099
0.862333 0.107766 0.453796
0.061225 0.181550 0.470458
0.206362 0.187879 0.480596
0.386991 0.196680 0.485238
0.580546 0.212002 0.479071
0.745031 0.235131 0.464685
0.902649 0.262420 0.472142
0.064702 0.354655 0.495400
0.200925 0.353607 0.499467
0.383853 0.362295 0.510558
0.588526 0.381496 0.508594
0.766280 0.395409 0.484074
0.931747 0.404414 0.484547
0.048600 0.538381 0.514638
0.182325 0.542650 0.518510
0.366359 0.553538 0.528750
0.583106 0.566328 0.535191
0.785110 0.578563 0.505377
0.954538 0.587450 0.496124
0.000000 0.720308 0.528000
0.112901 0.721860 0.529333
0.250292 0.729394 0.536987
0.532797 0.746426 0.548293
0.781821 0.763207 0.528737
0.971096 0.768416 0.503950
0.000004 0.885808 0.532077
0.113414 0.891673 0.532526
0.225268 0.898326 0.525864
0.337928 0.906071 0.526148
0.610175 0.930651 0.519994
0.971945 0.956565 0.507733
0.070064 0.048651 0.610707
0.244882 0.061156 0.625507
0.412557 0.073370 0.636351
0.585233 0.087555 0.634159
0.760051 0.103743 0.613756
0.904343 0.157076 0.599746
0.098535 0.216720 0.650176
0.253098 0.226690 0.670102
0.427635 0.237564 0.681799
0.606071 0.251128 0.680421
0.776867 0.266015 0.655068
0.926170 0.300142 0.620096
0.108317 0.380574 0.678630
0.255774 0.395820 0.690902
0.428454 0.403923 0.705148
0.616343 0.414246 0.713710
0.789574 0.424572 0.692958
0.952023 0.460482 0.635312
0.129405 0.582767 0.704719
0.256757 0.581382 0.711976
0.425525 0.587861 0.723639
0.615726 0.596180 0.737117
0.802707 0.606712 0.730696
0.971793 0.625889 0.653925
0.109499 0.746792 0.719520
0.243183 0.756098 0.726715
0.406232 0.762772 0.738021
0.597067 0.775870 0.754261
0.802549 0.789406 0.759791
0.986152 0.802508 0.683143
0.000000 0.914697 0.700422
0.113253 0.916055 0.704566
0.225328 0.924048 0.714981
0.377282 0.930407 0.731599
0.702423 0.955287 0.760806
0.985191 0.972520 0.711144
0.111255 0.078715 0.780582
0.282967 0.094866 0.792282
0.442072 0.109806 0.805898
0.607441 0.129218 0.819104
0.769995 0.138323 0.812229
0.912680 0.142143 0.772011
0.175696 0.285880 0.848629
0.317607 0.282081 0.855518
0.479165 0.290353 0.870548
0.640129 0.295273 0.878988
0.800728 0.302066 0.874122
0.951867 0.323001 0.824921
0.205751 0.456818 0.876208
0.331487 0.452071 0.878950
0.488848 0.462280 0.893421
0.653187 0.469096 0.902833
0.810097 0.469811 0.904377
0.965433 0.495785 0.869845
0.248648 0.639019 0.906774
0.371947 0.640097 0.909142
0.506205 0.639922 0.915936
0.660461 0.641671 0.926337
0.825667 0.649490 0.932522
0.976192 0.655285 0.908161
0.286591 0.811850 0.937063
0.405386 0.812886 0.937439
0.533108 0.815863 0.944637
0.675304 0.821740 0.954676
0.833317 0.826917 0.961434
0.987267 0.827022 0.945183
0.286657 0.968917 0.948294
0.403134 0.972186 0.951332
0.533967 0.977268 0.956007
0.672306 0.979491 0.963451
0.823363 0.988133 0.976363
0.998068 0.998072 0.992526
