example_ofxGpuLutCube/bin/data/ofxGpuLutCube/LUT/T32 (smooth teal orange fade).cube
LUT_3D_SIZE 16
0.213654 0.178894 0.173828
0.217536 0.181327 0.175862
0.222746 0.182585 0.176522
0.230462 0.184137 0.177240
0.246242 0.186216 0.178300
0.295817 0.187551 0.179189
0.371759 0.188269 0.179700
0.430033 0.189797 0.180511
0.480745 0.191939 0.181966
0.530828 0.194592 0.183789
0.581686 0.198008 0.185933
0.632131 0.202079 0.188257
0.684393 0.206787 0.190619
0.718272 0.210634 0.192177
0.720551 0.210968 0.192291
0.720551 0.210968 0.192291
0.216176 0.182738 0.175956
0.217398 0.182803 0.176003
0.222493 0.183958 0.176722
0.230057 0.185091 0.177312
0.245409 0.186782 0.178394
0.294191 0.187817 0.179225
0.370568 0.188419 0.179712
0.429249 0.189857 0.180497
0.479839 0.191956 0.181940
0.529762 0.194548 0.183724
0.580527 0.197928 0.185851
0.631008 0.201975 0.188204
0.683381 0.206660 0.190565
0.718105 0.210606 0.192169
0.720551 0.210968 0.192291
0.720551 0.210968 0.192291
0.218400 0.187653 0.177592
0.218618 0.187641 0.177587
0.222453 0.187928 0.177474
0.229652 0.189148 0.177982
0.244933 0.190820 0.178987
0.293905 0.191791 0.179771
0.374034 0.192222 0.180173
0.440580 0.193548 0.181019
0.493586 0.195687 0.182469
0.545417 0.198310 0.184179
0.597337 0.201745 0.186197
0.647651 0.205999 0.188396
0.697820 0.210941 0.190727
0.731421 0.214889 0.192409
0.731093 0.214133 0.192494
0.728524 0.213207 0.192428
0.220923 0.194684 0.179382
0.220926 0.194669 0.179376
0.223371 0.194825 0.179274
0.230101 0.195541 0.179251
0.246728 0.197745 0.180081
0.303263 0.200041 0.180648
0.394683 0.201793 0.181083
0.478850 0.205900 0.182164
0.544510 0.210989 0.183890
0.606787 0.217324 0.185909
0.668217 0.225244 0.188017
0.724998 0.234719 0.190253
0.779091 0.246289 0.192617
0.817513 0.256035 0.194538
0.815548 0.253524 0.194572
0.808895 0.249749 0.194410
0.224748 0.209517 0.182206
0.224715 0.209411 0.182204
0.225418 0.209305 0.182141
0.232684 0.211213 0.181881
0.253416 0.215396 0.181498
0.329167 0.226497 0.181523
0.444494 0.237189 0.182192
0.556112 0.249616 0.184067
0.643177 0.263947 0.186304
0.714613 0.277913 0.188572
0.777110 0.291472 0.190707
0.830474 0.306223 0.192776
0.875078 0.322197 0.194776
0.908326 0.336828 0.196821
0.908632 0.334566 0.196955
0.904688 0.329966 0.196813
0.231710 0.250133 0.185700
0.231672 0.249919 0.185696
0.231630 0.249314 0.185640
0.238865 0.253945 0.185384
0.273579 0.268589 0.184201
0.373121 0.287723 0.182353
0.521965 0.312624 0.183673
0.656760 0.335144 0.186674
0.747145 0.353365 0.189249
0.814577 0.369714 0.191335
0.865591 0.384582 0.193210
0.905322 0.399557 0.195040
0.935288 0.415330 0.197156
0.956823 0.432188 0.199620
0.958990 0.431808 0.199899
0.957476 0.427126 0.199748
0.243408 0.313269 0.190155
0.243342 0.313030 0.190130
0.243188 0.312378 0.190068
0.248459 0.316571 0.189880
0.304859 0.345914 0.188431
0.443687 0.375824 0.185935
0.605309 0.397703 0.186658
0.732786 0.422119 0.189877
0.812940 0.442823 0.192530
0.871111 0.461744 0.194369
0.911979 0.479671 0.196611
0.942158 0.497328 0.198909
0.962855 0.515229 0.202095
0.976069 0.533877 0.205842
0.979001 0.537725 0.207117
0.978628 0.533323 0.206595
0.261883 0.379429 0.196737
0.261811 0.379234 0.196727
0.261503 0.378451 0.196621
0.264518 0.380557 0.196459
0.341196 0.422332 0.195465
0.523769 0.468397 0.193595
0.683021 0.493742 0.194381
0.779421 0.508948 0.194960
0.848870 0.532186 0.197832
0.900000 0.553604 0.201246
0.934612 0.572441 0.204952
0.957070 0.589483 0.208693
0.972031 0.606988 0.213248
0.981637 0.624602 0.218965
0.984964 0.632203 0.222738
0.984903 0.628769 0.221886
0.300024 0.461216 0.208226
0.299841 0.460892 0.208129
0.299225 0.459827 0.207926
0.298678 0.458387 0.207558
0.389754 0.505003 0.206731
0.597392 0.560649 0.205603
0.736186 0.582867 0.205749
0.816898 0.597738 0.206209
0.868187 0.607947 0.206332
0.912896 0.628226 0.210771
0.944006 0.646064 0.215163
0.963130 0.661821 0.221119
0.975646 0.677577 0.227202
0.983987 0.694467 0.235703
0.987747 0.705246 0.243014
0.987710 0.702381 0.241950
0.375336 0.566706 0.228150
0.375024 0.566335 0.228062
0.373884 0.565019 0.227697
0.371991 0.562815 0.227118
0.448920 0.593235 0.225357
0.655502 0.643366 0.221496
0.772223 0.657519 0.219951
0.838823 0.670964 0.220461
0.884750 0.680763 0.220543
0.921970 0.689610 0.220795
0.950312 0.705870 0.226658
0.967212 0.721193 0.235739
0.978254 0.736359 0.245376
0.985816 0.752641 0.259826
0.989731 0.764833 0.272010
0.989839 0.763167 0.271753
0.493103 0.682027 0.264231
0.492737 0.681688 0.264104
0.491450 0.680495 0.263503
0.489209 0.678457 0.262521
0.527584 0.688475 0.260178
0.701955 0.726708 0.252540
0.797440 0.731136 0.247255
0.854752 0.740172 0.245884
0.897185 0.748795 0.245421
0.931602 0.755692 0.245048
0.955668 0.761407 0.245436
0.970512 0.774349 0.256275
0.980526 0.788853 0.270563
0.987459 0.804765 0.290912
0.991449 0.817766 0.307388
0.991782 0.817731 0.308298
0.604156 0.780137 0.318492
0.603892 0.779868 0.318309
0.602931 0.779027 0.317674
0.601325 0.777560 0.316608
0.609865 0.778365 0.314882
0.733980 0.804545 0.308332
0.820138 0.807510 0.299764
0.869250 0.808869 0.295091
0.908450 0.814809 0.292739
0.940261 0.820581 0.291399
0.961370 0.824340 0.289525
0.973649 0.827132 0.288919
0.982630 0.838842 0.304701
0.989048 0.853254 0.328166
0.992963 0.866144 0.350853
0.993535 0.867547 0.354920
0.688641 0.858679 0.388934
0.688423 0.858522 0.388768
0.687741 0.857883 0.388046
0.686592 0.856876 0.386889
0.686309 0.855733 0.385227
0.757283 0.868833 0.380593
0.839372 0.876836 0.372300
0.885973 0.875347 0.365052
0.919923 0.875563 0.360390
0.947869 0.879204 0.357286
0.966429 0.882308 0.354106
0.977395 0.883920 0.350723
0.984614 0.885906 0.350033
0.990439 0.896349 0.370884
0.994213 0.907414 0.398121
0.995038 0.910004 0.406308
0.750950 0.918827 0.467261
0.750795 0.918668 0.467061
0.750372 0.918257 0.466451
0.749610 0.917577 0.465434
0.748603 0.916660 0.464007
0.779544 0.920923 0.460472
0.852489 0.929361 0.452575
0.901723 0.930394 0.444618
0.932782 0.927171 0.438178
0.954935 0.926014 0.433550
0.970428 0.927525 0.429242
0.980345 0.928846 0.424745
0.986896 0.929632 0.420430
0.991701 0.931075 0.418645
0.995152 0.938686 0.443195
0.996093 0.942420 0.457279
0.795066 0.960366 0.541563
0.794989 0.960285 0.541443
0.794732 0.960094 0.540945
0.794273 0.959710 0.540117
0.793699 0.959203 0.538942
0.801674 0.959700 0.537104
0.860827 0.965056 0.530341
0.910957 0.967365 0.522251
0.944134 0.965440 0.515295
0.962207 0.960165 0.509669
0.974121 0.958646 0.504727
0.982552 0.959037 0.499821
0.988603 0.959434 0.494976
0.993069 0.959824 0.490488
0.995764 0.960245 0.487629
0.996682 0.963689 0.504843
0.814379 0.975620 0.576224
0.814379 0.975620 0.576223
0.814378 0.975619 0.576220
0.814375 0.975617 0.576214
0.814371 0.975614 0.576206
0.814395 0.975614 0.576197
0.857393 0.978825 0.573096
0.908719 0.981448 0.567350
0.944719 0.981275 0.561906
0.964571 0.976821 0.557167
0.975099 0.972872 0.552911
0.982733 0.972239 0.549219
0.988602 0.972517 0.545736
0.993172 0.972951 0.542911
0.995772 0.973302 0.540157
0.996490 0.973359 0.538028
0.215731 0.181144 0.177262
0.217626 0.181468 0.177318
0.222777 0.182670 0.177975
0.230538 0.184242 0.178583
0.246266 0.186275 0.179535
0.295464 0.187656 0.180298
0.371126 0.188370 0.180762
0.429660 0.189840 0.181571
0.480748 0.192046 0.182994
0.531088 0.194729 0.184809
0.582420 0.198160 0.186948
0.633263 0.202282 0.189296
0.685807 0.207052 0.191700
0.719835 0.210959 0.193292
0.722075 0.211292 0.193398
0.722018 0.211292 0.193367
0.216250 0.182796 0.177396
0.217442 0.182879 0.177389
0.222196 0.184157 0.178284
0.229813 0.185407 0.178893
0.245048 0.186968 0.179705
0.293471 0.188009 0.180353
0.369799 0.188560 0.180755
0.428967 0.189936 0.181508
0.479886 0.192033 0.182894
0.530001 0.194674 0.184681
0.581230 0.198081 0.186818
0.632070 0.202135 0.189156
0.684648 0.206908 0.191550
0.719535 0.210925 0.193206
0.721910 0.211288 0.193295
0.721905 0.211261 0.193268
0.218396 0.187705 0.178586
0.218588 0.187627 0.178582
0.222152 0.187711 0.178585
0.229340 0.189228 0.179194
0.244119 0.191049 0.180180
0.292129 0.192147 0.180913
0.372982 0.192610 0.181321
0.441219 0.193964 0.182092
0.495024 0.196205 0.183521
0.547555 0.198877 0.185217
0.600377 0.202445 0.187217
0.651538 0.206885 0.189428
0.701707 0.211975 0.191731
0.734337 0.215800 0.193341
0.733714 0.214955 0.193348
0.730778 0.213873 0.193237
0.220895 0.194723 0.179813
0.220913 0.194665 0.179801
0.223322 0.194679 0.179771
0.229869 0.195371 0.179767
0.246206 0.197723 0.180586
0.302307 0.200162 0.181146
0.394206 0.201984 0.181532
0.479156 0.206178 0.182625
0.545266 0.211467 0.184375
0.607949 0.217939 0.186382
0.669807 0.226068 0.188501
0.726904 0.235728 0.190740
0.781096 0.247472 0.193099
0.819479 0.257245 0.195035
0.817392 0.254657 0.195042
0.810716 0.250783 0.194837
0.224705 0.209518 0.182366
0.224687 0.209397 0.182362
0.225384 0.209260 0.182310
0.232577 0.211068 0.182065
0.253024 0.215193 0.181682
0.328413 0.226397 0.181718
0.443937 0.237235 0.182377
0.556045 0.249775 0.184250
0.643322 0.264178 0.186485
0.714827 0.278218 0.188742
0.777512 0.291873 0.190887
0.830960 0.306672 0.192949
0.875564 0.322692 0.194982
0.908799 0.337330 0.197023
0.909116 0.335057 0.197150
0.905163 0.330438 0.197004
0.231698 0.250058 0.185736
0.231649 0.249861 0.185715
0.231621 0.249231 0.185676
0.238813 0.253794 0.185429
0.273295 0.268395 0.184250
0.372646 0.287493 0.182399
0.521468 0.312446 0.183715
0.656486 0.335036 0.186711
0.746944 0.353286 0.189265
0.814437 0.369629 0.191370
0.865510 0.384526 0.193254
0.905300 0.399502 0.195076
0.935261 0.415288 0.197179
0.956780 0.432137 0.199637
0.958974 0.431732 0.199940
0.957460 0.427032 0.199781
0.243375 0.313152 0.190130
0.243336 0.312963 0.190121
0.243148 0.312253 0.190068
0.248395 0.316457 0.189859
0.304656 0.345744 0.188416
0.443370 0.375663 0.185929
0.605019 0.397526 0.186652
0.732595 0.421959 0.189847
0.812808 0.442624 0.192506
0.870977 0.461529 0.194369
0.911893 0.479463 0.196606
0.942086 0.497157 0.198906
0.962785 0.515004 0.202073
0.976011 0.533698 0.205824
0.978999 0.537549 0.207091
0.978592 0.533136 0.206567
0.261845 0.379319 0.196731
0.261746 0.379099 0.196694
0.261446 0.378332 0.196616
0.264435 0.380423 0.196437
0.340911 0.422116 0.195458
0.523411 0.468188 0.193589
0.682788 0.493555 0.194376
0.779270 0.508791 0.194927
0.848761 0.532008 0.197827
0.899902 0.553453 0.201241
0.934558 0.572262 0.204940
0.957032 0.589319 0.208661
0.971998 0.606838 0.213240
0.981635 0.624455 0.218927
0.984963 0.632062 0.222703
0.984897 0.628651 0.221847
0.299939 0.461033 0.208161
0.299752 0.460712 0.208116
0.299111 0.459655 0.207899
0.298569 0.458233 0.207538
0.389359 0.504707 0.206694
0.597045 0.560485 0.205596
0.735974 0.582668 0.205712
0.816729 0.597568 0.206172
0.868110 0.607830 0.206304
0.912832 0.628087 0.210759
0.943968 0.645917 0.215137
0.963125 0.661695 0.221083
0.975628 0.677460 0.227194
0.983964 0.694326 0.235670
0.987747 0.705132 0.242975
0.987682 0.702279 0.241915
0.375154 0.566487 0.228110
0.374859 0.566125 0.227994
0.373709 0.564820 0.227655
0.371816 0.562589 0.227046
0.448512 0.592969 0.225303
0.655227 0.643192 0.221451
0.772049 0.657369 0.219907
0.838723 0.670847 0.220427
0.884680 0.680607 0.220513
0.921909 0.689518 0.220759
0.950281 0.705739 0.226619
0.967173 0.721056 0.235697
0.978250 0.736247 0.245319
0.985813 0.752538 0.259788
0.989731 0.764727 0.271966
0.989839 0.763121 0.271739
0.492916 0.681827 0.264176
0.492527 0.681487 0.264003
0.491215 0.680286 0.263424
0.489037 0.678294 0.262458
0.527281 0.688280 0.260096
0.701703 0.726552 0.252455
0.797316 0.731004 0.247140
0.854658 0.740055 0.245828
0.897143 0.748663 0.245339
0.931547 0.755581 0.244991
0.955644 0.761312 0.245383
0.970496 0.774248 0.256206
0.980513 0.788750 0.270485
0.987451 0.804662 0.290869
0.991447 0.817643 0.307302
0.991782 0.817659 0.308251
0.604026 0.780007 0.318425
0.603725 0.779742 0.318228
0.602787 0.778900 0.317594
0.601177 0.777434 0.316504
0.609658 0.778206 0.314781
0.733773 0.804432 0.308235
0.820059 0.807414 0.299670
0.869161 0.808775 0.295040
0.908396 0.814733 0.292660
0.940198 0.820473 0.291305
0.961365 0.824242 0.289413
0.973649 0.827035 0.288831
0.982629 0.838739 0.304614
0.989048 0.853150 0.328092
0.992948 0.866044 0.350744
0.993535 0.867472 0.354875
0.688505 0.858589 0.388849
0.688301 0.858397 0.388627
0.687641 0.857811 0.387935
0.686504 0.856762 0.386775
0.686177 0.855634 0.385159
0.757140 0.868730 0.380468
0.839305 0.876755 0.372186
0.885900 0.875272 0.364993
0.919868 0.875486 0.360295
0.947830 0.879135 0.357192
0.966403 0.882228 0.354024
0.977392 0.883855 0.350594
0.984613 0.885826 0.349909
0.990438 0.896281 0.370816
0.994203 0.907376 0.398004
0.995034 0.909964 0.406216
0.750868 0.918732 0.467157
0.750726 0.918610 0.466991
0.750306 0.918203 0.466344
0.749553 0.917534 0.465319
0.748529 0.916611 0.463928
0.779413 0.920838 0.460380
0.852399 0.929325 0.452477
0.901677 0.930356 0.444521
0.932742 0.927125 0.438111
0.954901 0.925962 0.433435
0.970400 0.927458 0.429111
0.980344 0.928795 0.424658
0.986895 0.929588 0.420339
0.991701 0.931048 0.418595
0.995151 0.938656 0.443151
0.996093 0.942405 0.457227
0.795051 0.960322 0.541516
0.794935 0.960277 0.541369
0.794712 0.960059 0.540878
0.794246 0.959689 0.540046
0.793646 0.959197 0.538895
0.801613 0.959656 0.537004
0.860733 0.965046 0.530265
0.910914 0.967352 0.522160
0.944123 0.965432 0.515201
0.962199 0.960153 0.509631
0.974099 0.958629 0.504659
0.982548 0.959002 0.499746
0.988600 0.959418 0.494891
0.993069 0.959786 0.490410
0.995764 0.960237 0.487582
0.996682 0.963662 0.504829
0.814379 0.975620 0.576223
0.814379 0.975620 0.576222
0.814377 0.975619 0.576219
0.814374 0.975617 0.576214
0.814371 0.975614 0.576206
0.814395 0.975614 0.576196
0.857378 0.978824 0.573099
0.908689 0.981448 0.567356
0.944685 0.981274 0.561909
0.964547 0.976821 0.557168
0.975095 0.972872 0.552915
0.982733 0.972235 0.549218
0.988602 0.972517 0.545738
0.993172 0.972951 0.542910
0.995772 0.973302 0.540157
0.996490 0.973359 0.538028
0.216652 0.182400 0.181866
0.218322 0.182532 0.181753
0.222896 0.182981 0.181736
0.230672 0.184492 0.182269
0.245679 0.186564 0.183154
0.293337 0.187964 0.183869
0.368667 0.188688 0.184321
0.428107 0.190110 0.185113
0.480276 0.192386 0.186536
0.531688 0.195247 0.188429
0.584991 0.198859 0.190848
0.637773 0.203237 0.193470
0.691383 0.208299 0.196174
0.726124 0.212561 0.198114
0.728422 0.212915 0.198240
0.728370 0.212915 0.198202
0.217062 0.183929 0.181987
0.218367 0.184086 0.181634
0.222286 0.184374 0.181624
0.229894 0.185610 0.182452
0.244561 0.187180 0.183266
0.291351 0.188312 0.183925
0.367296 0.188864 0.184317
0.427404 0.190200 0.185059
0.479362 0.192390 0.186475
0.530554 0.195155 0.188314
0.583708 0.198744 0.190688
0.636504 0.203098 0.193330
0.690184 0.208140 0.196027
0.725819 0.212513 0.197979
0.728302 0.212878 0.198099
0.728280 0.212870 0.198084
0.218345 0.188001 0.182514
0.218561 0.187913 0.182429
0.222216 0.188018 0.182127
0.228554 0.189702 0.183209
0.242263 0.191918 0.184575
0.286518 0.193442 0.185520
0.369200 0.194071 0.185916
0.443017 0.195521 0.186684
0.499268 0.198030 0.188134
0.553662 0.201053 0.189823
0.609138 0.205009 0.191977
0.662064 0.209862 0.194405
0.712846 0.215712 0.196999
0.745498 0.219745 0.198812
0.743896 0.218483 0.198678
0.739926 0.216909 0.198402
0.220686 0.195117 0.183984
0.220697 0.195046 0.183971
0.223150 0.194234 0.183749
0.228523 0.194611 0.183852
0.243334 0.197907 0.185192
0.295401 0.201837 0.186152
0.389809 0.205192 0.186799
0.484773 0.210939 0.188177
0.557994 0.218727 0.190322
0.626140 0.227546 0.192654
0.693827 0.238557 0.195367
0.755679 0.251495 0.198272
0.811443 0.266015 0.201459
0.849659 0.277917 0.204089
0.847577 0.274575 0.203998
0.840868 0.269651 0.203644
0.224428 0.210611 0.186196
0.224426 0.210482 0.186179
0.225158 0.209798 0.186203
0.231429 0.209337 0.186265
0.247411 0.212914 0.185992
0.315909 0.226284 0.186434
0.435555 0.241581 0.187167
0.560309 0.258438 0.189399
0.655102 0.276365 0.192156
0.729986 0.292215 0.194849
0.795094 0.308505 0.197423
0.849547 0.325790 0.200217
0.893810 0.343616 0.203172
0.925053 0.359941 0.206218
0.925707 0.357512 0.206282
0.922192 0.352593 0.205990
0.231416 0.252627 0.189331
0.231380 0.252436 0.189322
0.231351 0.251676 0.189266
0.237854 0.252511 0.189675
0.266476 0.265423 0.188620
0.353600 0.283233 0.186716
0.505436 0.313353 0.188049
0.653867 0.341262 0.191675
0.750800 0.362789 0.194638
0.820192 0.381653 0.197381
0.872258 0.398439 0.199624
0.912490 0.415532 0.202189
0.941911 0.433739 0.205226
0.961883 0.452989 0.208937
0.963992 0.452791 0.209300
0.962788 0.447826 0.208875
0.242831 0.315826 0.193709
0.242788 0.315594 0.193673
0.242621 0.314910 0.193588
0.247523 0.317629 0.193877
0.300001 0.345420 0.192647
0.430371 0.374296 0.189944
0.587317 0.395730 0.190289
0.727456 0.425807 0.194409
0.812169 0.449829 0.197425
0.871875 0.471671 0.200141
0.913768 0.491966 0.202896
0.944185 0.511474 0.206045
0.964671 0.530867 0.210537
0.977403 0.551351 0.216128
0.980268 0.555664 0.217789
0.979914 0.550956 0.216970
0.260877 0.380932 0.200052
0.260783 0.380723 0.200009
0.260514 0.379931 0.199888
0.263432 0.381952 0.199942
0.337711 0.423894 0.199437
0.517442 0.470160 0.197137
0.676975 0.494846 0.197591
0.774795 0.510427 0.198127
0.847131 0.536652 0.201739
0.899166 0.559560 0.205592
0.934115 0.579787 0.210287
0.957018 0.597874 0.214740
0.972204 0.616033 0.220291
0.981900 0.634547 0.227930
0.985277 0.642388 0.232017
0.985179 0.638841 0.230914
0.297783 0.462657 0.211759
0.297606 0.462328 0.211675
0.297033 0.461257 0.211398
0.296483 0.459770 0.210969
0.387021 0.507813 0.211234
0.594510 0.564389 0.209183
0.733296 0.585312 0.208938
0.814779 0.600095 0.209268
0.866206 0.610242 0.209354
0.911702 0.631591 0.214183
0.943392 0.650299 0.219793
0.962917 0.666725 0.226632
0.975677 0.682962 0.233558
0.984141 0.700350 0.243681
0.987952 0.711324 0.251650
0.987933 0.708436 0.250396
0.372628 0.568002 0.231769
0.372335 0.567633 0.231626
0.371215 0.566311 0.231257
0.369311 0.564022 0.230569
0.446099 0.595234 0.229584
0.653743 0.646516 0.225029
0.770538 0.659716 0.222975
0.837664 0.672872 0.223330
0.883679 0.682605 0.223370
0.920991 0.691441 0.223666
0.949829 0.708106 0.229989
0.967070 0.723813 0.240095
0.978276 0.739302 0.250637
0.985903 0.755701 0.265445
0.989879 0.768022 0.278378
0.989996 0.766371 0.277979
0.490555 0.682734 0.267049
0.490182 0.682384 0.266864
0.488922 0.681216 0.266296
0.486695 0.679158 0.265266
0.525134 0.689506 0.263407
0.700603 0.728643 0.255837
0.796589 0.732777 0.250027
0.854031 0.741426 0.248525
0.896572 0.749932 0.247972
0.931099 0.756784 0.247612
0.955345 0.762478 0.247920
0.970397 0.775601 0.259148
0.980519 0.790310 0.274197
0.987504 0.806243 0.294342
0.991503 0.819252 0.311616
0.991882 0.819249 0.312570
0.602917 0.780042 0.319271
0.602641 0.779801 0.319103
0.601710 0.778950 0.318452
0.600094 0.777481 0.317355
0.608519 0.778285 0.315749
0.732970 0.804746 0.309405
0.819614 0.807839 0.300692
0.868816 0.809029 0.295904
0.908139 0.814928 0.293482
0.939996 0.820641 0.292087
0.961239 0.824382 0.290182
0.973589 0.827184 0.289566
0.982598 0.838953 0.305589
0.989021 0.853361 0.328945
0.992957 0.866207 0.351769
0.993560 0.867646 0.355872
0.688180 0.858266 0.388477
0.687952 0.858090 0.388268
0.687283 0.857487 0.387587
0.686121 0.856444 0.386402
0.685814 0.855312 0.384770
0.756585 0.868389 0.380122
0.838986 0.876509 0.371863
0.885642 0.874972 0.364618
0.919687 0.875226 0.359934
0.947693 0.878898 0.356855
0.966329 0.881995 0.353676
0.977340 0.883628 0.350280
0.984604 0.885615 0.349598
0.990424 0.896077 0.370514
0.994203 0.907172 0.397732
0.995007 0.909791 0.405986
0.750626 0.918513 0.466834
0.750507 0.918409 0.466621
0.750069 0.918003 0.466017
0.749311 0.917323 0.465006
0.748316 0.916404 0.463623
0.779001 0.920604 0.460077
0.852143 0.929175 0.452204
0.901457 0.930161 0.444220
0.932559 0.926970 0.437804
0.954772 0.925817 0.433153
0.970342 0.927310 0.428861
0.980296 0.928643 0.424370
0.986884 0.929472 0.420034
0.991698 0.930909 0.418273
0.995128 0.938541 0.442866
0.996093 0.942324 0.457044
0.794885 0.960218 0.541241
0.794808 0.960148 0.541094
0.794551 0.959927 0.540622
0.794111 0.959567 0.539788
0.793519 0.959069 0.538639
0.801368 0.959526 0.536763
0.860505 0.964930 0.530020
0.910704 0.967229 0.521896
0.943957 0.965335 0.514947
0.962102 0.960082 0.509346
0.974060 0.958534 0.504378
0.982514 0.958913 0.499479
0.988570 0.959357 0.494656
0.993052 0.959709 0.490135
0.995764 0.960167 0.487326
0.996682 0.963611 0.504659
0.814378 0.975620 0.576222
0.814378 0.975619 0.576221
0.814377 0.975618 0.576218
0.814374 0.975616 0.576212
0.814370 0.975614 0.576205
0.814393 0.975613 0.576194
0.857182 0.978819 0.573124
0.908598 0.981448 0.567415
0.944604 0.981282 0.561932
0.964509 0.976827 0.557177
0.975070 0.972882 0.552939
0.982732 0.972216 0.549217
0.988601 0.972507 0.545746
0.993172 0.972950 0.542908
0.995772 0.973302 0.540155
0.996490 0.973359 0.538027
0.217383 0.183392 0.187933
0.218987 0.183491 0.187767
0.223651 0.183882 0.187549
0.231120 0.184917 0.187688
0.245515 0.186928 0.188525
0.291184 0.188393 0.189309
0.364392 0.189194 0.189872
0.426005 0.190774 0.190904
0.479430 0.193510 0.193148
0.532554 0.197013 0.196115
0.588657 0.201463 0.199984
0.644934 0.206846 0.204448
0.700975 0.213204 0.209659
0.736887 0.218460 0.213343
0.739322 0.218855 0.213519
0.739258 0.218854 0.213441
0.217671 0.184726 0.188107
0.219099 0.185034 0.187732
0.223292 0.185229 0.187451
0.230386 0.185850 0.187644
0.244499 0.187394 0.188555
0.289173 0.188699 0.189341
0.362984 0.189346 0.189857
0.425176 0.190825 0.190851
0.478397 0.193465 0.193019
0.531251 0.196879 0.195909
0.587294 0.201294 0.199736
0.643664 0.206655 0.204162
0.699760 0.212971 0.209282
0.736585 0.218325 0.213040
0.739192 0.218755 0.213242
0.739153 0.218723 0.213169
0.218786 0.189010 0.188848
0.219053 0.189001 0.188735
0.223250 0.189367 0.187523
0.228780 0.190141 0.187799
0.241703 0.192292 0.189540
0.283618 0.193962 0.190953
0.365385 0.194774 0.191862
0.440705 0.196457 0.193147
0.498750 0.199498 0.195581
0.554731 0.203276 0.198570
0.612843 0.208050 0.202156
0.669014 0.213970 0.206381
0.721447 0.220842 0.211295
0.755597 0.225849 0.214906
0.754160 0.224499 0.214502
0.750117 0.222738 0.213816
0.220569 0.195807 0.190350
0.220591 0.195761 0.190323
0.223197 0.194878 0.189087
0.229155 0.195735 0.189276
0.241305 0.199109 0.191218
0.289240 0.205080 0.193739
0.385183 0.211449 0.195990
0.491399 0.220710 0.199739
0.574919 0.232627 0.204770
0.649340 0.244987 0.209812
0.721159 0.260320 0.216459
0.785406 0.276132 0.223754
0.840925 0.293834 0.232535
0.875927 0.307485 0.239911
0.872748 0.301874 0.237925
0.864516 0.293815 0.235184
0.224105 0.212889 0.194391
0.224081 0.212764 0.194356
0.224863 0.211835 0.193900
0.231220 0.209380 0.192789
0.243181 0.212696 0.193239
0.302943 0.229571 0.195793
0.425880 0.253199 0.199120
0.567966 0.279262 0.205597
0.676518 0.304271 0.213779
0.756779 0.325978 0.220909
0.823231 0.348254 0.230682
0.877932 0.371318 0.240389
0.920565 0.396293 0.253249
0.947457 0.419506 0.267522
0.948225 0.416598 0.267357
0.945988 0.410489 0.265634
0.230759 0.259809 0.202779
0.230725 0.259599 0.202735
0.230699 0.258753 0.202529
0.236853 0.255296 0.201972
0.257547 0.263190 0.201560
0.324988 0.279550 0.198931
0.477344 0.320601 0.203381
0.647865 0.360314 0.211527
0.757948 0.392098 0.221156
0.830703 0.418219 0.228513
0.884478 0.443814 0.238279
0.925490 0.470670 0.249063
0.954210 0.498992 0.262979
0.972520 0.527920 0.281811
0.974553 0.528860 0.283868
0.973698 0.523135 0.282125
0.240621 0.326852 0.215834
0.240571 0.326645 0.215755
0.240444 0.325930 0.215516
0.244803 0.326433 0.216170
0.286403 0.348978 0.218296
0.396625 0.377598 0.212609
0.538043 0.397144 0.209898
0.708518 0.444930 0.219463
0.807797 0.484704 0.231891
0.872256 0.518170 0.241132
0.916937 0.547973 0.252526
0.948258 0.575220 0.267207
0.968863 0.601296 0.282044
0.981049 0.627324 0.302023
0.983907 0.633316 0.308067
0.983727 0.628701 0.306078
0.254432 0.393928 0.234446
0.254391 0.393705 0.234321
0.254224 0.392888 0.233897
0.256796 0.394727 0.234342
0.321675 0.440527 0.241250
0.485629 0.492925 0.235339
0.644968 0.514758 0.230360
0.748656 0.529381 0.228848
