example_ofxGpuLutCube/bin/data/ofxGpuLutCube/LUT/T32 (smooth teal orange fade).cube
LUT_3D_SIZE 6
0.213654 0.178894 0.173828
0.230462 0.184137 0.177240
0.371759 0.188269 0.179700
0.530828 0.194592 0.183789
0.684393 0.206787 0.190619
0.720551 0.210968 0.192291
0.220923 0.194684 0.179382
0.230101 0.195541 0.179251
0.394683 0.201793 0.181083
0.606787 0.217324 0.185909
0.779091 0.246289 0.192617
0.808895 0.249749 0.194410
0.243408 0.313269 0.190155
0.248459 0.316571 0.189880
0.605309 0.397703 0.186658
0.871111 0.461744 0.194369
0.962855 0.515229 0.202095
0.978628 0.533323 0.206595
0.375336 0.566706 0.228150
0.371991 0.562815 0.227118
0.772223 0.657519 0.219951
0.921970 0.689610 0.220795
0.978254 0.736359 0.245376
0.989839 0.763167 0.271753
0.688641 0.858679 0.388934
0.686592 0.856876 0.386889
0.839372 0.876836 0.372300
0.947869 0.879204 0.357286
0.984614 0.885906 0.350033
0.995038 0.910004 0.406308
0.814379 0.975620 0.576224
0.814375 0.975617 0.576214
0.857393 0.978825 0.573096
0.964571 0.976821 0.557167
0.988602 0.972517 0.545736
0.996490 0.973359 0.538028
0.217383 0.183392 0.187933
0.231120 0.184917 0.187688
0.364392 0.189194 0.189872
0.532554 0.197013 0.196115
0.700975 0.213204 0.209659
0.739258 0.218854 0.213441
0.220569 0.195807 0.190350
0.229155 0.195735 0.189276
0.385183 0.211449 0.195990
0.649340 0.244987 0.209812
0.840925 0.293834 0.232535
0.864516 0.293815 0.235184
0.240621 0.326852 0.215834
0.244803 0.326433 0.216170
0.538043 0.397144 0.209898
0.872256 0.518170 0.241132
0.968863 0.601296 0.282044
0.983727 0.628701 0.306078
0.341811 0.595765 0.296209
0.338959 0.591525 0.294054
0.753574 0.708529 0.299614
0.909398 0.727752 0.290992
0.978672 0.789626 0.357157
0.992121 0.819446 0.403521
0.664336 0.874021 0.458029
0.662224 0.872281 0.455860
0.827411 0.902288 0.465681
0.945473 0.903009 0.447173
0.984616 0.907188 0.436646
0.995939 0.929499 0.495555
0.810836 0.977021 0.591354
0.810862 0.977005 0.591266
0.854673 0.980564 0.593949
0.964340 0.979751 0.579290
0.988254 0.974772 0.568890
0.996173 0.975562 0.561556
0.222681 0.188928 0.272986
0.234396 0.189687 0.264659
0.354899 0.193984 0.277676
0.524603 0.205622 0.322316
0.695822 0.228726 0.379565
0.736536 0.239386 0.397260
0.225007 0.204867 0.318212
0.236722 0.210542 0.304777
0.369591 0.224999 0.326976
0.622539 0.276046 0.412361
0.819142 0.344431 0.493519
0.847857 0.345341 0.500225
0.236500 0.395060 0.484515
0.240077 0.387205 0.467920
0.485089 0.535300 0.527638
0.822578 0.685456 0.654300
0.952089 0.768726 0.735947
0.975015 0.792721 0.762490
0.292111 0.660907 0.630390
0.290268 0.657307 0.628693
0.663275 0.793637 0.689972
0.846451 0.820174 0.698984
0.961182 0.885696 0.770585
0.984122 0.916466 0.807116
0.572747 0.909742 0.749818
0.570340 0.908410 0.748748
0.770608 0.944756 0.788431
0.913384 0.956808 0.802006
0.968063 0.958193 0.796757
0.990686 0.979100 0.838460
0.752672 0.989788 0.814623
0.752690 0.989786 0.814579
0.807929 0.991319 0.831951
0.946833 0.992066 0.864469
0.982816 0.992086 0.860228
0.993681 0.992083 0.855637
0.227368 0.194226 0.390234
0.238727 0.194706 0.384507
0.355683 0.198363 0.407515
0.516266 0.207338 0.449720
0.690693 0.234281 0.531046
0.734131 0.247187 0.557074
0.230869 0.223402 0.457328
0.244684 0.238375 0.465525
0.402310 0.256344 0.510578
0.598812 0.278563 0.563029
0.802520 0.349619 0.670931
0.834043 0.351568 0.678457
0.243191 0.448863 0.687750
0.247920 0.451351 0.685240
0.571488 0.658867 0.772853
0.788229 0.700223 0.800003
0.934867 0.783622 0.867580
0.966332 0.807422 0.887881
0.291663 0.699837 0.799062
0.290187 0.696552 0.797724
0.630917 0.808234 0.823078
0.842121 0.860963 0.860130
0.949643 0.912320 0.906846
0.979492 0.944843 0.937332
0.549870 0.922406 0.881949
0.547235 0.921209 0.881308
0.749608 0.949548 0.899337
0.896516 0.963072 0.916061
0.956184 0.968015 0.919201
0.986030 0.987985 0.951880
0.736740 0.990932 0.924156
0.736733 0.990932 0.924124
0.793462 0.991675 0.933235
0.940850 0.991968 0.956162
0.977862 0.991998 0.960176
0.988399 0.992004 0.958895
0.230304 0.203619 0.488122
0.243822 0.201903 0.475718
0.377461 0.208782 0.527382
0.525999 0.217798 0.560431
0.694320 0.246454 0.645441
0.742407 0.261701 0.678516
0.235618 0.254446 0.584319
0.256772 0.282146 0.611762
0.445277 0.311048 0.687221
0.622854 0.318952 0.707429
0.790614 0.357376 0.769274
0.827727 0.360058 0.780922
0.254405 0.502189 0.809425
0.261023 0.514860 0.814825
0.666547 0.746420 0.914733
0.818608 0.756607 0.919903
0.923971 0.785100 0.934536
0.960579 0.810209 0.951658
0.324802 0.762381 0.906339
0.323063 0.759731 0.905503
0.715635 0.873163 0.945433
0.871447 0.902863 0.953530
0.942941 0.916854 0.960490
0.977563 0.949725 0.975736
0.575239 0.935615 0.953130
0.572588 0.934605 0.952853
0.759998 0.956020 0.960101
0.895589 0.965415 0.963205
0.958381 0.976325 0.970265
0.985794 0.990351 0.981375
0.766443 0.990946 0.968499
0.766424 0.990945 0.968498
0.817120 0.991500 0.972213
0.948256 0.991949 0.980607
0.979690 0.992004 0.982585
0.988418 0.992004 0.982678
0.237518 0.220886 0.580627
0.255409 0.219928 0.582606
0.413371 0.236939 0.660439
0.575101 0.252820 0.702943
0.705141 0.272205 0.742212
0.740570 0.278076 0.756622
0.242298 0.285104 0.683985
0.277818 0.331204 0.740413
0.486357 0.363383 0.814088
0.667766 0.374946 0.834359
0.790281 0.383068 0.845224
0.808237 0.362607 0.833992
0.274053 0.569341 0.888455
0.284700 0.585645 0.895638
0.734580 0.801732 0.974708
0.858777 0.811228 0.978571
0.933550 0.818969 0.979430
0.954681 0.815717 0.978969
0.420205 0.821129 0.954744
0.417463 0.818914 0.954260
0.786223 0.912682 0.983119
0.920293 0.946283 0.987028
0.963603 0.952208 0.987783
0.976332 0.953341 0.987915
0.672898 0.954051 0.977272
0.671095 0.953309 0.977211
0.826343 0.974465 0.984796
0.942913 0.986343 0.988629
0.976789 0.990157 0.989412
0.985510 0.990912 0.989556
0.796719 0.991359 0.982432
0.796714 0.991359 0.982432
0.840720 0.991674 0.984801
0.953173 0.991974 0.989535
0.980996 0.992004 0.990074
0.988583 0.992035 0.990075
