example_ofxGpuLutCube/bin/data/ofxGpuLutCube/LUT/T33 (smooth teal orange fade_1).cube
LUT_3D_SIZE 6
0.211029 0.197968 0.189270
0.185760 0.197040 0.188763
0.340735 0.202820 0.192523
0.730139 0.215222 0.214300
0.860425 0.216443 0.222748
0.910491 0.216095 0.224242
0.207446 0.170587 0.188758
0.181440 0.168331 0.185494
0.325257 0.177383 0.194037
0.709284 0.202021 0.219468
0.847677 0.207206 0.228259
0.902242 0.208148 0.229698
0.224146 0.341327 0.206903
0.203138 0.335642 0.205997
0.368288 0.352367 0.210168
0.779396 0.344822 0.216546
0.895457 0.328984 0.221411
0.937825 0.322193 0.221747
0.319281 0.725451 0.278894
0.294208 0.715984 0.275969
0.470967 0.745334 0.278767
0.876897 0.778232 0.279770
0.968597 0.768471 0.285268
0.993539 0.760524 0.293127
0.370917 0.868964 0.311908
0.344022 0.862530 0.310271
0.508893 0.884639 0.312350
0.892177 0.922175 0.312386
0.968962 0.912380 0.323298
0.993936 0.902718 0.332036
0.383317 0.924981 0.318568
0.358490 0.919347 0.318232
0.517657 0.940351 0.319051
0.894726 0.979222 0.320770
0.969025 0.968261 0.330488
0.994009 0.957646 0.340593
0.222931 0.201953 0.163098
0.191634 0.198689 0.161323
0.356169 0.207422 0.165208
0.739364 0.218862 0.186307
0.867941 0.219750 0.195630
0.916030 0.219256 0.197795
0.216094 0.171243 0.159658
0.185841 0.168644 0.157878
0.338488 0.178036 0.163538
0.718012 0.202576 0.187375
0.854025 0.208389 0.197294
0.907452 0.209595 0.199828
0.239936 0.345198 0.177685
0.211489 0.337132 0.175846
0.385640 0.356629 0.180327
0.790072 0.347624 0.187765
0.901963 0.332036 0.196590
0.942584 0.325130 0.198196
0.336628 0.725217 0.243805
0.305985 0.714653 0.242656
0.492888 0.746371 0.244028
0.886043 0.776613 0.245940
0.968194 0.765090 0.260077
0.993169 0.756446 0.269844
0.391067 0.869432 0.277759
0.358773 0.861943 0.277231
0.530994 0.885597 0.279673
0.901853 0.921571 0.283170
0.968555 0.909541 0.296937
0.993521 0.899734 0.307579
0.403979 0.924677 0.285706
0.373634 0.918083 0.285300
0.540128 0.940495 0.287825
0.903973 0.979179 0.293288
0.968628 0.965241 0.304949
0.993624 0.954909 0.316544
0.202551 0.199377 0.301898
0.183253 0.198739 0.299143
0.321235 0.205455 0.315246
0.710968 0.220808 0.345349
0.847434 0.220952 0.352675
0.899986 0.220125 0.352375
0.200936 0.172080 0.298206
0.179080 0.169804 0.292266
0.310925 0.178193 0.312378
0.688583 0.202711 0.344613
0.833632 0.207549 0.352722
0.889694 0.208419 0.352354
0.214202 0.341021 0.323980
0.197824 0.336166 0.320868
0.340616 0.345231 0.327974
0.758103 0.337419 0.339781
0.879782 0.323609 0.342629
0.924695 0.317911 0.340774
0.292468 0.727323 0.401886
0.275582 0.720362 0.398642
0.427496 0.740955 0.401352
0.853979 0.775414 0.407839
0.969493 0.768686 0.404898
0.994399 0.762454 0.409272
0.341874 0.869622 0.427170
0.324976 0.865366 0.424680
0.470306 0.881310 0.428327
0.870545 0.920824 0.432442
0.969830 0.913652 0.439506
0.994768 0.904982 0.447191
0.353944 0.926341 0.431419
0.338987 0.922693 0.429421
0.479975 0.937473 0.432241
0.872369 0.976632 0.436322
0.969849 0.970264 0.443088
0.994815 0.959641 0.452230
0.219885 0.193482 0.594757
0.202621 0.193472 0.588164
0.319358 0.197888 0.609793
0.656835 0.212402 0.665410
0.804789 0.212374 0.677645
0.858092 0.211238 0.679071
0.219499 0.169000 0.585656
0.202485 0.167570 0.578260
0.314513 0.173134 0.600231
0.638954 0.187651 0.656080
0.790798 0.191616 0.669471
0.845035 0.192195 0.670929
0.225564 0.336274 0.626266
0.211382 0.335340 0.621812
0.327695 0.335885 0.636215
0.692221 0.345721 0.685691
0.834811 0.335574 0.694418
0.887080 0.330364 0.694873
0.255813 0.723516 0.700173
0.244107 0.718280 0.697316
0.372367 0.731808 0.705166
0.782498 0.757035 0.732106
0.926883 0.751492 0.731702
0.978740 0.748278 0.730079
0.302340 0.868274 0.713811
0.285705 0.864941 0.712301
0.411768 0.875324 0.716819
0.799543 0.903854 0.741812
0.937406 0.904680 0.745725
0.992566 0.903934 0.746628
0.314784 0.924986 0.715222
0.298902 0.921873 0.713953
0.419794 0.931413 0.717568
0.801318 0.958428 0.741868
0.940320 0.961018 0.746450
0.994094 0.959059 0.748390
0.243396 0.190540 0.716223
0.225067 0.189972 0.709357
0.339226 0.194800 0.730753
0.654574 0.210435 0.784671
0.799800 0.207377 0.798442
0.851453 0.205440 0.800291
0.242017 0.166084 0.706920
0.225126 0.164700 0.700098
0.333562 0.169475 0.720664
0.638101 0.183038 0.775732
0.786299 0.182892 0.790518
0.839245 0.182905 0.792791
0.246216 0.330924 0.746184
0.231291 0.331445 0.741728
0.347862 0.329362 0.756852
0.686874 0.344280 0.806812
0.828104 0.334325 0.816798
0.878875 0.328843 0.817768
0.271979 0.720256 0.822792
0.256173 0.716628 0.820438
0.389789 0.725698 0.828253
0.762362 0.747099 0.856322
0.905453 0.745819 0.864811
0.959463 0.743504 0.866409
0.309177 0.864795 0.835038
0.287142 0.861888 0.833022
0.417126 0.870598 0.839428
0.777248 0.895454 0.865950
0.915595 0.896475 0.871988
0.971025 0.896125 0.872870
0.320241 0.921202 0.837870
0.299327 0.918578 0.836154
0.422604 0.926540 0.841676
0.778627 0.949833 0.867201
0.917509 0.952142 0.874016
0.973079 0.952106 0.875150
0.252160 0.190033 0.771905
0.234281 0.189423 0.765288
0.347099 0.194318 0.785656
0.653653 0.209394 0.832918
0.799323 0.208013 0.847179
0.850801 0.205324 0.849058
0.250414 0.165510 0.762427
0.233545 0.164136 0.755945
0.341113 0.168791 0.775023
0.637707 0.181971 0.823581
0.786135 0.182787 0.839342
0.838581 0.181746 0.841640
0.255161 0.329310 0.800885
0.239666 0.330075 0.796399
0.356609 0.327910 0.811174
0.685358 0.342069 0.854915
0.827034 0.335185 0.865654
0.877615 0.329253 0.866514
0.280662 0.719739 0.878051
0.262851 0.716791 0.875834
0.398410 0.724112 0.883453
0.758459 0.743674 0.908858
0.900198 0.743770 0.917050
0.954464 0.741582 0.918186
0.314837 0.863843 0.889215
0.290819 0.861029 0.887160
0.421112 0.869353 0.893891
0.772496 0.893289 0.919357
0.910970 0.894153 0.924039
0.966073 0.893716 0.924624
0.324631 0.920160 0.891899
0.302173 0.917699 0.890044
0.425822 0.925305 0.896038
0.773339 0.947805 0.920618
0.912467 0.949612 0.925947
0.967926 0.949732 0.926996
