example_ofxGpuLutCube/bin/data/ofxGpuLutCube/LUT/T33 (smooth teal orange fade_1).cube
LUT_3D_SIZE 16
0.211029 0.197968 0.189270
0.190556 0.197534 0.188975
0.182275 0.197088 0.188774
0.185760 0.197040 0.188763
0.202700 0.197443 0.188941
0.246277 0.198547 0.189656
0.340735 0.202820 0.192523
0.490912 0.209361 0.198922
0.638255 0.214333 0.207629
0.730139 0.215222 0.214300
0.790884 0.215810 0.218486
0.833321 0.216301 0.221067
0.860425 0.216443 0.222748
0.880612 0.216250 0.223531
0.896910 0.216099 0.224001
0.910491 0.216095 0.224242
0.208760 0.174746 0.188526
0.187672 0.173397 0.186774
0.178935 0.172996 0.186174
0.182312 0.172923 0.186050
0.199797 0.173365 0.186751
0.243072 0.175361 0.188910
0.331043 0.180959 0.193121
0.474463 0.190979 0.201197
0.620782 0.199037 0.211182
0.716950 0.202515 0.217988
0.779452 0.204578 0.222552
0.823036 0.205886 0.225168
0.852541 0.206501 0.226887
0.874424 0.206618 0.227765
0.891322 0.206711 0.228127
0.905252 0.206837 0.228300
0.207577 0.166946 0.188693
0.186914 0.165469 0.186718
0.178082 0.164815 0.185646
0.181479 0.164750 0.185514
0.199012 0.165352 0.186529
0.241580 0.167608 0.189104
0.325687 0.173700 0.193921
0.466046 0.184525 0.202317
0.611661 0.193760 0.212417
0.710131 0.198185 0.219344
0.773434 0.200762 0.223849
0.817699 0.202404 0.226507
0.848216 0.203267 0.228231
0.871075 0.203648 0.229030
0.888402 0.203920 0.229450
0.902552 0.204096 0.229577
0.207446 0.170587 0.188758
0.186882 0.169095 0.186725
0.178057 0.168403 0.185660
0.181440 0.168331 0.185494
0.198978 0.168962 0.186560
0.241443 0.171246 0.189138
0.325257 0.177383 0.194037
0.465135 0.188204 0.202430
0.610614 0.197557 0.212573
0.709284 0.202021 0.219468
0.772748 0.204651 0.223881
0.817071 0.206325 0.226533
0.847677 0.207206 0.228259
0.870669 0.207647 0.229100
0.888085 0.207931 0.229526
0.902242 0.208148 0.229698
0.208541 0.186928 0.188540
0.187498 0.185596 0.186814
0.178739 0.185125 0.186059
0.182115 0.185051 0.185946
0.199590 0.185489 0.186665
0.242849 0.187550 0.188920
0.330019 0.193274 0.193275
0.472950 0.203374 0.201361
0.619056 0.211796 0.211383
0.715645 0.215440 0.218315
0.778293 0.217625 0.222833
0.822017 0.219014 0.225464
0.851722 0.219666 0.227187
0.873764 0.219832 0.228023
0.890744 0.219961 0.228408
0.904748 0.220090 0.228530
0.212382 0.234385 0.191406
0.191725 0.233698 0.191008
0.183278 0.233127 0.190719
0.186757 0.233057 0.190664
0.203808 0.233572 0.190940
0.248118 0.235240 0.191816
0.344737 0.239638 0.194228
0.497253 0.245671 0.199970
0.644648 0.249611 0.208326
0.734833 0.248865 0.214594
0.795071 0.248660 0.218631
0.837190 0.248535 0.221089
0.863894 0.248041 0.222412
0.883745 0.247573 0.223117
0.899474 0.247111 0.223518
0.912831 0.246828 0.223693
0.224146 0.341327 0.206903
0.205493 0.338311 0.206553
0.199374 0.335895 0.206048
0.203138 0.335642 0.205997
0.217968 0.337853 0.206443
0.260691 0.343056 0.207568
0.368288 0.352367 0.210168
0.543456 0.357676 0.209658
0.698027 0.354567 0.212619
0.779396 0.344822 0.216546
0.834373 0.337673 0.219260
0.871549 0.332949 0.220865
0.895457 0.328984 0.221411
0.912650 0.326032 0.221563
0.926115 0.323781 0.221684
0.937825 0.322193 0.221747
0.256030 0.494316 0.231409
0.238682 0.487163 0.229676
0.232647 0.483087 0.228621
0.236431 0.482572 0.228510
0.251287 0.486465 0.229464
0.292392 0.496726 0.231876
0.407356 0.515679 0.235565
0.585659 0.531295 0.239146
0.752962 0.532168 0.234649
0.838114 0.522800 0.230816
0.894436 0.513272 0.229228
0.927539 0.505468 0.227581
0.947731 0.499797 0.227380
0.961866 0.495312 0.228188
0.972895 0.492307 0.229333
0.983573 0.490154 0.229793
0.290997 0.631276 0.258453
0.270997 0.623868 0.256633
0.264215 0.619662 0.255473
0.267938 0.619160 0.255343
0.283378 0.623092 0.256447
0.327848 0.633773 0.258615
0.445911 0.654857 0.260202
0.629914 0.678684 0.261379
0.778492 0.682971 0.262953
0.866815 0.679499 0.258764
0.928546 0.675620 0.255742
0.958866 0.670743 0.257696
0.968259 0.665734 0.262991
0.976400 0.662115 0.266195
0.984825 0.659731 0.268575
0.993315 0.658006 0.270139
0.319281 0.725451 0.278894
0.298196 0.719601 0.277184
0.290617 0.716376 0.276095
0.294208 0.715984 0.275969
0.310509 0.718974 0.276978
0.355516 0.727399 0.278788
0.470967 0.745334 0.278767
0.651085 0.769466 0.278470
0.797838 0.779852 0.277795
0.876897 0.778232 0.279770
0.937494 0.776965 0.277781
0.960802 0.773581 0.280025
0.968597 0.768471 0.285268
0.976643 0.764728 0.288950
0.985024 0.762165 0.291494
0.993539 0.760524 0.293127
0.344055 0.789531 0.294037
0.321702 0.784571 0.292515
0.313152 0.781899 0.291446
0.316608 0.781608 0.291288
0.333797 0.784036 0.292356
0.379262 0.791294 0.293904
0.488460 0.807341 0.294265
0.663107 0.830142 0.293894
0.807946 0.843857 0.292270
0.883838 0.842647 0.293121
0.939833 0.843011 0.294668
0.960785 0.840761 0.296581
0.968758 0.835565 0.301796
0.976809 0.831640 0.305656
0.985187 0.829016 0.308241
0.993704 0.827288 0.309869
0.360362 0.836047 0.305233
0.338666 0.831793 0.304032
0.329976 0.829333 0.303017
0.333432 0.829049 0.302855
0.350735 0.831303 0.303879
0.395365 0.837697 0.305100
0.500652 0.852399 0.305591
0.669820 0.873788 0.305741
0.811859 0.888136 0.304761
0.888753 0.888638 0.304491
0.941052 0.887883 0.306185
0.960746 0.885955 0.309472
0.968874 0.880392 0.315079
0.976965 0.876070 0.319151
0.985337 0.873213 0.321777
0.993854 0.871340 0.323528
0.370917 0.868964 0.311908
0.349433 0.864984 0.311142
0.340602 0.862780 0.310406
0.344022 0.862530 0.310271
0.361464 0.864541 0.311052
0.405990 0.870551 0.311788
0.508893 0.884639 0.312350
0.673799 0.905177 0.312944
0.813088 0.919367 0.312387
0.892177 0.922175 0.312386
0.942019 0.920457 0.313037
0.960700 0.918417 0.316989
0.968962 0.912380 0.323298
0.977029 0.907740 0.327502
0.985421 0.904759 0.330220
0.993936 0.902718 0.332036
0.376599 0.892289 0.315545
0.356007 0.888503 0.315256
0.347457 0.886503 0.314767
0.350906 0.886274 0.314671
0.368093 0.888088 0.315200
0.411662 0.893882 0.315487
0.513725 0.907853 0.316052
0.676163 0.928075 0.316685
0.813350 0.942047 0.316438
0.893751 0.945996 0.316728
0.942707 0.944630 0.316845
0.960655 0.941934 0.320495
0.969008 0.935635 0.327443
0.977079 0.930853 0.331982
0.985463 0.927630 0.334731
0.994001 0.925717 0.336666
0.380408 0.910008 0.317468
0.360395 0.906354 0.317417
0.351990 0.904457 0.317016
0.355432 0.904223 0.316952
0.372502 0.905989 0.317385
0.415157 0.911589 0.317419
0.516102 0.925537 0.317949
0.677122 0.945556 0.318765
0.813327 0.959418 0.318617
0.894530 0.964130 0.319262
0.942919 0.963266 0.319042
0.960649 0.959881 0.322243
0.969023 0.953310 0.329418
0.977093 0.948248 0.334312
0.985491 0.944967 0.337179
0.994009 0.942995 0.339130
0.383317 0.924981 0.318568
0.363411 0.921400 0.318625
0.354991 0.919534 0.318344
0.358490 0.919347 0.318232
0.375597 0.921032 0.318615
0.417885 0.926507 0.318558
0.517657 0.940351 0.319051
0.678044 0.960396 0.319958
0.813227 0.974165 0.319912
0.894726 0.979222 0.320770
0.943013 0.979085 0.320591
0.960633 0.975061 0.323381
0.969025 0.968261 0.330488
0.977094 0.963100 0.335657
0.985494 0.959772 0.338611
0.994009 0.957646 0.340593
0.218565 0.200344 0.168788
0.194809 0.198557 0.167696
0.185338 0.197841 0.167385
0.188551 0.197701 0.167342
0.207003 0.198522 0.167705
0.253524 0.200820 0.169000
0.350335 0.205548 0.171250
0.501850 0.211935 0.177289
0.648359 0.216868 0.186029
0.735825 0.217285 0.192519
0.796051 0.217954 0.196642
0.838198 0.218475 0.199406
0.865067 0.218403 0.200961
0.884947 0.218082 0.201855
0.901035 0.218049 0.202462
0.914188 0.217898 0.202780
0.214362 0.175161 0.166056
0.191020 0.173610 0.165094
0.181443 0.173032 0.164579
0.184648 0.172960 0.164543
0.203110 0.173534 0.165005
0.248652 0.175785 0.166418
0.339347 0.181388 0.169867
0.484560 0.191011 0.176890
0.630309 0.198988 0.186848
0.722261 0.202389 0.193504
0.783828 0.204524 0.197713
0.827067 0.205994 0.200648
0.856369 0.206736 0.202519
0.878213 0.207046 0.203640
0.894998 0.207197 0.204255
0.908683 0.207240 0.204558
0.212931 0.167183 0.166342
0.190119 0.165496 0.165203
0.180550 0.164692 0.164333
0.183766 0.164621 0.164268
0.202221 0.165354 0.165008
0.246907 0.167818 0.166747
0.333707 0.173966 0.170757
0.475901 0.184477 0.178085
0.621020 0.193728 0.188123
0.715655 0.198122 0.194755
0.777942 0.200843 0.198930
0.821812 0.202669 0.201879
0.852161 0.203641 0.203791
0.874863 0.204162 0.205045
0.892073 0.204479 0.205631
0.906061 0.204690 0.205923
0.212695 0.170763 0.166433
0.190049 0.169079 0.165258
0.180478 0.168263 0.164402
0.183705 0.168171 0.164299
0.202144 0.168940 0.165069
0.246716 0.171416 0.166840
0.333187 0.177578 0.170878
0.474907 0.188145 0.178238
0.619927 0.197514 0.188243
0.714862 0.201991 0.194860
0.777266 0.204775 0.199015
0.821202 0.206633 0.201972
0.851646 0.207617 0.203901
0.874466 0.208193 0.205096
0.891731 0.208498 0.205729
0.905762 0.208753 0.205973
0.214234 0.187431 0.166179
0.190904 0.185836 0.165160
0.181305 0.185192 0.164531
0.184529 0.185111 0.164469
0.203008 0.185732 0.165017
0.248473 0.188068 0.166545
0.338373 0.193812 0.170125
0.483093 0.203493 0.177214
0.628645 0.211860 0.187240
0.721033 0.215435 0.193926
0.782735 0.217695 0.198148
0.826100 0.219214 0.201052
0.855594 0.220009 0.202943
0.877602 0.220328 0.204046
0.894491 0.220521 0.204658
0.908236 0.220685 0.204928
0.219940 0.236521 0.170445
0.196165 0.234602 0.169430
0.186620 0.233795 0.169082
0.189849 0.233664 0.169037
0.208313 0.234552 0.169414
0.255362 0.237311 0.170774
0.354160 0.242212 0.172694
0.508160 0.248082 0.177938
0.654698 0.252023 0.186275
0.740670 0.250789 0.192618
0.800250 0.250651 0.196634
0.842010 0.250556 0.199306
0.868461 0.249956 0.200782
0.887974 0.249396 0.201616
0.903478 0.248915 0.202109
0.916438 0.248712 0.202423
0.233963 0.343796 0.184626
0.211713 0.339331 0.183462
0.204297 0.336478 0.182777
0.207732 0.336142 0.182687
0.224256 0.338908 0.183384
0.270088 0.345336 0.185012
0.378800 0.355049 0.187376
0.554857 0.360515 0.186816
0.707633 0.357178 0.189353
0.786297 0.346962 0.193933
0.840427 0.339815 0.197431
0.876594 0.335041 0.199864
0.899878 0.331152 0.201124
0.916424 0.328087 0.201870
0.929513 0.325722 0.202165
0.941013 0.324250 0.202289
0.262032 0.495020 0.206812
0.244412 0.487332 0.205088
0.237969 0.482940 0.203934
0.241626 0.482385 0.203791
0.256947 0.486608 0.204883
0.299585 0.497592 0.207113
0.420310 0.517724 0.209821
0.598149 0.532895 0.212557
0.761077 0.532891 0.209400
0.844429 0.522869 0.207516
0.899321 0.512666 0.207998
0.930926 0.504586 0.208036
0.949317 0.498770 0.209567
0.962895 0.494199 0.211186
0.973887 0.491205 0.212628
0.984561 0.489126 0.213169
0.299807 0.631839 0.232391
0.278016 0.623710 0.231085
0.270756 0.619223 0.229787
0.274374 0.618677 0.229615
0.290434 0.622936 0.230865
0.337419 0.634411 0.232386
0.460335 0.656426 0.233101
0.642750 0.679473 0.233094
0.786500 0.682631 0.234913
0.873422 0.679098 0.232559
0.933232 0.674637 0.231987
0.959770 0.669021 0.236578
0.968060 0.663471 0.243334
0.976167 0.659526 0.247554
0.984571 0.657003 0.250259
0.993063 0.655256 0.251915
0.330775 0.725722 0.252560
0.306195 0.719192 0.252062
0.298170 0.715702 0.250846
0.301703 0.715213 0.250678
0.318605 0.718569 0.251771
0.367350 0.727712 0.252507
0.485256 0.746289 0.252025
0.663758 0.770163 0.251050
0.804138 0.778227 0.249990
0.883115 0.777705 0.252686
0.941117 0.776520 0.252541
0.960674 0.772340 0.257018
0.968317 0.766856 0.263624
0.976396 0.762874 0.268105
0.984801 0.760170 0.270981
0.993313 0.758462 0.272853
0.356006 0.789634 0.268067
0.330916 0.784117 0.267873
0.321564 0.781293 0.267061
0.324886 0.780952 0.266967
0.343030 0.783626 0.267664
0.391569 0.791456 0.268102
0.502833 0.808010 0.268353
0.675513 0.830871 0.268041
0.815450 0.843411 0.266414
0.889452 0.841534 0.267549
0.942739 0.842595 0.269855
0.960820 0.839579 0.273450
0.968477 0.833993 0.279975
0.976548 0.829920 0.284398
0.984944 0.827206 0.287288
0.993450 0.825439 0.289158
0.373423 0.836369 0.279429
0.348382 0.831481 0.279475
0.338862 0.828907 0.278884
0.342153 0.828597 0.278838
0.360507 0.831045 0.279288
0.408444 0.838043 0.279485
0.514673 0.853110 0.280190
0.682108 0.874482 0.280701
0.819846 0.888235 0.280308
0.894677 0.887962 0.280248
0.943494 0.887186 0.282256
0.960801 0.884735 0.286909
0.968604 0.878730 0.293503
0.976673 0.874345 0.298036
0.985065 0.871428 0.301016
0.993598 0.869557 0.302977
0.383910 0.869448 0.286325
0.359645 0.864964 0.286464
0.350174 0.862593 0.286218
0.353393 0.862308 0.286177
0.371742 0.864531 0.286371
0.418983 0.871048 0.286452
0.522869 0.885373 0.287354
0.685483 0.905875 0.288265
0.820964 0.919527 0.288465
0.898478 0.921972 0.288889
0.943939 0.919662 0.289552
0.960740 0.917048 0.294551
0.968697 0.910776 0.301677
0.976764 0.906084 0.306344
0.985161 0.903107 0.309517
0.993679 0.901077 0.311574
0.389236 0.892619 0.290316
0.366758 0.888537 0.290505
0.357339 0.886377 0.290477
0.360533 0.886125 0.290476
0.378820 0.888121 0.290471
0.424470 0.894249 0.290451
0.527663 0.908354 0.291557
0.687546 0.928691 0.292713
0.821040 0.942171 0.293257
0.900025 0.945944 0.294139
0.944290 0.943914 0.294160
0.960691 0.940467 0.298693
0.968749 0.934051 0.306293
0.976824 0.929210 0.311384
0.985206 0.926094 0.314604
0.993744 0.923986 0.316788
0.393280 0.910044 0.292441
0.371335 0.906172 0.292588
0.361943 0.904130 0.292643
0.365149 0.903893 0.292655
0.383487 0.905795 0.292582
0.428153 0.911642 0.292594
0.530083 0.925742 0.293788
0.688540 0.946207 0.295135
0.820943 0.959596 0.295756
0.900619 0.964177 0.296983
0.944356 0.962579 0.296809
0.960661 0.958281 0.300774
0.968758 0.951682 0.308659
0.976837 0.946713 0.313995
0.985234 0.943436 0.317278
0.993753 0.941296 0.319468
0.396334 0.924843 0.293619
0.374524 0.920948 0.293785
0.365076 0.918941 0.293866
0.368253 0.918707 0.293870
0.386627 0.920595 0.293796
0.431099 0.926409 0.293762
0.531788 0.940441 0.294935
0.689476 0.961134 0.296360
0.820887 0.974434 0.297166
0.900872 0.979370 0.298561
0.944457 0.978457 0.298530
0.960695 0.973494 0.302055
0.968758 0.966545 0.309818
0.976861 0.961496 0.315408
0.985260 0.958243 0.318775
0.993783 0.956075 0.320968
0.222488 0.201802 0.159809
0.198337 0.199763 0.158618
0.188082 0.198698 0.158114
0.191270 0.198571 0.158059
0.210189 0.199591 0.158516
0.257470 0.202240 0.159942
0.355612 0.207232 0.161927
0.507575 0.213595 0.167808
0.653183 0.218422 0.176524
0.738978 0.218675 0.183034
0.798879 0.219254 0.187522
0.840928 0.219720 0.190576
0.867630 0.219621 0.192235
0.887083 0.219232 0.193221
0.902865 0.219191 0.193903
0.915863 0.219068 0.194357
0.218135 0.176585 0.157064
0.194354 0.174971 0.156098
0.183929 0.174011 0.155387
0.187132 0.173924 0.155311
0.206149 0.174766 0.155937
0.252431 0.177201 0.157395
0.344596 0.182880 0.160358
0.490294 0.192325 0.167106
0.635185 0.200221 0.177061
0.725394 0.203528 0.183770
0.786564 0.205763 0.188329
0.829651 0.207158 0.191485
0.858854 0.207868 0.193417
0.880481 0.208217 0.194705
0.897002 0.208411 0.195440
0.910387 0.208487 0.195843
0.215925 0.167579 0.156353
0.192671 0.165942 0.155331
0.182455 0.165090 0.154681
0.185658 0.165029 0.154610
0.204518 0.165783 0.155192
0.249969 0.168241 0.156743
0.338488 0.174361 0.160257
0.481435 0.184865 0.167214
0.625731 0.194240 0.177384
0.718447 0.198637 0.184137
0.780267 0.201391 0.188615
0.823999 0.203278 0.191829
0.854270 0.204298 0.193905
0.876942 0.204899 0.195249
0.893946 0.205199 0.196015
0.907597 0.205415 0.196401
0.215716 0.171171 0.156441
0.192597 0.169505 0.155393
0.182385 0.168670 0.154741
0.185608 0.168582 0.154641
0.204460 0.169363 0.155263
0.249797 0.171824 0.156835
0.337979 0.177960 0.160394
0.480457 0.188535 0.167339
0.624630 0.198009 0.177489
0.717651 0.202443 0.184219
0.779609 0.205315 0.188702
0.823399 0.207236 0.191920
0.853768 0.208295 0.193995
0.876572 0.208911 0.195351
0.893634 0.209197 0.196120
0.907300 0.209429 0.196508
0.217731 0.188577 0.156885
0.193977 0.186939 0.155911
0.183636 0.186010 0.155212
0.186837 0.185921 0.155150
0.205811 0.186772 0.155774
0.252029 0.189189 0.157218
0.343439 0.194973 0.160316
0.488723 0.204533 0.167052
0.633456 0.212826 0.177118
0.724065 0.216304 0.183839
0.785344 0.218647 0.188389
0.828535 0.220179 0.191547
0.857945 0.220927 0.193525
0.879798 0.221342 0.194809
0.896411 0.221565 0.195561
0.909869 0.221687 0.195956
0.223940 0.237916 0.161360
0.199776 0.235820 0.160264
0.189449 0.234656 0.159736
0.192682 0.234528 0.159681
0.211606 0.235643 0.160164
0.259355 0.238723 0.161656
0.359438 0.243927 0.163346
0.513940 0.249767 0.168421
0.659507 0.253653 0.176724
0.743884 0.252248 0.183176
0.803125 0.252018 0.187615
0.844736 0.251897 0.190594
0.871030 0.251221 0.192194
0.890108 0.250552 0.193131
0.905291 0.250156 0.193735
0.918109 0.249882 0.194103
0.239329 0.345051 0.174506
0.216138 0.340483 0.173448
0.207652 0.337322 0.172700
0.211092 0.336989 0.172609
0.228273 0.339929 0.173309
0.275500 0.346580 0.174830
0.384977 0.356461 0.177126
0.560764 0.361723 0.176834
0.712063 0.358004 0.179559
0.789691 0.347533 0.184484
0.843351 0.340490 0.188557
0.878966 0.335772 0.191461
0.901757 0.331905 0.193111
0.917971 0.328847 0.194092
0.930952 0.326509 0.194517
0.942419 0.325055 0.194667
0.265846 0.495390 0.195848
0.247742 0.487593 0.194330
0.241019 0.483081 0.193303
0.244696 0.482537 0.193166
0.260181 0.486826 0.194147
0.303851 0.497999 0.196094
0.427502 0.518561 0.198428
0.604484 0.533236 0.201192
0.764693 0.532619 0.199458
0.847114 0.522116 0.198986
0.901365 0.511725 0.200348
0.932285 0.503677 0.200972
0.949924 0.497853 0.203132
0.963403 0.493237 0.204942
0.974361 0.490228 0.206513
0.985048 0.488172 0.207114
0.304046 0.631795 0.220727
0.282185 0.623547 0.219644
0.274309 0.618986 0.218764
0.277962 0.618430 0.218603
0.294428 0.622720 0.219515
0.341954 0.634417 0.220675
0.467522 0.656817 0.221523
0.648777 0.679105 0.221596
0.790058 0.681863 0.223793
0.876129 0.678060 0.222805
0.934985 0.673441 0.223583
0.959941 0.667535 0.229322
0.967944 0.661774 0.236525
0.976050 0.657762 0.241084
0.984456 0.655207 0.243953
0.992969 0.653378 0.245748
0.336074 0.725304 0.240805
0.310993 0.718714 0.240371
0.302036 0.715209 0.239752
0.305555 0.714732 0.239596
0.323039 0.718052 0.240248
0.372891 0.727321 0.240741
0.492164 0.746379 0.240926
0.669595 0.770082 0.240393
0.806590 0.776697 0.239353
0.885779 0.776756 0.242628
0.942351 0.775553 0.243848
0.960566 0.770998 0.249365
0.968213 0.765316 0.256409
0.976276 0.761256 0.261124
0.984680 0.758568 0.264138
0.993191 0.756726 0.266099
0.361563 0.789438 0.256434
0.335917 0.783852 0.256071
0.325973 0.780892 0.255696
0.329263 0.780553 0.255577
0.347777 0.783280 0.256013
0.397327 0.791293 0.256471
0.509983 0.808141 0.257449
0.681527 0.830850 0.257878
0.818733 0.842763 0.256811
0.892015 0.840680 0.258177
0.943829 0.841829 0.261075
0.960713 0.838434 0.265825
0.968358 0.832645 0.272848
0.976437 0.828505 0.277559
0.984862 0.825840 0.280614
0.993350 0.824042 0.282622
0.379662 0.836305 0.267674
0.353832 0.831276 0.267416
0.343455 0.828555 0.267159
0.346699 0.828239 0.267081
0.365591 0.830773 0.267376
0.414748 0.838003 0.267771
0.521957 0.853346 0.269287
0.688091 0.874573 0.270457
0.823563 0.887961 0.270787
0.897439 0.887359 0.271029
0.944434 0.886469 0.273135
0.960806 0.883729 0.278603
0.968490 0.877545 0.285750
0.976552 0.873093 0.290630
0.984948 0.870207 0.293777
0.993454 0.868293 0.295837
0.390335 0.869450 0.274722
0.365069 0.864758 0.274500
0.355002 0.862277 0.274335
0.358260 0.861993 0.274295
0.376915 0.864302 0.274496
0.425535 0.871066 0.274881
0.530139 0.885583 0.276569
0.691431 0.905995 0.278077
0.824725 0.919305 0.279020
0.901521 0.921613 0.279806
0.944772 0.919010 0.280366
0.960751 0.916045 0.285861
0.968569 0.909686 0.293461
0.976634 0.904997 0.298511
0.985016 0.901941 0.301849
0.993534 0.899911 0.304034
0.395939 0.892568 0.278922
0.372267 0.888261 0.278758
0.362280 0.885980 0.278617
0.365455 0.885735 0.278620
0.384182 0.887841 0.278746
0.431305 0.894217 0.279109
0.535028 0.908518 0.280946
0.693465 0.928862 0.282666
0.824908 0.941984 0.283894
0.903098 0.945738 0.285172
0.945086 0.943264 0.285098
0.960720 0.939360 0.290012
0.968607 0.932948 0.298014
0.976676 0.928090 0.303401
0.985078 0.924930 0.306774
0.993596 0.922858 0.309046
0.400079 0.909956 0.281237
0.377012 0.905842 0.281049
0.366877 0.903621 0.280910
0.370109 0.903397 0.280923
0.388949 0.905440 0.281028
0.435107 0.911572 0.281414
0.537544 0.925830 0.283304
0.694434 0.946396 0.285163
0.824789 0.959482 0.286490
0.903586 0.964048 0.288104
0.945146 0.962034 0.287868
0.960695 0.957130 0.292110
0.968638 0.950563 0.300322
0.976710 0.945613 0.305909
0.985095 0.942301 0.309329
0.993631 0.940221 0.311617
0.403150 0.924677 0.282652
0.380233 0.920589 0.282432
0.369935 0.918392 0.282310
0.373118 0.918157 0.282313
0.392113 0.920201 0.282414
0.438079 0.926286 0.282820
0.539278 0.940493 0.284651
0.695340 0.961255 0.286619
0.824725 0.974297 0.288080
0.903689 0.979217 0.289894
0.945211 0.977947 0.289759
0.960710 0.972327 0.293450
0.968643 0.965396 0.301531
0.976719 0.960441 0.307268
0.985117 0.957157 0.310814
0.993635 0.955023 0.313081
0.222931 0.201953 0.163098
0.198747 0.199906 0.161896
0.188460 0.198842 0.161386
0.191634 0.198689 0.161323
0.210575 0.199732 0.161799
0.257906 0.202397 0.163230
0.356169 0.207422 0.165208
0.508225 0.213817 0.171059
0.653731 0.218680 0.179761
0.739364 0.218862 0.186307
0.799221 0.219432 0.190869
0.841254 0.219930 0.193940
0.867941 0.219750 0.195630
0.887311 0.219364 0.196661
0.903045 0.219323 0.197376
0.916030 0.219256 0.197795
0.218564 0.176762 0.160372
0.194708 0.175168 0.159423
0.184283 0.174188 0.158701
0.187440 0.174069 0.158608
0.206505 0.174956 0.159281
0.252851 0.177396 0.160706
0.345135 0.183085 0.163595
0.490955 0.192460 0.170315
0.635757 0.200401 0.180272
0.725800 0.203618 0.187005
0.786887 0.205889 0.191604
0.829959 0.207319 0.194812
0.859134 0.208064 0.196791
0.880753 0.208395 0.198059
0.897220 0.208581 0.198840
0.910563 0.208658 0.199247
0.216345 0.167744 0.159654
0.193025 0.166112 0.158621
0.182798 0.165271 0.157988
0.185964 0.165163 0.157905
0.204889 0.165951 0.158523
0.250390 0.168412 0.160049
0.339032 0.174528 0.163506
0.482097 0.185021 0.170395
0.626285 0.194374 0.180592
0.718845 0.198741 0.187357
0.780577 0.201544 0.191885
0.824304 0.203413 0.195140
0.854568 0.204449 0.197248
0.877225 0.205060 0.198616
0.894183 0.205365 0.199376
0.907776 0.205572 0.199793
0.216094 0.171243 0.159658
0.192883 0.169568 0.158595
0.182659 0.168748 0.157957
0.185841 0.168644 0.157878
0.204736 0.169429 0.158487
0.250150 0.171908 0.160031
0.338488 0.178036 0.163538
0.481117 0.188650 0.170450
0.625189 0.198094 0.180635
0.718012 0.202576 0.187375
0.779870 0.205421 0.191907
0.823662 0.207347 0.195164
0.854025 0.208389 0.197294
0.876805 0.209012 0.198652
0.893833 0.209308 0.199436
0.907452 0.209595 0.199828
0.218170 0.188751 0.160204
0.194360 0.187135 0.159219
0.183992 0.186193 0.158539
0.187153 0.186091 0.158452
0.206194 0.186970 0.159095
0.252458 0.189375 0.160540
0.343996 0.195161 0.163561
0.489396 0.204700 0.170266
0.634033 0.212994 0.180346
0.724482 0.216461 0.187075
0.785662 0.218782 0.191667
0.828855 0.220349 0.194885
0.858255 0.221101 0.196896
0.880079 0.221489 0.198177
0.896640 0.221736 0.198941
0.910044 0.221829 0.199369
0.224404 0.238104 0.164648
0.200167 0.235975 0.163545
0.189838 0.234794 0.163026
0.193026 0.234672 0.162959
0.212000 0.235786 0.163449
0.259790 0.238905 0.164949
0.359988 0.244133 0.166598
0.514607 0.249951 0.171654
0.660088 0.253848 0.179947
0.744275 0.252403 0.186443
0.803468 0.252185 0.190929
0.845069 0.252031 0.193945
0.871318 0.251363 0.195597
0.890334 0.250719 0.196568
0.905481 0.250282 0.197176
0.918280 0.250058 0.197545
0.239936 0.345198 0.177685
0.216608 0.340634 0.176651
0.208090 0.337480 0.175929
0.211489 0.337132 0.175846
0.228742 0.340063 0.176516
0.276062 0.346731 0.178021
0.385640 0.356629 0.180327
0.561417 0.361852 0.180043
0.712570 0.358142 0.182813
0.790072 0.347624 0.187765
0.843675 0.340601 0.191920
0.879242 0.335905 0.194869
0.901963 0.332036 0.196590
0.918131 0.328968 0.197594
0.931097 0.326650 0.198009
0.942584 0.325130 0.198196
0.266393 0.495417 0.198915
0.248107 0.487616 0.197444
0.241398 0.483108 0.196424
0.245034 0.482554 0.196301
0.260569 0.486856 0.197278
0.304375 0.498031 0.199179
0.428241 0.518613 0.201502
0.605202 0.533274 0.204232
