example_ofxGpuLutCube/bin/data/ofxGpuLutCube/LUT/T35 (neutral warm fade).cube
LUT_3D_SIZE 6
0.000000 0.000000 0.000000
0.071578 0.002077 0.001496
0.316777 0.006251 0.008312
0.616040 0.009243 0.026122
0.905331 0.010746 0.039235
0.989811 0.011784 0.046004
0.004552 0.087937 0.005682
0.074802 0.070920 0.007176
0.264787 0.100497 0.013232
0.543291 0.137108 0.026144
0.826300 0.138991 0.041223
0.968080 0.136949 0.052483
0.016033 0.331005 0.032779
0.138792 0.326443 0.034235
0.331173 0.278104 0.032039
0.588954 0.275191 0.041539
0.876817 0.301123 0.058678
0.985364 0.315981 0.069181
0.045456 0.566665 0.080034
0.151919 0.573226 0.080785
0.486186 0.595152 0.091649
0.665098 0.498359 0.079009
0.942212 0.454771 0.081852
0.996159 0.467073 0.090796
0.066286 0.760184 0.120711
0.159250 0.773719 0.122977
0.469871 0.800613 0.131917
0.903054 0.826338 0.146709
0.951454 0.662996 0.116988
0.996983 0.634942 0.116967
0.074601 0.844945 0.143046
0.164419 0.852046 0.146089
0.457331 0.861808 0.155009
0.886644 0.868644 0.169506
0.997781 0.842158 0.160683
0.996470 0.740951 0.135316
0.000293 0.006953 0.040074
0.069086 0.003467 0.071809
0.299655 0.006345 0.108632
0.603406 0.010255 0.131566
0.888746 0.012878 0.136800
0.986808 0.014955 0.139052
0.003307 0.089867 0.068387
0.073413 0.092496 0.071037
0.396612 0.017812 0.020594
0.702476 0.017443 0.035139
0.971586 0.017370 0.055259
0.997798 0.047816 0.098061
0.008986 0.334095 0.106729
0.026324 0.425176 0.054730
0.390950 0.329502 0.069608
0.748762 0.286824 0.050635
0.986425 0.289136 0.067197
0.997174 0.332712 0.106993
0.013859 0.598886 0.132354
0.032112 0.684476 0.104985
0.454376 0.700453 0.113627
0.769187 0.565928 0.110390
0.996197 0.487093 0.096389
0.997766 0.502164 0.145642
0.015451 0.812266 0.148511
0.040422 0.850040 0.146652
0.369247 0.857033 0.150417
0.933453 0.864206 0.168049
0.996107 0.740727 0.137187
0.998141 0.658336 0.160359
0.015030 0.865296 0.160941
0.093472 0.868448 0.169137
0.376814 0.868616 0.176776
0.817421 0.871100 0.198224
0.998609 0.855184 0.199597
0.998159 0.771223 0.167552
0.000191 0.031800 0.215257
0.037195 0.014687 0.211622
0.307456 0.010354 0.273761
0.608281 0.011957 0.307684
0.897019 0.015453 0.311898
0.989001 0.016496 0.311881
0.003839 0.144116 0.221859
0.001441 0.065986 0.316136
0.390117 0.012704 0.331838
0.712104 0.012648 0.281289
0.976113 0.015759 0.262076
0.997434 0.056554 0.290314
0.009345 0.348261 0.258200
0.011819 0.449530 0.333592
0.327208 0.352564 0.279922
0.778056 0.224655 0.185504
0.997166 0.185613 0.167130
0.997267 0.305642 0.259451
0.016116 0.610483 0.278414
0.018624 0.717270 0.283022
0.163967 0.793405 0.180726
0.733547 0.597702 0.275020
0.998060 0.535024 0.215997
0.998059 0.567489 0.307896
0.021242 0.823179 0.283436
0.023755 0.863726 0.271462
0.198803 0.871063 0.223617
0.769022 0.867624 0.251223
0.991766 0.775008 0.260426
0.998558 0.703886 0.312385
0.024754 0.868867 0.287441
0.052088 0.892378 0.318024
0.309608 0.873028 0.293473
0.704076 0.874745 0.322712
0.998627 0.869254 0.349701
0.998843 0.818073 0.306423
0.000191 0.051711 0.414189
0.009775 0.022803 0.346708
0.272370 0.022272 0.452872
0.604316 0.019428 0.490729
0.907240 0.017411 0.498298
0.990589 0.018452 0.498295
0.003183 0.183999 0.402865
0.000755 0.088321 0.497198
0.197458 0.035537 0.534628
0.699177 0.022256 0.550911
0.978210 0.018302 0.504109
0.995617 0.073295 0.489595
0.009668 0.401634 0.465444
0.009677 0.422553 0.563268
0.136328 0.334331 0.561119
0.805951 0.174462 0.605921
0.995849 0.191087 0.481459
0.996343 0.316915 0.480045
0.016578 0.637482 0.484301
0.019087 0.739051 0.570819
0.082907 0.792210 0.625667
0.659256 0.620305 0.514194
0.996547 0.500904 0.411331
0.997548 0.605688 0.509071
0.022452 0.833706 0.450189
0.025817 0.867207 0.481545
0.142930 0.999089 0.501190
0.491322 0.875994 0.400306
0.983480 0.807987 0.469123
0.998092 0.770306 0.516286
0.029316 0.871050 0.449842
0.060229 0.969407 0.487988
0.290111 0.883597 0.496722
0.619311 0.879029 0.505066
0.988865 0.881039 0.518443
0.998534 0.846727 0.503187
0.000191 0.063593 0.566095
0.007327 0.024414 0.440866
0.162639 0.050409 0.621759
0.562684 0.033460 0.663860
0.883061 0.028780 0.672734
0.987512 0.026706 0.674988
0.001295 0.200354 0.582102
0.000559 0.111767 0.666335
0.029207 0.078782 0.719780
0.539981 0.040983 0.726070
0.965334 0.032708 0.727570
0.991842 0.084393 0.679587
0.009023 0.429787 0.653051
0.008200 0.422524 0.746122
0.058992 0.331389 0.998362
0.463078 0.204165 0.998362
0.985679 0.217192 0.779110
0.994356 0.318841 0.683798
0.016612 0.677906 0.713243
0.044267 0.715423 0.949121
0.146235 0.709131 0.998362
0.459850 0.578847 0.780183
0.989076 0.490160 0.772793
0.995980 0.601697 0.698105
0.022437 0.841117 0.664720
0.034167 0.868659 0.731563
0.191006 0.875915 0.776022
0.482732 0.870025 0.768530
0.956598 0.827563 0.705715
0.997085 0.829998 0.714013
0.030442 0.872008 0.630673
0.063116 0.958399 0.660204
0.269714 0.999089 0.678421
0.595171 0.890643 0.693846
0.941024 0.888181 0.707080
0.997547 0.863863 0.714370
0.000191 0.069451 0.641729
0.006513 0.031480 0.534668
0.071188 0.084445 0.715154
0.499876 0.044993 0.767925
0.861706 0.038336 0.998362
0.981683 0.039376 0.998362
0.000485 0.205164 0.671864
0.003487 0.154169 0.781866
0.023219 0.085097 0.998362
0.451084 0.091544 0.998362
0.883754 0.086934 0.998362
0.985267 0.103418 0.998362
0.008417 0.441107 0.755035
0.040545 0.458614 0.861485
0.110639 0.436282 0.998362
0.417522 0.315760 0.998362
0.887438 0.317151 0.998362
0.986412 0.341064 0.998362
0.045544 0.679342 0.998362
0.096161 0.693057 0.998362
0.229060 0.710049 0.998362
0.540102 0.638881 0.998362
0.888456 0.592118 0.998362
0.988315 0.620602 0.998362
0.098788 0.854022 0.998362
0.164433 0.852433 0.998362
0.333581 0.851897 0.998362
0.648111 0.844492 0.998362
0.927282 0.831933 0.998362
0.992784 0.840179 0.998362
0.030512 0.872248 0.736499
0.078933 0.884624 0.889605
0.330995 0.871477 0.998362
0.699065 0.866436 0.998362
0.980580 0.870933 0.998362
0.999652 0.885821 0.998362
