example_ofxGpuLutCube/bin/data/ofxGpuLutCube/LUT/T35 (neutral warm fade).cube
LUT_3D_SIZE 16
0.000000 0.000000 0.000000
0.000000 0.000000 0.000000
0.016314 0.001039 0.000748
0.071578 0.002077 0.001496
0.139056 0.003139 0.003083
0.221481 0.004315 0.005976
0.316777 0.006251 0.008312
0.419150 0.007420 0.012707
0.519941 0.008406 0.020144
0.616040 0.009243 0.026122
0.712689 0.009441 0.032101
0.809116 0.011316 0.035835
0.905331 0.010746 0.039235
0.973437 0.011784 0.042270
0.989741 0.011783 0.045954
0.989811 0.011784 0.046004
0.000000 0.000000 0.000000
0.000000 0.000000 0.000000
0.016314 0.001039 0.000748
0.069830 0.003116 0.001496
0.137141 0.004561 0.003158
0.218571 0.005691 0.005255
0.313580 0.007659 0.008382
0.415855 0.008792 0.012734
0.517047 0.009671 0.020004
0.613848 0.010273 0.025943
0.710828 0.010706 0.031962
0.808102 0.011309 0.035658
0.905630 0.010746 0.039237
0.973556 0.011783 0.042274
0.989819 0.011781 0.045956
0.989873 0.011783 0.046008
0.001655 0.021866 0.001526
0.002139 0.021603 0.001551
0.014697 0.014617 0.001526
0.050424 0.025741 0.003040
0.106201 0.038339 0.005496
0.177612 0.049683 0.008705
0.259120 0.057921 0.010724
0.352589 0.063067 0.014683
0.452486 0.065819 0.018810
0.553512 0.066195 0.024038
0.654612 0.063763 0.029274
0.756310 0.060030 0.035246
0.860414 0.056698 0.042530
0.957359 0.050531 0.050775
0.983498 0.046397 0.055226
0.983646 0.046410 0.055256
0.004552 0.087937 0.005682
0.005430 0.087329 0.005684
0.043605 0.083843 0.007174
0.074802 0.070920 0.007176
0.120389 0.070793 0.008001
0.186375 0.085501 0.010056
0.264787 0.100497 0.013232
0.352728 0.115129 0.016782
0.447467 0.128075 0.021653
0.543291 0.137108 0.026144
0.638104 0.140262 0.031367
0.731485 0.140150 0.036605
0.826300 0.138991 0.041223
0.923864 0.137965 0.048000
0.967886 0.136957 0.052423
0.968080 0.136949 0.052483
0.007034 0.162721 0.011458
0.008121 0.161967 0.011412
0.050487 0.154615 0.011458
0.117237 0.161967 0.013654
0.145178 0.132713 0.012241
0.201755 0.126622 0.013441
0.277851 0.139823 0.015979
0.363286 0.155031 0.020169
0.455085 0.169029 0.024631
0.548790 0.180806 0.029696
0.641457 0.190182 0.035092
0.734732 0.198899 0.040902
0.828728 0.207012 0.046908
0.926448 0.212029 0.052924
0.967800 0.213016 0.056612
0.968146 0.213045 0.056654
0.011507 0.244974 0.019952
0.012783 0.244158 0.019916
0.056060 0.234990 0.020699
0.130749 0.242168 0.022160
0.210357 0.245669 0.024136
0.232657 0.204112 0.020219
0.298420 0.192623 0.021149
0.382035 0.200113 0.024704
0.473383 0.214189 0.029371
0.566945 0.226193 0.034688
0.660026 0.236186 0.039828
0.754249 0.245151 0.045890
0.849132 0.252632 0.051975
0.944180 0.260645 0.057991
0.976495 0.266542 0.062424
0.976669 0.266605 0.062467
0.016033 0.331005 0.032779
0.017449 0.330350 0.032740
0.065162 0.323166 0.032779
0.138792 0.326443 0.034235
0.231357 0.333248 0.038016
0.314586 0.330604 0.039080
0.331173 0.278104 0.032039
0.404993 0.263537 0.032357
0.495383 0.264046 0.035988
0.588954 0.275191 0.041539
0.683737 0.285840 0.047187
0.778956 0.292976 0.052738
0.876817 0.301123 0.058678
0.962511 0.310081 0.064702
0.985139 0.315882 0.069123
0.985364 0.315981 0.069181
0.022972 0.414110 0.048809
0.024379 0.413812 0.048797
0.071615 0.411249 0.048809
0.144735 0.412848 0.050292
0.240357 0.419417 0.052774
0.350583 0.427189 0.057490
0.424659 0.411753 0.056510
0.438298 0.353681 0.047036
0.518584 0.337690 0.047462
0.612092 0.330351 0.050090
0.707473 0.336710 0.054925
0.802288 0.345030 0.060537
0.902384 0.354552 0.065994
0.973461 0.363370 0.072010
0.991026 0.368175 0.076435
0.991238 0.368214 0.076480
0.036054 0.490867 0.064426
0.037362 0.491093 0.064456
0.082741 0.494643 0.065172
0.147076 0.496739 0.065948
0.246503 0.502980 0.068779
0.358026 0.509168 0.071796
0.480155 0.517951 0.076982
0.537087 0.488528 0.073289
0.550460 0.427960 0.063253
0.635218 0.409561 0.063219
0.731588 0.397157 0.064746
0.826959 0.397055 0.069186
0.926436 0.405540 0.074202
0.981336 0.414234 0.080203
0.994375 0.419994 0.083901
0.994500 0.419994 0.083935
0.045456 0.566665 0.080034
0.046837 0.566784 0.080036
0.092613 0.570380 0.080034
0.151919 0.573226 0.080785
0.248786 0.577727 0.083454
0.360050 0.584822 0.087158
0.486186 0.595152 0.091649
0.613375 0.602229 0.096097
0.650799 0.559461 0.089236
0.665098 0.498359 0.079009
0.749500 0.477247 0.078066
0.846882 0.460623 0.079756
0.942212 0.454771 0.081852
0.985650 0.463285 0.087818
0.996084 0.467110 0.090803
0.996159 0.467073 0.090796
0.055430 0.634137 0.093873
0.056640 0.634243 0.093884
0.098557 0.639526 0.094617
0.156088 0.642370 0.095362
0.246272 0.648011 0.097227
0.359510 0.655619 0.101507
0.484495 0.666930 0.105416
0.621262 0.677220 0.110444
0.743345 0.679302 0.113814
0.759201 0.622612 0.103710
0.768704 0.559209 0.092964
0.856056 0.537133 0.091796
0.948691 0.521436 0.092929
0.987682 0.510114 0.094414
0.996953 0.511146 0.097391
0.996912 0.511051 0.097391
0.061160 0.697993 0.107427
0.062318 0.698366 0.107436
0.101833 0.705107 0.108171
0.157578 0.709115 0.109668
0.241868 0.714941 0.110575
0.352843 0.723753 0.114683
0.478320 0.734533 0.118768
0.614921 0.745067 0.123611
0.760104 0.754859 0.128688
0.861383 0.744868 0.129231
0.860869 0.679231 0.116782
0.865303 0.612103 0.104661
0.947213 0.591578 0.104421
0.987422 0.577585 0.105877
0.996906 0.566793 0.105906
0.996931 0.566539 0.105877
0.066286 0.760184 0.120711
0.067345 0.760482 0.120751
0.106266 0.769008 0.122197
0.159250 0.773719 0.122977
0.234488 0.779468 0.124483
0.345456 0.789647 0.127667
0.469871 0.800613 0.131917
0.606562 0.811224 0.136591
0.751507 0.819554 0.141522
0.903054 0.826338 0.146709
0.960866 0.806459 0.143754
0.953420 0.731991 0.129611
0.951454 0.662996 0.116988
0.986365 0.644006 0.116220
0.996882 0.634997 0.116988
0.996983 0.634942 0.116967
0.071749 0.820439 0.133938
0.072759 0.820542 0.133977
0.108300 0.827984 0.135423
0.161324 0.831999 0.136952
0.230934 0.835409 0.138126
0.337864 0.840844 0.141254
0.461288 0.846469 0.145561
0.597950 0.850878 0.150178
0.743412 0.854479 0.154915
0.896905 0.857424 0.159864
0.985732 0.860110 0.165305
0.992516 0.843924 0.156897
0.988958 0.784378 0.142236
0.987302 0.711869 0.128119
0.996724 0.700225 0.128099
0.996752 0.700247 0.128119
0.074567 0.844803 0.142963
0.075574 0.845008 0.143037
0.110311 0.849836 0.145195
0.164380 0.851902 0.146003
0.231464 0.853952 0.147471
0.334421 0.857617 0.149924
0.457369 0.861691 0.154903
0.594099 0.864939 0.159584
0.740015 0.867738 0.164312
0.887270 0.868602 0.169381
0.982314 0.869028 0.174734
0.997730 0.864361 0.177542
0.997775 0.842372 0.160574
0.997488 0.788970 0.144149
0.996483 0.741017 0.135308
0.996483 0.740445 0.135230
0.074601 0.844945 0.143046
0.075617 0.845130 0.143123
0.110349 0.849909 0.145279
0.164419 0.852046 0.146089
0.231425 0.854487 0.147584
0.334398 0.858004 0.150028
0.457331 0.861808 0.155009
0.594071 0.864997 0.159687
0.739914 0.867862 0.164423
0.886644 0.868644 0.169506
0.981926 0.869244 0.174831
0.997718 0.864644 0.177671
0.997781 0.842158 0.160683
0.997568 0.790313 0.144985
0.996491 0.741506 0.135416
0.996470 0.740951 0.135316
0.000000 0.000000 0.000000
0.000000 0.000000 0.000000
0.016314 0.001039 0.000748
0.070696 0.002077 0.002245
0.139206 0.004151 0.004612
0.220605 0.004292 0.006807
0.315883 0.006226 0.009843
0.418200 0.007398 0.014283
0.519048 0.008388 0.021719
0.615298 0.009243 0.027686
0.710467 0.009424 0.032929
0.808323 0.011316 0.036651
0.906084 0.010790 0.040457
0.972835 0.011826 0.043483
0.989580 0.011825 0.047180
0.989768 0.011826 0.047221
0.000000 0.000000 0.000000
0.000000 0.000000 0.000000
0.016314 0.001039 0.000748
0.069830 0.003116 0.002245
0.136645 0.004443 0.004590
0.218939 0.005579 0.006742
0.312981 0.007543 0.009821
0.415159 0.008681 0.014221
0.516382 0.009567 0.021503
0.613331 0.010208 0.027441
0.710080 0.010604 0.032712
0.807481 0.011243 0.037153
0.906104 0.010784 0.040424
0.973269 0.011824 0.043461
0.989584 0.011821 0.047144
0.989784 0.011824 0.047193
0.001616 0.021784 0.001983
0.002091 0.021567 0.001975
0.015490 0.015569 0.001983
0.051229 0.025703 0.003451
0.107746 0.039276 0.005538
0.179577 0.049293 0.008758
0.261876 0.056797 0.010766
0.355880 0.061644 0.014737
0.455979 0.064218 0.018910
0.557102 0.064441 0.024153
0.658407 0.061135 0.029371
0.760239 0.058270 0.035360
0.863323 0.053853 0.042158
0.959538 0.047685 0.050402
0.984184 0.044575 0.054849
0.984390 0.044587 0.054882
0.004474 0.087794 0.006519
0.005307 0.087287 0.006469
0.042671 0.084717 0.007265
0.074668 0.070878 0.007215
0.121207 0.070738 0.008057
0.188480 0.085352 0.010161
0.266724 0.100438 0.013289
0.355038 0.114984 0.016887
0.450097 0.127563 0.021729
0.546164 0.136175 0.026240
0.640984 0.138740 0.030697
0.734536 0.139219 0.035954
0.829912 0.138486 0.042280
0.927553 0.137464 0.048313
0.969917 0.135436 0.052729
0.970258 0.135432 0.052791
0.006906 0.162614 0.012376
0.007948 0.162001 0.012277
0.049494 0.155542 0.011628
0.117028 0.162001 0.013771
0.146267 0.133815 0.012291
0.203181 0.126670 0.012744
0.279027 0.139903 0.016028
0.364865 0.155076 0.020220
0.457042 0.168981 0.024718
0.551015 0.180725 0.029787
0.643591 0.191164 0.034433
0.737173 0.198843 0.040991
0.832943 0.207040 0.047080
0.929072 0.211083 0.052362
0.969612 0.212064 0.056788
0.969908 0.212074 0.056839
0.011179 0.245090 0.020856
0.012398 0.244368 0.020772
0.055712 0.236120 0.020856
0.129389 0.242377 0.022269
0.210911 0.246761 0.024160
0.232672 0.203293 0.020272
0.299015 0.192738 0.021172
0.383078 0.200276 0.024758
0.474925 0.214274 0.029456
0.568607 0.226293 0.034781
0.662868 0.235277 0.039914
0.756013 0.244238 0.045985
0.852270 0.252545 0.052149
0.945557 0.260560 0.058911
0.977502 0.266459 0.062593
0.977664 0.266519 0.062643
0.015469 0.331454 0.033382
0.016855 0.330843 0.033312
0.064569 0.323619 0.032635
0.138123 0.327907 0.034060
0.231729 0.333579 0.038074
0.314225 0.330762 0.039133
0.331575 0.278452 0.032097
0.405693 0.263687 0.032408
0.496455 0.264260 0.036057
0.590413 0.275355 0.041625
0.684862 0.285074 0.047257
0.780583 0.294145 0.053570
0.877793 0.301180 0.058796
0.963620 0.310129 0.065565
0.985733 0.315946 0.069241
0.985891 0.316033 0.069297
0.022031 0.415074 0.048968
0.023433 0.414816 0.048957
0.071496 0.412196 0.048968
0.142741 0.413880 0.050449
0.239622 0.420096 0.052900
0.349115 0.427683 0.056858
0.424953 0.412409 0.056630
0.439001 0.354191 0.047152
0.519709 0.337952 0.047556
0.613501 0.330575 0.050184
0.708677 0.337952 0.055021
0.805109 0.346223 0.060637
0.902948 0.354518 0.066070
0.974502 0.363381 0.072080
0.991379 0.368140 0.076512
0.991478 0.368253 0.076552
0.034545 0.492091 0.064612
0.035870 0.492141 0.064644
0.082042 0.495842 0.065357
0.146345 0.497791 0.066133
0.244235 0.502768 0.068908
0.356880 0.510297 0.072780
0.479870 0.518683 0.077107
0.538230 0.489662 0.073528
0.551660 0.428699 0.063423
0.636618 0.409975 0.063338
0.732800 0.396963 0.065664
0.829696 0.396491 0.069309
0.927834 0.405415 0.074298
0.981668 0.414058 0.080286
0.994586 0.419831 0.083988
0.994662 0.419871 0.084010
0.043854 0.567785 0.080246
0.045243 0.567902 0.080253
0.090930 0.571497 0.080246
0.151092 0.574343 0.080995
0.247213 0.578509 0.084302
0.359209 0.585694 0.087327
0.485567 0.595935 0.091754
0.613662 0.603096 0.096266
0.652092 0.560617 0.089507
0.666377 0.499050 0.079160
0.750885 0.477504 0.078319
0.848197 0.461310 0.079903
0.942827 0.454832 0.082068
0.986335 0.463244 0.088049
0.996228 0.467172 0.091016
0.996236 0.467053 0.091025
0.053725 0.635248 0.094134
0.054956 0.635464 0.094147
0.097681 0.640708 0.094134
0.155192 0.643611 0.094894
0.245330 0.647629 0.097315
0.357944 0.657189 0.100865
0.483416 0.667461 0.105509
0.620682 0.677886 0.110548
0.743687 0.680112 0.113979
0.760473 0.623614 0.103934
0.770395 0.559172 0.093128
0.857377 0.538214 0.091266
0.949782 0.521542 0.093179
0.987922 0.510219 0.094674
0.996876 0.511259 0.097650
0.996944 0.511156 0.097648
0.059756 0.699066 0.107670
0.060946 0.699325 0.107679
0.102175 0.705362 0.108420
0.157965 0.709974 0.109169
0.240849 0.715268 0.110642
0.352001 0.724348 0.114726
0.477148 0.734847 0.118830
0.613970 0.745645 0.123654
0.759394 0.755239 0.128752
0.862055 0.745736 0.129367
0.862762 0.679624 0.116855
0.864747 0.612897 0.104806
0.948316 0.592405 0.103840
0.987684 0.577489 0.105299
0.996955 0.566663 0.106073
0.996970 0.566439 0.106047
0.065490 0.761035 0.120879
0.066566 0.761130 0.120907
0.105436 0.768947 0.121629
0.158410 0.774399 0.122397
0.233347 0.780793 0.124558
0.344485 0.789933 0.127721
0.468615 0.801015 0.131998
0.605473 0.811566 0.136648
0.750649 0.819874 0.141587
0.902262 0.826548 0.146781
0.961732 0.806877 0.143816
0.954512 0.733233 0.129671
0.951722 0.663085 0.117077
0.986635 0.644028 0.116314
0.996954 0.635108 0.117077
0.997017 0.634932 0.117057
0.071555 0.820617 0.134046
0.072539 0.820986 0.134098
0.108096 0.828768 0.135531
0.160156 0.832268 0.137072
0.229774 0.836164 0.138231
0.335730 0.841559 0.141329
0.459971 0.846613 0.145661
0.596743 0.851102 0.150244
0.742417 0.854624 0.154985
0.895987 0.857530 0.159916
0.985819 0.860250 0.165390
0.992608 0.844111 0.157696
0.989279 0.784584 0.142319
0.987174 0.712055 0.128938
0.996716 0.700479 0.128186
0.996843 0.700402 0.128190
0.074543 0.844972 0.143056
0.075537 0.845082 0.143119
0.110282 0.849932 0.145289
0.163376 0.852289 0.146090
0.230224 0.854467 0.147587
0.333298 0.858006 0.150763
0.455956 0.861791 0.155012
0.592777 0.864999 0.159680
0.738623 0.867720 0.164443
0.885773 0.868621 0.169436
0.981927 0.869079 0.174836
0.997698 0.864628 0.178343
0.997707 0.842136 0.160659
0.997533 0.789359 0.144973
0.996534 0.741305 0.135396
0.996529 0.740853 0.135304
0.074581 0.845098 0.143172
0.075574 0.845262 0.143195
0.110325 0.850396 0.145400
0.163422 0.852194 0.145428
0.230194 0.854591 0.146948
0.333251 0.858198 0.150859
0.455920 0.861933 0.155127
0.592744 0.865221 0.159776
0.738611 0.867893 0.164554
0.885353 0.868663 0.169561
0.981565 0.869238 0.174956
0.997646 0.864656 0.178460
0.997713 0.842721 0.161492
0.997605 0.790646 0.145047
0.996541 0.741706 0.135480
0.996511 0.741192 0.135379
0.000325 0.001682 0.009808
0.000470 0.001609 0.009755
0.016409 0.000784 0.018032
0.064832 0.002601 0.034421
0.128305 0.003954 0.043963
0.208512 0.004246 0.051041
0.300456 0.006018 0.058146
0.401269 0.007354 0.064477
0.505086 0.008613 0.071627
0.604802 0.009774 0.077424
0.701664 0.010684 0.081327
0.797142 0.011844 0.084133
0.892495 0.012691 0.084420
0.968445 0.012697 0.086702
0.987502 0.013727 0.088140
0.987587 0.013733 0.088195
0.000366 0.001747 0.009498
0.000488 0.001677 0.009505
0.016441 0.001747 0.019215
0.066596 0.002673 0.034167
0.130907 0.003969 0.043084
0.210704 0.004251 0.050109
0.302320 0.006035 0.057265
0.402647 0.007359 0.063546
0.506047 0.008611 0.070597
0.605732 0.009764 0.076429
0.704001 0.010682 0.080292
0.799443 0.011835 0.083135
0.895606 0.012678 0.084697
0.969232 0.012687 0.086236
0.987850 0.013713 0.087676
0.987955 0.013723 0.087725
0.001255 0.022595 0.017946
0.001273 0.022818 0.018128
0.018333 0.023628 0.017946
0.091451 0.008311 0.007664
0.162528 0.008925 0.008780
0.244757 0.009866 0.012240
0.334710 0.010994 0.015506
0.431755 0.011937 0.020461
0.532329 0.012581 0.026694
0.631748 0.013164 0.032687
0.729824 0.012581 0.040140
0.827174 0.014200 0.048372
0.927554 0.014470 0.057428
0.982276 0.014483 0.065732
0.993279 0.014470 0.070861
0.993284 0.014483 0.070951
0.003128 0.085321 0.034639
0.003158 0.086039 0.034290
0.012900 0.104743 0.010726
0.086472 0.081936 0.010373
0.155632 0.072994 0.008935
0.238023 0.080760 0.011249
0.329089 0.089390 0.014917
0.426496 0.092030 0.018725
0.528580 0.092856 0.023585
0.630286 0.091186 0.028603
0.729528 0.088766 0.034045
0.829463 0.085044 0.040555
0.932743 0.081558 0.047645
0.984129 0.076450 0.055945
0.996068 0.076435 0.062575
0.996179 0.076450 0.062661
0.004944 0.159604 0.046270
0.004964 0.160562 0.045569
0.013926 0.179789 0.016384
0.095602 0.180735 0.015679
0.161856 0.146342 0.014774
0.234752 0.132133 0.014055
0.324429 0.142289 0.017765
0.421778 0.153435 0.022276
0.523130 0.163907 0.027203
0.623707 0.171824 0.032587
0.721154 0.177035 0.037660
0.819881 0.175875 0.043789
0.919437 0.174927 0.049959
0.978949 0.172913 0.056011
0.993318 0.171904 0.061153
0.993453 0.171907 0.061235
0.006705 0.244459 0.056866
0.006706 0.245371 0.055882
0.018178 0.266318 0.025499
0.092147 0.266235 0.024512
0.202735 0.266026 0.027504
0.253649 0.220365 0.023475
0.334394 0.200161 0.023022
0.431550 0.207348 0.027210
0.532958 0.217539 0.032348
0.633389 0.225965 0.037769
0.731672 0.232527 0.043552
0.830119 0.238952 0.049718
0.928308 0.245486 0.055422
0.981169 0.251510 0.062213
0.994249 0.257424 0.067360
0.994359 0.257475 0.067437
0.008265 0.334524 0.065665
0.008241 0.335426 0.064587
0.023079 0.357988 0.040288
0.092044 0.357898 0.039207
0.205574 0.360050 0.041758
0.326650 0.361159 0.045047
0.365333 0.303220 0.037277
0.452386 0.277727 0.036087
0.553328 0.275917 0.039916
0.654327 0.282912 0.045583
0.752333 0.288776 0.051115
0.851123 0.294762 0.056784
0.945429 0.299877 0.062487
0.986584 0.306876 0.068584
0.996581 0.314651 0.075166
0.996551 0.314756 0.075296
0.009489 0.426085 0.074413
0.009443 0.427181 0.073381
0.026822 0.452783 0.057253
0.096945 0.451037 0.056217
0.204943 0.452592 0.058959
0.340264 0.461262 0.063049
0.460977 0.455459 0.065676
0.488711 0.387489 0.054841
0.579528 0.357079 0.052681
0.680126 0.344935 0.055247
0.779149 0.347324 0.060143
0.878462 0.351773 0.065692
0.962146 0.356435 0.070578
0.991832 0.363382 0.076684
0.996980 0.373984 0.087718
0.996966 0.374085 0.087861
0.010233 0.513149 0.082482
0.010253 0.514564 0.081868
0.031767 0.541057 0.075025
0.101441 0.538800 0.074410
0.202124 0.540631 0.075694
0.335783 0.549186 0.079637
0.489685 0.561002 0.085384
0.595609 0.541772 0.084849
0.615649 0.467686 0.072521
0.706040 0.433793 0.069729
0.804793 0.411386 0.069534
0.904567 0.410784 0.074199
0.973627 0.413822 0.079069
0.995365 0.419676 0.085854
0.997180 0.429159 0.099189
0.997184 0.429268 0.099270
0.010688 0.597101 0.091696
0.010872 0.598165 0.091587
0.035604 0.618994 0.090945
0.105730 0.617330 0.090085
0.196886 0.619024 0.090905
0.327530 0.627470 0.094105
0.476628 0.639002 0.099849
0.642002 0.650990 0.106024
0.720060 0.614930 0.101324
0.734784 0.537973 0.088099
0.823524 0.502186 0.084932
0.921593 0.476133 0.085119
0.979150 0.468894 0.086919
0.996613 0.474634 0.095182
0.997351 0.479278 0.108527
0.997354 0.479359 0.108594
0.010811 0.672923 0.100868
0.011287 0.673456 0.101102
0.042496 0.685517 0.104595
0.111641 0.684270 0.104088
0.192599 0.685426 0.103895
0.315217 0.694906 0.107585
0.459081 0.706891 0.112829
0.620475 0.719835 0.118750
0.783877 0.727544 0.123926
0.830228 0.674554 0.115246
0.840774 0.596979 0.100854
0.928365 0.561733 0.098119
0.980647 0.536087 0.097363
0.996704 0.523898 0.102636
0.997479 0.524008 0.115235
0.997483 0.523898 0.115298
0.014010 0.737466 0.114426
0.014800 0.737988 0.114613
0.050948 0.746439 0.118148
0.117374 0.745081 0.116844
0.193374 0.747999 0.117413
0.305273 0.756184 0.120795
0.441914 0.768324 0.124854
0.595646 0.781690 0.130470
0.764005 0.793424 0.136263
0.914006 0.794492 0.139978
0.927793 0.725408 0.127341
0.931648 0.646852 0.113195
0.978525 0.615347 0.110406
0.996739 0.591390 0.111938
0.997615 0.573256 0.120823
0.997618 0.573024 0.120877
0.018188 0.798106 0.128666
0.019523 0.798217 0.128760
0.063090 0.803352 0.130148
0.125383 0.805302 0.129499
0.197423 0.807350 0.130250
0.296400 0.814659 0.132509
0.428664 0.824806 0.136941
0.575867 0.833423 0.142179
0.736712 0.839825 0.147515
0.908663 0.844481 0.153177
0.979942 0.837984 0.153457
0.978366 0.770515 0.138313
0.977085 0.691695 0.123509
0.995575 0.664431 0.122050
0.997597 0.642262 0.128722
0.997600 0.641907 0.128743
0.026158 0.842178 0.142705
0.028075 0.842186 0.142651
0.078498 0.843403 0.141955
0.134889 0.844978 0.141910
0.203636 0.846458 0.143039
0.293731 0.850417 0.145097
0.420148 0.854865 0.149724
0.563239 0.859045 0.154750
0.718013 0.862132 0.160004
0.882688 0.864542 0.165229
0.986520 0.866942 0.171162
0.997194 0.856888 0.166706
0.995341 0.813992 0.149546
0.994054 0.735885 0.134000
0.997610 0.711414 0.136908
0.997621 0.711053 0.136973
0.036499 0.856641 0.151277
0.038438 0.856642 0.151224
0.088534 0.857998 0.151277
0.143581 0.859564 0.151224
0.210714 0.860772 0.152070
0.294802 0.862825 0.153702
0.419259 0.866204 0.158749
0.558549 0.867725 0.164097
0.703226 0.868487 0.169521
0.849719 0.869127 0.174015
0.971376 0.869465 0.178430
0.997367 0.867486 0.184391
0.997978 0.848268 0.169925
0.997706 0.801941 0.152738
0.997628 0.754916 0.142439
0.997623 0.754335 0.142331
0.036660 0.856747 0.151358
0.038596 0.856751 0.151310
0.088705 0.858094 0.151358
0.143756 0.859446 0.151310
0.210770 0.861049 0.151447
0.294785 0.863082 0.154573
0.419317 0.866228 0.158881
0.558528 0.867741 0.164210
0.703161 0.868475 0.169635
0.849254 0.869148 0.174064
0.970748 0.869452 0.178535
0.997290 0.867504 0.184451
0.997980 0.848829 0.169232
0.997707 0.802331 0.153532
0.997630 0.755379 0.142487
0.997625 0.754846 0.142391
0.000293 0.006953 0.040074
0.000372 0.006559 0.041211
0.015565 0.001828 0.045298
0.069086 0.003467 0.071809
0.132245 0.003242 0.085539
0.209469 0.004579 0.098117
0.299655 0.006345 0.108632
0.399085 0.007677 0.117470
0.502604 0.009027 0.125465
0.603406 0.010255 0.131566
0.700243 0.011097 0.134394
0.793092 0.012327 0.136031
0.888746 0.012878 0.136800
0.966255 0.013920 0.137568
0.986624 0.014949 0.139031
0.986808 0.014955 0.139052
0.000337 0.007562 0.039855
0.000398 0.007160 0.041054
0.015594 0.001424 0.046577
0.069987 0.004055 0.073150
0.133010 0.003269 0.085964
0.211860 0.004600 0.098308
0.301575 0.006371 0.108309
0.400651 0.007697 0.116929
0.503657 0.009035 0.124771
0.604374 0.010261 0.130776
0.701370 0.011106 0.134438
0.796746 0.012334 0.135978
0.890871 0.012892 0.137109
0.967797 0.013933 0.137872
0.987118 0.014963 0.138597
0.987294 0.014968 0.138617
0.002217 0.040462 0.055712
0.002192 0.040770 0.056986
0.003820 0.020823 0.092999
0.087156 0.005610 0.086820
0.162823 0.004576 0.078325
0.244207 0.005817 0.077618
0.335036 0.006639 0.079818
0.432275 0.007884 0.083582
0.532998 0.009066 0.087787
0.632468 0.010221 0.091792
0.730466 0.011136 0.096721
0.827925 0.012293 0.102218
0.928293 0.012882 0.107911
0.982105 0.013937 0.114643
0.993159 0.015988 0.120562
0.993185 0.016008 0.120596
0.003307 0.089867 0.068387
0.003323 0.090451 0.068802
0.004117 0.108272 0.081061
0.073413 0.092496 0.071037
0.189720 0.043650 0.040765
0.301498 0.020548 0.019508
0.396612 0.017812 0.020594
0.497010 0.017442 0.023993
0.600388 0.017483 0.029011
0.702476 0.017443 0.035139
0.801496 0.017483 0.041712
0.900820 0.017443 0.048585
0.971586 0.017370 0.055259
0.994835 0.017857 0.064515
0.997785 0.047337 0.097763
0.997798 0.047816 0.098061
0.004998 0.161522 0.080995
0.005027 0.162314 0.080917
0.004998 0.187738 0.072052
0.034801 0.232625 0.037637
0.168984 0.164690 0.058741
0.292440 0.138734 0.027999
0.402605 0.131247 0.021401
0.506607 0.129583 0.024262
0.611547 0.124833 0.029183
0.715410 0.120104 0.034684
0.817260 0.113630 0.040393
0.918429 0.108897 0.046633
0.978211 0.102130 0.053986
0.996530 0.103620 0.063926
0.996975 0.140819 0.085315
0.996970 0.141288 0.085552
0.007020 0.244711 0.094629
0.007035 0.245563 0.094267
0.007834 0.277493 0.078233
0.026813 0.332488 0.039808
0.179498 0.309298 0.050218
0.276398 0.246183 0.058598
0.402552 0.217992 0.034537
0.516401 0.212224 0.031717
0.622685 0.212894 0.036114
0.726362 0.215145 0.041512
0.826578 0.215883 0.047316
0.928258 0.216139 0.053455
0.980376 0.211153 0.058628
0.996192 0.214545 0.070071
0.996918 0.243130 0.092179
0.996927 0.243527 0.092427
0.008986 0.334095 0.106729
0.008997 0.335031 0.106169
0.008986 0.375065 0.086617
0.026324 0.425176 0.054730
0.157024 0.427445 0.053940
0.316899 0.384581 0.075177
0.390950 0.329502 0.069608
0.524559 0.297561 0.048314
0.643669 0.288735 0.046350
0.748762 0.286824 0.050635
0.850182 0.286780 0.055304
0.945645 0.286824 0.061088
0.986425 0.289136 0.067197
0.996753 0.305221 0.083147
0.997164 0.332424 0.106697
0.997174 0.332712 0.106993
0.010875 0.426203 0.117335
0.010879 0.427287 0.116671
0.010875 0.472836 0.094991
0.028243 0.517164 0.071979
0.139203 0.522324 0.071461
0.315511 0.516897 0.078623
0.464630 0.481034 0.093083
0.514843 0.413639 0.083835
