example_ofxGpuLutCube/bin/data/ofxGpuLutCube/LUT/T36 (hard sunset fade).cube
LUT_3D_SIZE 16
0.173798 0.165802 0.164734
0.177743 0.165875 0.164726
0.191486 0.166134 0.164557
0.211011 0.166846 0.164264
0.238108 0.167676 0.163859
0.273306 0.168376 0.163463
0.301312 0.168677 0.163269
0.326451 0.168917 0.163181
0.397272 0.169995 0.163975
0.506793 0.177758 0.163947
0.596710 0.186188 0.163737
0.650535 0.191959 0.163607
0.688446 0.196380 0.163476
0.719018 0.200139 0.163377
0.741545 0.203027 0.163304
0.759592 0.205403 0.163239
0.174781 0.166449 0.164906
0.177293 0.166546 0.164902
0.183783 0.166999 0.164833
0.195910 0.167977 0.164653
0.215394 0.169031 0.164358
0.248276 0.170220 0.163860
0.305454 0.171199 0.163383
0.399154 0.171638 0.163469
0.513360 0.178293 0.163896
0.604549 0.186999 0.163703
0.657582 0.192789 0.163575
0.694946 0.197186 0.163454
0.725738 0.200990 0.163342
0.747936 0.203869 0.163265
0.765656 0.206201 0.163177
0.781653 0.208370 0.163112
0.175720 0.170288 0.165225
0.179081 0.170663 0.165220
0.186090 0.171125 0.165114
0.198883 0.172007 0.164893
0.218849 0.173294 0.164557
0.252789 0.174883 0.164046
0.316204 0.176764 0.163599
0.426640 0.178733 0.163284
0.552345 0.182342 0.163457
0.636814 0.190445 0.163383
0.684509 0.195911 0.163332
0.720041 0.200271 0.163230
0.747935 0.203846 0.163165
0.766845 0.206345 0.163100
0.783513 0.208629 0.163028
0.799148 0.210808 0.162993
0.177234 0.176764 0.165497
0.181657 0.177726 0.165517
0.190701 0.178331 0.165385
0.205007 0.179809 0.165150
0.227933 0.181782 0.164791
0.266353 0.184355 0.164266
0.340114 0.187904 0.163922
0.461627 0.192714 0.163627
0.580871 0.196256 0.163212
0.659617 0.199742 0.162993
0.705443 0.202340 0.162982
0.739148 0.205800 0.163019
0.766401 0.209161 0.162938
0.784732 0.211628 0.162868
0.800743 0.213957 0.162813
0.815198 0.216316 0.162745
0.180208 0.190067 0.165792
0.185304 0.191927 0.165838
0.197391 0.193156 0.165653
0.214458 0.195346 0.165492
0.242759 0.198655 0.165171
0.290654 0.203122 0.164813
0.383638 0.209963 0.164544
0.519904 0.217926 0.164178
0.621600 0.223067 0.163910
0.688246 0.228669 0.163782
0.730034 0.232907 0.163692
0.761110 0.236637 0.163585
0.787150 0.240562 0.163527
0.804577 0.243684 0.163489
0.819211 0.246533 0.163454
0.832089 0.249186 0.163424
0.184702 0.216115 0.166179
0.192348 0.221485 0.166394
0.206656 0.222050 0.166116
0.229260 0.226768 0.166065
0.266224 0.233440 0.166278
0.337260 0.242452 0.166338
0.469055 0.254995 0.166135
0.595192 0.265596 0.165754
0.672171 0.273781 0.165460
0.726215 0.281268 0.165269
0.762963 0.287113 0.165141
0.787927 0.291837 0.165076
0.809253 0.296614 0.165011
0.824332 0.300055 0.164961
0.835593 0.302798 0.164928
0.845577 0.305651 0.164917
0.194281 0.258374 0.169092
0.203131 0.269516 0.170437
0.224804 0.272949 0.170891
0.254328 0.281608 0.172035
0.306572 0.295693 0.173633
0.425692 0.317098 0.173729
0.570690 0.338775 0.172579
0.662422 0.353963 0.172184
0.719107 0.366825 0.172419
0.758830 0.376777 0.172698
0.787287 0.384389 0.172992
0.808231 0.390817 0.173307
0.827428 0.397963 0.173820
0.840309 0.402756 0.174184
0.847820 0.406456 0.174528
0.853825 0.409856 0.174877
0.211578 0.324860 0.177856
0.223391 0.348694 0.181471
0.261199 0.361713 0.183563
0.305868 0.384169 0.187349
0.396632 0.417858 0.193395
0.542897 0.453490 0.195821
0.649604 0.476306 0.196134
0.711776 0.491158 0.196692
0.752884 0.503260 0.197556
0.787134 0.514182 0.198518
0.813572 0.523446 0.199426
0.832424 0.528473 0.199725
0.847086 0.534213 0.200391
0.855738 0.538663 0.201011
0.861634 0.541175 0.201337
0.867350 0.543733 0.201671
0.251671 0.424667 0.194265
0.270176 0.459421 0.200753
0.324439 0.482456 0.205305
0.394750 0.510996 0.211176
0.515196 0.539785 0.217505
0.626227 0.565982 0.219948
0.698609 0.581639 0.220241
0.745217 0.593057 0.220795
0.780046 0.601968 0.221298
0.810808 0.610275 0.221860
0.834076 0.618127 0.222727
0.849281 0.622798 0.223157
0.859262 0.627183 0.223813
0.867438 0.630647 0.224328
0.873242 0.632659 0.224573
0.878850 0.634546 0.224756
0.311035 0.536682 0.216351
0.343422 0.567817 0.223024
0.415735 0.584635 0.226867
0.518629 0.605465 0.231753
0.609256 0.621645 0.235672
0.682204 0.638405 0.237077
0.735100 0.649796 0.237330
0.771109 0.657784 0.237564
0.801465 0.664960 0.237864
0.828408 0.672636 0.238528
0.847614 0.678986 0.239244
0.858905 0.683100 0.239777
0.867668 0.686670 0.240309
0.875701 0.689561 0.240677
0.881549 0.691272 0.240843
0.887047 0.693149 0.241057
0.404683 0.626373 0.236165
0.453606 0.650839 0.241907
0.550701 0.662978 0.244985
0.617002 0.670705 0.247003
0.673743 0.680962 0.249574
0.726681 0.695041 0.251153
0.764077 0.702712 0.251227
0.793501 0.709137 0.251399
0.819789 0.716117 0.251924
0.843400 0.723206 0.252647
0.858049 0.728105 0.253248
0.866638 0.731655 0.253787
0.875128 0.734827 0.254252
0.882899 0.737014 0.254432
0.888662 0.738504 0.254535
0.894028 0.739882 0.254628
0.560824 0.697536 0.253158
0.600071 0.715987 0.257710
0.647317 0.717281 0.258175
0.683312 0.717480 0.258366
0.724643 0.727224 0.260731
0.761134 0.737715 0.262035
0.788873 0.742967 0.261979
0.813567 0.748251 0.262102
0.836273 0.755097 0.262818
0.855275 0.761154 0.263507
0.865148 0.764749 0.264029
0.873224 0.767812 0.264480
0.881437 0.770718 0.264867
0.889027 0.773202 0.265169
0.894686 0.774872 0.265346
0.899959 0.776594 0.265551
0.665673 0.750299 0.266253
0.690601 0.765168 0.269985
0.712962 0.763600 0.269694
0.735988 0.761904 0.269358
0.764931 0.769350 0.271299
0.792265 0.777633 0.272534
0.813629 0.781374 0.272385
0.834011 0.785710 0.272485
0.853052 0.790948 0.272941
0.865093 0.794725 0.273376
0.872398 0.797325 0.273724
0.879929 0.799686 0.274032
0.887606 0.802080 0.274297
0.894575 0.803928 0.274442
0.899927 0.805371 0.274567
0.905079 0.806701 0.274652
0.732670 0.789441 0.276149
0.748408 0.800391 0.283746
0.762204 0.803671 0.286643
0.777464 0.799404 0.278823
0.796248 0.803239 0.279860
0.819519 0.812021 0.281664
0.836895 0.815136 0.281577
0.854230 0.819001 0.281695
0.867393 0.822733 0.282070
0.874848 0.825469 0.282484
0.881626 0.827745 0.282790
0.888716 0.829995 0.283074
0.896006 0.832171 0.283309
0.902230 0.833666 0.283374
0.907238 0.834715 0.283419
0.911963 0.836221 0.283590
0.779319 0.820931 0.297487
0.792585 0.832606 0.316654
0.803420 0.839386 0.327491
0.811144 0.831112 0.308280
0.824668 0.832726 0.304296
0.844992 0.841380 0.302406
0.859682 0.844095 0.300327
0.871550 0.847151 0.298811
0.879057 0.849898 0.298167
0.885051 0.851824 0.296802
0.891514 0.853787 0.295604
0.898268 0.855831 0.294527
0.905124 0.857693 0.293148
0.910840 0.859305 0.292361
0.915725 0.860724 0.292279
0.918491 0.862019 0.292164
0.816459 0.851427 0.335060
0.826568 0.860512 0.354811
0.834003 0.866489 0.379308
0.840914 0.859907 0.348017
0.851262 0.860173 0.342151
0.869000 0.868307 0.340163
0.878798 0.870869 0.337764
0.884577 0.872484 0.336170
0.889678 0.873863 0.334496
0.895247 0.875418 0.333243
0.901170 0.876808 0.331155
0.907495 0.878290 0.329381
0.913832 0.879935 0.328287
0.918811 0.881199 0.327742
0.923915 0.883060 0.332024
0.925554 0.884856 0.338715
0.173429 0.165902 0.165403
0.178364 0.165948 0.165217
0.193763 0.166233 0.164940
0.219802 0.167143 0.164478
0.263142 0.167969 0.163792
0.328101 0.168025 0.163666
0.402284 0.169912 0.164242
0.492619 0.176537 0.164059
0.571840 0.183672 0.163855
0.629733 0.189655 0.163691
0.666835 0.193845 0.163586
0.699503 0.197726 0.163459
0.725599 0.200972 0.163377
0.743563 0.203282 0.163312
0.760010 0.205453 0.163247
0.774571 0.207415 0.163181
0.174429 0.166472 0.165437
0.177288 0.166603 0.165390
0.184329 0.167117 0.165268
0.196853 0.168075 0.165035
0.217139 0.169092 0.164677
0.251542 0.170233 0.164123
0.314748 0.170991 0.163573
0.418478 0.171670 0.164063
0.541627 0.180818 0.164024
0.625541 0.189215 0.163773
0.673426 0.194606 0.163594
0.710944 0.199139 0.163467
0.738259 0.202592 0.163385
0.757445 0.205123 0.163320
0.774940 0.207454 0.163231
0.790101 0.209533 0.163164
0.175513 0.169904 0.165732
0.179169 0.170304 0.165701
0.186362 0.170803 0.165572
0.199383 0.171774 0.165343
0.219613 0.173073 0.164976
0.253671 0.174645 0.164420
0.317301 0.176458 0.163883
0.427283 0.178237 0.163554
0.552341 0.182163 0.163801
0.637550 0.190514 0.163612
0.686169 0.196119 0.163503
0.722565 0.200593 0.163403
0.750809 0.204245 0.163312
0.770173 0.206820 0.163242
0.787272 0.209147 0.163174
0.802183 0.211237 0.163109
0.176825 0.176027 0.166188
0.181660 0.177104 0.166224
0.190736 0.177733 0.166008
0.204903 0.179203 0.165741
0.227767 0.181102 0.165370
0.265341 0.183493 0.164771
0.337324 0.186835 0.164318
0.457796 0.191354 0.163980
0.576961 0.194957 0.163522
0.656872 0.198558 0.163251
0.704203 0.201608 0.163312
0.737974 0.205286 0.163207
0.766247 0.208764 0.163113
0.785186 0.211417 0.163043
0.801330 0.213930 0.162973
0.816045 0.216235 0.162908
0.180046 0.188732 0.167319
0.185122 0.190647 0.167569
0.196698 0.191778 0.167023
0.213349 0.193799 0.166660
0.240938 0.196714 0.166176
0.285949 0.200718 0.165522
0.375059 0.207199 0.165058
0.509758 0.215219 0.164514
0.615800 0.220846 0.164048
0.684506 0.226846 0.163841
0.728484 0.231579 0.163724
0.759865 0.235442 0.163620
0.786596 0.239683 0.163533
0.804798 0.243153 0.163480
0.819500 0.246290 0.163445
0.832607 0.249417 0.163430
0.184227 0.213743 0.169196
0.191269 0.219524 0.169683
0.204549 0.219815 0.168884
0.226383 0.224159 0.168277
0.261899 0.230423 0.167736
0.327364 0.238643 0.166900
0.452035 0.250350 0.166191
0.584312 0.261543 0.165668
0.665555 0.270057 0.165398
0.721812 0.277838 0.165202
0.760686 0.284296 0.165081
0.786332 0.289421 0.165012
0.808317 0.294366 0.164948
0.824597 0.298691 0.164926
0.836140 0.302280 0.164913
0.846288 0.305945 0.164913
0.192932 0.255996 0.171460
0.200646 0.267842 0.172440
0.219702 0.270331 0.171645
0.249324 0.278709 0.172000
0.297016 0.292415 0.173366
0.407278 0.312794 0.173623
0.556703 0.333486 0.172239
0.655413 0.349355 0.171713
0.713942 0.362609 0.171960
0.755439 0.373438 0.172304
0.786304 0.382407 0.172736
0.807673 0.390108 0.173248
0.827127 0.398365 0.173916
0.840949 0.405212 0.174570
0.848425 0.410656 0.175207
0.854474 0.415348 0.175777
0.210760 0.322884 0.177703
0.221989 0.348240 0.181437
0.252880 0.358606 0.183082
0.296395 0.380622 0.186729
0.376099 0.411786 0.192277
0.523607 0.450398 0.196012
0.639947 0.474762 0.196249
0.706693 0.490272 0.196735
0.749610 0.502429 0.197544
0.785000 0.513859 0.198552
0.813379 0.524567 0.199711
0.832914 0.532181 0.200572
0.847655 0.538783 0.201452
0.856632 0.544513 0.202383
0.862820 0.548153 0.202965
0.868614 0.551314 0.203456
0.250857 0.422764 0.193930
0.268141 0.459019 0.200662
0.313172 0.481804 0.205155
0.376703 0.511209 0.211197
0.494530 0.540338 0.217555
0.614893 0.568382 0.221233
0.692137 0.584810 0.221463
0.742308 0.596474 0.221879
0.778201 0.605598 0.222379
0.809577 0.614026 0.222963
0.834515 0.622974 0.224043
0.850003 0.628758 0.224767
0.860033 0.634103 0.225698
0.868505 0.638216 0.226359
0.874645 0.640375 0.226631
0.880235 0.642365 0.226859
0.302181 0.535334 0.216036
0.328856 0.568809 0.223224
0.393746 0.585782 0.227068
0.496656 0.608133 0.232293
0.594008 0.622668 0.235884
0.674696 0.642418 0.238691
0.731237 0.654177 0.238813
0.769487 0.662497 0.239016
0.800273 0.669319 0.239214
0.827428 0.677337 0.239953
0.848206 0.684199 0.240743
0.859538 0.688720 0.241398
0.868418 0.692462 0.241974
0.876669 0.695537 0.242376
0.882781 0.697444 0.242592
0.888315 0.699174 0.242761
0.384824 0.630471 0.237054
0.430590 0.655612 0.242943
0.528490 0.668557 0.246230
0.606118 0.679061 0.248945
0.663448 0.684006 0.250316
0.722426 0.701437 0.253344
0.762283 0.709184 0.253288
0.792829 0.715147 0.253257
0.819479 0.721573 0.253603
0.843255 0.728776 0.254341
0.859016 0.733849 0.254936
0.867498 0.737389 0.255499
0.876048 0.740293 0.255846
0.883979 0.742601 0.256086
0.889956 0.743872 0.256099
0.895330 0.745380 0.256213
0.536542 0.703692 0.254556
0.584319 0.723300 0.259667
0.640332 0.727266 0.260558
0.680153 0.728380 0.260965
0.717420 0.732055 0.262005
0.760241 0.746218 0.264709
0.789525 0.751692 0.264632
0.814907 0.756502 0.264562
0.837797 0.762380 0.264984
0.857346 0.768277 0.265599
0.867364 0.771653 0.266032
0.875254 0.774471 0.266429
0.883264 0.777032 0.266729
0.890727 0.779232 0.266941
0.896430 0.780784 0.267073
0.901690 0.782227 0.267188
0.659391 0.759741 0.269203
0.686292 0.774685 0.279540
0.711014 0.774214 0.276720
0.734782 0.771416 0.272491
0.759709 0.773793 0.272912
0.792588 0.786016 0.275362
0.814882 0.789759 0.275004
0.836047 0.793999 0.274946
0.855958 0.798878 0.275238
0.868979 0.803062 0.275758
0.876532 0.805744 0.276136
0.884046 0.808012 0.276386
0.891641 0.810205 0.276605
0.898678 0.812005 0.276734
0.904081 0.813261 0.276803
0.909137 0.814578 0.276887
0.732025 0.800248 0.294290
0.748656 0.811495 0.311256
0.763106 0.814760 0.314937
0.778567 0.809726 0.301483
0.795486 0.810520 0.298227
0.819714 0.819587 0.296797
0.839174 0.823948 0.294590
0.857183 0.827634 0.292796
0.871234 0.831574 0.291539
0.879012 0.834431 0.290972
0.885956 0.836824 0.290375
0.893214 0.839173 0.289684
0.900662 0.841298 0.288943
0.907219 0.842958 0.288355
0.912306 0.844191 0.288126
0.916992 0.845515 0.288487
0.780627 0.832218 0.329102
0.794526 0.843221 0.349471
0.805576 0.850013 0.365295
0.813686 0.841347 0.339856
0.825802 0.840763 0.334913
0.845043 0.847711 0.332608
0.862640 0.852804 0.330823
0.875321 0.855489 0.328770
0.883198 0.858002 0.327210
0.889236 0.859862 0.325567
0.895668 0.861723 0.324117
0.902434 0.863687 0.322798
0.909319 0.865523 0.320940
0.915190 0.867090 0.320021
0.920016 0.868389 0.319680
0.922807 0.869631 0.319843
0.818909 0.861452 0.373238
0.829392 0.870950 0.405121
0.836532 0.876693 0.437513
0.843940 0.869496 0.393486
0.853388 0.868332 0.383568
0.868497 0.872694 0.377832
0.882298 0.877989 0.373327
0.888197 0.879299 0.370165
0.893262 0.880546 0.367490
0.898772 0.881705 0.364500
0.904703 0.883000 0.362155
0.911009 0.884455 0.360426
0.917305 0.885918 0.358751
0.922507 0.887298 0.359696
0.927496 0.888789 0.365324
0.929614 0.891131 0.378973
0.172516 0.166001 0.168199
0.177620 0.166059 0.166711
0.191629 0.166439 0.166176
0.213464 0.167284 0.165661
0.248497 0.168037 0.164934
0.305560 0.168374 0.164218
0.380861 0.169032 0.164702
0.472505 0.174962 0.164520
0.560880 0.182631 0.164178
0.627122 0.189388 0.163847
0.666026 0.193736 0.163686
0.699705 0.197755 0.163586
0.728231 0.201314 0.163497
0.748240 0.203917 0.163424
0.766103 0.206272 0.163359
0.781440 0.208359 0.163294
0.174011 0.166674 0.167231
0.176656 0.167015 0.166823
0.183880 0.167588 0.166460
0.195383 0.168413 0.166199
0.214799 0.169299 0.165765
0.247439 0.170372 0.165147
0.307329 0.171094 0.164420
0.409181 0.171933 0.164716
0.533469 0.180111 0.164564
0.623200 0.188988 0.164127
0.672373 0.194506 0.163898
0.710248 0.199064 0.163740
0.739352 0.202762 0.163604
0.758690 0.205296 0.163527
0.776101 0.207653 0.163451
0.792311 0.209875 0.163386
0.175311 0.170274 0.168246
0.178612 0.170728 0.168018
0.185863 0.171129 0.167448
0.197773 0.172081 0.167108
0.217331 0.173241 0.166575
0.249418 0.174621 0.165839
0.309660 0.176239 0.165168
0.415834 0.178194 0.164599
0.542523 0.181556 0.164578
0.633701 0.190137 0.164175
0.684633 0.195960 0.163933
0.721420 0.200476 0.163762
0.751308 0.204316 0.163602
0.771362 0.207003 0.163497
0.788450 0.209342 0.163417
0.804045 0.211522 0.163349
0.176565 0.176441 0.169734
0.180993 0.177564 0.169814
0.189469 0.177986 0.169149
0.202941 0.179328 0.168607
0.224823 0.181061 0.167703
0.259875 0.183096 0.166633
0.326701 0.186197 0.165787
0.444083 0.190666 0.165071
0.567062 0.194461 0.164389
0.650971 0.198014 0.163907
0.702151 0.201460 0.163794
0.736561 0.205160 0.163613
0.766122 0.208762 0.163433
0.786173 0.211530 0.163326
0.802391 0.214082 0.163245
0.817203 0.216419 0.163183
0.179501 0.189032 0.171918
0.184190 0.191132 0.172252
0.194661 0.191638 0.171340
0.210387 0.193592 0.170718
0.237177 0.196212 0.169473
0.278836 0.199661 0.167773
0.362367 0.205810 0.166392
0.495103 0.214264 0.165423
0.606996 0.220238 0.164718
0.679008 0.226229 0.164314
0.726639 0.231329 0.164066
0.758531 0.235576 0.163884
0.785742 0.239926 0.163740
0.805525 0.243819 0.163655
0.820451 0.247192 0.163594
0.833567 0.250293 0.163541
0.183409 0.213870 0.174630
0.189570 0.219942 0.175429
0.201880 0.220123 0.174083
0.221219 0.223956 0.173448
0.255884 0.229785 0.172033
0.315620 0.237052 0.170159
0.433991 0.248387 0.167897
0.572651 0.259944 0.166214
0.659236 0.268981 0.165629
0.717877 0.276898 0.165289
0.759060 0.283854 0.165094
0.785276 0.289036 0.165012
0.807391 0.294156 0.164947
0.825102 0.298439 0.164909
0.836963 0.302019 0.164895
0.846753 0.305761 0.164895
0.191227 0.256437 0.178817
0.197814 0.269614 0.180464
0.212846 0.271740 0.177634
0.241673 0.280110 0.177010
0.287275 0.293322 0.176557
0.387386 0.313289 0.175372
0.541582 0.334006 0.173131
0.647268 0.349900 0.172109
0.709429 0.363177 0.172207
0.752682 0.374601 0.172582
0.785661 0.384692 0.173074
0.807334 0.392284 0.173589
0.826913 0.401029 0.174362
0.841654 0.408727 0.175155
0.848956 0.414355 0.175835
0.854966 0.419484 0.176495
0.210826 0.323167 0.185750
0.221499 0.350108 0.190399
0.242622 0.360102 0.185528
0.286056 0.382198 0.187831
0.358193 0.413923 0.192660
0.502530 0.453935 0.197837
0.629315 0.480331 0.198058
0.702984 0.495741 0.198190
0.747739 0.507552 0.198830
0.783629 0.518371 0.199664
0.813491 0.529076 0.200794
0.833131 0.536701 0.201671
0.848234 0.544066 0.202694
0.857345 0.550275 0.203760
0.863850 0.554382 0.204446
0.869648 0.557698 0.204982
0.251740 0.424851 0.196265
0.267310 0.460891 0.204048
0.299658 0.484134 0.205726
0.358405 0.515028 0.211926
0.471903 0.546266 0.218727
0.599156 0.573272 0.223381
0.684820 0.591665 0.223749
0.740219 0.603695 0.223988
0.777242 0.612643 0.224404
0.809120 0.620540 0.224811
0.835268 0.629020 0.225671
0.850849 0.635316 0.226550
0.860931 0.640659 0.227484
0.869592 0.644781 0.228150
0.875976 0.646995 0.228409
0.881624 0.648965 0.228646
0.301085 0.537022 0.216748
0.318887 0.569940 0.225398
0.372775 0.590185 0.228000
0.469155 0.613500 0.233419
0.580538 0.631724 0.237887
0.664751 0.649071 0.241162
0.726771 0.661934 0.241348
0.768413 0.670666 0.241466
0.800061 0.677266 0.241532
0.827817 0.684480 0.242033
0.849899 0.691498 0.242800
0.861127 0.695874 0.243412
0.869940 0.699506 0.243950
0.878354 0.702572 0.244370
0.884626 0.704366 0.244521
0.890091 0.705955 0.244660
0.365039 0.633595 0.238359
0.402976 0.659691 0.247289
0.498806 0.674023 0.248363
0.590767 0.687028 0.251014
0.656618 0.693932 0.252640
0.714792 0.707303 0.255466
0.759873 0.717417 0.255940
0.792513 0.723644 0.255854
0.820119 0.729531 0.255968
0.844604 0.736433 0.256580
0.861581 0.741752 0.257190
0.870054 0.744871 0.257615
0.878524 0.747626 0.257942
0.886666 0.749895 0.258145
0.892770 0.751223 0.258173
0.898140 0.752576 0.258257
0.504420 0.709535 0.260702
0.556555 0.731265 0.276777
0.625881 0.736488 0.272456
0.674995 0.739929 0.269434
0.713076 0.741637 0.267441
0.755779 0.753270 0.268603
0.789317 0.760735 0.268479
0.815515 0.765523 0.268071
0.839382 0.770934 0.268062
0.859970 0.776797 0.268370
0.870808 0.780540 0.268694
0.878896 0.783446 0.268994
0.887101 0.786176 0.269349
0.894926 0.788552 0.269599
0.900838 0.790170 0.269728
0.906186 0.791716 0.269880
0.646582 0.768672 0.292337
0.674773 0.784906 0.312056
0.706621 0.786729 0.308711
0.733959 0.783741 0.299846
0.759504 0.784958 0.296784
0.790204 0.793235 0.295466
0.816526 0.799838 0.293326
0.838412 0.803499 0.290883
0.858996 0.807998 0.289310
0.872967 0.812233 0.288738
0.880727 0.814894 0.288496
0.888417 0.817395 0.288227
0.896224 0.819709 0.287639
0.903547 0.821752 0.287003
0.909124 0.823178 0.286871
0.914307 0.824528 0.287012
0.728019 0.811907 0.329022
0.746526 0.823926 0.352349
0.762783 0.828212 0.359973
0.779454 0.822110 0.339062
0.797687 0.822654 0.334765
0.816853 0.825361 0.331715
0.841652 0.834236 0.329918
0.860334 0.837308 0.327471
0.875697 0.841032 0.325830
0.883824 0.843786 0.324599
0.890744 0.846088 0.323519
0.897946 0.848142 0.322366
0.905358 0.850097 0.321131
0.912078 0.851732 0.320270
0.917257 0.852936 0.320043
0.922006 0.854192 0.320353
0.780994 0.844272 0.373947
0.795333 0.856279 0.409336
0.807255 0.863501 0.433857
0.816409 0.853758 0.393066
0.828835 0.852338 0.383997
0.843116 0.853278 0.378907
0.865313 0.861913 0.374975
0.879257 0.864072 0.370689
0.887413 0.866239 0.367418
0.893560 0.867967 0.364813
0.899956 0.869602 0.362304
0.906688 0.871422 0.360502
0.913629 0.873196 0.358719
0.919602 0.874723 0.357458
0.924383 0.875795 0.357034
0.927288 0.876882 0.357065
0.821141 0.873305 0.437231
0.830989 0.882273 0.475997
0.837629 0.887323 0.511976
0.847057 0.880660 0.462497
0.857087 0.879197 0.450952
0.868842 0.879376 0.443793
0.885409 0.886225 0.438484
0.892859 0.888343 0.434161
0.897928 0.889370 0.431004
0.903391 0.890482 0.427902
0.909273 0.891557 0.424553
0.915542 0.892831 0.421403
0.921831 0.894032 0.418461
0.927176 0.895057 0.421633
0.932266 0.896581 0.432652
0.934670 0.898826 0.452415
0.172101 0.166131 0.174438
0.175292 0.166202 0.171838
0.186441 0.166559 0.170194
0.203574 0.167317 0.169072
0.232980 0.167915 0.167641
0.279356 0.168604 0.166404
0.347926 0.169126 0.165871
0.439780 0.172541 0.165485
0.544855 0.181181 0.164933
0.619633 0.188618 0.164473
0.663910 0.193539 0.164180
0.698404 0.197622 0.163983
0.728912 0.201423 0.163811
0.749749 0.204114 0.163677
0.767546 0.206500 0.163597
0.783353 0.208639 0.163501
0.173193 0.167181 0.172602
0.175634 0.167606 0.171560
0.182621 0.168047 0.170582
0.193632 0.168709 0.169908
0.212207 0.169553 0.169098
0.243692 0.170362 0.167784
0.300350 0.171280 0.166562
0.399084 0.172993 0.166009
0.523702 0.179284 0.165486
0.619732 0.188678 0.164946
0.672971 0.194632 0.164575
0.710691 0.199170 0.164310
0.740874 0.203004 0.164095
0.761228 0.205666 0.163936
0.778424 0.207996 0.163794
0.794504 0.210229 0.163678
0.174709 0.170821 0.173610
0.177890 0.171362 0.173208
0.185079 0.171775 0.172206
0.196338 0.172669 0.171690
0.215276 0.173692 0.170735
0.246344 0.174789 0.169246
0.303878 0.175995 0.167285
0.407269 0.178537 0.166075
0.535173 0.181696 0.165699
0.630182 0.189824 0.165137
0.685698 0.196164 0.164771
0.722457 0.200675 0.164502
0.753182 0.204629 0.164258
0.774010 0.207417 0.164067
0.790832 0.209730 0.163911
0.806138 0.211872 0.163767
0.176277 0.177359 0.175998
0.180342 0.178607 0.176202
0.188408 0.178963 0.174898
0.201301 0.180259 0.174182
0.222272 0.181737 0.172904
0.255883 0.183290 0.170885
0.319879 0.185921 0.168563
0.434491 0.190477 0.166616
0.560983 0.194370 0.165479
0.647738 0.198518 0.164979
0.702558 0.202328 0.164708
0.737471 0.205545 0.164493
0.767226 0.209204 0.164222
0.788490 0.212131 0.164005
0.804562 0.214631 0.163845
0.819166 0.217000 0.163704
0.179167 0.190216 0.179473
0.183631 0.192621 0.180323
0.193132 0.192994 0.178669
0.207513 0.194749 0.177827
0.233611 0.197183 0.176080
0.273699 0.200104 0.173350
0.353135 0.205607 0.170327
0.486556 0.214116 0.167391
0.602637 0.220509 0.165973
0.676722 0.226536 0.165426
0.727147 0.231992 0.165054
0.759360 0.236435 0.164777
0.786690 0.240945 0.164529
0.807507 0.245274 0.164337
0.822308 0.248653 0.164214
0.835246 0.251854 0.164108
0.183340 0.215361 0.184507
0.188606 0.222102 0.186232
0.199361 0.222506 0.183217
0.216175 0.226111 0.182531
0.249577 0.231759 0.180838
0.305460 0.238157 0.177627
0.420284 0.248743 0.173099
0.564590 0.260681 0.169178
0.655967 0.269468 0.167454
0.716142 0.277590 0.166698
0.759507 0.285077 0.166170
0.786184 0.290520 0.165793
0.808035 0.295801 0.165492
0.826473 0.300572 0.165305
0.838508 0.304126 0.165211
0.847744 0.308025 0.165170
0.191519 0.258181 0.191951
0.197477 0.272878 0.196079
0.207344 0.275921 0.189086
0.233393 0.285646 0.187862
0.277925 0.298646 0.187154
0.370055 0.318892 0.185081
0.526886 0.339812 0.180237
0.641443 0.356699 0.177506
0.707205 0.370152 0.176069
0.751788 0.382192 0.175255
0.786146 0.393610 0.175207
0.808584 0.401353 0.175256
0.828276 0.409789 0.175918
0.843314 0.417882 0.176701
0.850565 0.423872 0.177432
0.856585 0.429188 0.178133
0.212466 0.327187 0.203201
0.223323 0.354986 0.211620
0.233383 0.364854 0.201879
0.273845 0.389335 0.200047
0.342159 0.422382 0.201956
0.480782 0.463081 0.203988
0.619995 0.492553 0.202845
0.699963 0.507981 0.201381
