example_ofxGpuLutCube/bin/data/ofxGpuLutCube/LUT/T36 (hard sunset fade).cube
LUT_3D_SIZE 6
0.173798 0.165802 0.164734
0.211011 0.166846 0.164264
0.301312 0.168677 0.163269
0.506793 0.177758 0.163947
0.688446 0.196380 0.163476
0.759592 0.205403 0.163239
0.177234 0.176764 0.165497
0.205007 0.179809 0.165150
0.340114 0.187904 0.163922
0.659617 0.199742 0.162993
0.766401 0.209161 0.162938
0.815198 0.216316 0.162745
0.194281 0.258374 0.169092
0.254328 0.281608 0.172035
0.570690 0.338775 0.172579
0.758830 0.376777 0.172698
0.827428 0.397963 0.173820
0.853825 0.409856 0.174877
0.311035 0.536682 0.216351
0.518629 0.605465 0.231753
0.735100 0.649796 0.237330
0.828408 0.672636 0.238528
0.867668 0.686670 0.240309
0.887047 0.693149 0.241057
0.665673 0.750299 0.266253
0.735988 0.761904 0.269358
0.813629 0.781374 0.272385
0.865093 0.794725 0.273376
0.887606 0.802080 0.274297
0.905079 0.806701 0.274652
0.816459 0.851427 0.335060
0.840914 0.859907 0.348017
0.878798 0.870869 0.337764
0.895247 0.875418 0.333243
0.913832 0.879935 0.328287
0.925554 0.884856 0.338715
0.172101 0.166131 0.174438
0.203574 0.167317 0.169072
0.347926 0.169126 0.165871
0.619633 0.188618 0.164473
0.728912 0.201423 0.163811
0.783353 0.208639 0.163501
0.176277 0.177359 0.175998
0.201301 0.180259 0.174182
0.319879 0.185921 0.168563
0.647738 0.198518 0.164979
0.767226 0.209204 0.164222
0.819166 0.217000 0.163704
0.191519 0.258181 0.191951
0.233393 0.285646 0.187862
0.526886 0.339812 0.180237
0.751788 0.382192 0.175255
0.828276 0.409789 0.175918
0.856585 0.429188 0.178133
0.302473 0.539774 0.238085
0.434762 0.620621 0.245352
0.722710 0.672747 0.247242
0.829006 0.693885 0.244969
0.872608 0.708475 0.246468
0.893188 0.715074 0.247213
0.620137 0.779147 0.336742
0.730450 0.799282 0.350083
0.818412 0.812251 0.339786
0.878582 0.823092 0.332392
0.901729 0.829851 0.328565
0.919917 0.834411 0.326701
0.820534 0.884588 0.517469
0.848196 0.891271 0.541930
0.885230 0.891819 0.520829
0.908005 0.899445 0.510674
0.926490 0.901808 0.501948
0.939346 0.905846 0.536718
0.175384 0.166595 0.221368
0.190397 0.168276 0.215209
0.274656 0.170638 0.200185
0.582859 0.185676 0.180848
0.732229 0.202213 0.171773
0.793210 0.210305 0.169162
0.176517 0.179399 0.243320
0.196086 0.183311 0.240656
0.294406 0.188760 0.234501
0.636135 0.203221 0.214627
0.772651 0.214352 0.205928
0.830164 0.221990 0.201008
0.194117 0.271446 0.305160
0.219665 0.306585 0.323179
0.461503 0.401314 0.340234
0.760373 0.442754 0.291136
0.843926 0.473416 0.279207
0.874068 0.495372 0.274812
0.310719 0.553014 0.462467
0.349030 0.631366 0.506815
0.697067 0.730501 0.512702
0.844808 0.745821 0.499142
0.894951 0.754640 0.482010
0.916081 0.759689 0.470061
0.482574 0.794857 0.626849
0.667994 0.836950 0.644272
0.811407 0.851996 0.638971
0.894086 0.859902 0.628541
0.919254 0.863378 0.620248
0.938032 0.866777 0.619304
0.798605 0.905094 0.713233
0.835826 0.912079 0.731206
0.884673 0.912821 0.720301
0.913116 0.915988 0.715054
0.934980 0.919541 0.711896
0.949507 0.921811 0.734690
0.180725 0.167395 0.300489
0.195824 0.169114 0.349186
0.247014 0.172242 0.351539
0.513978 0.186886 0.348926
0.713828 0.206506 0.326494
0.788476 0.214987 0.304083
0.184240 0.183867 0.416326
0.203112 0.188589 0.425285
0.280647 0.197304 0.453253
0.601317 0.214646 0.484082
0.756218 0.228992 0.487602
0.821832 0.239043 0.482845
0.204806 0.289895 0.536680
0.226672 0.326247 0.570804
0.358134 0.429802 0.641237
0.747128 0.509925 0.663150
0.851544 0.538907 0.658963
0.890223 0.560487 0.656878
0.311765 0.547805 0.656592
0.343048 0.615941 0.687387
0.612877 0.741906 0.749115
0.837083 0.777024 0.760685
0.906413 0.788471 0.757145
0.929747 0.794013 0.754005
0.412577 0.763413 0.743766
0.544504 0.825551 0.782859
0.779729 0.864713 0.801478
0.887396 0.877531 0.801952
0.923923 0.883154 0.803730
0.944884 0.887944 0.803619
0.757408 0.910141 0.826254
0.810768 0.919292 0.840415
0.871567 0.923385 0.836848
0.914049 0.925732 0.834606
0.936484 0.929035 0.833967
0.952827 0.930791 0.847500
0.187891 0.169672 0.392316
0.205758 0.173628 0.489448
0.250584 0.176934 0.513040
0.468962 0.194597 0.555627
0.690808 0.217595 0.572778
0.776746 0.227407 0.571102
0.190295 0.192043 0.554829
0.211173 0.199736 0.573530
0.281202 0.209716 0.605065
0.598772 0.228440 0.652473
0.754290 0.243375 0.661315
0.822309 0.254498 0.666382
0.213859 0.306089 0.651538
0.232518 0.346768 0.680876
0.333580 0.456235 0.739056
0.737035 0.532383 0.784078
0.849396 0.563476 0.778719
0.890919 0.585097 0.779428
0.310704 0.541255 0.736882
0.341446 0.608791 0.764498
0.521325 0.725810 0.818667
0.820655 0.777422 0.848100
0.903864 0.792403 0.846974
0.929516 0.799294 0.846833
0.405806 0.746665 0.803192
0.458107 0.800640 0.830952
0.739638 0.861040 0.871017
0.874452 0.881266 0.880672
0.923519 0.889883 0.882972
0.946360 0.895094 0.883380
0.707016 0.906563 0.883786
0.779131 0.918744 0.895642
0.857787 0.926481 0.899257
0.912804 0.930295 0.900005
0.935388 0.933013 0.900237
0.952759 0.935614 0.909937
0.195028 0.173851 0.490761
0.211451 0.182190 0.582401
0.253368 0.187014 0.610116
0.464829 0.200589 0.655269
0.694953 0.225758 0.679360
0.783685 0.235935 0.683524
0.193900 0.206029 0.630613
0.209533 0.213250 0.653306
0.278245 0.230522 0.684882
0.608396 0.255217 0.730120
0.762950 0.271312 0.742393
0.828199 0.285398 0.749520
0.224055 0.329384 0.710536
0.243780 0.379095 0.738492
0.328346 0.493055 0.788458
0.729882 0.568948 0.837951
0.850873 0.594292 0.838525
0.893340 0.612644 0.840325
0.315292 0.549255 0.780685
0.343474 0.611239 0.804312
0.479871 0.722920 0.854160
0.806823 0.780500 0.891318
0.900699 0.795185 0.893772
0.927300 0.802476 0.894476
0.404265 0.741820 0.838938
0.434340 0.794509 0.861387
0.707397 0.854701 0.903826
0.862711 0.881022 0.919159
0.921157 0.890346 0.922281
0.944738 0.896124 0.923206
0.673335 0.899286 0.911981
0.759714 0.914968 0.922994
0.845020 0.925184 0.930828
0.909741 0.931285 0.934558
0.933898 0.934254 0.935264
0.953474 0.937249 0.936462
