example_ofxGpuLutCube/bin/data/ofxGpuLutCube/LUT/T37 (warm fade_1).cube
LUT_3D_SIZE 6
0.000000 0.000000 0.000000
0.133008 0.022888 0.016021
0.296056 0.028396 0.032343
0.558142 0.008506 0.025117
0.774734 0.170742 0.000000
0.918872 0.285128 0.000000
0.030582 0.153194 0.047226
0.143794 0.160701 0.043904
0.322609 0.167441 0.043907
0.572797 0.201574 0.016334
0.776184 0.299428 0.000000
0.920815 0.388981 0.000000
0.081461 0.376774 0.084218
0.191901 0.381577 0.079566
0.380073 0.404506 0.062867
0.610675 0.437368 0.000000
0.784787 0.471788 0.000893
0.920974 0.518318 0.000000
0.218201 0.646482 0.113483
0.323660 0.648839 0.118040
0.475069 0.651597 0.105740
0.652439 0.661633 0.078226
0.806850 0.671719 0.045146
0.929851 0.678551 0.042435
0.379102 0.833766 0.206741
0.466370 0.833017 0.206749
0.569957 0.833410 0.207007
0.694967 0.835859 0.200290
0.825513 0.840488 0.188930
0.945678 0.836011 0.174634
0.468945 0.977091 0.308625
0.550756 0.974780 0.304048
0.639250 0.974919 0.310912
0.737074 0.979400 0.313136
0.847749 0.986030 0.317370
0.963321 0.992525 0.321424
0.002289 0.038450 0.180993
0.138459 0.054229 0.179738
0.306929 0.053476 0.191702
0.582280 0.097115 0.209261
0.785013 0.215462 0.212499
0.920218 0.309086 0.221148
0.046843 0.172327 0.196630
0.160564 0.175820 0.197721
0.343500 0.192161 0.200621
0.593854 0.241414 0.204030
0.784042 0.329372 0.202518
0.921568 0.412283 0.219971
0.124810 0.400858 0.221781
0.228958 0.406017 0.218887
0.406581 0.422302 0.212138
0.622795 0.446282 0.192644
0.789525 0.482029 0.180995
0.922990 0.533254 0.207063
0.257143 0.651997 0.253906
0.358468 0.654057 0.254808
0.497209 0.657829 0.255288
0.658554 0.667658 0.238769
0.808590 0.677457 0.225435
0.930370 0.682657 0.223111
0.388559 0.833259 0.324219
0.478877 0.832542 0.327478
0.582106 0.834491 0.332738
0.698767 0.837940 0.326260
0.826875 0.843665 0.317240
0.945581 0.838003 0.307950
0.475844 0.977091 0.410518
0.555163 0.977080 0.412984
0.644359 0.977988 0.419774
0.741638 0.981508 0.423443
0.851372 0.986058 0.425775
0.962106 0.992892 0.429553
0.007802 0.083799 0.383781
0.194271 0.097845 0.384253
0.407244 0.158662 0.388482
0.586478 0.165275 0.398535
0.786942 0.230513 0.413433
0.921496 0.366940 0.449934
0.078410 0.233350 0.390785
0.210940 0.230005 0.395418
0.433152 0.289185 0.398194
0.604968 0.302804 0.406929
0.790783 0.368951 0.421166
0.922381 0.479542 0.461978
0.155567 0.441532 0.405069
0.275680 0.446616 0.406770
0.463841 0.460934 0.416214
0.645933 0.492579 0.423325
0.802768 0.543272 0.439349
0.927274 0.585483 0.455917
0.320029 0.666476 0.433767
0.419181 0.668335 0.437327
0.542252 0.675038 0.442335
0.676928 0.680908 0.439790
0.810142 0.685066 0.429159
0.930201 0.693858 0.429370
0.425857 0.836000 0.483934
0.508646 0.837987 0.480198
0.604491 0.839547 0.483451
0.710781 0.840775 0.488648
0.828794 0.845873 0.478708
0.946626 0.843608 0.473033
0.485013 0.979402 0.535503
0.563187 0.979402 0.535839
0.655050 0.981695 0.548216
0.750103 0.982127 0.559590
0.853101 0.988396 0.560120
0.963260 0.993328 0.561913
0.182401 0.190574 0.608113
0.325294 0.207196 0.608035
0.519702 0.267160 0.608639
0.686822 0.365221 0.613197
0.795565 0.375495 0.614745
0.913235 0.390219 0.617924
0.224962 0.340368 0.606153
0.338443 0.337004 0.606093
0.527580 0.384935 0.611457
0.690203 0.468086 0.616373
0.797969 0.477578 0.617742
0.915563 0.492588 0.623589
0.241330 0.511068 0.603294
0.358114 0.512246 0.603093
0.530449 0.529001 0.612489
0.698226 0.584475 0.624852
0.804312 0.597642 0.626541
0.923228 0.612743 0.638522
0.341802 0.686011 0.612782
0.436826 0.687336 0.614621
0.555816 0.688993 0.615668
0.690290 0.699115 0.626132
0.817455 0.718856 0.640624
0.938701 0.744656 0.669719
0.434015 0.842303 0.640839
0.520798 0.842564 0.641077
0.620912 0.844394 0.649556
0.728515 0.849249 0.659670
0.837705 0.855170 0.661875
0.947895 0.851752 0.652640
0.495195 0.982970 0.690308
0.579087 0.984026 0.694098
0.668890 0.985497 0.700625
0.762415 0.987997 0.713890
0.857516 0.990423 0.724730
0.961865 0.995676 0.724520
0.384177 0.373447 0.815576
0.482507 0.384319 0.815645
0.604655 0.410928 0.819512
0.728885 0.450475 0.824288
0.847084 0.490616 0.835383
0.931251 0.494456 0.827443
0.395662 0.480393 0.818018
0.488884 0.483472 0.819965
0.606197 0.508134 0.821196
0.732785 0.541170 0.828442
0.848178 0.578710 0.837906
0.933998 0.584385 0.832519
0.396328 0.597904 0.817668
0.493523 0.602307 0.817374
0.606907 0.613725 0.824185
0.730117 0.639933 0.831463
0.851870 0.674212 0.843774
0.936755 0.681083 0.838822
0.383094 0.720490 0.815125
0.471869 0.719947 0.813951
0.579777 0.719950 0.817584
0.720042 0.738464 0.832590
0.850751 0.769088 0.852320
0.943349 0.783777 0.852856
0.439835 0.858442 0.834708
0.523351 0.858083 0.836283
0.616644 0.858204 0.836671
0.721281 0.859133 0.840372
0.833379 0.862409 0.845697
0.951580 0.884674 0.873747
0.485013 0.988781 0.854785
0.569681 0.988647 0.857036
0.659159 0.988963 0.856527
0.759670 0.991286 0.868516
0.863102 0.996144 0.885928
0.957551 0.998310 0.892853
0.450544 0.448187 1.015054
0.539126 0.455005 1.012642
0.638832 0.468574 1.015079
0.745839 0.486653 1.017844
0.852377 0.511681 1.020460
0.949052 0.538570 1.027349
0.453366 0.542002 1.015066
0.538445 0.547524 1.017587
0.637308 0.559022 1.019366
0.746511 0.577059 1.021038
0.854206 0.599705 1.022980
0.951142 0.626008 1.029904
0.453225 0.642672 1.018935
0.540136 0.645314 1.018756
0.639746 0.655170 1.021623
0.746489 0.671624 1.025103
0.854325 0.691781 1.027614
0.953266 0.716437 1.034102
0.427528 0.742908 1.021798
0.513826 0.743789 1.024315
0.618957 0.749416 1.025115
0.744724 0.764547 1.030485
0.857675 0.784645 1.037428
0.955893 0.810861 1.045069
0.456703 0.866106 1.034775
0.537098 0.868108 1.037089
0.628623 0.866816 1.039313
0.726024 0.867873 1.039949
0.843392 0.875568 1.043844
0.957466 0.903608 1.055816
0.498652 0.997887 1.057790
0.579018 0.995577 1.057790
0.668428 0.995599 1.060394
0.764317 0.997617 1.062774
0.859876 0.998147 1.063080
0.959139 0.999957 1.068027
