example_ofxGpuLutCube/bin/data/ofxGpuLutCube/LUT/T37 (warm fade_1).cube
LUT_3D_SIZE 16
0.000000 0.000000 0.000000
0.041834 0.002277 0.002277
0.088228 0.011357 0.006823
0.133008 0.022888 0.016021
0.175898 0.029825 0.020707
0.231670 0.034101 0.027693
0.296056 0.028396 0.032343
0.373223 0.008346 0.036416
0.465580 0.000000 0.033571
0.558142 0.008506 0.025117
0.639577 0.073854 0.007853
0.712805 0.124718 0.000000
0.774734 0.170742 0.000000
0.827840 0.212212 0.000000
0.875670 0.251096 0.000000
0.918872 0.285128 0.000000
0.007810 0.050656 0.012953
0.049268 0.055023 0.012953
0.093020 0.061298 0.012771
0.137585 0.066149 0.016829
0.183150 0.068391 0.023619
0.236700 0.068848 0.029890
0.301120 0.068146 0.032800
0.378872 0.059663 0.037022
0.471975 0.051202 0.035144
0.559378 0.078143 0.022829
0.643448 0.119352 0.005890
0.710972 0.161770 0.000000
0.773214 0.207573 0.000000
0.829842 0.250202 0.000079
0.875812 0.284554 0.001957
0.920665 0.316141 0.000319
0.019899 0.103230 0.032136
0.056932 0.105120 0.032136
0.096643 0.105915 0.031042
0.138393 0.110212 0.027596
0.188579 0.111039 0.031864
0.242679 0.113787 0.032290
0.308224 0.111892 0.037804
0.388879 0.114763 0.041014
0.476734 0.118250 0.033266
0.566307 0.138931 0.022234
0.646198 0.171093 0.004672
0.715040 0.208965 0.000000
0.776465 0.251007 0.000000
0.828241 0.287254 0.000000
0.875696 0.319346 0.000000
0.919171 0.349907 0.000000
0.030582 0.153194 0.047226
0.065242 0.153828 0.047858
0.104476 0.157786 0.051141
0.143794 0.160701 0.043904
0.195514 0.163241 0.044984
0.254244 0.167794 0.044553
0.322609 0.167441 0.043907
0.402694 0.173245 0.042676
0.488090 0.181222 0.032597
0.572797 0.201574 0.016334
0.649682 0.228531 0.000609
0.715587 0.262767 0.000000
0.776184 0.299428 0.000000
0.830643 0.332429 0.000000
0.875863 0.362502 0.000000
0.920815 0.388981 0.000000
0.044083 0.211527 0.061529
0.076323 0.213824 0.063818
0.113162 0.215294 0.063792
0.151910 0.219887 0.061505
0.202838 0.223992 0.060010
0.267671 0.232149 0.056008
0.339004 0.238566 0.050812
0.420857 0.246869 0.043442
0.501294 0.253724 0.030294
0.580527 0.268332 0.004973
0.655730 0.291272 0.001963
0.718186 0.320579 0.000000
0.779311 0.354303 0.000000
0.832275 0.383043 0.000000
0.876686 0.406766 0.000000
0.920921 0.430408 0.000000
0.059320 0.286295 0.074228
0.091339 0.287469 0.076507
0.126920 0.287548 0.075344
0.168344 0.292223 0.071972
0.218191 0.299187 0.070689
0.283620 0.307993 0.064729
0.359582 0.318908 0.055464
0.444318 0.330951 0.045210
0.521836 0.338848 0.024307
0.593514 0.349933 0.000142
0.662786 0.364573 0.000949
0.722684 0.383159 0.000135
0.781407 0.408682 0.001002
0.833292 0.433743 0.000000
0.877294 0.453522 0.000000
0.921028 0.473717 0.000000
0.081461 0.376774 0.084218
0.112009 0.376774 0.082411
0.149080 0.376874 0.084118
0.191901 0.381577 0.079566
0.244652 0.388499 0.077151
0.309210 0.395131 0.072272
0.380073 0.404506 0.062867
0.466513 0.416457 0.049288
0.544030 0.426991 0.016584
0.610675 0.437368 0.000000
0.673949 0.447750 0.000000
0.730977 0.457737 0.000109
0.784787 0.471788 0.000893
0.833290 0.486993 0.000000
0.877117 0.502876 0.000000
0.920974 0.518318 0.000000
0.114348 0.471903 0.090226
0.146374 0.473531 0.087294
0.182825 0.473606 0.088605
0.225766 0.476678 0.088758
0.278757 0.481867 0.084674
0.340941 0.485143 0.078409
0.409446 0.492760 0.071898
0.483882 0.500297 0.057672
0.558944 0.508257 0.031848
0.628669 0.520291 0.000000
0.687867 0.526791 0.000000
0.742122 0.534410 0.000000
0.791593 0.540751 0.000000
0.836533 0.548384 0.000000
0.878383 0.557748 0.000000
0.921161 0.565956 0.000000
0.159423 0.563280 0.099090
0.194634 0.563682 0.096828
0.226770 0.563798 0.098803
0.269700 0.567890 0.102594
0.320096 0.568789 0.096228
0.377928 0.571164 0.092729
0.442296 0.574615 0.084286
0.507226 0.581170 0.075480
0.574085 0.584494 0.059833
0.639188 0.592945 0.034664
0.700507 0.601017 0.000000
0.750759 0.604524 0.000000
0.798061 0.609206 0.000000
0.842331 0.614050 0.000000
0.883021 0.617605 0.000000
0.925383 0.621377 0.001195
0.218201 0.646482 0.113483
0.251715 0.646482 0.115488
0.285054 0.646551 0.117753
0.323660 0.648839 0.118040
0.369344 0.647050 0.117456
0.421621 0.651229 0.114647
0.475069 0.651597 0.105740
0.535825 0.654208 0.100678
0.591591 0.656808 0.092470
0.652439 0.661633 0.078226
0.709367 0.666562 0.063936
0.762120 0.669086 0.049029
0.806850 0.671719 0.045146
0.849154 0.674245 0.041326
0.888814 0.676400 0.039093
0.929851 0.678551 0.042435
0.280555 0.718014 0.142595
0.309253 0.717957 0.138164
0.342589 0.718014 0.140427
0.378363 0.718014 0.142656
0.418733 0.718132 0.142708
0.463708 0.720040 0.142348
0.511244 0.718194 0.137950
0.562735 0.720454 0.134985
0.612911 0.722730 0.126456
0.668449 0.725094 0.123123
0.718365 0.727840 0.112112
0.765819 0.728567 0.101701
0.812659 0.732610 0.092210
0.856545 0.732405 0.092154
0.893940 0.730810 0.092158
0.935673 0.733492 0.095865
0.336189 0.779990 0.172731
0.362799 0.777965 0.172731
0.393324 0.779990 0.172778
0.426594 0.779982 0.174850
0.460154 0.779655 0.176755
0.500108 0.777832 0.175117
0.544014 0.779990 0.172574
0.588232 0.779990 0.169769
0.631542 0.780386 0.162176
0.680065 0.784351 0.162711
0.726555 0.784829 0.152574
0.773464 0.787115 0.147711
0.815808 0.786692 0.139500
0.861737 0.788356 0.135049
0.898924 0.783970 0.131949
0.937767 0.786696 0.135618
0.379102 0.833766 0.206741
0.407263 0.833410 0.206741
0.433934 0.833404 0.206741
0.466370 0.833017 0.206749
0.499241 0.831477 0.207227
0.534677 0.831552 0.211155
0.569957 0.833410 0.207007
0.609534 0.833429 0.205021
0.653038 0.833885 0.202400
0.694967 0.835859 0.200290
0.735772 0.838136 0.196013
0.781588 0.839951 0.191590
0.825513 0.840488 0.188930
0.866738 0.839596 0.180229
0.903875 0.838848 0.171686
0.945678 0.836011 0.174634
0.417953 0.885145 0.242526
0.443638 0.883255 0.241727
0.472009 0.882848 0.241727
0.499998 0.880979 0.241741
0.531099 0.882856 0.244035
0.565525 0.882856 0.246289
0.598113 0.882856 0.244815
0.633386 0.882889 0.244754
0.670186 0.885151 0.240630
0.709695 0.885581 0.240208
0.751353 0.887442 0.238660
0.790841 0.887888 0.234515
0.830684 0.890179 0.232225
0.873052 0.892951 0.230203
0.911173 0.889613 0.219460
0.951266 0.886230 0.213266
0.449906 0.930634 0.280066
0.473890 0.930634 0.275510
0.502407 0.928367 0.275489
0.528335 0.928346 0.275489
0.560259 0.928346 0.277734
0.590746 0.928699 0.280365
0.621207 0.928356 0.282300
0.655368 0.928695 0.282705
0.688863 0.930909 0.280863
0.724999 0.932842 0.278944
0.764052 0.933268 0.281043
0.801481 0.935457 0.279323
0.840531 0.937731 0.277749
0.879465 0.940013 0.275849
0.919218 0.940151 0.273937
0.956730 0.938420 0.267992
0.468945 0.977091 0.308625
0.494684 0.977091 0.304094
0.524908 0.974827 0.304048
0.550756 0.974780 0.304048
0.578761 0.974780 0.306243
0.608963 0.976952 0.310660
0.639250 0.974919 0.310912
0.669583 0.976905 0.313018
0.706156 0.979192 0.313158
0.737074 0.979400 0.313136
0.773546 0.981457 0.315190
0.810648 0.983743 0.315402
0.847749 0.986030 0.317370
0.882926 0.988320 0.317622
0.923574 0.988621 0.317600
0.963321 0.992525 0.321424
0.002289 0.008900 0.068640
0.040782 0.017604 0.063023
0.090081 0.019263 0.070057
0.132167 0.030174 0.076818
0.178194 0.038576 0.079841
0.234406 0.044871 0.087960
0.299125 0.045341 0.091567
0.381038 0.038868 0.092337
0.473566 0.031571 0.090685
0.564037 0.054477 0.089534
0.644421 0.091914 0.082527
0.713650 0.135398 0.068413
0.775366 0.179521 0.046159
0.830453 0.222476 0.041243
0.875852 0.257205 0.042559
0.920482 0.288607 0.042256
0.008309 0.059233 0.074060
0.049646 0.060951 0.075995
0.093612 0.067050 0.077749
0.137963 0.069805 0.079778
0.185194 0.075940 0.086620
0.237857 0.077369 0.087499
0.304733 0.079451 0.091505
0.387673 0.079689 0.091651
0.476098 0.080558 0.090857
0.566046 0.098487 0.086178
0.645737 0.131486 0.078715
0.715798 0.171400 0.063611
0.775660 0.215134 0.040718
0.830337 0.255892 0.040019
0.877829 0.290120 0.040352
0.919222 0.319810 0.041787
0.027014 0.108225 0.084891
0.061584 0.108285 0.083156
0.098691 0.110904 0.083624
0.143034 0.113584 0.082613
0.192867 0.116541 0.087955
0.246955 0.119220 0.087607
0.313010 0.120412 0.091212
0.392793 0.125062 0.092246
0.482939 0.132642 0.089240
0.571138 0.150513 0.085731
0.650351 0.179842 0.075518
0.717976 0.216941 0.059380
0.775881 0.256460 0.040225
0.832269 0.295014 0.039864
0.876651 0.326017 0.039995
0.919572 0.353907 0.041731
0.042996 0.158431 0.093587
0.071015 0.158694 0.093317
0.104593 0.160372 0.094201
0.148873 0.163818 0.094228
0.198604 0.168254 0.093630
0.256824 0.170617 0.092870
0.326343 0.173185 0.092124
0.404833 0.178593 0.088825
0.493519 0.189418 0.088156
0.575508 0.207997 0.081818
0.652344 0.236572 0.067791
0.719720 0.268863 0.047774
0.778069 0.302689 0.039136
0.831011 0.338364 0.039170
0.878018 0.365813 0.039665
0.921161 0.391676 0.041448
0.055109 0.216549 0.104390
0.082277 0.217320 0.104679
0.117410 0.217371 0.104805
0.157379 0.223171 0.106191
0.206779 0.229183 0.104377
0.270815 0.235392 0.099731
0.344336 0.242684 0.096524
0.422643 0.249775 0.089884
0.505990 0.257932 0.082452
0.584990 0.272955 0.072643
0.656823 0.297563 0.051503
0.721728 0.324849 0.039754
0.780555 0.356111 0.036654
0.833135 0.386116 0.037576
0.878291 0.410448 0.037957
0.921180 0.432184 0.040184
0.068631 0.289914 0.114440
0.096888 0.291883 0.115306
0.132724 0.292331 0.114019
0.174040 0.295759 0.112714
0.223692 0.304269 0.112098
0.288379 0.310397 0.105860
0.365940 0.321685 0.100789
0.448189 0.332867 0.091858
0.524715 0.343453 0.078179
0.597819 0.352838 0.060081
0.664315 0.368282 0.038497
0.726248 0.386834 0.036488
0.782971 0.410515 0.032669
0.834508 0.436674 0.033867
0.877764 0.457482 0.034141
0.921836 0.476779 0.039227
0.088389 0.380412 0.121085
0.118148 0.381275 0.121819
0.155268 0.382529 0.121584
0.196888 0.385047 0.118055
0.248998 0.391406 0.117595
0.313883 0.398580 0.112224
0.385979 0.407532 0.105359
0.466842 0.418401 0.092022
0.546406 0.429216 0.076573
0.613706 0.438909 0.052069
0.675200 0.448844 0.037515
0.732537 0.459253 0.032966
0.786256 0.473474 0.030717
0.834508 0.489381 0.031480
0.877573 0.504497 0.030905
0.922979 0.521805 0.036669
0.120537 0.476860 0.127740
0.150575 0.476867 0.127367
0.188839 0.478937 0.127489
0.229773 0.479847 0.127583
0.283790 0.484263 0.126108
0.346168 0.489985 0.118881
0.413042 0.495562 0.111623
0.485616 0.502944 0.101570
0.560320 0.510247 0.085392
0.631013 0.520778 0.061045
0.688819 0.527635 0.039371
0.743850 0.536527 0.035955
0.792617 0.543241 0.032640
0.837596 0.550570 0.030650
0.878843 0.558281 0.030650
0.922305 0.568874 0.032244
0.166289 0.565000 0.139073
0.198287 0.566775 0.136360
0.236077 0.566884 0.139795
0.276741 0.568443 0.140122
0.324211 0.569632 0.139834
0.382061 0.572763 0.133149
0.446790 0.576843 0.128684
0.510233 0.582127 0.117210
0.576486 0.586638 0.107529
0.641836 0.593267 0.090814
0.702853 0.601228 0.072060
0.752998 0.605640 0.056348
0.799783 0.610105 0.041012
0.842735 0.614913 0.038036
0.883428 0.617803 0.037130
0.925154 0.622379 0.036868
0.224644 0.644842 0.153883
0.256782 0.647064 0.154995
0.289605 0.647087 0.154968
0.331403 0.648930 0.157439
0.372736 0.648988 0.157648
0.424876 0.649809 0.154333
0.480504 0.653757 0.151429
0.538898 0.655178 0.142667
0.594559 0.659217 0.134234
0.654756 0.662036 0.127295
0.711375 0.667239 0.112867
0.762352 0.671520 0.102558
0.806978 0.673728 0.096602
0.847410 0.676107 0.089992
0.888520 0.676522 0.088488
0.929376 0.680012 0.087891
0.281797 0.716171 0.179166
0.312491 0.717947 0.177119
0.347636 0.718011 0.179447
0.383460 0.718348 0.181686
0.421698 0.717989 0.182012
0.465387 0.718548 0.179834
0.514047 0.720642 0.177631
0.563737 0.721036 0.172673
0.615288 0.724808 0.167636
0.668457 0.725450 0.160291
0.718182 0.728505 0.156217
0.764216 0.730578 0.146311
0.812669 0.732699 0.137302
0.852708 0.732674 0.135500
0.893929 0.732603 0.136495
0.934133 0.733950 0.139318
0.332707 0.777701 0.203759
0.362832 0.777898 0.205360
0.394364 0.779604 0.207403
0.429050 0.778300 0.209009
0.464726 0.778165 0.211342
0.502739 0.779462 0.213682
0.544753 0.780057 0.210177
0.590874 0.780545 0.207338
0.633804 0.782312 0.201221
0.680653 0.782878 0.200023
0.728774 0.785192 0.193855
0.775176 0.787479 0.189275
0.817619 0.787042 0.182374
0.862142 0.788438 0.172871
0.899303 0.786103 0.173602
0.939179 0.786705 0.176895
0.377254 0.831190 0.236818
0.405099 0.832994 0.239004
0.434880 0.833120 0.238635
0.467421 0.833371 0.240945
0.501808 0.831537 0.243193
0.535133 0.831893 0.245536
0.572613 0.833740 0.246889
0.611741 0.833580 0.242981
0.653451 0.835702 0.239190
0.695474 0.835897 0.237033
0.737627 0.837870 0.232190
0.781567 0.840034 0.228753
0.822493 0.840785 0.225747
0.865106 0.839877 0.217364
0.904128 0.837150 0.208601
0.944417 0.836071 0.211824
0.416016 0.881319 0.271910
0.442299 0.882514 0.273921
0.472343 0.881305 0.273928
0.502324 0.882920 0.275824
0.533347 0.881385 0.277787
0.565853 0.882856 0.280395
0.600705 0.882838 0.280768
0.633782 0.881432 0.278876
0.670929 0.885551 0.277007
0.710092 0.885950 0.276610
0.751669 0.885928 0.272795
0.790545 0.888253 0.270821
0.832135 0.891687 0.268264
0.873040 0.892634 0.265922
0.910823 0.888015 0.256055
0.949606 0.887889 0.249773
0.448043 0.928708 0.307255
0.474406 0.928708 0.307358
0.502747 0.928349 0.309222
0.529077 0.928747 0.309241
0.560963 0.928752 0.311485
0.590761 0.928709 0.313763
0.623429 0.928708 0.316041
0.656125 0.929326 0.316394
0.690804 0.932787 0.316466
0.725757 0.933598 0.315297
0.764430 0.933646 0.314920
0.801561 0.935476 0.312792
0.838779 0.937731 0.311746
0.879414 0.938846 0.309939
0.919560 0.940386 0.308308
0.954962 0.938797 0.301945
0.469311 0.977068 0.337198
0.496024 0.977068 0.335925
0.524993 0.974822 0.337765
0.551188 0.975179 0.337799
0.580976 0.975191 0.339997
0.609089 0.976974 0.342262
0.641416 0.977068 0.344527
0.671864 0.978820 0.346396
0.706741 0.979366 0.346898
0.739184 0.981486 0.348975
0.775817 0.983746 0.349174
0.811261 0.983998 0.347497
0.848135 0.986030 0.350545
0.883327 0.988307 0.351326
0.925577 0.988623 0.352954
0.963644 0.992529 0.357039
0.002289 0.023318 0.123982
0.046578 0.029343 0.124815
0.091080 0.036819 0.121699
0.130113 0.038770 0.125558
0.177375 0.040231 0.129849
0.236382 0.050445 0.140824
0.303844 0.052492 0.141337
0.388505 0.056638 0.147471
0.482721 0.062089 0.147748
0.572844 0.079416 0.148487
0.650833 0.111283 0.144245
0.719807 0.149838 0.139667
0.779703 0.192765 0.137389
0.833099 0.232304 0.131401
0.876794 0.266163 0.133741
0.918990 0.295827 0.142166
0.008820 0.070688 0.129029
0.050479 0.070594 0.130332
0.096719 0.075094 0.130459
0.138032 0.079690 0.132018
0.182711 0.083342 0.138963
0.241600 0.087714 0.142073
0.311350 0.090664 0.145435
0.396220 0.096645 0.148159
0.485432 0.102302 0.148554
0.574383 0.119113 0.146089
0.653886 0.149364 0.143912
0.719785 0.185674 0.138935
0.779903 0.226754 0.132573
0.831211 0.265630 0.129691
0.877338 0.297934 0.131323
0.919884 0.326909 0.138677
0.024426 0.112600 0.135270
0.063088 0.113538 0.135126
0.102369 0.116593 0.136356
0.144480 0.121213 0.138186
0.192968 0.123024 0.141411
0.249371 0.127519 0.140841
0.320100 0.134315 0.144597
0.402975 0.138464 0.146728
0.493520 0.147774 0.144872
0.578940 0.165990 0.144136
0.654229 0.194661 0.138567
0.722844 0.229294 0.134440
0.779147 0.266585 0.128978
0.834295 0.303211 0.128473
0.878387 0.332835 0.129930
0.921183 0.362130 0.139047
0.046604 0.163638 0.143866
0.077286 0.164665 0.143773
0.111253 0.166471 0.144478
0.153773 0.169246 0.143723
0.203663 0.172816 0.143720
0.262983 0.176787 0.144386
0.333455 0.182387 0.144077
0.413100 0.189532 0.142735
0.501138 0.201213 0.141105
0.584096 0.221138 0.139703
0.657497 0.247729 0.134643
0.723428 0.278682 0.129764
0.780726 0.312910 0.123511
0.833157 0.344620 0.122469
0.878752 0.373429 0.128101
0.921256 0.398831 0.137932
0.062310 0.224837 0.152504
0.093063 0.225342 0.153543
0.126289 0.226325 0.151396
0.164478 0.229595 0.152332
0.213712 0.234869 0.149813
0.279186 0.241589 0.148587
0.351548 0.246944 0.145885
0.430802 0.255190 0.142407
0.513069 0.265534 0.137206
0.590422 0.281264 0.132902
0.661680 0.305429 0.126291
0.725718 0.334217 0.122056
0.783102 0.363362 0.112970
0.833959 0.392479 0.110539
0.878935 0.416017 0.120122
0.921270 0.439064 0.132530
0.079463 0.299884 0.160941
0.108715 0.300543 0.159327
0.143328 0.302529 0.161118
0.183113 0.304617 0.158843
0.232784 0.310476 0.157272
0.297270 0.318405 0.153765
0.372886 0.326787 0.148402
0.453348 0.336980 0.143084
0.528884 0.346393 0.135381
0.601062 0.356785 0.127156
0.666818 0.372020 0.117222
0.729272 0.392405 0.103630
0.785194 0.416367 0.094812
0.835760 0.441522 0.095234
0.879919 0.461526 0.104857
0.922178 0.481632 0.124659
0.102408 0.389888 0.167741
0.132881 0.391185 0.166254
0.167816 0.390696 0.168142
0.209579 0.393769 0.164837
0.259267 0.398269 0.164801
0.322053 0.405426 0.160331
0.393010 0.413704 0.153581
0.472589 0.423049 0.145366
0.549353 0.433653 0.136210
0.616642 0.442601 0.126175
0.678776 0.450706 0.113415
0.736041 0.462448 0.092747
0.787522 0.476282 0.085243
0.835745 0.491867 0.085258
0.879419 0.508842 0.089912
0.923273 0.525770 0.112579
0.136071 0.483399 0.174471
0.165810 0.484643 0.174019
0.201850 0.484781 0.174406
0.243690 0.486560 0.172771
0.293956 0.488850 0.174294
0.353811 0.494207 0.171002
0.419992 0.499252 0.163225
0.492029 0.506222 0.154891
0.565444 0.514129 0.144099
0.633842 0.523915 0.134591
0.692604 0.530696 0.123131
0.745248 0.537967 0.108367
0.794140 0.544377 0.094173
0.839097 0.551434 0.086152
0.880369 0.560696 0.086857
0.923391 0.570422 0.096381
0.182606 0.570493 0.185864
0.213804 0.571754 0.183642
0.247418 0.570038 0.184280
0.288851 0.571606 0.185799
0.336617 0.573202 0.187193
0.392469 0.577041 0.183405
0.452193 0.579436 0.177518
0.516219 0.585460 0.169623
0.580294 0.589330 0.160620
0.643971 0.595871 0.151326
0.705423 0.603360 0.142350
0.753621 0.608694 0.135124
0.800344 0.612558 0.126248
0.844591 0.617025 0.119492
0.884802 0.618856 0.115883
0.924449 0.623882 0.115366
0.237722 0.647779 0.200695
0.268147 0.649974 0.202302
0.302542 0.649745 0.199579
0.341671 0.649882 0.203591
0.383061 0.650091 0.204805
0.432787 0.652513 0.200477
0.488091 0.654930 0.197096
0.544256 0.658742 0.192731
0.599218 0.661229 0.185650
0.654993 0.664743 0.178442
0.712207 0.669750 0.170655
0.762420 0.673414 0.162603
0.807056 0.674781 0.159336
0.848368 0.677249 0.154358
0.888118 0.677425 0.154089
0.927942 0.681201 0.155316
0.291767 0.718846 0.220536
0.323497 0.718851 0.222470
0.354474 0.718771 0.223281
0.390826 0.720230 0.225919
0.428502 0.719703 0.227280
0.474011 0.721180 0.226035
0.519264 0.723313 0.225608
0.568826 0.723478 0.220436
0.618466 0.725112 0.215911
0.669390 0.728143 0.212124
0.719958 0.730935 0.204208
0.766921 0.731426 0.196271
0.815266 0.733505 0.189220
0.855188 0.733465 0.188408
0.894736 0.732820 0.188446
0.934018 0.734040 0.189579
0.338801 0.777796 0.248226
0.369843 0.778583 0.250377
0.401496 0.778669 0.251110
0.433260 0.779904 0.251174
0.468815 0.779970 0.252845
0.507704 0.779510 0.256955
0.548086 0.780979 0.255531
0.593551 0.782343 0.252339
0.637106 0.783229 0.246856
0.683061 0.784639 0.243528
0.729388 0.786884 0.238902
0.774662 0.789251 0.235177
0.818556 0.788707 0.227641
0.863220 0.788429 0.221620
0.901072 0.786136 0.220350
0.939442 0.785306 0.221244
0.380867 0.832085 0.277540
0.409742 0.831991 0.281020
0.440926 0.833396 0.278754
0.472863 0.832716 0.281378
0.505084 0.833536 0.283472
0.538437 0.833452 0.285807
0.575914 0.834668 0.285995
0.614389 0.835397 0.284486
0.656057 0.836417 0.282140
0.697255 0.836732 0.279035
0.738516 0.838335 0.273862
0.783058 0.840992 0.273288
0.824603 0.841359 0.268049
0.865423 0.840859 0.261323
0.905898 0.838974 0.252901
0.945526 0.837719 0.256064
0.419257 0.882302 0.310743
0.447267 0.881668 0.313956
0.475259 0.882845 0.312362
0.505295 0.883112 0.314675
0.535874 0.883794 0.315633
0.568215 0.883002 0.318431
0.603062 0.883005 0.320179
0.636349 0.883288 0.318966
0.673290 0.885569 0.317081
0.711942 0.887023 0.315673
0.752348 0.888298 0.312907
0.789696 0.889752 0.311890
0.832150 0.890999 0.307973
0.873636 0.893219 0.304881
0.909250 0.889692 0.297390
0.951629 0.888200 0.291369
0.449841 0.929393 0.344508
0.477561 0.928711 0.345971
0.504479 0.928477 0.345856
0.533331 0.929917 0.346963
0.562807 0.929802 0.348531
0.591922 0.929419 0.350924
0.624297 0.929539 0.353203
0.657848 0.930726 0.353266
0.691866 0.932843 0.353488
0.727439 0.934442 0.353843
0.763859 0.934231 0.352022
0.801820 0.935505 0.350769
0.839089 0.938395 0.350044
0.879716 0.941206 0.348534
0.919334 0.941498 0.346766
0.955600 0.940440 0.340548
0.471981 0.977076 0.371968
0.501625 0.977068 0.373534
0.526123 0.975608 0.373065
0.553311 0.977053 0.374124
0.582038 0.976276 0.376344
0.611620 0.977038 0.379393
0.642437 0.977863 0.381693
0.672773 0.977924 0.381825
0.708597 0.979286 0.383151
0.740155 0.981498 0.385328
0.775922 0.983006 0.385509
0.812998 0.983908 0.385494
0.849978 0.986036 0.385485
0.885205 0.988334 0.387435
0.924432 0.989352 0.388417
0.963401 0.992673 0.392353
0.002289 0.038450 0.180993
0.045479 0.041758 0.183273
0.097033 0.046364 0.179984
0.138459 0.054229 0.179738
0.182270 0.058691 0.183598
0.232701 0.058150 0.189754
0.306929 0.053476 0.191702
0.395507 0.051810 0.199247
0.491110 0.039496 0.200474
0.582280 0.097115 0.209261
0.658682 0.137189 0.210801
0.725324 0.174269 0.212185
0.785013 0.215462 0.212499
0.835766 0.250860 0.211073
0.878351 0.280874 0.214263
0.920218 0.309086 0.221148
0.014040 0.080329 0.184679
0.054502 0.080203 0.184748
0.101094 0.083439 0.184850
0.144874 0.090487 0.183520
0.187406 0.095262 0.187711
0.239753 0.094359 0.191455
0.314632 0.093388 0.195165
0.402525 0.097239 0.202908
0.496590 0.106535 0.205771
0.586336 0.144117 0.210073
0.662892 0.176159 0.213818
0.724916 0.209752 0.210786
0.784025 0.247748 0.210425
0.834730 0.281776 0.210673
0.877271 0.313852 0.212028
0.920992 0.340287 0.220776
0.027717 0.122441 0.189887
0.066424 0.124446 0.190510
0.107828 0.125912 0.191523
0.152497 0.131320 0.190286
0.195673 0.135729 0.191155
0.253924 0.137166 0.196288
0.326806 0.140925 0.198935
0.412730 0.145762 0.202906
0.504483 0.166880 0.206484
0.589566 0.189241 0.209117
0.663042 0.217704 0.207019
0.727364 0.250957 0.208135
0.783763 0.286164 0.207910
0.834499 0.319218 0.207608
0.877490 0.348319 0.211263
0.921039 0.374281 0.219242
0.046843 0.172327 0.196630
0.077564 0.173255 0.195593
0.116681 0.174603 0.195588
0.160564 0.175820 0.197721
0.209534 0.182819 0.198111
0.269859 0.186459 0.201165
0.343500 0.192161 0.200621
0.427478 0.206710 0.204374
0.511866 0.219919 0.203533
0.593854 0.241414 0.204030
0.664481 0.267392 0.203078
0.728598 0.297819 0.202437
0.784042 0.329372 0.202518
0.835232 0.360225 0.204727
0.878999 0.387582 0.211701
0.921568 0.412283 0.219971
0.065302 0.232702 0.202479
0.097707 0.232693 0.203716
0.134718 0.235771 0.203901
0.174485 0.238508 0.203505
0.226499 0.244040 0.205029
0.289965 0.249423 0.204433
0.362730 0.256069 0.202437
0.443321 0.265398 0.200747
0.524434 0.278550 0.199595
0.600968 0.298655 0.200254
0.668014 0.321820 0.197697
0.730935 0.349154 0.197926
0.787289 0.377326 0.198657
0.836468 0.404551 0.201032
0.878731 0.427717 0.208068
0.921935 0.451218 0.218267
0.089741 0.310198 0.211762
0.123016 0.310826 0.211011
0.159833 0.313703 0.212133
0.200087 0.317215 0.211851
0.249380 0.320751 0.212861
0.309480 0.327848 0.208742
0.384918 0.335180 0.204688
0.463363 0.342056 0.200345
0.538617 0.352221 0.197511
0.608517 0.365564 0.193699
0.673930 0.381828 0.190629
0.733766 0.404259 0.189506
0.787745 0.427772 0.189263
0.837122 0.451003 0.195356
0.879885 0.471299 0.203803
0.921736 0.490763 0.212640
0.124810 0.400858 0.221781
0.157636 0.401930 0.220994
0.190798 0.403309 0.220838
0.228958 0.406017 0.218887
0.277935 0.406889 0.219179
0.336209 0.415539 0.216051
0.406581 0.422302 0.212138
0.483252 0.429628 0.205542
0.557819 0.438674 0.199766
0.622795 0.446282 0.192644
0.683671 0.454804 0.188074
0.739113 0.466863 0.183316
0.789525 0.482029 0.180995
0.838526 0.499870 0.185901
0.881409 0.517900 0.196707
0.922990 0.533254 0.207063
0.165395 0.492409 0.231282
0.193614 0.493302 0.229030
0.226722 0.494586 0.228502
0.265514 0.495383 0.226339
0.314386 0.496824 0.228604
0.368346 0.501793 0.227719
0.432604 0.506197 0.221597
0.501792 0.511964 0.215356
