example_ofxGpuLutCube/bin/data/ofxGpuLutCube/LUT/T38 (smooth sunny fade).cube
LUT_3D_SIZE 16
0.201965 0.172058 0.163940
0.209086 0.171985 0.163875
0.227352 0.171767 0.163719
0.265124 0.171741 0.163800
0.326335 0.171800 0.163959
0.420308 0.172170 0.164348
0.517834 0.173205 0.165393
0.595748 0.174520 0.166797
0.660441 0.175788 0.168122
0.715766 0.176904 0.169263
0.762808 0.177938 0.170390
0.802374 0.178807 0.171291
0.835711 0.179700 0.172467
0.856449 0.181968 0.173403
0.866364 0.183167 0.173922
0.874444 0.184048 0.174406
0.202242 0.179095 0.163879
0.208913 0.178964 0.163815
0.226383 0.178340 0.163636
0.262270 0.177866 0.163600
0.323015 0.177625 0.163824
0.416531 0.177942 0.164199
0.514826 0.178735 0.165151
0.592342 0.180109 0.166512
0.657070 0.181373 0.167804
0.711428 0.182586 0.168734
0.758231 0.183807 0.169837
0.797134 0.184743 0.170618
0.829834 0.185468 0.171634
0.853814 0.186014 0.172394
0.864401 0.186444 0.172724
0.872385 0.187218 0.172918
0.204985 0.194371 0.163943
0.210898 0.194496 0.163895
0.225620 0.194196 0.163875
0.257244 0.192013 0.163730
0.310453 0.189550 0.163561
0.393968 0.187298 0.163761
0.498306 0.186649 0.164331
0.583780 0.187732 0.165888
0.653012 0.188890 0.167297
0.709869 0.190067 0.168513
0.756881 0.191144 0.169586
0.795843 0.192094 0.170593
0.828505 0.192830 0.171572
0.853030 0.193428 0.172323
0.864060 0.193752 0.172603
0.871935 0.193900 0.172768
0.212555 0.220355 0.164710
0.218343 0.220510 0.164734
0.229056 0.220789 0.164747
0.255891 0.219846 0.164571
0.307778 0.215920 0.164126
0.389205 0.208903 0.163902
0.488704 0.200972 0.164229
0.579003 0.198166 0.164975
0.650159 0.198438 0.166161
0.708711 0.198734 0.167109
0.755048 0.199387 0.168310
0.794587 0.200144 0.169916
0.828886 0.200909 0.171168
0.854058 0.201476 0.172064
0.865200 0.201687 0.172359
0.873096 0.201806 0.172533
0.226176 0.260565 0.167006
0.231956 0.261066 0.167056
0.240456 0.261703 0.167092
0.261170 0.263260 0.166951
0.310360 0.263106 0.166475
0.393659 0.257658 0.165346
0.500278 0.245295 0.165026
0.602206 0.230046 0.165590
0.675798 0.222358 0.166495
0.731915 0.218732 0.167540
0.777687 0.216309 0.168518
0.815050 0.215361 0.169556
0.847081 0.214678 0.170494
0.872408 0.214167 0.171208
0.883214 0.213833 0.171511
0.890848 0.213991 0.171644
0.246999 0.326406 0.170817
0.252979 0.327399 0.170937
0.261310 0.328462 0.170982
0.273149 0.329773 0.170980
0.322393 0.336767 0.170796
0.406131 0.337714 0.170417
0.513292 0.330613 0.167837
0.620053 0.317434 0.166917
0.703531 0.301381 0.167632
0.765898 0.288849 0.168657
0.814284 0.280124 0.170027
0.852404 0.274451 0.171116
0.882939 0.270705 0.172019
0.897313 0.265372 0.172159
0.901145 0.261819 0.172016
0.904474 0.261354 0.171947
0.282373 0.416748 0.177856
0.288612 0.417985 0.178023
0.297375 0.419517 0.178201
0.306631 0.420674 0.178290
0.334417 0.425593 0.178341
0.430747 0.440291 0.178786
0.531455 0.436977 0.177693
0.636131 0.431265 0.173556
0.720621 0.421153 0.171490
0.787103 0.410119 0.171365
0.841439 0.400071 0.171887
0.884126 0.392543 0.172542
0.902654 0.384591 0.172478
0.905311 0.375796 0.171779
0.908248 0.370328 0.171482
0.911539 0.369533 0.171393
0.337512 0.517940 0.189549
0.344526 0.519488 0.189823
0.354000 0.521208 0.190180
0.363569 0.522220 0.190372
0.374370 0.523332 0.190517
0.447804 0.535540 0.190657
0.562183 0.548814 0.190736
0.654540 0.540079 0.188834
0.734376 0.534516 0.184444
0.800679 0.527699 0.180192
0.854571 0.520454 0.177515
0.896818 0.514382 0.176531
0.914189 0.508199 0.175393
0.916806 0.501273 0.174013
0.919608 0.496363 0.173379
0.922828 0.495249 0.173281
0.424058 0.613403 0.203153
0.431551 0.615158 0.203492
0.441476 0.617113 0.203900
0.451546 0.618269 0.204242
0.461450 0.619001 0.204437
0.483138 0.621645 0.204500
0.583757 0.637922 0.204448
0.670675 0.630810 0.203625
0.747106 0.626015 0.200622
0.808561 0.621227 0.197520
0.860841 0.616645 0.192688
0.902729 0.613115 0.189569
0.925947 0.609494 0.186883
0.928800 0.604697 0.184244
0.931712 0.601327 0.182999
0.934846 0.599845 0.182657
0.500226 0.689893 0.214636
0.507701 0.691608 0.215188
0.517500 0.693276 0.215634
0.527342 0.694250 0.215888
0.537262 0.694945 0.216066
0.547394 0.695510 0.216209
0.596304 0.702348 0.216273
0.695911 0.713495 0.216467
0.755672 0.694402 0.214709
0.816653 0.691751 0.212329
0.863971 0.689392 0.210557
0.902388 0.687139 0.207479
0.932578 0.685426 0.204647
0.939217 0.682501 0.201556
0.942225 0.679870 0.200199
0.945334 0.678271 0.199769
0.562195 0.752756 0.226939
0.569442 0.754646 0.227465
0.579120 0.756261 0.227974
0.588920 0.757243 0.228267
0.598764 0.757898 0.228458
0.608721 0.758460 0.228634
0.623118 0.759408 0.228794
0.703196 0.768433 0.229146
0.769338 0.759115 0.228201
0.822029 0.748167 0.226141
0.868110 0.747718 0.224562
0.904972 0.746309 0.223379
0.935404 0.744529 0.221411
0.947894 0.742077 0.218868
0.950842 0.739573 0.216609
0.953944 0.737942 0.215235
0.609591 0.805634 0.238631
0.616583 0.807267 0.239243
0.626128 0.809004 0.239840
0.635717 0.809994 0.240203
0.645496 0.810658 0.240437
0.655370 0.811192 0.240639
0.665701 0.811635 0.240821
0.708098 0.815038 0.240618
0.785563 0.818385 0.239899
0.826438 0.798165 0.238788
0.870775 0.796173 0.237383
0.907524 0.795557 0.235795
0.937424 0.794103 0.234526
0.955342 0.792099 0.233127
0.958575 0.789646 0.231258
0.961586 0.787794 0.229992
0.644690 0.849810 0.251581
0.651321 0.851288 0.252555
0.660483 0.852874 0.253622
0.669933 0.853779 0.254191
0.679603 0.854489 0.254567
0.689473 0.855086 0.254867
0.699534 0.855444 0.255139
0.719421 0.856429 0.254761
0.789763 0.860443 0.252321
0.840953 0.851959 0.251338
0.872890 0.838049 0.250144
0.909057 0.837098 0.248959
0.938836 0.836045 0.247658
0.960832 0.834585 0.246519
0.965462 0.832514 0.245104
0.968553 0.831049 0.243987
0.669779 0.885099 0.269315
0.676420 0.886889 0.270674
0.685561 0.888493 0.271891
0.694930 0.889417 0.272583
0.704523 0.890045 0.273077
0.714301 0.890497 0.273459
0.724389 0.890867 0.273756
0.736559 0.891336 0.273796
0.790809 0.894547 0.270036
0.851252 0.895395 0.267925
0.879717 0.878996 0.266786
0.909774 0.872377 0.265928
0.939601 0.871511 0.264805
0.963629 0.870505 0.263703
0.971529 0.869004 0.262463
0.974588 0.867562 0.261564
0.689715 0.914994 0.285443
0.696362 0.916627 0.286635
0.705363 0.918335 0.287834
0.714637 0.919263 0.288424
0.724127 0.919835 0.288829
0.733788 0.920325 0.289138
0.743834 0.920670 0.289356
0.754413 0.920892 0.289572
0.791543 0.922768 0.286726
0.853112 0.924808 0.282932
0.892236 0.919337 0.281875
0.912365 0.903505 0.281167
0.939887 0.900592 0.280438
0.963991 0.899562 0.279603
0.976449 0.898445 0.278763
0.979550 0.897226 0.277878
0.704070 0.938374 0.295915
0.710528 0.940226 0.297029
0.719296 0.941814 0.298126
0.728565 0.942706 0.298790
0.738052 0.943324 0.299351
0.747711 0.943774 0.299657
0.757703 0.944109 0.299917
0.768044 0.944438 0.300121
0.792399 0.945407 0.298897
0.853404 0.947767 0.294680
0.898208 0.947812 0.293923
0.920266 0.934575 0.293566
0.940476 0.924315 0.293168
0.964321 0.923077 0.292368
0.979909 0.922102 0.291553
0.983489 0.920830 0.290779
0.202103 0.172032 0.170780
0.209028 0.172033 0.170727
0.227258 0.171831 0.170374
0.264277 0.171864 0.170057
0.326212 0.171930 0.169966
0.419430 0.172171 0.170327
0.516933 0.173131 0.171281
0.594821 0.174399 0.172929
0.659662 0.175573 0.174613
0.713863 0.176672 0.176046
0.761436 0.177653 0.177406
0.800790 0.178481 0.178554
0.834093 0.179414 0.179350
0.856186 0.181966 0.179942
0.866201 0.183174 0.180024
0.874416 0.184109 0.180073
0.202263 0.179048 0.170423
0.209057 0.179065 0.170570
0.226371 0.178406 0.170032
0.262495 0.177843 0.169746
0.323522 0.177609 0.169727
0.416235 0.177900 0.170199
0.513899 0.178649 0.171121
0.591246 0.179980 0.172660
0.655566 0.181198 0.174201
0.709608 0.182355 0.175579
0.756313 0.183535 0.176762
0.795460 0.184464 0.177732
0.828565 0.185250 0.178436
0.853294 0.185879 0.178788
0.864227 0.186425 0.178726
0.872318 0.187241 0.178619
0.204894 0.194166 0.170257
0.210814 0.194365 0.170305
0.225546 0.194041 0.170110
0.257172 0.191808 0.169683
0.310255 0.189327 0.169551
0.393635 0.187047 0.169782
0.497932 0.186485 0.170516
0.582944 0.187539 0.172190
0.651865 0.188688 0.173938
0.707976 0.189808 0.175443
0.754844 0.190835 0.176652
0.794170 0.191824 0.177575
0.827320 0.192638 0.178249
0.852579 0.193269 0.178633
0.863944 0.193648 0.178472
0.871918 0.193851 0.178256
0.212389 0.219805 0.170748
0.218167 0.220094 0.170836
0.228880 0.220366 0.170813
0.255528 0.219457 0.170621
0.306795 0.215371 0.170234
0.387384 0.208312 0.170219
0.486063 0.200521 0.170586
0.575990 0.197817 0.171520
0.647378 0.197982 0.172852
0.705949 0.198403 0.174251
0.752691 0.199043 0.175542
0.792765 0.199886 0.176707
0.827675 0.200735 0.177624
0.853603 0.201385 0.178065
0.865142 0.201657 0.177923
0.873153 0.201845 0.177657
0.225737 0.259369 0.173160
0.231490 0.259835 0.173235
0.239961 0.260483 0.173322
0.260287 0.261951 0.173262
0.308540 0.261538 0.172911
0.390630 0.255941 0.171874
0.496459 0.243456 0.171691
0.597949 0.228152 0.172340
0.671479 0.220475 0.173526
0.727741 0.217141 0.174608
0.774553 0.215190 0.175331
0.812842 0.214588 0.175906
0.845856 0.214302 0.176426
0.872103 0.214077 0.176674
0.883391 0.213927 0.176558
0.891564 0.214298 0.176322
0.245852 0.323477 0.177451
0.251798 0.324384 0.177578
0.260136 0.325490 0.177717
0.271769 0.326820 0.177711
0.319401 0.333263 0.177529
0.401666 0.333908 0.177289
0.507809 0.326452 0.174822
0.614630 0.312800 0.174112
0.699387 0.296907 0.174706
0.762526 0.285352 0.175472
0.811931 0.277505 0.176331
0.851138 0.273209 0.176967
0.882748 0.270542 0.177382
0.897365 0.266128 0.177045
0.901249 0.263652 0.176516
0.904593 0.263686 0.176191
0.280000 0.411568 0.184836
0.286354 0.413044 0.185057
0.295059 0.414737 0.185263
0.304253 0.415802 0.185389
0.330585 0.420335 0.185485
0.424792 0.434971 0.185697
0.525780 0.432355 0.184682
0.631809 0.426994 0.180391
0.717867 0.417552 0.178054
0.785578 0.407821 0.177395
0.840924 0.399079 0.177506
0.884392 0.393090 0.177708
0.902827 0.386635 0.177176
0.905602 0.379073 0.176103
0.908565 0.374267 0.175691
0.911845 0.373644 0.175618
0.333598 0.513113 0.196101
0.340985 0.515237 0.196436
0.350476 0.517111 0.196770
0.360287 0.518438 0.196925
0.371281 0.519746 0.197000
0.443830 0.532266 0.197143
0.559138 0.546325 0.196957
0.652791 0.538463 0.194777
0.733955 0.533962 0.190182
0.801048 0.528231 0.185566
0.855614 0.522139 0.182441
0.898249 0.517192 0.181063
0.914528 0.511273 0.179741
0.917168 0.504575 0.178285
0.920033 0.500145 0.177637
0.923271 0.499174 0.177510
0.422412 0.611906 0.209192
0.430177 0.613907 0.209589
0.440311 0.616015 0.209909
0.450503 0.617269 0.210104
0.460858 0.618439 0.210186
0.483208 0.621602 0.210116
0.584715 0.638544 0.209906
0.672139 0.631799 0.208997
0.748989 0.627664 0.205535
0.810657 0.623628 0.202227
0.862499 0.618982 0.197381
0.904143 0.615834 0.194279
0.926341 0.612154 0.191497
0.929195 0.607744 0.188694
0.932129 0.604415 0.187438
0.935305 0.603296 0.187066
0.501587 0.690958 0.219749
0.509222 0.692895 0.220237
0.519128 0.694615 0.220647
0.529151 0.695758 0.220881
0.539281 0.696699 0.220973
0.549780 0.697684 0.220989
0.599993 0.704736 0.221063
0.698978 0.715422 0.221190
0.758198 0.696347 0.219521
0.818676 0.693652 0.217011
0.865703 0.691447 0.215200
0.903798 0.689495 0.212153
0.933394 0.687883 0.209271
0.939602 0.685051 0.205958
0.942589 0.682680 0.204493
0.945750 0.681311 0.204041
0.564105 0.754570 0.231634
0.571447 0.756341 0.232174
0.581207 0.758079 0.232693
0.591029 0.759062 0.233011
0.600922 0.759782 0.233191
0.610909 0.760365 0.233362
0.625639 0.761485 0.233514
0.706614 0.770581 0.233773
0.771542 0.760399 0.232781
0.824311 0.750069 0.230683
0.870004 0.749828 0.229070
0.906650 0.748595 0.227768
0.936828 0.746922 0.225837
0.948311 0.744449 0.223228
0.951240 0.741931 0.221038
0.954312 0.740347 0.219653
0.611467 0.807358 0.243244
0.618483 0.809158 0.243855
0.628038 0.810906 0.244494
0.637699 0.811874 0.244858
0.647526 0.812598 0.245068
0.657477 0.813272 0.245248
0.667857 0.813776 0.245380
0.711814 0.817378 0.245118
0.788685 0.820381 0.244207
0.828702 0.800095 0.243058
0.872793 0.798430 0.241673
0.909273 0.797827 0.240095
0.938919 0.796239 0.238772
0.955820 0.794177 0.237379
0.958942 0.791871 0.235628
0.961980 0.789937 0.234344
0.646425 0.851527 0.256278
0.653034 0.853105 0.257364
0.662293 0.854955 0.258377
0.671760 0.855893 0.258985
0.681491 0.856525 0.259374
0.691377 0.857037 0.259680
0.701436 0.857459 0.259920
0.721994 0.858495 0.259515
0.793042 0.862519 0.256935
0.843094 0.853651 0.255877
0.874799 0.840034 0.254723
0.910748 0.839200 0.253520
0.940295 0.838169 0.252276
0.961415 0.836483 0.251060
0.965835 0.834453 0.249634
0.968868 0.832960 0.248614
0.671482 0.887117 0.274292
0.678116 0.888653 0.275461
0.687262 0.890347 0.276762
0.696639 0.891263 0.277520
0.706225 0.891904 0.277983
0.716023 0.892385 0.278345
0.726129 0.892797 0.278691
0.738490 0.893277 0.278813
0.793946 0.896617 0.274730
0.853380 0.897097 0.272625
0.881460 0.880773 0.271573
0.911456 0.874176 0.270684
0.941039 0.873316 0.269525
0.964814 0.872265 0.268601
0.971829 0.870834 0.267230
0.974930 0.869493 0.266372
0.691357 0.916757 0.290180
0.697855 0.918393 0.291330
0.706831 0.920033 0.292431
0.716128 0.920958 0.293025
0.725602 0.921547 0.293413
0.735277 0.921992 0.293708
0.745354 0.922343 0.293949
0.756015 0.922559 0.294150
0.794514 0.924506 0.291201
0.855371 0.926677 0.287555
0.893935 0.920929 0.286590
0.913926 0.905109 0.286021
0.941358 0.902216 0.285228
0.965205 0.901351 0.284302
0.976784 0.900188 0.283452
0.979901 0.898917 0.282544
0.705468 0.940211 0.300476
0.711938 0.941759 0.301556
0.720720 0.943367 0.302859
0.729966 0.944311 0.303505
0.739468 0.944928 0.303917
0.749159 0.945384 0.304222
0.759189 0.945771 0.304478
0.769523 0.946098 0.304710
0.795407 0.947213 0.303259
0.855784 0.949439 0.299310
0.900009 0.949503 0.298611
0.921815 0.936178 0.298363
0.941913 0.925915 0.298065
0.965467 0.924691 0.297229
0.980351 0.923705 0.296272
0.983795 0.922597 0.295440
0.202480 0.172278 0.184491
0.209145 0.172167 0.184621
0.225988 0.172107 0.184331
0.261446 0.172163 0.183692
0.322988 0.172637 0.181841
0.417016 0.173000 0.180206
0.518515 0.173435 0.179882
0.597609 0.174446 0.180760
0.661543 0.175636 0.182293
0.714764 0.176660 0.183597
0.761607 0.177646 0.184935
0.801003 0.178443 0.186131
0.834397 0.179312 0.187284
0.856088 0.182040 0.188227
0.866042 0.183251 0.188562
0.874343 0.184178 0.188840
0.202477 0.179360 0.184088
0.209164 0.179323 0.184332
0.225409 0.178869 0.183961
0.259785 0.178189 0.182977
0.320948 0.178226 0.181117
0.414307 0.178528 0.179748
0.515132 0.178865 0.179421
0.593630 0.179999 0.180362
0.657349 0.181229 0.181721
0.709960 0.182335 0.182979
0.756380 0.183497 0.184246
0.795379 0.184409 0.185281
0.828255 0.185144 0.186257
0.852917 0.185740 0.187036
0.864035 0.186464 0.187272
0.872000 0.187248 0.187441
0.204597 0.194048 0.183231
0.210511 0.194346 0.183540
0.225455 0.194383 0.183686
0.256557 0.191900 0.181675
0.311576 0.188929 0.179338
0.397837 0.186972 0.178449
0.502926 0.186538 0.178514
0.586516 0.187500 0.179787
0.654044 0.188687 0.181413
0.708309 0.189772 0.182888
0.755004 0.190800 0.184180
0.794074 0.191750 0.185229
0.826856 0.192542 0.186150
0.852098 0.193108 0.186949
0.863672 0.193368 0.187114
0.871561 0.193537 0.187199
0.211778 0.219552 0.182916
0.217528 0.220037 0.183191
0.228320 0.220615 0.183145
0.255860 0.220118 0.182174
0.307933 0.214981 0.179514
0.388262 0.207451 0.178121
0.486186 0.199953 0.178208
0.576598 0.197540 0.178843
0.647460 0.197745 0.180249
0.705399 0.198213 0.181773
0.752077 0.198961 0.183217
0.792572 0.199793 0.184605
0.826733 0.200580 0.185735
0.852428 0.201170 0.186608
0.864270 0.201432 0.186878
0.872176 0.201555 0.186943
0.225240 0.258690 0.183061
0.231072 0.259604 0.183412
0.239403 0.260498 0.183573
0.259872 0.262381 0.182710
0.309557 0.262097 0.181605
0.391812 0.255272 0.179741
0.496939 0.242133 0.179286
0.597635 0.226774 0.179870
0.670392 0.219417 0.180909
0.726314 0.216074 0.182028
0.772569 0.214229 0.182955
0.810483 0.213612 0.183838
0.842845 0.213171 0.184726
0.868841 0.212920 0.185348
0.880500 0.212788 0.185645
0.888358 0.212940 0.185715
0.245288 0.322320 0.185642
0.251352 0.323795 0.185915
0.259697 0.325120 0.186148
0.271471 0.326755 0.186051
0.319461 0.333401 0.185400
0.402386 0.333899 0.185004
0.508072 0.325643 0.182513
0.614266 0.311296 0.181805
0.698439 0.294868 0.182421
0.760993 0.282692 0.183353
0.809636 0.274366 0.184473
0.848069 0.269319 0.185394
0.879260 0.265862 0.186198
0.896384 0.261359 0.186402
0.900954 0.258129 0.186145
0.904287 0.257736 0.185971
0.279347 0.409686 0.192535
0.285810 0.411620 0.192809
0.294628 0.413501 0.193141
0.303830 0.414893 0.193307
0.330248 0.419550 0.193413
0.424309 0.434074 0.193724
0.524932 0.431265 0.192683
0.630491 0.425178 0.188415
0.716153 0.414968 0.186162
0.783396 0.403907 0.185804
0.838305 0.393877 0.186314
0.881503 0.386487 0.186858
0.902081 0.379074 0.186820
0.904913 0.370614 0.185957
0.907856 0.365283 0.185554
0.911150 0.364843 0.185397
0.331491 0.510301 0.204154
0.338997 0.512615 0.204619
0.348768 0.514867 0.205019
0.358616 0.516402 0.205283
0.369620 0.517607 0.205441
0.441319 0.529834 0.205587
0.556040 0.543318 0.205670
0.649428 0.535136 0.203548
0.730623 0.529740 0.198936
0.797656 0.523171 0.194498
0.852135 0.516158 0.191808
0.895058 0.510051 0.190597
0.913754 0.504072 0.189475
0.916376 0.497404 0.188085
0.919223 0.492650 0.187346
0.922488 0.491771 0.187182
0.417849 0.607505 0.218097
0.425851 0.609867 0.218577
0.436219 0.612094 0.219019
0.446421 0.613415 0.219267
0.456542 0.614381 0.219473
0.478079 0.617265 0.219491
0.578316 0.633748 0.219404
0.666813 0.627402 0.218720
0.744053 0.622702 0.215430
0.806167 0.618242 0.212104
0.859075 0.613574 0.207037
0.901453 0.610368 0.203663
0.925589 0.606752 0.200795
0.928483 0.602405 0.197938
0.931422 0.598906 0.196055
0.934594 0.597608 0.195364
0.496022 0.685795 0.229584
0.503702 0.687779 0.230094
0.513815 0.689913 0.230624
0.523845 0.691072 0.230909
0.533866 0.691922 0.231097
0.544154 0.692698 0.231218
0.592263 0.699493 0.231283
0.692773 0.710886 0.231414
0.753429 0.692379 0.229636
0.814830 0.689850 0.226991
0.862676 0.687455 0.224996
0.901529 0.685444 0.221686
0.932162 0.683925 0.218700
0.939058 0.681296 0.215255
0.942054 0.678757 0.212817
0.945220 0.677470 0.211467
0.559273 0.749823 0.241552
0.566684 0.751737 0.242181
0.576627 0.753831 0.242770
0.586551 0.755038 0.243120
0.596512 0.755815 0.243329
0.606587 0.756485 0.243477
0.621003 0.757534 0.243581
0.701002 0.766750 0.243943
0.767984 0.758009 0.242862
0.820900 0.746926 0.240648
0.867362 0.746607 0.238989
0.904467 0.745437 0.237588
0.935063 0.743787 0.235542
0.947842 0.741591 0.232760
0.950799 0.739238 0.230465
0.953927 0.737723 0.228925
0.607801 0.803398 0.253096
0.614947 0.805406 0.253776
0.624623 0.807292 0.254479
0.634359 0.808414 0.254861
0.644180 0.809265 0.255132
0.654179 0.809916 0.255348
0.664608 0.810477 0.255505
0.706936 0.814038 0.255239
0.784698 0.817553 0.254386
0.825924 0.797546 0.253112
0.870514 0.795709 0.251553
0.907426 0.795266 0.249935
0.937452 0.794021 0.248382
0.955388 0.792154 0.246755
0.958644 0.789860 0.244877
0.961689 0.788142 0.243460
0.643755 0.848481 0.265630
0.650514 0.850221 0.266740
0.659797 0.851979 0.267844
0.669327 0.853026 0.268488
0.679080 0.853733 0.268899
0.688995 0.854369 0.269197
0.699142 0.854935 0.269420
0.719169 0.856098 0.268998
0.789793 0.860294 0.266512
0.841051 0.851881 0.265364
0.873156 0.838127 0.264068
0.909409 0.837453 0.262751
0.939271 0.836542 0.261372
0.961044 0.835205 0.260017
0.965626 0.833369 0.258488
0.968736 0.832019 0.257241
0.669480 0.884469 0.283291
0.676165 0.886296 0.284583
0.685371 0.888128 0.285989
0.694850 0.889189 0.286748
0.704495 0.889886 0.287240
0.714353 0.890439 0.287593
0.724496 0.890913 0.287876
0.736823 0.891541 0.287829
0.791687 0.894978 0.283911
0.851945 0.895779 0.281715
0.880425 0.879548 0.280562
0.910664 0.873194 0.279499
0.940554 0.872488 0.278236
0.964638 0.871892 0.276956
0.971847 0.870826 0.275533
0.975000 0.869768 0.274417
0.689830 0.914825 0.299141
0.696561 0.916623 0.300371
0.705646 0.918483 0.301644
0.714989 0.919508 0.302283
0.724508 0.920187 0.302657
0.734235 0.920719 0.302929
0.744381 0.921184 0.303159
0.755068 0.921516 0.303206
0.793253 0.923585 0.300240
0.854664 0.925955 0.296364
0.893582 0.920481 0.295134
0.913989 0.905046 0.294242
0.941759 0.902616 0.293240
0.965857 0.902158 0.292118
0.976968 0.901321 0.291022
0.980154 0.900510 0.289696
0.704632 0.938861 0.309319
0.711098 0.940572 0.310433
0.719949 0.942354 0.311643
0.729249 0.943376 0.312359
0.738803 0.944053 0.312873
0.748572 0.944630 0.313119
0.758736 0.945188 0.313251
0.769271 0.945725 0.313332
0.795576 0.947224 0.311468
0.856332 0.949695 0.307362
0.900737 0.950064 0.306340
0.922806 0.937096 0.305875
0.943204 0.927259 0.305315
0.966657 0.926246 0.304338
0.980757 0.925267 0.303467
0.984127 0.924225 0.302672
0.203058 0.173004 0.208716
0.209445 0.172648 0.209229
0.225206 0.172566 0.208186
0.256352 0.172704 0.208098
0.313261 0.173092 0.206207
0.400682 0.173519 0.201027
0.506106 0.173908 0.195548
0.600547 0.174572 0.193294
0.668775 0.175741 0.193259
0.721567 0.176765 0.193747
0.767232 0.177718 0.194431
0.806366 0.178517 0.195291
0.838884 0.179927 0.196141
0.858742 0.182596 0.196786
0.868917 0.183862 0.197334
0.877195 0.184804 0.197685
0.203197 0.180021 0.208002
0.209462 0.179836 0.208400
0.224694 0.179218 0.207743
0.254327 0.178902 0.207163
0.310910 0.178730 0.205125
0.397784 0.179105 0.199967
0.503052 0.179457 0.194572
0.596102 0.180165 0.192228
0.664178 0.181389 0.192157
0.715584 0.182463 0.192505
0.760877 0.183589 0.193170
0.799277 0.184482 0.193850
0.830919 0.185220 0.194421
0.854037 0.185785 0.194866
0.864974 0.186690 0.195297
0.872944 0.187449 0.195502
0.204998 0.194960 0.206916
0.210873 0.195409 0.207599
0.225020 0.194960 0.207946
0.252317 0.193593 0.206809
0.304522 0.190745 0.203371
0.388421 0.188319 0.198011
0.495686 0.187550 0.193241
0.592203 0.187939 0.191136
0.662056 0.188874 0.191372
0.713672 0.189915 0.192023
0.758988 0.190908 0.192836
0.796595 0.191804 0.193497
0.828297 0.192571 0.194125
0.852825 0.193113 0.194668
0.864285 0.193355 0.194881
0.872155 0.193529 0.195044
0.211031 0.219963 0.206505
0.216748 0.220735 0.207261
0.227485 0.221623 0.207954
0.254129 0.221888 0.207384
0.305729 0.216006 0.201553
0.386462 0.207253 0.193982
0.484914 0.199810 0.190159
0.582046 0.197450 0.189123
0.656065 0.197520 0.189453
0.711143 0.198138 0.190411
0.755460 0.198975 0.191645
0.794339 0.199804 0.192826
0.826696 0.200565 0.193788
0.851981 0.201149 0.194452
0.863772 0.201411 0.194712
0.871604 0.201507 0.194838
0.222762 0.258894 0.206991
0.228580 0.260231 0.207763
0.236931 0.261645 0.208378
0.256206 0.264544 0.207131
0.308908 0.265597 0.204047
0.393818 0.256032 0.195903
0.498431 0.240580 0.189999
0.597662 0.224989 0.188979
0.672527 0.217297 0.189240
0.727507 0.213908 0.189818
0.771344 0.212686 0.190719
0.808352 0.212213 0.191608
0.840164 0.211859 0.192545
0.865817 0.211833 0.193414
0.877504 0.211823 0.193775
0.885264 0.211967 0.193875
0.241256 0.322823 0.208592
0.247280 0.324987 0.209470
0.255659 0.327078 0.210350
0.266943 0.329193 0.209661
0.315810 0.337098 0.204828
0.405264 0.338293 0.201366
0.510930 0.326329 0.194497
0.616060 0.309020 0.190721
0.698841 0.290690 0.190579
0.760220 0.277562 0.191295
0.808029 0.269068 0.192265
0.845545 0.264149 0.193202
0.876512 0.260785 0.193984
0.895201 0.256498 0.194266
0.900667 0.253266 0.194180
0.904019 0.252805 0.194064
0.274702 0.409681 0.209405
0.281144 0.412399 0.210313
0.289999 0.415168 0.211239
0.299237 0.416861 0.211687
0.326510 0.421897 0.208872
0.424402 0.437223 0.206078
0.528530 0.434051 0.203385
0.632283 0.424652 0.197492
0.716522 0.412446 0.194291
0.783229 0.399916 0.193757
0.837992 0.389038 0.194099
0.880687 0.381132 0.194743
0.901490 0.373455 0.194664
0.904453 0.364741 0.193999
0.907376 0.359070 0.193645
0.910680 0.358467 0.193538
0.328787 0.508906 0.215226
0.336650 0.511870 0.215981
0.346858 0.514868 0.216667
0.356945 0.516698 0.217050
0.368474 0.518221 0.216922
0.440374 0.530760 0.214990
0.556965 0.544291 0.214632
0.651221 0.535813 0.212266
