example_ofxGpuLutCube/bin/data/ofxGpuLutCube/LUT/T38 (smooth sunny fade).cube
LUT_3D_SIZE 6
0.201965 0.172058 0.163940
0.265124 0.171741 0.163800
0.517834 0.173205 0.165393
0.715766 0.176904 0.169263
0.835711 0.179700 0.172467
0.874444 0.184048 0.174406
0.212555 0.220355 0.164710
0.255891 0.219846 0.164571
0.488704 0.200972 0.164229
0.708711 0.198734 0.167109
0.828886 0.200909 0.171168
0.873096 0.201806 0.172533
0.282373 0.416748 0.177856
0.306631 0.420674 0.178290
0.531455 0.436977 0.177693
0.787103 0.410119 0.171365
0.902654 0.384591 0.172478
0.911539 0.369533 0.171393
0.500226 0.689893 0.214636
0.527342 0.694250 0.215888
0.596304 0.702348 0.216273
0.816653 0.691751 0.212329
0.932578 0.685426 0.204647
0.945334 0.678271 0.199769
0.644690 0.849810 0.251581
0.669933 0.853779 0.254191
0.699534 0.855444 0.255139
0.840953 0.851959 0.251338
0.938836 0.836045 0.247658
0.968553 0.831049 0.243987
0.704070 0.938374 0.295915
0.728565 0.942706 0.298790
0.757703 0.944109 0.299917
0.853404 0.947767 0.294680
0.940476 0.924315 0.293168
0.983489 0.920830 0.290779
0.203058 0.173004 0.208716
0.256352 0.172704 0.208098
0.506106 0.173908 0.195548
0.721567 0.176765 0.193747
0.838884 0.179927 0.196141
0.877195 0.184804 0.197685
0.211031 0.219963 0.206505
0.254129 0.221888 0.207384
0.484914 0.199810 0.190159
0.711143 0.198138 0.190411
0.826696 0.200565 0.193788
0.871604 0.201507 0.194838
0.274702 0.409681 0.209405
0.299237 0.416861 0.211687
0.528530 0.434051 0.203385
0.783229 0.399916 0.193757
0.901490 0.373455 0.194664
0.910680 0.358467 0.193538
0.494464 0.684038 0.237911
0.523155 0.690319 0.239518
0.591602 0.699072 0.240100
0.814721 0.689363 0.235775
0.931923 0.682875 0.227390
0.945000 0.676029 0.220065
0.642553 0.846745 0.274426
0.668486 0.851941 0.277516
0.698262 0.853773 0.278636
0.839871 0.850657 0.274813
0.938427 0.835214 0.270937
0.968453 0.830323 0.267102
0.703330 0.936765 0.318749
0.728051 0.941753 0.322257
0.757299 0.943462 0.323348
0.853348 0.947194 0.318064
0.940515 0.924081 0.316572
0.983525 0.920848 0.313942
0.207953 0.175788 0.356159
0.251134 0.174780 0.361399
0.458953 0.177341 0.376507
0.696142 0.178362 0.376734
0.837517 0.183624 0.380654
0.873623 0.188651 0.385920
0.212553 0.226273 0.354574
0.249053 0.223850 0.366330
0.450239 0.219190 0.373800
0.690779 0.203248 0.354527
0.832143 0.201877 0.338572
0.880322 0.202338 0.332761
0.251226 0.422256 0.397200
0.274101 0.438699 0.413328
0.511619 0.478823 0.424746
0.779138 0.415603 0.359005
0.901291 0.371451 0.316237
0.910253 0.349619 0.298963
0.437838 0.701422 0.429619
0.467902 0.713703 0.446973
0.549119 0.723365 0.438031
0.813554 0.721037 0.380815
0.934203 0.705369 0.351898
0.947482 0.691438 0.321140
0.620957 0.855900 0.431138
0.645859 0.865491 0.453203
0.675033 0.868666 0.460035
0.835398 0.870113 0.393333
0.938475 0.847436 0.366200
0.969845 0.837166 0.348432
0.691910 0.939668 0.416805
0.714920 0.948163 0.438934
0.743594 0.950966 0.446199
0.843889 0.950861 0.391035
0.940216 0.928203 0.370821
0.983905 0.922666 0.358025
0.214789 0.176709 0.543097
0.257357 0.176923 0.561605
0.451630 0.180154 0.584226
0.685149 0.183670 0.623415
0.811343 0.189512 0.631045
0.844910 0.193403 0.628029
0.215954 0.229551 0.544183
0.254252 0.227918 0.561599
0.435150 0.223017 0.581999
0.669003 0.215825 0.602843
0.798318 0.209028 0.604086
0.845003 0.207668 0.604532
0.255945 0.435525 0.617073
0.278456 0.460512 0.639206
0.462264 0.468002 0.663374
0.735595 0.466488 0.676762
0.868434 0.442610 0.671183
0.917772 0.430420 0.666593
0.382317 0.708794 0.667235
0.413892 0.725441 0.685039
0.511636 0.741402 0.697479
0.786129 0.762179 0.707338
0.924295 0.743703 0.684665
0.954398 0.727988 0.667372
0.569639 0.867657 0.685822
0.599447 0.879203 0.702469
0.630478 0.883574 0.708342
0.794175 0.895460 0.700246
0.923692 0.886615 0.691821
0.978995 0.880054 0.691129
0.642796 0.954843 0.689001
0.666923 0.964317 0.704891
0.695859 0.967892 0.710406
0.799058 0.971188 0.699363
0.935215 0.971304 0.686206
0.987967 0.958285 0.680288
0.223053 0.177002 0.678906
0.273484 0.179028 0.700224
0.475331 0.182948 0.727007
0.674063 0.186147 0.742877
0.820603 0.199359 0.778722
0.850463 0.202307 0.772588
0.221475 0.230231 0.674563
0.261863 0.231649 0.696324
0.448452 0.228285 0.723049
0.657450 0.218684 0.730924
0.805351 0.213705 0.760014
0.847636 0.212706 0.761035
0.260135 0.435454 0.745415
0.284745 0.465867 0.767715
0.463163 0.468873 0.792223
0.721395 0.464471 0.806634
0.861912 0.461411 0.820540
0.911789 0.455220 0.819579
0.386660 0.721670 0.813885
0.412238 0.741976 0.829589
0.508274 0.754334 0.840479
0.767567 0.757298 0.849881
0.904446 0.756494 0.850375
0.958806 0.748980 0.847051
0.557064 0.863551 0.817157
0.590011 0.877439 0.831278
0.622693 0.883540 0.837329
0.780097 0.898258 0.848237
0.914326 0.896768 0.849782
0.978449 0.891550 0.844185
0.629734 0.952490 0.822335
0.656532 0.963040 0.836173
0.686856 0.967863 0.842268
0.782328 0.973267 0.843670
0.920816 0.974972 0.846119
0.980517 0.969117 0.843040
0.228387 0.178069 0.758918
0.284917 0.181083 0.782588
0.489127 0.185385 0.810572
0.681620 0.188925 0.826778
0.800777 0.199274 0.836539
0.835577 0.203252 0.834931
0.228043 0.230712 0.756835
0.271459 0.238150 0.781845
0.465007 0.234981 0.810175
0.667623 0.220405 0.818380
0.790666 0.216151 0.824977
0.837781 0.215205 0.834257
0.264218 0.437725 0.823965
0.289237 0.469475 0.847124
0.474317 0.473427 0.873527
0.721767 0.471332 0.888724
0.848740 0.470816 0.889715
0.904360 0.469020 0.896210
0.387310 0.719139 0.890996
0.412167 0.741987 0.906724
0.514859 0.754667 0.918653
0.765116 0.754493 0.928137
0.894169 0.751816 0.927359
0.958185 0.751963 0.930827
0.550944 0.872700 0.907031
0.585437 0.888038 0.920227
0.619450 0.895402 0.926506
0.778669 0.900930 0.933806
0.907838 0.897429 0.933884
0.971810 0.895042 0.933699
0.624834 0.949086 0.900261
0.652525 0.961156 0.913251
0.683705 0.967168 0.919483
0.783915 0.973437 0.926781
0.913377 0.975826 0.931770
0.976442 0.973819 0.935598
