example_ofxGpuLutCube/bin/data/ofxGpuLutCube/LUT/T39 (smooth light green fade).cube
LUT_3D_SIZE 16
0.060486 0.057739 0.067505
0.074453 0.057674 0.067505
0.090853 0.057487 0.067391
0.153156 0.055286 0.064008
0.221609 0.051975 0.058850
0.337576 0.044179 0.049967
0.471186 0.039209 0.041803
0.562738 0.036507 0.041022
0.623079 0.034888 0.042143
0.670880 0.033301 0.041187
0.712097 0.032603 0.041849
0.750173 0.032253 0.043835
0.785303 0.032300 0.045294
0.819792 0.032190 0.046655
0.855715 0.031745 0.049309
0.892158 0.031586 0.051504
0.060413 0.072066 0.067279
0.074409 0.072001 0.067279
0.090790 0.071834 0.067179
0.153152 0.069671 0.063660
0.221332 0.066366 0.058161
0.334373 0.058603 0.049654
0.467008 0.053230 0.041964
0.560021 0.050474 0.040772
0.621715 0.048874 0.042374
0.670275 0.047177 0.041228
0.711783 0.046500 0.041848
0.749928 0.046124 0.043805
0.785111 0.046156 0.045188
0.819645 0.046102 0.046533
0.855601 0.045589 0.049156
0.892182 0.045427 0.051659
0.059782 0.089142 0.066960
0.073725 0.089025 0.067009
0.090075 0.088861 0.066941
0.152257 0.086912 0.063132
0.220582 0.083751 0.056931
0.331996 0.076672 0.049131
0.464603 0.070559 0.041603
0.558260 0.067737 0.040328
0.620534 0.066017 0.042049
0.669427 0.064367 0.040825
0.710842 0.063641 0.041342
0.748725 0.063435 0.043090
0.783861 0.063621 0.044481
0.818449 0.063905 0.045848
0.854216 0.063839 0.048258
0.890888 0.064000 0.050778
0.053705 0.144556 0.064441
0.067515 0.144371 0.064456
0.083326 0.144167 0.064609
0.138184 0.143345 0.065299
0.207044 0.142018 0.058653
0.315717 0.138194 0.047538
0.450444 0.131695 0.041803
0.548442 0.129823 0.040063
0.612950 0.130164 0.040699
0.662128 0.129116 0.039710
0.704028 0.128505 0.040135
0.741843 0.128390 0.041617
0.777144 0.128967 0.043238
0.811962 0.128618 0.044666
0.847073 0.129095 0.046072
0.884001 0.130701 0.048103
0.047379 0.190863 0.063438
0.061077 0.190900 0.063316
0.076898 0.190930 0.063313
0.131263 0.191989 0.063364
0.201213 0.194241 0.062767
0.322626 0.197612 0.049251
0.463217 0.197217 0.040475
0.560558 0.195156 0.039215
0.623717 0.198281 0.038799
0.671223 0.201997 0.039880
0.712999 0.206008 0.041294
0.750958 0.209821 0.042820
0.786412 0.213598 0.045387
0.820236 0.217523 0.048029
0.853846 0.220416 0.049713
0.890102 0.223134 0.050958
0.036194 0.259165 0.064321
0.049759 0.259555 0.064299
0.065169 0.260412 0.064476
0.115409 0.268821 0.066626
0.197108 0.282263 0.067259
0.332859 0.300853 0.069628
0.476158 0.315800 0.058028
0.571950 0.322739 0.048146
0.635936 0.329826 0.046173
0.683769 0.336440 0.044655
0.724657 0.342258 0.042762
0.762463 0.347618 0.042559
0.798324 0.352655 0.043266
0.832909 0.358078 0.043394
0.867382 0.362641 0.043653
0.902644 0.366337 0.043902
0.022967 0.358173 0.072790
0.036491 0.358964 0.073003
0.051533 0.360579 0.073409
0.097954 0.373622 0.076641
0.191906 0.398626 0.082252
0.354556 0.432351 0.092224
0.493172 0.455783 0.098140
0.582041 0.469368 0.096810
0.642900 0.477433 0.092321
0.688938 0.483734 0.090211
0.728129 0.489132 0.089994
0.764320 0.493296 0.088579
0.798681 0.496294 0.085295
0.832059 0.498675 0.081810
0.864895 0.500923 0.078418
0.896807 0.502550 0.074550
0.015786 0.453931 0.086359
0.029384 0.454627 0.086603
0.044482 0.456232 0.087103
0.094288 0.471517 0.093043
0.205194 0.500261 0.101494
0.385287 0.531633 0.112598
0.512738 0.553235 0.122941
0.592426 0.563828 0.126808
0.647794 0.569488 0.125600
0.690325 0.573280 0.123945
0.726426 0.575920 0.121908
0.760360 0.578221 0.119674
0.793084 0.579989 0.116997
0.824397 0.580978 0.114467
0.854775 0.581811 0.111538
0.884618 0.582266 0.107866
0.013080 0.525982 0.099419
0.026946 0.526478 0.099592
0.042548 0.527829 0.100320
0.104345 0.543682 0.108280
0.241042 0.570971 0.118617
0.414751 0.597503 0.128348
0.526502 0.613631 0.136184
0.597217 0.622188 0.139610
0.648652 0.625917 0.139360
0.689105 0.628108 0.139296
0.723937 0.630241 0.138622
0.756066 0.632242 0.138166
0.787755 0.633707 0.136337
0.818474 0.634653 0.133560
0.847733 0.634939 0.130332
0.876551 0.635109 0.127604
0.016040 0.579016 0.111335
0.029831 0.579313 0.111476
0.046169 0.580581 0.112069
0.123144 0.598799 0.121397
0.282095 0.624622 0.131372
0.438560 0.645424 0.137783
0.536262 0.657652 0.143889
0.602037 0.664795 0.147168
0.650806 0.668177 0.147498
0.690015 0.670310 0.147925
0.723913 0.672080 0.147990
0.755156 0.673643 0.148173
0.785322 0.675028 0.148160
0.814408 0.676001 0.147442
0.842966 0.676222 0.144507
0.871643 0.675935 0.140821
0.028605 0.623535 0.122151
0.042424 0.623879 0.122188
0.058923 0.625187 0.122757
0.153444 0.644712 0.132062
0.319611 0.667505 0.140144
0.457062 0.683526 0.143500
0.544309 0.694136 0.149233
0.606147 0.700427 0.152484
0.652746 0.703559 0.153151
0.690908 0.705855 0.153920
0.724616 0.707492 0.154097
0.755322 0.708763 0.154207
0.784668 0.710000 0.154626
0.813122 0.710893 0.154789
0.840529 0.711271 0.154213
0.868494 0.711264 0.152297
0.042556 0.662602 0.130500
0.056401 0.662842 0.130522
0.074008 0.664168 0.131086
0.191567 0.684878 0.140324
0.349184 0.704007 0.146040
0.471587 0.717239 0.148688
0.551756 0.727048 0.153672
0.610000 0.732353 0.156379
0.654295 0.735594 0.157503
0.691236 0.737717 0.157753
0.724955 0.739151 0.158114
0.755818 0.740229 0.158348
0.785007 0.741355 0.158716
0.812737 0.742322 0.159135
0.839642 0.742812 0.159380
0.867095 0.743004 0.159175
0.058429 0.698633 0.137994
0.072423 0.698842 0.137963
0.094733 0.700787 0.138995
0.230571 0.721353 0.147019
0.372977 0.737369 0.150627
0.483301 0.749451 0.153631
0.558899 0.758287 0.157561
0.613716 0.763053 0.159656
0.656014 0.766054 0.161083
0.691875 0.768236 0.161587
0.725173 0.769755 0.161808
0.756006 0.770704 0.162168
0.784856 0.771650 0.162472
0.812246 0.772590 0.162901
0.838747 0.773323 0.163334
0.865851 0.773728 0.163604
0.077301 0.733834 0.144899
0.091869 0.734015 0.145293
0.122425 0.736967 0.147094
0.263124 0.755852 0.152251
0.392681 0.769779 0.155112
0.493645 0.780972 0.157817
0.565332 0.788842 0.161145
0.617150 0.793229 0.163024
0.657837 0.796072 0.164749
0.693142 0.798344 0.165811
0.725542 0.800178 0.166094
0.755614 0.801210 0.166327
0.784186 0.802090 0.166661
0.811430 0.803001 0.167108
0.837629 0.803765 0.167566
0.864585 0.804331 0.167930
0.097437 0.769228 0.152403
0.112066 0.769332 0.152836
0.150304 0.773034 0.154886
0.293530 0.790280 0.157549
0.411242 0.802786 0.159281
0.504055 0.812930 0.161581
0.571255 0.819819 0.164711
0.620336 0.823726 0.166955
0.659639 0.826588 0.168583
0.694658 0.828775 0.169979
0.726658 0.830710 0.171223
0.755856 0.831899 0.171407
0.783564 0.832708 0.171524
0.810537 0.833543 0.171855
0.836588 0.834341 0.172335
0.863406 0.834893 0.172762
0.120457 0.806399 0.159482
0.135065 0.806503 0.159908
0.184012 0.810942 0.161614
0.322940 0.826726 0.162653
0.430067 0.837830 0.163744
0.515082 0.846607 0.165882
0.577841 0.852610 0.169305
0.624793 0.856185 0.172373
0.662014 0.859079 0.173451
0.696403 0.861266 0.174914
0.727970 0.862909 0.176316
0.756900 0.864189 0.177328
0.783872 0.865045 0.177520
0.809643 0.865705 0.177417
0.835321 0.866375 0.177627
0.862179 0.866966 0.177983
0.060142 0.057835 0.081862
0.074096 0.057774 0.081836
0.090508 0.057603 0.081733
0.151429 0.055644 0.078564
0.220526 0.052501 0.073653
0.337629 0.044429 0.064825
0.471397 0.039209 0.056876
0.562734 0.036511 0.056175
0.622925 0.034916 0.057349
0.670875 0.033332 0.056132
0.712057 0.032623 0.056721
0.750056 0.032284 0.058533
0.785199 0.032330 0.059986
0.819923 0.032212 0.061756
0.855788 0.031745 0.064405
0.892232 0.031586 0.066369
0.060142 0.072146 0.081759
0.074095 0.072089 0.081755
0.090465 0.071880 0.081649
0.151397 0.069881 0.078638
0.220250 0.066651 0.073444
0.334216 0.058776 0.064733
0.467441 0.053230 0.057067
0.560432 0.050474 0.055898
0.621814 0.048874 0.057492
0.670400 0.047177 0.056236
0.711853 0.046501 0.056821
0.749943 0.046126 0.058631
0.785059 0.046158 0.059980
0.819601 0.046102 0.061531
0.855593 0.045592 0.064182
0.892301 0.045427 0.066478
0.059612 0.089086 0.081495
0.073493 0.089044 0.081539
0.089807 0.088862 0.081451
0.150631 0.087027 0.078326
0.219575 0.083976 0.072429
0.331691 0.076894 0.064259
0.464954 0.070570 0.056713
0.558624 0.067719 0.055419
0.620663 0.066040 0.057196
0.669519 0.064369 0.055800
0.710902 0.063648 0.056296
0.748790 0.063401 0.057949
0.783887 0.063570 0.059333
0.818335 0.063798 0.060717
0.854112 0.063702 0.063133
0.891016 0.063795 0.065675
0.053656 0.144570 0.079107
0.067332 0.144455 0.079086
0.083101 0.144258 0.079246
0.137003 0.143477 0.080064
0.206198 0.142200 0.073412
0.315385 0.138559 0.062432
0.450352 0.132375 0.056762
0.548745 0.129465 0.055144
0.612981 0.130185 0.055718
0.662129 0.129152 0.054646
0.704038 0.128493 0.055072
0.741970 0.127909 0.056128
0.777243 0.128439 0.057751
0.811921 0.128540 0.059409
0.847039 0.128974 0.060862
0.884174 0.129988 0.062725
0.047375 0.190881 0.078200
0.060987 0.190980 0.077954
0.076767 0.191086 0.077832
0.130370 0.192162 0.077925
0.200191 0.194430 0.077323
0.322343 0.197880 0.064016
0.463349 0.197752 0.054828
0.560447 0.195864 0.054087
0.623436 0.199038 0.053565
0.670814 0.202546 0.054962
0.712533 0.206541 0.056412
0.750700 0.210305 0.058392
0.786120 0.214032 0.060940
0.820239 0.217330 0.062985
0.853791 0.220351 0.064732
0.889889 0.223144 0.066496
0.036141 0.259413 0.078959
0.049701 0.259771 0.078941
0.065080 0.260695 0.078996
0.114518 0.269044 0.081086
0.195789 0.282554 0.081911
0.332718 0.301278 0.084153
0.476535 0.316307 0.072538
0.572127 0.323137 0.062379
0.636044 0.330054 0.060249
0.683811 0.336825 0.058696
0.724587 0.342617 0.057039
0.762289 0.348193 0.056908
0.798138 0.353150 0.057587
0.832821 0.358322 0.057784
0.867291 0.362868 0.058093
0.902550 0.366642 0.058081
0.022877 0.358487 0.087377
0.036430 0.359292 0.087597
0.051432 0.360925 0.087968
0.097288 0.373987 0.091149
0.189762 0.399098 0.096842
0.354268 0.432993 0.106687
0.493358 0.456360 0.112692
0.582115 0.469882 0.111338
0.643076 0.477837 0.106559
0.689031 0.484090 0.104440
0.728005 0.489532 0.104311
0.764142 0.493557 0.102909
0.798448 0.496559 0.099903
0.831842 0.498972 0.096450
0.864952 0.501191 0.093046
0.896814 0.502755 0.089084
0.015752 0.454463 0.100504
0.029355 0.455100 0.100739
0.044417 0.456731 0.101245
0.093259 0.471732 0.107164
0.203078 0.500565 0.115897
0.384941 0.532146 0.127112
0.512788 0.553893 0.137591
0.592310 0.564349 0.141379
0.647589 0.569832 0.140318
0.690124 0.573696 0.138354
0.726201 0.576218 0.136322
0.760115 0.578353 0.133974
0.792838 0.580110 0.131318
0.824241 0.581256 0.128794
0.854582 0.582063 0.125871
0.884560 0.582419 0.122232
0.012811 0.526531 0.113676
0.026460 0.526937 0.113817
0.041769 0.528181 0.114484
0.101905 0.543710 0.122284
0.239163 0.571236 0.133148
0.414214 0.597804 0.142751
0.526274 0.614082 0.150779
0.597073 0.622581 0.154112
0.648356 0.626279 0.153751
0.688884 0.628342 0.153812
0.723742 0.630457 0.153114
0.755783 0.632415 0.152476
0.787468 0.633852 0.150606
0.818318 0.634764 0.147743
0.847627 0.635057 0.144498
0.876472 0.635189 0.141755
0.015557 0.579326 0.125596
0.029336 0.579661 0.125711
0.045405 0.580860 0.126284
0.120371 0.598641 0.135334
0.280046 0.624788 0.145768
0.437950 0.645540 0.152331
0.535929 0.657807 0.158179
0.601527 0.665027 0.161662
0.650580 0.668354 0.161925
0.689797 0.670545 0.162414
0.723806 0.672307 0.162543
0.755054 0.673863 0.162731
0.785227 0.675246 0.162645
0.814344 0.676184 0.161930
0.842780 0.676463 0.159036
0.871460 0.676132 0.155320
0.028000 0.623741 0.136251
0.041822 0.624063 0.136312
0.058205 0.625369 0.136850
0.150571 0.644552 0.146022
0.317785 0.667577 0.154536
0.456463 0.683547 0.158144
0.543895 0.694177 0.163556
0.605759 0.700586 0.166950
0.652487 0.703722 0.167544
0.690628 0.706065 0.168325
0.724294 0.707763 0.168467
0.754974 0.709022 0.168589
0.784513 0.710175 0.168985
0.812998 0.711087 0.169125
0.840357 0.711408 0.168533
0.868278 0.711293 0.166575
0.041897 0.662744 0.144603
0.055769 0.663025 0.144624
0.073105 0.664273 0.145181
0.188895 0.684787 0.154475
0.347833 0.704085 0.160438
0.471028 0.717325 0.163098
0.551268 0.727134 0.168020
0.609812 0.732485 0.170772
0.654043 0.735745 0.171887
0.690989 0.737858 0.172115
0.724630 0.739419 0.172461
0.755468 0.740484 0.172700
0.784789 0.741575 0.173066
0.812584 0.742505 0.173470
0.839509 0.742996 0.173762
0.866902 0.743013 0.173438
0.057896 0.698795 0.152254
0.071862 0.699018 0.152208
0.093149 0.700811 0.153032
0.228836 0.721363 0.161317
0.371810 0.737457 0.164985
0.482851 0.749495 0.168045
0.558402 0.758337 0.171940
0.613482 0.763161 0.174077
0.655729 0.766164 0.175446
0.691598 0.768349 0.175958
0.724858 0.770013 0.176154
0.755710 0.770941 0.176536
0.784646 0.771851 0.176815
0.812101 0.772750 0.177220
0.838584 0.773469 0.177649
0.865602 0.773763 0.177937
0.076817 0.734027 0.159225
0.090962 0.734128 0.159379
0.120820 0.737012 0.161143
0.261974 0.755961 0.166710
0.391688 0.769902 0.169493
0.493117 0.780965 0.172281
0.565018 0.788892 0.175500
0.616969 0.793342 0.177332
0.657498 0.796188 0.179188
0.692777 0.798463 0.180203
0.725371 0.800345 0.180523
0.755513 0.801409 0.180719
0.784117 0.802277 0.181030
0.811289 0.803110 0.181349
0.837473 0.803867 0.181793
0.864385 0.804423 0.182175
0.096484 0.769348 0.166480
0.111095 0.769495 0.166902
0.148903 0.773109 0.168979
0.292405 0.790377 0.171897
0.410427 0.802844 0.173721
0.503501 0.812919 0.176089
0.571006 0.819890 0.179072
0.620196 0.823859 0.181273
0.659344 0.826699 0.183005
0.694303 0.828910 0.184460
0.726405 0.830842 0.185644
0.755793 0.832074 0.185799
0.783482 0.832909 0.185893
0.810401 0.833633 0.186098
0.836454 0.834406 0.186574
0.863272 0.834993 0.186989
0.120460 0.806537 0.173618
0.135102 0.806596 0.174070
0.183327 0.811037 0.175802
0.322012 0.826694 0.177093
0.429335 0.837903 0.178171
0.514590 0.846580 0.180346
0.577605 0.852634 0.183671
0.624630 0.856264 0.186676
0.661844 0.859190 0.187836
0.696153 0.861391 0.189365
0.727715 0.863046 0.190745
0.756802 0.864344 0.191710
0.783821 0.865159 0.191878
0.809489 0.865806 0.191820
0.835127 0.866476 0.192070
0.861903 0.867066 0.192456
0.060048 0.057943 0.098942
0.073746 0.058009 0.098826
0.089960 0.057857 0.098663
0.149235 0.056211 0.095712
0.218773 0.053431 0.091393
0.336264 0.045943 0.082911
0.470660 0.039814 0.075064
0.562504 0.036782 0.074242
0.622887 0.035230 0.075641
0.671007 0.033621 0.074195
0.712279 0.032908 0.074571
0.750203 0.032564 0.076106
0.785465 0.032591 0.077686
0.820459 0.032471 0.079936
0.856289 0.032023 0.082696
0.892767 0.031830 0.084489
0.060048 0.072213 0.098782
0.073744 0.072289 0.098689
0.089933 0.072158 0.098544
0.149302 0.070444 0.095822
0.218526 0.067568 0.091239
0.333329 0.060282 0.082881
0.467258 0.053900 0.075268
0.560587 0.050715 0.073981
0.621934 0.049150 0.075723
0.670610 0.047467 0.074181
0.712107 0.046769 0.074590
0.750162 0.046407 0.076103
0.785349 0.046428 0.077560
0.820148 0.046340 0.079592
0.856111 0.045871 0.082351
0.892826 0.045670 0.084477
0.059575 0.089159 0.098587
0.073255 0.089185 0.098595
0.089368 0.089043 0.098499
0.148567 0.087417 0.095973
0.217828 0.084645 0.091010
0.331007 0.077750 0.082702
0.465135 0.071223 0.074975
0.559109 0.067959 0.073462
0.620884 0.066339 0.075244
0.669771 0.064676 0.073672
0.711185 0.063900 0.074009
0.749099 0.063670 0.075445
0.784290 0.063829 0.076903
0.818663 0.064084 0.078497
0.854480 0.064019 0.081033
0.891485 0.064130 0.083478
0.053716 0.144564 0.096425
0.067348 0.144456 0.096453
0.082914 0.144375 0.096584
0.135917 0.143718 0.097578
0.204865 0.142603 0.091603
0.314992 0.139135 0.081012
0.450704 0.133226 0.074935
0.549497 0.129285 0.072890
0.613483 0.130344 0.073271
0.662538 0.129293 0.072017
0.704434 0.128518 0.072334
0.742499 0.127602 0.073016
0.777790 0.128038 0.074608
0.812389 0.128463 0.076457
0.847511 0.128949 0.077988
0.884887 0.129480 0.079861
0.047431 0.191012 0.095540
0.061051 0.191125 0.095292
0.076699 0.191337 0.095054
0.129440 0.192574 0.095187
0.199051 0.194955 0.094621
0.322176 0.198546 0.081944
0.463947 0.198517 0.072786
0.560633 0.196856 0.071951
0.623592 0.200049 0.071409
0.670993 0.203295 0.072768
0.712687 0.207186 0.074292
0.751033 0.210816 0.076054
0.786465 0.214552 0.078565
0.820739 0.217547 0.080322
0.854340 0.220338 0.081968
0.890630 0.223129 0.083884
0.036078 0.259946 0.095811
0.049645 0.260353 0.095817
0.064951 0.261297 0.095827
0.113906 0.269740 0.097632
0.194068 0.283416 0.098828
0.332922 0.302358 0.100878
0.477358 0.317668 0.089416
0.572934 0.324276 0.078994
0.636473 0.331429 0.077246
0.684240 0.338019 0.075801
0.724997 0.343756 0.074450
0.762578 0.349557 0.074689
0.798365 0.354567 0.075468
0.833034 0.359796 0.075959
0.867513 0.364235 0.076254
0.902901 0.367834 0.075968
0.022808 0.359446 0.103981
0.036338 0.360201 0.104138
0.051310 0.361931 0.104529
0.096641 0.375005 0.107781
0.186670 0.400213 0.113525
0.354177 0.434460 0.123226
0.494055 0.458106 0.129504
0.582710 0.471400 0.128207
0.643470 0.479152 0.123193
0.689525 0.485159 0.120593
0.728244 0.490525 0.120523
0.764345 0.494510 0.119161
0.798524 0.497492 0.116482
0.831954 0.499787 0.113001
0.865306 0.501943 0.109578
0.897172 0.503568 0.105673
0.015750 0.455577 0.116623
0.029323 0.456151 0.116849
0.044337 0.457787 0.117354
0.092168 0.472645 0.123304
0.199937 0.501275 0.132370
0.384415 0.533300 0.143728
0.513244 0.555231 0.154442
0.592529 0.565572 0.158338
0.647778 0.570809 0.157296
0.690275 0.574617 0.155028
0.726294 0.577029 0.152829
0.760149 0.579073 0.150430
0.792877 0.580820 0.147711
0.824246 0.582082 0.145216
0.854609 0.582884 0.142196
0.884631 0.583111 0.138444
0.012650 0.527464 0.129781
0.026298 0.527864 0.129962
0.041499 0.529036 0.130605
0.099556 0.544196 0.138368
0.236482 0.571913 0.149810
0.413570 0.598669 0.159428
0.526133 0.614871 0.167663
0.597236 0.623528 0.171317
0.648567 0.627196 0.170878
0.689077 0.629261 0.171046
0.723977 0.631280 0.170374
0.756049 0.633248 0.169683
0.787683 0.634676 0.167758
0.818519 0.635562 0.164762
0.847717 0.635826 0.161468
0.876507 0.635886 0.158537
0.014720 0.580040 0.141905
0.028498 0.580311 0.142056
0.044260 0.581521 0.142657
0.116013 0.598718 0.151442
0.277163 0.625400 0.162720
0.437221 0.646113 0.169616
0.535960 0.658437 0.175369
0.601329 0.665902 0.179320
0.650709 0.669175 0.179619
0.689980 0.671378 0.180174
0.724087 0.673167 0.180454
0.755307 0.674737 0.180654
0.785566 0.676061 0.180407
0.814687 0.676964 0.179629
0.843025 0.677242 0.176703
0.871535 0.676905 0.172843
0.026553 0.624331 0.152923
0.040358 0.624688 0.153005
0.056478 0.625932 0.153683
0.145626 0.644627 0.162751
0.315035 0.668111 0.171969
0.455936 0.684142 0.176026
0.543813 0.694810 0.181119
0.605599 0.701437 0.184988
0.652527 0.704571 0.185625
0.690749 0.706873 0.186428
0.724519 0.708665 0.186738
0.755240 0.709952 0.186945
0.784830 0.711101 0.187344
0.813365 0.711924 0.187436
0.840704 0.712223 0.186700
0.868486 0.711966 0.184525
0.040763 0.663353 0.161765
0.054600 0.663634 0.161844
0.071628 0.664855 0.162522
0.183927 0.685041 0.172024
0.345137 0.704716 0.178461
0.470438 0.717988 0.181261
0.551154 0.727878 0.186124
0.610032 0.733416 0.189211
0.654207 0.736666 0.190396
0.691153 0.738762 0.190730
0.724728 0.740443 0.191080
0.755581 0.741598 0.191467
0.784959 0.742649 0.191855
0.812958 0.743516 0.192336
0.839884 0.743926 0.192545
0.867205 0.743787 0.191993
0.056659 0.699501 0.170196
0.070613 0.699730 0.170219
0.089997 0.701251 0.171055
0.223858 0.721773 0.179441
0.369363 0.738208 0.183454
0.482297 0.750293 0.186547
0.558238 0.759148 0.190612
0.613766 0.764131 0.192981
0.655993 0.767147 0.194499
0.691768 0.769347 0.195118
0.725006 0.771090 0.195383
0.755841 0.772171 0.195842
0.784759 0.773064 0.196190
0.812480 0.773865 0.196659
0.838992 0.774498 0.197104
0.866042 0.774799 0.197322
0.075558 0.734848 0.178250
0.089609 0.734998 0.178436
0.116119 0.737408 0.179765
0.257940 0.756603 0.185848
0.389433 0.770803 0.188587
0.492613 0.781841 0.191390
0.564875 0.789850 0.194717
0.617230 0.794406 0.196719
0.657774 0.797249 0.198793
0.692917 0.799505 0.200084
0.725553 0.801463 0.200530
0.755958 0.802648 0.200775
0.784563 0.803487 0.201156
0.811738 0.804251 0.201459
0.838035 0.804903 0.201885
0.864929 0.805410 0.202331
0.095033 0.770348 0.186307
0.109154 0.770460 0.186586
0.144136 0.773779 0.188438
0.288725 0.791354 0.191947
0.408525 0.803861 0.193679
0.502809 0.813847 0.196052
0.571142 0.820913 0.199093
0.620561 0.825030 0.201452
0.659737 0.827835 0.203554
0.694469 0.830022 0.205219
0.726568 0.831989 0.206534
0.756338 0.833331 0.206704
0.784141 0.834101 0.206834
0.811043 0.834783 0.207012
0.837073 0.835421 0.207348
0.863882 0.835968 0.207768
0.119023 0.807752 0.194773
0.133537 0.807869 0.195188
0.179156 0.812031 0.196870
0.318778 0.827711 0.198584
0.427791 0.839078 0.199606
0.513983 0.847610 0.201957
0.577654 0.853750 0.205026
0.624963 0.857477 0.207993
0.662248 0.860399 0.209225
0.696305 0.862524 0.210843
0.727830 0.864177 0.212272
0.757215 0.865559 0.213211
0.784474 0.866325 0.213339
0.810197 0.866899 0.213325
0.835749 0.867472 0.213356
0.862569 0.868050 0.213694
0.062122 0.057568 0.151325
0.075792 0.057583 0.151182
0.091335 0.057707 0.151020
0.143650 0.058267 0.149939
0.210098 0.057736 0.147204
0.329592 0.054924 0.142019
0.465552 0.049094 0.137234
0.560368 0.043865 0.136336
0.623364 0.041636 0.138362
0.672404 0.039901 0.137399
0.714709 0.039113 0.136796
0.753641 0.038646 0.138072
0.789979 0.038620 0.140005
0.825130 0.038584 0.141909
0.861054 0.038119 0.145002
0.897990 0.037698 0.146783
0.062122 0.071970 0.151282
0.075766 0.072015 0.151159
0.091321 0.072133 0.151003
0.143245 0.072722 0.150016
0.209207 0.072090 0.147345
0.327050 0.069209 0.142179
0.462737 0.063238 0.137337
0.558576 0.058009 0.136086
0.622738 0.055550 0.138354
0.672134 0.053751 0.137298
0.714676 0.052945 0.136576
0.753644 0.052452 0.137574
0.789999 0.052447 0.139527
0.825143 0.052376 0.141555
0.861159 0.051929 0.144564
0.898254 0.051491 0.146588
0.061502 0.089047 0.151125
0.075160 0.089116 0.151079
0.090705 0.089210 0.150951
0.142504 0.089783 0.150206
0.208089 0.089156 0.147593
0.324975 0.086245 0.142296
0.461843 0.080487 0.137279
0.558085 0.075248 0.135699
0.622239 0.073000 0.137611
0.671769 0.071115 0.136401
0.714199 0.070104 0.135843
0.753039 0.069828 0.136762
0.789327 0.070047 0.138631
0.824293 0.070486 0.140323
0.860263 0.070392 0.143090
0.897420 0.069782 0.145159
0.053649 0.144623 0.150704
0.067291 0.144631 0.150707
0.082807 0.144718 0.150764
0.133650 0.145813 0.151782
0.198714 0.146031 0.150617
0.315179 0.143760 0.143310
0.456508 0.138449 0.135673
0.555642 0.132998 0.131324
0.620337 0.131840 0.131797
0.669232 0.131588 0.129456
0.711759 0.130472 0.129898
0.750035 0.129955 0.130735
0.785859 0.130013 0.132086
0.820733 0.130450 0.133483
0.856340 0.131372 0.134772
0.894049 0.131708 0.136273
0.047262 0.191827 0.150104
0.060884 0.191929 0.150152
0.076490 0.192283 0.150154
0.127947 0.195673 0.151019
0.194380 0.199512 0.151811
0.325399 0.203887 0.141557
0.470022 0.204114 0.134430
0.566382 0.202218 0.132135
0.629405 0.204563 0.131505
0.678193 0.207640 0.131869
0.720188 0.211149 0.133131
0.758798 0.214612 0.134020
0.794909 0.218350 0.134657
0.829392 0.220972 0.135758
0.863614 0.222685 0.136503
0.900714 0.225336 0.138007
0.035547 0.263942 0.149257
0.049103 0.264287 0.149298
0.064420 0.265268 0.149499
0.113189 0.275081 0.150768
0.186056 0.290630 0.152602
0.336934 0.310830 0.153500
0.484588 0.326673 0.142876
0.580576 0.332799 0.132657
0.642849 0.340934 0.132029
0.690562 0.347257 0.131033
0.731929 0.352959 0.130840
0.769970 0.358701 0.131131
0.805912 0.364727 0.132940
0.840674 0.369774 0.133234
0.874454 0.374192 0.133769
0.908848 0.378003 0.134055
0.022209 0.366561 0.156500
0.035732 0.367258 0.156496
0.050690 0.368872 0.156657
0.095311 0.382962 0.159800
0.173448 0.409761 0.164591
0.356018 0.445509 0.173160
0.499629 0.469162 0.179758
0.588457 0.481953 0.178824
0.649310 0.488829 0.173154
0.695338 0.494030 0.169394
0.734161 0.499008 0.168722
0.770145 0.502496 0.166899
0.804121 0.505252 0.164625
0.837361 0.507630 0.161946
0.869951 0.509703 0.158682
0.901690 0.511055 0.155226
0.013755 0.463477 0.166513
0.027320 0.464004 0.166555
0.042168 0.465540 0.166900
0.087855 0.480490 0.172224
0.183599 0.509270 0.180896
0.384329 0.542747 0.192573
0.517332 0.564264 0.203120
0.596213 0.574373 0.207093
