example_ofxGpuLutCube/bin/data/ofxGpuLutCube/LUT/T39 (smooth light green fade).cube
LUT_3D_SIZE 6
0.060486 0.057739 0.067505
0.153156 0.055286 0.064008
0.471186 0.039209 0.041803
0.670880 0.033301 0.041187
0.785303 0.032300 0.045294
0.892158 0.031586 0.051504
0.053705 0.144556 0.064441
0.138184 0.143345 0.065299
0.450444 0.131695 0.041803
0.662128 0.129116 0.039710
0.777144 0.128967 0.043238
0.884001 0.130701 0.048103
0.022967 0.358173 0.072790
0.097954 0.373622 0.076641
0.493172 0.455783 0.098140
0.688938 0.483734 0.090211
0.798681 0.496294 0.085295
0.896807 0.502550 0.074550
0.016040 0.579016 0.111335
0.123144 0.598799 0.121397
0.536262 0.657652 0.143889
0.690015 0.670310 0.147925
0.785322 0.675028 0.148160
0.871643 0.675935 0.140821
0.058429 0.698633 0.137994
0.230571 0.721353 0.147019
0.558899 0.758287 0.157561
0.691875 0.768236 0.161587
0.784856 0.771650 0.162472
0.865851 0.773728 0.163604
0.120457 0.806399 0.159482
0.322940 0.826726 0.162653
0.577841 0.852610 0.169305
0.696403 0.861266 0.174914
0.783872 0.865045 0.177520
0.862179 0.866966 0.177983
0.062122 0.057568 0.151325
0.143650 0.058267 0.149939
0.465552 0.049094 0.137234
0.672404 0.039901 0.137399
0.789979 0.038620 0.140005
0.897990 0.037698 0.146783
0.053649 0.144623 0.150704
0.133650 0.145813 0.151782
0.456508 0.138449 0.135673
0.669232 0.131588 0.129456
0.785859 0.130013 0.132086
0.894049 0.131708 0.136273
0.022209 0.366561 0.156500
0.095311 0.382962 0.159800
0.499629 0.469162 0.179758
0.695338 0.494030 0.169394
0.804121 0.505252 0.164625
0.901690 0.511055 0.155226
0.006093 0.584980 0.192257
0.096264 0.603590 0.199736
0.538506 0.666104 0.225749
0.692755 0.679553 0.231955
0.788659 0.683808 0.232684
0.875300 0.684387 0.225455
0.036510 0.703716 0.225884
0.199069 0.728276 0.236914
0.561029 0.768113 0.249978
0.694834 0.779073 0.256383
0.788361 0.782746 0.258498
0.870228 0.784031 0.259050
0.094142 0.814014 0.267162
0.298409 0.838209 0.275532
0.579359 0.864876 0.275993
0.699455 0.873110 0.279376
0.787921 0.876754 0.281982
0.867190 0.878135 0.282019
0.063342 0.057282 0.346118
0.142429 0.057713 0.351515
0.446627 0.075381 0.385586
0.650540 0.093526 0.402359
0.767020 0.105381 0.417209
0.876545 0.113608 0.430359
0.052825 0.141288 0.359145
0.132464 0.142597 0.363858
0.444706 0.163161 0.401957
0.654430 0.184034 0.420133
0.773166 0.198211 0.435791
0.884994 0.209098 0.450129
0.023379 0.407411 0.448104
0.095207 0.420029 0.456625
0.472757 0.531226 0.514894
0.699371 0.555136 0.521730
0.815295 0.561359 0.521359
0.913480 0.564715 0.523521
0.003026 0.612624 0.515822
0.068200 0.624713 0.524091
0.502998 0.707234 0.551521
0.698476 0.721104 0.553632
0.802092 0.721514 0.554910
0.893418 0.722345 0.550844
0.004884 0.721238 0.545268
0.085992 0.735536 0.552666
0.529981 0.806678 0.569361
0.698742 0.816791 0.570693
0.802098 0.820382 0.572044
0.886051 0.818427 0.569517
0.041460 0.824682 0.566160
0.174948 0.850331 0.574832
0.550333 0.900712 0.583225
0.698685 0.906226 0.582128
0.797904 0.908360 0.582506
0.882143 0.909632 0.583374
0.056787 0.069232 0.540027
0.141987 0.067735 0.541786
0.445604 0.083718 0.576234
0.658985 0.110792 0.601948
0.778087 0.124088 0.613517
0.885534 0.137228 0.625329
0.045462 0.151228 0.554279
0.128872 0.150578 0.556047
0.450814 0.169901 0.593710
0.667821 0.204346 0.622016
0.787530 0.222867 0.633939
0.896288 0.240053 0.645948
0.010105 0.434004 0.634216
0.084704 0.441129 0.637611
0.438463 0.533757 0.692639
0.689918 0.570449 0.713934
0.801490 0.583353 0.716693
0.895446 0.589906 0.718173
0.000258 0.631884 0.684268
0.059586 0.639284 0.687852
0.486672 0.716257 0.725819
0.687356 0.733532 0.734402
0.796816 0.735796 0.736881
0.891166 0.738012 0.737804
0.008583 0.735321 0.697296
0.070053 0.743754 0.701646
0.520452 0.814275 0.732761
0.688964 0.828374 0.738866
0.798029 0.831866 0.740430
0.887206 0.830928 0.738876
0.032236 0.834085 0.706542
0.144747 0.853278 0.716299
0.544611 0.906394 0.737206
0.688389 0.915631 0.740546
0.791678 0.918666 0.741920
0.882423 0.919655 0.741962
0.053888 0.074316 0.640759
0.138314 0.072940 0.640685
0.451605 0.088596 0.674277
0.667725 0.116248 0.702296
0.787412 0.132882 0.716266
0.896703 0.146833 0.726404
0.046881 0.155967 0.655193
0.123103 0.156839 0.657446
0.460444 0.180801 0.695034
0.679314 0.214180 0.724728
0.800486 0.238183 0.739838
0.907115 0.258516 0.750960
0.012192 0.448307 0.735178
0.076551 0.458583 0.742221
0.439269 0.540121 0.792548
0.687967 0.572729 0.814539
0.808112 0.584959 0.821842
0.901714 0.593027 0.823717
0.000177 0.640467 0.783899
0.054251 0.647720 0.789002
0.482981 0.714801 0.824640
0.687356 0.732260 0.836309
0.796798 0.737559 0.839679
0.888445 0.741166 0.839751
0.007897 0.744698 0.797880
0.067022 0.751219 0.800961
0.524179 0.816238 0.833279
0.691961 0.830841 0.842209
0.794752 0.833786 0.843473
0.882224 0.835843 0.845704
0.033951 0.842489 0.804598
0.153112 0.859418 0.813327
0.546866 0.908973 0.836464
0.690757 0.917369 0.842589
0.790206 0.921592 0.845624
0.877780 0.923433 0.847005
0.058007 0.077295 0.727278
0.134177 0.079294 0.730568
0.466581 0.096185 0.765879
0.681871 0.123977 0.797194
0.801671 0.141299 0.811791
0.908550 0.157856 0.823398
0.050367 0.162833 0.744353
0.117606 0.167264 0.751109
0.476591 0.198591 0.790802
0.691455 0.236938 0.823423
0.812208 0.261520 0.839415
0.918815 0.283190 0.851702
0.013401 0.465216 0.829967
0.069126 0.478029 0.840890
0.447338 0.549320 0.887029
0.689588 0.577560 0.906678
0.807429 0.588278 0.912400
0.905230 0.594717 0.917602
0.000153 0.645859 0.875153
0.047907 0.655135 0.883873
0.486907 0.715151 0.915421
0.687087 0.730853 0.928330
0.796936 0.735964 0.929742
0.889378 0.739891 0.932493
0.014542 0.751850 0.890840
0.074961 0.758982 0.895450
0.525167 0.815398 0.924343
0.690922 0.829221 0.934127
0.797112 0.833422 0.936498
0.884226 0.835964 0.937716
0.034041 0.851260 0.900190
0.174893 0.867370 0.908077
0.550286 0.910447 0.929465
0.693680 0.919069 0.936084
0.794105 0.923086 0.939242
0.878380 0.924411 0.940452
