example_ofxGpuLutCube/bin/data/ofxGpuLutCube/LUT/T4 (faded green).cube
LUT_3D_SIZE 16
0.004037 0.008825 0.013448
0.043473 0.007741 0.007932
0.101507 0.011718 0.005614
0.162151 0.018180 0.003117
0.226247 0.025247 0.004610
0.300546 0.034934 0.005808
0.388598 0.047634 0.008440
0.474088 0.060988 0.012186
0.542398 0.071093 0.015774
0.611393 0.079075 0.018613
0.676268 0.089329 0.024280
0.736401 0.094152 0.026742
0.798094 0.101757 0.032195
0.852521 0.101817 0.033483
0.904899 0.102327 0.035999
0.944662 0.100329 0.036291
0.004342 0.053878 0.025338
0.041506 0.053544 0.021229
0.100217 0.055607 0.015597
0.166242 0.061448 0.012170
0.236126 0.069393 0.011097
0.312542 0.078204 0.011790
0.396808 0.091095 0.012930
0.474791 0.103098 0.015912
0.541982 0.112959 0.019314
0.614510 0.121367 0.022827
0.680818 0.131965 0.028159
0.739501 0.137027 0.030293
0.801056 0.144341 0.034717
0.855898 0.146028 0.036468
0.907927 0.146053 0.038802
0.948214 0.144921 0.039045
0.004544 0.101317 0.043619
0.040785 0.101667 0.038424
0.089303 0.104435 0.032715
0.162493 0.110017 0.026879
0.239641 0.116864 0.022020
0.322122 0.126043 0.021291
0.405683 0.138505 0.020805
0.480786 0.147989 0.022157
0.551544 0.158043 0.024852
0.619843 0.166049 0.028938
0.686431 0.177585 0.033406
0.745886 0.184764 0.035280
0.804659 0.188038 0.037688
0.860862 0.194107 0.041628
0.911171 0.193056 0.042915
0.951177 0.190191 0.040958
0.007037 0.154663 0.066228
0.043187 0.155580 0.061170
0.082915 0.158381 0.054031
0.152230 0.163611 0.048569
0.237659 0.169045 0.039295
0.329725 0.179320 0.033931
0.420598 0.191750 0.032068
0.493760 0.199434 0.032204
0.565944 0.209152 0.033751
0.630090 0.219005 0.037179
0.694751 0.228345 0.039959
0.755644 0.236179 0.043628
0.813255 0.241349 0.046024
0.866466 0.244007 0.048555
0.915644 0.243669 0.049004
0.956461 0.241777 0.047781
0.013156 0.214480 0.086449
0.050694 0.217360 0.082432
0.088410 0.218970 0.075264
0.143891 0.225010 0.070778
0.229991 0.230036 0.068382
0.329433 0.239279 0.056011
0.429789 0.251147 0.049742
0.509932 0.259119 0.046143
0.579854 0.268258 0.046882
0.643505 0.277283 0.048410
0.705140 0.283959 0.049662
0.763888 0.293079 0.053291
0.820694 0.299360 0.055710
0.872992 0.298016 0.056090
0.920130 0.296620 0.055641
0.961383 0.297596 0.055076
0.021053 0.276899 0.112270
0.057062 0.279937 0.108886
0.093712 0.283194 0.102578
0.137952 0.291648 0.094236
0.216830 0.300125 0.100188
0.326693 0.306390 0.092362
0.432077 0.317152 0.077043
0.516247 0.326269 0.067477
0.586679 0.335808 0.063272
0.651040 0.342400 0.061155
0.713245 0.349701 0.062524
0.771721 0.356422 0.064023
0.828574 0.361764 0.065561
0.880224 0.359758 0.064864
0.926613 0.354420 0.064324
0.968135 0.356494 0.063963
0.017269 0.344184 0.140110
0.051847 0.350066 0.138431
0.087354 0.356626 0.133534
0.123663 0.363874 0.125183
0.190854 0.375417 0.127345
0.317258 0.387010 0.134654
0.429992 0.393746 0.119434
0.518523 0.400771 0.101664
0.591492 0.407853 0.088365
0.659498 0.414654 0.081218
0.722059 0.419390 0.078629
0.780973 0.423709 0.077727
0.837364 0.426349 0.077956
0.886618 0.424189 0.076969
0.933410 0.419861 0.075863
0.976496 0.421770 0.075049
0.007401 0.413697 0.175022
0.042472 0.419441 0.172112
0.077363 0.425037 0.165467
0.115790 0.431736 0.158328
0.173196 0.440017 0.149934
0.296248 0.451975 0.166882
0.421441 0.462420 0.163312
0.513618 0.468251 0.144068
0.590787 0.474367 0.124508
0.662616 0.479862 0.109624
0.727348 0.482508 0.099384
0.787442 0.487118 0.095244
0.843409 0.488094 0.090994
0.893731 0.486063 0.088889
0.939970 0.484820 0.087755
0.981434 0.485407 0.085449
0.008322 0.478928 0.199865
0.047394 0.482755 0.198303
0.086182 0.488662 0.191917
0.126905 0.496559 0.182972
0.172933 0.501512 0.173936
0.273828 0.511503 0.186249
0.414146 0.523882 0.193747
0.508872 0.529786 0.181825
0.585501 0.535271 0.162293
0.661210 0.538962 0.140919
0.730587 0.543387 0.121495
0.791000 0.546001 0.110154
0.847049 0.546974 0.103772
0.899663 0.544881 0.100032
0.943277 0.544208 0.097402
0.984096 0.542754 0.093319
0.019213 0.548195 0.216834
0.058598 0.551830 0.214674
0.098162 0.555604 0.209541
0.136892 0.558930 0.199956
0.176865 0.559796 0.190782
0.261918 0.568606 0.196776
0.404913 0.583472 0.213473
0.506253 0.590405 0.204878
0.585789 0.593925 0.190826
0.657476 0.598716 0.170768
0.728398 0.600787 0.147258
0.790948 0.604260 0.127659
0.848791 0.606449 0.116392
0.901710 0.604946 0.111934
0.945938 0.603065 0.108139
0.986253 0.601543 0.103006
0.055272 0.616709 0.233031
0.092618 0.617086 0.228499
0.131515 0.616696 0.220936
0.169546 0.618151 0.212973
0.208575 0.618219 0.205635
0.259877 0.622082 0.202897
0.396387 0.642235 0.225646
0.503799 0.650317 0.219848
0.590040 0.655043 0.205125
0.657538 0.656520 0.188984
0.723313 0.659803 0.166140
0.787816 0.661246 0.144064
0.848181 0.663030 0.128317
0.901186 0.663248 0.124304
0.945951 0.660955 0.119266
0.986853 0.657961 0.112121
0.078250 0.673772 0.233568
0.115926 0.674694 0.230693
0.153119 0.674399 0.225867
0.192254 0.675174 0.220926
0.235169 0.678549 0.217264
0.278610 0.682752 0.214139
0.378090 0.696715 0.227846
0.506982 0.710232 0.226263
0.597181 0.717491 0.211878
0.665842 0.717000 0.195130
0.723204 0.716661 0.177413
0.781756 0.717220 0.151694
0.843846 0.719837 0.139054
0.897183 0.719383 0.134207
0.944454 0.717908 0.129745
0.986961 0.714858 0.124583
0.095166 0.731114 0.229273
0.133622 0.731783 0.229560
0.171899 0.732029 0.228749
0.212930 0.735674 0.228179
0.254164 0.739585 0.226672
0.296720 0.744000 0.225136
0.372757 0.752432 0.229255
0.512039 0.768175 0.223421
0.605028 0.773952 0.205216
0.672269 0.775024 0.190309
0.731358 0.774207 0.169527
0.781735 0.773949 0.157512
0.836662 0.773804 0.147020
0.892138 0.774400 0.142233
0.942801 0.773923 0.138706
0.986394 0.771475 0.134242
0.107460 0.784971 0.218701
0.146912 0.787162 0.222715
0.187480 0.790142 0.225487
0.230265 0.794715 0.227824
0.274751 0.799763 0.229652
0.337535 0.806507 0.230759
0.409199 0.812889 0.228070
0.517292 0.822147 0.210922
0.611937 0.827784 0.187963
0.679143 0.830596 0.173992
0.735949 0.829970 0.164882
0.787790 0.827747 0.155811
0.835917 0.827280 0.148860
0.884346 0.825579 0.145454
0.939642 0.826710 0.144238
0.986291 0.826343 0.143249
0.119944 0.837389 0.203641
0.162331 0.842110 0.211511
0.204361 0.847449 0.217687
0.252011 0.853671 0.222387
0.310684 0.860860 0.225738
0.388859 0.868005 0.221084
0.455662 0.870153 0.205471
0.526944 0.873773 0.187816
0.615394 0.878481 0.174331
0.681383 0.880029 0.164976
0.738521 0.883500 0.162896
0.790583 0.882366 0.157664
0.838761 0.881522 0.153219
0.890295 0.880233 0.151840
0.938462 0.878232 0.150236
0.986156 0.880308 0.151121
0.130451 0.886697 0.189541
0.173362 0.891458 0.194573
0.217940 0.899445 0.201170
0.279392 0.905777 0.200708
0.351053 0.911594 0.193162
0.415757 0.914035 0.182376
0.477890 0.917835 0.173116
0.543773 0.922334 0.169926
0.611490 0.926081 0.166356
0.677233 0.928553 0.162569
0.735057 0.930505 0.161187
0.791193 0.932704 0.160423
0.842865 0.932527 0.160568
0.895812 0.932434 0.158717
0.944960 0.932715 0.159727
0.988074 0.934068 0.161784
0.003431 0.008358 0.052099
0.042309 0.008410 0.047222
0.098413 0.011921 0.045708
0.166278 0.018463 0.044182
0.236968 0.026021 0.044562
0.316386 0.036794 0.045982
0.405121 0.049491 0.048199
0.487781 0.060583 0.050956
0.553362 0.070567 0.054259
0.619706 0.079517 0.058046
0.682081 0.088241 0.061396
0.743078 0.092917 0.064591
0.802172 0.097982 0.069068
0.855533 0.100360 0.070979
0.903287 0.098616 0.072487
0.943097 0.094945 0.073033
0.004127 0.053793 0.065798
0.043586 0.052849 0.057798
0.099127 0.055855 0.054464
0.165129 0.061549 0.052396
0.240855 0.069272 0.051269
0.321982 0.079370 0.051869
0.406822 0.092219 0.052700
0.485503 0.102754 0.054681
0.553177 0.112272 0.056866
0.621995 0.121927 0.061415
0.687186 0.131607 0.065305
0.746224 0.135542 0.067434
0.805432 0.142265 0.072097
0.857983 0.143904 0.073781
0.907250 0.142962 0.075377
0.947411 0.139973 0.075926
0.004789 0.101595 0.085713
0.041015 0.101728 0.078370
0.092452 0.104000 0.069846
0.160345 0.109661 0.066319
0.238999 0.116090 0.062559
0.324835 0.126481 0.061408
0.412262 0.138262 0.060232
0.490107 0.148796 0.060976
0.561252 0.158815 0.062738
0.627385 0.167284 0.067248
0.692344 0.177027 0.070181
0.752447 0.183491 0.072509
0.808264 0.186917 0.075533
0.861281 0.190229 0.077821
0.909688 0.188169 0.078808
0.950605 0.185465 0.079336
0.006133 0.153925 0.110388
0.042630 0.155407 0.104626
0.080328 0.157070 0.096701
0.151460 0.162892 0.088625
0.234146 0.169292 0.081322
0.329781 0.179672 0.074966
0.424101 0.191378 0.071820
0.502070 0.201118 0.071371
0.572869 0.210093 0.072163
0.635148 0.219058 0.075437
0.698791 0.227863 0.077471
0.758617 0.234777 0.080589
0.813580 0.239555 0.083388
0.865575 0.241317 0.085610
0.914391 0.239492 0.085691
0.955790 0.237297 0.085639
0.011684 0.212326 0.131391
0.048693 0.216380 0.129299
0.086916 0.219866 0.121267
0.137372 0.223881 0.113394
0.226391 0.230660 0.111080
0.326453 0.239928 0.099376
0.429661 0.251774 0.092508
0.510027 0.259519 0.087058
0.579100 0.267987 0.086208
0.643166 0.276867 0.087391
0.706185 0.284157 0.087441
0.764673 0.292127 0.090178
0.820777 0.298763 0.093596
0.872719 0.296968 0.093822
0.919096 0.293343 0.093069
0.960613 0.292752 0.092742
0.019888 0.275557 0.157075
0.056300 0.279819 0.156100
0.092638 0.283473 0.148878
0.132381 0.288576 0.138991
0.206783 0.299521 0.141778
0.322751 0.307626 0.137497
0.429791 0.317913 0.122518
0.515527 0.326551 0.111703
0.586135 0.335754 0.104582
0.652512 0.343615 0.101484
0.715138 0.350142 0.101804
0.771988 0.356119 0.102267
0.828521 0.360600 0.103578
0.880822 0.358896 0.103440
0.926336 0.351433 0.101785
0.966441 0.350355 0.100739
0.015655 0.342595 0.187726
0.050853 0.348841 0.185417
0.085856 0.355231 0.180379
0.122150 0.362771 0.171022
0.182684 0.373870 0.167925
0.305278 0.386177 0.180007
0.426004 0.394494 0.166262
0.517310 0.401344 0.148676
0.591087 0.408461 0.136004
0.659264 0.415954 0.127493
0.721611 0.419562 0.122707
0.780904 0.424819 0.118992
0.837449 0.426375 0.116979
0.888493 0.423985 0.115224
0.934349 0.417886 0.113897
0.974371 0.414635 0.112048
0.006916 0.412959 0.219920
0.041786 0.419051 0.217816
0.077263 0.424366 0.212086
0.113114 0.429802 0.202432
0.166301 0.438492 0.194513
0.282651 0.450471 0.210097
0.415634 0.462532 0.210666
0.510342 0.468449 0.191666
0.588328 0.474149 0.173828
0.661162 0.479026 0.158774
0.725566 0.483255 0.148133
0.786608 0.487949 0.140470
0.843742 0.488011 0.131312
0.894402 0.485609 0.127763
0.939690 0.481976 0.125750
0.980583 0.480631 0.123716
0.006728 0.480069 0.242026
0.045812 0.484402 0.241483
0.085037 0.487671 0.237099
0.124825 0.493897 0.227050
0.167624 0.499526 0.217239
0.262794 0.509281 0.226513
0.408540 0.524119 0.238850
0.504242 0.530142 0.229733
0.583268 0.535523 0.210836
0.657395 0.539010 0.192022
0.727592 0.543642 0.174421
0.791378 0.546841 0.157867
0.847807 0.547089 0.146506
0.901091 0.545307 0.140665
0.944696 0.542713 0.137309
0.984228 0.541671 0.133977
0.017728 0.546650 0.259765
0.056668 0.550107 0.257318
0.097608 0.554590 0.253184
0.137190 0.558522 0.245059
0.175046 0.558686 0.233992
0.253630 0.566948 0.236435
0.397735 0.583077 0.257105
0.501763 0.590734 0.252073
0.583211 0.595641 0.239856
0.655056 0.599291 0.221233
0.725710 0.601789 0.201594
0.790981 0.604928 0.179861
0.850707 0.606566 0.160447
0.903365 0.605160 0.153682
0.947027 0.603267 0.149896
0.987046 0.600503 0.144239
0.055394 0.615272 0.275988
0.091904 0.615248 0.272002
0.130109 0.616570 0.265858
0.169980 0.618497 0.257877
0.207993 0.618511 0.249531
0.257115 0.620763 0.244209
0.389744 0.641097 0.267640
0.498203 0.651061 0.267562
0.586423 0.655559 0.254690
0.655416 0.658034 0.240772
0.722926 0.661088 0.221418
0.787186 0.661715 0.199311
0.849185 0.664245 0.180006
0.903298 0.663528 0.167388
0.947784 0.661981 0.162204
0.988677 0.659771 0.155796
0.077416 0.674134 0.278396
0.114894 0.674122 0.275953
0.152420 0.674283 0.270731
0.191441 0.675150 0.265520
0.232633 0.676326 0.260648
0.277199 0.680743 0.257186
0.372644 0.695719 0.270269
0.502439 0.710922 0.275541
0.592885 0.717850 0.263487
0.665655 0.718209 0.247521
0.724517 0.718933 0.232966
0.783608 0.719025 0.211597
0.845231 0.720069 0.191075
0.900786 0.720309 0.178550
0.947810 0.719441 0.173155
0.988826 0.716253 0.166948
0.091329 0.727495 0.273477
0.130989 0.729586 0.273488
0.170201 0.731208 0.272420
0.211553 0.734424 0.272068
0.252870 0.738590 0.271416
0.295382 0.743109 0.270176
0.369154 0.752021 0.273841
0.507032 0.769277 0.276879
0.601949 0.775435 0.260456
0.672385 0.777343 0.246351
0.733419 0.776372 0.230677
0.785057 0.775914 0.214993
0.840126 0.775635 0.197867
0.896514 0.775638 0.186618
0.946967 0.775572 0.182726
0.989181 0.774156 0.177748
0.105537 0.784224 0.264404
0.145303 0.785531 0.267761
0.185396 0.788322 0.270760
0.228535 0.793535 0.273158
0.272722 0.799398 0.275583
0.332686 0.805995 0.277836
0.407047 0.814073 0.277696
0.513175 0.824199 0.269060
0.612152 0.830140 0.248669
0.680615 0.832074 0.235901
0.739237 0.833249 0.219942
0.792332 0.831244 0.207590
0.841416 0.830809 0.200496
0.891748 0.829497 0.191042
0.943756 0.829065 0.187684
0.989119 0.829172 0.186920
0.118046 0.835725 0.249721
0.159699 0.840194 0.258093
0.202046 0.846019 0.265013
0.248502 0.852846 0.270044
0.306706 0.861075 0.274413
0.385894 0.869383 0.275405
0.458146 0.874031 0.266667
0.530166 0.877870 0.250952
0.620190 0.883484 0.234269
0.687630 0.884983 0.219966
0.745630 0.887400 0.213476
0.798611 0.886953 0.205471
0.848024 0.885301 0.199471
0.896233 0.884657 0.198179
0.944316 0.884229 0.196795
0.989433 0.884073 0.195179
0.128719 0.884466 0.237115
0.172176 0.891215 0.243606
0.217117 0.899684 0.250792
0.282369 0.910132 0.258685
0.353212 0.916136 0.257416
0.422938 0.920662 0.249633
0.489514 0.923961 0.237816
0.555317 0.928031 0.228321
0.625414 0.932203 0.218728
0.690354 0.934429 0.210834
0.747744 0.936361 0.209384
0.802274 0.938012 0.207859
0.853961 0.938041 0.206034
0.904481 0.938427 0.205962
0.948129 0.939220 0.205568
0.990461 0.940359 0.207825
0.003166 0.008578 0.090989
0.041140 0.008690 0.086987
0.094512 0.012266 0.085961
0.159565 0.018735 0.087872
0.239311 0.026343 0.086999
0.327074 0.038210 0.089301
0.413427 0.049432 0.089522
0.495218 0.060873 0.091346
0.564078 0.070953 0.093618
0.628481 0.079630 0.096865
0.689337 0.086432 0.099015
0.747294 0.091400 0.102292
0.801337 0.094621 0.105936
0.854831 0.098217 0.108489
0.901245 0.095262 0.109671
0.940608 0.090332 0.110511
0.003740 0.053990 0.108967
0.041185 0.052440 0.099786
0.095198 0.056229 0.094596
0.159236 0.061586 0.094116
0.238474 0.069145 0.093592
0.324297 0.080946 0.094078
0.413184 0.092296 0.093920
0.495609 0.103075 0.093763
0.564560 0.112113 0.096062
0.630039 0.122243 0.099750
0.692916 0.130973 0.103093
0.748536 0.134076 0.104659
0.804190 0.138419 0.108503
0.857544 0.141689 0.111922
0.905732 0.139286 0.112163
0.944805 0.134870 0.113326
0.003503 0.101099 0.132350
0.040848 0.102002 0.122710
0.092873 0.103459 0.109855
0.158045 0.109077 0.107410
0.235794 0.116176 0.104799
0.325471 0.127539 0.103146
0.415895 0.138485 0.101117
0.498384 0.149296 0.100028
0.570163 0.158536 0.101844
0.632782 0.168063 0.105592
0.695474 0.177536 0.108221
0.753221 0.182760 0.110126
0.808346 0.185083 0.112976
0.860907 0.186555 0.115207
0.908280 0.184139 0.115651
0.948510 0.180369 0.116063
0.004594 0.152492 0.155981
0.041633 0.154588 0.149552
0.079517 0.156732 0.139362
0.149958 0.162225 0.129391
0.229660 0.170265 0.124892
0.326592 0.179363 0.118536
0.422223 0.191693 0.114638
0.502862 0.201589 0.113046
0.573229 0.210644 0.112479
0.635420 0.219180 0.114559
0.698755 0.227724 0.115415
0.759065 0.234550 0.118345
0.813970 0.238046 0.121108
0.865759 0.237532 0.122317
0.912783 0.234770 0.122601
0.953435 0.231611 0.122583
0.009211 0.210448 0.179589
0.046580 0.213960 0.177130
0.084352 0.218151 0.170210
0.131271 0.223548 0.161637
0.220660 0.230913 0.154746
0.322907 0.241138 0.146511
0.427514 0.251579 0.136760
0.509315 0.260692 0.130522
0.577615 0.268287 0.127240
0.642384 0.276380 0.127675
0.706762 0.284659 0.126947
0.764557 0.291872 0.129235
0.820324 0.295882 0.131149
0.871785 0.295052 0.132044
0.917596 0.290224 0.130658
0.958808 0.287801 0.130370
0.017140 0.272669 0.204114
0.053395 0.276347 0.203397
0.090572 0.281886 0.199415
0.129149 0.288038 0.189327
0.196626 0.298366 0.184623
0.315387 0.308881 0.183422
0.425997 0.319303 0.169748
0.514548 0.328186 0.159775
0.585090 0.337225 0.151048
0.651886 0.343956 0.147365
0.714949 0.350551 0.145762
0.771972 0.356904 0.144085
0.827884 0.359097 0.142983
0.880855 0.358382 0.142997
0.925942 0.350065 0.140054
0.965637 0.347418 0.138990
0.013705 0.341352 0.235375
0.048879 0.346331 0.234586
0.084750 0.352951 0.229348
0.120247 0.360876 0.221103
0.171942 0.371350 0.211450
0.287408 0.385946 0.225944
0.419887 0.395536 0.215308
0.514264 0.401437 0.196853
0.588828 0.409469 0.185415
0.657689 0.416401 0.176537
0.720671 0.420580 0.170539
0.780350 0.425448 0.163111
0.836382 0.425894 0.157506
0.888815 0.423418 0.154290
0.934197 0.416616 0.152283
0.973759 0.411931 0.150502
0.008091 0.414110 0.264059
0.042486 0.418722 0.263134
0.076711 0.424426 0.258714
0.112334 0.429480 0.250323
0.159000 0.435983 0.240212
0.265542 0.448259 0.252077
0.407676 0.463155 0.258752
0.505989 0.468738 0.240713
0.585566 0.474064 0.223754
0.658220 0.478868 0.209619
0.723864 0.483365 0.199612
0.785450 0.486457 0.188295
0.843359 0.488656 0.175108
0.894900 0.485803 0.167573
0.939364 0.479786 0.163861
0.980034 0.477821 0.162032
0.006241 0.479926 0.285795
0.044650 0.484348 0.285547
0.083830 0.489376 0.282587
0.123827 0.493180 0.274115
0.164560 0.497624 0.261321
0.250614 0.507738 0.267238
0.400766 0.524581 0.282925
0.498539 0.531415 0.277974
0.580615 0.535903 0.259184
0.655440 0.539526 0.242877
0.724443 0.544268 0.229067
0.787968 0.546820 0.212989
0.847641 0.547779 0.195773
0.901666 0.545784 0.182796
0.945379 0.541509 0.177075
0.984552 0.538934 0.173714
0.017111 0.544924 0.302716
0.055976 0.548842 0.302410
0.096380 0.553267 0.297998
0.137160 0.557913 0.290636
0.175389 0.558627 0.279878
0.243718 0.564495 0.277601
0.387757 0.581654 0.299389
0.496798 0.591310 0.298887
0.579142 0.597347 0.289001
0.652638 0.599719 0.270621
0.723864 0.603226 0.254546
0.789040 0.605816 0.236508
0.850148 0.607341 0.214677
0.904607 0.605437 0.197526
0.947767 0.604167 0.191688
0.988189 0.601148 0.186860
0.053526 0.612756 0.320862
0.091675 0.613899 0.316806
0.129982 0.615174 0.310528
0.169509 0.617507 0.302820
0.208430 0.618758 0.294867
0.253604 0.620266 0.288123
0.379741 0.639371 0.308614
0.493279 0.651458 0.314454
0.581125 0.656552 0.303253
0.652710 0.658439 0.290639
0.720928 0.662408 0.274917
0.787739 0.663521 0.255437
0.849265 0.665149 0.235088
0.904947 0.664152 0.213912
0.949030 0.662673 0.205585
0.989980 0.661063 0.199979
0.075964 0.673420 0.323060
0.113797 0.673427 0.320909
0.151593 0.673599 0.316246
0.190705 0.675014 0.310612
0.230947 0.675836 0.305133
0.274102 0.678350 0.300953
0.365252 0.693928 0.312290
0.497488 0.711689 0.322303
0.587172 0.717344 0.312496
0.663343 0.719695 0.299784
0.722771 0.720816 0.287562
0.784680 0.722075 0.269400
0.845796 0.722203 0.250164
0.902605 0.722661 0.231521
0.948627 0.720058 0.218502
0.990565 0.717385 0.210472
0.090955 0.726848 0.318200
0.130024 0.728401 0.318067
0.169405 0.730397 0.316687
0.208998 0.733085 0.315595
0.251318 0.737013 0.314944
0.294492 0.741704 0.314660
0.365304 0.750907 0.317755
0.502144 0.770140 0.326616
0.596530 0.776663 0.314459
0.670437 0.779662 0.301334
0.733194 0.778384 0.287290
0.786416 0.777664 0.275935
0.842137 0.778886 0.258925
0.899451 0.778518 0.240556
0.949197 0.777065 0.227632
0.991654 0.775852 0.220777
0.103312 0.782136 0.310547
0.142383 0.783953 0.313419
0.182665 0.787357 0.316107
0.226036 0.793515 0.319533
0.269478 0.799506 0.322140
0.328669 0.805686 0.323351
0.402406 0.812966 0.324712
0.508783 0.825379 0.323067
0.609782 0.833080 0.307120
0.681256 0.836553 0.294588
0.740239 0.835744 0.280298
0.794890 0.834238 0.267789
0.844289 0.833948 0.259330
0.897754 0.834678 0.250001
0.947651 0.833130 0.238057
0.991715 0.832384 0.230329
0.115631 0.834487 0.295661
0.157600 0.839914 0.305487
0.200144 0.845887 0.312417
0.246970 0.853424 0.318333
0.303931 0.860837 0.322173
0.382660 0.870234 0.324936
0.458055 0.877854 0.323477
0.529249 0.881725 0.311294
0.621323 0.887188 0.296618
0.689588 0.889718 0.284120
0.747170 0.890506 0.273535
0.802519 0.891187 0.263469
0.851292 0.888978 0.259345
0.901313 0.889488 0.255391
0.947219 0.888570 0.249771
0.992215 0.889108 0.242538
0.125519 0.884876 0.283796
0.169528 0.892375 0.294169
0.214424 0.900475 0.301801
0.277842 0.909367 0.308321
0.356741 0.920514 0.313289
0.428139 0.926069 0.311340
0.494470 0.929779 0.303387
0.560254 0.933199 0.295412
0.629616 0.935678 0.286014
0.695599 0.937756 0.275693
0.753504 0.940806 0.270378
0.807160 0.941018 0.265432
0.858678 0.941815 0.262456
0.907148 0.942656 0.262245
0.951174 0.943541 0.264475
0.991987 0.943401 0.266900
0.002886 0.008382 0.130224
0.042457 0.009489 0.125375
0.093664 0.012638 0.125556
0.150943 0.019392 0.130658
0.227138 0.026405 0.131382
0.322584 0.038155 0.131534
0.417623 0.050504 0.131346
0.498522 0.060840 0.132639
0.568014 0.070321 0.134382
0.631887 0.079142 0.137003
0.691707 0.085596 0.138514
0.748146 0.091134 0.140844
0.800570 0.093006 0.144022
0.853682 0.095000 0.145677
0.899921 0.092076 0.147811
0.938909 0.086335 0.148715
0.002864 0.052663 0.147272
0.041948 0.052226 0.140565
0.091734 0.056393 0.137168
0.150488 0.061474 0.138794
0.229001 0.069360 0.138274
0.322899 0.081965 0.136955
0.415206 0.093020 0.137062
0.497930 0.103099 0.136213
0.569124 0.112616 0.137772
0.631989 0.122054 0.139210
0.694197 0.130692 0.142711
0.749090 0.134136 0.143479
0.803629 0.136303 0.145974
0.856651 0.138416 0.149695
0.904204 0.136219 0.149953
0.943114 0.132182 0.151816
0.001859 0.100219 0.186586
0.039094 0.101146 0.171284
0.086997 0.102329 0.155871
0.152055 0.109068 0.151534
0.230286 0.117529 0.149528
0.322517 0.128250 0.147337
0.414563 0.139519 0.144839
0.498293 0.149319 0.142995
0.570904 0.158482 0.144334
0.632907 0.167905 0.145268
0.695183 0.176715 0.147555
0.753039 0.182316 0.148859
0.807726 0.183615 0.150408
0.860179 0.183700 0.153697
0.906963 0.180537 0.153523
0.946927 0.177119 0.153827
0.003009 0.152574 0.207512
0.039721 0.153651 0.199709
0.078440 0.156082 0.186045
0.148111 0.162023 0.171229
0.224745 0.171857 0.169589
0.322104 0.180350 0.164083
0.420184 0.192820 0.159239
0.501927 0.202410 0.156147
0.572964 0.210424 0.154744
0.637141 0.218290 0.154424
0.698774 0.227393 0.156262
0.759008 0.234520 0.158285
0.813505 0.236616 0.159756
0.865770 0.234226 0.159763
0.911795 0.230938 0.160258
0.951564 0.226778 0.159374
0.006335 0.209652 0.228113
0.043579 0.212261 0.224656
0.082099 0.216251 0.217573
0.128249 0.221168 0.207589
0.216451 0.230963 0.198223
0.315788 0.241665 0.193583
0.424330 0.252282 0.184666
0.508499 0.261486 0.179148
0.577015 0.269750 0.174482
0.642081 0.276083 0.172554
0.706269 0.285298 0.171816
0.764396 0.291763 0.171948
0.819408 0.292903 0.170251
0.870986 0.291248 0.169791
0.917016 0.285821 0.168155
0.957181 0.282925 0.168219
0.011399 0.269332 0.257168
0.048403 0.273923 0.257433
0.085821 0.278854 0.251336
0.124465 0.284995 0.243133
0.185499 0.295698 0.232560
0.306209 0.309987 0.231562
0.420827 0.321581 0.219276
0.512368 0.329568 0.209157
0.583254 0.339018 0.202311
0.650138 0.344218 0.196654
0.713679 0.350618 0.193669
0.771029 0.357105 0.189802
0.827308 0.356983 0.184087
0.879358 0.355118 0.182225
0.924555 0.347139 0.178601
0.963949 0.344091 0.177427
0.012337 0.340994 0.282660
0.048550 0.347125 0.283572
0.083707 0.352262 0.281037
0.118940 0.357492 0.273248
0.163499 0.368516 0.263726
0.265972 0.384539 0.271223
0.412145 0.396030 0.265738
0.508817 0.402195 0.248305
0.585927 0.410593 0.237089
0.655180 0.416153 0.227814
0.718742 0.421468 0.221917
0.779002 0.425205 0.212591
0.836551 0.426881 0.202849
0.888705 0.422186 0.196579
0.934128 0.415098 0.192122
0.973742 0.410481 0.190028
0.008192 0.413446 0.308667
0.042708 0.417785 0.309757
0.077406 0.423495 0.306781
0.112137 0.429938 0.299138
0.152796 0.434826 0.289004
0.244703 0.445275 0.293982
0.396145 0.463667 0.304881
0.499964 0.469525 0.291480
