example_ofxGpuLutCube/bin/data/ofxGpuLutCube/LUT/T4 (faded green).cube
LUT_3D_SIZE 6
0.004037 0.008825 0.013448
0.162151 0.018180 0.003117
0.388598 0.047634 0.008440
0.611393 0.079075 0.018613
0.798094 0.101757 0.032195
0.944662 0.100329 0.036291
0.007037 0.154663 0.066228
0.152230 0.163611 0.048569
0.420598 0.191750 0.032068
0.630090 0.219005 0.037179
0.813255 0.241349 0.046024
0.956461 0.241777 0.047781
0.017269 0.344184 0.140110
0.123663 0.363874 0.125183
0.429992 0.393746 0.119434
0.659498 0.414654 0.081218
0.837364 0.426349 0.077956
0.976496 0.421770 0.075049
0.019213 0.548195 0.216834
0.136892 0.558930 0.199956
0.404913 0.583472 0.213473
0.657476 0.598716 0.170768
0.848791 0.606449 0.116392
0.986253 0.601543 0.103006
0.095166 0.731114 0.229273
0.212930 0.735674 0.228179
0.372757 0.752432 0.229255
0.672269 0.775024 0.190309
0.836662 0.773804 0.147020
0.986394 0.771475 0.134242
0.130451 0.886697 0.189541
0.279392 0.905777 0.200708
0.477890 0.917835 0.173116
0.677233 0.928553 0.162569
0.842865 0.932527 0.160568
0.988074 0.934068 0.161784
0.002886 0.008382 0.130224
0.150943 0.019392 0.130658
0.417623 0.050504 0.131346
0.631887 0.079142 0.137003
0.800570 0.093006 0.144022
0.938909 0.086335 0.148715
0.003009 0.152574 0.207512
0.148111 0.162023 0.171229
0.420184 0.192820 0.159239
0.637141 0.218290 0.154424
0.813505 0.236616 0.159756
0.951564 0.226778 0.159374
0.012337 0.340994 0.282660
0.118940 0.357492 0.273248
0.412145 0.396030 0.265738
0.655180 0.416153 0.227814
0.836551 0.426881 0.202849
0.973742 0.410481 0.190028
0.019419 0.544224 0.345692
0.137116 0.556895 0.338402
0.372504 0.579444 0.341176
0.650694 0.601078 0.321337
0.847732 0.607502 0.273801
0.988697 0.600871 0.229568
0.088940 0.725430 0.364951
0.208345 0.732458 0.360540
0.358606 0.749431 0.361495
0.668473 0.781586 0.353917
0.843292 0.782167 0.319888
0.992418 0.778481 0.268852
0.124136 0.885037 0.332286
0.272711 0.909415 0.356923
0.497257 0.934387 0.363887
0.697279 0.942803 0.339061
0.859432 0.946449 0.328259
0.992786 0.947372 0.332513
0.012489 0.010980 0.246429
0.150414 0.021156 0.255189
0.391661 0.052517 0.270696
0.628024 0.076335 0.268251
0.799803 0.088555 0.270696
0.930832 0.072927 0.266830
0.000521 0.147159 0.356181
0.136501 0.162254 0.314889
0.390128 0.195307 0.315366
0.633679 0.222061 0.302498
0.811678 0.233186 0.298450
0.947688 0.215587 0.288212
0.012063 0.338575 0.412948
0.118873 0.353130 0.418623
0.401217 0.401058 0.410211
0.642133 0.421604 0.392302
0.830874 0.423039 0.365078
0.968388 0.395317 0.328642
0.019915 0.544066 0.480880
0.144825 0.558670 0.486334
0.308337 0.570064 0.467733
0.640794 0.606733 0.469941
0.841817 0.612745 0.437677
0.987660 0.600116 0.389923
0.086173 0.724729 0.505375
0.205195 0.728469 0.500340
0.335579 0.743126 0.492778
0.653657 0.785585 0.504473
0.840099 0.789562 0.485813
0.995064 0.787550 0.446467
0.116780 0.881963 0.473815
0.258416 0.909192 0.501609
0.490544 0.940577 0.521494
0.692115 0.954545 0.514567
0.856618 0.956463 0.499544
0.995871 0.961605 0.509675
0.023207 0.017525 0.377191
0.160956 0.025382 0.385283
0.391014 0.054016 0.407456
0.611366 0.078195 0.423133
0.790293 0.081288 0.412537
0.926123 0.066820 0.410756
0.010361 0.148666 0.469464
0.138377 0.166103 0.454754
0.376373 0.197160 0.462161
0.608778 0.226597 0.474646
0.800492 0.230961 0.450504
0.934764 0.204574 0.432906
0.012847 0.337826 0.548936
0.120983 0.352022 0.560307
0.377486 0.403250 0.547328
0.624668 0.430710 0.548014
0.820064 0.430349 0.527975
0.957219 0.388242 0.488913
0.021312 0.536369 0.605941
0.144295 0.550495 0.614718
0.281696 0.561403 0.601196
0.633319 0.614108 0.612927
0.834295 0.619354 0.596244
0.979444 0.598514 0.559599
0.085903 0.725230 0.647214
0.202848 0.726627 0.640480
0.327226 0.737557 0.634091
0.636202 0.787767 0.652436
0.835090 0.797923 0.644525
0.991609 0.798953 0.619794
0.113595 0.880584 0.620963
0.247625 0.905523 0.641984
0.479580 0.938665 0.664222
0.683797 0.961388 0.679958
0.853387 0.965448 0.666245
0.996355 0.969557 0.672284
0.038110 0.023671 0.517217
0.186154 0.031938 0.526272
0.411694 0.057196 0.543862
0.604955 0.078691 0.569193
0.771394 0.084999 0.578781
0.908531 0.062307 0.566868
0.023647 0.158342 0.589924
0.153217 0.173040 0.586385
0.390557 0.205540 0.599792
0.602995 0.236284 0.616767
0.784415 0.244432 0.619614
0.919750 0.203481 0.593291
0.012079 0.336731 0.666652
0.132175 0.353352 0.676196
0.378971 0.408123 0.675662
0.606551 0.437586 0.688439
0.805843 0.444202 0.689444
0.945584 0.390804 0.654225
0.019307 0.529866 0.734371
0.139709 0.544133 0.746689
0.268246 0.551616 0.734373
0.620010 0.615846 0.750164
0.822292 0.624536 0.750649
0.968584 0.602033 0.732076
0.077322 0.720381 0.781465
0.194682 0.719449 0.776273
0.321775 0.733392 0.775455
0.595369 0.781638 0.796481
0.826972 0.806426 0.805373
0.983149 0.804573 0.798342
0.114058 0.879830 0.771616
0.244402 0.901424 0.783438
0.446206 0.932078 0.803359
0.670021 0.958819 0.822467
0.847027 0.973729 0.829787
0.996041 0.977079 0.830269
0.061354 0.029538 0.667071
0.233698 0.038598 0.667027
0.433605 0.061202 0.680026
0.606621 0.080094 0.702048
0.763693 0.087584 0.717015
0.894238 0.060031 0.727109
0.042483 0.173260 0.710186
0.195204 0.184758 0.712143
0.415974 0.214531 0.728840
0.608834 0.244932 0.747066
0.783135 0.252639 0.759959
0.912406 0.214707 0.757928
0.038209 0.354042 0.789677
0.154572 0.371190 0.788810
0.398324 0.416900 0.801776
0.610161 0.441481 0.817483
0.797825 0.448629 0.830964
0.940238 0.417874 0.831456
0.021217 0.530077 0.861481
0.137452 0.535533 0.866082
0.303167 0.559207 0.863496
0.604037 0.610752 0.884511
0.804952 0.627057 0.904266
0.961235 0.623467 0.908670
0.071152 0.706379 0.904103
0.185835 0.706767 0.905035
0.311972 0.714597 0.909108
0.539820 0.759710 0.933621
0.814286 0.799300 0.953799
0.976048 0.808991 0.957995
0.106809 0.874732 0.917294
0.238219 0.891799 0.927574
0.379409 0.918793 0.944903
0.616295 0.948577 0.965403
0.825117 0.972960 0.980642
0.993268 0.986500 0.988430
