example_ofxGpuLutCube/bin/data/ofxGpuLutCube/LUT/T40 (smooth teal fade).cube
LUT_3D_SIZE 6
0.114258 0.121399 0.117432
0.182416 0.123816 0.118616
0.400634 0.131537 0.117645
0.611756 0.136554 0.122381
0.731720 0.142193 0.128162
0.791773 0.144560 0.131800
0.114777 0.163526 0.123816
0.183811 0.168634 0.125211
0.466545 0.178716 0.123856
0.670680 0.193597 0.131730
0.787745 0.202897 0.139477
0.841950 0.205155 0.142660
0.106457 0.295355 0.145148
0.166038 0.342672 0.155946
0.512212 0.423317 0.179562
0.747903 0.430800 0.171651
0.854529 0.416007 0.166534
0.889938 0.401401 0.165752
0.070044 0.468665 0.177276
0.158460 0.552307 0.205958
0.526280 0.638886 0.250757
0.756316 0.657037 0.264395
0.858479 0.657450 0.262861
0.899018 0.656060 0.261322
0.053235 0.619196 0.223517
0.178967 0.693463 0.254848
0.530877 0.758104 0.290040
0.753895 0.774074 0.301428
0.858081 0.779584 0.308868
0.896693 0.779747 0.310849
0.067635 0.684984 0.243264
0.182566 0.753984 0.273351
0.525740 0.814793 0.307479
0.755656 0.829039 0.317921
0.857105 0.833623 0.324355
0.897352 0.834350 0.326520
0.112451 0.123114 0.157269
0.169895 0.125462 0.160429
0.371914 0.134544 0.162356
0.592596 0.142219 0.168828
0.719392 0.147286 0.176960
0.782935 0.151080 0.182079
0.112759 0.165767 0.166997
0.167080 0.170218 0.169706
0.424986 0.184302 0.171426
0.656167 0.198132 0.182672
0.781862 0.206271 0.192735
0.840405 0.208438 0.197036
0.103046 0.307690 0.201107
0.149166 0.342756 0.207515
0.474386 0.430595 0.236933
0.733441 0.435214 0.226235
0.848460 0.418571 0.219196
0.885657 0.407580 0.218836
0.055639 0.493963 0.254163
0.124060 0.564779 0.274624
0.494095 0.660528 0.312883
0.741500 0.677291 0.323190
0.851193 0.678436 0.323067
0.893258 0.678112 0.321073
0.052682 0.643046 0.305796
0.118637 0.710083 0.328378
0.492118 0.781654 0.363047
0.743334 0.795315 0.371630
0.851708 0.801242 0.380151
0.891968 0.801762 0.381974
0.061525 0.707069 0.323444
0.130180 0.769860 0.344057
0.488491 0.834111 0.376588
0.748662 0.849042 0.385514
0.852488 0.854273 0.393471
0.892420 0.854699 0.395329
0.107251 0.128589 0.261804
0.153091 0.131210 0.273957
0.318445 0.140863 0.293622
0.518980 0.158268 0.315380
0.653884 0.169689 0.325365
0.716860 0.175165 0.326659
0.106763 0.171840 0.288419
0.151350 0.178044 0.295266
0.343036 0.196106 0.328903
0.568657 0.224300 0.355866
0.705961 0.242117 0.369257
0.771105 0.247015 0.371602
0.092855 0.325177 0.368740
0.128700 0.364725 0.391464
0.383037 0.468747 0.471238
0.696936 0.480526 0.475412
0.821827 0.465835 0.460159
0.865352 0.459212 0.453212
0.050816 0.522059 0.447115
0.081549 0.587528 0.476501
0.428141 0.700400 0.534927
0.710826 0.721511 0.553050
0.834905 0.718430 0.537386
0.877587 0.719099 0.531294
0.053717 0.663534 0.493641
0.097688 0.728765 0.518478
0.433494 0.810580 0.557603
0.720403 0.830719 0.572513
0.836445 0.831766 0.579530
0.876487 0.831387 0.577306
0.064348 0.727032 0.503141
0.114395 0.787026 0.527197
0.437864 0.859732 0.562411
0.731426 0.879313 0.579505
0.840022 0.877388 0.584632
0.878015 0.877016 0.586232
0.106317 0.135620 0.389892
0.149792 0.137228 0.412191
0.295882 0.146786 0.450770
0.491494 0.161763 0.479316
0.622969 0.179838 0.501849
0.687661 0.188577 0.512542
0.107280 0.183366 0.433491
0.146312 0.188966 0.452565
0.307176 0.207420 0.507181
0.537444 0.230006 0.538102
0.672444 0.250819 0.562387
0.733648 0.258846 0.571626
0.097543 0.333422 0.527982
0.129712 0.372871 0.561905
0.327535 0.455156 0.641952
0.625722 0.501445 0.680545
0.758463 0.502722 0.681907
0.800830 0.501403 0.684271
0.052277 0.537100 0.605036
0.078730 0.601380 0.644899
0.390064 0.701082 0.711667
0.680501 0.741581 0.746727
0.807054 0.742807 0.747623
0.846417 0.744671 0.749917
0.055647 0.678124 0.652494
0.092397 0.737705 0.683147
0.402852 0.813120 0.736009
0.686907 0.845982 0.760771
0.811491 0.851695 0.769258
0.850705 0.852050 0.772582
0.067976 0.740782 0.665794
0.109537 0.795901 0.696948
0.403450 0.863215 0.746403
0.697288 0.889573 0.769459
0.815261 0.892262 0.774231
0.853510 0.891934 0.775136
0.112799 0.140399 0.501617
0.151920 0.142278 0.526040
0.289784 0.151813 0.566819
0.495392 0.171219 0.598789
0.628235 0.188943 0.623277
0.692968 0.197642 0.634807
0.114098 0.191737 0.541839
0.147032 0.200337 0.564880
0.290486 0.218429 0.616804
0.532059 0.244924 0.651202
0.670850 0.266500 0.676341
0.733398 0.273938 0.684873
0.106989 0.332997 0.628807
0.139113 0.367299 0.661086
0.305173 0.441367 0.729033
0.605079 0.489387 0.771708
0.746325 0.509257 0.782652
0.789610 0.507747 0.784099
0.057919 0.541872 0.703013
0.082405 0.605117 0.743631
0.353970 0.697326 0.803061
0.658625 0.736881 0.838998
0.782880 0.746008 0.847893
0.820811 0.749303 0.849034
0.057832 0.687047 0.752339
0.094894 0.744677 0.783793
0.396102 0.815191 0.829890
0.673679 0.845574 0.855376
0.796442 0.851291 0.862194
0.834100 0.853556 0.864902
0.071059 0.750399 0.766257
0.113367 0.802275 0.795398
0.400109 0.865315 0.839360
0.684754 0.888461 0.862150
0.801970 0.891256 0.866374
0.838999 0.892642 0.868262
0.117152 0.142668 0.555360
0.153043 0.144091 0.577236
0.281576 0.153081 0.617716
0.492648 0.174490 0.651692
0.626301 0.191276 0.676343
0.691089 0.199209 0.685722
0.118976 0.194217 0.594050
0.150348 0.203313 0.616731
0.284733 0.220073 0.664858
0.529025 0.247681 0.702572
0.668793 0.269349 0.728213
0.730638 0.276194 0.736494
0.112468 0.327161 0.673819
0.143905 0.361682 0.706408
0.298778 0.435051 0.771948
0.600721 0.484537 0.814988
0.741712 0.505299 0.826377
0.786109 0.509792 0.829549
0.065989 0.543308 0.754604
0.093349 0.608468 0.794762
0.344972 0.699040 0.849749
0.659160 0.738585 0.882417
0.779716 0.746943 0.888117
0.817233 0.748639 0.889345
0.059416 0.689541 0.802024
0.098192 0.747060 0.832359
0.388385 0.816036 0.874222
0.673625 0.846011 0.896342
0.791583 0.852489 0.902499
0.828686 0.853497 0.904323
0.070323 0.754106 0.817188
0.112792 0.805342 0.844067
0.400800 0.866661 0.883387
0.683125 0.888514 0.902125
0.797473 0.891806 0.905541
0.833610 0.891682 0.905838
