example_ofxGpuLutCube/bin/data/ofxGpuLutCube/LUT/T40 (smooth teal fade).cube
LUT_3D_SIZE 16
0.114258 0.121399 0.117432
0.126947 0.121702 0.117765
0.147266 0.122416 0.118388
0.182416 0.123816 0.118616
0.238025 0.126076 0.118081
0.309703 0.129273 0.118907
0.400634 0.131537 0.117645
0.483901 0.133394 0.118201
0.552748 0.134804 0.120142
0.611756 0.136554 0.122381
0.659546 0.139374 0.124033
0.699040 0.141563 0.126154
0.731720 0.142193 0.128162
0.757251 0.142934 0.129440
0.776794 0.143929 0.130683
0.791773 0.144560 0.131800
0.114400 0.132151 0.118701
0.127083 0.132426 0.119057
0.147868 0.133042 0.119695
0.184444 0.134488 0.119837
0.243033 0.136743 0.118765
0.318670 0.139927 0.119625
0.414861 0.142490 0.118462
0.499729 0.144752 0.119817
0.568203 0.146697 0.121699
0.625763 0.148868 0.123936
0.672816 0.151802 0.125800
0.712928 0.154144 0.128418
0.745383 0.154924 0.130410
0.770543 0.156248 0.131707
0.789385 0.157372 0.132906
0.804207 0.158036 0.134043
0.114710 0.145193 0.120718
0.127110 0.145422 0.120999
0.147367 0.145948 0.121491
0.186008 0.147626 0.121628
0.250009 0.149893 0.119917
0.335205 0.152913 0.120796
0.437305 0.155464 0.120148
0.521835 0.158433 0.122311
0.589328 0.161209 0.123948
0.645253 0.164197 0.126444
0.692161 0.167556 0.128861
0.732031 0.169880 0.131800
0.763801 0.170986 0.133472
0.788279 0.172279 0.134719
0.806842 0.173178 0.135906
0.821296 0.173859 0.136899
0.114777 0.163526 0.123816
0.127013 0.164120 0.124153
0.146015 0.165536 0.124692
0.183811 0.168634 0.125211
0.251475 0.172426 0.122847
0.349935 0.176062 0.123348
0.466545 0.178716 0.123856
0.552003 0.182541 0.126779
0.617198 0.188055 0.128814
0.670680 0.193597 0.131730
0.716752 0.198212 0.135134
0.756095 0.201177 0.137963
0.787745 0.202897 0.139477
0.811244 0.203907 0.140622
0.828382 0.204597 0.141826
0.841950 0.205155 0.142660
0.113747 0.195636 0.128503
0.125774 0.197237 0.129159
0.143393 0.201474 0.130361
0.177495 0.208040 0.131957
0.244604 0.216501 0.132379
0.354924 0.223531 0.130894
0.483022 0.230266 0.130328
0.574442 0.236922 0.133418
0.641722 0.244318 0.138547
0.697068 0.250386 0.142554
0.746241 0.254366 0.145913
0.784237 0.256695 0.147884
0.812997 0.257850 0.149366
0.833670 0.257410 0.150642
0.848765 0.256345 0.151504
0.860751 0.255751 0.152145
0.111318 0.239909 0.134999
0.122681 0.243632 0.135710
0.139499 0.251776 0.137929
0.172276 0.267065 0.141966
0.238442 0.284166 0.146303
0.362749 0.301704 0.149482
0.500622 0.310157 0.145240
0.597439 0.317249 0.143350
0.668653 0.322236 0.145010
0.724671 0.326190 0.148749
0.771793 0.329322 0.152930
0.808224 0.329392 0.155689
0.833744 0.327879 0.157802
0.850050 0.326067 0.159442
0.863400 0.324567 0.160931
0.874927 0.323450 0.161932
0.106457 0.295355 0.145148
0.117909 0.301859 0.146320
0.135075 0.316319 0.149331
0.166038 0.342672 0.155946
0.239259 0.374143 0.163953
0.367631 0.405817 0.174296
0.512212 0.423317 0.179562
0.611253 0.427364 0.175023
0.686994 0.430533 0.172819
0.747903 0.430800 0.171651
0.793455 0.427175 0.168787
0.829143 0.422641 0.167522
0.854529 0.416007 0.166534
0.869007 0.409812 0.165870
0.879968 0.404915 0.165635
0.889938 0.401401 0.165752
0.098822 0.351713 0.155068
0.111078 0.361882 0.157326
0.129362 0.383234 0.161940
0.163165 0.419290 0.170205
0.247055 0.459187 0.182859
0.378673 0.496532 0.198894
0.515606 0.512044 0.208105
0.617774 0.523757 0.214501
0.695262 0.526531 0.212242
0.755296 0.525627 0.210398
0.802868 0.521950 0.208194
0.838293 0.517054 0.204656
0.863507 0.512154 0.200502
0.880328 0.507241 0.196767
0.891674 0.503444 0.194346
0.900935 0.501077 0.192863
0.085685 0.408978 0.165482
0.101583 0.423800 0.168771
0.123047 0.449468 0.174227
0.160448 0.487880 0.184319
0.256663 0.528602 0.203548
0.395989 0.565744 0.222474
0.519895 0.579739 0.230906
0.619621 0.588826 0.237800
0.698443 0.595586 0.241385
0.755755 0.597033 0.240633
0.800637 0.596676 0.239031
0.835680 0.596209 0.238216
0.861164 0.594889 0.236722
0.878252 0.592788 0.234833
0.891056 0.591377 0.233506
0.901884 0.590443 0.232465
0.070044 0.468665 0.177276
0.087589 0.486725 0.182247
0.111972 0.513414 0.190922
0.158460 0.552307 0.205958
0.265332 0.591771 0.225386
0.407270 0.626980 0.244041
0.526280 0.638886 0.250757
0.618332 0.644904 0.255334
0.698413 0.652549 0.261314
0.756316 0.657037 0.264395
0.797595 0.658813 0.265292
0.832378 0.658579 0.264202
0.858479 0.657450 0.262861
0.875756 0.656475 0.262121
0.888440 0.655877 0.261485
0.899018 0.656060 0.261322
0.054789 0.527039 0.192647
0.071461 0.546845 0.200152
0.100895 0.574381 0.210750
0.163149 0.610846 0.226117
0.275149 0.646367 0.244186
0.414626 0.677253 0.260688
0.531616 0.688939 0.267550
0.619120 0.694223 0.271648
0.697563 0.700764 0.276572
0.756155 0.705776 0.280426
0.797862 0.709269 0.283169
0.830890 0.709952 0.284934
0.856256 0.709389 0.284873
0.873765 0.708716 0.284205
0.886786 0.708429 0.283736
0.897586 0.708515 0.283519
0.052216 0.578906 0.209526
0.067433 0.600769 0.218622
0.092377 0.627246 0.229402
0.170248 0.658305 0.242714
0.284853 0.688780 0.259139
0.418950 0.716218 0.273955
0.532449 0.727518 0.280009
0.618413 0.733111 0.284175
0.695480 0.739460 0.288008
0.754702 0.744303 0.292070
0.798058 0.748233 0.295595
0.832649 0.749849 0.298014
0.856919 0.749842 0.299490
0.873074 0.749566 0.300073
0.885628 0.749453 0.300100
0.896474 0.749607 0.299888
0.053235 0.619196 0.223517
0.069413 0.640260 0.232181
0.096074 0.664814 0.241763
0.178967 0.693463 0.254848
0.289796 0.720402 0.269712
0.419550 0.746537 0.284159
0.530877 0.758104 0.290040
0.616901 0.762974 0.293685
0.694587 0.768978 0.297476
0.753895 0.774074 0.301428
0.796694 0.777224 0.304720
0.832569 0.778930 0.307295
0.858081 0.779584 0.308868
0.874098 0.779458 0.309646
0.886220 0.779443 0.310195
0.896693 0.779747 0.310849
0.057062 0.646906 0.232184
0.076261 0.667939 0.240745
0.103802 0.691955 0.250533
0.182260 0.718933 0.262939
0.291083 0.744490 0.277033
0.418762 0.768705 0.290885
0.529210 0.781892 0.297686
0.614782 0.786244 0.301055
0.694446 0.791783 0.304789
0.754566 0.797148 0.308823
0.796187 0.800064 0.311823
0.831665 0.801470 0.314166
0.857846 0.802193 0.315695
0.874682 0.802536 0.316603
0.886923 0.802575 0.317184
0.897305 0.802772 0.317775
0.062653 0.668091 0.238412
0.082431 0.688612 0.247037
0.108535 0.711831 0.256782
0.181983 0.738449 0.268874
0.291513 0.762602 0.281925
0.417072 0.785826 0.295758
0.527324 0.800387 0.303452
0.613455 0.804622 0.306478
0.694920 0.809536 0.310050
0.755266 0.814880 0.314127
0.796638 0.817772 0.317117
0.831140 0.819122 0.319309
0.857237 0.819573 0.320674
0.874509 0.820007 0.321620
0.887081 0.820189 0.322334
0.897435 0.820383 0.322920
0.067635 0.684984 0.243264
0.086563 0.704829 0.251936
0.111981 0.727770 0.261604
0.182566 0.753984 0.273351
0.292244 0.777185 0.285663
0.416170 0.799681 0.299463
0.525740 0.814793 0.307479
0.613024 0.819292 0.310476
0.695199 0.823815 0.313953
0.755656 0.829039 0.317921
0.797218 0.831786 0.320906
0.831259 0.833212 0.323082
0.857105 0.833623 0.324355
0.874444 0.834003 0.325235
0.886979 0.834211 0.325958
0.897352 0.834350 0.326520
0.113729 0.121554 0.127071
0.126173 0.121891 0.127531
0.144988 0.122483 0.127951
0.179125 0.123987 0.128856
0.235318 0.126267 0.128630
0.308225 0.129579 0.129613
0.400606 0.131868 0.128038
0.484689 0.134210 0.129188
0.553466 0.135524 0.131253
0.613245 0.137140 0.133524
0.660869 0.139886 0.135472
0.701292 0.141948 0.137732
0.733927 0.142514 0.139838
0.759504 0.143615 0.141447
0.779190 0.144608 0.142963
0.794383 0.145309 0.144105
0.113963 0.132220 0.128226
0.126207 0.132345 0.128518
0.145342 0.132911 0.129045
0.180107 0.134442 0.129852
0.237545 0.136694 0.129163
0.312786 0.140031 0.130295
0.408553 0.142511 0.128898
0.492919 0.145081 0.130415
0.563714 0.146854 0.132349
0.623709 0.148919 0.134836
0.671768 0.151900 0.136947
0.712181 0.154053 0.139516
0.744967 0.154918 0.141808
0.770732 0.156489 0.143436
0.790281 0.157641 0.144848
0.805227 0.158405 0.146041
0.114197 0.145269 0.130121
0.126202 0.145282 0.130295
0.145276 0.145784 0.130875
0.182071 0.147491 0.131620
0.243745 0.149862 0.130479
0.327205 0.152895 0.131293
0.429524 0.155427 0.130327
0.513903 0.158679 0.132788
0.584110 0.161239 0.134529
0.642916 0.164177 0.137377
0.690917 0.167374 0.139851
0.731501 0.169538 0.142932
0.764139 0.170861 0.145073
0.789345 0.172384 0.146553
0.807886 0.173319 0.147814
0.822219 0.173913 0.148851
0.114298 0.163889 0.133294
0.126121 0.163754 0.133479
0.143792 0.165264 0.134117
0.179760 0.168118 0.134995
0.245483 0.172037 0.133383
0.340971 0.175689 0.133558
0.455604 0.178938 0.134200
0.540680 0.183092 0.137376
0.609652 0.188489 0.139473
0.665894 0.194124 0.142702
0.713612 0.198371 0.146098
0.753237 0.201465 0.149303
0.785599 0.203265 0.151180
0.809988 0.204448 0.152499
0.827641 0.204921 0.153694
0.841635 0.205480 0.154765
0.113358 0.196324 0.138208
0.124897 0.196333 0.138380
0.141331 0.200485 0.139596
0.173737 0.206825 0.141264
0.238403 0.215271 0.141948
0.345162 0.222056 0.140762
0.473085 0.229216 0.141300
0.566376 0.235628 0.143606
0.636690 0.243038 0.148855
0.694105 0.249028 0.153077
0.743848 0.253304 0.156697
0.782788 0.255534 0.159139
0.812489 0.256796 0.160730
0.833397 0.256857 0.162050
0.848637 0.256142 0.163007
0.860726 0.255822 0.163762
0.110792 0.241926 0.145152
0.122230 0.242006 0.145049
0.137923 0.249868 0.146945
0.168661 0.264892 0.150934
0.231987 0.281493 0.155801
0.350857 0.299132 0.159744
0.490390 0.307952 0.155208
0.587688 0.316080 0.155269
0.663281 0.321165 0.157579
0.721536 0.324865 0.160903
0.768702 0.327576 0.164990
0.806037 0.327922 0.167429
0.832291 0.326853 0.169681
0.848778 0.324750 0.171058
0.861891 0.323203 0.172314
0.873702 0.322320 0.173407
0.105756 0.298392 0.155783
0.117478 0.299556 0.155903
0.133531 0.313702 0.158544
0.161987 0.339624 0.164753
0.231344 0.371202 0.173626
0.356966 0.403061 0.185052
0.502744 0.421245 0.191487
0.602889 0.426869 0.188051
0.681766 0.429116 0.184993
0.745007 0.428528 0.183636
0.791741 0.424507 0.180618
0.827647 0.419826 0.179820
0.852303 0.413821 0.179195
0.867366 0.408278 0.179280
0.878149 0.403896 0.179322
0.887821 0.400745 0.179443
0.097644 0.355377 0.165620
0.110115 0.359466 0.166631
0.128062 0.379975 0.171158
0.158993 0.416320 0.179874
0.239661 0.456607 0.193748
0.369622 0.494217 0.209937
0.506663 0.510294 0.218965
0.609181 0.521485 0.225457
0.689770 0.524728 0.223517
0.752179 0.524689 0.221912
0.800110 0.522134 0.220247
0.835754 0.517982 0.217234
0.860969 0.513202 0.213213
0.878238 0.508929 0.209819
0.890265 0.505646 0.207585
0.899896 0.503545 0.206623
0.082933 0.414029 0.177275
0.099203 0.423047 0.179443
0.120419 0.448040 0.185458
0.155162 0.486759 0.195006
0.247491 0.527363 0.213349
0.386005 0.565292 0.233170
0.511108 0.580455 0.241939
0.610882 0.588442 0.248608
0.692920 0.596874 0.253454
0.750909 0.599877 0.253980
0.796533 0.600309 0.252611
0.832818 0.599343 0.251557
0.858752 0.597889 0.250256
0.876235 0.596419 0.248928
0.889091 0.595181 0.247706
0.899863 0.594757 0.246937
0.066751 0.475165 0.191014
0.083580 0.487364 0.194259
0.107786 0.514179 0.202515
0.150520 0.552615 0.216832
0.254725 0.592659 0.235781
0.396842 0.628121 0.255402
0.517819 0.641446 0.262820
0.609050 0.646794 0.267180
0.693108 0.655377 0.273940
0.751445 0.661220 0.277762
0.793844 0.663108 0.279213
0.829360 0.662741 0.278056
0.855875 0.661440 0.276641
0.873635 0.660713 0.275902
0.886387 0.660302 0.275553
0.897097 0.660517 0.275442
0.052751 0.533670 0.207045
0.069347 0.549052 0.212131
0.096268 0.576474 0.222820
0.148130 0.613035 0.237540
0.264465 0.648786 0.255110
0.402684 0.679764 0.272496
0.521481 0.692270 0.279752
0.609111 0.697586 0.284080
0.691655 0.704436 0.289122
0.751368 0.710303 0.293607
0.794270 0.713963 0.296592
0.828363 0.714637 0.298484
0.853864 0.714150 0.298766
0.871625 0.713605 0.298297
0.884752 0.713425 0.297854
0.895616 0.713673 0.297608
0.051672 0.585865 0.223764
0.066003 0.603918 0.230876
0.088304 0.630202 0.241433
0.155456 0.662273 0.254755
0.273999 0.692351 0.270420
0.406636 0.720089 0.286341
0.520760 0.732070 0.292549
0.609615 0.737992 0.297082
0.690562 0.744115 0.301093
0.750907 0.749799 0.305493
0.794475 0.753526 0.308995
0.829857 0.755255 0.311523
0.854964 0.755180 0.313055
0.871471 0.754971 0.313879
0.884013 0.754976 0.314089
0.894719 0.755265 0.314158
0.052927 0.626021 0.237225
0.068399 0.643978 0.244617
0.092111 0.668340 0.253987
0.162333 0.697973 0.266701
0.278826 0.724680 0.281036
0.407761 0.750529 0.296451
0.519560 0.763609 0.303180
0.608224 0.768782 0.307035
0.690072 0.774308 0.311066
0.750879 0.780089 0.315294
0.793426 0.783036 0.318462
0.829436 0.784640 0.320864
0.855581 0.785223 0.322412
0.872523 0.785197 0.323352
0.884690 0.785268 0.323974
0.895133 0.785616 0.324593
0.057672 0.653691 0.245794
0.074847 0.672065 0.253320
0.099588 0.695473 0.262732
0.166492 0.723861 0.275191
0.280690 0.748906 0.288371
0.406610 0.772774 0.303179
0.518240 0.787525 0.311295
0.606600 0.792439 0.314560
0.690183 0.797237 0.318473
0.751837 0.803278 0.322715
0.793532 0.806193 0.325740
0.828660 0.807389 0.327848
0.855107 0.807881 0.329257
0.872832 0.808270 0.330228
0.885243 0.808275 0.330806
0.895708 0.808556 0.331391
0.062560 0.674814 0.251995
0.080830 0.692903 0.259722
0.104288 0.715429 0.268952
0.166362 0.743225 0.281445
0.281015 0.767260 0.293502
0.405136 0.789804 0.308040
0.516311 0.805517 0.316875
0.605817 0.810693 0.319879
0.690301 0.814955 0.323749
0.752430 0.821038 0.327899
0.794396 0.823851 0.330994
0.828539 0.824962 0.332995
0.854720 0.825366 0.334266
0.872472 0.825669 0.335085
0.885301 0.825910 0.335783
0.895563 0.826054 0.336462
0.067489 0.691591 0.256835
0.084734 0.709156 0.264580
0.108353 0.731310 0.273737
0.168260 0.758590 0.286020
0.281617 0.781918 0.297418
0.404383 0.803601 0.311713
0.514784 0.819740 0.320909
0.605886 0.825407 0.324015
0.690631 0.829282 0.327582
0.753039 0.835119 0.331695
0.795297 0.837778 0.334726
0.829021 0.838939 0.336656
0.854790 0.839417 0.338017
0.872451 0.839688 0.338770
0.885172 0.839864 0.339329
0.895551 0.840013 0.339902
0.113231 0.122090 0.138686
0.124985 0.122508 0.139232
0.143027 0.123011 0.139726
0.174907 0.124423 0.140673
0.228157 0.126623 0.140740
0.300924 0.130128 0.141896
0.393963 0.132526 0.140777
0.479668 0.135017 0.141898
0.549148 0.136944 0.144883
0.610485 0.138238 0.146890
0.659107 0.140804 0.149359
0.699783 0.142733 0.151498
0.732870 0.143228 0.153673
0.758538 0.144477 0.155613
0.778374 0.145779 0.157383
0.794192 0.146390 0.158751
0.113462 0.132663 0.140049
0.125081 0.132887 0.140320
0.142755 0.133405 0.140892
0.174486 0.134765 0.141854
0.230502 0.136994 0.141928
0.306513 0.140391 0.142876
0.402570 0.143009 0.141576
0.489827 0.145888 0.143187
0.561121 0.147982 0.145801
0.622502 0.149801 0.148113
0.671328 0.152723 0.150697
0.712770 0.154578 0.153308
0.745697 0.155489 0.155740
0.771434 0.157306 0.157822
0.791139 0.158531 0.159362
0.806355 0.159200 0.160611
0.113749 0.145571 0.142009
0.125260 0.145694 0.142156
0.142651 0.146104 0.142683
0.175822 0.147649 0.143676
0.235547 0.150158 0.143409
0.318019 0.153290 0.144011
0.420756 0.155898 0.142837
0.506766 0.159341 0.145498
0.579134 0.161703 0.147243
0.640525 0.164549 0.150594
0.689735 0.167701 0.153364
0.731039 0.169596 0.156460
0.763971 0.171080 0.159003
0.789472 0.172790 0.160806
0.808458 0.173713 0.162270
0.822730 0.174363 0.163380
0.113842 0.164624 0.145412
0.125334 0.164481 0.145490
0.141720 0.165619 0.146098
0.174322 0.168382 0.147251
0.238879 0.172525 0.146351
0.330619 0.176383 0.146041
0.442385 0.180575 0.146691
0.529606 0.184924 0.150273
0.602695 0.189769 0.152508
0.661920 0.195144 0.156218
0.711126 0.199305 0.159729
0.751692 0.202111 0.163132
0.784753 0.203984 0.165555
0.809969 0.205153 0.167060
0.827768 0.205656 0.168367
0.841532 0.206103 0.169471
0.112812 0.197926 0.150977
0.124178 0.197722 0.150951
0.139649 0.200506 0.151688
0.168111 0.207048 0.153389
0.231326 0.215071 0.154220
0.334748 0.221999 0.152165
0.462940 0.229326 0.154241
0.556234 0.235581 0.156449
0.631430 0.243199 0.161697
0.689815 0.249482 0.165992
0.739732 0.253895 0.169971
0.779521 0.256388 0.172921
0.810397 0.257804 0.174897
0.832009 0.258012 0.176399
0.847292 0.257724 0.177423
0.859579 0.257656 0.178326
0.110087 0.244309 0.158921
0.121491 0.244248 0.158469
0.136440 0.249453 0.159395
0.162646 0.264492 0.162703
0.224440 0.281433 0.168329
0.338079 0.299019 0.173307
0.479972 0.307698 0.168734
0.577733 0.315365 0.168958
0.655975 0.321262 0.172869
0.716830 0.325163 0.176377
0.765655 0.327722 0.180118
0.803365 0.327810 0.181966
0.830151 0.326630 0.183975
0.847243 0.324737 0.185268
0.860511 0.322983 0.186275
0.872544 0.322173 0.187272
0.104744 0.302776 0.170848
0.116405 0.303626 0.170626
0.131269 0.313163 0.171883
0.157208 0.339620 0.177402
0.223466 0.371332 0.187250
0.343283 0.404209 0.199994
0.490566 0.422666 0.208347
0.591789 0.428153 0.205703
0.674922 0.430006 0.200880
0.739789 0.427960 0.198702
0.788760 0.423874 0.196085
0.825301 0.419543 0.195414
0.850015 0.413640 0.194601
0.866103 0.408083 0.194386
0.876768 0.404035 0.194706
0.886098 0.401655 0.195069
0.095464 0.361285 0.182217
0.107851 0.364761 0.182508
0.123977 0.380091 0.185393
0.154424 0.416449 0.194134
0.230603 0.457611 0.209134
0.357417 0.495651 0.226301
0.494329 0.512222 0.235621
0.597281 0.523229 0.242317
0.681779 0.526533 0.241281
0.747719 0.525311 0.237543
0.796849 0.524313 0.236063
0.833917 0.521084 0.233215
0.858815 0.516325 0.229082
0.876146 0.512383 0.225894
0.888439 0.509679 0.223680
0.898637 0.508055 0.222742
0.078639 0.421225 0.197393
0.093551 0.429341 0.198983
0.113978 0.450329 0.203163
0.149837 0.488915 0.212281
0.235194 0.531018 0.229139
0.372601 0.569073 0.248637
0.500065 0.584465 0.256576
0.599217 0.591039 0.261884
0.685091 0.600542 0.268226
0.746195 0.604620 0.269738
0.792721 0.605734 0.268368
0.830359 0.604671 0.266931
0.856677 0.603204 0.265486
0.874408 0.601836 0.264449
0.887252 0.601023 0.263603
0.898080 0.600789 0.262976
0.061012 0.483549 0.214236
0.074534 0.495031 0.216793
0.099472 0.517745 0.223346
0.142809 0.556522 0.235141
0.241846 0.597527 0.250543
0.383229 0.632923 0.270218
0.506901 0.647338 0.277844
0.598412 0.652629 0.282208
0.684843 0.660146 0.288133
0.747507 0.667156 0.292919
0.791354 0.669339 0.294982
0.827006 0.669051 0.294175
0.853568 0.667876 0.292635
0.871652 0.667071 0.291749
0.884495 0.666994 0.291484
0.895108 0.667322 0.291565
0.051228 0.542527 0.233197
0.062969 0.557545 0.237709
0.086881 0.581025 0.245370
0.132306 0.618241 0.257224
0.252353 0.654180 0.270231
0.388838 0.685139 0.287522
0.509484 0.698833 0.295150
0.599878 0.704379 0.299734
0.683894 0.710246 0.304137
0.747856 0.716465 0.308968
0.791845 0.720395 0.312391
0.826588 0.721081 0.314353
0.852130 0.720660 0.314955
0.869879 0.720184 0.314584
0.882918 0.720101 0.314266
0.893779 0.720495 0.314117
0.051505 0.594670 0.251182
0.062046 0.612096 0.256909
0.081088 0.634754 0.264475
0.136386 0.667968 0.275520
0.261888 0.698590 0.287858
0.393231 0.725423 0.301714
0.508758 0.739405 0.308807
0.599896 0.745050 0.312761
0.683920 0.750585 0.316862
0.748002 0.755973 0.321248
0.791897 0.759518 0.324773
0.827571 0.761558 0.327390
0.853053 0.761658 0.328953
0.870232 0.761549 0.329859
0.882594 0.761610 0.330424
0.893234 0.761996 0.330705
0.053420 0.633805 0.264054
0.066902 0.651323 0.269687
0.087551 0.673183 0.277021
0.141665 0.703676 0.287937
0.266680 0.731337 0.299539
0.393909 0.755678 0.312352
0.507775 0.770662 0.319870
0.598265 0.776045 0.322991
0.683834 0.780902 0.327029
0.748787 0.786391 0.331238
0.791342 0.789499 0.334547
0.827018 0.791291 0.336904
0.853432 0.792059 0.338564
0.870919 0.792079 0.339517
0.883389 0.792199 0.340217
0.893812 0.792631 0.340854
0.058614 0.661359 0.271592
0.072610 0.679223 0.277819
0.094085 0.700257 0.285128
0.144885 0.729322 0.296069
0.268470 0.755745 0.307037
0.392566 0.778055 0.319223
0.506030 0.794063 0.327715
0.597567 0.799925 0.330490
0.684073 0.804040 0.334238
0.749708 0.809611 0.338443
0.792290 0.812784 0.341721
0.826732 0.814075 0.343850
0.853050 0.814596 0.345294
0.871019 0.814996 0.346276
0.883721 0.815138 0.346979
0.894193 0.815396 0.347539
0.062766 0.682301 0.277365
0.077541 0.699623 0.283327
0.099814 0.719978 0.290587
0.146783 0.748425 0.301879
0.269384 0.773874 0.312060
0.391882 0.795176 0.323870
0.504511 0.811541 0.332915
0.597753 0.818214 0.335833
0.684721 0.821724 0.339192
0.750439 0.827103 0.343331
0.793107 0.830049 0.346484
0.826994 0.831414 0.348539
0.853003 0.831948 0.349946
0.870857 0.832289 0.350791
0.883706 0.832441 0.351331
0.894079 0.832576 0.352106
0.066615 0.698994 0.282035
0.081631 0.715472 0.287753
0.103621 0.735703 0.295041
0.149368 0.763600 0.306112
0.270342 0.788499 0.316146
0.391582 0.808969 0.327488
0.503677 0.825213 0.336431
0.598139 0.832668 0.339907
0.685668 0.835941 0.342884
0.751245 0.841005 0.346962
0.794133 0.843737 0.350085
0.827852 0.845144 0.352137
0.853261 0.845801 0.353584
0.870985 0.846077 0.354405
0.883698 0.846287 0.354951
0.894104 0.846414 0.355504
0.112451 0.123114 0.157269
0.123867 0.123608 0.158159
0.140351 0.124302 0.159190
0.169895 0.125462 0.160429
0.218844 0.127662 0.161178
0.285026 0.131166 0.162030
0.371914 0.134544 0.162356
0.460206 0.137495 0.162775
0.530102 0.140530 0.166552
0.592596 0.142219 0.168828
0.644562 0.144371 0.172373
0.685436 0.146266 0.174767
0.719392 0.147286 0.176960
0.745844 0.148154 0.178724
0.766609 0.149787 0.180417
0.782935 0.151080 0.182079
0.112623 0.133568 0.159067
0.124025 0.133881 0.159067
0.140301 0.134578 0.160124
0.169294 0.135751 0.161568
0.220049 0.138006 0.162404
0.289813 0.141450 0.163519
0.381494 0.145041 0.163453
0.470641 0.148049 0.164276
0.543247 0.151507 0.168616
0.606110 0.153253 0.170505
0.657686 0.155783 0.174426
0.700114 0.157681 0.177123
0.734287 0.158654 0.179478
0.760628 0.160053 0.181589
0.780946 0.161659 0.183279
0.796973 0.162764 0.184830
0.112812 0.146395 0.162090
0.124147 0.146577 0.161865
0.140126 0.147368 0.162651
0.168334 0.148748 0.164235
0.222430 0.151353 0.165545
0.299403 0.154833 0.166744
0.398969 0.158224 0.165957
0.487725 0.161442 0.167184
0.561994 0.165312 0.171855
0.627374 0.167820 0.174415
0.678069 0.170964 0.178644
0.721236 0.172754 0.181697
0.755233 0.174083 0.184226
0.781213 0.175632 0.186313
0.801123 0.176800 0.187817
0.816637 0.177559 0.189232
0.112759 0.165767 0.166997
0.124060 0.165683 0.166754
0.139361 0.167231 0.167673
0.167080 0.170218 0.169706
0.227111 0.174725 0.171383
0.313466 0.179314 0.171863
0.424986 0.184302 0.171426
0.515801 0.189207 0.175097
0.592471 0.193925 0.178674
0.656167 0.198132 0.182672
0.707027 0.202374 0.187036
0.748710 0.204667 0.190333
0.781862 0.206271 0.192735
0.807602 0.207483 0.194612
0.826369 0.208045 0.195925
0.840405 0.208438 0.197036
0.111759 0.200312 0.174803
0.122925 0.200112 0.174344
0.137794 0.202822 0.175372
0.161942 0.209337 0.177895
0.222358 0.218181 0.181421
0.322834 0.225154 0.177743
0.450431 0.233271 0.179479
0.543138 0.239586 0.182661
0.621920 0.247249 0.188692
0.683188 0.253089 0.193452
0.733764 0.257940 0.197852
0.774351 0.260745 0.201278
0.806407 0.261796 0.203527
0.829636 0.262119 0.204999
0.846279 0.262034 0.205897
0.859231 0.262300 0.206928
0.108618 0.247807 0.186253
0.119980 0.247687 0.185553
0.134409 0.253182 0.186852
0.155696 0.266488 0.189864
0.217048 0.285964 0.196645
0.321400 0.303518 0.201110
0.465185 0.313342 0.195165
0.566309 0.319864 0.193962
0.648786 0.325890 0.198656
0.711298 0.329712 0.202413
0.761441 0.331969 0.206029
0.800152 0.331873 0.207774
0.827981 0.330871 0.208975
0.846131 0.328989 0.209961
0.860230 0.327487 0.210975
0.872375 0.326651 0.212074
0.103046 0.307690 0.201107
0.114472 0.308873 0.200945
0.128471 0.319121 0.202848
0.149166 0.342756 0.207515
0.215375 0.377384 0.217761
0.325923 0.409804 0.228226
0.474386 0.430595 0.236933
0.578564 0.435237 0.234617
0.665240 0.437775 0.229960
0.733441 0.435214 0.226235
0.785519 0.430294 0.222678
0.823403 0.424843 0.220129
0.848460 0.418571 0.219196
0.865185 0.413150 0.218341
0.876405 0.409726 0.218465
0.885657 0.407580 0.218836
0.092146 0.368611 0.215069
0.104430 0.372530 0.215456
0.118523 0.388043 0.219191
0.142970 0.421030 0.227928
0.218105 0.464673 0.241594
0.341877 0.502322 0.255661
0.479244 0.521112 0.263506
0.583457 0.530168 0.269546
