example_ofxGpuLutCube/bin/data/ofxGpuLutCube/LUT/T41 (hard teal fade).cube
LUT_3D_SIZE 16
0.086243 0.054596 0.038849
0.109688 0.053955 0.038149
0.133939 0.053326 0.037799
0.159662 0.053058 0.037250
0.190027 0.052826 0.036493
0.228567 0.052236 0.035329
0.284985 0.051727 0.033154
0.390965 0.051860 0.029244
0.555219 0.058302 0.035875
0.666944 0.067395 0.049859
0.737009 0.071818 0.058482
0.787296 0.074729 0.064679
0.827081 0.076874 0.069079
0.861147 0.078813 0.072886
0.884926 0.079307 0.075028
0.906424 0.079710 0.076349
0.086841 0.078271 0.039571
0.109836 0.077635 0.038923
0.133659 0.076953 0.038223
0.159630 0.076095 0.037802
0.189996 0.075391 0.036732
0.228139 0.074843 0.035382
0.284409 0.074263 0.033095
0.389327 0.074810 0.029185
0.553756 0.081296 0.035303
0.665528 0.090644 0.048901
0.735566 0.095191 0.057376
0.785802 0.098295 0.063282
0.825526 0.100499 0.067788
0.859464 0.102548 0.071404
0.883172 0.103107 0.073492
0.904687 0.103490 0.074464
0.088092 0.102622 0.040375
0.110043 0.102017 0.039840
0.133843 0.101325 0.039246
0.159651 0.100485 0.038467
0.189830 0.099673 0.037539
0.228112 0.098781 0.036027
0.284016 0.098056 0.033626
0.388301 0.098436 0.029390
0.551877 0.104813 0.034866
0.663786 0.114469 0.048189
0.734079 0.119321 0.056347
0.784476 0.122535 0.062160
0.824195 0.124979 0.066522
0.858017 0.127268 0.070008
0.881765 0.127892 0.072038
0.903276 0.128298 0.073133
0.089527 0.127984 0.040973
0.110972 0.127897 0.040705
0.133892 0.127269 0.040170
0.159713 0.126436 0.039356
0.190007 0.125361 0.038414
0.228153 0.124434 0.036881
0.284205 0.123933 0.034238
0.389909 0.124531 0.029866
0.553829 0.131566 0.036162
0.664205 0.140985 0.048861
0.733643 0.145514 0.056527
0.783669 0.148179 0.061920
0.823146 0.150127 0.065921
0.857025 0.152123 0.069213
0.880899 0.152507 0.071032
0.902310 0.152983 0.072029
0.090717 0.156547 0.041168
0.112192 0.156648 0.041266
0.134163 0.156548 0.041352
0.159652 0.155981 0.040870
0.189935 0.154861 0.039891
0.228178 0.153692 0.038224
0.285311 0.153090 0.035314
0.392541 0.153762 0.031438
0.557241 0.161057 0.038697
0.666528 0.170578 0.051150
0.735114 0.175366 0.058804
0.784675 0.178082 0.064149
0.823818 0.179924 0.068001
0.857322 0.181410 0.071071
0.881026 0.181169 0.072165
0.902103 0.180086 0.072341
0.092580 0.189057 0.042511
0.114086 0.189193 0.042483
0.135799 0.189205 0.042595
0.159814 0.189286 0.042812
0.189905 0.189072 0.042818
0.228027 0.187856 0.041199
0.288491 0.186625 0.037797
0.404217 0.186721 0.034271
0.567244 0.194003 0.043015
0.673731 0.203251 0.055174
0.739939 0.208184 0.063070
0.788136 0.210905 0.068169
0.826485 0.212610 0.071987
0.859378 0.213829 0.075078
0.883118 0.213682 0.076127
0.903904 0.212732 0.076152
0.096454 0.231939 0.045215
0.117930 0.232050 0.045255
0.139533 0.232064 0.045459
0.162960 0.231874 0.045608
0.191373 0.232595 0.045973
0.229362 0.234467 0.046605
0.294455 0.233925 0.043340
0.433852 0.231863 0.037821
0.591178 0.238375 0.050568
0.689310 0.244697 0.062187
0.750358 0.247984 0.069328
0.796370 0.249963 0.074297
0.833000 0.250924 0.077833
0.864435 0.251831 0.080479
0.887998 0.251111 0.081681
0.908394 0.249276 0.081732
0.113334 0.328725 0.053324
0.134614 0.328576 0.053411
0.157331 0.328439 0.053614
0.180170 0.327712 0.053628
0.205666 0.328950 0.053890
0.242061 0.339161 0.056340
0.318845 0.361021 0.058173
0.500364 0.362752 0.055861
0.647135 0.347172 0.065215
0.725565 0.334953 0.073445
0.775452 0.324726 0.079578
0.814631 0.317815 0.083833
0.848014 0.314642 0.087111
0.876710 0.312328 0.089426
0.899377 0.309127 0.090308
0.918848 0.304928 0.090081
0.146228 0.506337 0.080536
0.168821 0.506483 0.080705
0.191930 0.506543 0.080725
0.215212 0.506397 0.080792
0.238972 0.505838 0.080582
0.272826 0.517740 0.084604
0.349193 0.545812 0.095767
0.571135 0.590485 0.106681
0.699067 0.589570 0.114100
0.773415 0.570827 0.113475
0.821292 0.550566 0.112261
0.855401 0.533039 0.112542
0.884071 0.520870 0.114327
0.910440 0.511056 0.116001
0.932834 0.498026 0.116038
0.952177 0.481890 0.114459
0.171600 0.648621 0.141779
0.194855 0.649007 0.141961
0.218475 0.649501 0.142200
0.242717 0.649848 0.142250
0.267690 0.650197 0.142143
0.297416 0.653166 0.143518
0.366251 0.669594 0.150464
0.583493 0.705817 0.165463
0.714561 0.718029 0.174070
0.781272 0.708575 0.175577
0.830618 0.698354 0.170626
0.867699 0.690135 0.166424
0.895741 0.682483 0.164944
0.920868 0.676692 0.165584
0.944021 0.670909 0.164351
0.965050 0.664686 0.160597
0.191254 0.737447 0.215078
0.215074 0.737876 0.214808
0.239489 0.738266 0.214481
0.264575 0.738780 0.214523
0.290518 0.739327 0.214419
0.317939 0.739980 0.214186
0.369969 0.746932 0.218845
0.558684 0.772117 0.232749
0.710463 0.785111 0.243329
0.783260 0.786056 0.250211
0.828671 0.779270 0.248508
0.867752 0.774603 0.243887
0.897042 0.770503 0.241870
0.921572 0.766892 0.243074
0.944900 0.764061 0.243120
0.965966 0.761852 0.239389
0.209009 0.795648 0.291402
0.233579 0.796105 0.291222
0.258647 0.796628 0.291198
0.284415 0.797173 0.291094
0.311927 0.797712 0.290770
0.341644 0.798303 0.290233
0.379848 0.799965 0.289901
0.534052 0.816995 0.300141
0.694872 0.829594 0.324578
0.778379 0.833286 0.330286
0.825353 0.831567 0.333476
0.862332 0.828062 0.332574
0.895238 0.825841 0.331194
0.921624 0.823180 0.332295
0.945432 0.821204 0.332173
0.966385 0.820134 0.329566
0.243244 0.841357 0.358844
0.270641 0.842108 0.358712
0.299925 0.842985 0.358491
0.331521 0.843854 0.358241
0.365951 0.844834 0.358243
0.402106 0.845907 0.358470
0.439397 0.846953 0.358522
0.527478 0.854096 0.364496
0.669640 0.864848 0.378797
0.766807 0.869030 0.397311
0.819313 0.869871 0.399870
0.857895 0.868698 0.401362
0.890188 0.866394 0.401592
0.919872 0.864712 0.401803
0.945631 0.862958 0.403339
0.965836 0.862283 0.405176
0.302993 0.881098 0.408230
0.337354 0.882268 0.408553
0.373389 0.883392 0.409160
0.410895 0.884689 0.410624
0.448242 0.885918 0.411950
0.484751 0.887055 0.413097
0.519399 0.887995 0.413783
0.553169 0.888951 0.414214
0.659431 0.895703 0.425070
0.753196 0.899657 0.435818
0.811064 0.900816 0.444584
0.850757 0.900794 0.445444
0.884262 0.900598 0.446400
0.913468 0.898967 0.446854
0.941554 0.898023 0.447208
0.963839 0.897639 0.446476
0.383386 0.917379 0.447923
0.419801 0.918539 0.449518
0.455477 0.919711 0.450973
0.489879 0.920604 0.452125
0.522293 0.921363 0.452954
0.553632 0.921952 0.453541
0.583225 0.922433 0.453914
0.612169 0.922804 0.454254
0.653539 0.923939 0.456217
0.744249 0.927785 0.463649
0.804515 0.929147 0.475123
0.845203 0.929154 0.476937
0.878707 0.929208 0.477419
0.908886 0.929351 0.478713
0.936010 0.928141 0.479205
0.959086 0.927914 0.479426
0.433296 0.947538 0.471506
0.467513 0.948416 0.472693
0.499521 0.949057 0.473674
0.530779 0.949684 0.474533
0.560276 0.950128 0.475116
0.589338 0.950563 0.475686
0.617795 0.950905 0.476221
0.645451 0.951138 0.476591
0.672591 0.951304 0.476953
0.734033 0.953428 0.481317
0.795989 0.955460 0.486820
0.840799 0.955540 0.495078
0.875071 0.955600 0.496114
0.905576 0.955849 0.497086
0.933401 0.955785 0.498288
0.956697 0.955137 0.499278
0.086955 0.053914 0.058887
0.110282 0.053435 0.057949
0.134123 0.053073 0.057723
0.159983 0.052829 0.057062
0.190239 0.052577 0.056466
0.228843 0.052046 0.055432
0.285604 0.051492 0.052939
0.391923 0.051690 0.050563
0.556739 0.057844 0.058546
0.667655 0.066949 0.072224
0.737339 0.071365 0.080934
0.787487 0.074284 0.087385
0.827244 0.076502 0.092001
0.861325 0.078358 0.096667
0.884872 0.079118 0.098652
0.906563 0.079419 0.100061
0.087314 0.078039 0.059588
0.110140 0.077394 0.058948
0.134141 0.076641 0.058378
0.159942 0.076051 0.057588
0.190158 0.075277 0.056661
0.228615 0.074553 0.055245
0.284830 0.074043 0.052890
0.390417 0.074468 0.050157
0.554968 0.081014 0.057814
0.666020 0.090307 0.071170
0.735795 0.094827 0.079575
0.786038 0.097636 0.085836
0.825559 0.099903 0.090273
0.859530 0.101768 0.094354
0.883174 0.102445 0.096335
0.904709 0.102698 0.097513
0.088566 0.102190 0.060413
0.110302 0.101618 0.059863
0.134196 0.100864 0.059300
0.159981 0.100046 0.058430
0.190176 0.099191 0.057422
0.228457 0.098320 0.055850
0.284369 0.097709 0.053301
0.389180 0.098042 0.050497
0.552795 0.104442 0.057088
0.664176 0.114006 0.070277
0.734340 0.118860 0.078614
0.784594 0.121937 0.084538
0.824255 0.124313 0.088958
0.858029 0.126490 0.092737
0.881842 0.127154 0.094602
0.903329 0.127492 0.095895
0.089683 0.127591 0.060983
0.111338 0.127336 0.060705
0.134270 0.126675 0.060101
0.160042 0.125870 0.059419
0.190207 0.124893 0.058365
0.228346 0.123979 0.056798
0.284551 0.123400 0.054155
0.390011 0.123996 0.051236
0.553899 0.131034 0.057877
0.664347 0.140362 0.070802
0.733754 0.144835 0.078673
0.783726 0.147491 0.084182
0.823212 0.149365 0.088294
0.857103 0.151354 0.091747
0.880927 0.151802 0.093547
0.902307 0.152211 0.094561
0.091167 0.155886 0.061539
0.112446 0.156102 0.061624
0.134412 0.155957 0.061716
0.159966 0.155409 0.061254
0.190115 0.154367 0.060417
0.228438 0.153110 0.058787
0.285522 0.152451 0.056009
0.392745 0.153118 0.053083
0.557307 0.160512 0.060445
0.666585 0.169949 0.073240
0.735102 0.174655 0.081105
0.784619 0.177379 0.086618
0.823784 0.179135 0.090482
0.857263 0.180651 0.093645
0.880949 0.180414 0.094792
0.902045 0.179261 0.094947
0.092863 0.188413 0.063986
0.114243 0.188512 0.064041
0.136028 0.188519 0.064093
0.160240 0.188519 0.064320
0.190110 0.188415 0.064405
0.228272 0.187187 0.062930
0.288615 0.185956 0.059547
0.404182 0.186075 0.056257
0.567186 0.193375 0.065258
0.673677 0.202485 0.077627
0.739966 0.207343 0.085662
0.788120 0.210157 0.090720
0.826467 0.211774 0.094620
0.859333 0.213088 0.097638
0.883067 0.212909 0.098685
0.903932 0.211843 0.098951
0.096629 0.231175 0.067534
0.118136 0.231238 0.067615
0.139871 0.231254 0.067696
0.163076 0.231183 0.067842
0.191478 0.231859 0.068300
0.229456 0.233688 0.068922
0.294537 0.233085 0.065714
0.433708 0.231241 0.060202
0.591197 0.237583 0.073150
0.689270 0.243942 0.084634
0.750376 0.247209 0.091951
0.796310 0.249176 0.096923
0.832902 0.250115 0.100546
0.864374 0.251060 0.103290
0.887960 0.250248 0.104456
0.908379 0.248433 0.104605
0.113462 0.327933 0.076049
0.134934 0.327911 0.076172
0.157427 0.327712 0.076274
0.180297 0.327001 0.076296
0.205718 0.328346 0.076600
0.242162 0.338454 0.079092
0.318502 0.360168 0.081232
0.500054 0.362036 0.078670
0.647135 0.346425 0.087808
0.725454 0.334143 0.096196
0.775375 0.323901 0.102389
0.814551 0.317003 0.106832
0.847886 0.313777 0.110120
0.876599 0.311458 0.112490
0.899281 0.308289 0.113502
0.918775 0.304088 0.113143
0.146241 0.505875 0.104085
0.168928 0.506154 0.104246
0.191881 0.506276 0.104362
0.215229 0.506073 0.104301
0.238985 0.505466 0.104111
0.272744 0.517496 0.108286
0.348787 0.545512 0.119428
0.570824 0.590513 0.130592
0.699198 0.589477 0.137671
0.773505 0.570465 0.136756
0.821343 0.550185 0.135624
0.855400 0.532472 0.135891
0.884114 0.520779 0.137726
0.910493 0.510966 0.139110
0.932893 0.497823 0.139223
0.952190 0.481709 0.137666
0.171052 0.648287 0.168008
0.194162 0.648764 0.168141
0.217759 0.649179 0.168343
0.242033 0.649537 0.168412
0.266943 0.649889 0.168370
0.296468 0.652799 0.169741
0.364227 0.669080 0.176898
0.582318 0.705549 0.191700
0.714776 0.718059 0.200304
0.781393 0.708630 0.201590
0.830745 0.698341 0.196045
0.867811 0.690143 0.191342
0.895829 0.682541 0.189791
0.920932 0.676816 0.190417
0.944157 0.670915 0.188945
0.965155 0.664709 0.185117
0.190173 0.737841 0.247074
0.213981 0.738214 0.246672
0.238280 0.738593 0.246369
0.263315 0.738894 0.245954
0.289039 0.739295 0.245562
0.315711 0.739669 0.245144
0.366724 0.746285 0.249846
0.556007 0.771328 0.264575
0.710227 0.784622 0.275902
0.783496 0.785790 0.282738
0.828907 0.779013 0.280703
0.867987 0.774454 0.275453
0.897227 0.770331 0.273240
0.921720 0.766734 0.274474
0.945065 0.763954 0.274466
0.966151 0.761760 0.270518
0.207963 0.795646 0.325687
0.232396 0.796138 0.325484
0.257476 0.796659 0.325276
0.283311 0.797183 0.324934
0.310837 0.797740 0.324652
0.340433 0.798339 0.324159
0.377807 0.799737 0.323876
0.531192 0.815996 0.334136
0.692732 0.828759 0.358745
0.777906 0.832858 0.364150
0.825576 0.831322 0.367252
0.862587 0.827677 0.366502
0.895490 0.825462 0.365161
0.921847 0.822831 0.366218
0.945624 0.820808 0.366171
0.966483 0.819798 0.363636
0.242935 0.841178 0.391510
0.270427 0.841883 0.391354
0.299335 0.842705 0.391171
0.330522 0.843566 0.390744
0.364247 0.844566 0.390662
0.400032 0.845563 0.390700
0.437284 0.846650 0.391281
0.525535 0.853338 0.397347
0.667989 0.864178 0.411958
0.765521 0.868555 0.429410
0.818195 0.869476 0.431875
0.857234 0.868634 0.432869
0.889797 0.866416 0.432967
0.919713 0.864800 0.433111
0.945559 0.863064 0.434586
0.965836 0.862457 0.436658
0.302922 0.880779 0.438952
0.337147 0.881927 0.439399
0.372688 0.883020 0.439915
0.409765 0.884293 0.441171
0.446879 0.885496 0.442505
0.483567 0.886656 0.444100
0.518343 0.887602 0.444910
0.552093 0.888354 0.445348
0.658510 0.895180 0.456022
0.752303 0.899225 0.466493
0.810196 0.900506 0.475201
0.849855 0.900424 0.476064
0.883342 0.900243 0.477050
0.912518 0.898660 0.477335
0.940691 0.897736 0.477709
0.962891 0.897377 0.476884
0.382670 0.916950 0.477589
0.419081 0.918199 0.479085
0.454572 0.919331 0.480611
0.489142 0.920264 0.481792
0.521682 0.920971 0.482700
0.553214 0.921560 0.483348
0.582772 0.921970 0.483780
0.611621 0.922365 0.484020
0.652868 0.923519 0.486129
0.743661 0.927398 0.493422
0.803954 0.928886 0.504612
0.844595 0.928876 0.506511
0.878145 0.928911 0.507038
0.908247 0.929067 0.508311
0.935401 0.927847 0.508777
0.958418 0.927587 0.508976
0.432748 0.947157 0.500580
0.466934 0.948088 0.501850
0.499181 0.948810 0.502928
0.530508 0.949344 0.503748
0.560058 0.949814 0.504319
0.589018 0.950169 0.504865
0.617518 0.950555 0.505435
0.645085 0.950799 0.505883
0.672266 0.950948 0.506245
0.733652 0.953107 0.510815
0.795589 0.955203 0.516122
0.840367 0.955228 0.523973
0.874657 0.955366 0.525004
0.905133 0.955552 0.525959
0.932994 0.955596 0.527270
0.956322 0.954903 0.528250
0.087042 0.053752 0.081830
0.110605 0.053263 0.081050
0.134453 0.052867 0.080348
0.160090 0.052677 0.080029
0.190232 0.052290 0.079544
0.228791 0.051866 0.078543
0.285258 0.051496 0.076221
0.392003 0.051782 0.074083
0.557063 0.058419 0.082813
0.667740 0.067599 0.097757
0.737186 0.072193 0.107209
0.787346 0.075025 0.113920
0.827069 0.077089 0.118890
0.861060 0.079324 0.122902
0.884821 0.080358 0.125384
0.906266 0.080723 0.126503
0.087666 0.077588 0.082257
0.110402 0.076768 0.081748
0.134524 0.076099 0.080892
0.160221 0.075443 0.080403
0.190203 0.074781 0.079491
0.228415 0.074257 0.078269
0.284662 0.073935 0.076030
0.390636 0.074460 0.073884
0.555772 0.081198 0.082137
0.666336 0.090451 0.096253
0.735853 0.094952 0.105206
0.785897 0.097831 0.111586
0.825494 0.099983 0.116509
0.859440 0.102304 0.120451
0.883079 0.103455 0.122622
0.904604 0.103772 0.123770
0.088889 0.101770 0.083179
0.110601 0.101209 0.082716
0.134316 0.100517 0.081983
0.160147 0.099723 0.081423
0.190199 0.098994 0.080484
0.228460 0.098204 0.079116
0.284531 0.097705 0.076669
0.389845 0.098081 0.074178
0.553807 0.104847 0.081518
0.664669 0.114318 0.095314
0.734479 0.118995 0.104014
0.784580 0.121915 0.109920
0.824280 0.124109 0.114711
0.858083 0.126461 0.118374
0.881803 0.127623 0.120510
0.903318 0.127938 0.121632
0.089870 0.127192 0.084283
0.111553 0.126954 0.084103
0.134265 0.126398 0.083577
0.159926 0.125686 0.083029
0.189882 0.124679 0.082138
0.227891 0.123789 0.080641
0.284264 0.123214 0.078156
0.390064 0.123876 0.075174
0.554282 0.130812 0.082304
0.664682 0.140152 0.095400
0.733783 0.144609 0.103572
0.783839 0.147244 0.109153
0.823239 0.149202 0.113471
0.857055 0.151261 0.117085
0.880952 0.151999 0.118985
0.902328 0.152343 0.120006
0.090991 0.155692 0.085534
0.112557 0.155703 0.085739
0.134397 0.155700 0.085695
0.159744 0.155181 0.085429
0.189525 0.154256 0.084748
0.227325 0.153045 0.083250
0.284276 0.152430 0.080538
0.391849 0.153137 0.077381
0.557662 0.160345 0.085184
0.666868 0.169729 0.098017
0.735275 0.174493 0.106076
0.784717 0.177097 0.111536
0.823805 0.178780 0.115618
0.857285 0.180233 0.118654
0.881014 0.180046 0.119692
0.902086 0.179026 0.119779
0.092934 0.188281 0.087520
0.114460 0.188289 0.087730
0.136082 0.188348 0.087785
0.160115 0.188421 0.087942
0.189726 0.188283 0.088087
0.227559 0.187149 0.086803
0.287842 0.186027 0.083528
0.403530 0.186089 0.080236
0.567249 0.193174 0.089579
0.674050 0.202165 0.102159
0.740195 0.207006 0.110226
0.788339 0.209736 0.115325
0.826524 0.211342 0.119110
0.859334 0.212548 0.122021
0.883109 0.212220 0.123166
0.903938 0.211250 0.123105
0.096744 0.230997 0.090532
0.118300 0.230979 0.090726
0.140013 0.230942 0.090763
0.163236 0.230810 0.090916
0.191504 0.231580 0.091379
0.229165 0.233415 0.092181
0.293767 0.232957 0.088954
0.433001 0.231014 0.083661
0.591212 0.237309 0.096579
0.689208 0.243495 0.108314
0.750467 0.246691 0.115613
0.796403 0.248600 0.120703
0.832907 0.249489 0.124163
0.864330 0.250380 0.126860
0.887864 0.249570 0.128036
0.908236 0.247770 0.128105
0.113558 0.327670 0.099448
0.135127 0.327495 0.099569
0.157537 0.327373 0.099636
0.180390 0.326746 0.099661
0.205833 0.327953 0.099929
0.242120 0.338146 0.102482
0.317611 0.359931 0.104661
0.499498 0.362385 0.102134
0.647119 0.346432 0.110978
0.725448 0.333915 0.119519
0.775426 0.323570 0.125565
0.814507 0.316437 0.130223
0.847862 0.312969 0.133451
0.876535 0.310725 0.135777
0.899138 0.307469 0.136625
0.918644 0.303323 0.136388
0.146232 0.505302 0.127784
0.168859 0.505492 0.127987
0.191834 0.505612 0.128073
0.215166 0.505402 0.128050
0.238888 0.504930 0.127933
0.272543 0.516801 0.132162
0.347939 0.544855 0.143512
0.570209 0.590111 0.154644
0.699158 0.589452 0.161367
0.773568 0.570250 0.160347
0.821333 0.549839 0.158955
0.855462 0.532298 0.159213
0.884173 0.520698 0.161005
0.910530 0.510322 0.162314
0.932927 0.497352 0.162430
0.952272 0.481251 0.160884
0.170257 0.648188 0.195170
0.193430 0.648500 0.194953
0.217048 0.648839 0.195070
0.241174 0.649187 0.195045
0.266007 0.649513 0.194989
0.295329 0.652355 0.196647
0.361798 0.668427 0.204219
0.580537 0.705144 0.220089
0.714875 0.718020 0.228632
0.781498 0.708590 0.229197
0.830848 0.698315 0.222256
0.867878 0.690219 0.216940
0.895974 0.682617 0.215186
0.921041 0.676878 0.215777
0.944237 0.670909 0.214275
0.965250 0.664745 0.210148
0.189016 0.738044 0.279984
0.212705 0.738422 0.279716
0.236963 0.738775 0.279390
0.261832 0.739081 0.278948
0.287343 0.739347 0.278330
0.313817 0.739527 0.277442
0.363583 0.745639 0.282243
0.552863 0.770296 0.297524
0.709704 0.783931 0.309332
0.783708 0.785387 0.315920
0.829112 0.778666 0.313722
0.868192 0.774131 0.308328
0.897429 0.770068 0.305933
0.921930 0.766455 0.307312
0.945254 0.763678 0.307132
0.966325 0.761529 0.302901
0.207065 0.795524 0.359702
0.231500 0.796005 0.359448
0.256555 0.796562 0.359205
0.282409 0.797108 0.358816
0.309749 0.797685 0.358392
0.339447 0.798271 0.357822
0.376124 0.799560 0.357813
0.528379 0.814955 0.367921
0.690702 0.827957 0.392791
0.777235 0.832503 0.397813
0.825463 0.831104 0.400713
0.862783 0.827511 0.400171
0.895719 0.825271 0.399043
0.922096 0.822651 0.400164
0.945912 0.820606 0.400240
0.966486 0.819587 0.398521
0.242869 0.840881 0.423308
0.270315 0.841599 0.423248
0.299211 0.842384 0.423111
0.330043 0.843276 0.422820
0.363286 0.844215 0.422690
0.398272 0.845196 0.422711
0.435270 0.846234 0.423073
0.523693 0.852674 0.429781
0.666734 0.863615 0.443927
0.764392 0.868112 0.461058
0.817128 0.869114 0.463355
0.856301 0.868319 0.464183
0.889053 0.866254 0.464103
0.919201 0.864771 0.464134
0.945192 0.863140 0.465380
0.965833 0.862579 0.466632
0.303136 0.880485 0.468730
0.337119 0.881565 0.469313
0.372407 0.882682 0.469998
0.409183 0.883912 0.471226
0.445889 0.885128 0.472601
0.482444 0.886284 0.474061
0.517490 0.887205 0.475076
0.551220 0.887990 0.475691
0.657682 0.894727 0.486379
0.751552 0.898882 0.496872
0.809537 0.900158 0.505158
0.849175 0.900091 0.506010
0.882611 0.899889 0.506966
0.911787 0.898396 0.507322
0.939849 0.897397 0.507681
0.962067 0.897085 0.506869
0.382426 0.916755 0.506563
0.418491 0.917909 0.508216
0.453939 0.919039 0.509895
0.488466 0.919948 0.511123
0.521248 0.920630 0.512054
0.552795 0.921214 0.512797
0.582374 0.921639 0.513230
0.611269 0.921986 0.513569
0.652514 0.923145 0.515659
0.743143 0.927106 0.522926
0.803561 0.928625 0.533814
0.844165 0.928648 0.535532
0.877671 0.928692 0.536129
0.907793 0.928854 0.537330
0.934850 0.927584 0.537825
0.957878 0.927389 0.538030
0.432405 0.946935 0.529179
0.466536 0.947841 0.530491
0.498859 0.948508 0.531639
0.530361 0.949108 0.532563
0.559899 0.949473 0.533227
0.588873 0.949875 0.533801
0.617357 0.950200 0.534380
0.644900 0.950467 0.534832
0.672017 0.950615 0.535273
0.733293 0.952868 0.539605
0.795283 0.954918 0.544919
0.840066 0.955051 0.552814
0.874323 0.955118 0.553864
0.904771 0.955350 0.554831
0.932569 0.955382 0.556001
0.955831 0.954701 0.556870
0.087158 0.053888 0.106073
0.110561 0.053410 0.105160
0.134553 0.053042 0.104148
0.160312 0.052690 0.103883
0.190166 0.052602 0.103493
0.228139 0.052143 0.102857
0.284246 0.051600 0.101206
0.389593 0.051849 0.099403
0.555203 0.058240 0.108953
0.666563 0.067522 0.124772
0.736316 0.072481 0.135598
0.786783 0.076517 0.143800
0.826514 0.079751 0.149932
0.860660 0.082296 0.154953
0.884384 0.083366 0.157577
0.906057 0.083653 0.158802
0.087767 0.077279 0.105790
0.110195 0.076519 0.105401
0.134635 0.075808 0.104501
0.160233 0.075243 0.103558
0.190311 0.074506 0.103055
0.228001 0.074050 0.102208
0.283617 0.073629 0.100538
0.388326 0.074078 0.098519
0.553823 0.080636 0.107514
0.665147 0.090120 0.123006
0.734940 0.095170 0.133591
0.785305 0.099373 0.141556
0.825084 0.102807 0.147607
0.859057 0.105643 0.152348
0.882889 0.106756 0.155105
0.904403 0.107116 0.156256
0.089213 0.101013 0.107289
0.110865 0.100528 0.106692
0.134378 0.099703 0.106164
0.160148 0.099047 0.105130
0.189910 0.098300 0.104816
0.227413 0.097561 0.103884
0.282896 0.097019 0.101863
0.386808 0.097444 0.099375
0.551670 0.103939 0.106971
0.663540 0.113464 0.121741
0.733669 0.118691 0.131738
0.784181 0.123109 0.139419
0.823916 0.126604 0.145377
0.857880 0.129421 0.149877
0.881764 0.130632 0.152537
0.903278 0.130990 0.153616
0.090003 0.126691 0.109273
0.111485 0.126551 0.109120
0.134112 0.125960 0.108564
0.159682 0.125214 0.108041
0.189260 0.124483 0.107570
0.226523 0.123733 0.106620
0.282326 0.123421 0.104647
0.387035 0.124371 0.101953
0.553171 0.131491 0.109724
0.664344 0.141060 0.123754
0.733687 0.146036 0.132628
0.783740 0.148965 0.138896
0.823192 0.151230 0.143781
0.857046 0.153510 0.147910
0.880984 0.154587 0.150411
0.902376 0.155009 0.151325
0.090997 0.155412 0.111029
0.112485 0.155476 0.111156
0.134261 0.155477 0.111223
0.159341 0.155062 0.111035
0.188956 0.154297 0.110573
0.225762 0.153043 0.109506
0.282456 0.152402 0.107111
0.389776 0.153064 0.103885
0.557257 0.160328 0.111864
0.667059 0.169576 0.125138
0.735327 0.174400 0.133543
0.784748 0.177076 0.139074
0.823693 0.178738 0.143284
0.857215 0.180266 0.146741
0.881166 0.180626 0.148650
0.902172 0.180334 0.149451
0.092948 0.188479 0.113830
0.114355 0.188551 0.114001
0.136022 0.188560 0.114113
0.159950 0.188638 0.114309
0.188949 0.188630 0.114403
0.225954 0.187895 0.113837
0.284797 0.186836 0.111022
0.400916 0.186941 0.107558
0.567942 0.194095 0.117365
0.674699 0.202724 0.130232
0.740825 0.207457 0.138302
0.788802 0.210036 0.143589
0.826723 0.211415 0.147336
0.859344 0.212619 0.150301
0.883139 0.212200 0.151281
0.903949 0.211098 0.151207
0.097440 0.234568 0.118193
0.118818 0.234555 0.118296
0.140600 0.234446 0.118400
0.163590 0.234218 0.118447
0.191593 0.235077 0.118908
0.227650 0.237564 0.120162
0.289963 0.237694 0.118111
0.430706 0.234752 0.112376
0.592155 0.240460 0.125258
0.690228 0.245981 0.137444
0.751769 0.248626 0.144824
0.797416 0.250204 0.149911
0.833464 0.250826 0.153307
0.864519 0.251448 0.155977
0.888083 0.250638 0.156977
0.908472 0.248711 0.156808
0.115497 0.338311 0.129469
0.137000 0.338173 0.129560
0.159495 0.337923 0.129608
0.182286 0.337476 0.129656
0.207413 0.338578 0.129840
0.242031 0.348798 0.131696
0.308600 0.371252 0.135876
0.498642 0.383870 0.134955
