example_ofxGpuLutCube/bin/data/ofxGpuLutCube/LUT/T41 (hard teal fade).cube
LUT_3D_SIZE 6
0.086243 0.054596 0.038849
0.159662 0.053058 0.037250
0.284985 0.051727 0.033154
0.666944 0.067395 0.049859
0.827081 0.076874 0.069079
0.906424 0.079710 0.076349
0.089527 0.127984 0.040973
0.159713 0.126436 0.039356
0.284205 0.123933 0.034238
0.664205 0.140985 0.048861
0.823146 0.150127 0.065921
0.902310 0.152983 0.072029
0.096454 0.231939 0.045215
0.162960 0.231874 0.045608
0.294455 0.233925 0.043340
0.689310 0.244697 0.062187
0.833000 0.250924 0.077833
0.908394 0.249276 0.081732
0.171600 0.648621 0.141779
0.242717 0.649848 0.142250
0.366251 0.669594 0.150464
0.781272 0.708575 0.175577
0.895741 0.682483 0.164944
0.965050 0.664686 0.160597
0.243244 0.841357 0.358844
0.331521 0.843854 0.358241
0.439397 0.846953 0.358522
0.766807 0.869030 0.397311
0.890188 0.866394 0.401592
0.965836 0.862283 0.405176
0.433296 0.947538 0.471506
0.530779 0.949684 0.474533
0.617795 0.950905 0.476221
0.734033 0.953428 0.481317
0.875071 0.955600 0.496114
0.956697 0.955137 0.499278
0.087158 0.053888 0.106073
0.160312 0.052690 0.103883
0.284246 0.051600 0.101206
0.666563 0.067522 0.124772
0.826514 0.079751 0.149932
0.906057 0.083653 0.158802
0.090003 0.126691 0.109273
0.159682 0.125214 0.108041
0.282326 0.123421 0.104647
0.664344 0.141060 0.123754
0.823192 0.151230 0.143781
0.902376 0.155009 0.151325
0.097440 0.234568 0.118193
0.163590 0.234218 0.118447
0.289963 0.237694 0.118111
0.690228 0.245981 0.137444
0.833464 0.250826 0.153307
0.908472 0.248711 0.156808
0.168834 0.650093 0.230172
0.239566 0.650466 0.228929
0.355589 0.668267 0.238403
0.781028 0.709849 0.264081
0.895990 0.684194 0.246312
0.965356 0.666506 0.239815
0.242949 0.840559 0.454167
0.329988 0.842917 0.454008
0.434008 0.845823 0.454313
0.763442 0.867736 0.491972
0.888103 0.865897 0.494924
0.965691 0.862447 0.495617
0.431988 0.946697 0.557597
0.530208 0.948886 0.561008
0.617260 0.949934 0.562904
0.733032 0.952562 0.568181
0.874071 0.954936 0.582021
0.955547 0.954532 0.584973
0.087635 0.053040 0.185791
0.160625 0.053450 0.186308
0.284477 0.051862 0.183186
0.660287 0.067458 0.214790
0.822184 0.082808 0.250816
0.900791 0.088560 0.268745
0.090012 0.126226 0.193871
0.157958 0.124952 0.194667
0.278303 0.124007 0.189363
0.656294 0.141377 0.216912
0.819104 0.154434 0.245927
0.898102 0.159858 0.261305
0.100555 0.253918 0.231779
0.166695 0.251695 0.229885
0.269196 0.257561 0.235341
0.691220 0.273747 0.277933
0.832376 0.289161 0.324413
0.904699 0.284511 0.336012
0.160093 0.677286 0.470664
0.228804 0.677767 0.470229
0.321748 0.687478 0.478067
0.757699 0.728455 0.517922
0.889322 0.711351 0.502627
0.964238 0.700093 0.494303
0.242566 0.841127 0.588345
0.328799 0.843333 0.589446
0.428472 0.845961 0.590955
0.743564 0.866646 0.619655
0.877261 0.866854 0.629431
0.956677 0.864219 0.628269
0.429269 0.946195 0.648604
0.527867 0.948510 0.652110
0.615496 0.949378 0.654194
0.730719 0.952141 0.659317
0.872158 0.954705 0.671319
0.953888 0.954338 0.673609
0.091065 0.049536 0.300159
0.160092 0.050185 0.300264
0.281455 0.053571 0.291172
0.658515 0.071926 0.342845
0.797695 0.087665 0.451904
0.872657 0.094286 0.505684
0.094370 0.122476 0.328665
0.160992 0.120915 0.331352
0.282216 0.125508 0.332940
0.650435 0.144853 0.356206
0.795164 0.159682 0.448984
0.870782 0.166484 0.500730
0.121897 0.314636 0.480481
0.186589 0.311883 0.479088
0.273718 0.286863 0.482755
0.674232 0.329575 0.539470
0.822011 0.365068 0.606312
0.895580 0.351539 0.611595
0.165855 0.694402 0.650721
0.233702 0.695580 0.651932
0.328609 0.703091 0.657620
0.730673 0.740830 0.696587
0.870474 0.741309 0.707159
0.946623 0.739763 0.712143
0.250745 0.843796 0.709426
0.337946 0.846130 0.711212
0.438201 0.848900 0.713634
0.734107 0.867923 0.738898
0.870071 0.869727 0.746755
0.949322 0.867676 0.747871
0.426433 0.946786 0.747684
0.525224 0.949268 0.751141
0.613225 0.950252 0.752939
0.727044 0.952893 0.757858
0.867869 0.955620 0.765889
0.951416 0.955829 0.768548
0.111249 0.038189 0.529950
0.177367 0.038774 0.532429
0.294529 0.045026 0.552980
0.636466 0.071434 0.569747
0.787044 0.088058 0.648161
0.867390 0.095853 0.683674
0.114736 0.111835 0.553335
0.179660 0.111895 0.556662
0.283946 0.116115 0.566770
0.630747 0.143094 0.575795
0.784669 0.160109 0.643498
0.865416 0.168671 0.680055
0.139465 0.391234 0.692304
0.203925 0.389170 0.692647
0.286333 0.329251 0.680477
0.692637 0.383153 0.744251
0.827958 0.408792 0.744665
0.903226 0.403881 0.753145
0.180584 0.719227 0.775858
0.249325 0.720842 0.777443
0.345881 0.725435 0.781008
0.715270 0.748716 0.811168
0.866196 0.751426 0.813109
0.942375 0.753113 0.818942
0.260603 0.847663 0.804088
0.349466 0.850204 0.806261
0.451259 0.853249 0.809329
0.731147 0.870757 0.830304
0.866857 0.872937 0.836843
0.946769 0.873047 0.839393
0.427753 0.948357 0.832651
0.526326 0.950865 0.835774
0.614259 0.951867 0.837436
0.725585 0.954351 0.841606
0.866277 0.957240 0.848246
0.950545 0.957874 0.850897
0.126797 0.044613 0.704308
0.192195 0.045517 0.707731
0.292391 0.050859 0.720482
0.659270 0.074924 0.794629
0.789635 0.090173 0.785439
0.870957 0.102079 0.803984
0.126610 0.115343 0.705622
0.190986 0.116158 0.708247
0.287953 0.120305 0.718505
0.656454 0.146589 0.792810
0.787151 0.162752 0.781903
0.869226 0.175845 0.801073
0.147619 0.435376 0.810270
0.212102 0.434002 0.811354
0.291586 0.367125 0.797350
0.683635 0.413860 0.851391
0.834237 0.436865 0.847533
0.909044 0.430183 0.850083
0.188405 0.730376 0.863483
0.257937 0.732179 0.865397
0.350963 0.735119 0.868681
0.702745 0.753141 0.894766
0.867538 0.758449 0.899635
0.943322 0.758134 0.896435
0.268968 0.853360 0.885942
0.359401 0.856139 0.888499
0.461899 0.859379 0.891961
0.728587 0.874607 0.909381
0.864646 0.875219 0.915215
0.947227 0.875422 0.914479
0.431131 0.949007 0.908437
0.529205 0.951537 0.911274
0.616747 0.952522 0.912760
0.723910 0.954683 0.916321
0.866115 0.957689 0.922366
0.949900 0.958322 0.924416
