example_ofxGpuLutCube/bin/data/ofxGpuLutCube/LUT/T42 (hard teal navy).cube
LUT_3D_SIZE 6
0.136980 0.168282 0.129378
0.136980 0.168282 0.129378
0.214666 0.168282 0.129378
0.535396 0.168282 0.129378
0.715400 0.168282 0.129378
0.820549 0.168282 0.129378
0.136980 0.168282 0.129378
0.136980 0.168282 0.129378
0.182155 0.168282 0.129378
0.537078 0.168282 0.129378
0.725206 0.168282 0.129378
0.832564 0.168282 0.129378
0.136980 0.198691 0.129378
0.136980 0.198682 0.129378
0.183872 0.215298 0.129378
0.584789 0.234292 0.129378
0.792398 0.251635 0.129378
0.906455 0.261328 0.129378
0.136980 0.457451 0.129378
0.136980 0.459950 0.129378
0.142579 0.500283 0.129378
0.663149 0.607596 0.129378
0.885267 0.625513 0.129378
0.939429 0.629335 0.129378
0.136980 0.627393 0.129378
0.136980 0.632643 0.129378
0.136980 0.674022 0.129378
0.661091 0.790304 0.129378
0.888755 0.813543 0.130852
0.938111 0.815991 0.132019
0.136980 0.733924 0.129378
0.136980 0.740631 0.129378
0.136980 0.785054 0.129378
0.649527 0.887488 0.134353
0.884864 0.910458 0.137700
0.937221 0.913896 0.138748
0.136980 0.168282 0.129378
0.136980 0.168282 0.129378
0.233645 0.168282 0.129378
0.543817 0.168282 0.129378
0.718855 0.168282 0.129378
0.824012 0.168282 0.129378
0.136980 0.168282 0.129378
0.136980 0.168282 0.129378
0.190822 0.168282 0.129378
0.542498 0.168282 0.129378
0.727578 0.168282 0.129378
0.834880 0.168282 0.129378
0.136980 0.200230 0.129378
0.136980 0.201202 0.129378
0.186303 0.217638 0.129378
0.591587 0.234357 0.129378
0.796234 0.251823 0.129378
0.908743 0.260554 0.129378
0.136980 0.465289 0.129378
0.136980 0.467589 0.129378
0.138180 0.504981 0.129378
0.667185 0.611868 0.129378
0.888360 0.628262 0.129378
0.939342 0.632154 0.129378
0.136980 0.636297 0.130574
0.136980 0.641629 0.130422
0.136980 0.683246 0.129391
0.663168 0.798124 0.131131
0.889018 0.818296 0.133196
0.938067 0.819694 0.134239
0.136980 0.742126 0.163341
0.136980 0.748592 0.162246
0.136980 0.793875 0.154505
0.649431 0.899639 0.145903
0.884861 0.920994 0.144636
0.937203 0.920744 0.143174
0.136980 0.168282 0.174877
0.138721 0.168282 0.174795
0.282938 0.168282 0.165047
0.566042 0.168282 0.152107
0.735026 0.168282 0.148810
0.839360 0.168282 0.147677
0.136980 0.168282 0.173478
0.136980 0.168282 0.171946
0.211745 0.168282 0.171266
0.560989 0.168282 0.156468
0.742215 0.168282 0.151669
0.848452 0.168282 0.150414
0.136980 0.208879 0.195711
0.136980 0.210279 0.192224
0.188784 0.231472 0.193415
0.613940 0.248698 0.173691
0.813610 0.265156 0.164933
0.919755 0.272564 0.160202
0.136980 0.489782 0.240794
0.136980 0.492679 0.238257
0.136980 0.530089 0.234304
0.679397 0.647457 0.183238
0.891510 0.661857 0.176521
0.938837 0.662769 0.171378
0.136980 0.659335 0.289746
0.136980 0.664680 0.288559
0.136980 0.707396 0.291078
0.658239 0.831487 0.270020
0.888079 0.849885 0.253671
0.936528 0.851050 0.242145
0.136980 0.761734 0.329260
0.136980 0.768129 0.328245
0.136980 0.813284 0.333037
0.638443 0.926522 0.320041
0.883894 0.942374 0.300341
0.935204 0.943721 0.288349
0.136980 0.168282 0.457449
0.171982 0.168282 0.464447
0.371753 0.168282 0.473585
0.585968 0.168282 0.463167
0.747718 0.168282 0.466034
0.851187 0.168282 0.466058
0.136980 0.168282 0.442567
0.136980 0.168282 0.448777
0.254008 0.168282 0.468978
0.577302 0.168282 0.475666
0.751894 0.168282 0.476437
0.858673 0.168282 0.476573
0.136980 0.214930 0.496053
0.136980 0.218625 0.499439
0.214867 0.248848 0.529317
0.632537 0.256503 0.545855
0.824793 0.276656 0.546419
0.922584 0.287142 0.545001
0.136980 0.522879 0.579426
0.136980 0.526867 0.579708
0.136980 0.568835 0.599833
0.671746 0.690168 0.635131
0.883466 0.700840 0.628505
0.929694 0.703094 0.622475
0.136980 0.689337 0.608254
0.136980 0.694759 0.609854
0.136980 0.738642 0.629110
0.643551 0.865092 0.666216
0.879681 0.878158 0.659894
0.927336 0.879435 0.654775
0.136980 0.786110 0.623581
0.136980 0.792520 0.626314
0.136980 0.837936 0.644387
0.624263 0.946795 0.678339
0.874459 0.953085 0.673584
0.926395 0.954383 0.668708
0.136980 0.168282 0.660014
0.204234 0.168282 0.668982
0.392935 0.168282 0.683086
0.610337 0.168282 0.684562
0.758561 0.168282 0.692872
0.859205 0.168282 0.697132
0.136980 0.168282 0.651357
0.136980 0.168282 0.661638
0.322500 0.168282 0.685097
0.598034 0.168282 0.699539
0.764376 0.168282 0.706930
0.866050 0.168282 0.709615
0.136980 0.225505 0.707810
0.136980 0.235300 0.720241
0.282180 0.262396 0.754510
0.643354 0.259966 0.774401
0.827752 0.281327 0.780745
0.923073 0.294041 0.783236
0.136980 0.534978 0.784991
0.136980 0.541070 0.789088
0.136980 0.627775 0.833751
0.687341 0.697169 0.865223
0.879049 0.705180 0.865480
0.922228 0.707497 0.863740
0.136980 0.704511 0.805638
0.136980 0.710967 0.808937
0.136980 0.764480 0.837377
0.656129 0.873943 0.881226
0.875098 0.883761 0.881961
0.920346 0.885192 0.880275
0.136980 0.800579 0.814919
0.136980 0.806926 0.818016
0.136980 0.854534 0.842129
0.637645 0.951345 0.886036
0.870807 0.956237 0.887800
0.919387 0.957486 0.886089
0.144372 0.168282 0.792203
0.229797 0.168282 0.802775
0.411529 0.168282 0.816736
0.632163 0.168282 0.823971
0.778026 0.168282 0.828173
0.878353 0.168282 0.833725
0.136980 0.168282 0.792232
0.186804 0.168282 0.803381
0.383185 0.168282 0.822345
0.620015 0.168282 0.832509
0.785005 0.168282 0.842225
0.883993 0.168282 0.845244
0.136980 0.237590 0.840039
0.136980 0.250384 0.853194
0.334743 0.269423 0.883348
0.651933 0.268490 0.896914
0.828779 0.290480 0.904843
0.920181 0.303408 0.906996
0.136980 0.550004 0.915105
0.136980 0.571191 0.928821
0.207035 0.651237 0.964017
0.698987 0.697187 0.982265
0.878646 0.704779 0.982315
0.917730 0.706149 0.982369
0.136980 0.713868 0.930399
0.136980 0.722247 0.935652
0.136980 0.813608 0.975830
0.676297 0.877366 0.982542
0.872665 0.884576 0.982542
0.915394 0.885858 0.982537
0.136980 0.810285 0.938013
0.136980 0.816951 0.941174
0.136980 0.899106 0.977957
0.656360 0.953674 0.982542
0.868248 0.957435 0.982542
0.914628 0.958761 0.982542
