example_ofxGpuLutCube/bin/data/ofxGpuLutCube/LUT/T42 (hard teal navy).cube
LUT_3D_SIZE 16
0.136980 0.168282 0.129378
0.136980 0.168282 0.129378
0.136980 0.168282 0.129378
0.136980 0.168282 0.129378
0.136958 0.168282 0.129378
0.145348 0.168282 0.129378
0.214666 0.168282 0.129378
0.323602 0.168282 0.129378
0.444104 0.168282 0.129378
0.535396 0.168282 0.129378
0.610311 0.168282 0.129378
0.670284 0.168282 0.129378
0.715400 0.168282 0.129378
0.754573 0.168282 0.129378
0.788525 0.168282 0.129378
0.820549 0.168282 0.129378
0.136980 0.168282 0.129378
0.136980 0.168282 0.129378
0.136980 0.168282 0.129378
0.136980 0.168282 0.129378
0.136730 0.168282 0.129378
0.140857 0.168282 0.129378
0.202775 0.168282 0.129378
0.313141 0.168282 0.129378
0.437242 0.168282 0.129378
0.534794 0.168282 0.129378
0.610340 0.168282 0.129378
0.670675 0.168282 0.129378
0.717378 0.168282 0.129378
0.756909 0.168282 0.129378
0.790619 0.168282 0.129378
0.822963 0.168282 0.129378
0.136980 0.168282 0.129378
0.136980 0.168282 0.129378
0.136980 0.168282 0.129378
0.136980 0.168282 0.129378
0.136692 0.168282 0.129378
0.136854 0.168282 0.129378
0.188484 0.168282 0.129378
0.300484 0.168282 0.129378
0.429025 0.168282 0.129378
0.533984 0.168282 0.129378
0.609959 0.168282 0.129378
0.672028 0.168282 0.129378
0.720052 0.168282 0.129378
0.758482 0.168282 0.129378
0.793223 0.168282 0.129378
0.825600 0.168282 0.129378
0.136980 0.168282 0.129378
0.136980 0.168282 0.129378
0.136980 0.168282 0.129378
0.136980 0.168282 0.129378
0.136565 0.168282 0.129378
0.136931 0.168282 0.129378
0.182155 0.168282 0.129378
0.294052 0.168282 0.129378
0.425115 0.168282 0.129378
0.537078 0.168282 0.129378
0.613085 0.168282 0.129378
0.675243 0.168282 0.129378
0.725206 0.168282 0.129378
0.765397 0.168282 0.129378
0.799574 0.168282 0.129378
0.832564 0.168282 0.129378
0.136980 0.168282 0.129378
0.136980 0.168282 0.129378
0.136980 0.168282 0.129378
0.136980 0.168282 0.129378
0.137280 0.168282 0.129378
0.136796 0.168282 0.129378
0.181107 0.168282 0.129378
0.292039 0.168282 0.129378
0.429029 0.168282 0.129378
0.545796 0.168282 0.129378
0.624559 0.168282 0.129378
0.687431 0.168282 0.129378
0.738604 0.168282 0.129378
0.777852 0.168282 0.129378
0.813099 0.168282 0.129378
0.846254 0.168282 0.129378
0.136980 0.168282 0.129378
0.136980 0.168282 0.129378
0.136980 0.168282 0.129378
0.136980 0.168282 0.129378
0.137339 0.168282 0.129378
0.137294 0.168523 0.129378
0.182044 0.168282 0.129378
0.292580 0.172604 0.129378
0.439998 0.171392 0.129378
0.559785 0.173130 0.129378
0.643623 0.175481 0.129378
0.707336 0.177208 0.129378
0.758565 0.179080 0.129378
0.800323 0.181474 0.129378
0.836525 0.184187 0.129378
0.869991 0.186582 0.129378
0.136980 0.198691 0.129378
0.136980 0.198682 0.129378
0.136980 0.198691 0.129378
0.136980 0.198682 0.129378
0.137381 0.201085 0.129378
0.137142 0.206393 0.129378
0.183872 0.215298 0.129378
0.298895 0.228706 0.129378
0.459841 0.234801 0.129378
0.584789 0.234292 0.129378
0.675354 0.238847 0.129378
0.740868 0.245427 0.129378
0.792398 0.251635 0.129378
0.836686 0.255276 0.129378
0.872987 0.258704 0.129378
0.906455 0.261328 0.129378
0.136980 0.273585 0.129378
0.136980 0.273942 0.129378
0.136980 0.273585 0.129378
0.136980 0.274950 0.129378
0.137403 0.278033 0.129378
0.136928 0.286060 0.129378
0.177695 0.304149 0.129378
0.308934 0.328207 0.129378
0.486300 0.349513 0.129378
0.617442 0.357107 0.129378
0.713148 0.365479 0.129378
0.780099 0.373054 0.129378
0.833114 0.379738 0.129378
0.876544 0.382696 0.129378
0.911607 0.385714 0.129378
0.936361 0.387671 0.129378
0.136980 0.368367 0.129378
0.136980 0.368688 0.129378
0.136980 0.369316 0.129378
0.136980 0.369656 0.129378
0.137032 0.373545 0.129378
0.136776 0.382004 0.129378
0.160583 0.409279 0.129378
0.308762 0.445235 0.129378
0.502403 0.477894 0.129378
0.647228 0.492623 0.129378
0.744297 0.502253 0.129378
0.817472 0.509133 0.129378
0.869046 0.514244 0.129378
0.905243 0.516679 0.129378
0.928916 0.518133 0.129378
0.939984 0.519566 0.129378
0.136980 0.457451 0.129378
0.136980 0.457995 0.129378
0.136980 0.458406 0.129378
0.136980 0.459950 0.129378
0.137365 0.465159 0.129378
0.136880 0.474651 0.129378
0.142579 0.500283 0.129378
0.296769 0.549388 0.129378
0.507110 0.588976 0.129378
0.663149 0.607596 0.129378
0.762256 0.616700 0.129378
0.838264 0.622846 0.129378
0.885267 0.625513 0.129378
0.912280 0.626486 0.129378
0.929883 0.628381 0.129378
0.939429 0.629335 0.129378
0.136980 0.529491 0.129378
0.136980 0.530018 0.129378
0.136980 0.530453 0.129378
0.136980 0.531979 0.129378
0.136980 0.537366 0.129378
0.137284 0.548190 0.129378
0.136980 0.569145 0.129378
0.274097 0.622002 0.129378
0.501456 0.665893 0.129378
0.666347 0.686436 0.129378
0.766916 0.695192 0.129378
0.842665 0.701515 0.129378
0.888803 0.705700 0.129378
0.911809 0.706544 0.129378
0.930174 0.707651 0.129378
0.939036 0.708420 0.129378
0.136980 0.584206 0.129378
0.136980 0.585234 0.129378
0.136980 0.587100 0.129378
0.136980 0.588126 0.129378
0.136980 0.595459 0.129378
0.136813 0.606690 0.129378
0.136980 0.626973 0.129378
0.243425 0.675133 0.129378
0.490897 0.723122 0.129378
0.664604 0.745146 0.129378
0.766401 0.754180 0.129378
0.839822 0.762003 0.129378
0.888726 0.765672 0.129378
0.911438 0.766272 0.129425
0.930094 0.767543 0.129378
0.938551 0.768155 0.129425
0.136980 0.627393 0.129378
0.136980 0.628850 0.129378
0.136980 0.630250 0.129378
0.136980 0.632643 0.129378
0.136980 0.639925 0.129378
0.136721 0.653038 0.129378
0.136980 0.674022 0.129378
0.218907 0.715389 0.129378
0.481215 0.766612 0.129378
0.661091 0.790304 0.129378
0.764569 0.800274 0.129378
0.837225 0.809035 0.129378
0.888755 0.813543 0.130852
0.912030 0.814147 0.131191
0.930045 0.815377 0.131686
0.938111 0.815991 0.132019
0.136980 0.666972 0.129378
0.136980 0.668465 0.129378
0.136980 0.670770 0.129378
0.136980 0.672260 0.129378
0.136980 0.681206 0.129378
0.137046 0.695046 0.129378
0.136980 0.716078 0.129378
0.195948 0.748692 0.129378
0.473551 0.802114 0.129378
0.657316 0.826640 0.129392
0.761701 0.836650 0.130211
0.835527 0.846267 0.131892
0.888253 0.850870 0.133585
0.911601 0.851639 0.134568
0.929635 0.852745 0.134417
0.937711 0.853513 0.134568
0.136980 0.702472 0.129378
0.136980 0.704310 0.129378
0.136980 0.706267 0.129378
0.136980 0.709059 0.129378
0.136980 0.717939 0.129378
0.137157 0.732548 0.129378
0.136980 0.752715 0.129378
0.195180 0.781262 0.129378
0.465374 0.833503 0.129392
0.653653 0.858298 0.131508
0.759219 0.868089 0.133559
0.832836 0.877086 0.134011
0.885423 0.881330 0.135594
0.910330 0.883706 0.135839
0.928962 0.884170 0.136429
0.937453 0.884657 0.136673
0.136980 0.733924 0.129378
0.136980 0.735940 0.129378
0.136980 0.737715 0.129378
0.136980 0.740631 0.129378
0.136980 0.749452 0.129378
0.137030 0.765088 0.129378
0.136980 0.785054 0.129378
0.193267 0.812880 0.129378
0.455398 0.861703 0.129980
0.649527 0.887488 0.134353
0.757031 0.898228 0.135824
0.829619 0.907188 0.137701
0.884864 0.910458 0.137700
0.911152 0.912957 0.138748
0.928410 0.913233 0.138536
0.937221 0.913896 0.138748
0.136980 0.168282 0.129378
0.136980 0.168282 0.129378
0.136980 0.168282 0.129378
0.136980 0.168282 0.129378
0.136957 0.168282 0.129378
0.149724 0.168282 0.129378
0.220045 0.168282 0.129378
0.330192 0.168282 0.129378
0.447539 0.168282 0.129378
0.537814 0.168282 0.129378
0.611870 0.168282 0.129378
0.670641 0.168282 0.129378
0.717248 0.168282 0.129378
0.755546 0.168282 0.129378
0.789402 0.168282 0.129378
0.821623 0.168282 0.129378
0.136980 0.168282 0.129378
0.136980 0.168282 0.129378
0.136980 0.168282 0.129378
0.136980 0.168282 0.129378
0.137033 0.168282 0.129378
0.142065 0.168282 0.129378
0.206661 0.168282 0.129378
0.317252 0.168282 0.129378
0.441461 0.168282 0.129378
0.536544 0.168282 0.129378
0.612736 0.168282 0.129378
0.672587 0.168282 0.129378
0.718248 0.168282 0.129378
0.757688 0.168282 0.129378
0.791382 0.168282 0.129378
0.823731 0.168282 0.129378
0.136980 0.168282 0.129378
0.136980 0.168282 0.129378
0.136980 0.168282 0.129378
0.136980 0.168282 0.129378
0.136697 0.168282 0.129378
0.138219 0.168282 0.129378
0.192042 0.168282 0.129378
0.304717 0.168282 0.129378
0.433107 0.168282 0.129378
0.535899 0.168282 0.129378
0.611163 0.168282 0.129378
0.672932 0.168282 0.129378
0.720799 0.168282 0.129378
0.759218 0.168282 0.129378
0.794111 0.168282 0.129378
0.826417 0.168282 0.129378
0.136980 0.168282 0.129378
0.136980 0.168282 0.129378
0.136980 0.168282 0.129378
0.136980 0.168282 0.129378
0.137141 0.168282 0.129378
0.136593 0.168282 0.129378
0.184508 0.168282 0.129378
0.298340 0.168282 0.129378
0.428256 0.168282 0.129378
0.538565 0.168282 0.129378
0.614329 0.168282 0.129378
0.676851 0.168282 0.129378
0.726964 0.168282 0.129378
0.765001 0.168282 0.129378
0.800145 0.168282 0.129378
0.833303 0.168282 0.129378
0.136980 0.168282 0.129378
0.136980 0.168282 0.129378
0.136980 0.168282 0.129378
0.136980 0.168282 0.129378
0.137032 0.168282 0.129378
0.136939 0.168282 0.129378
0.182612 0.168282 0.129378
0.295922 0.168282 0.129378
0.431939 0.168282 0.129378
0.547760 0.168282 0.129378
0.625567 0.168282 0.129378
0.688437 0.168282 0.129378
0.739317 0.168282 0.129378
0.779410 0.168282 0.129378
0.813877 0.168282 0.129378
0.846757 0.168282 0.129378
0.136980 0.168282 0.129378
0.136980 0.168282 0.129378
0.136980 0.168282 0.129378
0.136980 0.168282 0.129378
0.136920 0.168282 0.129378
0.136821 0.168650 0.129378
0.183392 0.168282 0.129378
0.295776 0.172729 0.129378
0.442766 0.171294 0.129378
0.561968 0.173034 0.129378
0.644446 0.175384 0.129378
0.708572 0.177115 0.129378
0.759185 0.179866 0.129378
0.802134 0.181995 0.129378
0.837231 0.183939 0.129378
0.870714 0.186069 0.129378
0.136980 0.199025 0.129378
0.136980 0.199036 0.129378
0.136980 0.199025 0.129378
0.136980 0.199036 0.129378
0.137157 0.200746 0.129378
0.136700 0.206068 0.129378
0.184510 0.215979 0.129378
0.301244 0.229383 0.129378
0.461853 0.234984 0.129378
0.586579 0.234329 0.129378
0.676428 0.238020 0.129378
0.740532 0.245462 0.129378
0.793437 0.251341 0.129378
0.837458 0.255173 0.129378
0.873856 0.258408 0.129378
0.907209 0.261226 0.129378
0.136980 0.274508 0.129378
0.136980 0.274633 0.129378
0.136980 0.274508 0.129378
0.136980 0.275643 0.129378
0.136805 0.278009 0.129378
0.136877 0.287148 0.129378
0.177970 0.305172 0.129378
0.310728 0.329267 0.129378
0.488327 0.350032 0.129378
0.618919 0.357315 0.129378
0.714252 0.365991 0.129378
0.781677 0.373224 0.129378
0.834655 0.379683 0.129378
0.878658 0.382637 0.129378
0.912013 0.385661 0.129378
0.936327 0.387613 0.129378
0.136980 0.369518 0.129378
0.136980 0.369822 0.129378
0.136980 0.369518 0.129378
0.136980 0.370790 0.129378
0.136839 0.374687 0.129378
0.137248 0.382427 0.129378
0.160399 0.410361 0.129378
0.310180 0.446677 0.129378
0.504643 0.479105 0.129378
0.648609 0.493405 0.129378
0.746699 0.502467 0.129378
0.817813 0.510913 0.129378
0.870576 0.514753 0.129378
0.905237 0.517054 0.129378
0.929430 0.518637 0.129378
0.939978 0.519958 0.129378
0.136980 0.459011 0.129378
0.136980 0.459423 0.129378
0.136980 0.459972 0.129378
0.136980 0.461376 0.129378
0.137366 0.467064 0.129378
0.136950 0.476268 0.129378
0.141713 0.501202 0.129378
0.296842 0.550964 0.129378
0.508626 0.590473 0.129378
0.664279 0.608572 0.129378
0.762746 0.617237 0.129378
0.838353 0.623880 0.129378
0.885430 0.627097 0.129378
0.912281 0.628093 0.129378
0.930058 0.628986 0.129378
0.939430 0.630011 0.129378
0.136980 0.530738 0.129378
0.136980 0.531335 0.129378
0.136980 0.531695 0.129378
0.136980 0.534229 0.129378
0.136980 0.539169 0.129378
0.137347 0.549322 0.129378
0.136980 0.570026 0.129378
0.272331 0.623101 0.129378
0.502519 0.667392 0.129378
0.667176 0.687619 0.129378
0.766990 0.695696 0.129378
0.843548 0.702668 0.129378
0.888977 0.706596 0.129378
0.912939 0.707375 0.129378
0.930337 0.708561 0.129378
0.938995 0.709286 0.129378
0.136980 0.585662 0.129378
0.136980 0.586803 0.129378
0.136980 0.587578 0.129378
0.136980 0.589675 0.129378
0.136980 0.595881 0.129378
0.137330 0.607315 0.129378
0.136980 0.628338 0.129378
0.239424 0.675758 0.129378
0.491390 0.724515 0.129378
0.665209 0.746295 0.129378
0.766888 0.755502 0.129378
0.841446 0.763162 0.129378
0.888891 0.766620 0.129587
0.912519 0.767265 0.129700
0.930267 0.768503 0.129587
0.938617 0.769112 0.129700
0.136980 0.629649 0.129378
0.136980 0.631084 0.129378
0.136980 0.632494 0.129378
0.136980 0.634902 0.129378
0.136980 0.642380 0.129378
0.137027 0.655051 0.129378
0.136980 0.675568 0.129378
0.211128 0.715526 0.129378
0.481293 0.767943 0.129378
0.661519 0.791624 0.129378
0.764682 0.801662 0.129378
0.837696 0.810357 0.130211
0.888835 0.814540 0.130690
0.912030 0.815090 0.131713
0.930210 0.816373 0.132359
0.938111 0.817003 0.132549
0.136980 0.669387 0.129378
0.136980 0.671144 0.129378
0.136980 0.673120 0.129378
0.136980 0.674839 0.129378
0.136980 0.683666 0.129378
0.137038 0.697962 0.129378
0.136980 0.718483 0.129378
0.192393 0.750681 0.129378
0.472981 0.803525 0.129378
0.657519 0.827943 0.129723
0.762159 0.838135 0.131045
0.835762 0.846598 0.133066
0.888125 0.851915 0.134055
0.911586 0.852725 0.134226
0.929453 0.853778 0.134888
0.937633 0.854589 0.135058
0.136980 0.704801 0.129378
0.136980 0.706598 0.129378
0.136980 0.708617 0.129378
0.136980 0.711381 0.129378
0.136980 0.720981 0.129378
0.136819 0.735218 0.129378
0.136980 0.755711 0.129378
0.189498 0.785011 0.129378
0.464434 0.835929 0.129528
0.653652 0.859845 0.132578
0.759277 0.870601 0.134531
0.833897 0.878577 0.135085
0.886626 0.882188 0.136108
0.911320 0.884853 0.137219
0.929090 0.884997 0.136943
0.937438 0.885805 0.137219
0.136980 0.736293 0.130047
0.136980 0.738082 0.130006
0.136980 0.740071 0.130047
0.136980 0.742842 0.130006
0.136980 0.752768 0.130334
0.137141 0.767464 0.129378
0.136980 0.787445 0.129495
0.187164 0.816162 0.129378
0.454345 0.865138 0.132080
0.649533 0.889844 0.135521
0.756968 0.899863 0.137098
0.830702 0.907722 0.138873
0.884970 0.912696 0.139547
0.911030 0.913273 0.139626
0.928493 0.914604 0.139547
0.937083 0.915145 0.139626
0.136980 0.168282 0.129378
0.136980 0.168282 0.129378
0.136980 0.168282 0.129378
0.136980 0.168282 0.129378
0.136769 0.168282 0.129378
0.154334 0.168282 0.129378
0.227068 0.168282 0.129378
0.337967 0.168282 0.129378
0.451826 0.168282 0.129378
0.540615 0.168282 0.129378
0.614308 0.168282 0.129378
0.672555 0.168282 0.129378
0.718320 0.168282 0.129378
0.756666 0.168282 0.129378
0.790457 0.168282 0.129378
0.822651 0.168282 0.129378
0.136980 0.168282 0.129378
0.136980 0.168282 0.129378
0.136980 0.168282 0.129378
0.136980 0.168282 0.129378
0.137240 0.168282 0.129378
0.145493 0.168282 0.129378
0.213161 0.168282 0.129378
0.324686 0.168282 0.129378
0.445688 0.168282 0.129378
0.539346 0.168282 0.129378
0.614096 0.168282 0.129378
0.673356 0.168282 0.129378
0.719377 0.168282 0.129378
0.758734 0.168282 0.129378
0.792515 0.168282 0.129378
0.824832 0.168282 0.129378
0.136980 0.168282 0.129378
0.136980 0.168282 0.129378
0.136980 0.168282 0.129378
0.136980 0.168282 0.129378
0.137011 0.168282 0.129378
0.138621 0.168282 0.129378
0.195932 0.168282 0.129378
0.309795 0.168282 0.129378
0.438096 0.168282 0.129378
0.538057 0.168282 0.129378
0.613354 0.168282 0.129378
0.675230 0.168282 0.129378
0.721755 0.168282 0.129378
0.760440 0.168282 0.129378
0.795035 0.168282 0.129378
0.827532 0.168282 0.129378
0.136980 0.168282 0.129378
0.136980 0.168282 0.129378
0.136980 0.168282 0.129378
0.136980 0.168282 0.129378
0.136677 0.168282 0.129378
0.136772 0.168282 0.129378
0.187576 0.168282 0.129378
0.303168 0.168282 0.129378
0.432651 0.168282 0.129378
0.540350 0.168282 0.129378
0.616888 0.168282 0.129378
0.678591 0.168282 0.129378
0.726548 0.168282 0.129378
0.766602 0.168282 0.129378
0.800939 0.168282 0.129378
0.833858 0.168282 0.129378
0.136980 0.168282 0.129378
0.136980 0.168282 0.129378
0.136980 0.168282 0.129378
0.136980 0.168282 0.129378
0.137238 0.168282 0.129378
0.137310 0.168282 0.129378
0.184607 0.168282 0.129378
0.300962 0.168282 0.129378
0.435633 0.168282 0.129378
0.549994 0.168282 0.129378
0.627402 0.168282 0.129378
0.689781 0.168282 0.129378
0.740021 0.168282 0.129378
0.780508 0.168282 0.129378
0.814636 0.168282 0.129378
0.847834 0.168282 0.129378
0.136980 0.168282 0.129378
0.136980 0.168282 0.129378
0.136980 0.168282 0.129378
0.136980 0.168282 0.129378
0.137153 0.168337 0.129378
0.137142 0.168777 0.129378
0.184524 0.168337 0.129378
0.299853 0.172850 0.129378
0.445832 0.171102 0.129378
0.564420 0.172972 0.129378
0.645594 0.175167 0.129378
0.708942 0.176014 0.129378
0.761049 0.178431 0.129378
0.802971 0.181619 0.129378
0.838028 0.183506 0.129378
0.871545 0.185708 0.129378
0.136980 0.199367 0.129378
0.136980 0.199424 0.129378
0.136980 0.198367 0.129378
0.136980 0.199424 0.129378
0.136967 0.201477 0.129378
0.137186 0.206778 0.129378
0.185216 0.216704 0.129378
0.304542 0.230098 0.129378
0.464970 0.235048 0.129378
0.589166 0.234290 0.129378
0.678670 0.238094 0.129378
0.742151 0.244413 0.129378
0.795327 0.252000 0.129378
0.839365 0.255762 0.129378
0.874706 0.258062 0.129378
0.908133 0.260804 0.129378
0.136980 0.275489 0.129378
0.136980 0.275685 0.129378
0.136980 0.275489 0.129378
0.136980 0.276697 0.129378
0.136918 0.279176 0.129378
0.137115 0.288248 0.129378
0.178075 0.306336 0.129378
0.312847 0.330388 0.129378
0.490740 0.350639 0.129378
0.620740 0.357677 0.129378
0.716809 0.365578 0.129378
0.782501 0.372634 0.129378
0.836187 0.379615 0.129378
0.879701 0.382490 0.129378
0.912475 0.385593 0.129378
0.936283 0.387440 0.129378
0.136980 0.370921 0.129378
0.136980 0.371233 0.129378
0.136980 0.371957 0.129378
0.136980 0.372269 0.129378
0.137129 0.375935 0.129378
0.136926 0.384270 0.129378
0.159809 0.411654 0.129378
0.311719 0.448448 0.129378
0.507562 0.480498 0.129378
0.650237 0.494374 0.129378
0.747582 0.503858 0.129378
0.819541 0.511881 0.129378
0.871871 0.515405 0.129378
0.906262 0.517632 0.129378
0.929595 0.519287 0.129378
0.939956 0.520535 0.129378
0.136980 0.461124 0.129378
0.136980 0.461551 0.129378
0.136980 0.462083 0.129378
0.136980 0.462510 0.129378
0.136793 0.468985 0.129378
0.136942 0.478242 0.129378
0.140263 0.502137 0.129378
0.296832 0.552934 0.129378
0.510641 0.592273 0.129378
0.665610 0.609865 0.129378
0.764863 0.618078 0.129378
0.839689 0.625151 0.129378
0.886819 0.627992 0.129378
0.912253 0.628952 0.129378
0.930411 0.629910 0.129378
0.939402 0.630888 0.129378
0.136980 0.533083 0.129378
0.136980 0.533685 0.129378
0.136980 0.534038 0.129378
0.136980 0.535576 0.129378
0.136980 0.541955 0.129378
0.137290 0.551751 0.129378
0.136980 0.571833 0.129378
0.270427 0.624556 0.129378
0.503702 0.669147 0.129378
0.668097 0.688881 0.129378
0.768278 0.696549 0.129378
0.843378 0.704964 0.129378
0.889254 0.707643 0.129378
0.912965 0.709424 0.129378
0.930633 0.709634 0.129378
0.939022 0.710493 0.129378
0.136980 0.588496 0.129378
0.136980 0.589660 0.129378
0.136980 0.590393 0.129378
0.136980 0.592500 0.129378
0.136980 0.599376 0.129378
0.137267 0.610669 0.129378
0.136980 0.630896 0.129378
0.234806 0.677194 0.129378
0.492107 0.726405 0.129378
0.665985 0.747614 0.129378
0.767728 0.756397 0.129378
0.841175 0.764575 0.129378
0.889120 0.768682 0.129121
0.913537 0.769363 0.129249
0.930521 0.769658 0.129953
0.938563 0.770370 0.130083
0.136980 0.632668 0.129378
0.136980 0.634189 0.129378
0.136980 0.635549 0.129378
0.136980 0.637984 0.129378
0.136980 0.645722 0.129378
0.136595 0.658251 0.129378
0.136980 0.678947 0.129378
0.202635 0.717778 0.129378
0.481130 0.770454 0.129378
0.662110 0.793544 0.129380
0.765554 0.803148 0.129378
0.839322 0.811273 0.131047
0.888865 0.815659 0.132256
0.911986 0.817298 0.132495
0.930240 0.817614 0.133092
0.938065 0.818263 0.133331
0.136980 0.672398 0.129858
0.136980 0.674110 0.129820
0.136980 0.676167 0.129023
0.136980 0.677892 0.128986
0.136980 0.687400 0.129378
0.136763 0.701509 0.129378
0.136980 0.722329 0.129378
0.183221 0.754203 0.129378
0.472207 0.807459 0.129422
0.657735 0.830324 0.131216
0.762341 0.840145 0.132761
0.835917 0.849077 0.134559
0.888257 0.852333 0.134667
0.911620 0.854850 0.134890
0.929620 0.855204 0.135506
0.937668 0.855776 0.135728
0.136980 0.707550 0.134840
0.136980 0.709319 0.134615
0.136980 0.711241 0.134002
0.136980 0.713944 0.133777
0.136980 0.723445 0.133209
0.136788 0.738625 0.132999
0.136980 0.759144 0.130708
0.182370 0.789333 0.129668
0.463156 0.840178 0.131774
0.653797 0.863615 0.134814
0.760081 0.872968 0.135959
0.832988 0.880538 0.136487
0.886600 0.884390 0.137689
0.911369 0.885167 0.137962
0.929064 0.886245 0.137689
0.937424 0.887044 0.137962
0.136980 0.738921 0.142786
0.136980 0.740767 0.142506
0.136980 0.742768 0.141942
0.136980 0.745509 0.140823
0.136980 0.754888 0.140441
0.137417 0.770493 0.138839
0.136980 0.790533 0.136254
0.180358 0.820129 0.132153
0.452549 0.869377 0.135906
0.649464 0.894205 0.138230
0.756154 0.904127 0.139259
0.830659 0.912052 0.139900
0.884881 0.914294 0.139961
0.911046 0.915816 0.140679
0.928507 0.916189 0.140799
0.937100 0.916738 0.140679
0.136980 0.168282 0.129378
0.136980 0.168282 0.129378
0.136980 0.168282 0.129378
0.136980 0.168282 0.129378
0.136994 0.168282 0.129378
0.160249 0.168282 0.129378
0.233645 0.168282 0.129378
0.345278 0.168282 0.129378
0.456025 0.168282 0.129378
0.543817 0.168282 0.129378
0.617723 0.168282 0.129378
0.673795 0.168282 0.129378
0.718855 0.168282 0.129378
0.759092 0.168282 0.129378
0.792037 0.168282 0.129378
0.824012 0.168282 0.129378
0.136980 0.168282 0.129378
0.136980 0.168282 0.129378
0.136980 0.168282 0.129378
0.136980 0.168282 0.129378
0.137228 0.168282 0.129378
0.148512 0.168282 0.129378
0.218532 0.168282 0.129378
0.330763 0.168282 0.129378
0.451074 0.168282 0.129378
0.542243 0.168282 0.129378
0.616619 0.168282 0.129378
0.675332 0.168282 0.129378
0.720817 0.168282 0.129378
0.760269 0.168282 0.129378
0.794068 0.168282 0.129378
0.826318 0.168282 0.129378
0.136980 0.168282 0.129378
0.136980 0.168282 0.129378
0.136980 0.168282 0.129378
0.136980 0.168282 0.129378
0.137017 0.168282 0.129378
0.139203 0.168282 0.129378
0.200385 0.168282 0.129378
0.315123 0.168282 0.129378
0.443407 0.168282 0.129378
0.540692 0.168282 0.129378
0.615839 0.168282 0.129378
0.676876 0.168282 0.129378
0.723038 0.168282 0.129378
0.761728 0.168282 0.129378
0.796345 0.168282 0.129378
0.828899 0.168282 0.129378
0.136980 0.168282 0.129378
0.136980 0.168282 0.129378
0.136980 0.168282 0.129378
0.136980 0.168282 0.129378
0.137241 0.168282 0.129378
0.137339 0.168282 0.129378
0.190822 0.168282 0.129378
0.307499 0.168282 0.129378
0.437102 0.168282 0.129378
0.542498 0.168282 0.129378
0.617505 0.168282 0.129378
0.679805 0.168282 0.129378
0.727578 0.168282 0.129378
0.767637 0.168282 0.129378
0.801917 0.168282 0.129378
0.834880 0.168282 0.129378
0.136980 0.168282 0.129378
0.136980 0.168282 0.129378
0.136980 0.168282 0.129378
0.136980 0.168282 0.129378
0.137062 0.168282 0.129378
0.137278 0.168282 0.129378
0.187075 0.168282 0.129378
0.305572 0.168282 0.129378
0.439571 0.168282 0.129378
0.552525 0.168282 0.129378
0.629514 0.168282 0.129378
0.691293 0.168282 0.129378
0.741148 0.168282 0.129378
0.781390 0.168282 0.129378
0.815737 0.168282 0.129378
0.848776 0.168282 0.129378
0.136980 0.168282 0.129378
0.136980 0.168282 0.129378
0.136980 0.168282 0.129378
0.136980 0.168282 0.129378
0.136977 0.168650 0.129378
0.136962 0.167899 0.129378
0.186123 0.168650 0.129378
0.304288 0.172992 0.129378
0.449285 0.170978 0.129378
0.567015 0.172847 0.129378
0.648252 0.174034 0.129378
0.710524 0.176914 0.129378
0.763256 0.178939 0.129378
0.803777 0.180285 0.129378
0.839162 0.183018 0.129378
0.872338 0.185376 0.129378
0.136980 0.200230 0.129378
0.136980 0.200208 0.129378
0.136980 0.200230 0.129378
0.136980 0.201202 0.129378
0.137171 0.202394 0.129378
0.136968 0.207652 0.129378
0.186303 0.217638 0.129378
0.308029 0.230989 0.129378
0.468099 0.235337 0.129378
0.591587 0.234357 0.129378
0.679865 0.238371 0.129378
0.743584 0.244468 0.129378
0.796234 0.251823 0.129378
0.840062 0.255510 0.129378
0.875688 0.257874 0.129378
0.908743 0.260554 0.129378
0.136980 0.277734 0.129378
0.136980 0.277715 0.129378
0.136980 0.277734 0.129378
0.136980 0.278714 0.129378
0.137258 0.281211 0.129378
0.137164 0.290086 0.129378
0.178437 0.308343 0.129378
0.315708 0.332207 0.129378
