example_ofxGpuLutCube/bin/data/ofxGpuLutCube/LUT/T43 (hard teal warm fade).cube
LUT_3D_SIZE 16
0.209701 0.212228 0.163456
0.212930 0.212236 0.163455
0.217782 0.212228 0.164311
0.221920 0.213248 0.164310
0.230258 0.212860 0.163902
0.250350 0.213310 0.163223
0.323289 0.211846 0.163037
0.432693 0.210270 0.162358
0.511097 0.209387 0.161939
0.561753 0.209120 0.162019
0.603276 0.209387 0.161939
0.639547 0.210144 0.162885
0.664491 0.210037 0.164211
0.686547 0.211138 0.164414
0.705830 0.211058 0.165070
0.711047 0.211138 0.165244
0.209843 0.215179 0.163526
0.212798 0.215156 0.163532
0.216141 0.215179 0.163526
0.220902 0.215156 0.163532
0.226421 0.215536 0.163581
0.235264 0.216428 0.164041
0.262808 0.215536 0.163581
0.340712 0.214394 0.163194
0.441953 0.212937 0.162648
0.516510 0.212100 0.162405
0.575988 0.211918 0.162648
0.621294 0.212100 0.163262
0.660483 0.212889 0.164374
0.690492 0.212992 0.165396
0.710372 0.213902 0.166083
0.712791 0.214010 0.166239
0.209988 0.218703 0.163614
0.213055 0.218785 0.163614
0.216255 0.218703 0.163614
0.221136 0.218785 0.163614
0.226611 0.219327 0.163757
0.232399 0.219002 0.163592
0.245649 0.219327 0.163757
0.284532 0.219002 0.163592
0.375519 0.217544 0.163078
0.465413 0.216299 0.162605
0.537649 0.216543 0.162235
0.592203 0.216299 0.163461
0.639524 0.215816 0.163910
0.679855 0.216972 0.164964
0.706141 0.217858 0.165615
0.712817 0.217994 0.165808
0.210257 0.223087 0.163876
0.213432 0.223122 0.163878
0.217437 0.223087 0.163876
0.220628 0.223122 0.163878
0.226113 0.223653 0.163920
0.233150 0.223346 0.163826
0.245132 0.223653 0.163920
0.280686 0.223346 0.163826
0.365644 0.221992 0.163318
0.459486 0.220568 0.162811
0.532232 0.219947 0.162462
0.592220 0.220568 0.162811
0.640327 0.220709 0.164333
0.684345 0.221904 0.164539
0.715518 0.222740 0.166042
0.722665 0.222925 0.166236
0.210735 0.228451 0.164188
0.214083 0.228516 0.164202
0.217030 0.228451 0.164188
0.222174 0.228516 0.164202
0.227102 0.227979 0.164258
0.233547 0.229746 0.164074
0.247050 0.229000 0.164258
0.284797 0.228728 0.164074
0.370972 0.227351 0.163570
0.468686 0.225940 0.162977
0.540941 0.225327 0.162722
0.603920 0.224906 0.162977
0.654033 0.226505 0.163958
0.697463 0.227716 0.165872
0.732704 0.228542 0.166515
0.740140 0.228738 0.166705
0.211405 0.236182 0.164615
0.214967 0.236259 0.164619
0.218586 0.236182 0.164615
0.223062 0.236259 0.164619
0.228031 0.235895 0.164587
0.236169 0.236832 0.165170
0.252543 0.236908 0.164587
0.298561 0.236832 0.164325
0.392776 0.235187 0.163741
0.494156 0.233779 0.163228
0.567247 0.233179 0.162884
0.631586 0.233779 0.164080
0.683595 0.234812 0.163818
0.726979 0.233933 0.165715
0.762753 0.235832 0.166392
0.771003 0.235955 0.166584
0.213052 0.252286 0.165054
0.216646 0.252651 0.165047
0.220235 0.252286 0.165054
0.225661 0.253655 0.165047
0.231038 0.253867 0.164716
0.239910 0.254270 0.165059
0.263823 0.255891 0.164716
0.327654 0.258301 0.164210
0.437964 0.257165 0.163674
0.543014 0.254577 0.163571
0.615276 0.254134 0.163674
0.680302 0.254577 0.163571
0.737689 0.254210 0.164644
0.777985 0.254841 0.164767
0.813324 0.254210 0.165517
0.821317 0.253835 0.165632
0.216326 0.290038 0.165689
0.220208 0.291542 0.165674
0.224437 0.293033 0.165689
0.230121 0.293541 0.165674
0.236521 0.297299 0.165503
0.249622 0.301665 0.165453
0.286886 0.309338 0.164664
0.376624 0.317731 0.163753
0.506297 0.324644 0.163269
0.616876 0.327383 0.163624
0.692854 0.327655 0.164121
0.759064 0.330397 0.164494
0.817679 0.332855 0.164808
0.859862 0.334052 0.165753
0.891831 0.333856 0.165662
0.899136 0.333051 0.165753
0.221837 0.358455 0.166398
0.226154 0.361646 0.166356
0.230851 0.363471 0.166398
0.237007 0.367618 0.166356
0.246257 0.375081 0.166445
0.266753 0.388195 0.165666
0.327639 0.408837 0.164728
0.447364 0.424830 0.163100
0.586600 0.441499 0.163073
0.695696 0.453390 0.163747
0.769635 0.460157 0.163934
0.834737 0.465157 0.164588
0.892582 0.470497 0.164494
0.930142 0.471912 0.164499
0.956541 0.471482 0.165359
0.962554 0.469935 0.165364
0.228575 0.437410 0.167112
0.233553 0.442530 0.167158
0.240350 0.447235 0.167112
0.248088 0.454307 0.167158
0.261891 0.467015 0.166760
0.295349 0.488092 0.166880
0.390511 0.517683 0.165048
0.526391 0.537591 0.163459
0.657026 0.554974 0.163432
0.755650 0.566705 0.163823
0.823158 0.572276 0.164293
0.882691 0.577287 0.164658
0.932904 0.582033 0.164661
0.963687 0.583812 0.164643
0.981224 0.583953 0.164661
0.984977 0.582859 0.164643
0.238472 0.510237 0.168167
0.245587 0.517946 0.168223
0.254856 0.525768 0.168167
0.266607 0.537324 0.168223
0.289855 0.555973 0.167959
0.351900 0.582871 0.167530
0.474189 0.614453 0.166230
0.603659 0.633498 0.164973
0.714259 0.645959 0.164708
0.799490 0.656647 0.164771
0.859122 0.662027 0.164708
0.912708 0.668021 0.164771
0.954248 0.672408 0.165186
0.976155 0.673966 0.165134
0.988373 0.674347 0.165186
0.990826 0.673966 0.165134
0.256731 0.592738 0.170115
0.268183 0.604891 0.170278
0.283390 0.616615 0.170981
0.308902 0.630641 0.170278
0.362976 0.650865 0.169725
0.455139 0.675254 0.169331
0.569270 0.700042 0.168014
0.674500 0.712113 0.166766
0.763958 0.718487 0.166345
0.833746 0.727204 0.166428
0.885620 0.732695 0.166345
0.931806 0.739502 0.166428
0.964492 0.744025 0.166745
0.981680 0.747061 0.166724
0.991026 0.747703 0.166745
0.993138 0.747916 0.166724
0.311023 0.689341 0.173181
0.338982 0.701958 0.173199
0.375287 0.712817 0.173181
0.420525 0.726415 0.172346
0.486199 0.741003 0.171895
0.566958 0.759259 0.170738
0.656815 0.775756 0.170177
0.739449 0.783695 0.169028
0.805838 0.783745 0.168451
0.861503 0.791393 0.168565
0.906029 0.797760 0.169315
0.944189 0.803506 0.169420
0.972656 0.808140 0.168984
0.985506 0.809764 0.168970
0.992577 0.810867 0.168984
0.994845 0.810746 0.168970
0.437849 0.778651 0.176426
0.473130 0.788395 0.176421
0.507520 0.796494 0.175542
0.550791 0.805293 0.175575
0.600189 0.814761 0.175021
0.660202 0.826245 0.174020
0.728892 0.837165 0.173309
0.792872 0.841226 0.172284
0.840290 0.838538 0.171672
0.884381 0.844858 0.171808
0.923124 0.850669 0.171672
0.956118 0.856071 0.171808
0.977930 0.859906 0.172119
0.988317 0.861878 0.172125
0.993704 0.863670 0.172119
0.995562 0.863758 0.172125
0.562018 0.849602 0.180516
0.590888 0.857377 0.180829
0.617867 0.861801 0.180516
0.648263 0.867764 0.179965
0.686089 0.873884 0.179478
0.733180 0.881246 0.178613
0.786841 0.888988 0.177749
0.838029 0.892483 0.176917
0.870939 0.887602 0.176269
0.903889 0.888749 0.176233
0.939504 0.894236 0.176269
0.965617 0.897241 0.176233
0.980883 0.900723 0.176245
0.989558 0.901966 0.176236
0.994493 0.903554 0.176245
0.995736 0.903882 0.176236
0.594305 0.869885 0.182678
0.621048 0.876818 0.182852
0.645387 0.882080 0.182678
0.673601 0.885305 0.181988
0.708104 0.891042 0.181301
0.751916 0.897419 0.180548
0.803900 0.905086 0.179604
0.850649 0.908666 0.178820
0.881267 0.904410 0.178193
0.909989 0.902364 0.178029
0.943229 0.907225 0.178193
0.968376 0.909926 0.178029
0.982049 0.912238 0.178038
0.990810 0.914355 0.178011
0.994572 0.916037 0.178038
0.995926 0.916282 0.178011
0.209688 0.212233 0.165644
0.212978 0.212300 0.165610
0.217768 0.212233 0.165644
0.222877 0.213299 0.165610
0.231149 0.212969 0.165955
0.251695 0.213523 0.165259
0.317623 0.211971 0.165091
0.421413 0.210486 0.164419
0.503354 0.209513 0.163934
0.557987 0.209205 0.163962
0.599423 0.208505 0.164774
0.638853 0.210217 0.164803
0.665548 0.210183 0.165242
0.687771 0.211261 0.166258
0.707913 0.211210 0.166968
0.713315 0.211261 0.167115
0.209812 0.215153 0.165698
0.212834 0.215199 0.165661
0.216073 0.215153 0.165698
0.220910 0.215199 0.165661
0.225966 0.215528 0.165634
0.235854 0.216515 0.165255
0.262318 0.215528 0.165634
0.338487 0.214481 0.165255
0.440498 0.212980 0.164641
0.515753 0.212148 0.164328
0.575481 0.211962 0.164641
0.621592 0.212148 0.166037
0.661967 0.213026 0.166308
0.691904 0.213240 0.167404
0.711933 0.214037 0.168037
0.714297 0.214238 0.168243
0.209962 0.218724 0.165773
0.212964 0.218715 0.165757
0.216251 0.218724 0.165773
0.221054 0.218715 0.165757
0.226663 0.219360 0.165797
0.232635 0.218962 0.165648
0.245697 0.219360 0.165797
0.284787 0.218962 0.165648
0.376640 0.217496 0.165054
0.466283 0.216326 0.164523
0.537832 0.216494 0.164205
0.594164 0.216326 0.164523
0.641921 0.216021 0.165836
0.681505 0.217191 0.166875
0.708629 0.218053 0.167549
0.715468 0.218212 0.167720
0.210195 0.222995 0.165986
0.213400 0.223025 0.165982
0.217376 0.222995 0.165986
0.220591 0.223025 0.165982
0.226081 0.223626 0.165973
0.233164 0.223339 0.165827
0.245114 0.223626 0.165973
0.280697 0.223339 0.165827
0.365209 0.222039 0.165316
0.459545 0.220666 0.164692
0.531788 0.219995 0.164466
0.593310 0.220666 0.164692
0.642925 0.220897 0.165356
0.685957 0.222158 0.167295
0.718166 0.222914 0.167907
0.725376 0.223159 0.168150
0.210676 0.228403 0.166277
0.214056 0.228415 0.166277
0.216960 0.228403 0.166277
0.222159 0.228415 0.166277
0.226990 0.227984 0.166229
0.233996 0.229652 0.166079
0.246944 0.229005 0.166229
0.284317 0.228657 0.166079
0.370727 0.227304 0.165489
0.468983 0.225936 0.164869
0.541669 0.225280 0.164641
0.605261 0.224901 0.164869
0.656709 0.225822 0.166664
0.699372 0.226980 0.167706
0.735397 0.228864 0.168371
0.743183 0.229012 0.168573
0.211377 0.236003 0.166681
0.214911 0.236056 0.166664
0.218557 0.236003 0.166681
0.223019 0.236056 0.166664
0.228591 0.236782 0.166555
0.235324 0.236747 0.166293
0.252190 0.236782 0.166555
0.297707 0.236747 0.166293
0.392265 0.235186 0.165622
0.494399 0.233858 0.165051
0.567760 0.233163 0.164768
0.632860 0.232842 0.165921
0.685902 0.234182 0.166452
0.729586 0.235390 0.167519
0.766142 0.236213 0.168159
0.774839 0.236390 0.168370
0.213025 0.252263 0.167113
0.216631 0.252540 0.167099
0.220207 0.252263 0.167113
0.225628 0.253556 0.167099
0.230642 0.253867 0.167471
0.239909 0.254497 0.166079
0.263413 0.255891 0.166615
0.327653 0.258537 0.166079
0.438556 0.257526 0.165487
0.544694 0.255197 0.165356
0.619034 0.254504 0.165487
0.684214 0.255197 0.165356
0.740595 0.255905 0.166344
0.783888 0.255516 0.166452
0.818415 0.255905 0.167213
0.826220 0.255516 0.167304
0.216373 0.291034 0.167645
0.220256 0.292391 0.167635
0.224487 0.294073 0.167645
0.230166 0.294418 0.167635
0.236027 0.297874 0.167319
0.250315 0.302894 0.167201
0.287308 0.310932 0.166482
0.379306 0.319938 0.165485
0.510533 0.327737 0.164935
0.622104 0.331301 0.165373
0.698342 0.332720 0.165790
0.765479 0.335299 0.166227
0.824982 0.337942 0.166500
0.865232 0.340211 0.167407
0.898018 0.339935 0.167356
0.905525 0.339209 0.167407
0.222014 0.362302 0.168308
0.226322 0.365226 0.168246
0.231025 0.368303 0.168308
0.237171 0.371220 0.168246
0.247119 0.378622 0.168211
0.267381 0.392399 0.167311
0.330397 0.414319 0.166505
0.452982 0.430936 0.164769
0.593484 0.448134 0.164763
0.702815 0.460353 0.165467
0.775741 0.466768 0.165616
0.840836 0.472072 0.166315
0.897664 0.478723 0.166125
0.935039 0.479419 0.166134
0.960537 0.479688 0.166973
0.966284 0.478446 0.166976
0.228891 0.442695 0.169030
0.233908 0.447431 0.169022
0.239755 0.451543 0.169030
0.249356 0.460185 0.169022
0.263116 0.471249 0.169438
0.297664 0.494455 0.168605
0.396622 0.524776 0.166884
0.533985 0.544814 0.165193
0.664158 0.562127 0.165205
0.761927 0.573773 0.165611
0.829511 0.579425 0.166058
0.888004 0.585256 0.166474
0.936576 0.589294 0.166347
0.966640 0.591518 0.166341
0.982751 0.591212 0.166347
0.986716 0.590563 0.166341
0.238966 0.515539 0.170111
0.246127 0.523181 0.170171
0.254440 0.532004 0.170111
0.267139 0.543479 0.170171
0.290598 0.562483 0.169871
0.356880 0.589939 0.169407
0.481971 0.621841 0.168164
0.611207 0.640456 0.166839
0.721790 0.652835 0.166556
0.805487 0.663182 0.166619
0.864586 0.669897 0.166556
0.917712 0.674505 0.166619
0.957469 0.678635 0.166924
0.979316 0.681119 0.166867
0.989339 0.681507 0.166924
0.991800 0.681119 0.166867
0.257664 0.599207 0.172280
0.268733 0.611129 0.172499
0.284320 0.623060 0.172280
0.310402 0.637796 0.172499
0.367075 0.658200 0.171769
0.461439 0.683099 0.170498
0.577791 0.707376 0.170050
0.682309 0.718903 0.168797
0.770788 0.725034 0.168278
0.838985 0.733536 0.168355
0.890392 0.739069 0.168278
0.934797 0.745887 0.168355
0.967347 0.750115 0.167796
0.983349 0.752264 0.169461
0.991600 0.753919 0.168631
0.993699 0.754185 0.168597
0.315533 0.697219 0.175768
0.344054 0.709709 0.175794
0.379914 0.720761 0.175768
0.428692 0.733252 0.174947
0.494067 0.748735 0.174241
0.574638 0.765958 0.173095
0.664045 0.782521 0.172544
0.746409 0.790277 0.171367
0.811551 0.789907 0.170737
0.865719 0.797666 0.170802
0.909632 0.803970 0.170737
0.947359 0.809839 0.170802
0.973187 0.813038 0.171141
0.985911 0.814885 0.171098
0.993125 0.816795 0.171141
0.995234 0.816719 0.171098
0.444694 0.786214 0.179627
0.480326 0.795724 0.179572
0.514543 0.803025 0.179627
0.556195 0.811603 0.178739
0.606173 0.822000 0.177854
0.667174 0.833008 0.176780
0.735161 0.843550 0.176132
0.798922 0.847943 0.175068
0.844997 0.844810 0.174400
0.888383 0.851058 0.174494
0.925617 0.856022 0.174400
0.958977 0.862251 0.175335
0.978559 0.865289 0.174684
0.988518 0.867350 0.174673
0.994248 0.869045 0.174684
0.995756 0.869244 0.174673
0.567764 0.857061 0.185111
0.596034 0.864034 0.185239
0.622686 0.869209 0.184252
0.653484 0.874420 0.183495
0.689948 0.880274 0.182907
0.737284 0.887281 0.181925
0.791941 0.895223 0.181156
0.843304 0.899427 0.180206
0.875890 0.894679 0.179524
0.907204 0.894522 0.179422
0.941168 0.899436 0.179524
0.966702 0.902057 0.179422
0.982123 0.904798 0.179306
0.990208 0.906879 0.179317
0.994642 0.908592 0.179306
0.996315 0.908711 0.179317
0.599567 0.876711 0.187382
0.626077 0.883656 0.187510
0.650800 0.888000 0.187382
0.678671 0.893073 0.186652
0.713837 0.897261 0.185746
0.756845 0.904393 0.184845
0.808749 0.911365 0.183168
0.855595 0.915696 0.182257
0.886087 0.911615 0.181568
0.913623 0.908253 0.181372
0.945918 0.911615 0.180701
0.969805 0.915765 0.181372
0.983407 0.917051 0.181197
0.989938 0.919439 0.181203
0.994888 0.920749 0.181197
0.996100 0.921374 0.181203
0.209577 0.212348 0.168364
0.212901 0.212359 0.168261
0.217649 0.212348 0.168364
0.221894 0.213387 0.168261
0.230228 0.213270 0.168615
0.247565 0.212728 0.167837
0.302697 0.212257 0.167749
0.404363 0.210714 0.166991
0.490561 0.209698 0.166437
0.551971 0.209257 0.166334
0.595557 0.208697 0.166437
0.636856 0.210270 0.167190
0.666079 0.211343 0.167924
0.689397 0.211394 0.168938
0.709637 0.211343 0.169625
0.714979 0.211394 0.169779
0.209712 0.215181 0.168363
0.212728 0.215223 0.168282
0.216904 0.215181 0.168363
0.220821 0.215223 0.168282
0.226557 0.215753 0.168161
0.234991 0.215803 0.167807
0.257441 0.215753 0.168161
0.325369 0.214774 0.167807
0.430843 0.213154 0.167089
0.510580 0.212270 0.166753
0.571531 0.212136 0.167089
0.620442 0.212270 0.167615
0.663021 0.213222 0.169058
0.693059 0.214378 0.170082
0.713993 0.214220 0.170768
0.716501 0.214378 0.170927
0.209928 0.218676 0.168392
0.212894 0.218721 0.168340
0.216216 0.218676 0.168392
0.220984 0.218721 0.168340
0.226030 0.219361 0.168271
0.232681 0.219085 0.168104
0.245049 0.219361 0.168271
0.282949 0.219085 0.168104
0.373549 0.217650 0.167520
0.465028 0.216372 0.166862
0.537611 0.215631 0.166664
0.593884 0.216372 0.167707
0.641494 0.216191 0.168504
0.684276 0.217331 0.168755
0.711384 0.218245 0.170210
0.718374 0.218352 0.170469
0.210133 0.222929 0.168592
0.213332 0.223021 0.168607
0.216397 0.222929 0.168592
0.221430 0.223021 0.168607
0.226347 0.223648 0.168494
0.233055 0.223388 0.168341
0.244449 0.223648 0.168494
0.278737 0.223388 0.168341
0.362155 0.222153 0.167742
0.457915 0.220733 0.167112
0.531563 0.220112 0.166905
0.593678 0.219744 0.167112
0.643389 0.221070 0.168050
0.686583 0.222268 0.170003
0.720724 0.223086 0.170620
0.728092 0.223301 0.170848
0.210577 0.228361 0.168905
0.213965 0.228403 0.168918
0.217759 0.228361 0.168905
0.222057 0.228403 0.168918
0.227175 0.227973 0.168751
0.233899 0.228687 0.169417
0.246217 0.228995 0.168751
0.282368 0.228687 0.168575
0.366883 0.227406 0.167992
0.466111 0.226063 0.167317
0.539654 0.225381 0.167131
0.605401 0.225053 0.167317
0.656803 0.225925 0.169431
0.701162 0.228194 0.169641
0.737603 0.228967 0.171157
0.746048 0.229192 0.171362
0.211283 0.235921 0.169336
0.214720 0.235987 0.169335
0.218473 0.235921 0.169336
0.222826 0.235987 0.169335
0.228275 0.236672 0.169104
0.235875 0.236667 0.168810
0.250967 0.236672 0.169104
0.294572 0.236667 0.168810
0.388169 0.235178 0.168166
0.491886 0.233854 0.167554
0.566494 0.233155 0.167343
0.632316 0.232838 0.168415
0.687925 0.234420 0.169232
0.731149 0.235672 0.170302
0.768191 0.236452 0.170931
0.777441 0.236676 0.171163
0.212825 0.252062 0.169811
0.216442 0.252316 0.169773
0.220011 0.252062 0.169811
0.224542 0.252316 0.169773
0.231349 0.253619 0.170187
0.239922 0.255001 0.169632
0.261367 0.255643 0.169336
0.322974 0.258034 0.168790
0.433548 0.257285 0.168133
0.541834 0.254953 0.167919
0.617927 0.254263 0.168133
0.683314 0.255970 0.168779
0.741120 0.255178 0.168921
0.784824 0.257011 0.169012
0.820039 0.256185 0.169762
0.828188 0.256001 0.169854
0.216142 0.291708 0.170440
0.220001 0.292536 0.170406
0.224229 0.293737 0.170440
0.229019 0.294562 0.169567
0.236015 0.296962 0.170114
0.248267 0.301866 0.169875
0.283603 0.309996 0.169284
0.373287 0.318917 0.168168
0.504859 0.327007 0.167559
0.619024 0.331062 0.168042
0.697692 0.333016 0.168419
0.764495 0.336044 0.168892
0.825451 0.339078 0.169124
0.866892 0.340624 0.169967
0.900686 0.342077 0.169964
0.908335 0.341628 0.169967
0.221710 0.364380 0.171167
0.225978 0.366600 0.171158
0.230740 0.369366 0.171167
0.235927 0.372569 0.171158
0.246623 0.378829 0.171093
0.265564 0.392662 0.170950
0.325178 0.414496 0.169378
0.448055 0.432192 0.167535
0.589910 0.449665 0.167432
0.701634 0.462250 0.168153
0.777389 0.468288 0.169139
0.840798 0.474953 0.169018
0.899624 0.481314 0.168863
0.937160 0.483355 0.169663
0.962443 0.483258 0.169694
0.968439 0.482385 0.169663
0.228562 0.446063 0.172096
0.233449 0.449565 0.172063
0.239433 0.453928 0.171222
0.247989 0.460344 0.172063
0.260592 0.472666 0.171610
0.293324 0.494493 0.171560
0.390088 0.526142 0.169880
0.530250 0.547782 0.168139
0.661946 0.565148 0.168002
0.761790 0.577236 0.168443
0.830492 0.582405 0.168861
0.888975 0.588739 0.169295
0.937703 0.593654 0.169115
0.968652 0.595289 0.169026
0.983774 0.595593 0.169115
0.987719 0.595289 0.169026
0.238261 0.519154 0.173361
0.245180 0.525722 0.173351
0.253731 0.533712 0.173361
0.265267 0.545025 0.173351
0.286678 0.563554 0.173089
0.350072 0.591456 0.172534
0.476736 0.624826 0.171376
0.610014 0.644815 0.169962
0.721418 0.656958 0.169579
0.805967 0.667169 0.169642
0.865348 0.673008 0.169579
0.917077 0.678551 0.169642
0.957758 0.684035 0.169826
0.978459 0.685562 0.169749
0.989568 0.685923 0.169826
0.992026 0.685562 0.169749
0.256414 0.602690 0.176035
0.266481 0.613200 0.176203
0.281205 0.624638 0.176035
0.306210 0.639873 0.176203
0.359461 0.660018 0.176188
0.456540 0.685482 0.174829
0.574720 0.710965 0.173619
0.682365 0.724057 0.172252
0.770832 0.729194 0.171622
0.839760 0.737823 0.171641
0.890391 0.744219 0.171622
0.934550 0.750090 0.171641
0.966623 0.754909 0.171811
0.983856 0.756857 0.171718
0.992011 0.758561 0.171811
0.994246 0.758740 0.171718
0.311945 0.701964 0.180701
0.338740 0.713495 0.180570
0.374268 0.724605 0.179847
0.421235 0.737024 0.180570
0.488807 0.752711 0.179439
0.570645 0.770451 0.177323
0.662684 0.787409 0.176857
0.747615 0.796751 0.175600
0.812222 0.795365 0.174788
0.866262 0.802974 0.174796
0.910235 0.809425 0.174788
0.947894 0.815120 0.174796
0.974535 0.819165 0.175012
0.987073 0.820962 0.174944
0.993501 0.821979 0.175012
0.995381 0.821868 0.174944
0.438933 0.791615 0.186154
0.474334 0.800895 0.186089
0.509658 0.808511 0.185298
0.551033 0.816832 0.184369
0.603315 0.827387 0.184058
0.665220 0.838449 0.182813
0.734298 0.849826 0.181452
0.801287 0.856230 0.180226
0.846513 0.851703 0.179399
0.888693 0.857031 0.179380
0.927198 0.862969 0.179399
0.958212 0.867339 0.179380
0.978735 0.870951 0.179418
0.988796 0.872879 0.179311
0.994468 0.874640 0.179418
0.996017 0.874676 0.179311
0.564065 0.864041 0.194499
0.591410 0.870321 0.194281
0.618909 0.875308 0.192767
0.648765 0.880610 0.192549
0.687797 0.887072 0.190409
0.735238 0.893512 0.189998
0.790837 0.902054 0.187813
0.844500 0.907599 0.186541
0.879029 0.903885 0.185622
0.908458 0.901341 0.185342
0.942117 0.904828 0.185622
0.966878 0.908777 0.185342
0.982503 0.910563 0.185773
0.990152 0.912608 0.184859
0.994900 0.914365 0.184917
0.996315 0.914480 0.184859
0.596786 0.884309 0.198132
0.621997 0.890133 0.197824
0.646901 0.894612 0.196396
0.675568 0.899568 0.195209
0.711734 0.904891 0.193688
0.754691 0.911147 0.191555
0.807544 0.918084 0.190208
0.856670 0.923338 0.188960
0.889924 0.921470 0.188060
0.915040 0.915344 0.187574
0.946450 0.918578 0.187203
0.970136 0.920966 0.186718
0.983733 0.923808 0.187057
0.990410 0.925169 0.187057
0.995091 0.926667 0.187057
0.996502 0.927092 0.187057
0.209426 0.212522 0.171562
0.212546 0.212574 0.171564
0.216607 0.213534 0.171562
0.221527 0.212574 0.171564
0.228599 0.212694 0.171907
0.241588 0.213238 0.171207
0.282491 0.212694 0.171047
0.378721 0.211210 0.170356
0.472578 0.210013 0.169666
0.542425 0.209470 0.169456
0.589314 0.210013 0.169666
0.632289 0.210482 0.171157
0.667058 0.211531 0.171363
0.692497 0.210609 0.172352
0.712639 0.211531 0.173077
0.718153 0.211619 0.173206
0.209573 0.215316 0.171589
0.212529 0.215411 0.171489
0.216753 0.215316 0.171589
0.220608 0.215411 0.171489
0.226646 0.215957 0.171317
0.234017 0.216228 0.171896
0.251148 0.215957 0.171317
0.307530 0.215223 0.171035
0.411590 0.213654 0.170296
0.497866 0.212604 0.169827
0.563603 0.211623 0.170296
0.615588 0.212604 0.170686
0.660169 0.213523 0.172454
0.695711 0.213714 0.173568
0.717459 0.214535 0.174151
0.720229 0.214726 0.174426
0.209824 0.218767 0.171604
0.212735 0.218863 0.171566
0.216123 0.218767 0.171604
0.219930 0.218863 0.171566
0.225391 0.219466 0.171377
0.232090 0.219306 0.171269
0.243509 0.219466 0.171377
0.277760 0.219306 0.171269
0.363972 0.217917 0.170709
0.459292 0.216624 0.169999
0.532451 0.215899 0.169853
0.593056 0.215620 0.169999
0.641976 0.217498 0.171918
0.685017 0.217685 0.172162
0.714931 0.218501 0.173637
0.722334 0.218701 0.173869
0.210067 0.223010 0.171795
0.213198 0.223091 0.171805
0.216370 0.223010 0.171795
0.221283 0.223091 0.171805
0.226078 0.222708 0.171612
0.232835 0.223514 0.171460
0.243280 0.223717 0.171612
0.274831 0.223514 0.171460
0.354512 0.222387 0.170953
0.452869 0.220880 0.170276
0.527494 0.220358 0.170094
0.592562 0.219862 0.171141
0.643284 0.221281 0.171476
0.688867 0.222497 0.173414
0.723835 0.223305 0.174049
0.731616 0.223519 0.174284
0.210451 0.228430 0.172114
0.213743 0.228501 0.172123
0.217649 0.228430 0.171264
0.221847 0.228501 0.171260
0.226081 0.228002 0.171880
0.233672 0.227765 0.171706
0.245099 0.229001 0.171880
0.278432 0.228787 0.171706
0.359259 0.227602 0.171258
0.460306 0.226129 0.170546
0.536602 0.225567 0.169543
0.603444 0.225119 0.170546
0.657959 0.226085 0.172009
0.701715 0.228357 0.173091
0.739815 0.229103 0.174585
0.748810 0.229352 0.174831
0.211139 0.235933 0.172606
0.214522 0.236047 0.172585
0.218335 0.235933 0.172606
0.222619 0.236047 0.172585
0.228379 0.236592 0.172281
0.234132 0.236636 0.172840
0.249249 0.236592 0.172281
0.290008 0.236636 0.171993
0.380928 0.235251 0.171436
0.486020 0.233923 0.170837
0.562840 0.233243 0.170565
0.630408 0.232922 0.171698
0.687171 0.234585 0.172670
0.731082 0.234897 0.172955
0.769627 0.236614 0.174403
0.779400 0.236913 0.174668
0.212645 0.252010 0.173185
0.216236 0.252471 0.173168
0.219833 0.253024 0.173185
0.224333 0.252471 0.173168
0.229712 0.253369 0.173495
0.238945 0.254632 0.172147
0.258811 0.255382 0.172641
0.316330 0.257664 0.172147
0.425588 0.257119 0.171452
0.536448 0.254869 0.171221
0.614625 0.254089 0.171452
0.680919 0.255880 0.171221
0.741333 0.255545 0.172385
0.785890 0.256451 0.172532
0.821310 0.256552 0.173249
0.830377 0.256451 0.173386
0.215829 0.292029 0.173956
0.219633 0.293353 0.173949
0.223933 0.294036 0.173956
0.228651 0.295345 0.173949
0.235489 0.296525 0.173620
0.246940 0.302245 0.173356
0.279384 0.309586 0.172755
0.365208 0.318291 0.171636
