example_ofxGpuLutCube/bin/data/ofxGpuLutCube/LUT/T43 (hard teal warm fade).cube
LUT_3D_SIZE 6
0.209701 0.212228 0.163456
0.221920 0.213248 0.164310
0.323289 0.211846 0.163037
0.561753 0.209120 0.162019
0.664491 0.210037 0.164211
0.711047 0.211138 0.165244
0.210257 0.223087 0.163876
0.220628 0.223122 0.163878
0.245132 0.223653 0.163920
0.459486 0.220568 0.162811
0.640327 0.220709 0.164333
0.722665 0.222925 0.166236
0.213052 0.252286 0.165054
0.225661 0.253655 0.165047
0.263823 0.255891 0.164716
0.543014 0.254577 0.163571
0.737689 0.254210 0.164644
0.821317 0.253835 0.165632
0.228575 0.437410 0.167112
0.248088 0.454307 0.167158
0.390511 0.517683 0.165048
0.755650 0.566705 0.163823
0.932904 0.582033 0.164661
0.984977 0.582859 0.164643
0.311023 0.689341 0.173181
0.420525 0.726415 0.172346
0.656815 0.775756 0.170177
0.861503 0.791393 0.168565
0.972656 0.808140 0.168984
0.994845 0.810746 0.168970
0.594305 0.869885 0.182678
0.673601 0.885305 0.181988
0.803900 0.905086 0.179604
0.909989 0.902364 0.178029
0.982049 0.912238 0.178038
0.995926 0.916282 0.178011
0.209426 0.212522 0.171562
0.221527 0.212574 0.171564
0.282491 0.212694 0.171047
0.542425 0.209470 0.169456
0.667058 0.211531 0.171363
0.718153 0.211619 0.173206
0.210067 0.223010 0.171795
0.221283 0.223091 0.171805
0.243280 0.223717 0.171612
0.452869 0.220880 0.170276
0.643284 0.221281 0.171476
0.731616 0.223519 0.174284
0.212645 0.252010 0.173185
0.224333 0.252471 0.173168
0.258811 0.255382 0.172641
0.536448 0.254869 0.171221
0.741333 0.255545 0.172385
0.830377 0.256451 0.173386
0.227945 0.449181 0.176042
0.246303 0.462148 0.175990
0.379054 0.526887 0.173867
0.759410 0.580625 0.172125
0.939396 0.596806 0.172748
0.988365 0.598857 0.172649
0.303049 0.707510 0.188816
0.407447 0.741021 0.187463
0.656156 0.793370 0.183637
0.865206 0.809588 0.180955
0.974584 0.825551 0.180871
0.995711 0.828328 0.180715
0.588068 0.894299 0.222368
0.666661 0.906695 0.217002
0.802302 0.926494 0.205788
0.917171 0.926680 0.199907
0.983853 0.931971 0.197390
0.996760 0.934052 0.197336
0.209013 0.213153 0.189824
0.220056 0.213519 0.186888
0.248739 0.213538 0.186325
0.497070 0.210494 0.184232
0.665953 0.211563 0.188271
0.737855 0.213847 0.190411
0.209360 0.223928 0.190558
0.219796 0.224552 0.188803
0.240392 0.224418 0.187368
0.433630 0.222281 0.186009
0.650274 0.224323 0.188732
0.751801 0.226747 0.192766
0.211168 0.257668 0.202463
0.222873 0.256568 0.198896
0.248548 0.259171 0.197472
0.513594 0.260675 0.192424
0.746099 0.261500 0.193942
0.845600 0.263781 0.196060
0.221681 0.483311 0.246747
0.236627 0.487309 0.242951
0.304727 0.547367 0.238087
0.741080 0.620739 0.217165
0.939444 0.635818 0.211017
0.990157 0.637167 0.207183
0.251914 0.734925 0.362246
0.303406 0.770144 0.360531
0.566788 0.840249 0.363604
0.851802 0.871424 0.337641
0.972644 0.877240 0.330024
0.997824 0.878778 0.323052
0.476914 0.937129 0.506957
0.571258 0.947764 0.501337
0.737275 0.971304 0.493831
0.909214 0.986092 0.479184
0.985236 0.976178 0.466138
1.000020 0.977408 0.461285
0.208773 0.213437 0.287838
0.219462 0.213931 0.315547
0.238935 0.213964 0.304751
0.431453 0.215306 0.318448
0.648300 0.217450 0.323323
0.744864 0.218712 0.327791
0.208877 0.224801 0.340950
0.219696 0.224785 0.343071
0.238197 0.225330 0.327061
0.396841 0.226943 0.337505
0.642958 0.230002 0.349585
0.753947 0.232378 0.356312
0.212073 0.264715 0.414933
0.225772 0.270402 0.433989
0.245061 0.269134 0.416079
0.462470 0.281912 0.441908
0.729452 0.292468 0.467371
0.847205 0.301453 0.478077
0.216094 0.543570 0.588654
0.227771 0.574538 0.618222
0.263457 0.582271 0.600064
0.641805 0.711716 0.656676
0.907155 0.734073 0.661031
0.987627 0.736645 0.655627
0.230935 0.763980 0.696315
0.257448 0.779021 0.693778
0.386332 0.852048 0.711735
0.774519 0.925080 0.751216
0.953544 0.934608 0.748877
0.997279 0.936572 0.741121
0.316340 0.923884 0.758178
0.407164 0.950806 0.764375
0.626727 0.986458 0.784401
0.843768 1.000028 0.801486
0.980329 1.000028 0.796062
1.000028 1.000020 0.792154
0.209001 0.213973 0.408112
0.218037 0.214018 0.469425
0.236005 0.214856 0.479732
0.368738 0.215705 0.504392
0.617685 0.217847 0.536013
0.725987 0.220142 0.547587
0.207838 0.226313 0.492232
0.217950 0.227692 0.507908
0.235235 0.227285 0.514577
0.357338 0.228244 0.532702
0.617647 0.231719 0.565401
0.742892 0.234166 0.584253
0.209944 0.276055 0.585808
0.222587 0.287618 0.615006
0.242043 0.293854 0.629683
0.419430 0.301975 0.662829
0.709692 0.311217 0.696974
0.849463 0.323148 0.726792
0.210675 0.550518 0.763255
0.223315 0.583422 0.798556
0.249648 0.605062 0.807984
0.553885 0.724942 0.869335
0.863964 0.751014 0.888504
0.975581 0.761453 0.896631
0.222423 0.789636 0.889455
0.241986 0.799413 0.889991
0.322832 0.854440 0.904062
0.714193 0.931323 0.937703
0.922204 0.948237 0.946365
0.989771 0.952062 0.947078
0.285480 0.922792 0.928313
0.333327 0.948379 0.933494
0.559817 0.981787 0.941448
0.805537 1.000028 0.961961
0.956680 1.000028 0.969056
0.996743 1.000028 0.968772
0.208243 0.215358 0.497931
0.215148 0.217196 0.571148
0.231601 0.217314 0.600482
0.333220 0.217826 0.622227
0.582034 0.220584 0.657984
0.719488 0.222035 0.684078
0.205451 0.229108 0.594147
0.216027 0.230588 0.613695
0.231565 0.231778 0.644025
0.341870 0.231823 0.665652
0.606124 0.234752 0.707517
0.746855 0.237328 0.730783
0.209115 0.297905 0.699509
0.222169 0.313882 0.728517
0.239600 0.329611 0.766599
0.398419 0.345842 0.804009
0.704924 0.363509 0.847040
0.845538 0.381396 0.865470
0.208373 0.557684 0.855897
0.221709 0.588437 0.878586
0.246781 0.618991 0.900435
0.517161 0.736038 0.967688
0.839803 0.766636 0.988439
0.956183 0.781212 0.989790
0.220779 0.767504 0.920277
0.240700 0.787700 0.929710
0.326688 0.850659 0.959211
0.721845 0.933025 0.993259
0.915625 0.954313 1.000020
0.985147 0.965236 1.000012
0.280957 0.907872 0.957502
0.328997 0.939165 0.967874
0.584440 0.982270 0.983479
0.835391 1.000028 0.995581
0.967261 1.000028 1.000018
0.997088 1.000028 1.000027
