example_ofxGpuLutCube/bin/data/ofxGpuLutCube/LUT/T44 (sunset teal warm fade).cube
LUT_3D_SIZE 16
0.050443 0.060728 0.043687
0.060665 0.060250 0.043571
0.079736 0.060728 0.043687
0.105441 0.059217 0.042794
0.139714 0.059292 0.042402
0.186281 0.059294 0.041469
0.250105 0.060325 0.041627
0.340087 0.062389 0.040692
0.449859 0.064426 0.038219
0.538562 0.065922 0.036320
0.604954 0.068554 0.035896
0.659891 0.072108 0.037869
0.706472 0.074258 0.039601
0.745750 0.075212 0.040287
0.781626 0.076319 0.041154
0.813799 0.077272 0.041842
0.051268 0.072240 0.043394
0.060194 0.072592 0.043327
0.080576 0.072240 0.043394
0.105807 0.071564 0.043327
0.140206 0.070092 0.042398
0.187550 0.067057 0.041353
0.254267 0.065971 0.041621
0.347138 0.068087 0.040581
0.458016 0.069972 0.037996
0.545741 0.071800 0.036213
0.611480 0.075123 0.037222
0.665191 0.076950 0.038535
0.710070 0.078878 0.038928
0.750298 0.080835 0.041156
0.785302 0.081965 0.041258
0.817364 0.082894 0.041935
0.051620 0.097057 0.043728
0.062089 0.096556 0.043621
0.080930 0.097057 0.042948
0.108607 0.096556 0.042840
0.145688 0.096008 0.042262
0.197572 0.090870 0.041514
0.271959 0.079543 0.041483
0.376873 0.074407 0.039961
0.489320 0.075608 0.037162
0.571306 0.078701 0.036003
0.632818 0.081785 0.037162
0.683074 0.083850 0.038324
0.725932 0.084894 0.040063
0.765391 0.087796 0.040709
0.799263 0.087986 0.041618
0.830433 0.088812 0.042263
0.053539 0.124645 0.043477
0.063509 0.124621 0.043399
0.082879 0.125668 0.043477
0.110068 0.127689 0.043399
0.149858 0.129230 0.042204
0.208358 0.129185 0.042189
0.293918 0.125132 0.041426
0.415629 0.113808 0.039078
0.524650 0.101083 0.036454
0.600020 0.099682 0.036481
0.657085 0.100052 0.038780
0.705190 0.100713 0.039582
0.748199 0.100988 0.040527
0.784446 0.099692 0.041645
0.817354 0.096869 0.042082
0.844241 0.094560 0.042420
0.056259 0.158926 0.042984
0.065654 0.159277 0.043007
0.084796 0.161984 0.042205
0.112258 0.166428 0.042231
0.157282 0.171024 0.042573
0.220651 0.175074 0.042612
0.323293 0.177144 0.041020
0.458526 0.175074 0.037953
0.565220 0.169757 0.036032
0.635596 0.167834 0.037603
0.689564 0.167710 0.039129
0.734186 0.168849 0.039929
0.774204 0.173040 0.041642
0.808321 0.175399 0.042546
0.837202 0.176090 0.042418
0.857288 0.175399 0.042546
0.060000 0.203209 0.042610
0.070239 0.203869 0.042610
0.087749 0.208278 0.042610
0.113523 0.218067 0.042610
0.163530 0.226914 0.042322
0.237233 0.236741 0.042045
0.364030 0.242100 0.039989
0.512861 0.243822 0.036614
0.609069 0.242432 0.037498
0.674334 0.243206 0.039335
0.724135 0.244454 0.040599
0.766258 0.247251 0.041667
0.801849 0.249563 0.042630
0.831057 0.252513 0.042642
0.851906 0.251581 0.042630
0.859423 0.250494 0.042642
0.067230 0.255806 0.043019
0.077295 0.257301 0.043033
0.093384 0.264889 0.043019
0.118147 0.279475 0.043033
0.170545 0.299732 0.043552
0.260580 0.319396 0.043423
0.421888 0.330815 0.039665
0.571608 0.334405 0.040313
0.659902 0.331486 0.041620
0.719849 0.330051 0.042525
0.761189 0.329496 0.043179
0.794172 0.332040 0.043304
0.823705 0.334502 0.042797
0.846791 0.336965 0.043535
0.855250 0.336491 0.043574
0.860980 0.335954 0.043535
0.078404 0.315383 0.043807
0.087114 0.317602 0.043840
0.102144 0.329402 0.043807
0.128171 0.352645 0.044617
0.183947 0.389412 0.046613
0.296199 0.437787 0.050487
0.487302 0.473143 0.053664
0.632470 0.482855 0.055982
0.709650 0.481674 0.056609
0.756645 0.477794 0.056045
0.792444 0.475808 0.055822
0.823754 0.473876 0.055260
0.851391 0.475470 0.055476
0.863837 0.476830 0.055395
0.869910 0.476449 0.055476
0.875864 0.475827 0.055395
0.091924 0.382887 0.045519
0.099143 0.386123 0.045621
0.117549 0.403743 0.046299
0.145661 0.437512 0.048746
0.204643 0.487514 0.051636
0.334089 0.550862 0.061651
0.533933 0.587055 0.068219
0.668800 0.598874 0.071177
0.745505 0.601499 0.072242
0.791662 0.601022 0.072043
0.827733 0.600554 0.071449
0.858019 0.600063 0.071246
0.881656 0.599797 0.071695
0.887445 0.601227 0.071614
0.893665 0.600737 0.071695
0.899410 0.600273 0.071614
0.106937 0.452732 0.048739
0.114886 0.457525 0.048964
0.137083 0.479157 0.050302
0.167025 0.514054 0.052104
0.225946 0.564498 0.058522
0.364139 0.625252 0.071500
0.564294 0.659016 0.078402
0.689746 0.668902 0.081101
0.768758 0.674140 0.083268
0.814144 0.675675 0.083485
0.850134 0.675103 0.083268
0.880587 0.675675 0.083485
0.896862 0.676189 0.083612
0.902821 0.677155 0.083607
0.908857 0.677186 0.083612
0.914827 0.677155 0.083607
0.122731 0.517868 0.051816
0.131439 0.523879 0.052251
0.154857 0.546876 0.054963
0.185751 0.579784 0.058543
0.247529 0.626810 0.066101
0.388086 0.678710 0.078229
0.588834 0.713807 0.087714
0.705680 0.720221 0.089503
0.783336 0.726254 0.092191
0.829850 0.728337 0.092626
0.866000 0.728112 0.092191
0.894218 0.729265 0.092626
0.907917 0.731193 0.093343
0.913928 0.732156 0.093343
0.919902 0.732156 0.093343
0.925896 0.732156 0.093343
0.137873 0.577181 0.057090
0.147283 0.583512 0.057870
0.172859 0.607824 0.061035
0.205575 0.637914 0.065780
0.271908 0.681051 0.073026
0.412547 0.725536 0.084820
0.606085 0.756311 0.094761
0.718694 0.763031 0.096954
0.794460 0.768837 0.099677
0.842478 0.770998 0.100352
0.878302 0.771683 0.100491
0.905759 0.772881 0.100352
0.916429 0.775411 0.101262
0.923221 0.776177 0.101237
0.928342 0.775411 0.101262
0.934078 0.775315 0.101237
0.153578 0.633310 0.063291
0.164582 0.640710 0.064310
0.191512 0.664628 0.067255
0.226954 0.692800 0.072261
0.302185 0.729842 0.080321
0.439869 0.768497 0.091739
0.623542 0.794570 0.102181
0.731540 0.801229 0.104769
0.804286 0.805224 0.106534
0.852300 0.807521 0.107459
0.887033 0.808917 0.108176
0.914434 0.810247 0.108278
0.923652 0.812786 0.108575
0.929490 0.813562 0.108520
0.935584 0.812786 0.108575
0.941466 0.812590 0.108520
0.168613 0.681860 0.068956
0.180620 0.689520 0.070092
0.208586 0.713858 0.073743
0.245244 0.738520 0.078885
0.326394 0.771836 0.086503
0.464149 0.803600 0.098072
0.638054 0.828018 0.108470
0.743973 0.835394 0.111977
0.812296 0.837312 0.112587
0.860608 0.839698 0.113725
0.894003 0.841097 0.114239
0.920553 0.843466 0.114556
0.929424 0.843702 0.114102
0.936132 0.845354 0.114897
0.941315 0.844684 0.114925
0.946940 0.844420 0.114897
0.181589 0.721264 0.073585
0.193382 0.728314 0.074660
0.220897 0.750385 0.078389
0.257432 0.774260 0.083481
0.339351 0.805109 0.091904
0.477156 0.834777 0.103218
0.647277 0.856595 0.113963
0.753699 0.865633 0.118835
0.819560 0.865815 0.118296
0.867083 0.867348 0.119081
0.901317 0.868634 0.119126
0.924892 0.870166 0.119913
0.933988 0.872133 0.120292
0.939694 0.872115 0.120264
0.945892 0.872133 0.120292
0.951559 0.872115 0.120264
0.192917 0.756481 0.077875
0.204650 0.762909 0.078986
0.231497 0.784560 0.082695
0.268093 0.804998 0.087843
0.348065 0.833242 0.096633
0.486498 0.861296 0.106894
0.654832 0.882838 0.118765
0.761664 0.893205 0.125031
0.826137 0.892542 0.123954
0.872426 0.892778 0.123855
0.905721 0.893489 0.124788
0.930131 0.895562 0.124685
0.937525 0.897013 0.125074
0.943521 0.896845 0.125046
0.949410 0.897013 0.125074
0.955408 0.896845 0.125046
0.050763 0.060846 0.052457
0.060221 0.060813 0.052734
0.080062 0.059815 0.052457
0.104988 0.059781 0.052734
0.139891 0.059302 0.051637
0.186471 0.059338 0.051044
0.251205 0.060334 0.048506
0.342184 0.062435 0.045571
0.452489 0.064426 0.042750
0.540569 0.066006 0.040527
0.606690 0.068554 0.041190
0.661950 0.072196 0.042082
0.707645 0.074331 0.043032
0.747647 0.075226 0.044474
0.782926 0.076391 0.045369
0.814749 0.077287 0.046031
0.051458 0.072400 0.052625
0.060465 0.072778 0.052531
0.080769 0.072400 0.052625
0.106088 0.072778 0.051752
0.140822 0.071150 0.051409
0.189178 0.067133 0.050921
0.255829 0.065990 0.048279
0.349795 0.068162 0.045447
0.460901 0.069975 0.042469
0.547693 0.071912 0.040405
0.613456 0.075125 0.040913
0.666150 0.077062 0.042737
0.711306 0.078921 0.043895
0.751583 0.080875 0.044583
0.786536 0.082011 0.045451
0.818676 0.082935 0.046146
0.052138 0.097164 0.052458
0.061797 0.097079 0.052369
0.081459 0.096135 0.052458
0.108309 0.097079 0.051587
0.145927 0.095785 0.050720
0.197614 0.091982 0.049313
0.273127 0.080350 0.047589
0.379836 0.074482 0.044626
0.491809 0.075612 0.041524
0.573383 0.078806 0.040152
0.634331 0.081791 0.041524
0.685242 0.083958 0.043266
0.728485 0.084939 0.044264
0.767507 0.087819 0.045681
0.800764 0.088032 0.045822
0.831458 0.088854 0.046462
0.053862 0.124735 0.052703
0.063711 0.124809 0.052569
0.083216 0.126784 0.052703
0.110265 0.127878 0.051784
0.150651 0.130972 0.050413
0.208304 0.130747 0.048290
0.295698 0.125849 0.046499
0.417517 0.115374 0.043608
0.526397 0.101168 0.040650
0.601633 0.100464 0.040680
0.659873 0.102194 0.042210
0.706903 0.101490 0.043787
0.749441 0.101550 0.044742
0.785444 0.102242 0.045810
0.818699 0.098461 0.046300
0.845163 0.095056 0.046592
0.056184 0.159443 0.051874
0.066349 0.159838 0.051877
0.084718 0.162505 0.051874
0.112109 0.166976 0.051093
0.156744 0.171926 0.050303
0.221790 0.176083 0.048309
0.325520 0.178051 0.045616
0.461730 0.176083 0.042065
0.567896 0.170992 0.040185
0.637355 0.169574 0.041813
0.691274 0.168953 0.043298
0.734906 0.171621 0.044930
0.774496 0.175607 0.045831
0.810946 0.178827 0.045955
0.838545 0.178655 0.046613
0.857763 0.177805 0.046733
0.061000 0.203898 0.050523
0.070097 0.204894 0.050745
0.087913 0.210004 0.051308
0.112512 0.219088 0.049178
0.163332 0.229728 0.048943
0.239505 0.238432 0.047015
0.367609 0.243893 0.044257
0.516381 0.245509 0.040786
0.612132 0.244239 0.041770
0.676818 0.244974 0.043595
0.726276 0.246262 0.044886
0.768721 0.248010 0.045148
0.803364 0.251729 0.046022
0.832257 0.254773 0.046821
0.852269 0.253743 0.046804
0.859466 0.252749 0.046821
0.067988 0.257279 0.048622
0.077493 0.258813 0.048505
0.094142 0.266363 0.048622
0.118356 0.280986 0.047724
0.170746 0.301723 0.048766
0.262838 0.322146 0.048003
0.426037 0.334807 0.044083
0.575176 0.338142 0.044882
0.662881 0.335475 0.046153
0.722130 0.333889 0.046985
0.762139 0.333483 0.046935
0.795347 0.335898 0.047763
0.824978 0.339385 0.047984
0.848045 0.340899 0.047944
0.855482 0.340406 0.047984
0.861157 0.339885 0.047944
0.078791 0.317243 0.048349
0.087526 0.319550 0.048355
0.103392 0.331267 0.048349
0.128584 0.355526 0.049138
0.184245 0.394177 0.050730
0.297661 0.444132 0.054647
0.491661 0.478771 0.058597
0.636208 0.488178 0.060956
0.712619 0.487494 0.061620
0.759249 0.483223 0.060988
0.795504 0.480679 0.060040
0.825315 0.479332 0.060199
0.853725 0.480910 0.060528
0.864793 0.483354 0.060453
0.871187 0.482863 0.060528
0.876819 0.482374 0.060453
0.092503 0.384820 0.049771
0.099670 0.388287 0.049868
0.118143 0.406632 0.051338
0.146198 0.440653 0.052219
0.205904 0.491062 0.056342
0.336961 0.555523 0.066404
0.537420 0.590536 0.072989
0.672011 0.602483 0.075966
0.747873 0.605132 0.077035
0.793922 0.604764 0.076883
0.830156 0.604148 0.076238
0.860271 0.603777 0.076084
0.882881 0.605317 0.076649
0.889428 0.605785 0.076582
0.894886 0.605317 0.076649
0.900398 0.604826 0.076582
0.107345 0.455001 0.053034
0.115238 0.459700 0.053281
0.136633 0.482366 0.053818
0.167395 0.517207 0.056427
0.225790 0.567284 0.063254
0.366569 0.627985 0.076280
0.567195 0.661794 0.083214
0.692372 0.671660 0.085914
0.770722 0.676580 0.088033
0.816336 0.678246 0.088285
0.852189 0.678498 0.088033
0.881711 0.679242 0.088285
0.897804 0.679967 0.088646
0.904613 0.680821 0.088637
0.909819 0.680924 0.088646
0.915508 0.680821 0.088637
0.123496 0.520540 0.056204
0.131831 0.526031 0.056607
0.156505 0.550478 0.058570
0.187061 0.582887 0.063714
0.246923 0.628851 0.070772
0.389989 0.681955 0.082959
0.591237 0.715964 0.092479
0.707726 0.722450 0.094281
0.785081 0.728474 0.096951
0.831645 0.730249 0.097363
0.867705 0.731292 0.096951
0.895977 0.732133 0.097363
0.908572 0.734012 0.098260
0.915364 0.735039 0.098256
0.920542 0.735012 0.098260
0.926222 0.735039 0.098256
0.138372 0.579358 0.061562
0.148084 0.585674 0.062358
0.173384 0.609991 0.066316
0.206396 0.641050 0.070296
0.270821 0.682935 0.077716
0.414124 0.728277 0.090367
0.607975 0.758206 0.099530
0.720530 0.764850 0.101753
0.795621 0.770734 0.104462
0.843755 0.772922 0.105138
0.879474 0.773587 0.105272
0.905949 0.775663 0.105138
0.916873 0.777995 0.106199
0.922586 0.777714 0.106164
0.928879 0.777995 0.106199
0.934556 0.777714 0.106164
0.154193 0.635505 0.067812
0.165282 0.642744 0.068812
0.192139 0.667769 0.072592
0.227650 0.694835 0.076796
0.300728 0.731957 0.085098
0.440334 0.770610 0.096568
0.625022 0.796716 0.107038
0.733118 0.803413 0.109640
0.805743 0.807325 0.111400
0.853840 0.809466 0.112291
0.887469 0.811053 0.113046
0.913803 0.813164 0.113118
0.925232 0.815080 0.113507
0.929936 0.815020 0.113471
0.936091 0.815080 0.113507
0.941894 0.815020 0.113471
0.169628 0.684170 0.073536
0.181095 0.691581 0.074640
0.209611 0.716202 0.078343
0.245722 0.740490 0.082654
0.324547 0.773964 0.091350
0.463193 0.806584 0.102135
0.639144 0.830154 0.113389
0.745048 0.837444 0.116918
0.813619 0.839338 0.117501
0.861791 0.841602 0.118588
0.895346 0.843121 0.118326
0.920659 0.845321 0.119418
0.930809 0.846809 0.119823
0.935623 0.846589 0.120634
0.941683 0.846809 0.119823
0.947508 0.846589 0.119796
0.182134 0.723370 0.078131
0.194053 0.730352 0.079234
0.222324 0.752466 0.082953
0.257222 0.776258 0.087283
0.336841 0.807027 0.096660
0.476201 0.836731 0.108133
0.647628 0.858468 0.118804
0.754888 0.867675 0.123803
0.820554 0.867798 0.123227
0.868012 0.869233 0.123932
0.902305 0.870670 0.124068
0.925834 0.872986 0.125589
0.934224 0.873810 0.125175
0.939967 0.873782 0.125126
0.946124 0.873810 0.125175
0.951743 0.873782 0.125126
0.193548 0.758322 0.082475
0.205345 0.764719 0.083555
0.233059 0.786367 0.087303
0.266965 0.806880 0.091626
0.345296 0.834908 0.100552
0.485728 0.863177 0.111860
0.654992 0.884521 0.123581
0.762909 0.895045 0.130071
0.827759 0.894458 0.128923
0.873124 0.894521 0.128700
0.906231 0.895400 0.129751
0.930831 0.897361 0.129536
0.938030 0.898749 0.129876
0.944851 0.898471 0.129866
0.949924 0.898749 0.129876
0.955692 0.898471 0.129866
0.051207 0.060823 0.070767
0.061046 0.059931 0.070795
0.080514 0.060823 0.070767
0.104121 0.059931 0.070795
0.138674 0.059369 0.069896
0.187364 0.059452 0.069211
0.252664 0.060403 0.066716
0.345998 0.062549 0.063653
0.458029 0.064464 0.058255
0.545627 0.066304 0.053981
0.612493 0.069620 0.052745
0.666119 0.071462 0.051625
0.711697 0.074459 0.051800
0.752463 0.075357 0.051435
0.786972 0.076519 0.051800
0.818479 0.077418 0.052222
0.051513 0.072608 0.070880
0.061628 0.072431 0.070840
0.080825 0.072608 0.070880
0.104721 0.073460 0.070840
0.140180 0.072291 0.069550
0.189590 0.067233 0.068461
0.257900 0.066107 0.066372
0.354050 0.068269 0.062907
0.467373 0.070020 0.057751
0.553517 0.072224 0.053758
0.618145 0.075173 0.052248
0.671129 0.078410 0.051407
0.715384 0.079086 0.051864
0.755252 0.081002 0.051463
0.790735 0.082178 0.051864
0.822386 0.083062 0.052248
0.053397 0.096788 0.070649
0.062755 0.096743 0.070725
0.081050 0.096788 0.070649
0.107578 0.097782 0.070725
0.145262 0.097022 0.069525
0.199701 0.092204 0.068453
0.277029 0.081597 0.065552
0.387823 0.074711 0.061320
0.500539 0.075707 0.056047
0.580008 0.079171 0.052431
0.640314 0.081888 0.052114
0.689965 0.084315 0.051649
0.732720 0.086120 0.051325
0.771040 0.086878 0.051498
0.804967 0.088180 0.052114
0.835067 0.088940 0.052280
0.054698 0.125438 0.071177
0.064050 0.125639 0.071287
0.083212 0.127479 0.071177
0.109762 0.129744 0.071287
0.151673 0.131863 0.069459
0.210538 0.132066 0.066662
0.300490 0.128800 0.063900
0.425788 0.117721 0.058747
0.533926 0.101894 0.053680
0.608193 0.101997 0.051575
0.664526 0.102919 0.052112
0.712625 0.104050 0.050792
0.753974 0.105185 0.050594
0.790831 0.103948 0.051434
0.823174 0.102110 0.052164
0.848388 0.098808 0.052217
0.057253 0.160975 0.071659
0.066966 0.161426 0.071644
0.085812 0.164026 0.071659
0.111032 0.170630 0.070840
0.157700 0.175479 0.069495
0.224702 0.179205 0.066178
0.332181 0.181587 0.060767
0.470894 0.180226 0.053542
0.574712 0.175665 0.049329
0.642887 0.175140 0.049362
0.695087 0.175665 0.050113
0.740543 0.177197 0.050147
0.778931 0.181660 0.050958
0.814964 0.184948 0.051767
0.841900 0.184706 0.051743
0.858518 0.183931 0.051767
0.062037 0.206682 0.070882
0.071306 0.207658 0.070785
0.088970 0.212791 0.070882
0.112042 0.222890 0.069987
0.163225 0.233845 0.067377
0.242810 0.242965 0.065078
0.378041 0.250029 0.057881
0.527177 0.251050 0.049318
0.621243 0.250611 0.047666
0.684890 0.250992 0.048466
0.733400 0.252633 0.049232
0.773765 0.255037 0.050037
0.808849 0.258712 0.051021
0.836428 0.260214 0.051024
0.853450 0.260717 0.051021
0.859239 0.260214 0.051024
0.069273 0.261983 0.068822
0.078859 0.263480 0.068706
0.094598 0.272064 0.068029
0.117162 0.287651 0.067112
0.170018 0.310232 0.064125
0.267318 0.331765 0.062359
0.438944 0.348254 0.054654
0.586386 0.350753 0.052899
0.671873 0.348387 0.052385
0.728290 0.346646 0.052188
0.768052 0.346397 0.052385
0.800614 0.347653 0.052188
0.828855 0.350979 0.052903
0.849791 0.353460 0.052871
0.856114 0.352970 0.052903
0.861757 0.352447 0.052871
0.081173 0.323995 0.065721
0.089493 0.326350 0.065573
0.104100 0.339007 0.064929
0.127996 0.365295 0.063197
0.184634 0.406524 0.061918
0.304812 0.459527 0.063910
0.504110 0.496787 0.067470
0.646352 0.505375 0.068676
0.721230 0.504608 0.068150
0.767302 0.501454 0.067618
0.803133 0.497805 0.066558
0.833487 0.496590 0.066819
0.859910 0.500039 0.066624
0.869878 0.502658 0.067358
0.875179 0.502951 0.067415
0.880742 0.502658 0.067358
0.094359 0.393009 0.063954
0.101529 0.396592 0.063668
0.120875 0.416754 0.063161
0.148096 0.450846 0.062085
0.205335 0.502606 0.064044
0.342571 0.567582 0.074800
0.546946 0.602831 0.079193
0.680424 0.614534 0.082015
0.755425 0.617760 0.083196
0.800802 0.617797 0.083052
0.836663 0.616796 0.082384
0.866037 0.616833 0.083052
0.885943 0.619159 0.082454
0.892848 0.620894 0.083235
0.897929 0.621090 0.083259
0.903766 0.620894 0.083235
0.109571 0.463384 0.064440
0.117413 0.468394 0.064538
0.138890 0.490757 0.065234
0.169627 0.526739 0.065333
0.226655 0.577487 0.070933
0.371203 0.637078 0.082255
0.575405 0.671835 0.089394
0.699701 0.680701 0.091945
0.776701 0.685897 0.094073
0.821917 0.687272 0.094295
0.857111 0.688696 0.094073
0.886273 0.690150 0.095097
0.900600 0.692723 0.094581
0.906374 0.693498 0.095367
0.912591 0.693587 0.095382
0.918352 0.693498 0.095367
0.125766 0.528978 0.067995
0.133881 0.534632 0.068294
0.157058 0.557881 0.069582
0.189167 0.590425 0.072278
0.246850 0.637642 0.077287
0.393571 0.689751 0.088054
0.596336 0.723634 0.098277
0.713811 0.730263 0.100231
0.790271 0.736196 0.102850
0.836650 0.737818 0.103246
0.870724 0.739893 0.103672
0.898838 0.742582 0.104067
0.910668 0.743792 0.104578
0.917453 0.744834 0.104602
0.922634 0.744700 0.104578
0.928330 0.744834 0.104602
0.140892 0.587674 0.073947
0.150398 0.594062 0.074603
0.175947 0.617321 0.077151
0.207883 0.648384 0.080212
0.266471 0.688592 0.084373
0.414505 0.735741 0.094743
0.611351 0.765670 0.105478
0.725187 0.772340 0.107805
0.800101 0.777736 0.110432
0.848049 0.779849 0.111100
0.882827 0.782456 0.111250
0.909121 0.784472 0.111918
0.919867 0.786152 0.111647
0.924676 0.786010 0.112431
0.930691 0.786152 0.112472
0.936597 0.786010 0.112431
0.156864 0.643058 0.083151
0.167896 0.650411 0.083365
0.194826 0.675284 0.085569
0.227627 0.701535 0.089018
0.291322 0.737607 0.095018
0.438936 0.777524 0.102837
0.626990 0.804172 0.113002
0.736912 0.811230 0.115974
0.809297 0.814477 0.117414
0.857360 0.816787 0.118359
0.890983 0.819153 0.118240
0.916192 0.820521 0.119189
0.925772 0.822766 0.119706
0.932791 0.822574 0.119693
0.937737 0.822766 0.119706
0.943678 0.822574 0.119693
0.172472 0.691373 0.095075
0.184082 0.698786 0.094487
0.210717 0.723414 0.093448
0.244232 0.747722 0.096924
0.312997 0.779350 0.103069
0.459060 0.813589 0.110297
0.639851 0.837355 0.119503
0.748114 0.845417 0.123499
0.816434 0.846617 0.123642
0.864780 0.848590 0.124715
0.898218 0.850364 0.125296
0.922591 0.852322 0.126376
0.931201 0.853714 0.125965
0.936877 0.853702 0.125941
0.943107 0.853714 0.125965
0.948739 0.853702 0.125941
0.185083 0.730293 0.097727
0.196669 0.737222 0.097233
0.223528 0.759355 0.097727
0.256242 0.782235 0.101306
0.324642 0.811063 0.107358
0.469757 0.842184 0.114550
0.647641 0.865367 0.124677
0.757568 0.874994 0.130292
0.823606 0.875007 0.129509
0.870697 0.875753 0.129945
0.904263 0.877843 0.130334
0.928407 0.879520 0.130769
0.935452 0.880546 0.131214
0.941358 0.880540 0.131174
0.947381 0.880546 0.131214
0.953215 0.880540 0.131174
0.196014 0.764745 0.099183
0.207611 0.771044 0.098724
0.234664 0.791956 0.102436
0.266545 0.812249 0.105265
0.333646 0.838190 0.109475
0.480070 0.868188 0.117533
0.654557 0.890593 0.129314
0.765459 0.901957 0.136651
0.830397 0.900858 0.135162
0.875821 0.900340 0.134608
0.908889 0.902747 0.135162
0.931348 0.903132 0.135442
0.939202 0.904101 0.135675
0.945807 0.903948 0.136474
0.951109 0.904101 0.135675
0.956545 0.903948 0.135640
0.052948 0.060314 0.093759
0.062440 0.060398 0.093929
0.081442 0.060314 0.093759
0.105542 0.059364 0.094742
0.138326 0.059366 0.094685
0.185288 0.059451 0.094164
0.250470 0.060399 0.092257
0.344735 0.062548 0.089306
0.458059 0.064487 0.085292
0.546708 0.066422 0.082382
0.614628 0.069647 0.081274
0.668310 0.071581 0.081580
0.713998 0.073504 0.083741
0.754074 0.075450 0.084306
0.789296 0.076591 0.084547
0.821098 0.077511 0.085114
0.053529 0.072480 0.093939
0.063145 0.072416 0.094109
0.082023 0.071450 0.093939
0.105411 0.072416 0.094921
0.139877 0.072318 0.094739
0.187974 0.068284 0.094043
0.255749 0.066126 0.092302
0.353271 0.068284 0.089183
0.467830 0.070061 0.085194
0.554957 0.072353 0.082397
0.620751 0.076247 0.081973
0.673644 0.078539 0.082397
0.718976 0.080207 0.083247
0.759048 0.081081 0.084472
0.793370 0.082265 0.084861
0.825101 0.083136 0.085271
0.054784 0.096224 0.095229
0.064443 0.096880 0.095246
0.083299 0.096224 0.096053
0.106740 0.097902 0.096070
0.143807 0.097616 0.096176
0.198038 0.093727 0.095885
0.275488 0.084245 0.092933
0.387958 0.075198 0.088605
0.502387 0.075813 0.084423
0.583026 0.079351 0.082128
0.643313 0.081994 0.082007
0.693053 0.084497 0.083734
0.737046 0.086238 0.083998
0.774660 0.086899 0.084956
0.808306 0.088290 0.085608
0.837544 0.088954 0.085764
0.056793 0.125926 0.096908
0.065919 0.126307 0.097022
0.084494 0.126947 0.096908
0.109105 0.130396 0.097845
0.150255 0.133302 0.098071
0.210638 0.134744 0.096246
0.300825 0.132271 0.093207
0.428831 0.124503 0.088145
0.538114 0.105025 0.083731
0.612597 0.103593 0.082286
0.669935 0.105025 0.083731
0.717167 0.105649 0.084699
0.758558 0.107075 0.085412
0.795686 0.106391 0.085856
0.826705 0.106043 0.086218
0.851157 0.103310 0.085856
0.059683 0.162692 0.099201
0.069155 0.163114 0.099276
0.087430 0.166766 0.100015
0.109840 0.172294 0.100900
0.155265 0.178466 0.099763
0.224526 0.182146 0.096150
0.334257 0.185576 0.091647
0.474701 0.185193 0.084821
0.577654 0.181536 0.081430
0.646473 0.181143 0.082225
0.700289 0.181536 0.083844
0.744243 0.184196 0.084643
0.783738 0.187733 0.084449
0.818407 0.191187 0.084753
0.844599 0.190782 0.085252
0.858754 0.190150 0.085562
0.064699 0.209585 0.101496
0.074445 0.210738 0.101697
0.090820 0.215660 0.102311
0.111801 0.226968 0.102518
0.158365 0.239349 0.100712
0.241689 0.249312 0.097621
0.381338 0.256525 0.089348
0.533035 0.257392 0.081444
0.626795 0.256788 0.079103
0.690087 0.257417 0.078143
0.739123 0.259817 0.078299
0.778006 0.261456 0.077340
0.811052 0.265508 0.076054
0.838868 0.268310 0.077162
0.853551 0.268536 0.076856
0.859549 0.268310 0.077162
0.072777 0.266235 0.103506
0.082120 0.267718 0.103549
0.096453 0.275294 0.103506
0.117041 0.293894 0.101915
0.164356 0.317516 0.100839
0.266860 0.345171 0.096520
0.443422 0.362503 0.090283
0.593096 0.364129 0.087601
0.677909 0.361380 0.084380
0.732671 0.359151 0.081503
0.772098 0.359374 0.077950
0.803893 0.360113 0.074296
0.832547 0.363294 0.070923
0.850508 0.365044 0.068826
0.856539 0.365282 0.068529
0.862528 0.365044 0.068028
0.084038 0.330281 0.104832
0.091851 0.332878 0.104635
0.106991 0.347292 0.104020
0.130405 0.373827 0.102179
0.180310 0.418928 0.100589
0.303373 0.475184 0.102561
0.507301 0.514790 0.104666
0.651059 0.522848 0.104206
