example_ofxGpuLutCube/bin/data/ofxGpuLutCube/LUT/T44 (sunset teal warm fade).cube
LUT_3D_SIZE 6
0.050443 0.060728 0.043687
0.105441 0.059217 0.042794
0.250105 0.060325 0.041627
0.538562 0.065922 0.036320
0.706472 0.074258 0.039601
0.813799 0.077272 0.041842
0.053539 0.124645 0.043477
0.110068 0.127689 0.043399
0.293918 0.125132 0.041426
0.600020 0.099682 0.036481
0.748199 0.100988 0.040527
0.844241 0.094560 0.042420
0.067230 0.255806 0.043019
0.118147 0.279475 0.043033
0.421888 0.330815 0.039665
0.719849 0.330051 0.042525
0.823705 0.334502 0.042797
0.860980 0.335954 0.043535
0.106937 0.452732 0.048739
0.167025 0.514054 0.052104
0.564294 0.659016 0.078402
0.814144 0.675675 0.083485
0.896862 0.676189 0.083612
0.914827 0.677155 0.083607
0.153578 0.633310 0.063291
0.226954 0.692800 0.072261
0.623542 0.794570 0.102181
0.852300 0.807521 0.107459
0.923652 0.812786 0.108575
0.941466 0.812590 0.108520
0.192917 0.756481 0.077875
0.268093 0.804998 0.087843
0.654832 0.882838 0.118765
0.872426 0.892778 0.123855
0.937525 0.897013 0.125074
0.955408 0.896845 0.125046
0.052948 0.060314 0.093759
0.105542 0.059364 0.094742
0.250470 0.060399 0.092257
0.546708 0.066422 0.082382
0.713998 0.073504 0.083741
0.821098 0.077511 0.085114
0.056793 0.125926 0.096908
0.109105 0.130396 0.097845
0.300825 0.132271 0.093207
0.612597 0.103593 0.082286
0.758558 0.107075 0.085412
0.851157 0.103310 0.085856
0.072777 0.266235 0.103506
0.117041 0.293894 0.101915
0.443422 0.362503 0.090283
0.732671 0.359151 0.081503
0.832547 0.363294 0.070923
0.862528 0.365044 0.068028
0.113458 0.474178 0.111882
0.170015 0.537602 0.108531
0.576217 0.683564 0.122601
0.825756 0.698189 0.115309
0.903086 0.703889 0.110147
0.920970 0.704538 0.108879
0.161920 0.652708 0.140422
0.229610 0.709791 0.148313
0.622610 0.812542 0.152894
0.859267 0.825274 0.144733
0.928044 0.830485 0.145008
0.945637 0.830452 0.145831
0.200842 0.772330 0.160282
0.267685 0.817839 0.170002
0.649444 0.898868 0.188734
0.877096 0.907106 0.162491
0.940123 0.908234 0.162814
0.957684 0.907256 0.162762
0.074127 0.059915 0.200541
0.109600 0.060949 0.206975
0.251343 0.061107 0.216912
0.543212 0.066992 0.215426
0.709991 0.075102 0.218468
0.819581 0.078005 0.222640
0.079480 0.125729 0.217189
0.114312 0.132979 0.225665
0.297203 0.134982 0.241521
0.609989 0.112872 0.240436
0.758473 0.114620 0.246788
0.852820 0.116261 0.252232
0.092281 0.282528 0.256422
0.130473 0.315445 0.273090
0.422656 0.425193 0.309684
0.742821 0.422616 0.290471
0.844528 0.425927 0.289326
0.873416 0.432116 0.291281
0.136556 0.514310 0.301987
0.189613 0.578338 0.333585
0.534045 0.728928 0.379472
0.839952 0.749519 0.364106
0.921141 0.748245 0.353839
0.937709 0.749943 0.351049
0.182122 0.683459 0.356613
0.244356 0.737982 0.392811
0.578356 0.844893 0.439753
0.868508 0.865752 0.437553
0.942073 0.866368 0.433819
0.959543 0.866375 0.433416
0.217542 0.796432 0.382972
0.279470 0.840345 0.416773
0.607711 0.922986 0.462037
0.885338 0.936926 0.466673
0.950631 0.930994 0.460434
0.968064 0.929810 0.461282
0.094140 0.062657 0.359699
0.122495 0.062697 0.374532
0.253949 0.064524 0.408660
0.538085 0.071766 0.440593
0.707500 0.078800 0.457180
0.813199 0.082750 0.468402
0.098809 0.122711 0.398667
0.128532 0.129048 0.418504
0.300918 0.128715 0.465836
0.607234 0.113751 0.498791
0.755591 0.120170 0.515091
0.850393 0.122708 0.525540
0.109761 0.293856 0.487690
0.144254 0.329151 0.522149
0.398481 0.460893 0.609518
0.742710 0.483645 0.630078
0.850784 0.492946 0.633184
0.884952 0.501319 0.636754
0.153743 0.547771 0.573352
0.202881 0.607606 0.608438
0.492822 0.745533 0.675351
0.832219 0.778049 0.694315
0.923630 0.779688 0.692303
0.941235 0.779495 0.692183
0.191690 0.699679 0.603029
0.250047 0.751181 0.635456
0.545386 0.856640 0.698976
0.861026 0.886797 0.720696
0.944896 0.888187 0.720009
0.962169 0.888081 0.719360
0.225173 0.809436 0.623031
0.283890 0.851682 0.652276
0.576352 0.930720 0.710357
0.876057 0.947444 0.731066
0.951532 0.943501 0.728682
0.969055 0.943311 0.728579
0.107867 0.065530 0.533177
0.133156 0.065533 0.549827
0.273466 0.066377 0.590020
0.566093 0.076352 0.623180
0.728216 0.082741 0.642550
0.831020 0.086542 0.651903
0.111197 0.130549 0.569506
0.138233 0.142694 0.591025
0.319504 0.154191 0.636120
0.634194 0.146196 0.669540
0.777623 0.155305 0.684661
0.857694 0.163531 0.690620
0.121690 0.304724 0.641269
0.155392 0.344257 0.669419
0.406917 0.483736 0.745193
0.752709 0.512123 0.767490
0.860726 0.519052 0.771737
0.890680 0.526265 0.772988
0.164696 0.559192 0.713031
0.212521 0.618409 0.741679
0.490161 0.749689 0.798750
0.829791 0.784393 0.822926
0.925745 0.787716 0.824394
0.943414 0.788575 0.825490
0.206013 0.713496 0.741096
0.262633 0.763903 0.766667
0.540180 0.857713 0.814936
0.858936 0.891474 0.842925
0.946101 0.894251 0.844680
0.963619 0.894080 0.844467
0.234418 0.815349 0.750597
0.290246 0.855207 0.774992
0.570672 0.931777 0.826290
0.874119 0.950275 0.852363
0.953037 0.948272 0.851414
0.970589 0.948112 0.851024
0.117302 0.066109 0.663107
0.142615 0.066110 0.677354
0.291819 0.066569 0.711155
0.585927 0.079423 0.738713
0.747647 0.086492 0.761110
0.844541 0.088922 0.768213
0.120151 0.135245 0.691903
0.145552 0.149368 0.708838
0.336545 0.165559 0.747893
0.649020 0.167457 0.774340
0.791937 0.178043 0.791653
0.859939 0.183654 0.795552
0.131211 0.313296 0.746549
0.164203 0.356251 0.770737
0.420794 0.497561 0.836681
0.758485 0.525379 0.857161
0.867279 0.535969 0.861252
0.894931 0.541023 0.862338
0.174012 0.566016 0.808902
0.221940 0.623610 0.832965
0.496195 0.752365 0.885813
0.831288 0.786714 0.908970
0.926898 0.790669 0.912038
0.944383 0.791608 0.912143
0.215529 0.718551 0.834860
0.271422 0.768756 0.857738
0.545161 0.860147 0.901654
0.859996 0.893488 0.927939
0.947182 0.896626 0.930105
0.964743 0.897547 0.931246
0.248899 0.826588 0.850882
0.303345 0.864919 0.869615
0.575607 0.933451 0.911505
0.875315 0.951816 0.935280
0.954279 0.951792 0.935909
0.971754 0.950658 0.935831
