example_ofxGpuLutCube/bin/data/ofxGpuLutCube/LUT/T45 (sunset gray teal fade).cube
LUT_3D_SIZE 16
0.165124 0.211075 0.167700
0.166995 0.211075 0.167700
0.169525 0.211075 0.167700
0.171392 0.211075 0.167700
0.172755 0.211125 0.167092
0.174585 0.211119 0.167642
0.196698 0.211125 0.167953
0.267317 0.211119 0.167642
0.375273 0.211348 0.167585
0.483201 0.210938 0.168101
0.571144 0.210344 0.168445
0.645269 0.210938 0.168101
0.702159 0.210405 0.169191
0.749832 0.209791 0.170311
0.792481 0.210405 0.170891
0.830971 0.209791 0.171186
0.165124 0.213263 0.167700
0.166995 0.213263 0.167700
0.169525 0.213263 0.167700
0.171392 0.213263 0.167700
0.173075 0.213263 0.167098
0.174395 0.213305 0.167694
0.190779 0.213263 0.167959
0.257956 0.213305 0.167694
0.367045 0.213449 0.167640
0.481234 0.213070 0.168051
0.569546 0.212437 0.168488
0.645272 0.213070 0.168051
0.704010 0.213572 0.169190
0.752658 0.212957 0.170311
0.794234 0.212544 0.170890
0.832820 0.211959 0.171186
0.165124 0.215438 0.167700
0.166995 0.215438 0.167700
0.169525 0.215438 0.167700
0.171392 0.215438 0.167700
0.172749 0.215438 0.167015
0.174333 0.215588 0.166943
0.186000 0.215438 0.167876
0.246966 0.215588 0.167798
0.357481 0.215562 0.167641
0.478271 0.215197 0.167939
0.569449 0.215562 0.168489
0.644265 0.215197 0.167939
0.706170 0.214674 0.169235
0.754776 0.215066 0.170311
0.796527 0.214674 0.170934
0.834921 0.214055 0.171186
0.165124 0.217645 0.167700
0.166995 0.217645 0.167700
0.169525 0.217645 0.167700
0.171392 0.217645 0.167700
0.173136 0.217645 0.166990
0.174525 0.217786 0.167011
0.183761 0.217645 0.167836
0.238975 0.217786 0.167873
0.350227 0.217703 0.167687
0.474456 0.217273 0.167834
0.570856 0.216686 0.168543
0.645469 0.217273 0.167834
0.708748 0.216824 0.169299
0.757988 0.217164 0.169486
0.800271 0.216824 0.171009
0.839235 0.216145 0.171201
0.165124 0.219797 0.167700
0.166995 0.219797 0.167700
0.169525 0.219797 0.167700
0.171392 0.219797 0.167700
0.172836 0.219797 0.166990
0.174797 0.219995 0.167031
0.183444 0.219797 0.167836
0.236529 0.219995 0.167892
0.349958 0.219871 0.167705
0.476724 0.219430 0.167875
0.577786 0.218854 0.168572
0.654222 0.219430 0.167875
0.718293 0.218834 0.169344
0.766773 0.219364 0.170463
0.809888 0.218834 0.171070
0.849315 0.218351 0.171314
0.165124 0.221962 0.167700
0.166995 0.221962 0.167700
0.169525 0.221962 0.167700
0.171392 0.221962 0.167700
0.172893 0.221962 0.166990
0.174478 0.222100 0.167038
0.183489 0.221962 0.167836
0.236190 0.222100 0.167899
0.352578 0.222054 0.167687
0.483777 0.221704 0.168036
0.590968 0.221027 0.168526
0.666908 0.220688 0.168886
0.731669 0.221227 0.170277
0.783260 0.222056 0.170621
0.825732 0.223251 0.171128
0.865917 0.224072 0.171486
0.165124 0.227589 0.167700
0.166995 0.227458 0.167700
0.169525 0.227589 0.167700
0.171392 0.227458 0.167700
0.172885 0.227717 0.167719
0.174704 0.227956 0.167442
0.183481 0.230747 0.167719
0.238259 0.235043 0.167442
0.358897 0.239954 0.167383
0.498644 0.238598 0.168158
0.610294 0.240964 0.168234
0.690085 0.245676 0.169023
0.756775 0.249885 0.171085
0.809377 0.252990 0.170767
0.853364 0.253923 0.171085
0.894318 0.257029 0.171642
0.165124 0.265313 0.167845
0.166995 0.265425 0.167845
0.169525 0.265313 0.167845
0.171392 0.265425 0.167845
0.173035 0.265645 0.167850
0.174671 0.268574 0.168336
0.181887 0.275727 0.167850
0.240939 0.286718 0.167475
0.370601 0.301080 0.165787
0.524483 0.307494 0.165621
0.640939 0.313093 0.168351
0.727009 0.320525 0.169899
0.792545 0.328602 0.169753
0.845479 0.335102 0.170733
0.892727 0.337609 0.171474
0.932595 0.341101 0.172443
0.165124 0.335128 0.168165
0.166995 0.335317 0.168166
0.169525 0.336139 0.168165
0.171392 0.336328 0.168166
0.173090 0.336919 0.167920
0.174371 0.341186 0.168253
0.176631 0.352907 0.168779
0.235175 0.375103 0.169982
0.382366 0.403371 0.171660
0.556199 0.424827 0.168602
0.680214 0.434988 0.166527
0.774448 0.444493 0.165191
0.840886 0.450740 0.165176
0.893478 0.454508 0.164306
0.931351 0.457586 0.164310
0.955300 0.459424 0.165146
0.165124 0.424882 0.171645
0.166995 0.425317 0.171668
0.169525 0.425862 0.171645
0.171392 0.426293 0.171668
0.172927 0.428037 0.171571
0.175009 0.434011 0.171784
0.176445 0.446739 0.172430
0.217786 0.480094 0.174358
0.390097 0.519988 0.176582
0.579138 0.552362 0.179723
0.708940 0.564395 0.176582
0.805094 0.574453 0.174566
0.872484 0.578106 0.171377
0.915751 0.581250 0.170050
0.942115 0.581942 0.168815
0.955849 0.583169 0.168354
0.165124 0.508957 0.174227
0.166995 0.509381 0.174274
0.169525 0.509893 0.174227
0.171392 0.510364 0.174274
0.172927 0.513539 0.173871
0.174774 0.519950 0.175437
0.176445 0.532898 0.175606
0.196052 0.567216 0.178027
0.388657 0.617835 0.181441
0.589729 0.652555 0.183915
0.723395 0.665323 0.184916
0.819498 0.673373 0.182192
0.884994 0.676985 0.179331
0.920675 0.678717 0.178752
0.942639 0.679765 0.177613
0.955265 0.680673 0.177055
0.165874 0.578293 0.178317
0.167782 0.578939 0.178338
0.169388 0.580213 0.178317
0.172176 0.580858 0.178338
0.173579 0.583367 0.178065
0.176349 0.591812 0.179692
0.179749 0.605387 0.179795
0.191398 0.631897 0.181421
0.374471 0.686700 0.184677
0.588719 0.722442 0.185562
0.730079 0.736697 0.186428
0.822770 0.744060 0.186448
0.887480 0.748740 0.185514
0.921426 0.750469 0.183506
0.943027 0.751541 0.182905
0.954943 0.752353 0.182652
0.171359 0.631199 0.181080
0.173408 0.632393 0.181130
0.175768 0.633075 0.181080
0.176932 0.635244 0.181130
0.180256 0.639150 0.181959
0.182961 0.648655 0.182304
0.186445 0.662861 0.182823
0.197188 0.686549 0.184026
0.358992 0.737256 0.186109
0.585225 0.775476 0.186607
0.731980 0.789672 0.186966
0.823481 0.798888 0.187492
0.888740 0.804509 0.188224
0.923031 0.806909 0.188016
0.943103 0.807285 0.187367
0.954403 0.807883 0.187159
0.176745 0.677354 0.183386
0.178780 0.678657 0.183485
0.181171 0.680187 0.183386
0.183204 0.681529 0.183485
0.185441 0.685989 0.183919
0.188588 0.696144 0.184960
0.192560 0.711434 0.184804
0.204608 0.733840 0.185815
0.346621 0.777389 0.187302
0.581642 0.816903 0.187282
0.730875 0.831702 0.188160
0.822960 0.841210 0.189026
0.888513 0.848123 0.191012
0.922763 0.850854 0.190311
0.942933 0.850955 0.191012
0.954186 0.851737 0.191199
0.181744 0.718906 0.185023
0.183793 0.720418 0.185098
0.186179 0.722738 0.185023
0.188247 0.724159 0.185098
0.190976 0.728142 0.185551
0.193302 0.739652 0.185757
0.197208 0.754375 0.186418
0.210271 0.775309 0.187499
0.337586 0.812522 0.187936
0.577936 0.852469 0.188010
0.731301 0.868662 0.189654
0.821173 0.877790 0.191499
0.888127 0.883848 0.192574
0.922556 0.885366 0.192790
0.942501 0.886677 0.193422
0.954009 0.887317 0.193679
0.185626 0.755201 0.186303
0.187769 0.756747 0.186416
0.190070 0.757985 0.186303
0.192208 0.759493 0.186416
0.194034 0.764296 0.187036
0.197396 0.775618 0.187504
0.201162 0.791507 0.187894
0.211696 0.812177 0.188361
0.333361 0.846024 0.188710
0.573196 0.884994 0.190028
0.728726 0.901341 0.192158
0.820507 0.909406 0.194366
0.885352 0.916647 0.194680
0.922239 0.918416 0.194885
0.941929 0.918551 0.195563
0.953634 0.919373 0.195762
0.165124 0.211075 0.169539
0.166995 0.211075 0.169539
0.169525 0.211075 0.169539
0.171392 0.211075 0.169539
0.173204 0.211177 0.169830
0.174580 0.211119 0.169501
0.199829 0.211177 0.169830
0.271895 0.211119 0.169501
0.379934 0.211347 0.169379
0.485656 0.210973 0.170016
0.572085 0.210344 0.170233
0.645723 0.210973 0.170861
0.703003 0.210396 0.171018
0.751502 0.209791 0.171291
0.793305 0.210396 0.172734
0.831626 0.209791 0.173006
0.165124 0.213263 0.169539
0.166995 0.213263 0.169539
0.169525 0.213263 0.169539
0.171392 0.213263 0.169539
0.172904 0.213279 0.169751
0.174507 0.213300 0.170326
0.192395 0.213279 0.169751
0.261732 0.213300 0.169486
0.370568 0.213476 0.169427
0.483550 0.213116 0.169957
0.572304 0.212464 0.170277
0.645605 0.213116 0.170812
0.704768 0.213563 0.171038
0.753385 0.212970 0.171291
0.795062 0.212535 0.172753
0.833583 0.211951 0.173006
0.165124 0.215438 0.169539
0.166995 0.215438 0.169539
0.169525 0.215438 0.169539
0.171392 0.215438 0.169539
0.173041 0.215438 0.169696
0.175008 0.215558 0.169594
0.187211 0.215438 0.169696
0.250380 0.215558 0.169594
0.360842 0.215578 0.169477
0.480570 0.215226 0.169865
0.571022 0.215578 0.170317
0.645623 0.215226 0.170721
0.705824 0.214666 0.171077
0.755651 0.215053 0.171291
0.797232 0.214666 0.172800
0.835817 0.214027 0.173006
0.165124 0.217645 0.169539
0.166995 0.217645 0.169539
0.169525 0.217645 0.169539
0.171392 0.217645 0.169539
0.172937 0.217645 0.169662
0.174382 0.217770 0.169663
0.184434 0.217645 0.169662
0.241544 0.217770 0.169663
0.353348 0.217745 0.169517
0.476791 0.217334 0.169744
0.572211 0.216744 0.169517
0.646904 0.217334 0.170593
0.709310 0.216823 0.171177
0.758565 0.217151 0.171306
0.800810 0.216823 0.172885
0.839846 0.216148 0.173020
0.165124 0.219797 0.169539
0.166995 0.219797 0.169539
0.169525 0.219797 0.169539
0.171392 0.219797 0.169539
0.172514 0.219797 0.169659
0.174195 0.219946 0.169684
0.183982 0.219797 0.169659
0.238627 0.219946 0.169684
0.352710 0.219879 0.169521
0.479087 0.219472 0.169774
0.579732 0.218863 0.169521
0.655632 0.219472 0.170630
0.717884 0.218799 0.171213
0.768622 0.219386 0.172306
0.810578 0.218799 0.172928
0.850101 0.218385 0.173181
0.165124 0.221962 0.169539
0.166995 0.221962 0.169539
0.169525 0.221962 0.169539
0.171392 0.221962 0.169539
0.173226 0.221962 0.169655
0.174307 0.222100 0.169684
0.183837 0.221962 0.169655
0.237849 0.222100 0.169684
0.355070 0.222058 0.169515
0.485895 0.221773 0.169902
0.591599 0.221062 0.169515
0.668139 0.220745 0.170747
0.731537 0.221048 0.171242
0.784956 0.222011 0.172449
0.826587 0.223065 0.172946
0.866470 0.224028 0.173310
0.165124 0.227586 0.169539
0.166995 0.227606 0.169539
0.169525 0.227586 0.169539
0.171392 0.227606 0.169539
0.173227 0.226798 0.169554
0.174969 0.228225 0.170107
0.183837 0.230853 0.169554
0.239430 0.235315 0.169253
0.361474 0.240055 0.169224
0.500547 0.238570 0.170018
0.611059 0.241070 0.170054
0.690989 0.245653 0.170863
0.756347 0.249725 0.172090
0.810968 0.251740 0.172605
0.853938 0.253765 0.172944
0.894884 0.256789 0.173458
0.165124 0.265687 0.169668
0.166995 0.265716 0.169668
0.169525 0.265687 0.169668
0.171392 0.265716 0.169668
0.173178 0.267123 0.169658
0.174759 0.270205 0.170187
0.182004 0.276197 0.169658
0.241915 0.287330 0.169336
0.372812 0.301560 0.167643
0.525905 0.307684 0.167410
0.641252 0.312610 0.170210
0.727426 0.320735 0.171696
0.793008 0.329383 0.171579
0.846860 0.333939 0.172567
0.893154 0.337387 0.173299
0.932956 0.340937 0.174275
0.165124 0.335927 0.170036
0.166995 0.336102 0.170036
0.169525 0.335927 0.170036
0.171392 0.337083 0.170036
0.173090 0.337680 0.169777
0.174864 0.342208 0.170131
0.176631 0.353635 0.170633
0.235688 0.376112 0.171850
0.384175 0.404258 0.173541
0.557706 0.425485 0.170476
0.682202 0.434852 0.168411
0.776007 0.445174 0.167055
0.842199 0.451880 0.166161
0.893485 0.455808 0.166108
0.931566 0.457763 0.166161
0.955308 0.459731 0.166965
0.165124 0.426053 0.173541
0.166995 0.426356 0.173532
0.169525 0.426053 0.173541
0.171392 0.427332 0.173532
0.172927 0.429795 0.173454
0.174791 0.435003 0.174490
0.176445 0.447485 0.174312
0.217558 0.481084 0.176201
0.391549 0.521294 0.178493
0.580374 0.553182 0.181585
0.711618 0.565707 0.178493
0.806399 0.574360 0.175539
0.873643 0.579472 0.173313
0.915737 0.580734 0.171949
0.942141 0.582347 0.170729
0.955832 0.583609 0.170237
0.165124 0.510107 0.176167
0.166995 0.510485 0.176183
0.169525 0.511088 0.176167
0.171392 0.511466 0.176183
0.172927 0.514733 0.175776
0.174208 0.521640 0.176452
0.176445 0.534051 0.177483
0.194599 0.567988 0.179892
0.389096 0.619278 0.183348
0.590757 0.653584 0.185805
0.723826 0.665801 0.185943
0.820563 0.673467 0.184085
0.886343 0.677618 0.181208
0.920648 0.679418 0.179822
0.942869 0.680433 0.179488
0.955238 0.681274 0.178957
0.165929 0.579376 0.180247
0.167833 0.580176 0.180303
0.169453 0.581275 0.180247
0.172238 0.582075 0.180303
0.173715 0.584524 0.179959
0.175962 0.593309 0.180682
0.179879 0.606561 0.181689
0.191029 0.632408 0.183269
0.373779 0.687761 0.186528
0.589537 0.723480 0.187449
0.730358 0.737586 0.188271
0.822527 0.745180 0.189194
0.887599 0.749491 0.187380
0.921378 0.751286 0.185436
0.943035 0.752354 0.184797
0.954912 0.753056 0.184580
0.171612 0.632860 0.183012
0.173580 0.633988 0.183057
0.175120 0.635712 0.183012
0.177118 0.635903 0.183941
0.179543 0.640473 0.183854
0.182906 0.649687 0.183323
0.186612 0.664186 0.184713
0.197137 0.687600 0.185903
0.357226 0.738034 0.187962
0.585786 0.776685 0.188476
0.732102 0.790559 0.188819
0.824038 0.800094 0.189335
0.888808 0.806136 0.189593
0.922990 0.807638 0.189454
0.943175 0.808000 0.189593
0.954361 0.808612 0.189454
0.176973 0.679332 0.185317
0.179104 0.680717 0.185418
0.180512 0.682144 0.185317
0.183526 0.683544 0.185418
0.186498 0.687999 0.185024
0.188584 0.698764 0.185982
0.192731 0.713418 0.186765
0.203735 0.735543 0.187707
0.344562 0.778386 0.189154
0.581795 0.818008 0.189126
0.731677 0.832668 0.190016
0.822009 0.843237 0.191721
0.888485 0.849148 0.192392
0.922763 0.850658 0.193394
0.942904 0.851941 0.193249
0.954186 0.852470 0.193394
0.181951 0.720631 0.186956
0.183998 0.722265 0.187033
0.186396 0.724497 0.186956
0.187538 0.726032 0.187033
0.190418 0.729405 0.187499
0.193689 0.741615 0.187722
0.197533 0.756716 0.188357
0.207960 0.778095 0.189461
0.335271 0.814760 0.189827
0.577915 0.853959 0.190420
0.730819 0.868997 0.192449
0.821145 0.879289 0.193895
0.888215 0.884528 0.194766
0.922601 0.886117 0.195881
0.942596 0.887356 0.195627
0.953971 0.887992 0.195881
0.185846 0.756986 0.188554
0.187919 0.758388 0.188615
0.189416 0.759840 0.188554
0.192351 0.762145 0.188615
0.195076 0.766310 0.188996
0.198049 0.778005 0.189427
0.201333 0.793518 0.189849
0.209661 0.814449 0.190277
0.330229 0.848610 0.190768
0.573170 0.887475 0.193166
0.728230 0.902046 0.195128
0.820505 0.911827 0.196628
0.885413 0.916962 0.197190
0.922139 0.919412 0.197345
0.941993 0.919824 0.198055
0.953530 0.920381 0.198225
0.165124 0.211075 0.171351
0.166995 0.211075 0.171351
0.169525 0.211075 0.171351
0.171392 0.211075 0.171351
0.172575 0.211211 0.171702
0.174330 0.211118 0.171379
0.204546 0.211211 0.171702
0.277184 0.211118 0.171379
0.385262 0.211283 0.171219
0.488546 0.211009 0.171931
0.573645 0.210273 0.171219
0.646688 0.211009 0.172779
0.703899 0.210358 0.172881
0.752486 0.209756 0.173158
0.794232 0.210358 0.174599
0.832674 0.209756 0.174860
0.165124 0.213263 0.171351
0.166995 0.213263 0.171351
0.169525 0.213263 0.171351
0.171392 0.213263 0.171351
0.173227 0.213299 0.171650
0.174965 0.213266 0.171296
0.196270 0.213299 0.171650
0.266793 0.213266 0.171296
0.375935 0.213515 0.171265
0.486382 0.213126 0.171853
0.573912 0.212517 0.171265
0.647538 0.213126 0.172729
0.705669 0.213523 0.172907
0.754351 0.212902 0.174018
0.795999 0.212525 0.174617
0.834415 0.211897 0.174860
0.165124 0.215438 0.171351
0.166995 0.215438 0.171351
0.169525 0.215438 0.171351
0.171392 0.215438 0.171351
0.172559 0.215438 0.171611
0.174476 0.215529 0.171354
0.188487 0.215438 0.171611
0.254383 0.215529 0.171354
0.364911 0.215585 0.171302
0.483366 0.215308 0.171797
0.573416 0.215585 0.171302
0.647512 0.215308 0.172652
0.707686 0.214667 0.172096
0.755372 0.215035 0.174018
0.798052 0.214667 0.174657
0.836605 0.214009 0.174860
0.165124 0.217645 0.171351
0.166995 0.217645 0.171351
0.169525 0.217645 0.171351
0.171392 0.217645 0.171351
0.172677 0.217645 0.171518
0.175013 0.217739 0.171469
0.185074 0.217645 0.171518
0.244922 0.217739 0.171469
0.357067 0.217728 0.171317
0.479487 0.217337 0.171657
0.573152 0.216727 0.171317
0.648711 0.217337 0.172523
0.710089 0.216808 0.172943
0.758188 0.217126 0.174014
0.801586 0.216808 0.174664
0.840606 0.216109 0.174872
0.165124 0.219797 0.171351
0.166995 0.219797 0.171351
0.169525 0.219797 0.171351
0.171392 0.219797 0.171351
0.172969 0.219797 0.171522
0.174761 0.219950 0.171530
0.184452 0.219797 0.171522
0.241008 0.219950 0.171530
0.356254 0.219916 0.171338
0.481808 0.219528 0.171666
0.580483 0.218891 0.171338
0.656394 0.219528 0.172532
0.718684 0.218787 0.173044
0.769338 0.219407 0.174139
0.811409 0.218787 0.174768
0.850799 0.218407 0.174988
0.165124 0.221962 0.171351
0.166995 0.221962 0.171351
0.169525 0.221962 0.171351
0.171392 0.221962 0.171351
0.172630 0.221962 0.171521
0.174265 0.222146 0.171537
0.184119 0.221962 0.171521
0.239613 0.222146 0.171537
0.358147 0.222107 0.171310
0.488476 0.221800 0.171785
0.592889 0.221098 0.171310
0.668711 0.220772 0.172641
0.733142 0.220916 0.173085
0.784489 0.221878 0.174319
0.827190 0.222945 0.174798
0.867119 0.223907 0.175169
0.165124 0.227651 0.171351
0.166995 0.227693 0.171351
0.169525 0.227651 0.171351
0.171392 0.227693 0.171351
0.172463 0.228050 0.171383
0.174489 0.229407 0.171889
0.183939 0.231091 0.171383
0.240749 0.235487 0.171029
0.364623 0.240038 0.170997
0.502923 0.238491 0.171884
0.612389 0.241051 0.171851
0.692410 0.244560 0.172739
0.758067 0.248418 0.173919
0.811746 0.251476 0.174472
0.854627 0.253473 0.174788
0.895606 0.256526 0.175329
0.165124 0.266001 0.171502
0.166995 0.266022 0.171502
0.169525 0.266001 0.171502
0.171392 0.266022 0.171502
0.173122 0.266593 0.171553
0.174778 0.269763 0.171975
0.181958 0.276669 0.171553
0.242864 0.287882 0.171114
0.375498 0.302113 0.169540
0.527919 0.307800 0.169254
0.643112 0.313162 0.171255
0.728479 0.320858 0.173543
0.793908 0.329169 0.174305
0.847255 0.333704 0.174414
0.894052 0.337174 0.175153
0.933338 0.340703 0.176137
0.165124 0.336702 0.171907
0.166995 0.336895 0.171908
0.169525 0.336702 0.171907
0.171392 0.336895 0.171908
0.173090 0.339388 0.171672
0.174490 0.343173 0.172825
0.176631 0.354376 0.172538
0.236200 0.377108 0.173685
0.386178 0.405368 0.175404
0.559401 0.426206 0.172299
0.683304 0.435949 0.170241
0.776735 0.444901 0.168889
0.842735 0.452169 0.168844
0.894441 0.455952 0.167931
0.932110 0.458057 0.167984
0.955222 0.459883 0.168791
0.165124 0.427394 0.175407
0.166995 0.427722 0.175407
0.169525 0.428364 0.175407
0.171392 0.428691 0.175407
0.172927 0.429964 0.176199
0.174218 0.436173 0.175510
0.176445 0.448662 0.176199
0.216969 0.482245 0.178083
0.393014 0.522706 0.180454
0.581980 0.554189 0.183501
0.712140 0.565177 0.180454
0.806979 0.575388 0.178333
0.874934 0.580063 0.175165
0.915743 0.582201 0.172984
0.942399 0.582937 0.172603
0.955840 0.584099 0.172119
0.165124 0.511754 0.178050
0.166995 0.512112 0.178074
0.169525 0.512750 0.178914
0.171392 0.513074 0.178074
0.172927 0.516246 0.178574
0.174307 0.523465 0.178336
0.176445 0.535584 0.179439
0.192917 0.568817 0.181785
0.389631 0.620913 0.185286
0.592014 0.654831 0.187702
0.725505 0.667446 0.187884
0.820805 0.675710 0.185978
0.885480 0.679428 0.183976
0.921702 0.680214 0.181688
0.943103 0.681284 0.181401
0.955259 0.682110 0.180822
0.165998 0.581419 0.182199
0.167985 0.582174 0.182204
0.170396 0.583338 0.182199
0.172388 0.584082 0.182204
0.173927 0.587150 0.182763
0.176094 0.595119 0.182528
0.180120 0.608190 0.183618
0.190251 0.633276 0.185106
0.372742 0.688861 0.188465
0.590573 0.724974 0.189344
0.730206 0.738757 0.189342
0.823644 0.745652 0.190205
0.888711 0.750290 0.188498
0.921365 0.752164 0.187331
0.943072 0.753076 0.186755
0.954899 0.754083 0.186446
0.171825 0.635262 0.185004
0.173864 0.636487 0.185064
0.175349 0.638119 0.185004
0.178297 0.639343 0.185064
0.179855 0.642815 0.184970
0.183582 0.652935 0.186115
0.186928 0.666551 0.186711
0.196013 0.689805 0.187830
0.355034 0.739473 0.189846
0.586540 0.778034 0.190339
0.732832 0.792891 0.190732
0.823768 0.801506 0.191194
0.888749 0.806947 0.191978
0.922947 0.808433 0.192663
0.943111 0.808839 0.191978
0.954317 0.809406 0.191799
0.177342 0.681853 0.187435
0.179418 0.683201 0.187517
0.181764 0.684682 0.187435
0.183842 0.686958 0.188375
0.185965 0.689948 0.187810
0.189491 0.701974 0.187907
0.193087 0.716304 0.188695
0.201951 0.738719 0.189648
0.340576 0.780659 0.191048
0.582179 0.820117 0.191260
0.731539 0.834984 0.191929
0.822428 0.844411 0.193863
0.888659 0.850960 0.194658
0.922736 0.852559 0.194824
0.943054 0.852870 0.195516
0.954158 0.853504 0.195695
0.181993 0.722903 0.190881
0.184075 0.724527 0.190851
0.186434 0.725824 0.190881
0.187636 0.728203 0.190851
0.190592 0.733081 0.190952
0.194381 0.743788 0.190704
0.197733 0.759340 0.190952
0.206886 0.781218 0.191568
0.331389 0.817931 0.191996
0.577990 0.857212 0.193554
0.730659 0.871282 0.195469
0.821246 0.880587 0.197026
0.888234 0.885510 0.197927
0.922587 0.888040 0.197371
0.942615 0.888315 0.197927
0.953956 0.888965 0.198224
0.185417 0.759213 0.197339
0.187500 0.760657 0.197241
0.189832 0.762107 0.196459
0.191057 0.764421 0.196384
0.194033 0.768507 0.196443
0.197731 0.780560 0.196755
0.201161 0.795671 0.195590
0.209370 0.816971 0.194133
0.326218 0.851573 0.194583
0.572869 0.890683 0.196740
0.729084 0.905930 0.198051
0.820225 0.913277 0.199351
0.886476 0.919061 0.199893
0.922103 0.920592 0.200774
0.941899 0.920964 0.200768
0.953511 0.921494 0.200774
0.165124 0.211075 0.173208
0.166995 0.211075 0.173208
0.169525 0.211075 0.173208
0.171392 0.211075 0.173208
0.172727 0.211256 0.173572
0.176049 0.211111 0.173284
0.209158 0.211256 0.173572
0.282641 0.211111 0.173284
0.390578 0.211231 0.173046
0.491911 0.211108 0.173841
0.577301 0.210204 0.173046
0.649122 0.211108 0.173841
0.706293 0.210361 0.174686
0.753610 0.209720 0.175847
0.795501 0.210361 0.176418
0.833719 0.209720 0.176710
0.165124 0.213263 0.173208
0.166995 0.213263 0.173208
0.169525 0.213263 0.173208
0.171392 0.213263 0.173208
0.173082 0.213354 0.173500
0.174571 0.213260 0.173171
0.199702 0.213354 0.173500
0.271902 0.213260 0.173171
0.381128 0.213516 0.173065
0.489651 0.213208 0.173784
0.576451 0.212519 0.173065
0.648881 0.213208 0.173784
0.706700 0.213515 0.174765
0.755482 0.212883 0.175847
0.797082 0.212517 0.176474
0.835662 0.211849 0.176710
0.165124 0.215438 0.173208
0.166995 0.215438 0.173208
0.169525 0.215438 0.173208
0.171392 0.215438 0.173208
0.172449 0.215450 0.173410
0.174634 0.215489 0.173179
0.191031 0.215450 0.173410
0.259122 0.215489 0.173179
0.370105 0.215628 0.173067
0.486620 0.215316 0.173729
0.574868 0.214614 0.173067
0.648874 0.215316 0.174587
0.709881 0.214672 0.174824
0.757632 0.215034 0.175847
0.799143 0.214672 0.176525
0.837820 0.214009 0.176711
0.165124 0.217645 0.173208
0.166995 0.217645 0.173208
0.169525 0.217645 0.173208
0.171392 0.217645 0.173208
0.172615 0.217645 0.173374
0.174830 0.217719 0.173275
0.185856 0.217645 0.173374
0.248374 0.217719 0.173275
0.361026 0.217757 0.173124
0.482777 0.217412 0.173567
0.575376 0.216749 0.173124
0.650062 0.217412 0.174426
0.711921 0.216784 0.174823
0.760211 0.217126 0.175861
0.802317 0.216784 0.176540
0.841470 0.216123 0.176725
0.165124 0.219797 0.173208
0.166995 0.219797 0.173208
0.169525 0.219797 0.173208
0.171392 0.219797 0.173208
0.172583 0.219797 0.173349
0.174778 0.219909 0.173301
0.184956 0.219797 0.173349
0.243773 0.219909 0.173301
0.359924 0.219956 0.173124
0.484978 0.219565 0.173633
0.582404 0.218932 0.173124
0.657651 0.219565 0.174492
0.720301 0.218781 0.174884
0.769164 0.219439 0.176010
0.811989 0.218781 0.176596
0.851619 0.218439 0.176873
0.165124 0.221962 0.173208
0.166995 0.221962 0.173208
0.169525 0.221962 0.173208
0.171392 0.221962 0.173208
0.173021 0.221962 0.173353
0.174586 0.222109 0.173346
0.184519 0.221962 0.173353
0.241756 0.222109 0.173346
0.361793 0.222153 0.173124
0.491403 0.221869 0.173725
0.594813 0.221126 0.173124
0.669725 0.220842 0.174567
0.734909 0.220692 0.174953
0.785417 0.221843 0.176167
0.827867 0.222711 0.176670
0.868012 0.223861 0.177039
0.165124 0.227904 0.173208
0.166995 0.227847 0.173208
0.169525 0.227904 0.173208
0.171392 0.227847 0.173208
0.172731 0.228184 0.173229
0.174304 0.229711 0.173722
0.184225 0.231224 0.173229
0.242384 0.235785 0.172851
0.368076 0.240158 0.172845
0.505434 0.238417 0.173796
0.614110 0.241170 0.173716
0.694015 0.244487 0.173796
0.760005 0.248049 0.175758
0.812565 0.251081 0.177173
0.855468 0.253104 0.176610
0.896435 0.256132 0.177173
0.165124 0.266692 0.173344
0.166995 0.266639 0.173344
0.169525 0.266692 0.173344
0.171392 0.266639 0.173344
0.173203 0.267244 0.173381
0.174973 0.270429 0.172940
0.182023 0.277329 0.173381
0.243960 0.288561 0.172940
