example_ofxGpuLutCube/bin/data/ofxGpuLutCube/LUT/T45 (sunset gray teal fade).cube
LUT_3D_SIZE 6
0.165124 0.211075 0.167700
0.171392 0.211075 0.167700
0.196698 0.211125 0.167953
0.483201 0.210938 0.168101
0.702159 0.210405 0.169191
0.830971 0.209791 0.171186
0.165124 0.217645 0.167700
0.171392 0.217645 0.167700
0.183761 0.217645 0.167836
0.474456 0.217273 0.167834
0.708748 0.216824 0.169299
0.839235 0.216145 0.171201
0.165124 0.227589 0.167700
0.171392 0.227458 0.167700
0.183481 0.230747 0.167719
0.498644 0.238598 0.168158
0.756775 0.249885 0.171085
0.894318 0.257029 0.171642
0.165124 0.424882 0.171645
0.171392 0.426293 0.171668
0.176445 0.446739 0.172430
0.579138 0.552362 0.179723
0.872484 0.578106 0.171377
0.955849 0.583169 0.168354
0.171359 0.631199 0.181080
0.176932 0.635244 0.181130
0.186445 0.662861 0.182823
0.585225 0.775476 0.186607
0.888740 0.804509 0.188224
0.954403 0.807883 0.187159
0.185626 0.755201 0.186303
0.192208 0.759493 0.186416
0.201162 0.791507 0.187894
0.573196 0.884994 0.190028
0.885352 0.916647 0.194680
0.953634 0.919373 0.195762
0.165124 0.211075 0.173208
0.171392 0.211075 0.173208
0.209158 0.211256 0.173572
0.491911 0.211108 0.173841
0.706293 0.210361 0.174686
0.833719 0.209720 0.176710
0.165124 0.217645 0.173208
0.171392 0.217645 0.173208
0.185856 0.217645 0.173374
0.482777 0.217412 0.173567
0.711921 0.216784 0.174823
0.841470 0.216123 0.176725
0.165124 0.227904 0.173208
0.171392 0.227847 0.173208
0.184225 0.231224 0.173229
0.505434 0.238417 0.173796
0.760005 0.248049 0.175758
0.896435 0.256132 0.177173
0.165124 0.430029 0.177357
0.171392 0.431280 0.177366
0.176445 0.450440 0.178099
0.584096 0.555802 0.185434
0.875189 0.579931 0.177063
0.955791 0.584880 0.174040
0.172152 0.638327 0.187212
0.177761 0.642375 0.187205
0.187355 0.669977 0.188718
0.587418 0.781175 0.192442
0.889992 0.807243 0.194507
0.954286 0.810636 0.194328
0.184555 0.761878 0.211229
0.190150 0.767246 0.210256
0.200298 0.798644 0.207978
0.572187 0.894681 0.203010
0.886436 0.922625 0.204917
0.953468 0.923689 0.203817
0.165124 0.211248 0.187555
0.171392 0.211248 0.187405
0.236804 0.211440 0.184158
0.509417 0.211451 0.181159
0.718013 0.210342 0.180930
0.844682 0.209733 0.182821
0.165124 0.217770 0.187217
0.171392 0.217741 0.185992
0.191594 0.217813 0.185593
0.500412 0.218072 0.182071
0.721745 0.216846 0.181516
0.851438 0.216465 0.183396
0.165124 0.229984 0.195290
0.171392 0.230108 0.192968
0.184512 0.234787 0.192301
0.523054 0.241502 0.184821
0.772887 0.250516 0.184856
0.906998 0.258076 0.185530
0.165124 0.447824 0.226677
0.171392 0.449265 0.224324
0.176445 0.468961 0.221232
0.599716 0.581309 0.209812
0.883171 0.599357 0.196356
0.955682 0.600443 0.189319
0.165780 0.656163 0.276499
0.172169 0.661391 0.276271
0.181330 0.688802 0.275165
0.586253 0.806289 0.255433
0.889944 0.831685 0.241025
0.953998 0.831340 0.230843
0.180679 0.776861 0.322685
0.187352 0.781111 0.321644
0.196904 0.813057 0.323655
0.559370 0.916639 0.309479
0.884370 0.941789 0.282705
0.952917 0.944111 0.268917
0.165124 0.212481 0.404711
0.181999 0.213494 0.409891
0.310504 0.214674 0.417024
0.520655 0.220977 0.413542
0.706808 0.229347 0.420271
0.832294 0.233560 0.423583
0.165124 0.218945 0.391841
0.171392 0.218945 0.394251
0.210369 0.219565 0.408644
0.505864 0.226960 0.422127
0.710648 0.235162 0.427165
0.837696 0.240356 0.430312
0.165124 0.232155 0.423360
0.171392 0.233314 0.424351
0.187162 0.241685 0.439549
0.533573 0.253973 0.464393
0.760026 0.273015 0.470522
0.886685 0.286212 0.473558
0.165124 0.481911 0.512979
0.171392 0.484835 0.513217
0.176445 0.507854 0.525121
0.580010 0.633936 0.572142
0.863374 0.650420 0.561768
0.936066 0.652703 0.552556
0.165972 0.688987 0.565511
0.172254 0.693054 0.566959
0.178671 0.721459 0.579317
0.556868 0.847798 0.616484
0.869525 0.867816 0.609159
0.935953 0.867954 0.599052
0.180557 0.801472 0.590030
0.187109 0.806713 0.591530
0.197630 0.838125 0.604463
0.531230 0.947166 0.635217
0.865991 0.958694 0.628054
0.937534 0.959840 0.620732
0.165124 0.214332 0.627216
0.203334 0.215380 0.634460
0.330624 0.217827 0.649397
0.550706 0.224366 0.662077
0.718308 0.232272 0.675396
0.836491 0.237042 0.684499
0.165124 0.220762 0.617702
0.171392 0.220791 0.626227
0.266138 0.222743 0.645058
0.528949 0.230368 0.670309
0.720607 0.238217 0.686578
0.842002 0.243940 0.694000
0.165124 0.235890 0.653662
0.171392 0.239475 0.662201
0.226786 0.249698 0.688231
0.552201 0.254014 0.721013
0.766016 0.274622 0.738357
0.886050 0.290449 0.746797
0.165124 0.500528 0.752622
0.171392 0.505453 0.756784
0.176445 0.557918 0.791554
0.601605 0.646679 0.841309
0.847048 0.661999 0.845186
0.911787 0.665569 0.843047
0.165124 0.706589 0.792965
0.171392 0.710841 0.796145
0.181319 0.740652 0.813152
0.577728 0.861372 0.864411
0.852189 0.878286 0.869119
0.915837 0.879719 0.867120
0.181470 0.817999 0.806720
0.189068 0.823239 0.808675
0.199406 0.854216 0.825986
0.556868 0.957241 0.871416
0.849619 0.965226 0.876633
0.919373 0.965471 0.873541
0.169555 0.216234 0.772871
0.223860 0.217344 0.781725
0.352436 0.220312 0.796837
0.570808 0.227853 0.814019
0.739175 0.234334 0.827234
0.858432 0.240199 0.838272
0.165438 0.222693 0.773908
0.208439 0.222787 0.781888
0.337377 0.226495 0.799469
0.556505 0.233920 0.817532
0.744273 0.241293 0.837884
0.862746 0.246903 0.847299
0.165124 0.243918 0.800834
0.171392 0.249399 0.810012
0.273399 0.258506 0.835211
0.568639 0.260811 0.861788
0.773949 0.286252 0.880958
0.892613 0.305219 0.890836
0.165124 0.521098 0.901593
0.171392 0.537367 0.913542
0.176635 0.594537 0.943893
0.626628 0.648815 0.976866
0.847431 0.660959 0.979937
0.906808 0.664612 0.978367
0.165907 0.716622 0.932238
0.172377 0.724686 0.937349
0.188427 0.786356 0.968402
0.608178 0.867191 0.985011
0.852256 0.878536 0.985597
0.910115 0.880769 0.986606
0.185748 0.829401 0.943615
0.192352 0.834550 0.946508
0.203324 0.883602 0.970722
0.585909 0.960854 0.985102
0.849214 0.966859 0.985668
0.913152 0.967324 0.985651
