example_ofxGpuLutCube/bin/data/ofxGpuLutCube/LUT/T46 (sunset orange teal fade).cube
LUT_3D_SIZE 16
0.046500 0.078598 0.065766
0.063374 0.079393 0.066356
0.094346 0.081689 0.065766
0.148828 0.082484 0.063183
0.253343 0.079450 0.060011
0.386791 0.061452 0.056510
0.481449 0.050562 0.056856
0.538440 0.046988 0.058086
0.582083 0.046981 0.059843
0.619605 0.046584 0.060725
0.654018 0.044913 0.062214
0.688047 0.045547 0.063889
0.719207 0.044164 0.064928
0.748860 0.043779 0.067373
0.779434 0.045199 0.068899
0.809353 0.045847 0.071352
0.048127 0.095359 0.065759
0.064005 0.096459 0.066496
0.086680 0.097413 0.066552
0.125182 0.099542 0.064115
0.186137 0.101234 0.059598
0.286366 0.096139 0.059208
0.401077 0.085810 0.058020
0.485388 0.072455 0.057631
0.548215 0.065695 0.059757
0.596177 0.063619 0.061154
0.639370 0.059504 0.062128
0.677901 0.057427 0.063527
0.712815 0.056853 0.065199
0.748294 0.053878 0.067448
0.778451 0.054787 0.069172
0.808872 0.054911 0.071430
0.051810 0.118470 0.066818
0.068265 0.119758 0.067223
0.091286 0.121551 0.066818
0.131313 0.122835 0.062465
0.194303 0.124432 0.056481
0.292945 0.122202 0.057377
0.405158 0.117252 0.058055
0.489513 0.105785 0.058164
0.550912 0.101916 0.061422
0.601317 0.099525 0.062670
0.645230 0.091634 0.063003
0.684267 0.081006 0.063464
0.717583 0.073471 0.065285
0.753512 0.071518 0.067566
0.786406 0.070382 0.070057
0.817307 0.069459 0.072346
0.056850 0.148638 0.068970
0.074863 0.150015 0.069082
0.098982 0.150681 0.068172
0.140720 0.155122 0.065114
0.212420 0.156957 0.057223
0.318942 0.156216 0.054449
0.428813 0.152868 0.054072
0.509539 0.150094 0.057600
0.567104 0.150605 0.061027
0.618343 0.151499 0.062752
0.661880 0.147536 0.064986
0.702708 0.144343 0.068307
0.737503 0.137925 0.068928
0.770084 0.128667 0.071340
0.802204 0.118453 0.072114
0.831900 0.110218 0.073734
0.065731 0.190667 0.072137
0.085371 0.193549 0.072849
0.114055 0.196756 0.072137
0.160327 0.203701 0.071257
0.250000 0.210575 0.065617
0.370417 0.207937 0.053230
0.473794 0.204490 0.051416
0.543465 0.203884 0.054801
0.597707 0.205778 0.059117
0.647841 0.208947 0.061139
0.690114 0.209837 0.064654
0.730605 0.210965 0.068272
0.765141 0.209953 0.071361
0.797841 0.205450 0.074083
0.828037 0.200818 0.076152
0.857628 0.196308 0.078087
0.078759 0.255020 0.082355
0.104377 0.263428 0.083658
0.148225 0.277201 0.083967
0.213001 0.297666 0.088508
0.327669 0.326609 0.091985
0.452303 0.328822 0.077713
0.542247 0.316589 0.061569
0.603360 0.304747 0.054695
0.655634 0.299390 0.052973
0.702687 0.303258 0.053350
0.741747 0.302405 0.055332
0.776713 0.301241 0.058860
0.808860 0.298899 0.062924
0.837010 0.297199 0.066360
0.863272 0.296900 0.071664
0.891537 0.298210 0.077525
0.117736 0.360517 0.105741
0.164065 0.380983 0.109371
0.227943 0.408186 0.115606
0.312727 0.441280 0.124225
0.421505 0.476976 0.137360
0.529495 0.497454 0.141087
0.608213 0.494543 0.124027
0.664194 0.489673 0.111177
0.710785 0.486443 0.101947
0.755306 0.480517 0.091806
0.792486 0.474746 0.083299
0.825667 0.467796 0.078109
0.856665 0.460974 0.072791
0.883905 0.454032 0.070743
0.906871 0.446268 0.069606
0.929639 0.441275 0.071540
0.205087 0.487481 0.141471
0.274687 0.511769 0.149052
0.349671 0.538921 0.160064
0.416629 0.560060 0.168594
0.497704 0.583684 0.181212
0.588311 0.604044 0.191292
0.652075 0.611450 0.194193
0.701677 0.610735 0.183488
0.745025 0.607812 0.170119
0.785743 0.606179 0.161422
0.821801 0.603026 0.150570
0.853076 0.598532 0.137793
0.882105 0.592377 0.126534
0.906780 0.588895 0.117632
0.928956 0.582801 0.109200
0.949095 0.577394 0.103665
0.315753 0.590590 0.185217
0.380939 0.610910 0.195815
0.438384 0.628756 0.205226
0.494859 0.645201 0.213309
0.563926 0.662277 0.224116
0.630696 0.671869 0.230588
0.681850 0.676450 0.232982
0.722767 0.676541 0.229713
0.760488 0.676034 0.223085
0.798984 0.674687 0.212125
0.834246 0.672213 0.200259
0.865399 0.669920 0.190299
0.893150 0.666975 0.181149
0.917713 0.665196 0.172952
0.939967 0.662237 0.167400
0.957773 0.659505 0.160998
0.404049 0.670284 0.232430
0.454023 0.684340 0.241534
0.502838 0.694920 0.245813
0.556694 0.704139 0.250493
0.610664 0.713558 0.255389
0.659585 0.717552 0.257900
0.703366 0.721138 0.258988
0.740399 0.721310 0.257900
0.775267 0.721726 0.255266
0.809974 0.721996 0.251680
0.843599 0.720752 0.244489
0.874184 0.717257 0.232015
0.900657 0.715757 0.224047
0.924880 0.714899 0.217429
0.946326 0.712878 0.212584
0.962736 0.710186 0.205121
0.464001 0.728039 0.269130
0.511796 0.734933 0.270325
0.557764 0.741152 0.270958
0.599825 0.747130 0.274875
0.642667 0.752837 0.277774
0.684414 0.756668 0.280373
0.722163 0.757506 0.278681
0.757091 0.758550 0.278565
0.789905 0.759206 0.276919
0.822827 0.759736 0.275593
0.851894 0.759206 0.275105
0.880552 0.757897 0.269226
0.907813 0.754888 0.260521
0.930624 0.754337 0.255048
0.950081 0.754023 0.252410
0.966261 0.752456 0.248760
0.520206 0.771636 0.294404
0.562173 0.776438 0.294441
0.599138 0.780978 0.296233
0.633704 0.783905 0.298147
0.671010 0.787087 0.299695
0.707607 0.788548 0.300035
0.739271 0.789894 0.298757
0.771947 0.791384 0.298193
0.803508 0.791763 0.297249
0.833766 0.792278 0.296909
0.862265 0.792733 0.297249
0.888248 0.791394 0.296909
0.911581 0.790930 0.295451
0.933414 0.789078 0.289874
0.952803 0.788185 0.286269
0.968969 0.787247 0.284401
0.568046 0.809754 0.317453
0.600632 0.812450 0.317726
0.631303 0.815406 0.318392
0.661275 0.818099 0.319574
0.694578 0.819286 0.319525
0.725524 0.820010 0.319110
0.755511 0.821128 0.320465
0.786887 0.822789 0.320049
0.816358 0.823814 0.319257
0.843025 0.823451 0.318053
0.869754 0.823814 0.318332
0.894298 0.823451 0.319903
0.917072 0.822225 0.320298
0.936348 0.820573 0.319964
0.954949 0.819446 0.317477
0.970826 0.817792 0.315314
0.602201 0.841790 0.338301
0.629750 0.843604 0.338757
0.657642 0.846440 0.339256
0.685586 0.847268 0.338757
0.713527 0.848331 0.337711
0.742957 0.848753 0.338058
0.770373 0.850216 0.338645
0.799098 0.851548 0.338058
0.825976 0.851685 0.337373
0.850881 0.851438 0.336528
0.876064 0.851685 0.337373
0.899909 0.851438 0.338436
0.921465 0.850567 0.341836
0.940679 0.850125 0.343113
0.957225 0.848656 0.343718
0.971836 0.847308 0.344982
0.628753 0.870750 0.360244
0.654088 0.872143 0.360067
0.679286 0.873522 0.359256
0.706023 0.873940 0.359143
0.732240 0.874491 0.357945
0.756052 0.874758 0.356982
0.782871 0.876379 0.356070
0.808973 0.877549 0.356065
0.833309 0.877572 0.356063
0.857402 0.877052 0.355692
0.881277 0.876623 0.356063
0.904336 0.877052 0.357560
0.924693 0.876167 0.360939
0.943642 0.875243 0.363989
0.959276 0.874331 0.365729
0.972670 0.873446 0.367817
0.648277 0.896782 0.378327
0.673634 0.897080 0.377367
0.699067 0.897728 0.377371
0.723609 0.898972 0.376373
0.746447 0.899369 0.376396
0.770629 0.899195 0.375133
0.792858 0.900343 0.374456
0.816151 0.901112 0.374150
0.838835 0.901592 0.374421
0.862742 0.901493 0.375222
0.886802 0.900689 0.376324
0.908579 0.900550 0.377180
0.927008 0.899593 0.378799
0.945395 0.898858 0.382218
0.960482 0.897715 0.384565
0.973249 0.896966 0.387059
0.045961 0.079630 0.079626
0.062816 0.080657 0.079732
0.090397 0.082723 0.079626
0.145623 0.084775 0.078930
0.257660 0.080599 0.074334
0.387719 0.064023 0.067662
0.474198 0.052754 0.067958
0.532321 0.047501 0.068453
0.578991 0.046602 0.070530
0.617939 0.046897 0.071245
0.652996 0.046602 0.072920
0.687343 0.044826 0.073641
0.719389 0.044370 0.076378
0.750149 0.045043 0.078485
0.780652 0.045399 0.080384
0.810761 0.046071 0.083305
0.047133 0.095596 0.079547
0.062694 0.096815 0.080016
0.084814 0.098670 0.081153
0.118669 0.100920 0.079214
0.180862 0.102135 0.076569
0.283938 0.098441 0.073329
0.401195 0.086717 0.069387
0.485751 0.073730 0.068547
0.548568 0.065493 0.070350
0.596530 0.063015 0.071872
0.639676 0.059301 0.071947
0.677236 0.057852 0.075069
0.712247 0.056042 0.076298
0.747633 0.055599 0.078680
0.779929 0.055005 0.081113
0.810206 0.055599 0.083504
0.049613 0.117677 0.080738
0.066112 0.119248 0.081295
0.088193 0.120750 0.082340
0.123909 0.124376 0.079689
0.186706 0.125229 0.073547
0.288846 0.124088 0.071137
0.403662 0.118050 0.070352
0.489082 0.106644 0.069544
0.550259 0.100857 0.072332
0.600999 0.097674 0.073625
0.643507 0.090584 0.073930
0.682855 0.080185 0.074428
0.717405 0.074494 0.076527
0.753516 0.070933 0.079636
0.787349 0.070370 0.082146
0.818386 0.069909 0.084463
0.054158 0.147456 0.083907
0.072497 0.149662 0.084255
0.094522 0.151542 0.084709
0.133945 0.154770 0.080232
0.206083 0.157566 0.072135
0.313237 0.156153 0.069513
0.424833 0.153480 0.068154
0.507422 0.148998 0.070307
0.565403 0.148985 0.073412
0.617351 0.150098 0.074928
0.660143 0.146939 0.077413
0.701642 0.142942 0.080539
0.736957 0.134567 0.081322
0.769172 0.126819 0.082401
0.801727 0.116120 0.083733
0.832141 0.108355 0.085624
0.062560 0.189042 0.088176
0.082434 0.192826 0.089214
0.106529 0.197189 0.088977
0.150278 0.202988 0.087600
0.237750 0.208630 0.081114
0.361716 0.206813 0.068604
0.467374 0.203576 0.065145
0.539285 0.202745 0.067805
0.593402 0.206390 0.073427
0.644230 0.209039 0.075747
0.686719 0.209427 0.079025
0.729131 0.210046 0.082964
0.764368 0.209129 0.083959
0.796712 0.205391 0.086725
0.827232 0.198962 0.088800
0.857531 0.194199 0.090769
0.075774 0.251968 0.098257
0.097491 0.260690 0.100932
0.132985 0.273155 0.103152
0.195048 0.291898 0.105830
0.308494 0.322115 0.109479
0.442415 0.325948 0.093287
0.534640 0.312073 0.074644
0.597116 0.300880 0.067591
0.649553 0.297572 0.067123
0.697502 0.300965 0.068382
0.736668 0.300587 0.071897
0.773527 0.300965 0.074757
0.806794 0.301228 0.079405
0.834238 0.297814 0.083115
0.861168 0.297205 0.088268
0.889776 0.297814 0.093621
0.109276 0.358068 0.125886
0.143558 0.377820 0.131787
0.203800 0.404783 0.138399
0.289077 0.437187 0.146032
0.404738 0.474895 0.158494
0.517663 0.498533 0.165032
0.602758 0.495381 0.144119
0.660298 0.487837 0.126296
0.706822 0.484881 0.116723
0.751921 0.478078 0.106272
0.789558 0.471197 0.097870
0.823378 0.465360 0.094045
0.855527 0.458720 0.089305
0.882282 0.453128 0.086361
0.905707 0.445971 0.086082
0.929147 0.443333 0.091207
0.181155 0.487336 0.169513
0.248218 0.510948 0.177251
0.327155 0.537829 0.186735
0.402126 0.561176 0.197156
0.482605 0.585047 0.210774
0.578544 0.607239 0.224231
0.644642 0.615642 0.227540
0.696917 0.613931 0.213654
0.741708 0.610007 0.195551
0.782640 0.607903 0.184927
0.819653 0.604256 0.173082
0.851130 0.600281 0.161752
0.881350 0.595137 0.149149
0.907215 0.590247 0.140171
0.929291 0.585543 0.133201
0.949576 0.579697 0.126814
0.287304 0.591804 0.219411
0.358572 0.611650 0.230009
0.422162 0.630951 0.240715
0.480416 0.647852 0.250561
0.550526 0.664954 0.260812
0.621113 0.675546 0.268506
0.674361 0.681070 0.271692
0.717184 0.681181 0.266702
0.756303 0.679992 0.257938
0.794769 0.678733 0.246836
0.831019 0.677176 0.234644
0.863274 0.674034 0.223678
0.891992 0.670850 0.212436
0.916937 0.668132 0.204764
0.939832 0.666138 0.197559
0.958069 0.662466 0.189107
0.384833 0.672927 0.271505
0.438433 0.686690 0.279871
0.488889 0.697485 0.285181
0.542578 0.708452 0.289947
0.600265 0.716853 0.293611
0.649916 0.721741 0.295630
0.695845 0.725287 0.298204
0.734941 0.725559 0.295630
0.770618 0.725936 0.293019
0.806143 0.726299 0.289335
0.840046 0.724966 0.282034
0.870330 0.722404 0.270178
0.898468 0.720187 0.260971
0.924202 0.718184 0.252959
0.946305 0.717402 0.247469
0.963055 0.714411 0.239517
0.449700 0.731423 0.309867
0.495683 0.739034 0.312480
0.545069 0.744629 0.312670
0.590480 0.751204 0.316186
0.633850 0.756310 0.318342
0.677862 0.759984 0.320167
0.715321 0.761950 0.319266
0.751499 0.762836 0.318301
0.785069 0.763498 0.317044
0.819394 0.764507 0.316040
0.850187 0.764405 0.314251
0.877100 0.762634 0.309544
0.905285 0.761112 0.301373
0.928475 0.759690 0.295524
0.949790 0.758361 0.290305
0.966231 0.756830 0.286352
0.504951 0.775339 0.336544
0.550005 0.780068 0.335923
0.589692 0.784671 0.336544
0.625491 0.788510 0.339676
0.662357 0.791564 0.340741
0.699904 0.792556 0.341116
0.733641 0.794307 0.338847
0.766371 0.795395 0.338296
0.798564 0.796116 0.337341
0.830196 0.796928 0.336917
0.858365 0.796116 0.337341
0.884722 0.795043 0.335983
0.909902 0.794526 0.334946
0.933016 0.793914 0.330347
0.952192 0.792662 0.325575
0.968563 0.791078 0.321947
0.556262 0.813478 0.357925
0.591735 0.816624 0.357676
0.622430 0.819093 0.357925
0.654359 0.821309 0.359580
0.687555 0.822466 0.361055
0.718870 0.824439 0.359188
0.749445 0.825316 0.357208
0.781155 0.826280 0.358207
0.811916 0.827128 0.357864
0.839191 0.827568 0.357581
0.866348 0.827128 0.357864
0.891522 0.827568 0.358562
0.915473 0.826421 0.358869
0.937185 0.825356 0.359987
0.954414 0.823610 0.356929
0.970494 0.821660 0.353312
0.592396 0.846280 0.379455
0.620340 0.848186 0.379915
0.648752 0.850029 0.379455
0.678214 0.851019 0.379001
0.707347 0.851423 0.379017
0.735233 0.852687 0.376971
0.764137 0.854215 0.376146
0.793567 0.855442 0.375983
0.821390 0.855707 0.375601
0.847213 0.855559 0.374985
0.872638 0.855707 0.374654
0.896271 0.855559 0.376887
0.919822 0.855681 0.378705
0.939026 0.854194 0.381202
0.956584 0.852873 0.382582
0.971357 0.851404 0.384139
0.616780 0.874931 0.402755
0.642955 0.876347 0.402237
0.670305 0.876812 0.400748
0.697961 0.878210 0.399313
0.724682 0.879118 0.398662
0.750131 0.878496 0.396794
0.776210 0.880049 0.395764
0.803088 0.881310 0.394797
0.828581 0.881639 0.393996
0.853434 0.881092 0.393515
0.877590 0.880686 0.393996
0.901370 0.881092 0.395454
0.922330 0.880053 0.397742
0.941998 0.879058 0.400069
0.958070 0.878219 0.402660
0.972067 0.877127 0.404912
0.635521 0.900649 0.419925
0.661493 0.901054 0.418255
0.688264 0.901552 0.416944
0.714473 0.901998 0.416235
0.739188 0.902750 0.415272
0.762949 0.903441 0.414295
0.786542 0.903694 0.412295
0.810530 0.904400 0.411325
0.834384 0.904937 0.410248
0.858883 0.904849 0.410615
0.882379 0.903995 0.412249
0.905769 0.902988 0.412613
0.924888 0.902751 0.414075
0.943644 0.901191 0.416062
0.959527 0.900862 0.418023
0.972688 0.900247 0.420982
0.046276 0.081333 0.100180
0.061599 0.082777 0.098421
0.085638 0.084423 0.097741
0.126154 0.085867 0.097608
0.215109 0.088319 0.096226
0.352194 0.074613 0.087843
0.456382 0.059466 0.084083
0.521953 0.049846 0.083002
0.573069 0.046901 0.084706
0.614813 0.047372 0.085228
0.651125 0.045871 0.087122
0.686320 0.045300 0.087650
0.720314 0.045592 0.089950
0.752226 0.045208 0.092490
0.782730 0.045592 0.094823
0.812819 0.046242 0.098168
0.047414 0.097261 0.098407
0.061339 0.098585 0.098218
0.081725 0.100346 0.099224
0.109549 0.101666 0.099029
0.165379 0.105236 0.096873
0.266990 0.103881 0.095134
0.391882 0.090853 0.087154
0.482379 0.078167 0.084615
0.546348 0.067357 0.084559
0.596343 0.062942 0.085970
0.638476 0.060132 0.086175
0.677023 0.057782 0.088387
0.712180 0.056437 0.089832
0.748813 0.055885 0.092848
0.781962 0.055404 0.095507
0.812696 0.055885 0.098538
0.049041 0.118994 0.100106
0.063491 0.120514 0.100377
0.085066 0.123093 0.101742
0.113476 0.125644 0.102013
0.172348 0.128391 0.099229
0.274183 0.128113 0.095127
0.394722 0.121217 0.088676
0.486180 0.110685 0.086230
0.547752 0.102529 0.087027
0.600385 0.096578 0.088081
0.643042 0.091222 0.088646
0.683283 0.081141 0.089703
0.718532 0.074830 0.091604
0.754231 0.071877 0.094961
0.788536 0.070712 0.097274
0.820218 0.070848 0.099843
0.052456 0.148066 0.104038
0.067840 0.150646 0.104429
0.088556 0.153172 0.104856
0.121375 0.156784 0.104429
0.188726 0.160203 0.098004
0.298798 0.160210 0.091423
0.416559 0.157143 0.089082
0.503850 0.151016 0.089004
0.563076 0.149374 0.090230
0.615804 0.149244 0.091232
0.660901 0.147341 0.092659
0.701155 0.143112 0.095287
0.737530 0.134352 0.096267
0.770534 0.126823 0.098246
0.802343 0.115906 0.099521
0.833480 0.109383 0.101510
0.059464 0.189382 0.111146
0.076246 0.194349 0.111204
0.099093 0.198544 0.111971
0.133468 0.204507 0.112023
0.220245 0.211730 0.103519
0.348435 0.209660 0.091592
0.459058 0.207657 0.088084
0.535170 0.204582 0.088357
0.590134 0.208065 0.092900
0.641490 0.210395 0.094500
0.685472 0.211103 0.096957
0.727380 0.211422 0.100189
0.764568 0.209573 0.102085
0.796427 0.205455 0.104176
0.827383 0.198397 0.105359
0.858401 0.193235 0.107450
0.072390 0.252662 0.123438
0.091952 0.260981 0.123845
0.119151 0.274862 0.128418
0.166266 0.294225 0.132998
0.279196 0.323819 0.137816
0.429144 0.331641 0.118617
0.528964 0.316810 0.097348
0.593489 0.306589 0.089187
0.644999 0.305826 0.090228
0.693550 0.307210 0.091223
0.735224 0.307836 0.095912
0.771753 0.307210 0.098534
0.804997 0.307540 0.101527
0.833804 0.305107 0.105208
0.860452 0.299508 0.108896
0.889445 0.299077 0.114242
0.100746 0.358679 0.154130
0.129299 0.378046 0.160090
0.174492 0.405416 0.171172
0.258303 0.439380 0.181494
0.379050 0.477020 0.191701
0.504266 0.506507 0.199877
0.596903 0.505283 0.177898
0.656820 0.494830 0.154326
0.704172 0.489809 0.141971
0.749516 0.483393 0.131026
0.789033 0.475186 0.121937
0.822015 0.471673 0.119407
0.854611 0.465636 0.116421
0.881594 0.461788 0.114289
0.904772 0.455841 0.114775
0.928443 0.452971 0.120902
0.161684 0.490061 0.205112
0.213620 0.513292 0.216319
0.291598 0.539512 0.226240
0.378745 0.564491 0.236697
0.465219 0.588949 0.248381
0.565074 0.612838 0.264102
0.636803 0.622381 0.269129
0.690465 0.621448 0.255068
0.737516 0.616356 0.233115
0.779644 0.613183 0.218708
0.817593 0.608722 0.205779
0.850203 0.604595 0.193325
0.879817 0.599806 0.180953
0.907949 0.595071 0.170803
0.929927 0.590244 0.162111
0.950242 0.583581 0.153783
0.256185 0.595407 0.261813
0.326954 0.614741 0.273611
0.399940 0.634535 0.284565
0.467003 0.651868 0.294648
0.536579 0.668389 0.302866
0.609941 0.680718 0.311549
0.666257 0.686357 0.313995
0.710066 0.687301 0.310623
0.750864 0.685740 0.300009
0.790266 0.683823 0.287285
0.827742 0.682914 0.275257
0.859873 0.680077 0.264511
0.888674 0.677275 0.252208
0.916285 0.674349 0.243274
0.939774 0.671589 0.235199
0.958560 0.667725 0.225463
0.355815 0.676779 0.318464
0.417090 0.690147 0.325898
0.471588 0.701293 0.331543
0.529520 0.712708 0.335269
0.586038 0.721243 0.338052
0.642818 0.727167 0.341721
0.689793 0.730586 0.342749
0.728755 0.731834 0.341721
0.764666 0.731170 0.336627
0.800627 0.731072 0.331229
0.834036 0.731170 0.324442
0.866968 0.729140 0.313498
0.896906 0.725842 0.303399
0.922989 0.725252 0.296724
0.945845 0.724021 0.291421
0.962945 0.720584 0.282961
0.431034 0.734926 0.355583
0.478646 0.743159 0.358003
0.526770 0.749957 0.359407
0.577023 0.756299 0.360864
0.625138 0.761513 0.363771
0.669912 0.765025 0.364604
0.709591 0.767158 0.363771
0.745606 0.768779 0.363639
0.778949 0.768577 0.360895
0.814611 0.769269 0.359076
0.845176 0.769542 0.357115
0.872333 0.767431 0.352404
0.901229 0.765854 0.343230
0.927034 0.765698 0.337865
0.948937 0.763973 0.332877
0.965861 0.761942 0.327548
0.489202 0.779341 0.382556
0.531989 0.784302 0.382698
0.575548 0.788734 0.381576
0.614307 0.792740 0.381767
0.653501 0.795482 0.383902
0.691001 0.797795 0.384073
0.726805 0.799200 0.382938
0.760560 0.800631 0.382130
0.792552 0.800953 0.380949
0.824967 0.801696 0.379668
0.855650 0.801927 0.379014
0.881632 0.799841 0.377762
0.905782 0.799627 0.376430
0.930075 0.799015 0.372307
0.951343 0.797766 0.367794
0.967868 0.796207 0.363687
0.538907 0.816983 0.406131
0.576303 0.820298 0.405303
0.609943 0.822638 0.403200
0.643919 0.825913 0.402384
0.678237 0.826637 0.401744
0.711406 0.828449 0.401713
0.742203 0.829421 0.400756
0.774791 0.831232 0.400724
0.806183 0.831836 0.400212
0.833690 0.832249 0.398979
0.861688 0.831836 0.398265
0.888219 0.831243 0.397978
0.913239 0.831000 0.399056
0.934286 0.829423 0.399645
0.953338 0.828217 0.398109
0.969830 0.826638 0.394759
0.575710 0.849570 0.426987
0.605210 0.852176 0.427232
0.633874 0.853309 0.425029
0.667025 0.854983 0.422299
0.699056 0.856645 0.421470
0.727153 0.857070 0.420225
0.756817 0.858488 0.418560
0.786323 0.859876 0.418237
0.815593 0.860504 0.417589
0.842195 0.860457 0.416712
0.867896 0.861445 0.415639
0.893444 0.860457 0.416712
0.916613 0.858740 0.418363
0.938324 0.858470 0.419675
0.955589 0.856873 0.421320
0.970555 0.855684 0.422636
0.601641 0.878777 0.445895
0.627981 0.880435 0.445717
0.654984 0.881563 0.443904
0.685932 0.881315 0.441754
0.715970 0.882945 0.439734
0.743013 0.883890 0.437784
0.768559 0.883873 0.435751
0.795945 0.884890 0.434817
0.822447 0.885526 0.433829
0.847932 0.885614 0.433690
0.872530 0.885526 0.434814
0.898153 0.885614 0.434675
0.919099 0.884191 0.435528
0.939926 0.883266 0.437607
0.957038 0.882311 0.440498
0.971101 0.881377 0.442583
0.618913 0.903892 0.463065
0.645206 0.904887 0.462038
0.673584 0.905776 0.461066
0.702346 0.905829 0.459032
0.729310 0.905892 0.457524
0.754608 0.907267 0.455169
0.778707 0.906863 0.453513
0.803238 0.907267 0.452162
0.828011 0.907980 0.450978
0.852843 0.908607 0.450653
0.875919 0.908909 0.451954
0.899683 0.907665 0.453653
0.922578 0.907327 0.453473
0.942381 0.906417 0.454517
0.958324 0.905452 0.457487
0.971393 0.904571 0.460531
0.047149 0.083433 0.126446
0.061451 0.084394 0.122421
0.080608 0.086517 0.123123
0.110527 0.088507 0.122421
0.171095 0.093056 0.121563
0.307325 0.090346 0.117201
0.430310 0.076586 0.111665
0.507023 0.062533 0.108151
0.563171 0.052528 0.107970
0.608929 0.050052 0.107840
0.648380 0.048395 0.109611
0.683542 0.046956 0.109482
0.718701 0.047048 0.112096
0.753037 0.046763 0.115189
0.784374 0.048077 0.117862
0.814643 0.048822 0.121797
0.048249 0.099748 0.123293
0.061814 0.100969 0.122005
0.079197 0.102824 0.122458
0.101492 0.106103 0.123664
0.143892 0.109013 0.122813
0.235062 0.112483 0.121364
0.373155 0.104905 0.115374
0.473366 0.091934 0.110638
0.539505 0.079838 0.108844
0.593629 0.070660 0.109267
0.636686 0.066435 0.108844
0.677468 0.062406 0.110911
0.713246 0.059671 0.113210
0.748992 0.058127 0.115730
0.784202 0.058637 0.118986
0.814968 0.059159 0.122349
0.049594 0.121609 0.125560
0.063636 0.123216 0.125092
0.081410 0.126741 0.126384
0.105911 0.129369 0.127594
0.148987 0.132941 0.127145
0.246304 0.135528 0.125446
0.379668 0.130890 0.118033
0.479721 0.121183 0.113871
0.544243 0.111547 0.111928
0.599823 0.101861 0.111990
0.643665 0.097167 0.111110
0.683747 0.089511 0.112813
0.720171 0.082043 0.115689
0.754265 0.078193 0.118363
0.790148 0.075865 0.121469
0.822429 0.076131 0.124160
0.052066 0.150095 0.130641
0.066911 0.152606 0.130609
0.084771 0.156217 0.130641
0.110975 0.159760 0.133953
0.162218 0.165326 0.132952
0.274710 0.167256 0.126629
0.403898 0.165326 0.120482
0.497788 0.160105 0.118335
0.560068 0.155629 0.116405
0.613974 0.151692 0.116301
0.660936 0.149502 0.117230
0.701394 0.144535 0.120432
0.738048 0.138463 0.121725
0.772127 0.131970 0.123348
0.803960 0.121049 0.125037
0.836102 0.116593 0.127495
0.057337 0.190838 0.139227
0.072967 0.195326 0.139691
0.091820 0.202030 0.140908
0.119747 0.207542 0.143045
0.186381 0.218192 0.141126
0.328735 0.218360 0.126086
0.448297 0.216151 0.123605
0.530187 0.211263 0.121112
0.589270 0.212401 0.122511
0.639925 0.212516 0.122757
0.686714 0.213415 0.124176
0.727931 0.213514 0.128568
0.765999 0.210168 0.129818
0.798933 0.205637 0.130677
0.828746 0.200003 0.132322
0.859878 0.195484 0.134017
0.069480 0.255792 0.158916
0.087285 0.264024 0.158995
0.109308 0.277977 0.162327
0.143091 0.298252 0.170091
0.231254 0.329105 0.178384
0.409636 0.346572 0.160165
0.522361 0.328100 0.130941
0.590358 0.318545 0.124037
0.641364 0.320214 0.127206
0.689068 0.321488 0.128900
0.731559 0.321218 0.133043
0.768339 0.317474 0.134740
0.803694 0.317298 0.135955
0.833254 0.313142 0.138703
0.860287 0.305281 0.140984
0.889882 0.304118 0.144584
0.095650 0.364861 0.200829
0.119830 0.382319 0.203924
0.153429 0.407562 0.213075
0.213029 0.444570 0.229493
0.332511 0.483129 0.242267
0.481705 0.516864 0.252152
0.586578 0.519097 0.226246
0.652095 0.509110 0.197281
0.701411 0.498786 0.178186
0.747042 0.493201 0.168563
0.787373 0.486116 0.159381
0.822796 0.482511 0.157486
0.853026 0.478517 0.155865
0.880582 0.473427 0.155732
0.904295 0.470690 0.157573
0.928490 0.468558 0.163368
0.143727 0.493550 0.259793
0.182323 0.515490 0.266310
0.247025 0.543003 0.280683
0.338727 0.571510 0.295522
0.438006 0.593972 0.303591
0.545169 0.619516 0.316302
0.625760 0.631229 0.320302
0.681518 0.631872 0.307940
