example_ofxGpuLutCube/bin/data/ofxGpuLutCube/LUT/T46 (sunset orange teal fade).cube
LUT_3D_SIZE 6
0.046500 0.078598 0.065766
0.148828 0.082484 0.063183
0.481449 0.050562 0.056856
0.619605 0.046584 0.060725
0.719207 0.044164 0.064928
0.809353 0.045847 0.071352
0.056850 0.148638 0.068970
0.140720 0.155122 0.065114
0.428813 0.152868 0.054072
0.618343 0.151499 0.062752
0.737503 0.137925 0.068928
0.831900 0.110218 0.073734
0.117736 0.360517 0.105741
0.312727 0.441280 0.124225
0.608213 0.494543 0.124027
0.755306 0.480517 0.091806
0.856665 0.460974 0.072791
0.929639 0.441275 0.071540
0.404049 0.670284 0.232430
0.556694 0.704139 0.250493
0.703366 0.721138 0.258988
0.809974 0.721996 0.251680
0.900657 0.715757 0.224047
0.962736 0.710186 0.205121
0.568046 0.809754 0.317453
0.661275 0.818099 0.319574
0.755511 0.821128 0.320465
0.843025 0.823451 0.318053
0.917072 0.822225 0.320298
0.970826 0.817792 0.315314
0.648277 0.896782 0.378327
0.723609 0.898972 0.376373
0.792858 0.900343 0.374456
0.862742 0.901493 0.375222
0.927008 0.899593 0.378799
0.973249 0.896966 0.387059
0.047149 0.083433 0.126446
0.110527 0.088507 0.122421
0.430310 0.076586 0.111665
0.608929 0.050052 0.107840
0.718701 0.047048 0.112096
0.814643 0.048822 0.121797
0.052066 0.150095 0.130641
0.110975 0.159760 0.133953
0.403898 0.165326 0.120482
0.613974 0.151692 0.116301
0.738048 0.138463 0.121725
0.836102 0.116593 0.127495
0.095650 0.364861 0.200829
0.213029 0.444570 0.229493
0.586578 0.519097 0.226246
0.747042 0.493201 0.168563
0.853026 0.478517 0.155865
0.928490 0.468558 0.163368
0.310298 0.679072 0.368473
0.506773 0.717424 0.389699
0.678789 0.736607 0.391614
0.794552 0.737572 0.380849
0.893654 0.732334 0.351012
0.962483 0.726933 0.329325
0.515702 0.822208 0.458382
0.624040 0.829123 0.454008
0.732220 0.833737 0.447423
0.826601 0.837338 0.444610
0.908478 0.836069 0.441169
0.968592 0.831889 0.437897
0.601485 0.907335 0.510054
0.685186 0.909466 0.505554
0.768666 0.910568 0.501209
0.843434 0.912270 0.497311
0.916175 0.911974 0.498969
0.969763 0.909517 0.503213
0.054729 0.089213 0.255573
0.102410 0.092921 0.245572
0.304338 0.117953 0.273060
0.534740 0.148299 0.297581
0.664880 0.153866 0.308331
0.771880 0.160524 0.321145
0.058034 0.160827 0.269948
0.108098 0.168903 0.272801
0.293248 0.216641 0.319970
0.559546 0.278254 0.363233
0.701628 0.289687 0.375602
0.809339 0.287006 0.380768
0.093553 0.398045 0.399245
0.172467 0.465475 0.439498
0.440042 0.570588 0.500787
0.693762 0.576466 0.483087
0.819848 0.562854 0.469998
0.906787 0.549407 0.463028
0.231154 0.684651 0.555032
0.395731 0.725648 0.575666
0.593100 0.754315 0.586529
0.747213 0.760683 0.579390
0.861256 0.757364 0.548169
0.949893 0.750474 0.521782
0.455019 0.827701 0.618554
0.557934 0.841952 0.621991
0.666668 0.847966 0.616545
0.784430 0.851921 0.610111
0.876824 0.850387 0.605984
0.952391 0.848646 0.596770
0.558463 0.916390 0.648392
0.625461 0.919745 0.644436
0.714478 0.922275 0.640265
0.807784 0.922304 0.635988
0.894295 0.923446 0.633624
0.958947 0.920939 0.632629
0.065049 0.094484 0.394698
0.107464 0.097893 0.396802
0.205433 0.111399 0.424699
0.514854 0.170266 0.513293
0.650438 0.201043 0.546800
0.751574 0.228472 0.567822
0.067672 0.172732 0.425621
0.111872 0.179659 0.436092
0.208995 0.208887 0.473547
0.558002 0.339323 0.583070
0.694327 0.381594 0.611381
0.793038 0.400562 0.623730
0.102316 0.432437 0.564311
0.166746 0.477963 0.590009
0.342572 0.571825 0.645740
0.641972 0.627468 0.685229
0.764734 0.637041 0.690626
0.853402 0.634275 0.690707
0.215940 0.693440 0.681880
0.356069 0.725902 0.698313
0.547782 0.759259 0.716116
0.696802 0.771676 0.720852
0.813672 0.772579 0.718169
0.909218 0.770364 0.717921
0.433259 0.829661 0.725858
0.532558 0.843927 0.733517
0.631296 0.853278 0.737450
0.740062 0.860290 0.738308
0.844723 0.861327 0.735372
0.928397 0.858942 0.727047
0.542574 0.918043 0.747773
0.604910 0.921683 0.750621
0.685500 0.927605 0.751888
0.769762 0.929521 0.749308
0.866153 0.929915 0.746044
0.942175 0.928229 0.744426
0.072306 0.100387 0.492120
0.113083 0.102649 0.500116
0.192924 0.117185 0.529890
0.502197 0.177483 0.619514
0.656115 0.220513 0.664974
0.763157 0.256250 0.690576
0.075822 0.188653 0.534523
0.118049 0.195324 0.544625
0.206248 0.228038 0.583225
0.550802 0.358326 0.687057
0.702662 0.411453 0.722312
0.805206 0.433022 0.739216
0.112112 0.460209 0.669555
0.175592 0.502110 0.693644
0.337733 0.583970 0.743609
0.629619 0.631503 0.776984
0.762655 0.649118 0.789824
0.854492 0.649992 0.793263
0.216464 0.699405 0.775418
0.340685 0.728164 0.789504
0.532920 0.759440 0.806700
0.684448 0.772381 0.813589
0.797964 0.777147 0.816152
0.887870 0.779595 0.817923
0.422818 0.830885 0.812482
0.519006 0.844047 0.817988
0.619335 0.853915 0.822813
0.728578 0.861733 0.826343
0.822016 0.864623 0.828430
0.907826 0.865004 0.829656
0.529516 0.918947 0.830786
0.593167 0.924294 0.833365
0.672417 0.928372 0.835116
0.758271 0.932129 0.837782
0.843579 0.934187 0.837978
0.925071 0.932556 0.835552
0.079446 0.111219 0.578605
0.119793 0.114553 0.588949
0.196617 0.127711 0.617320
0.505182 0.196621 0.707524
0.658518 0.236180 0.750926
0.772539 0.278902 0.784086
0.083979 0.212261 0.626019
0.126690 0.221114 0.638795
0.213215 0.257945 0.678030
0.555962 0.390456 0.776005
0.705542 0.435915 0.808777
0.812110 0.460753 0.828940
0.125006 0.491979 0.760753
0.191996 0.530479 0.783986
0.349207 0.601214 0.827483
0.628895 0.642829 0.860101
0.757019 0.655682 0.869002
0.856717 0.659622 0.875516
0.225570 0.706259 0.853014
0.341286 0.733155 0.867043
0.532083 0.761685 0.882898
0.678571 0.773160 0.890294
0.791079 0.777551 0.892277
0.883993 0.780801 0.894413
0.426483 0.834000 0.887481
0.516812 0.844805 0.893634
0.614099 0.855418 0.898448
0.722091 0.862242 0.902295
0.818289 0.865917 0.904083
0.899594 0.867829 0.905996
0.530614 0.919510 0.901356
0.593768 0.925164 0.905996
0.665235 0.928087 0.906123
0.754898 0.932776 0.908733
0.838444 0.935890 0.909743
0.915798 0.935926 0.912267
