example_ofxGpuLutCube/bin/data/ofxGpuLutCube/LUT/T47 (olive smooth fade).cube
LUT_3D_SIZE 16
0.108041 0.141263 0.113183
0.113120 0.141272 0.113198
0.141676 0.141263 0.113183
0.206912 0.140250 0.109910
0.319596 0.134875 0.105741
0.440215 0.127316 0.102711
0.519315 0.124631 0.103293
0.575176 0.124244 0.103522
0.622306 0.123604 0.104117
0.664155 0.123122 0.104685
0.700255 0.123604 0.105754
0.734370 0.122096 0.106324
0.764836 0.122790 0.106842
0.793591 0.121887 0.107839
0.821171 0.122790 0.108480
0.847937 0.122914 0.109480
0.108082 0.147272 0.113177
0.113152 0.147284 0.113188
0.141723 0.148291 0.113177
0.206055 0.147284 0.109901
0.317582 0.140670 0.105734
0.437936 0.133956 0.102723
0.518161 0.130434 0.103286
0.574858 0.129866 0.103535
0.622284 0.129103 0.104122
0.664160 0.128604 0.104690
0.700266 0.128073 0.105751
0.734378 0.128604 0.106328
0.764839 0.128293 0.106839
0.793595 0.128358 0.107837
0.821175 0.128293 0.108478
0.847942 0.128358 0.109483
0.111122 0.174964 0.113361
0.116171 0.174988 0.113367
0.143070 0.174964 0.112540
0.196690 0.174988 0.108438
0.279776 0.172843 0.105694
0.388197 0.164866 0.103254
0.478251 0.155505 0.103243
0.550079 0.151591 0.104077
0.606956 0.146093 0.103940
0.657341 0.139501 0.104630
0.699539 0.135870 0.105571
0.733897 0.134386 0.106262
0.764741 0.133757 0.106689
0.793783 0.133848 0.107779
0.821147 0.133757 0.108327
0.848092 0.133848 0.109418
0.117996 0.219723 0.114257
0.123089 0.219738 0.114245
0.151801 0.219723 0.113435
0.207439 0.221772 0.109309
0.299183 0.219802 0.103368
0.407929 0.214367 0.100399
0.490210 0.209654 0.102555
0.556624 0.207262 0.102846
0.612165 0.201712 0.103900
0.660480 0.194729 0.105101
0.700625 0.183416 0.105542
0.736035 0.173352 0.105921
0.767152 0.163448 0.106906
0.796155 0.153920 0.107807
0.822411 0.147106 0.108553
0.849448 0.142688 0.109442
0.130138 0.285259 0.117332
0.135494 0.285330 0.117310
0.169403 0.289285 0.116511
0.230251 0.296390 0.116480
0.340168 0.298373 0.106593
0.447309 0.288634 0.098934
0.525246 0.283292 0.099240
0.590889 0.280574 0.099753
0.644263 0.277060 0.101295
0.690863 0.272938 0.103161
0.731328 0.267993 0.104563
0.763617 0.260841 0.106440
0.793981 0.251833 0.107564
0.821314 0.239643 0.108907
0.847195 0.226538 0.109210
0.871482 0.212302 0.109727
0.158711 0.379882 0.125672
0.164245 0.380075 0.125703
0.203872 0.391821 0.126512
0.281359 0.412785 0.129865
0.400077 0.429085 0.130154
0.503142 0.423575 0.118183
0.579161 0.416285 0.109481
0.646203 0.408763 0.104204
0.701199 0.399083 0.100447
0.745500 0.389438 0.098833
0.784922 0.379260 0.098002
0.816889 0.368547 0.098833
0.843465 0.359172 0.100262
0.865927 0.347645 0.102574
0.887063 0.336176 0.105160
0.908456 0.324643 0.108306
0.226022 0.497866 0.144949
0.231807 0.498299 0.145051
0.275242 0.513439 0.148318
0.358852 0.536117 0.155186
0.466172 0.554001 0.160616
0.551327 0.558484 0.159193
0.622104 0.554981 0.147900
0.684686 0.550770 0.139769
0.738689 0.545445 0.132392
0.782807 0.538157 0.125029
0.822960 0.529012 0.118277
0.856678 0.519755 0.112634
0.884587 0.510400 0.108341
0.910252 0.499716 0.105588
0.932570 0.487043 0.102610
0.953654 0.473398 0.100684
0.307206 0.603917 0.169963
0.313101 0.604202 0.170047
0.358060 0.614415 0.172548
0.433679 0.628056 0.176064
0.515745 0.636781 0.178582
0.585169 0.638227 0.177608
0.645657 0.636781 0.174278
0.702762 0.635433 0.169029
0.756076 0.632706 0.161265
0.799223 0.628800 0.154969
0.836199 0.625135 0.149410
0.871033 0.620235 0.145681
0.898425 0.615212 0.141179
0.924170 0.610698 0.137098
0.947295 0.604691 0.133638
0.968403 0.598288 0.129587
0.384540 0.677006 0.186550
0.390447 0.677188 0.186587
0.429151 0.682690 0.187406
0.487726 0.689454 0.189187
0.552931 0.691910 0.188877
0.613455 0.694469 0.188869
0.669448 0.693788 0.187151
0.722255 0.693520 0.185413
0.769021 0.691716 0.182844
0.810579 0.688688 0.176719
0.847141 0.686087 0.171664
0.880277 0.683024 0.167292
0.907092 0.679758 0.165044
0.932996 0.676895 0.161972
0.954833 0.674118 0.159927
0.973891 0.670228 0.156877
0.442414 0.728805 0.195923
0.448344 0.728891 0.195927
0.480087 0.731579 0.196784
0.529399 0.734470 0.197664
0.583639 0.736304 0.195934
0.637684 0.738262 0.195124
0.690480 0.738217 0.194182
0.740640 0.738262 0.193381
0.783400 0.737169 0.193057
0.821808 0.734960 0.191761
0.857318 0.732451 0.187833
0.888255 0.731197 0.184823
0.914509 0.728917 0.181575
0.937995 0.727491 0.180312
0.958954 0.725162 0.178990
0.977647 0.722834 0.177728
0.488284 0.771028 0.203611
0.494177 0.771082 0.203621
0.521510 0.772037 0.203611
0.564192 0.773926 0.203621
0.609015 0.775268 0.202408
0.659378 0.775944 0.202024
0.709091 0.776143 0.200668
0.755293 0.775944 0.200271
0.796151 0.775239 0.200297
0.832780 0.773536 0.200440
0.864679 0.772397 0.200297
0.893791 0.770683 0.198709
0.919904 0.768206 0.195510
0.941899 0.767246 0.193931
0.962000 0.765419 0.192920
0.980427 0.763561 0.192202
0.527139 0.806716 0.209885
0.533009 0.806747 0.209883
0.556666 0.807634 0.209885
0.590435 0.807665 0.209883
0.632849 0.808636 0.209939
0.680300 0.810874 0.209102
0.726054 0.810500 0.207310
0.767973 0.809930 0.206476
0.806517 0.809441 0.206772
0.841691 0.808549 0.207265
0.872934 0.806603 0.206772
0.899481 0.804821 0.207265
0.923497 0.802567 0.207070
0.945319 0.802276 0.205536
0.964477 0.799760 0.204442
0.982726 0.797610 0.203786
0.558002 0.837669 0.217300
0.563879 0.837691 0.217292
0.584767 0.838607 0.216402
0.615595 0.838628 0.216395
0.654463 0.839787 0.216554
0.697264 0.840836 0.215534
0.739646 0.840723 0.214778
0.778776 0.839968 0.213782
0.815743 0.839693 0.213919
0.849007 0.838927 0.214768
0.877840 0.837828 0.214794
0.904655 0.837077 0.214768
0.926934 0.834582 0.215345
0.948203 0.832786 0.215103
0.966829 0.830854 0.214467
0.984504 0.829039 0.213356
0.585247 0.864981 0.224064
0.591124 0.865007 0.224060
0.609087 0.865920 0.224064
0.637998 0.866884 0.224060
0.674537 0.867274 0.223196
0.713910 0.868732 0.222491
0.751395 0.867274 0.221430
0.788194 0.866851 0.220722
0.823544 0.866573 0.220933
0.855775 0.865927 0.221710
0.883504 0.864752 0.221821
0.908065 0.863989 0.222592
0.930020 0.862963 0.223251
0.950908 0.861328 0.224216
0.968792 0.859217 0.224140
0.986087 0.857562 0.224216
0.609757 0.890387 0.230026
0.615643 0.890431 0.230018
0.633790 0.891337 0.230026
0.658628 0.892284 0.229141
0.692825 0.892518 0.229617
0.727133 0.892148 0.228304
0.762364 0.891569 0.227828
0.797219 0.891244 0.227415
0.830845 0.890633 0.227831
0.861602 0.889784 0.228548
0.887523 0.888795 0.229621
0.911799 0.887971 0.230311
0.934070 0.887230 0.231019
0.953231 0.885665 0.230842
0.970692 0.884400 0.231911
0.987246 0.882834 0.232624
0.631290 0.914133 0.236297
0.637068 0.914161 0.236286
0.653326 0.914133 0.236297
0.676053 0.915065 0.235385
0.706586 0.915785 0.235578
0.737806 0.915768 0.235419
0.772092 0.914848 0.234689
0.805850 0.913861 0.234510
0.837882 0.913390 0.234937
0.866259 0.912238 0.235674
0.891341 0.911495 0.236718
0.914278 0.910432 0.238356
0.935704 0.908983 0.239100
0.955026 0.907705 0.238753
0.972276 0.907083 0.239992
0.987945 0.905792 0.240539
0.108012 0.141290 0.118035
0.113083 0.141298 0.118044
0.141651 0.141290 0.118035
0.206873 0.140272 0.114748
0.319406 0.134883 0.109619
0.440114 0.127335 0.107391
0.519074 0.124643 0.107979
0.575064 0.124261 0.108211
0.622211 0.123619 0.108795
0.664028 0.123122 0.109389
0.701285 0.123619 0.110437
0.734273 0.122096 0.111028
0.764968 0.122790 0.112390
0.793697 0.121887 0.111764
0.821311 0.122790 0.113218
0.848050 0.122914 0.114229
0.108042 0.147292 0.118020
0.113123 0.147300 0.118043
0.141676 0.148311 0.118020
0.206024 0.147300 0.114740
0.317400 0.140683 0.110435
0.437853 0.133956 0.108220
0.517933 0.130438 0.107973
0.574760 0.129866 0.108220
0.622221 0.129107 0.108793
0.664033 0.128615 0.109389
0.701296 0.128089 0.110434
0.734281 0.128615 0.111029
0.764971 0.128293 0.112392
0.793701 0.128358 0.111762
0.821315 0.128293 0.113213
0.848055 0.128358 0.114227
0.111068 0.174971 0.118208
0.116112 0.174982 0.118218
0.143018 0.174971 0.117382
0.195746 0.174982 0.113272
0.279748 0.172844 0.110386
0.388165 0.164847 0.107954
0.478247 0.155505 0.107920
0.550118 0.151567 0.108774
0.606970 0.146091 0.108641
0.657384 0.139514 0.109335
0.699555 0.135863 0.110281
0.733964 0.134398 0.110159
0.764843 0.133757 0.112244
0.792783 0.133848 0.111702
0.821178 0.133757 0.113063
0.848163 0.133848 0.114164
0.117951 0.219724 0.119188
0.123039 0.219737 0.119170
0.151756 0.219724 0.118357
0.207387 0.221770 0.114220
0.299119 0.219766 0.108104
0.407836 0.214346 0.105113
0.490154 0.209629 0.107285
0.556555 0.207224 0.107572
0.612133 0.201700 0.108621
0.660490 0.194659 0.109824
0.700588 0.183385 0.110263
0.736049 0.173295 0.110641
0.767232 0.163451 0.111642
0.796172 0.153923 0.112542
0.822472 0.147108 0.113289
0.849466 0.142691 0.114187
0.130026 0.285212 0.122275
0.135387 0.285298 0.122251
0.169309 0.289240 0.122275
0.230153 0.296340 0.121426
0.339034 0.298379 0.111348
0.447092 0.288634 0.103681
0.525069 0.283297 0.103969
0.590636 0.280575 0.104495
0.644101 0.277070 0.106076
0.690716 0.272932 0.107949
0.732165 0.268003 0.109352
0.763516 0.260835 0.111235
0.793947 0.251801 0.113132
0.821337 0.239623 0.113654
0.847158 0.226505 0.113963
0.871441 0.212275 0.114477
0.158361 0.379860 0.130774
0.163878 0.380037 0.130780
0.203498 0.391757 0.131601
0.280993 0.412716 0.134958
0.399970 0.429051 0.135022
0.503013 0.423469 0.122967
0.579044 0.416234 0.114277
0.646043 0.408652 0.108950
0.700967 0.399092 0.105168
0.745347 0.389299 0.103554
0.784697 0.379217 0.102716
0.816742 0.368446 0.103554
0.843610 0.359180 0.105043
0.865728 0.347627 0.107382
0.887214 0.336182 0.109968
0.908308 0.324626 0.113133
0.225672 0.497789 0.150163
0.231438 0.498221 0.150225
0.274894 0.513319 0.153542
0.358478 0.536003 0.160399
0.465940 0.553979 0.165898
0.551238 0.558459 0.163540
0.621877 0.554959 0.153136
0.684649 0.550805 0.144914
0.738627 0.545422 0.137469
0.782693 0.538192 0.130092
0.822966 0.528990 0.123300
0.856636 0.519789 0.117641
0.884629 0.510434 0.113998
0.910204 0.499730 0.110426
0.932537 0.487076 0.107429
0.953568 0.473411 0.105503
0.306964 0.603911 0.175422
0.312849 0.604218 0.175476
0.357734 0.614432 0.178013
0.433386 0.628073 0.182350
0.515666 0.635937 0.184902
0.584088 0.638359 0.183876
0.645595 0.636873 0.179731
0.702708 0.635501 0.174406
0.755854 0.632858 0.166669
0.799022 0.628931 0.160326
0.837118 0.625225 0.155600
0.870859 0.620311 0.150153
0.898365 0.615249 0.146412
0.924113 0.610773 0.143151
0.947254 0.604778 0.138843
0.968437 0.598343 0.134766
0.384149 0.677127 0.192125
0.390082 0.677274 0.192141
0.429746 0.682735 0.192989
0.487377 0.689537 0.193874
0.551707 0.692992 0.195309
0.613327 0.694540 0.194406
0.669184 0.693877 0.192692
0.722114 0.693526 0.190937
0.768967 0.691879 0.188333
0.810429 0.688756 0.182196
0.847082 0.685254 0.177125
0.880131 0.683094 0.172755
0.907043 0.679834 0.169575
0.932955 0.676981 0.168186
0.954783 0.674158 0.165301
0.973851 0.670312 0.162227
0.442239 0.728835 0.201535
0.448151 0.728922 0.201544
0.479924 0.731609 0.201535
0.529254 0.734585 0.202400
0.582582 0.737428 0.201545
0.637550 0.738500 0.200713
0.690517 0.738345 0.199790
0.740509 0.738500 0.198983
0.783268 0.737339 0.198588
0.821731 0.734906 0.197313
0.857208 0.732626 0.193372
0.888223 0.731145 0.189493
0.914500 0.729037 0.187098
0.937987 0.726683 0.185774
0.958944 0.725278 0.184520
0.977638 0.722954 0.183195
0.488058 0.771165 0.209303
0.493947 0.771219 0.209292
0.522280 0.772161 0.210168
0.562961 0.774063 0.209292
0.608861 0.775256 0.208092
0.659337 0.776047 0.206790
0.708983 0.776130 0.206332
0.755247 0.776047 0.205909
0.795983 0.775437 0.205930
0.832639 0.773620 0.206032
0.864498 0.771688 0.205054
0.893676 0.769902 0.203404
0.919872 0.769153 0.202012
0.941876 0.767274 0.200360
0.961967 0.765400 0.198528
0.980403 0.763520 0.197746
0.526878 0.806777 0.215545
0.532809 0.806808 0.215534
0.556430 0.807695 0.214667
0.590235 0.807726 0.214671
0.632805 0.808762 0.214740
0.681146 0.810813 0.213877
0.725933 0.810597 0.212993
0.767820 0.809869 0.212125
0.806539 0.809391 0.212399
0.841628 0.808459 0.212914
0.872958 0.806553 0.213273
0.898330 0.804766 0.212914
0.923541 0.803530 0.212753
0.945293 0.802463 0.211178
0.964589 0.799808 0.210121
0.982701 0.797796 0.209424
0.557896 0.837784 0.222738
0.563729 0.837806 0.222720
0.584664 0.838697 0.221839
0.615452 0.838718 0.221840
0.654549 0.839886 0.221999
0.697093 0.841043 0.221002
0.739637 0.840800 0.220238
0.778595 0.840061 0.219245
0.815655 0.839848 0.219413
0.848863 0.839030 0.220265
0.877695 0.837959 0.220304
0.904503 0.836256 0.221139
0.926941 0.834740 0.220131
0.948170 0.832800 0.219925
0.966836 0.830941 0.220131
0.984471 0.829052 0.219042
0.585207 0.865061 0.229244
0.590965 0.865086 0.229260
0.609046 0.865999 0.229244
0.637817 0.866968 0.229260
0.674476 0.867314 0.228415
0.713760 0.868783 0.227748
0.751274 0.867314 0.226632
0.788085 0.866964 0.225971
0.823489 0.866619 0.226188
0.855766 0.866064 0.226992
0.883467 0.864741 0.227083
0.908145 0.864186 0.227894
0.930019 0.863089 0.228697
0.950906 0.861467 0.228850
0.968791 0.859345 0.229576
0.986084 0.857700 0.229759
0.609746 0.890434 0.234955
0.615600 0.890414 0.234970
0.633778 0.891339 0.234955
0.658545 0.892267 0.234970
0.692779 0.892586 0.233690
0.727080 0.892115 0.233252
0.762316 0.891559 0.232796
0.797181 0.891211 0.232383
0.830805 0.890706 0.232787
0.861540 0.889873 0.233567
0.887481 0.888867 0.234576
0.911735 0.887984 0.235332
0.934070 0.887012 0.236208
0.953231 0.885812 0.236111
0.970692 0.884232 0.237101
0.987246 0.882908 0.237890
0.631292 0.914133 0.241074
0.637065 0.914161 0.241063
0.653358 0.914133 0.241074
0.676084 0.915065 0.241063
0.706589 0.915785 0.239452
0.737814 0.915768 0.240202
0.772094 0.914848 0.239452
0.805856 0.913861 0.239307
0.837882 0.913393 0.239718
0.866256 0.912238 0.240465
0.891341 0.911497 0.241506
0.914276 0.910433 0.242253
0.935703 0.908931 0.243129
0.955026 0.907739 0.244594
0.972275 0.907031 0.244921
0.987945 0.905827 0.245493
0.107515 0.142021 0.141342
0.112566 0.142035 0.141352
0.138537 0.143044 0.141342
0.198296 0.143059 0.139679
0.308767 0.137649 0.132899
0.427963 0.129731 0.127179
0.510627 0.125360 0.126240
0.570541 0.124602 0.126353
0.619704 0.123941 0.126817
0.662112 0.123305 0.127376
0.699828 0.122910 0.127647
0.735534 0.123305 0.128217
0.767430 0.121836 0.130440
0.795321 0.121941 0.131002
0.823779 0.122858 0.132115
0.850771 0.122967 0.133508
0.107541 0.147996 0.141343
0.112599 0.148010 0.141341
0.138561 0.149024 0.141343
0.197428 0.149038 0.139668
0.306920 0.143453 0.132892
0.426772 0.135287 0.127195
0.509660 0.131166 0.126230
0.570323 0.130174 0.126368
0.619718 0.129389 0.126813
0.662120 0.128798 0.127373
0.699844 0.128358 0.127643
0.735546 0.128798 0.128213
0.767431 0.128357 0.130437
0.795321 0.128416 0.130995
0.823780 0.128357 0.132112
0.850771 0.128416 0.133503
0.109563 0.175143 0.142168
0.114623 0.175201 0.142177
0.139747 0.176159 0.143013
0.188868 0.176203 0.140494
0.272001 0.174359 0.134849
0.385056 0.166252 0.128753
0.475814 0.157016 0.126507
0.549829 0.150939 0.127092
0.605920 0.146163 0.126725
0.656607 0.139722 0.127531
0.698466 0.135934 0.127556
0.735235 0.134605 0.128359
0.767501 0.133824 0.130393
0.796210 0.133910 0.130912
0.823855 0.133824 0.132060
0.850633 0.133910 0.133408
0.115405 0.220004 0.145009
0.120522 0.220069 0.144984
0.146555 0.221021 0.144170
0.199418 0.223111 0.139942
0.290508 0.221474 0.131836
0.400767 0.213798 0.128064
0.486873 0.209306 0.127663
0.554190 0.205668 0.127229
0.611046 0.201136 0.127646
0.659193 0.193863 0.128872
0.700526 0.183839 0.129315
0.735765 0.172513 0.130538
0.767396 0.163588 0.130797
0.797499 0.154077 0.131864
0.824817 0.147252 0.132464
0.851835 0.142842 0.133527
0.126364 0.285077 0.149251
0.131489 0.285239 0.149258
0.159411 0.289103 0.149251
0.218873 0.295286 0.147573
0.329804 0.296373 0.136289
0.440971 0.288841 0.125241
0.518201 0.284309 0.125451
0.583168 0.281800 0.126910
0.639126 0.277904 0.128593
0.686360 0.273144 0.130277
0.727050 0.267839 0.131923
0.763444 0.261046 0.131946
0.793610 0.250629 0.132987
0.820871 0.238806 0.133659
0.846865 0.225334 0.133824
0.872098 0.211443 0.134496
0.146073 0.379972 0.161877
0.151437 0.380234 0.161863
0.190084 0.390922 0.162734
0.265152 0.410969 0.165272
0.388631 0.430793 0.165484
0.495342 0.425608 0.149195
0.574145 0.415988 0.137589
0.641185 0.407807 0.130746
0.697631 0.398095 0.126326
0.741636 0.389105 0.125450
0.780251 0.380206 0.126326
0.812969 0.371221 0.127107
0.839325 0.361084 0.128466
0.863265 0.349696 0.130710
0.883975 0.337104 0.133474
0.905790 0.324688 0.136552
0.210117 0.497551 0.184924
0.215862 0.497875 0.185037
0.261766 0.513130 0.189239
0.344006 0.536657 0.195447
0.454891 0.556894 0.202341
0.543807 0.562362 0.199935
0.616492 0.557810 0.187539
0.680097 0.552760 0.176550
0.734641 0.547179 0.167722
0.778798 0.539899 0.159920
0.817839 0.531735 0.152430
0.853764 0.522491 0.145523
0.883452 0.512679 0.140000
0.909168 0.501195 0.135810
0.931338 0.488373 0.131636
0.952522 0.474875 0.129137
0.294970 0.605189 0.215611
0.300777 0.605447 0.215686
0.344575 0.616619 0.217378
0.420735 0.630260 0.221863
0.505986 0.639060 0.225129
0.576903 0.643346 0.223925
0.639703 0.640970 0.218931
0.697431 0.638572 0.212473
0.750471 0.636694 0.204912
0.794159 0.632852 0.198047
0.832798 0.629054 0.192709
0.866995 0.624282 0.185907
0.896604 0.619413 0.181278
0.922627 0.613558 0.176456
0.946482 0.607973 0.172674
0.968005 0.601166 0.167881
0.369480 0.680085 0.234852
0.375483 0.680296 0.234897
0.415783 0.685782 0.236630
0.477169 0.692491 0.238453
0.543113 0.696085 0.237876
0.606009 0.699229 0.237812
0.662490 0.697959 0.235195
0.716683 0.697292 0.232471
0.764331 0.695803 0.229354
0.806179 0.693058 0.223673
0.843530 0.689217 0.217863
0.876911 0.687348 0.213093
0.905387 0.685070 0.209597
0.931656 0.681874 0.207002
0.954124 0.678434 0.204337
0.973644 0.674359 0.200872
0.431210 0.732307 0.246876
0.437121 0.732397 0.246884
0.469714 0.735108 0.247772
0.519899 0.738977 0.247780
0.575429 0.740952 0.246587
0.629917 0.743411 0.246334
0.683080 0.742893 0.244798
0.735884 0.743411 0.243650
0.780117 0.742289 0.242339
0.817016 0.739915 0.240529
0.851834 0.737523 0.236983
0.884525 0.735218 0.233408
0.913345 0.733957 0.230201
0.936708 0.731382 0.227959
0.958825 0.729307 0.225773
0.977467 0.726627 0.223537
0.478627 0.774777 0.255811
0.484486 0.774698 0.255813
0.511765 0.775636 0.255811
0.553283 0.777438 0.255813
0.600775 0.779924 0.254437
0.652034 0.780217 0.253716
0.701725 0.780800 0.252639
0.749995 0.781176 0.251915
0.792307 0.780400 0.251284
0.827742 0.778583 0.250639
0.860852 0.776650 0.249485
0.889884 0.774870 0.248843
0.917564 0.773879 0.246937
0.942592 0.771834 0.244045
0.961904 0.770163 0.242464
0.980004 0.768071 0.240469
0.517223 0.810232 0.262715
0.523001 0.810269 0.262723
0.546700 0.811206 0.262715
0.582329 0.812186 0.261815
0.625399 0.812932 0.260333
0.672335 0.814092 0.259790
0.719454 0.814776 0.259434
0.762089 0.814995 0.258876
0.801703 0.814110 0.258775
0.837141 0.812893 0.258831
0.868111 0.811306 0.258775
0.897056 0.809113 0.258831
0.922242 0.808388 0.258796
0.944841 0.806398 0.257965
0.964338 0.804696 0.256079
0.982285 0.802677 0.254363
0.549259 0.841571 0.267927
0.554994 0.841601 0.267927
0.574901 0.842506 0.267927
0.607619 0.843472 0.266110
0.645620 0.843927 0.265836
0.690053 0.844842 0.266229
0.733783 0.844909 0.264927
0.773564 0.844842 0.264430
0.810838 0.844442 0.264354
0.844921 0.843433 0.265169
0.875101 0.842592 0.266153
0.901577 0.840602 0.266968
0.925602 0.839325 0.267253
0.948087 0.837447 0.267442
0.966619 0.835569 0.267253
0.984387 0.833688 0.266530
0.577234 0.869223 0.271622
0.583026 0.869244 0.271612
0.601029 0.869223 0.271622
0.629758 0.870222 0.270721
0.666160 0.871646 0.270784
0.707558 0.872429 0.269382
0.746084 0.871646 0.268971
0.783742 0.871472 0.268480
0.819300 0.871291 0.268576
0.851928 0.870532 0.269641
0.881406 0.869419 0.270412
0.906467 0.867722 0.272371
0.928937 0.866273 0.272970
0.949411 0.864579 0.273662
0.968797 0.863473 0.274779
0.985703 0.861758 0.275489
0.602294 0.894060 0.274639
0.608013 0.894088 0.274636
0.625241 0.894992 0.273709
0.651964 0.895967 0.273706
0.684728 0.896725 0.273016
0.720771 0.896842 0.273019
0.757405 0.895752 0.272109
0.792963 0.894992 0.272095
0.826928 0.894708 0.272298
0.858062 0.894118 0.273230
0.885851 0.892792 0.274120
0.910414 0.892222 0.275961
0.932788 0.890880 0.278116
0.951761 0.889611 0.278277
0.970493 0.888092 0.279939
0.986973 0.886776 0.281013
0.624843 0.916530 0.276348
0.630672 0.916558 0.276342
0.646803 0.917464 0.276348
0.670580 0.917493 0.276342
0.701250 0.917986 0.275207
0.732695 0.917906 0.274839
0.767757 0.917986 0.274308
0.801703 0.916969 0.274839
0.834372 0.916425 0.275433
0.863476 0.915684 0.275956
0.889986 0.914497 0.277265
0.913653 0.913746 0.278695
0.934442 0.912876 0.279453
0.953906 0.911909 0.281582
0.972087 0.910045 0.283091
0.987857 0.909108 0.284324
0.108369 0.142833 0.178446
0.113362 0.142850 0.178452
0.135930 0.143858 0.177615
0.182232 0.144890 0.177621
0.280237 0.143971 0.172645
0.405252 0.137321 0.165689
0.494784 0.131697 0.162386
0.559974 0.129132 0.161412
0.613497 0.127706 0.161221
0.657330 0.126591 0.161748
0.696674 0.126684 0.161221
0.733879 0.126591 0.163449
0.767583 0.125810 0.164531
0.796797 0.124913 0.165970
0.825027 0.125810 0.167095
0.852267 0.125934 0.168529
0.108393 0.148805 0.178447
0.113391 0.148826 0.178455
0.135959 0.149821 0.177616
0.182266 0.150865 0.177623
0.278608 0.149797 0.172664
0.403172 0.143919 0.165674
0.494001 0.137531 0.162408
0.559837 0.134710 0.161423
0.613503 0.133189 0.161217
0.657336 0.132070 0.161741
0.696681 0.131136 0.161217
0.733888 0.131049 0.163442
0.767587 0.131286 0.164538
0.796802 0.131359 0.165958
0.825032 0.131286 0.167092
0.852272 0.131359 0.168530
0.110334 0.176547 0.179338
0.115298 0.176566 0.179347
0.137059 0.177567 0.180203
0.177164 0.179605 0.179347
0.254352 0.179250 0.176047
0.370221 0.173995 0.169413
0.467613 0.165999 0.164065
0.543241 0.157666 0.162580
0.601459 0.150981 0.161227
0.653301 0.144227 0.161781
0.696080 0.139735 0.161227
0.732971 0.138088 0.163495
0.767646 0.136754 0.164451
0.796803 0.136827 0.165881
0.825095 0.136754 0.167011
0.852273 0.136827 0.168436
0.114022 0.221218 0.184797
0.119028 0.221307 0.184773
0.141666 0.223242 0.184797
0.185412 0.226370 0.184773
0.273650 0.224961 0.177877
0.389409 0.221368 0.170617
0.479611 0.215823 0.167579
0.549351 0.209191 0.163781
0.608445 0.203956 0.163564
0.657716 0.196708 0.163878
0.700043 0.187691 0.164425
0.736373 0.179413 0.165583
0.767949 0.170141 0.167121
0.799209 0.160943 0.166996
0.826441 0.152800 0.167982
0.853613 0.146652 0.168698
0.122048 0.287504 0.193540
0.127105 0.287647 0.193543
0.150669 0.292524 0.194396
0.200001 0.298709 0.193543
0.311360 0.302340 0.181597
0.430956 0.293437 0.170503
0.511390 0.288295 0.167882
0.576817 0.284389 0.167952
0.634770 0.279855 0.168495
0.683325 0.274431 0.169430
0.726969 0.267771 0.170200
0.762455 0.259306 0.171155
0.793235 0.250933 0.170579
0.820995 0.239487 0.171099
0.847528 0.226640 0.171451
0.873268 0.214172 0.171948
0.138464 0.383860 0.210440
0.143593 0.384049 0.210488
0.171713 0.395798 0.213073
0.236889 0.414717 0.216627
0.368153 0.437017 0.216866
0.487941 0.433470 0.195947
0.567598 0.423243 0.181141
0.634488 0.413722 0.173467
0.691912 0.403949 0.169382
0.736205 0.395103 0.169135
0.773366 0.386115 0.170235
0.806293 0.377182 0.170845
0.834211 0.365583 0.172555
0.858295 0.354409 0.174057
0.881060 0.339652 0.175985
0.904161 0.326383 0.177487
0.184196 0.501917 0.240510
0.189955 0.502393 0.240667
0.236177 0.518447 0.244981
0.320516 0.540145 0.250515
0.436598 0.563289 0.255422
0.531994 0.571671 0.253888
0.606567 0.567135 0.240179
0.673072 0.561103 0.226210
0.730208 0.554167 0.214555
0.775245 0.546013 0.205628
0.815484 0.537830 0.197924
0.851251 0.528577 0.191664
0.881265 0.519080 0.184802
0.907783 0.507741 0.179046
0.930236 0.494775 0.175325
0.951100 0.481465 0.173041
0.269798 0.609555 0.274954
0.275665 0.609849 0.275077
0.322690 0.620997 0.277707
0.399193 0.634619 0.279639
0.489960 0.645712 0.281265
0.566082 0.650059 0.279476
0.629293 0.648615 0.275789
0.689435 0.646284 0.267662
