example_ofxGpuLutCube/bin/data/ofxGpuLutCube/LUT/T47 (olive smooth fade).cube
LUT_3D_SIZE 6
0.108041 0.141263 0.113183
0.206912 0.140250 0.109910
0.519315 0.124631 0.103293
0.664155 0.123122 0.104685
0.764836 0.122790 0.106842
0.847937 0.122914 0.109480
0.117996 0.219723 0.114257
0.207439 0.221772 0.109309
0.490210 0.209654 0.102555
0.660480 0.194729 0.105101
0.767152 0.163448 0.106906
0.849448 0.142688 0.109442
0.226022 0.497866 0.144949
0.358852 0.536117 0.155186
0.622104 0.554981 0.147900
0.782807 0.538157 0.125029
0.884587 0.510400 0.108341
0.953654 0.473398 0.100684
0.442414 0.728805 0.195923
0.529399 0.734470 0.197664
0.690480 0.738217 0.194182
0.821808 0.734960 0.191761
0.914509 0.728917 0.181575
0.977647 0.722834 0.177728
0.558002 0.837669 0.217300
0.615595 0.838628 0.216395
0.739646 0.840723 0.214778
0.849007 0.838927 0.214768
0.926934 0.834582 0.215345
0.984504 0.829039 0.213356
0.631290 0.914133 0.236297
0.676053 0.915065 0.235385
0.772092 0.914848 0.234689
0.866259 0.912238 0.235674
0.935704 0.908983 0.239100
0.987945 0.905792 0.240539
0.108369 0.142833 0.178446
0.182232 0.144890 0.177621
0.494784 0.131697 0.162386
0.657330 0.126591 0.161748
0.767583 0.125810 0.164531
0.852267 0.125934 0.168529
0.114022 0.221218 0.184797
0.185412 0.226370 0.184773
0.479611 0.215823 0.167579
0.657716 0.196708 0.163878
0.767949 0.170141 0.167121
0.853613 0.146652 0.168698
0.184196 0.501917 0.240510
0.320516 0.540145 0.250515
0.606567 0.567135 0.240179
0.775245 0.546013 0.205628
0.881265 0.519080 0.184802
0.951100 0.481465 0.173041
0.407416 0.737177 0.310600
0.500366 0.744607 0.308726
0.672672 0.749965 0.304812
0.809921 0.746563 0.297130
0.908245 0.738826 0.285318
0.976377 0.732558 0.277239
0.529864 0.845565 0.336505
0.592116 0.847364 0.334604
0.720370 0.851165 0.331144
0.835762 0.849996 0.328518
0.922578 0.844955 0.328308
0.982751 0.840333 0.328653
0.607858 0.920896 0.352652
0.653441 0.921886 0.351659
0.753058 0.924022 0.348934
0.852553 0.923228 0.348990
0.931624 0.920442 0.351269
0.985860 0.916658 0.354386
0.115424 0.141874 0.353636
0.169112 0.142901 0.354561
0.422618 0.160331 0.382025
0.585073 0.171675 0.390298
0.691341 0.178541 0.397319
0.779144 0.183976 0.403916
0.118155 0.223726 0.373061
0.172797 0.227836 0.377866
0.425582 0.259178 0.410477
0.592020 0.264505 0.416828
0.696932 0.244005 0.413038
0.780406 0.208174 0.406143
0.149871 0.527121 0.494704
0.228793 0.563121 0.512256
0.514443 0.603849 0.530358
0.699501 0.591982 0.512384
0.813003 0.571920 0.504453
0.887692 0.547604 0.500136
0.328503 0.752367 0.568584
0.403724 0.759834 0.570719
0.591114 0.768892 0.564314
0.746049 0.766794 0.555496
0.861155 0.759847 0.535737
0.946528 0.752341 0.520745
0.444146 0.860569 0.585382
0.500576 0.862522 0.581167
0.646009 0.865752 0.575537
0.777972 0.867080 0.572551
0.874901 0.863442 0.567271
0.950211 0.859379 0.559879
0.521877 0.936258 0.588297
0.571406 0.937242 0.587218
0.685853 0.937906 0.582737
0.800104 0.938014 0.579651
0.889234 0.937469 0.578120
0.960153 0.934425 0.575614
0.127512 0.139556 0.501455
0.175239 0.141608 0.510756
0.401311 0.160720 0.551391
0.582340 0.179456 0.583691
0.691009 0.189511 0.596918
0.776511 0.198408 0.604858
0.128861 0.226187 0.528464
0.178414 0.229224 0.535779
0.411790 0.261971 0.581891
0.596182 0.276129 0.610480
0.700577 0.253137 0.610940
0.777646 0.221864 0.606622
0.157315 0.541727 0.661414
0.229215 0.571878 0.680076
0.483635 0.607410 0.700661
0.657704 0.611938 0.704771
0.768620 0.603447 0.704306
0.849325 0.584608 0.699352
0.325276 0.756100 0.723212
0.398427 0.762692 0.724361
0.561061 0.772957 0.727430
0.704059 0.774187 0.726192
0.816522 0.769927 0.722472
0.901416 0.765627 0.723435
0.434348 0.864019 0.736078
0.486579 0.865866 0.737201
0.614118 0.870195 0.736473
0.736886 0.873424 0.736243
0.841531 0.871360 0.731806
0.918827 0.867095 0.725881
0.507973 0.939686 0.742796
0.551181 0.940573 0.743864
0.650933 0.942562 0.741705
0.757965 0.944273 0.739668
0.855402 0.943241 0.738053
0.928928 0.941444 0.736633
0.144690 0.143321 0.602576
0.190972 0.145380 0.611146
0.408539 0.165693 0.654050
0.585782 0.185257 0.690560
0.697722 0.197322 0.709388
0.782509 0.208006 0.720339
0.146706 0.228641 0.629394
0.193083 0.232726 0.639173
0.421199 0.263817 0.684656
0.596478 0.273294 0.713388
0.702780 0.246677 0.718298
0.783209 0.228405 0.721277
0.180306 0.559876 0.773808
0.249241 0.583074 0.788318
0.490610 0.605916 0.800573
0.651568 0.610072 0.805024
0.768344 0.604007 0.810207
0.850087 0.587787 0.807363
0.345484 0.759456 0.828033
0.408518 0.763318 0.828062
0.560558 0.772240 0.831362
0.698078 0.773455 0.830264
0.799014 0.773397 0.830949
0.883282 0.769192 0.829581
0.443357 0.864564 0.836684
0.494677 0.866461 0.836683
0.612884 0.871233 0.837624
0.728718 0.873579 0.837844
0.821721 0.873468 0.837741
0.899180 0.870460 0.838667
0.510970 0.940363 0.843035
0.553160 0.942254 0.845320
0.648234 0.944231 0.844734
0.746803 0.946683 0.844342
0.836451 0.947134 0.842940
0.913867 0.943364 0.839894
0.166861 0.148224 0.683607
0.212714 0.151307 0.693534
0.429728 0.172901 0.737783
0.590172 0.189483 0.771970
0.700663 0.203103 0.793377
0.787607 0.214287 0.807220
0.169559 0.228464 0.709359
0.216369 0.231496 0.717040
0.440292 0.260368 0.763909
0.598655 0.263129 0.790586
0.703870 0.233051 0.796804
0.788026 0.231236 0.807219
0.215598 0.576049 0.861603
0.283719 0.588645 0.869549
0.503924 0.602982 0.880329
0.655189 0.606177 0.884832
0.766014 0.601279 0.887126
0.850845 0.585211 0.889669
0.376047 0.761611 0.906980
0.430028 0.764453 0.908065
0.570457 0.771207 0.910383
0.698947 0.770654 0.907523
0.796804 0.770798 0.909867
0.879271 0.768269 0.909298
0.464400 0.865870 0.915825
0.508981 0.866823 0.915860
0.618326 0.871234 0.917933
0.728272 0.873792 0.920310
0.818986 0.872509 0.918673
0.892036 0.872190 0.919869
0.523613 0.940615 0.919890
0.564959 0.941601 0.919890
0.653066 0.944961 0.921001
0.747116 0.947026 0.921019
0.832545 0.946416 0.921551
0.905774 0.945949 0.923042
