example_ofxGpuLutCube/bin/data/ofxGpuLutCube/LUT/T48 (sunset orange teal fade_1).cube
LUT_3D_SIZE 6
0.000659 0.000000 0.000000
0.167281 0.004154 0.000749
0.351904 0.017943 0.000352
0.542830 0.071912 0.000000
0.752476 0.116688 0.000000
0.972752 0.149735 0.000000
0.194304 0.165749 0.000000
0.264664 0.167663 0.000000
0.377130 0.195161 0.000741
0.556863 0.214167 0.002101
0.760588 0.235239 0.000000
0.978948 0.254130 0.000000
0.321065 0.365369 0.000000
0.359854 0.368804 0.000000
0.437795 0.388669 0.000000
0.594998 0.399885 0.001963
0.781314 0.415542 0.007918
0.992867 0.425761 0.002289
0.402737 0.572312 0.000000
0.439617 0.573473 0.000000
0.528403 0.577937 0.000000
0.649996 0.590934 0.000000
0.816972 0.602976 0.000405
1.000020 0.613300 0.014168
0.432364 0.776873 0.000000
0.467154 0.777980 0.000000
0.556171 0.779396 0.000000
0.689790 0.783571 0.000000
0.849991 0.792038 0.000000
1.000020 0.801876 0.000000
0.395477 0.981075 0.008344
0.432418 0.981270 0.003704
0.527604 0.982905 0.000000
0.669230 0.985284 0.000000
0.840742 0.989018 0.000000
1.000020 0.993584 0.000000
0.000000 0.047210 0.162929
0.012966 0.102868 0.161660
0.281585 0.129765 0.160128
0.521233 0.120959 0.162170
0.731022 0.163662 0.160595
0.951325 0.201482 0.159311
0.142952 0.183120 0.162651
0.182172 0.205150 0.156683
0.356374 0.210458 0.164806
0.548619 0.222629 0.165609
0.747329 0.252633 0.162658
0.961776 0.280162 0.161105
0.362641 0.352742 0.106173
0.389306 0.361236 0.087411
0.480568 0.372537 0.033214
0.602859 0.395993 0.150493
0.778473 0.417180 0.169318
0.984532 0.432993 0.165779
0.470367 0.556408 0.128184
0.498630 0.558720 0.120108
0.571000 0.566228 0.095905
0.665037 0.587206 0.042457
0.829817 0.598607 0.121323
1.000020 0.613486 0.170920
0.507299 0.764467 0.149827
0.535772 0.765521 0.145670
0.613163 0.767892 0.132862
0.731334 0.773738 0.111259
0.873828 0.785365 0.078978
1.000033 0.797240 0.099197
0.481605 0.971339 0.165013
0.512296 0.971392 0.162059
0.594131 0.973154 0.155925
0.720946 0.976012 0.145354
0.878938 0.979996 0.133504
1.000020 0.987144 0.124686
0.000000 0.143685 0.345107
0.000000 0.174091 0.343913
0.012086 0.236174 0.342060
0.286681 0.303333 0.339895
0.651975 0.266121 0.342729
0.905797 0.275123 0.343814
0.000000 0.222509 0.345875
0.018669 0.242374 0.345788
0.173935 0.288854 0.343417
0.387419 0.329707 0.342173
0.694763 0.306366 0.344809
0.924770 0.326202 0.345660
0.306824 0.368882 0.349345
0.318932 0.382117 0.348290
0.379287 0.409198 0.337736
0.560910 0.416662 0.347809
0.763554 0.427763 0.351761
0.963904 0.449686 0.349867
0.542247 0.537399 0.303671
0.558715 0.542177 0.294505
0.610151 0.556632 0.267062
0.723250 0.569784 0.222577
0.845016 0.591845 0.323511
1.000020 0.615238 0.355108
0.639699 0.737477 0.322459
0.660294 0.739626 0.317988
0.716647 0.744250 0.305169
0.804899 0.755288 0.283852
0.904500 0.777957 0.252896
1.000020 0.787436 0.295225
0.646452 0.946566 0.342104
0.669416 0.947645 0.339824
0.730471 0.949399 0.332123
0.830864 0.954129 0.319863
0.960080 0.962127 0.304815
1.000020 0.973507 0.286921
0.000000 0.245685 0.547464
0.000000 0.265602 0.546234
0.000000 0.313272 0.545264
0.000000 0.374525 0.543616
0.281868 0.446302 0.540857
0.599304 0.490681 0.541136
0.000000 0.291722 0.548138
0.000000 0.307676 0.548036
0.000000 0.347356 0.546429
0.089126 0.403389 0.544921
0.361143 0.469661 0.543716
0.677350 0.495182 0.543315
0.153212 0.400545 0.551777
0.167178 0.413860 0.551706
0.248055 0.442877 0.550158
0.367058 0.485750 0.548720
0.554887 0.523955 0.547775
0.877934 0.506020 0.549853
0.489503 0.550008 0.557218
0.494467 0.558233 0.557218
0.516189 0.580610 0.555854
0.587361 0.610106 0.543647
0.780005 0.615884 0.551737
0.984475 0.625447 0.558176
0.722012 0.717186 0.521759
0.735200 0.720426 0.515567
0.771487 0.731066 0.495737
0.841225 0.747649 0.459433
0.967608 0.761200 0.410196
1.000020 0.780471 0.513813
0.817014 0.913045 0.531858
0.832824 0.914355 0.528138
0.876076 0.918510 0.518303
0.948094 0.926937 0.501239
1.000020 0.941101 0.477700
1.000020 0.965175 0.447408
0.000000 0.349898 0.767829
0.000000 0.365797 0.766605
0.000000 0.405020 0.766102
0.000000 0.460207 0.764838
0.000623 0.520287 0.763853
0.240022 0.581432 0.762188
0.000000 0.384091 0.768092
0.000000 0.396337 0.767956
0.000000 0.430528 0.766770
0.000000 0.480065 0.765781
0.000540 0.536631 0.764760
0.339043 0.596995 0.762887
0.000000 0.457370 0.771373
0.000000 0.467977 0.771306
0.000000 0.494822 0.770406
0.038837 0.536276 0.769334
0.299526 0.586848 0.768473
0.505823 0.645709 0.765382
0.392857 0.574009 0.777218
0.392893 0.583243 0.777115
0.401935 0.607820 0.776024
0.464453 0.640795 0.774194
0.575333 0.679687 0.772773
0.751286 0.714925 0.769760
0.687032 0.723744 0.781692
0.689797 0.729582 0.781668
0.701252 0.745888 0.780351
0.728516 0.773249 0.778592
0.798796 0.804678 0.769114
0.993034 0.809366 0.773519
0.903450 0.891817 0.756454
0.912733 0.895116 0.752363
0.941854 0.902158 0.740044
0.989790 0.916663 0.712551
1.000020 0.934231 0.665097
1.000020 0.947513 0.612876
0.000000 0.443258 0.933600
0.000000 0.458850 0.953751
0.000000 0.500502 0.993039
0.000000 0.551297 0.992212
0.000000 0.610464 0.991409
0.000000 0.669868 0.989982
0.000000 0.482979 0.991557
0.000000 0.493909 0.994026
0.000000 0.523369 0.993686
0.000000 0.568996 0.993023
0.000000 0.624346 0.992224
0.000000 0.679948 0.990545
0.000000 0.539186 0.996737
0.000000 0.548482 0.996736
0.000000 0.572690 0.996318
0.000000 0.611479 0.995279
0.000541 0.659004 0.994177
0.001756 0.710170 0.992446
0.014943 0.625365 1.000020
0.027893 0.632389 1.000020
0.058004 0.652385 1.000020
0.111541 0.684411 0.999402
0.331116 0.724971 0.997936
0.515489 0.771051 0.994980
0.615823 0.741576 1.000020
0.614648 0.747364 1.000020
0.614857 0.766658 1.000020
0.624051 0.797473 1.000020
0.683775 0.831661 0.999802
0.793543 0.869315 0.997947
0.894800 0.892074 1.000020
0.896284 0.896433 1.000020
0.901798 0.909361 1.000020
0.916578 0.931712 1.000020
0.947856 0.962965 1.000020
1.000020 1.000020 0.999793
