example_ofxGpuLutCube/bin/data/ofxGpuLutCube/LUT/T48 (sunset orange teal fade_1).cube
LUT_3D_SIZE 16
0.000659 0.000000 0.000000
0.071811 0.000000 0.000000
0.121527 0.000000 0.000000
0.167281 0.004154 0.000749
0.231485 0.000611 0.002393
0.292724 0.003328 0.001498
0.351904 0.017943 0.000352
0.413256 0.035436 0.000000
0.476952 0.054491 0.000000
0.542830 0.071912 0.000000
0.610474 0.087476 0.000000
0.680118 0.102786 0.000000
0.752476 0.116688 0.000000
0.825112 0.129285 0.000000
0.899110 0.140248 0.000000
0.972752 0.149735 0.000000
0.093866 0.034951 0.000000
0.120274 0.037250 0.000000
0.158588 0.033915 0.000000
0.196491 0.043456 0.000749
0.243670 0.054334 0.004159
0.298662 0.061199 0.002247
0.357031 0.072905 0.000568
0.417543 0.084906 0.000000
0.480441 0.097182 0.000000
0.545747 0.109391 0.000000
0.613080 0.120794 0.000000
0.682097 0.133994 0.000000
0.753702 0.144393 0.000000
0.826277 0.154738 0.000000
0.900335 0.164813 0.000000
0.973885 0.173096 0.000000
0.148441 0.099182 0.000000
0.169149 0.098599 0.000000
0.213053 0.083741 0.000000
0.256183 0.073896 0.000000
0.272697 0.106094 0.000344
0.309404 0.125705 0.002247
0.364389 0.132755 0.000925
0.423898 0.140033 0.000000
0.485890 0.148214 0.000000
0.550339 0.156972 0.000199
0.617723 0.166590 0.000000
0.685883 0.175320 0.000199
0.756986 0.184474 0.000000
0.829248 0.192550 0.000000
0.902590 0.200737 0.000000
0.975788 0.207782 0.000000
0.194304 0.165749 0.000000
0.205786 0.167663 0.000000
0.226565 0.168833 0.000000
0.264664 0.167663 0.000000
0.311899 0.164617 0.000741
0.340789 0.178835 0.000000
0.377130 0.195161 0.000741
0.432188 0.202222 0.000000
0.493470 0.207760 0.000000
0.556863 0.214167 0.002101
0.622481 0.220952 0.000749
0.691563 0.228357 0.000668
0.760588 0.235239 0.000000
0.833603 0.242004 0.000000
0.906234 0.248379 0.000000
0.978948 0.254130 0.000000
0.240828 0.230822 0.000000
0.247601 0.233251 0.000000
0.259052 0.236895 0.000000
0.279683 0.242372 0.000000
0.315201 0.245374 0.000000
0.369352 0.241921 0.000665
0.410458 0.249418 0.000000
0.447062 0.264139 0.004331
0.501923 0.271217 0.006580
0.564779 0.275893 0.005517
0.630272 0.280286 0.004329
0.697652 0.286957 0.001797
0.767422 0.291890 0.000000
0.838558 0.297662 0.000000
0.910964 0.302950 0.000000
0.982716 0.307713 0.000000
0.283907 0.297234 0.000000
0.291736 0.298157 0.000000
0.304311 0.300239 0.000000
0.321538 0.304196 0.000000
0.339824 0.312774 0.000000
0.370366 0.320187 0.000000
0.431176 0.315784 0.000000
0.480834 0.319200 0.000000
0.519967 0.331912 0.000000
0.573137 0.340101 0.009671
0.638481 0.343893 0.007510
0.705160 0.348114 0.005905
0.773934 0.353327 0.004276
0.844541 0.357391 0.001498
0.916393 0.361318 0.000636
0.987426 0.365377 0.000000
0.321065 0.365369 0.000000
0.328687 0.365804 0.000000
0.340806 0.367311 0.000000
0.359854 0.368804 0.000000
0.383337 0.372791 0.000000
0.407974 0.379889 0.000000
0.437795 0.388669 0.000000
0.488857 0.390843 0.000000
0.548250 0.391178 0.000000
0.594998 0.399885 0.001963
0.646696 0.408986 0.010530
0.712820 0.411758 0.010203
0.781314 0.415542 0.007918
0.851445 0.418820 0.006041
0.922831 0.422440 0.004166
0.992867 0.425761 0.002289
0.353544 0.434156 0.000000
0.360872 0.434496 0.000000
0.373566 0.435132 0.000000
0.391513 0.436474 0.000000
0.416503 0.438158 0.000000
0.445356 0.442553 0.000000
0.476656 0.447995 0.000000
0.506124 0.457261 0.000000
0.549093 0.464081 0.000000
0.617606 0.461589 0.000000
0.669738 0.467989 0.000000
0.723241 0.475300 0.007510
0.788615 0.478981 0.012838
0.858157 0.482640 0.010724
0.928990 0.484842 0.008302
0.998141 0.487550 0.006202
0.380886 0.503230 0.000000
0.387797 0.503549 0.000000
0.399194 0.504205 0.000000
0.418822 0.504522 0.000000
0.443187 0.506802 0.000000
0.472926 0.508721 0.000000
0.506920 0.511671 0.000000
0.543484 0.516516 0.000000
0.579568 0.523890 0.000000
0.618402 0.532514 0.000000
0.688432 0.530679 0.000000
0.743457 0.535421 0.000000
0.799847 0.542201 0.005932
0.864509 0.546303 0.015518
0.934771 0.547982 0.012723
1.000020 0.550165 0.010218
0.402737 0.572312 0.000000
0.409317 0.572501 0.000000
0.420242 0.572312 0.000000
0.439617 0.573473 0.000000
0.463213 0.574092 0.000000
0.494035 0.576034 0.000000
0.528403 0.577937 0.000000
0.567120 0.580833 0.000000
0.608450 0.584932 0.000000
0.649996 0.590934 0.000000
0.689429 0.600275 0.000000
0.751137 0.602417 0.000000
0.816972 0.602976 0.000405
0.875335 0.607540 0.008121
0.940034 0.611563 0.014494
1.000020 0.613300 0.014168
0.419094 0.640843 0.000000
0.425510 0.640954 0.000000
0.436697 0.640843 0.000000
0.454018 0.641898 0.000000
0.479186 0.642013 0.000000
0.507937 0.643034 0.000000
0.543749 0.644806 0.000000
0.583422 0.646868 0.000000
0.626584 0.649423 0.000000
0.672433 0.652915 0.000000
0.718509 0.657058 0.000000
0.764326 0.665236 0.000000
0.813081 0.671286 0.000689
0.890617 0.669165 0.000472
0.950224 0.673115 0.000689
1.000020 0.676833 0.017612
0.428761 0.708981 0.000000
0.435107 0.709076 0.000000
0.446453 0.708981 0.000000
0.463720 0.709076 0.000000
0.487991 0.710201 0.000000
0.517048 0.710688 0.000000
0.552713 0.712113 0.000000
0.592767 0.713533 0.000000
0.636851 0.715289 0.000000
0.684144 0.717787 0.000000
0.734487 0.720039 0.000000
0.785963 0.724305 0.000000
0.835678 0.730055 0.000000
0.889587 0.735361 0.000000
0.958564 0.735665 0.000000
1.000020 0.738150 0.000000
0.432364 0.776873 0.000000
0.438494 0.777007 0.000000
0.449076 0.776873 0.000000
0.467154 0.777980 0.000000
0.490334 0.777528 0.000000
0.519725 0.778536 0.000000
0.556171 0.779396 0.000000
0.596561 0.780403 0.000000
0.641420 0.781862 0.000000
0.689790 0.783571 0.000000
0.740153 0.785607 0.000000
0.793899 0.788292 0.000000
0.849991 0.792038 0.000000
0.905934 0.795325 0.000000
0.959764 0.800456 0.000000
1.000020 0.801876 0.000000
0.428546 0.844507 0.000000
0.434837 0.844631 0.000000
0.446225 0.845488 0.000000
0.462463 0.844631 0.000000
0.487679 0.844896 0.000000
0.516637 0.845696 0.000000
0.553488 0.846761 0.000000
0.594444 0.847561 0.000000
0.639811 0.848704 0.000000
0.688893 0.850097 0.000000
0.741764 0.851562 0.000000
0.796256 0.853772 0.000000
0.853426 0.855578 0.000000
0.912470 0.858002 0.000000
0.970663 0.861169 0.000000
1.000020 0.865506 0.000000
0.416414 0.912481 0.001660
0.422884 0.912665 0.001270
0.433982 0.912481 0.000358
0.452369 0.912665 0.000604
0.476490 0.913352 0.000000
0.507176 0.913249 0.000000
0.544068 0.914287 0.000000
0.585735 0.915121 0.000000
0.631960 0.916012 0.000000
0.682021 0.916970 0.000000
0.734733 0.917918 0.000000
0.792487 0.919832 0.000000
0.850096 0.920726 0.000000
0.911343 0.923173 0.000000
0.971683 0.925549 0.000000
1.000020 0.927890 0.000000
0.395477 0.981075 0.008344
0.402213 0.981270 0.007462
0.413882 0.981075 0.005334
0.432418 0.981270 0.003704
0.457457 0.981855 0.000000
0.489330 0.982435 0.000000
0.527604 0.982905 0.000000
0.570529 0.983335 0.000000
0.617952 0.984207 0.000000
0.669230 0.985284 0.000000
0.723566 0.986155 0.000000
0.781608 0.988233 0.000000
0.840742 0.989018 0.000000
0.903757 0.990631 0.000000
0.965620 0.991917 0.000000
1.000020 0.993584 0.000000
0.000000 0.004962 0.048501
0.028548 0.013156 0.047954
0.088538 0.020502 0.046936
0.151414 0.026627 0.047172
0.218893 0.023731 0.048271
0.286349 0.019504 0.049312
0.349085 0.025805 0.051401
0.410453 0.044347 0.050090
0.473574 0.064620 0.048516
0.538793 0.082915 0.048265
0.605912 0.099625 0.048516
0.674864 0.114785 0.047477
0.746720 0.128165 0.046505
0.820520 0.142091 0.045595
0.894347 0.152713 0.044165
0.968348 0.162529 0.043255
0.052667 0.054252 0.043280
0.076588 0.062292 0.040207
0.125536 0.062514 0.037069
0.178443 0.065389 0.042535
0.234002 0.068735 0.050796
0.295611 0.068667 0.051613
0.355513 0.075949 0.052361
0.415269 0.089262 0.050826
0.477547 0.102958 0.049164
0.542082 0.116537 0.050175
0.609013 0.129629 0.049164
0.678317 0.143177 0.048614
0.749277 0.153578 0.047134
0.821784 0.165379 0.046172
0.895853 0.175009 0.044792
0.969465 0.183717 0.043835
0.127859 0.108253 0.023414
0.147027 0.110085 0.016192
0.186532 0.106199 0.005963
0.235929 0.095704 0.014674
0.268570 0.110547 0.034176
0.309975 0.124189 0.053672
0.363960 0.133103 0.053651
0.422525 0.141598 0.052106
0.483688 0.151112 0.053173
0.547401 0.161072 0.052360
0.613353 0.171538 0.050818
0.681744 0.181436 0.049230
0.751924 0.191090 0.048985
0.825273 0.199688 0.047159
0.898601 0.208376 0.045857
0.971775 0.215933 0.044819
0.194860 0.165316 0.002023
0.208733 0.166079 0.000633
0.234374 0.165316 0.000622
0.279637 0.156892 0.000633
0.328532 0.150502 0.002242
0.345310 0.175718 0.021154
0.377852 0.194352 0.052121
0.431989 0.202195 0.056835
0.492216 0.208692 0.055942
0.555184 0.215933 0.054500
0.621175 0.222880 0.053583
0.687692 0.231149 0.051358
0.758076 0.239456 0.049924
0.829871 0.246811 0.048776
0.902620 0.253606 0.047577
0.975308 0.259944 0.046427
0.246084 0.228965 0.000000
0.253573 0.230990 0.000000
0.267107 0.234034 0.000000
0.291270 0.237053 0.000000
0.330759 0.237828 0.000687
0.382083 0.233944 0.000536
0.415880 0.245920 0.014936
0.448307 0.263241 0.048564
0.502156 0.270978 0.058406
0.564263 0.276287 0.057333
0.629437 0.282059 0.056043
0.696044 0.287355 0.054187
0.764664 0.294247 0.052306
0.835653 0.300547 0.051724
0.908113 0.306278 0.049953
0.979770 0.311609 0.048591
0.295416 0.293247 0.000000
0.301777 0.294727 0.000000
0.312162 0.298278 0.000000
0.325117 0.303768 0.000000
0.346220 0.310125 0.000000
0.380750 0.316115 0.000688
0.442761 0.310125 0.000000
0.486649 0.316115 0.003626
0.521405 0.330986 0.042170
0.573650 0.339857 0.060679
0.637867 0.343993 0.058623
0.703601 0.348846 0.057522
0.772957 0.354385 0.056053
0.843573 0.358697 0.053701
0.914343 0.363341 0.052909
0.985410 0.367689 0.051346
0.334935 0.361046 0.000000
0.341684 0.361805 0.000000
0.352891 0.363057 0.000000
0.369211 0.365774 0.000000
0.389317 0.370713 0.000000
0.412921 0.378626 0.000000
0.443894 0.386604 0.000000
0.498959 0.386538 0.000000
0.554520 0.388346 0.003283
0.597219 0.398765 0.027782
0.646865 0.408162 0.062647
0.713018 0.411571 0.061293
0.781239 0.415652 0.059215
0.850651 0.419292 0.058419
0.921569 0.423556 0.056061
0.991165 0.427198 0.054482
0.368327 0.430096 0.000480
0.375044 0.430510 0.000157
0.386529 0.431072 0.000480
0.403907 0.433465 0.000157
0.426872 0.434963 0.000000
0.452880 0.440504 0.000000
0.481232 0.446757 0.000000
0.509798 0.456213 0.000000
0.556633 0.461413 0.000000
0.623061 0.459280 0.000000
0.672231 0.466317 0.018116
0.723477 0.475904 0.056057
0.788984 0.479448 0.062480
0.858285 0.482359 0.061547
0.928285 0.485321 0.059319
0.997338 0.488233 0.057600
0.395830 0.499588 0.003489
0.402405 0.499890 0.001844
0.413335 0.500578 0.000613
0.431638 0.501856 0.000507
0.454038 0.502526 0.000000
0.482499 0.506102 0.000000
0.515004 0.509307 0.000000
0.549211 0.514829 0.000000
0.582907 0.523014 0.000000
0.622318 0.531336 0.000000
0.693998 0.528811 0.000000
0.746399 0.535204 0.011286
0.799542 0.541352 0.050730
0.865552 0.545600 0.064615
0.934606 0.548102 0.062544
1.000020 0.550426 0.060658
0.417776 0.569012 0.008861
0.424073 0.569193 0.007259
0.435354 0.569012 0.005100
0.451592 0.570164 0.001304
0.475527 0.571525 0.000000
0.503829 0.572874 0.000000
0.537991 0.575352 0.000000
0.575110 0.578621 0.000000
0.614695 0.583173 0.000000
0.653780 0.589960 0.000000
0.692631 0.599443 0.000000
0.756083 0.600475 0.000000
0.819590 0.601890 0.005235
0.876492 0.607619 0.044672
0.940423 0.611465 0.063939
1.000020 0.613352 0.063533
0.434101 0.637902 0.015426
0.440222 0.638098 0.013991
0.450825 0.637902 0.011638
0.467892 0.639074 0.007947
0.490430 0.639490 0.001498
0.519795 0.640707 0.000000
0.554186 0.642343 0.000000
0.592458 0.644446 0.000000
0.634411 0.647352 0.000000
0.678691 0.651201 0.000000
0.724446 0.655917 0.000000
0.766449 0.663540 0.000000
0.817425 0.670815 0.000385
0.892839 0.669041 0.000512
0.951253 0.672717 0.034379
1.000020 0.676616 0.065862
0.443930 0.706328 0.023034
0.449955 0.706480 0.021531
0.460725 0.706328 0.019219
0.476734 0.707522 0.016200
0.500704 0.707754 0.010566
0.528757 0.708492 0.004500
0.563696 0.709676 0.000808
0.602676 0.711307 0.000000
0.645581 0.713282 0.000000
0.691676 0.715806 0.000000
0.740142 0.719883 0.000000
0.790378 0.723401 0.000000
0.838343 0.729317 0.000616
0.891768 0.734801 0.000736
0.961167 0.734973 0.002751
1.000020 0.737593 0.027260
0.447637 0.774541 0.033277
0.453665 0.774674 0.031751
0.463481 0.774541 0.029424
0.480490 0.774674 0.024837
0.503597 0.776081 0.020768
0.532950 0.775511 0.014838
0.567645 0.777088 0.008633
0.606962 0.778251 0.002049
0.650736 0.779805 0.000378
0.698004 0.781645 0.000000
0.747590 0.784428 0.000378
0.801228 0.787260 0.000000
0.855648 0.789490 0.000000
0.909221 0.794495 0.000000
0.962114 0.799790 0.000000
1.000020 0.801049 0.000000
0.444131 0.842446 0.043327
0.450357 0.842645 0.042095
0.460948 0.842446 0.040215
0.478123 0.843580 0.035889
0.500332 0.843616 0.031458
0.530330 0.844577 0.025172
0.565356 0.844484 0.019198
0.605356 0.845510 0.012984
0.649654 0.846823 0.006305
0.697862 0.848212 0.001248
0.748603 0.849640 0.000501
0.803220 0.851974 0.000589
0.859325 0.854776 0.000000
0.917883 0.857423 0.000000
0.974305 0.860369 0.000000
1.000021 0.864934 0.000000
0.432712 0.910532 0.051811
0.439055 0.910670 0.050830
0.450413 0.910532 0.049460
0.466720 0.910670 0.046133
0.490545 0.911429 0.042313
0.520207 0.911319 0.037177
0.556397 0.912355 0.030703
0.597073 0.913217 0.024088
0.642272 0.914339 0.017920
0.691350 0.915248 0.011956
0.743196 0.916171 0.005819
0.798752 0.918110 0.002922
0.855868 0.920361 0.000000
0.916812 0.922147 0.000000
0.976236 0.924153 0.000000
1.000035 0.926826 0.000000
0.412676 0.979354 0.058149
0.419224 0.979549 0.057381
0.430252 0.979354 0.056573
0.447684 0.980499 0.054233
0.473141 0.979911 0.051260
0.503982 0.979713 0.047084
0.540597 0.980862 0.041890
0.582475 0.981666 0.036199
0.628855 0.982409 0.029822
0.679082 0.983455 0.023491
0.732731 0.985258 0.019103
0.788385 0.986351 0.014348
0.848438 0.986637 0.011169
0.909221 0.988641 0.008662
0.971127 0.990487 0.007396
1.000020 0.992490 0.007909
0.000000 0.020758 0.106350
0.000000 0.033441 0.105896
0.031775 0.051799 0.105527
0.091935 0.076813 0.104267
0.173543 0.079753 0.104986
0.257860 0.071211 0.104861
0.332182 0.066357 0.105805
0.401725 0.067089 0.106502
0.467503 0.079918 0.106258
0.532926 0.097261 0.105564
0.599555 0.113841 0.104618
0.668784 0.130108 0.103933
0.740549 0.145029 0.103393
0.812280 0.158505 0.101990
0.887029 0.169543 0.101760
0.961241 0.179916 0.101179
0.021631 0.066989 0.106639
0.039465 0.076480 0.106180
0.075554 0.089656 0.105815
0.130767 0.101177 0.105358
0.203399 0.100006 0.105359
0.274965 0.098034 0.105879
0.342196 0.097951 0.106991
0.409155 0.100095 0.107518
0.472638 0.111942 0.107010
0.537012 0.126285 0.106175
0.602865 0.140639 0.105366
0.671996 0.153900 0.104535
0.742667 0.166744 0.103857
0.814915 0.178323 0.103244
0.889118 0.189161 0.102225
0.962810 0.198691 0.101611
0.091860 0.120664 0.105200
0.100963 0.127546 0.103969
0.123508 0.136035 0.100300
0.184449 0.132672 0.095824
0.238447 0.135375 0.102493
0.294484 0.139796 0.108033
0.357271 0.140494 0.109044
0.419002 0.145925 0.108852
0.480306 0.155502 0.108093
0.543482 0.166698 0.107176
0.608776 0.178961 0.106454
0.676542 0.189122 0.105538
0.746817 0.200063 0.104589
0.818847 0.210394 0.103901
0.892280 0.219365 0.102955
0.965538 0.227645 0.102272
0.174280 0.173005 0.083918
0.185978 0.175362 0.078160
0.208058 0.177073 0.063156
0.251651 0.175362 0.041062
0.308544 0.166732 0.048746
0.341991 0.177187 0.087237
0.376555 0.195252 0.108864
0.431448 0.202626 0.110850
0.490729 0.210234 0.109776
0.552609 0.218584 0.108742
0.616491 0.227476 0.108130
0.684007 0.236815 0.107093
0.753814 0.244156 0.105774
0.825262 0.253351 0.105004
0.897222 0.261324 0.104138
0.969731 0.268493 0.103372
0.246051 0.229203 0.052531
0.255684 0.230557 0.041223
0.272582 0.232252 0.027684
0.303629 0.232586 0.014343
0.352855 0.224916 0.008110
0.399054 0.223809 0.016617
0.422156 0.242127 0.067753
0.449891 0.262227 0.105055
0.502146 0.270973 0.111796
0.563260 0.277074 0.110766
0.627308 0.284059 0.109324
0.693885 0.291166 0.109127
0.762290 0.298322 0.108225
0.831998 0.304439 0.107295
0.903660 0.311368 0.105767
0.975219 0.317484 0.104838
0.303539 0.290813 0.039462
0.308346 0.292970 0.033780
0.317550 0.295825 0.024813
0.334582 0.300009 0.011615
0.361389 0.305210 0.004880
0.399646 0.307992 0.000571
0.460501 0.301210 0.004132
0.494274 0.312026 0.052542
0.522676 0.330272 0.101396
0.574046 0.339507 0.113165
0.637098 0.344267 0.112046
0.702945 0.349499 0.111521
0.770680 0.354505 0.109358
0.839654 0.360611 0.109084
0.911002 0.366455 0.107720
0.981655 0.371581 0.106627
0.351361 0.355898 0.045150
0.356797 0.357017 0.041002
0.365605 0.358903 0.033506
0.378767 0.363009 0.021741
0.397081 0.369051 0.009433
0.419174 0.376970 0.004046
0.456752 0.381992 0.000577
0.514464 0.379934 0.002558
0.564133 0.383968 0.030528
0.600263 0.397326 0.087539
0.647254 0.407741 0.114234
0.712865 0.412176 0.113635
0.779928 0.416487 0.112327
0.848970 0.420605 0.111178
0.919227 0.425361 0.109867
0.988534 0.429462 0.108715
0.388379 0.424283 0.052165
0.394276 0.424929 0.049016
0.403851 0.426246 0.042790
0.419505 0.428859 0.032699
0.439647 0.431705 0.019166
0.462449 0.437312 0.008446
0.486261 0.445487 0.003305
0.517547 0.454017 0.000406
0.570837 0.456241 0.000000
0.631750 0.455841 0.020344
0.675247 0.466049 0.077498
0.723826 0.474434 0.110706
0.788757 0.479273 0.114512
0.857352 0.482645 0.113263
0.926942 0.486121 0.112038
0.995478 0.489506 0.110799
0.417487 0.494020 0.060059
0.423555 0.494309 0.057618
0.433112 0.494976 0.052973
0.450061 0.496234 0.045852
0.470932 0.498292 0.033659
0.496836 0.502125 0.018782
0.526167 0.506080 0.008476
0.556636 0.512776 0.003664
0.586844 0.522124 0.000456
0.630473 0.528794 0.000496
0.703371 0.525030 0.006998
0.750434 0.532675 0.061876
0.800414 0.541500 0.106844
0.865552 0.545139 0.115363
0.934355 0.548249 0.114239
1.000020 0.550922 0.112884
0.440359 0.563785 0.068517
0.446194 0.563974 0.066620
0.456139 0.564755 0.063753
0.471943 0.565914 0.057127
0.493636 0.566557 0.048849
0.520495 0.568534 0.035070
0.552392 0.571374 0.019500
0.586961 0.575252 0.009096
0.623630 0.580627 0.004409
0.658824 0.588653 0.000727
0.696385 0.596897 0.000705
0.764460 0.597286 0.004455
0.824195 0.599796 0.050273
0.877574 0.606642 0.101714
0.940688 0.611264 0.115406
1.000020 0.613334 0.114840
0.457412 0.633128 0.077044
0.463213 0.633315 0.075517
0.472302 0.633128 0.073045
0.489114 0.634262 0.068336
0.510372 0.635441 0.061704
0.537930 0.636073 0.052728
0.570484 0.638235 0.038986
0.606825 0.640809 0.022516
0.646539 0.644105 0.010544
0.688349 0.648448 0.006032
0.730402 0.654556 0.000145
0.768623 0.663654 0.000183
0.823559 0.668226 0.000969
0.897227 0.666936 0.041168
0.953088 0.672022 0.095411
1.000020 0.676423 0.116509
0.467774 0.701999 0.085195
0.473508 0.702083 0.083965
0.483720 0.703011 0.081974
0.498513 0.702083 0.077539
0.520903 0.703985 0.073286
0.548218 0.704762 0.066208
0.581202 0.705871 0.056632
0.618384 0.707688 0.044184
0.659492 0.709929 0.028487
0.703778 0.712786 0.014662
0.750090 0.716477 0.007939
0.797284 0.721238 0.004108
0.842871 0.727620 0.000104
0.896133 0.734006 0.001256
0.965548 0.733333 0.032684
1.000020 0.736800 0.088427
0.472200 0.770539 0.092834
0.477841 0.770577 0.091854
0.488148 0.771511 0.089580
0.503881 0.771549 0.087813
0.524755 0.771568 0.083649
0.552574 0.771880 0.078066
0.586182 0.773446 0.070836
0.623939 0.774736 0.062138
0.665973 0.776394 0.051172
0.711620 0.778588 0.037251
0.759828 0.780140 0.021764
0.810673 0.784188 0.012738
0.863300 0.787710 0.007017
0.914617 0.793055 0.003560
0.965349 0.798842 0.001079
1.000020 0.799610 0.027078
0.469531 0.838756 0.099626
0.475296 0.838778 0.098853
0.484493 0.839708 0.097186
0.500316 0.839775 0.095601
0.523364 0.839249 0.092101
0.551858 0.840290 0.087161
0.584767 0.841114 0.082405
0.623133 0.842161 0.075911
0.665945 0.843486 0.068214
0.712461 0.844971 0.059107
0.762002 0.847200 0.048504
0.814875 0.848674 0.036440
0.869062 0.851213 0.024155
0.925550 0.854336 0.013636
0.979499 0.858715 0.008952
1.000046 0.863692 0.006085
0.459149 0.907243 0.105342
0.465021 0.907332 0.104725
0.475046 0.908185 0.103703
0.491973 0.908273 0.102273
0.513451 0.908128 0.099070
0.542642 0.909032 0.095777
0.576702 0.909085 0.091754
0.615833 0.910003 0.086871
0.659489 0.911089 0.081171
0.707021 0.912414 0.074785
0.757578 0.913861 0.067586
0.811503 0.915256 0.060482
0.868635 0.917572 0.052182
0.926603 0.919418 0.044375
0.982299 0.922302 0.038141
1.000020 0.925077 0.032745
0.440709 0.976038 0.109812
0.446813 0.976225 0.109298
0.456497 0.976038 0.108992
0.473545 0.976225 0.106833
0.498052 0.977024 0.104905
0.527259 0.977572 0.101949
0.562006 0.977923 0.099196
0.602199 0.978521 0.095432
0.646936 0.979382 0.091224
0.695666 0.980456 0.086610
0.747968 0.982282 0.081535
0.803166 0.983302 0.076967
0.860226 0.985430 0.073008
0.920107 0.986464 0.069003
0.979321 0.988375 0.066639
1.000069 0.990312 0.065822
0.000000 0.047210 0.162929
0.000000 0.059619 0.162510
0.000808 0.078164 0.162080
0.012966 0.102868 0.161660
0.100413 0.124649 0.160128
0.183541 0.138108 0.159328
0.281585 0.129765 0.160128
0.375178 0.114541 0.161027
0.448900 0.116016 0.161733
0.521233 0.120959 0.162170
0.591512 0.131393 0.162577
0.660838 0.147579 0.161317
0.731022 0.163662 0.160595
0.803434 0.177051 0.160166
0.877348 0.190140 0.159752
0.951325 0.201482 0.159311
0.000835 0.083937 0.163009
0.003167 0.093405 0.162605
0.016240 0.106555 0.162170
0.070745 0.124201 0.161756
0.138179 0.140371 0.160164
0.213028 0.148737 0.160112
0.304693 0.140371 0.161015
0.384829 0.135430 0.161825
0.456444 0.137488 0.162487
0.527292 0.142649 0.162884
0.595290 0.153846 0.162487
0.663970 0.168168 0.162019
0.734305 0.182567 0.160977
0.806549 0.195171 0.160496
0.879586 0.206965 0.160110
0.953396 0.217510 0.159645
0.047995 0.131292 0.163318
0.061610 0.138031 0.163007
0.089087 0.146652 0.162461
0.130483 0.158479 0.161305
0.184785 0.167187 0.161696
0.252381 0.171593 0.161601
0.330981 0.166161 0.162548
0.399783 0.167524 0.163292
0.468481 0.170281 0.163885
0.536561 0.175858 0.164021
0.601636 0.187589 0.163029
0.670449 0.200284 0.163184
0.739244 0.212299 0.162471
0.810848 0.222881 0.161058
0.883548 0.233593 0.160764
0.956624 0.243120 0.160207
0.142952 0.183120 0.162651
0.148780 0.187860 0.161763
0.159533 0.195313 0.160084
0.182172 0.205150 0.156683
0.245742 0.203353 0.152907
0.302254 0.205046 0.157287
0.356374 0.210458 0.164806
0.420350 0.212149 0.165796
0.485668 0.214992 0.166139
0.548619 0.222629 0.165609
0.612275 0.232217 0.164430
0.678701 0.243893 0.163904
0.747329 0.252633 0.162658
0.817111 0.263034 0.161968
0.889464 0.271807 0.161805
0.961776 0.280162 0.161105
0.222169 0.237479 0.146822
0.230204 0.239625 0.143153
0.245715 0.242539 0.135904
0.273080 0.246705 0.123948
0.320385 0.244953 0.104655
0.379065 0.237033 0.105808
0.411941 0.249001 0.140288
0.448161 0.263300 0.163457
0.501479 0.271367 0.168422
0.561421 0.278558 0.167436
0.623481 0.286476 0.166700
0.688780 0.294653 0.165722
0.756056 0.302546 0.164883
0.826259 0.310702 0.164093
0.897266 0.318593 0.163186
0.968634 0.325739 0.162394
0.300219 0.292606 0.118082
0.307099 0.294032 0.113781
0.318875 0.295647 0.106568
0.341807 0.299022 0.094157
0.376477 0.299135 0.072770
0.429452 0.293827 0.040600
0.486155 0.287072 0.052976
0.501930 0.307875 0.123344
0.521805 0.330615 0.163244
0.574328 0.339284 0.169593
0.636214 0.344614 0.168365
0.701163 0.351270 0.167040
0.767011 0.358036 0.166587
0.836192 0.365151 0.165715
0.906219 0.371033 0.164874
0.976142 0.377104 0.164012
0.362641 0.352742 0.106173
0.367251 0.354283 0.102831
0.375035 0.356712 0.097193
0.389306 0.361236 0.087411
0.408643 0.365543 0.074855
0.437895 0.370536 0.056895
0.480568 0.372537 0.033214
0.535883 0.370536 0.038143
0.574440 0.379043 0.102676
0.602859 0.395993 0.150493
0.648336 0.407829 0.170440
0.712399 0.412833 0.170051
0.778473 0.417180 0.169318
0.845984 0.422159 0.167482
0.915538 0.428048 0.166741
0.984532 0.432993 0.165779
0.410463 0.417637 0.112084
0.415262 0.418626 0.109801
0.423101 0.420606 0.105520
0.435785 0.423600 0.099183
0.450885 0.428266 0.089552
0.469570 0.435241 0.075995
0.495689 0.443011 0.056824
0.532899 0.449003 0.033544
