example_ofxGpuLutCube/bin/data/ofxGpuLutCube/LUT/T49 (sunset fade).cube
LUT_3D_SIZE 16
0.045177 0.000000 0.000000
0.052885 0.000000 0.000000
0.085189 0.000000 0.000000
0.134221 0.000000 0.000000
0.229774 0.000789 0.000000
0.342869 0.000869 0.000000
0.458853 0.000789 0.000000
0.553379 0.002815 0.000000
0.615430 0.006166 0.000000
0.675624 0.010672 0.000000
0.733050 0.016532 0.000000
0.789267 0.022063 0.000000
0.844419 0.029380 0.000634
0.896342 0.038197 0.000606
0.944182 0.045899 0.000634
0.972834 0.054693 0.001274
0.045177 0.009085 0.000000
0.053870 0.009113 0.000000
0.088739 0.009085 0.000000
0.139008 0.010149 0.000000
0.236603 0.011003 0.000000
0.348219 0.012546 0.000000
0.463210 0.016180 0.000000
0.555784 0.019798 0.000000
0.617210 0.024220 0.000000
0.677142 0.029418 0.000000
0.734908 0.035590 0.000000
0.790829 0.041808 0.000000
0.845320 0.048944 0.000605
0.898357 0.055902 0.000563
0.944805 0.063354 0.000605
0.973083 0.071322 0.001208
0.045186 0.047848 0.000000
0.052933 0.048205 0.000000
0.088756 0.047848 0.000000
0.139852 0.048205 0.000000
0.243485 0.048375 0.000000
0.357165 0.048785 0.000000
0.471022 0.051465 0.000000
0.559740 0.054970 0.000000
0.620113 0.059155 0.000000
0.679638 0.063642 0.000000
0.737933 0.068406 0.000000
0.793445 0.073917 0.000000
0.846824 0.080265 0.000571
0.898717 0.085949 0.000476
0.945887 0.093581 0.000571
0.973689 0.101287 0.001086
0.045186 0.104066 0.000000
0.052105 0.104757 0.000000
0.086973 0.104066 0.000000
0.139881 0.104757 0.000000
0.244152 0.104929 0.000000
0.359731 0.103829 0.000000
0.476348 0.104929 0.000000
0.564987 0.105872 0.000000
0.625092 0.108945 0.000000
0.684031 0.113178 0.000000
0.741904 0.119142 0.000000
0.796706 0.125402 0.000000
0.849120 0.130839 0.000496
0.902243 0.139340 0.000304
0.947417 0.147081 0.000496
0.974485 0.156564 0.000884
0.045179 0.200511 0.000000
0.051542 0.202055 0.000000
0.084303 0.202525 0.000000
0.138345 0.202055 0.000000
0.244579 0.200361 0.000000
0.360407 0.201085 0.000000
0.479103 0.200361 0.000000
0.566915 0.201085 0.000000
0.628187 0.203017 0.000000
0.689029 0.204590 0.000000
0.746465 0.211038 0.000000
0.801858 0.217613 0.000000
0.854997 0.227804 0.000480
0.905405 0.238728 0.000713
0.949602 0.251737 0.000480
0.975578 0.265583 0.000713
0.045177 0.346235 0.000000
0.050823 0.347800 0.000000
0.082528 0.348217 0.000000
0.133847 0.348784 0.000000
0.240238 0.347749 0.000000
0.359991 0.346259 0.000000
0.478744 0.346786 0.000000
0.567615 0.346259 0.000000
0.630544 0.345591 0.000000
0.690408 0.347816 0.000000
0.748803 0.349499 0.000000
0.805849 0.349775 0.000000
0.858603 0.355068 0.000406
0.911565 0.361093 0.000660
0.952801 0.367733 0.000995
0.977111 0.375654 0.001355
0.045177 0.469570 0.000000
0.049924 0.471083 0.000000
0.081645 0.471476 0.000000
0.131015 0.471083 0.000000
0.233940 0.471047 0.002245
0.356610 0.470914 0.001496
0.478395 0.470088 0.000000
0.567466 0.469979 0.000000
0.630035 0.469774 0.000000
0.692029 0.469197 0.000000
0.750805 0.469774 0.000000
0.806181 0.471089 0.000000
0.860755 0.471995 0.000520
0.915416 0.473793 0.002081
0.955681 0.476713 0.002594
0.978781 0.481336 0.002820
0.045177 0.557642 0.000259
0.048893 0.558630 0.000000
0.079878 0.558532 0.000259
0.129907 0.559519 0.000000
0.228147 0.558997 0.003504
0.350772 0.558740 0.005238
0.476375 0.558107 0.002762
0.566929 0.557792 0.000000
0.629499 0.557912 0.000000
0.691227 0.557769 0.000000
0.751553 0.557912 0.000000
0.809291 0.557769 0.000000
0.862248 0.558733 0.000282
0.915014 0.559177 0.000733
0.956507 0.559621 0.002332
0.979785 0.560056 0.004457
0.045209 0.607683 0.001080
0.047803 0.608422 0.000000
0.079028 0.608599 0.000471
0.127812 0.608422 0.000000
0.221605 0.609218 0.003785
0.344754 0.608632 0.006892
0.472253 0.608321 0.009019
0.567381 0.607734 0.003906
0.629462 0.607846 0.000139
0.691168 0.607885 0.000000
0.751510 0.607846 0.000139
0.807914 0.607885 0.000000
0.864219 0.607261 0.001483
0.917137 0.607129 0.002556
0.957645 0.608177 0.002229
0.979949 0.608937 0.002556
0.045256 0.652391 0.002589
0.046682 0.653150 0.000000
0.076433 0.653327 0.000517
0.126591 0.653150 0.000000
0.218593 0.653406 0.004009
0.339460 0.653593 0.008206
0.466495 0.653406 0.012970
0.567418 0.652665 0.011945
0.631031 0.652392 0.005258
0.691030 0.652591 0.000330
0.751801 0.652392 0.000163
0.807765 0.652591 0.000330
0.863399 0.652076 0.000489
0.917541 0.652106 0.001478
0.958622 0.652076 0.004034
0.980118 0.653029 0.015682
0.045320 0.695127 0.004669
0.045787 0.695993 0.000000
0.074741 0.696083 0.000399
0.124712 0.695993 0.000748
0.215267 0.696380 0.003226
0.333382 0.696667 0.008987
0.461560 0.696380 0.013679
0.565386 0.695711 0.017960
0.633379 0.695240 0.015564
0.693053 0.695214 0.007384
0.750515 0.695240 0.000682
0.807261 0.695214 0.000703
0.864006 0.695280 0.000688
0.917925 0.695578 0.000551
0.958290 0.695280 0.000688
0.980215 0.695578 0.019064
0.045399 0.735694 0.007317
0.045472 0.736536 0.000000
0.072193 0.736687 0.000670
0.123446 0.736536 0.000748
0.213114 0.737094 0.003932
0.330776 0.737422 0.008416
0.455649 0.737094 0.015138
0.562461 0.736515 0.020376
0.633532 0.735833 0.023588
0.696332 0.735673 0.021384
0.754453 0.735833 0.010134
0.808141 0.735673 0.001982
0.864020 0.736820 0.000000
0.917337 0.736143 0.000369
0.958298 0.735919 0.000000
0.980414 0.736143 0.008373
0.045493 0.774495 0.010503
0.045221 0.775107 0.000746
0.069665 0.775403 0.000189
0.120428 0.775107 0.002241
0.208889 0.775086 0.003989
0.327997 0.776209 0.008500
0.449656 0.775993 0.016687
0.559348 0.775401 0.021204
0.631848 0.774884 0.027569
0.697961 0.774610 0.031150
0.759090 0.774043 0.027569
0.809808 0.774610 0.014706
0.863733 0.774801 0.002993
0.917800 0.774811 0.000463
0.958139 0.774801 0.000000
0.980582 0.774811 0.004744
0.045615 0.811343 0.014235
0.045266 0.811811 0.003113
0.066294 0.812135 0.000169
0.117725 0.811811 0.002370
0.205190 0.812550 0.004815
0.324651 0.812881 0.008414
0.446544 0.812550 0.016021
0.555623 0.812156 0.023364
0.629326 0.811639 0.028196
0.697160 0.811497 0.036425
0.760289 0.810831 0.038655
0.814190 0.810696 0.037172
0.866369 0.810769 0.018698
0.918371 0.810841 0.005985
0.958064 0.811570 0.000000
0.980726 0.811559 0.000000
0.045735 0.837170 0.018494
0.045482 0.837412 0.006647
0.062942 0.837605 0.001344
0.115217 0.837412 0.003659
0.199693 0.837805 0.005272
0.321544 0.838124 0.009621
0.443620 0.837805 0.015742
0.552101 0.837698 0.024572
0.626807 0.837413 0.029852
0.695226 0.837282 0.038423
0.760161 0.836933 0.046279
0.817293 0.836843 0.048880
0.870482 0.837176 0.045842
0.920311 0.836798 0.025452
0.958197 0.837176 0.012220
0.980533 0.837237 0.018725
0.046993 0.851005 0.025152
0.065500 0.850948 0.029337
0.105020 0.851005 0.037854
0.168638 0.850948 0.050996
0.283891 0.850535 0.063282
0.407516 0.850301 0.078066
0.542494 0.849860 0.113958
0.656747 0.848974 0.188872
0.721145 0.849131 0.277524
0.772919 0.849103 0.333912
0.815597 0.849131 0.408751
0.855728 0.849103 0.452655
0.900813 0.848938 0.467107
0.940477 0.849336 0.481551
0.968910 0.849960 0.423252
0.985331 0.850281 0.367664
0.045252 0.000000 0.002656
0.053892 0.000000 0.004869
0.088829 0.000000 0.004139
0.139960 0.000000 0.003381
0.244237 0.000000 0.001794
0.360013 0.000000 0.000864
0.477581 0.000000 0.000472
0.566458 0.000000 0.000283
0.627912 0.000000 0.000000
0.686709 0.000653 0.000000
0.743513 0.003116 0.000000
0.798107 0.008665 0.000000
0.851696 0.015034 0.000633
0.903571 0.023381 0.000569
0.948349 0.031586 0.000633
0.974965 0.040949 0.001217
0.045324 0.009157 0.004788
0.051275 0.010321 0.004046
0.088006 0.009157 0.004788
0.138060 0.010321 0.005537
0.237146 0.011358 0.005742
0.350798 0.012895 0.004897
0.466086 0.015505 0.004996
0.558655 0.019108 0.004897
0.620359 0.023507 0.005020
0.680065 0.028695 0.005700
0.738241 0.034878 0.006513
0.793866 0.041087 0.007939
0.846094 0.048295 0.007852
0.899387 0.055555 0.009626
0.946367 0.062707 0.010094
0.975343 0.057610 0.001424
0.045350 0.047968 0.005059
0.052172 0.047830 0.011258
0.088933 0.046935 0.010287
0.141821 0.046801 0.006771
0.243333 0.048146 0.006222
0.354410 0.050212 0.005278
0.470840 0.052263 0.005476
0.561491 0.055359 0.005278
0.622856 0.059133 0.005362
0.682201 0.063505 0.006026
0.739612 0.068389 0.006109
0.794804 0.073779 0.007522
0.849873 0.080097 0.008943
0.902151 0.086459 0.009500
0.947109 0.093404 0.010439
0.975777 0.088510 0.001325
0.045351 0.104265 0.005141
0.052535 0.104021 0.011327
0.080941 0.105280 0.012615
0.139425 0.104021 0.010580
0.247039 0.103235 0.007280
0.361723 0.103178 0.006340
0.477337 0.105268 0.005787
0.565961 0.107260 0.005594
0.626473 0.110550 0.005535
0.685503 0.114634 0.006068
0.743330 0.119720 0.006282
0.796876 0.124820 0.007564
0.852172 0.130695 0.008889
0.902831 0.138752 0.009306
0.948617 0.146936 0.010384
0.976432 0.141793 0.001152
0.045349 0.200861 0.005603
0.052762 0.200444 0.011983
0.079173 0.204879 0.010084
0.135014 0.202459 0.014226
0.244116 0.199650 0.012594
0.362748 0.199334 0.006777
0.482022 0.199650 0.006613
0.569479 0.201336 0.006029
0.631060 0.203525 0.006257
0.690876 0.206663 0.007086
0.748075 0.212539 0.007004
0.801176 0.220701 0.007833
0.854957 0.230917 0.008888
0.906921 0.241813 0.009103
0.950512 0.252842 0.010383
0.977308 0.246794 0.000930
0.045372 0.346524 0.006349
0.052955 0.346207 0.012821
0.077436 0.350435 0.009336
0.130592 0.349140 0.014315
0.237925 0.346988 0.015769
0.361869 0.345774 0.012369
0.481825 0.346013 0.006797
0.570927 0.345774 0.006393
0.633987 0.345624 0.007040
0.693189 0.347983 0.007120
0.752419 0.349533 0.007787
0.807461 0.350887 0.010108
0.860268 0.356893 0.009959
0.910839 0.363400 0.011091
0.953025 0.369609 0.011453
0.978509 0.366321 0.001401
0.045402 0.469805 0.007375
0.053188 0.469575 0.013936
0.076587 0.472633 0.009617
0.127145 0.473355 0.013936
0.229900 0.471327 0.017355
0.358483 0.470304 0.016812
0.481796 0.469428 0.012123
0.570731 0.469365 0.006351
0.633486 0.469419 0.006366
0.695797 0.468584 0.008474
0.754400 0.469419 0.008606
0.807585 0.471444 0.009221
0.863782 0.472169 0.010917
0.916645 0.473882 0.013344
0.955898 0.477826 0.013907
0.979842 0.475768 0.002886
0.045438 0.557776 0.008710
0.053501 0.557647 0.015403
0.074864 0.559613 0.009458
0.125639 0.559484 0.013908
0.220526 0.558872 0.019283
0.351049 0.558279 0.020854
0.479006 0.557925 0.017787
0.572044 0.557358 0.011882
0.632881 0.557622 0.006178
0.694419 0.557514 0.007212
0.753777 0.557622 0.008419
0.811297 0.557514 0.011694
0.864516 0.558830 0.011409
0.916129 0.559283 0.011508
0.957005 0.559739 0.014399
0.980066 0.559283 0.013004
0.045486 0.607832 0.010355
0.053911 0.607688 0.017271
0.073158 0.608730 0.009608
0.124237 0.608604 0.012785
0.215942 0.609220 0.019442
0.343033 0.608473 0.022718
0.473705 0.608323 0.024676
0.572605 0.607575 0.018236
0.635538 0.607407 0.012166
0.693852 0.607678 0.006579
0.754050 0.608323 0.007684
0.810743 0.607678 0.009568
0.865960 0.607279 0.012311
0.920733 0.606770 0.014148
0.957884 0.608195 0.014553
0.980297 0.608585 0.011156
0.045548 0.652443 0.012350
0.054402 0.652400 0.019509
0.071470 0.653406 0.010108
0.122002 0.654238 0.013527
0.212294 0.654357 0.018625
0.336199 0.654362 0.023417
0.467223 0.653456 0.027594
0.572130 0.652608 0.027899
0.637650 0.652234 0.019072
0.696519 0.652220 0.013698
0.752396 0.652234 0.006369
0.810850 0.652220 0.008466
0.864784 0.652837 0.009288
0.920341 0.652087 0.012335
0.959348 0.651935 0.017509
0.980158 0.653050 0.028029
0.045616 0.695257 0.014703
0.054977 0.695139 0.022133
0.069784 0.696171 0.010219
0.120783 0.696096 0.013911
0.209651 0.696448 0.017231
0.331741 0.696541 0.023650
0.460748 0.696448 0.029192
0.569474 0.695629 0.031871
0.640037 0.694968 0.030639
0.698996 0.694921 0.021978
0.756121 0.694968 0.015690
0.810876 0.695726 0.009274
0.864555 0.695200 0.008816
0.919214 0.695586 0.010565
0.958573 0.695200 0.013301
0.980206 0.695586 0.032988
0.045699 0.735882 0.017448
0.055650 0.735717 0.025199
0.066383 0.736875 0.010722
0.118753 0.737494 0.014735
0.205798 0.737123 0.018521
0.328560 0.737384 0.023074
0.454027 0.737123 0.030479
0.565911 0.736480 0.035031
0.638819 0.735901 0.036886
0.703449 0.735362 0.036330
0.758687 0.735901 0.024932
0.811555 0.735362 0.019145
0.864572 0.735893 0.010833
0.918702 0.735256 0.008053
0.958497 0.735893 0.012327
0.980414 0.736162 0.021508
0.045799 0.774610 0.020733
0.056425 0.774504 0.028696
0.064748 0.775418 0.011761
0.115916 0.775411 0.014497
0.202366 0.776039 0.018675
0.325290 0.776197 0.023012
0.448927 0.776039 0.030634
0.562217 0.775389 0.035717
0.636275 0.774843 0.041149
0.704189 0.774327 0.044515
0.763715 0.774843 0.042640
0.814900 0.774327 0.031073
0.867965 0.774793 0.021936
0.919069 0.774816 0.012309
0.958302 0.774793 0.008484
0.980576 0.774816 0.017542
0.045924 0.811205 0.024567
0.057303 0.811130 0.032627
0.062264 0.811998 0.013354
0.113196 0.812733 0.015439
0.197659 0.812590 0.019308
0.321334 0.812875 0.023492
0.445737 0.812590 0.029770
0.557762 0.812150 0.037686
0.633379 0.811578 0.042369
0.702785 0.811225 0.048647
0.765804 0.810851 0.052818
0.821216 0.811225 0.051631
0.869978 0.810642 0.036027
0.922325 0.810843 0.026106
0.958629 0.811444 0.015101
0.980727 0.811561 0.005922
0.046054 0.837136 0.028925
0.058295 0.837176 0.036986
0.061532 0.837571 0.015472
0.110603 0.838038 0.016063
0.192920 0.837832 0.019736
0.317456 0.838087 0.023317
0.442533 0.837832 0.029450
0.554633 0.837661 0.037513
0.630406 0.837393 0.043875
0.700774 0.837158 0.051334
0.765227 0.836956 0.058805
0.821752 0.837158 0.063278
0.873905 0.837125 0.061954
0.924206 0.836807 0.042927
0.960040 0.837125 0.032087
0.980551 0.837247 0.031722
0.046387 0.851034 0.034867
0.064032 0.851010 0.039150
0.104379 0.851034 0.046816
0.167034 0.851010 0.060053
0.283725 0.850792 0.071959
0.407280 0.850370 0.088164
0.545849 0.849801 0.128562
0.656520 0.849046 0.202615
0.717628 0.849335 0.292571
0.770463 0.849105 0.344853
0.813258 0.848953 0.416594
0.854484 0.849105 0.459183
0.900635 0.848994 0.472643
0.939694 0.849386 0.485892
0.968277 0.850014 0.433322
0.985080 0.850329 0.379466
0.045799 0.000000 0.019978
0.049104 0.000000 0.015302
0.089393 0.000000 0.028198
0.140350 0.000000 0.027260
0.244551 0.000000 0.023966
0.362281 0.000000 0.020057
0.482508 0.000000 0.016491
0.572532 0.000000 0.012583
0.634411 0.000000 0.009626
0.694213 0.000000 0.008176
0.752867 0.000000 0.006637
0.807170 0.000000 0.004438
0.862035 0.000486 0.002719
0.914826 0.000303 0.001123
0.955664 0.005379 0.000599
0.978529 0.013546 0.001123
0.046058 0.009168 0.028240
0.049845 0.012234 0.019223
0.086108 0.011240 0.024503
0.140226 0.010161 0.024454
0.242971 0.010437 0.023322
0.359745 0.011065 0.021420
0.480721 0.011474 0.018837
0.572179 0.012101 0.016188
0.634870 0.012854 0.013893
0.694600 0.013739 0.012692
0.752031 0.014926 0.010904
0.806252 0.017881 0.011197
0.859808 0.023251 0.010168
0.910942 0.031843 0.011056
0.952732 0.039786 0.012409
0.978943 0.030809 0.001375
0.046059 0.048109 0.027768
0.051731 0.049071 0.030152
0.080795 0.052237 0.024032
0.139480 0.049071 0.027164
0.244034 0.048617 0.029865
0.360346 0.049136 0.027922
0.477358 0.051707 0.026877
0.570447 0.054284 0.024932
0.633356 0.057802 0.023560
0.692050 0.062220 0.024630
0.749237 0.068083 0.025802
0.801137 0.072496 0.029113
0.854418 0.078870 0.029483
0.906124 0.085555 0.030947
0.950101 0.092178 0.032473
0.979500 0.062977 0.001834
0.046088 0.104254 0.028915
0.053713 0.104061 0.034350
0.083474 0.104254 0.049081
0.140696 0.103043 0.037337
0.252636 0.102876 0.034693
0.368703 0.102335 0.031170
0.483680 0.104913 0.027968
0.573673 0.107442 0.025940
0.636280 0.110486 0.024615
0.694775 0.114366 0.025659
0.751018 0.118640 0.026859
0.803955 0.124548 0.029397
0.857423 0.131338 0.031207
0.908591 0.138263 0.032546
0.951226 0.146559 0.033446
0.979790 0.115890 0.001939
0.046060 0.201053 0.028656
0.054993 0.199675 0.036613
0.085224 0.200052 0.048825
0.123560 0.207701 0.049312
0.246434 0.197231 0.045872
0.369246 0.198052 0.032360
0.488102 0.199222 0.029442
0.577857 0.201049 0.027130
0.640046 0.204771 0.025338
0.698328 0.209340 0.026245
0.754951 0.214781 0.026832
0.806291 0.221367 0.029980
0.860329 0.230549 0.031359
0.910955 0.241020 0.032417
0.953106 0.252463 0.033599
0.980115 0.214044 0.002543
0.046057 0.346786 0.028967
0.056221 0.345029 0.039590
0.086109 0.346786 0.049136
0.121191 0.352850 0.043324
0.226390 0.348815 0.054058
0.367363 0.344564 0.043054
0.489247 0.344893 0.031655
0.580594 0.344564 0.028863
0.643886 0.345680 0.026789
0.702098 0.348038 0.027371
0.760124 0.350589 0.029028
0.811524 0.353848 0.031108
0.863455 0.360291 0.031721
0.914561 0.365834 0.032683
0.954917 0.371938 0.033962
0.980453 0.353203 0.006527
0.046084 0.470036 0.029816
0.056759 0.468663 0.041062
0.086133 0.469103 0.050726
0.119931 0.475279 0.041062
0.214589 0.474011 0.051586
0.354954 0.470172 0.052419
0.489354 0.468334 0.042624
0.581104 0.468279 0.030762
0.644863 0.468446 0.027583
0.705779 0.468100 0.029559
0.762380 0.469406 0.029824
0.813987 0.472810 0.031801
0.868083 0.473125 0.034076
0.920874 0.475671 0.035292
0.957598 0.479735 0.036318
0.980340 0.473801 0.019598
0.046130 0.557882 0.031101
0.057166 0.557215 0.042505
0.087068 0.557882 0.052015
0.118530 0.560878 0.039518
0.209070 0.560494 0.048507
0.345673 0.559318 0.052008
0.482895 0.557718 0.052244
0.583940 0.556531 0.043047
0.645214 0.556814 0.029387
0.704702 0.556897 0.029192
0.764116 0.556814 0.030880
0.816773 0.556897 0.034422
0.869737 0.557959 0.034434
0.921464 0.559344 0.035450
0.959119 0.559848 0.038171
0.980071 0.559344 0.036946
0.046174 0.607852 0.032762
0.057596 0.607400 0.044258
0.087115 0.607852 0.053669
0.117153 0.610155 0.038282
0.204828 0.610110 0.045107
0.336144 0.609040 0.052383
0.475665 0.608271 0.052568
0.582812 0.607213 0.050147
0.650221 0.606600 0.042887
0.705122 0.607070 0.030292
0.764137 0.607494 0.031682
0.817233 0.607070 0.034027
0.872733 0.607230 0.037914
0.924647 0.606787 0.038564
0.960057 0.608146 0.038661
0.980289 0.608602 0.036322
0.046233 0.652593 0.034792
0.058056 0.652231 0.046332
0.088068 0.652593 0.054952
0.114902 0.654020 0.038862
0.200646 0.654390 0.044590
0.325841 0.654225 0.053214
0.467345 0.653489 0.054296
0.579542 0.652388 0.054705
0.650012 0.651729 0.048927
0.711792 0.651395 0.044384
0.763998 0.651729 0.031002
0.816273 0.652283 0.035421
0.871959 0.652676 0.034685
0.925782 0.651258 0.038732
0.961711 0.651740 0.042902
0.980617 0.653049 0.049936
0.046276 0.695282 0.037209
0.058567 0.694988 0.048727
0.088119 0.695282 0.057367
0.112710 0.697682 0.038269
0.197675 0.697475 0.044655
0.323125 0.696468 0.051665
0.457065 0.696563 0.057347
0.575272 0.695622 0.056888
0.649424 0.694857 0.058269
0.712909 0.694403 0.050115
0.771067 0.694857 0.047071
0.816233 0.694403 0.035178
0.871950 0.694930 0.035419
0.924454 0.694669 0.037042
0.961012 0.694930 0.039154
0.981002 0.695583 0.056453
0.046343 0.735778 0.039991
0.059141 0.735608 0.051448
0.089074 0.735778 0.060146
0.111498 0.737342 0.039498
0.194541 0.737138 0.044654
0.320143 0.737323 0.051099
0.450035 0.737138 0.057346
0.569538 0.736418 0.060800
0.646654 0.735682 0.060985
0.715455 0.735100 0.062920
0.771969 0.734808 0.053521
0.822667 0.734190 0.051724
0.872522 0.735383 0.041733
0.924496 0.735201 0.035377
0.961283 0.735383 0.040238
0.980582 0.736107 0.046580
0.046382 0.774665 0.043162
0.059762 0.774325 0.054515
0.090008 0.774665 0.063318
0.108513 0.776041 0.040327
0.190088 0.775952 0.044658
0.315386 0.776219 0.050969
0.445987 0.775952 0.055856
0.564150 0.775411 0.062164
0.643451 0.774808 0.065025
0.714055 0.774203 0.068217
0.776265 0.773866 0.069500
0.826479 0.773295 0.058521
0.875146 0.774513 0.057528
0.926947 0.774809 0.047504
0.960700 0.774513 0.036621
0.980584 0.774809 0.043023
0.046382 0.811284 0.046730
0.060434 0.811204 0.057949
0.090899 0.811284 0.066882
0.106500 0.812805 0.040775
0.186029 0.812495 0.045280
0.312139 0.812920 0.050822
0.442395 0.812495 0.054987
0.559291 0.812114 0.062766
0.639864 0.811583 0.067759
0.712139 0.811220 0.072879
0.777679 0.810856 0.079688
0.832196 0.810414 0.080331
0.877846 0.811045 0.065626
0.929596 0.810815 0.061824
0.962022 0.811045 0.051448
0.980710 0.811571 0.030466
0.046382 0.837154 0.050636
0.061174 0.837131 0.061726
0.091789 0.837154 0.070787
0.103654 0.837994 0.042320
0.181885 0.837870 0.045689
0.309493 0.838124 0.050846
0.438686 0.837870 0.054644
0.556309 0.837698 0.061292
0.636288 0.837434 0.069140
0.709838 0.837163 0.078473
0.777805 0.836953 0.084793
0.836309 0.836666 0.096358
0.887998 0.836512 0.092685
0.930031 0.837223 0.072037
0.963111 0.836942 0.067337
0.981208 0.837223 0.054135
0.046382 0.851102 0.055319
0.061137 0.851072 0.056874
0.101663 0.851102 0.063527
0.161969 0.851072 0.075522
0.283526 0.851037 0.090436
0.406649 0.850262 0.113208
0.551536 0.849730 0.158128
0.653377 0.849317 0.227534
0.712551 0.849405 0.316798
0.766690 0.849219 0.365145
0.809323 0.849138 0.432228
0.853168 0.848835 0.470658
0.899611 0.848990 0.484388
0.939958 0.849338 0.494679
0.967267 0.850010 0.450332
0.984535 0.850283 0.400195
0.046391 0.000000 0.051254
0.051057 0.000000 0.052365
0.076727 0.000000 0.046027
0.142480 0.000000 0.066542
0.247181 0.000000 0.063694
0.366507 0.000000 0.057716
0.490122 0.000000 0.051751
0.584411 0.000000 0.045027
0.648886 0.000000 0.039895
0.708152 0.000000 0.036914
0.764099 0.000000 0.033170
0.815115 0.000000 0.032433
0.869428 0.000649 0.029295
0.921154 0.000387 0.026443
0.959031 0.000649 0.024064
0.980444 0.001195 0.021210
0.046399 0.009182 0.067880
0.050593 0.014834 0.040527
0.079380 0.014361 0.058182
0.135460 0.012762 0.058442
0.242250 0.011904 0.058128
0.364772 0.012197 0.053543
0.489068 0.011904 0.048429
0.583676 0.012197 0.043094
0.648255 0.012664 0.038810
0.707757 0.013380 0.037541
0.766007 0.013700 0.036568
0.817402 0.015451 0.036794
0.870736 0.016239 0.034763
0.921375 0.018620 0.032745
0.959037 0.019345 0.029532
0.980430 0.018620 0.023779
0.046413 0.048246 0.066520
0.051377 0.051668 0.054174
0.077630 0.054426 0.053834
0.136305 0.052696 0.060142
0.246082 0.050653 0.059349
0.364560 0.050505 0.056491
0.486581 0.051683 0.054871
0.583440 0.052563 0.050518
0.648749 0.053400 0.046790
0.709458 0.054346 0.045153
0.766493 0.055456 0.044544
0.817835 0.056401 0.045153
0.870547 0.057661 0.044299
0.921247 0.058943 0.041896
0.958975 0.062805 0.041306
0.980371 0.056886 0.029199
0.046418 0.104542 0.066762
0.051735 0.105807 0.066696
0.082046 0.106580 0.071989
0.125587 0.111935 0.059983
0.238773 0.107344 0.062383
0.365985 0.105917 0.062567
0.490864 0.105300 0.062383
0.586242 0.106941 0.060329
0.650821 0.109706 0.057192
0.711750 0.112993 0.056244
0.767326 0.117864 0.057192
0.817593 0.123182 0.060724
0.868045 0.129482 0.064037
0.917155 0.136466 0.066992
0.956091 0.144719 0.068513
0.980413 0.112047 0.036383
0.046410 0.201029 0.068950
0.053198 0.201592 0.071433
0.086472 0.201029 0.083862
0.130856 0.203598 0.099008
0.247550 0.200443 0.071196
0.376249 0.195516 0.072473
0.503243 0.194417 0.068952
0.592789 0.197532 0.062776
0.655047 0.203068 0.058478
0.714880 0.208447 0.057509
0.770397 0.214112 0.058478
0.820947 0.221477 0.062732
0.870555 0.229604 0.065266
0.920093 0.239585 0.067997
0.957479 0.251543 0.069746
0.980468 0.211604 0.038886
0.046387 0.346899 0.068604
0.054504 0.346460 0.073878
0.090901 0.343976 0.089475
0.133186 0.345500 0.118579
0.190126 0.357181 0.106957
0.371441 0.342604 0.093741
0.503191 0.341589 0.074168
0.594737 0.342604 0.065410
0.659955 0.343498 0.061448
0.720174 0.346052 0.060000
0.774256 0.351338 0.059957
0.824989 0.354855 0.062982
0.874495 0.359818 0.065911
0.923130 0.365202 0.068778
0.959012 0.371517 0.070382
0.980642 0.353503 0.042655
0.046387 0.470200 0.068472
0.055616 0.469415 0.076418
0.092695 0.467368 0.093080
0.135312 0.469415 0.118138
0.186935 0.479293 0.093667
0.338821 0.473241 0.139830
0.501676 0.466066 0.098870
0.595436 0.466632 0.069832
0.660973 0.466985 0.063147
0.722016 0.467770 0.061326
0.777973 0.469840 0.061657
0.828164 0.471556 0.065056
0.876436 0.474211 0.067677
0.927132 0.477709 0.069594
0.960677 0.481767 0.071405
0.980996 0.473945 0.054671
0.046377 0.558049 0.069004
0.056492 0.557478 0.078770
0.094473 0.556207 0.097326
0.136257 0.557478 0.118246
0.184901 0.562848 0.089447
0.325384 0.561001 0.116254
0.487680 0.557328 0.128915
0.599439 0.555462 0.093911
