example_ofxGpuLutCube/bin/data/ofxGpuLutCube/LUT/T49 (sunset fade).cube
LUT_3D_SIZE 6
0.045177 0.000000 0.000000
0.134221 0.000000 0.000000
0.458853 0.000789 0.000000
0.675624 0.010672 0.000000
0.844419 0.029380 0.000634
0.972834 0.054693 0.001274
0.045186 0.104066 0.000000
0.139881 0.104757 0.000000
0.476348 0.104929 0.000000
0.684031 0.113178 0.000000
0.849120 0.130839 0.000496
0.974485 0.156564 0.000884
0.045177 0.469570 0.000000
0.131015 0.471083 0.000000
0.478395 0.470088 0.000000
0.692029 0.469197 0.000000
0.860755 0.471995 0.000520
0.978781 0.481336 0.002820
0.045256 0.652391 0.002589
0.126591 0.653150 0.000000
0.466495 0.653406 0.012970
0.691030 0.652591 0.000330
0.863399 0.652076 0.000489
0.980118 0.653029 0.015682
0.045493 0.774495 0.010503
0.120428 0.775107 0.002241
0.449656 0.775993 0.016687
0.697961 0.774610 0.031150
0.863733 0.774801 0.002993
0.980582 0.774811 0.004744
0.046993 0.851005 0.025152
0.168638 0.850948 0.050996
0.542494 0.849860 0.113958
0.772919 0.849103 0.333912
0.900813 0.848938 0.467107
0.985331 0.850281 0.367664
0.046391 0.000000 0.051254
0.142480 0.000000 0.066542
0.490122 0.000000 0.051751
0.708152 0.000000 0.036914
0.869428 0.000649 0.029295
0.980444 0.001195 0.021210
0.046418 0.104542 0.066762
0.125587 0.111935 0.059983
0.490864 0.105300 0.062383
0.711750 0.112993 0.056244
0.868045 0.129482 0.064037
0.980413 0.112047 0.036383
0.046387 0.470200 0.068472
0.135312 0.469415 0.118138
0.501676 0.466066 0.098870
0.722016 0.467770 0.061326
0.876436 0.474211 0.067677
0.980996 0.473945 0.054671
0.046382 0.652708 0.071703
0.137156 0.652362 0.125280
0.457804 0.653691 0.118652
0.736693 0.650382 0.099661
0.883203 0.651566 0.072836
0.982181 0.652841 0.081882
0.046382 0.774803 0.079033
0.138859 0.774502 0.137412
0.437990 0.775873 0.101103
0.741702 0.773401 0.134730
0.900356 0.772296 0.129143
0.982285 0.774724 0.079305
0.046382 0.851129 0.091060
0.156596 0.851427 0.107957
0.558539 0.849860 0.206764
0.758453 0.849321 0.396841
0.895993 0.849020 0.498103
0.984288 0.850366 0.430725
0.046608 0.000739 0.318225
0.116995 0.012454 0.292174
0.505311 0.000000 0.378728
0.745331 0.000000 0.346412
0.912442 0.000487 0.328701
0.986921 0.002862 0.313234
0.045762 0.104263 0.396591
0.114093 0.129673 0.272599
0.485212 0.119245 0.341638
0.750401 0.114262 0.318337
0.914334 0.115733 0.316199
0.986923 0.114845 0.316399
0.045854 0.471044 0.390316
0.125030 0.475688 0.396415
0.430038 0.493388 0.350117
0.737467 0.476243 0.363316
0.899498 0.473691 0.393898
0.986251 0.474577 0.354277
0.045747 0.652838 0.398032
0.137445 0.653714 0.425267
0.447057 0.653780 0.505062
0.718365 0.650809 0.453872
0.900522 0.649528 0.426171
0.985200 0.652686 0.390362
0.045748 0.774914 0.397446
0.146292 0.774856 0.444164
0.459545 0.776115 0.502668
0.664880 0.778600 0.490418
0.880469 0.772773 0.497961
0.985077 0.774194 0.402437
0.045733 0.851173 0.403771
0.145009 0.851499 0.405609
0.511309 0.851308 0.425767
0.731752 0.849986 0.500862
0.889909 0.849386 0.545160
0.981879 0.850575 0.522630
0.045190 0.010820 0.530619
0.117681 0.015458 0.542736
0.356130 0.079645 0.506746
0.706890 0.000000 0.554847
0.876135 0.001030 0.553623
0.981737 0.005841 0.551891
0.045177 0.107193 0.560411
0.120480 0.161410 0.479889
0.391873 0.166400 0.536973
0.691711 0.138136 0.540032
0.871238 0.124851 0.545029
0.982278 0.114338 0.552336
0.045178 0.471384 0.563117
0.131352 0.484871 0.540459
0.383612 0.511391 0.531714
0.690416 0.492648 0.540107
0.874350 0.482438 0.541366
0.982261 0.477641 0.550984
0.045162 0.653116 0.562493
0.116112 0.654837 0.561547
0.414690 0.658359 0.575454
0.647681 0.666967 0.539713
0.862953 0.658631 0.549864
0.982329 0.653491 0.556748
0.045169 0.774815 0.566631
0.127925 0.774964 0.571554
0.455239 0.775482 0.588097
0.664853 0.774137 0.621104
0.871097 0.773552 0.573478
0.982306 0.774810 0.563979
0.045169 0.851159 0.565853
0.139833 0.851165 0.566789
0.485463 0.851413 0.563844
0.711732 0.850822 0.566165
0.885430 0.849592 0.603295
0.981559 0.850657 0.596190
0.049190 0.033389 0.625831
0.115344 0.026419 0.642746
0.380197 0.081338 0.625455
0.627391 0.146152 0.605746
0.867960 0.000000 0.653913
0.981135 0.000539 0.655079
0.045699 0.120045 0.646794
0.131228 0.198453 0.592629
0.350890 0.226624 0.623225
0.642167 0.259123 0.619042
0.854992 0.155318 0.645514
0.981424 0.108669 0.655253
0.045178 0.470217 0.658849
0.147102 0.496222 0.630337
0.367938 0.535561 0.604007
0.640495 0.526900 0.638740
0.842505 0.518203 0.637587
0.981431 0.473294 0.655068
0.045168 0.653481 0.655774
0.135681 0.655623 0.648691
0.374758 0.667103 0.632201
0.631644 0.672901 0.624057
0.844119 0.664355 0.641176
0.981279 0.653657 0.653993
0.045169 0.775355 0.655835
0.107609 0.776807 0.655204
0.407058 0.778553 0.657743
0.660547 0.779188 0.655834
0.816932 0.786304 0.642331
0.981457 0.774778 0.655493
0.045172 0.851141 0.659591
0.136823 0.851153 0.660372
0.480340 0.851211 0.658537
0.699372 0.851065 0.654080
0.873030 0.850926 0.659155
0.981280 0.850836 0.665982
0.057929 0.065698 0.692707
0.108623 0.043630 0.705955
0.390465 0.089051 0.700598
0.604005 0.240323 0.676967
0.790775 0.268175 0.683653
0.979186 0.018074 0.710306
0.052515 0.147576 0.703262
0.106536 0.122307 0.712682
0.408045 0.145086 0.712108
0.632399 0.279434 0.699149
0.813701 0.321786 0.694404
0.980471 0.116169 0.710988
0.045178 0.475313 0.711331
0.126975 0.474163 0.712887
0.448331 0.482134 0.713039
0.660461 0.508304 0.708672
0.834602 0.527993 0.702906
0.980606 0.477699 0.711113
0.045166 0.652841 0.712743
0.138486 0.652841 0.712932
0.477164 0.653149 0.713002
0.684559 0.655753 0.710596
0.835631 0.668743 0.704160
0.980629 0.654118 0.711149
0.045171 0.775908 0.710975
0.060724 0.777977 0.713300
0.439804 0.776676 0.713276
0.691524 0.775356 0.711208
0.862126 0.775881 0.709709
0.981034 0.775313 0.711412
0.066091 0.851159 0.710991
0.175468 0.851164 0.711962
0.494225 0.851224 0.710988
0.699164 0.851209 0.709908
0.869215 0.851156 0.709496
0.981322 0.851170 0.711903
