example_ofxGpuLutCube/bin/data/ofxGpuLutCube/LUT/T49 (sunset orange teal fade_2).cube
LUT_3D_SIZE 6
0.071008 0.082820 0.059978
0.204372 0.110966 0.089126
0.496834 0.158877 0.138918
0.914140 0.222650 0.234236
0.992503 0.372620 0.290092
0.992843 0.539162 0.322137
0.106754 0.157240 0.094743
0.164452 0.161027 0.103635
0.478764 0.240315 0.150735
0.924595 0.306222 0.248238
0.994862 0.398666 0.298075
0.992843 0.533370 0.319759
0.133225 0.294443 0.155651
0.186003 0.326989 0.155986
0.460704 0.374813 0.185196
0.939845 0.479239 0.280401
0.990592 0.618728 0.328005
0.985127 0.701592 0.337087
0.191118 0.529729 0.241401
0.249445 0.560563 0.241780
0.487539 0.715537 0.297506
0.887728 0.655817 0.305838
0.983804 0.734845 0.340771
0.979367 0.776923 0.349015
0.277713 0.745107 0.323365
0.356345 0.778630 0.323491
0.566851 0.848526 0.354705
0.849141 0.864591 0.387920
0.968214 0.838778 0.359854
0.968214 0.837440 0.357498
0.388380 0.859223 0.385137
0.481274 0.870000 0.385799
0.642937 0.999089 0.411643
0.836070 0.999089 0.425687
0.980050 0.999089 0.442559
0.974310 0.999089 0.400147
0.085821 0.145031 0.124028
0.125591 0.140570 0.105554
0.364912 0.221371 0.155516
0.858488 0.294153 0.233985
0.993312 0.381154 0.291561
0.992843 0.539208 0.322137
0.078304 0.143917 0.110495
0.143623 0.165005 0.124038
0.460502 0.243308 0.157873
0.922205 0.294223 0.244009
0.994530 0.364218 0.292527
0.992843 0.523432 0.319593
0.115768 0.308259 0.190178
0.156715 0.318619 0.172730
0.418731 0.379860 0.189867
0.900929 0.496247 0.277109
0.987466 0.618104 0.324768
0.984512 0.705912 0.336249
0.191909 0.545587 0.276726
0.228243 0.567138 0.262001
0.434460 0.687620 0.291240
0.838781 0.676671 0.306968
0.982522 0.747862 0.345040
0.977473 0.788263 0.350845
0.273123 0.761396 0.358806
0.339980 0.781824 0.337061
0.519986 0.836505 0.350593
0.813249 0.862477 0.386476
0.966451 0.844765 0.359690
0.968214 0.840837 0.358045
0.356080 0.858800 0.430362
0.460989 0.868651 0.399946
0.610645 0.999089 0.412221
0.797876 0.999089 0.436144
0.971512 0.999089 0.444875
0.977649 0.999089 0.412181
0.093004 0.275416 0.246729
0.088523 0.255305 0.214938
0.181783 0.273013 0.189649
0.583481 0.386509 0.254791
0.965387 0.515643 0.329505
0.991167 0.611602 0.362853
0.095869 0.267783 0.231858
0.096399 0.280235 0.248708
0.202041 0.297069 0.212412
0.670390 0.422479 0.283081
0.980781 0.526842 0.337962
0.990823 0.621891 0.358938
0.089114 0.274957 0.228156
0.093506 0.304167 0.240509
0.273463 0.405212 0.287848
0.867142 0.492243 0.337801
0.989729 0.572062 0.353641
0.990074 0.653944 0.350816
0.158477 0.581067 0.413182
0.180965 0.598687 0.386787
0.344226 0.658709 0.353863
0.766426 0.719164 0.352156
0.978694 0.781282 0.369609
0.974292 0.813083 0.355658
0.236034 0.744244 0.502523
0.255184 0.761895 0.463422
0.494947 0.836332 0.402456
0.745083 0.859556 0.423197
0.960239 0.852128 0.367580
0.968214 0.848756 0.363485
0.305050 0.845063 0.556205
0.322341 0.854158 0.516038
0.598393 0.999089 0.458515
0.762314 0.999089 0.473437
0.950025 0.999089 0.470668
0.981597 0.999089 0.429065
0.119899 0.470844 0.437764
0.112957 0.443618 0.379269
0.116188 0.420195 0.312017
0.334237 0.501044 0.258744
0.863996 0.550797 0.314056
0.984869 0.692670 0.506123
0.122099 0.463039 0.424097
0.121734 0.477899 0.451490
0.115239 0.435194 0.350267
0.400396 0.521850 0.281970
0.898776 0.574024 0.353209
0.982138 0.724277 0.547284
0.122099 0.457154 0.412330
0.120495 0.488221 0.437072
0.134820 0.523999 0.477391
0.567390 0.582167 0.418729
0.960373 0.668649 0.495525
0.982009 0.734333 0.537413
0.121090 0.478385 0.415788
0.123459 0.515565 0.433295
0.142821 0.572926 0.474025
0.686549 0.745255 0.549375
0.972870 0.807795 0.561810
0.979418 0.812769 0.530467
0.180681 0.701092 0.580167
0.203193 0.742180 0.588255
0.225416 0.759141 0.567335
0.721558 0.857782 0.546699
0.966159 0.860272 0.493125
0.979685 0.860775 0.475844
0.260428 0.838098 0.650820
0.278385 0.841380 0.624444
0.310391 0.847685 0.596827
0.777968 0.999089 0.554455
0.917122 0.999089 0.546684
0.978415 0.999089 0.498859
0.167121 0.635888 0.576260
0.152740 0.620109 0.547996
0.144281 0.602997 0.503060
0.206400 0.598888 0.469712
0.727861 0.676303 0.465106
0.982521 0.717890 0.527571
0.167901 0.627827 0.576216
0.168851 0.634301 0.586951
0.154852 0.614694 0.543887
0.255835 0.619225 0.515099
0.778821 0.683793 0.501395
0.979726 0.734372 0.563876
0.164574 0.623949 0.570983
0.168675 0.635886 0.583337
0.173565 0.645048 0.604041
0.386732 0.684452 0.608853
0.837286 0.714912 0.580939
0.976233 0.780737 0.625857
0.157289 0.620530 0.566014
0.167985 0.637057 0.580472
0.177311 0.676085 0.603969
0.510046 0.771576 0.660820
0.893998 0.819995 0.648890
0.967962 0.846944 0.679796
0.168966 0.639342 0.575450
0.173627 0.668761 0.587822
0.181951 0.704070 0.606901
0.501585 0.804126 0.650409
0.931064 0.867352 0.673849
0.966301 0.872988 0.677182
0.216940 0.781014 0.676934
0.227952 0.814860 0.682600
0.249077 0.834498 0.682878
0.457639 0.860095 0.670243
0.923724 0.999089 0.660096
0.970686 0.999089 0.628349
0.205110 0.753475 0.662347
0.204415 0.753692 0.657069
0.199546 0.742780 0.647669
0.198781 0.735674 0.638883
0.637876 0.816551 0.691443
0.965560 0.828862 0.682495
0.205067 0.746435 0.665243
0.213026 0.750063 0.671848
0.208750 0.742450 0.662745
0.205522 0.737164 0.657092
0.683097 0.823378 0.712478
0.967958 0.832961 0.693822
0.205110 0.737873 0.665243
0.208334 0.742838 0.673978
0.214143 0.740132 0.679762
0.216472 0.736585 0.675768
0.748684 0.832708 0.737284
0.968148 0.838031 0.712453
0.205071 0.735767 0.665261
0.209115 0.743024 0.670990
0.216989 0.756157 0.685214
0.257966 0.768963 0.690514
0.819183 0.849960 0.977775
0.965825 0.851531 0.733668
0.201251 0.735767 0.665268
0.209043 0.746535 0.673225
0.218577 0.761859 0.683609
0.296965 0.794891 0.694950
0.870903 0.867208 0.851443
0.961181 0.869994 0.772934
0.213072 0.749987 0.671230
0.220299 0.763559 0.680694
0.213246 0.779979 0.685402
0.335597 0.823712 0.702155
0.879086 0.999089 0.742019
0.960622 0.999089 0.772436
