example_ofxGpuLutCube/bin/data/ofxGpuLutCube/LUT/T49 (sunset orange teal fade_2).cube
LUT_3D_SIZE 16
0.071008 0.082820 0.059978
0.104505 0.083368 0.066016
0.150008 0.099193 0.075644
0.204372 0.110966 0.089126
0.282677 0.141656 0.104690
0.355819 0.152815 0.112703
0.496834 0.158877 0.138918
0.632927 0.186141 0.166989
0.788569 0.205269 0.203914
0.914140 0.222650 0.234236
0.968837 0.266136 0.257200
0.986179 0.319776 0.274890
0.992503 0.372620 0.290092
0.994463 0.429787 0.310999
0.992887 0.495878 0.318946
0.992843 0.539162 0.322137
0.075452 0.088099 0.066608
0.097038 0.092944 0.067358
0.133261 0.107523 0.078543
0.199201 0.122545 0.091227
0.270655 0.145076 0.105129
0.355723 0.153357 0.113004
0.499454 0.168351 0.140838
0.645009 0.184662 0.167277
0.799189 0.201786 0.204190
0.914510 0.223149 0.234350
0.972672 0.266646 0.258231
0.986516 0.316331 0.275745
0.993963 0.367427 0.290813
0.994620 0.428634 0.310997
0.993017 0.491859 0.318946
0.992843 0.538923 0.322135
0.096344 0.122461 0.079191
0.103549 0.121961 0.084342
0.122668 0.122461 0.084408
0.184862 0.132136 0.091801
0.261065 0.168277 0.104981
0.337929 0.183906 0.116189
0.480608 0.209534 0.145899
0.638100 0.217030 0.174889
0.801651 0.234489 0.214434
0.923191 0.242938 0.238959
0.977497 0.268295 0.260311
0.991171 0.300426 0.277403
0.994804 0.350045 0.291918
0.995074 0.414043 0.312000
0.993659 0.479723 0.318582
0.992843 0.531349 0.321676
0.106754 0.157240 0.094743
0.109604 0.157989 0.092464
0.132403 0.167355 0.099952
0.164452 0.161027 0.103635
0.256391 0.177166 0.110564
0.336253 0.210025 0.123763
0.478764 0.240315 0.150735
0.628831 0.264884 0.180970
0.797904 0.291180 0.219308
0.924595 0.306222 0.248238
0.978747 0.334450 0.268129
0.990810 0.364931 0.285931
0.994862 0.398666 0.298075
0.994463 0.450578 0.313814
0.992942 0.496730 0.319567
0.992843 0.533370 0.319759
0.119628 0.208212 0.114061
0.126430 0.207435 0.114061
0.145567 0.212210 0.115550
0.165772 0.225467 0.127448
0.229112 0.222775 0.126403
0.334008 0.235757 0.131839
0.488959 0.268564 0.160598
0.658136 0.303184 0.197185
0.814524 0.338674 0.233259
0.933834 0.377665 0.258218
0.975792 0.407624 0.281302
0.988063 0.453547 0.295154
0.992736 0.493965 0.312489
0.992628 0.536476 0.319993
0.991883 0.578568 0.325856
0.991766 0.593651 0.325942
0.123846 0.243824 0.132749
0.140214 0.246469 0.132749
0.151759 0.252784 0.134981
0.181910 0.273291 0.143903
0.223656 0.299762 0.150407
0.305807 0.278636 0.145783
0.491863 0.307649 0.171944
0.669551 0.346513 0.209605
0.834595 0.384545 0.242943
0.942734 0.425043 0.269861
0.974693 0.466915 0.291713
0.986835 0.513985 0.303844
0.991567 0.561909 0.321456
0.990914 0.604590 0.328346
0.990012 0.648637 0.331870
0.988954 0.665293 0.332082
0.133225 0.294443 0.155651
0.146963 0.299445 0.152263
0.155677 0.305288 0.154913
0.186003 0.326989 0.155986
0.229393 0.369938 0.171834
0.289502 0.407398 0.185986
0.460704 0.374813 0.185196
0.669893 0.392905 0.219335
0.843802 0.437476 0.255624
0.939845 0.479239 0.280401
0.972893 0.524279 0.297714
0.985762 0.570613 0.316648
0.990592 0.618728 0.328005
0.988958 0.665761 0.334872
0.986851 0.694492 0.336954
0.985127 0.701592 0.337087
0.145183 0.358501 0.180525
0.155045 0.366759 0.176014
0.165003 0.375010 0.177557
0.195290 0.393918 0.181194
0.248493 0.444000 0.196425
0.309660 0.499347 0.216719
0.430313 0.512910 0.225321
0.635919 0.470144 0.231526
0.834427 0.494570 0.263990
0.934610 0.530762 0.289021
0.970755 0.569972 0.306095
0.985780 0.614550 0.322334
0.988996 0.659841 0.333145
0.986326 0.697947 0.336992
0.983559 0.725983 0.338382
0.983559 0.729984 0.338482
0.164876 0.444512 0.212852
0.176745 0.450207 0.211259
0.185966 0.456870 0.212114
0.218628 0.485247 0.212007
0.274209 0.535067 0.223193
0.335203 0.583790 0.247807
0.450871 0.636894 0.270519
0.596156 0.615794 0.264810
0.798930 0.569748 0.279023
0.915633 0.588354 0.297532
0.969976 0.617368 0.316748
0.984124 0.660137 0.329425
0.984735 0.699660 0.335498
0.983560 0.735367 0.340205
0.982217 0.755568 0.347457
0.982217 0.761052 0.347672
0.191118 0.529729 0.241401
0.204696 0.529944 0.240302
0.212631 0.537150 0.241401
0.249445 0.560563 0.241780
0.307522 0.615616 0.253167
0.371207 0.659609 0.274406
0.487539 0.715537 0.297506
0.608887 0.740863 0.312847
0.757328 0.687923 0.301057
0.887728 0.655817 0.305838
0.959895 0.673574 0.322551
0.982440 0.700638 0.335579
0.983804 0.734845 0.340771
0.981222 0.762858 0.347513
0.980000 0.775458 0.348985
0.979367 0.776923 0.349015
0.219690 0.609612 0.270653
0.225458 0.611020 0.270747
0.249687 0.619597 0.272134
0.281107 0.644625 0.272971
0.338736 0.686369 0.280492
0.410968 0.732753 0.302006
0.511334 0.778658 0.321945
0.633624 0.809255 0.338421
0.740086 0.808479 0.337423
0.837310 0.765996 0.326531
0.935954 0.737198 0.330747
0.978539 0.755365 0.345146
0.980883 0.769346 0.348056
0.977248 0.786930 0.349024
0.973902 0.794850 0.351029
0.973713 0.798331 0.352014
0.248851 0.679699 0.298119
0.258505 0.683219 0.298119
0.273261 0.695756 0.298119
0.316361 0.717141 0.298119
0.372950 0.754826 0.305625
0.442634 0.791068 0.324886
0.540396 0.824955 0.340568
0.651266 0.843059 0.351737
0.764641 0.849630 0.362328
0.833228 0.847683 0.361248
0.910293 0.817624 0.345849
0.968049 0.803573 0.350800
0.974255 0.804639 0.352000
0.971355 0.819514 0.353512
0.970797 0.822128 0.354260
0.970797 0.822179 0.354260
0.277713 0.745107 0.323365
0.286822 0.754009 0.325718
0.309848 0.764530 0.325609
0.356345 0.778630 0.323491
0.413886 0.810664 0.330092
0.477167 0.832662 0.344895
0.566851 0.848526 0.354705
0.661651 0.856451 0.368071
0.776487 0.862680 0.381323
0.849141 0.864591 0.387920
0.908079 0.862472 0.381323
0.958697 0.850076 0.359460
0.968214 0.838778 0.359854
0.968214 0.838778 0.359743
0.968214 0.837440 0.357608
0.968214 0.837440 0.357498
0.314161 0.806763 0.344439
0.319663 0.810948 0.347458
0.355561 0.822440 0.347455
0.393795 0.832508 0.346703
0.445656 0.843779 0.349932
0.503991 0.852599 0.358262
0.594933 0.860724 0.376876
0.679317 0.866730 0.386772
0.783719 0.878548 0.396201
0.857981 0.895628 0.408064
0.922095 0.898584 0.415787
0.957778 0.889189 0.410295
0.968214 0.863036 0.370405
0.968214 0.856488 0.363637
0.968214 0.853012 0.363697
0.968214 0.847766 0.363637
0.348821 0.842058 0.366362
0.361701 0.847909 0.369142
0.394304 0.852093 0.366362
0.435331 0.855467 0.361666
0.485922 0.859740 0.367929
0.536590 0.864106 0.382666
0.620786 0.875494 0.391938
0.702950 0.973036 0.403718
0.782148 0.999089 0.415053
0.850081 0.999089 0.425933
0.919150 0.999089 0.435438
0.963255 0.999089 0.438756
0.980107 0.915457 0.436365
0.974684 0.887505 0.392558
0.968214 0.866626 0.370112
0.968214 0.861784 0.364057
0.388380 0.859223 0.385137
0.411434 0.862270 0.391046
0.435999 0.865893 0.391146
0.481274 0.870000 0.385799
0.527874 0.874585 0.390619
0.578494 0.999089 0.402507
0.642937 0.999089 0.411643
0.705830 0.999089 0.418311
0.781965 0.999089 0.421405
0.836070 0.999089 0.425687
0.899181 0.999089 0.431213
0.957924 0.999089 0.440018
0.980050 0.999089 0.442559
0.980832 0.999089 0.443155
0.980875 0.999089 0.436500
0.974310 0.999089 0.400147
0.071008 0.083368 0.072775
0.077463 0.083874 0.072746
0.123971 0.103824 0.083958
0.197234 0.110455 0.092122
0.282700 0.130759 0.105244
0.368824 0.139645 0.112608
0.502642 0.148010 0.138728
0.644024 0.171026 0.166881
0.787817 0.202554 0.202141
0.897139 0.240809 0.233052
0.965598 0.286212 0.256920
0.985931 0.322894 0.274460
0.992696 0.375044 0.290813
0.994514 0.429613 0.310999
0.992887 0.492622 0.318946
0.992110 0.542660 0.322137
0.071229 0.088361 0.068321
0.090676 0.089656 0.075913
0.130656 0.107772 0.083983
0.191320 0.123328 0.092316
0.264685 0.153770 0.105284
0.349082 0.171997 0.114220
0.483527 0.185072 0.140997
0.626434 0.206198 0.171457
0.787133 0.225775 0.205394
0.913609 0.236309 0.234158
0.974303 0.253695 0.253505
0.986643 0.304701 0.274828
0.993963 0.361595 0.290809
0.994620 0.432240 0.310997
0.993017 0.491859 0.318922
0.992843 0.542432 0.322135
0.088761 0.120587 0.084937
0.102679 0.121607 0.085291
0.113081 0.124659 0.085684
0.180087 0.128726 0.092739
0.254286 0.169011 0.106518
0.339839 0.184755 0.116278
0.483255 0.199203 0.147431
0.641522 0.219892 0.175001
0.803456 0.234520 0.211654
0.917334 0.245119 0.238627
0.977217 0.265364 0.260503
0.989766 0.296655 0.275595
0.994804 0.348260 0.291736
0.995074 0.412283 0.311277
0.993659 0.478963 0.318406
0.992843 0.527750 0.321676
0.100611 0.154762 0.095707
0.108555 0.158641 0.100154
0.129812 0.167906 0.100181
0.163338 0.161680 0.099408
0.248823 0.178176 0.111287
0.330640 0.213087 0.123978
0.474797 0.240343 0.152187
0.628520 0.270878 0.185649
0.800175 0.288818 0.218726
0.917396 0.310721 0.245292
0.977005 0.328173 0.267558
0.989779 0.353852 0.284462
0.994473 0.385122 0.295153
0.994463 0.437420 0.314563
0.993580 0.487312 0.316621
0.992843 0.524255 0.319759
0.103735 0.201400 0.115546
0.121629 0.207810 0.121090
0.134871 0.211444 0.122241
0.163663 0.222836 0.127792
0.224619 0.220839 0.125559
0.332258 0.234320 0.131908
0.482603 0.267670 0.159746
0.647460 0.308659 0.198728
0.807971 0.350146 0.232769
0.920117 0.380642 0.257521
0.971956 0.411247 0.278609
0.986600 0.442198 0.292977
0.992479 0.486741 0.309249
0.992629 0.524975 0.319751
0.992479 0.564143 0.324860
0.991767 0.582336 0.327930
0.120663 0.243523 0.138232
0.132589 0.244305 0.136175
0.149440 0.249500 0.137483
0.180756 0.268164 0.144354
0.216151 0.297081 0.150305
0.304362 0.285446 0.147570
0.479677 0.304965 0.167388
0.666594 0.346397 0.208411
0.830240 0.388651 0.242899
0.934809 0.425370 0.268977
0.971152 0.468092 0.289449
0.984331 0.510566 0.302221
0.990669 0.557796 0.319103
0.991176 0.603239 0.328347
0.989953 0.648220 0.331775
0.989575 0.660387 0.332083
0.127865 0.290508 0.162286
0.144391 0.301281 0.153938
0.153046 0.307265 0.155603
0.184313 0.327828 0.157660
0.225562 0.364813 0.171046
0.283747 0.403982 0.184987
0.452907 0.371620 0.183647
0.661828 0.395270 0.219100
0.834570 0.442120 0.255485
0.934571 0.482220 0.279268
0.971717 0.524140 0.296847
0.983244 0.568023 0.314025
0.990614 0.612971 0.327919
0.988885 0.666104 0.334114
0.985711 0.698598 0.336858
0.985040 0.707309 0.337087
0.136723 0.352357 0.184971
0.149196 0.368134 0.184965
0.168756 0.376701 0.183485
0.198004 0.396216 0.181985
0.247653 0.440363 0.196187
0.301329 0.492033 0.215702
0.423804 0.515910 0.225831
0.626207 0.473188 0.231249
0.828703 0.496673 0.263961
0.926973 0.530218 0.289463
0.968365 0.571102 0.306086
0.984047 0.615824 0.321308
0.988819 0.661475 0.333254
0.985822 0.700290 0.336975
0.983672 0.729383 0.338482
0.983064 0.732253 0.339934
0.160536 0.437445 0.215886
0.172348 0.451723 0.215888
0.186379 0.461250 0.215152
0.218060 0.479202 0.217374
0.272405 0.525831 0.222312
0.328989 0.574398 0.243422
0.444381 0.633353 0.268909
0.579511 0.624671 0.267818
0.795276 0.576168 0.279498
0.909494 0.591821 0.296959
0.965500 0.620083 0.315747
0.982595 0.660847 0.328871
0.984735 0.701203 0.335498
0.983806 0.735677 0.341699
0.982217 0.757119 0.347457
0.982146 0.761384 0.347672
0.182552 0.527598 0.242690
0.198920 0.532341 0.242200
0.213748 0.541560 0.242690
0.248547 0.560099 0.243682
0.300250 0.602749 0.251734
0.358388 0.651547 0.271283
0.471517 0.709133 0.295316
0.589796 0.735602 0.310456
0.738920 0.695566 0.302731
0.873119 0.663601 0.305584
0.957419 0.675042 0.322007
0.981319 0.705679 0.333061
0.983524 0.735934 0.341714
0.981437 0.765678 0.347129
0.978512 0.780086 0.350679
0.978404 0.780611 0.350845
0.217958 0.608418 0.274882
0.221113 0.613316 0.273825
0.245898 0.623901 0.274133
0.275572 0.644149 0.273825
0.335039 0.679071 0.278719
0.394463 0.724463 0.295872
0.500335 0.771451 0.319423
0.617847 0.805586 0.334449
0.728803 0.811478 0.338119
0.829316 0.770384 0.326095
0.933836 0.740395 0.330655
0.977302 0.758051 0.345472
0.979936 0.768443 0.348270
0.976830 0.789349 0.350526
0.973713 0.798311 0.352006
0.973713 0.803412 0.352014
0.248851 0.682630 0.300348
0.252564 0.684168 0.301100
0.272232 0.696086 0.300348
0.308136 0.716248 0.298146
0.368143 0.743384 0.301226
0.431201 0.779651 0.320139
0.525821 0.818398 0.337614
0.639952 0.840111 0.349188
0.750442 0.848706 0.358165
0.816466 0.847674 0.357417
0.892920 0.825202 0.346207
0.965142 0.803553 0.350677
0.973762 0.805554 0.351914
0.970799 0.820096 0.354312
0.970776 0.822179 0.354118
0.969276 0.825906 0.352075
0.285236 0.753683 0.326490
0.285612 0.757321 0.326685
0.310176 0.763364 0.327975
0.346549 0.775811 0.325182
0.397257 0.800979 0.325383
0.457301 0.824375 0.338304
0.543127 0.843160 0.352968
0.652436 0.854324 0.365966
0.761701 0.860827 0.377515
0.837148 0.862978 0.385492
0.895334 0.861028 0.379773
0.939707 0.851049 0.359213
0.967595 0.839322 0.359854
0.968214 0.841198 0.360461
0.968214 0.837938 0.357608
0.968214 0.838087 0.357498
0.318342 0.810107 0.347679
0.318779 0.813664 0.348054
0.349125 0.822460 0.348434
0.389624 0.832264 0.347311
0.439020 0.839247 0.347246
0.496471 0.850798 0.358421
0.579418 0.858944 0.371156
0.666311 0.865527 0.383941
0.771327 0.874488 0.393572
0.848758 0.890408 0.406731
0.904042 0.902740 0.413204
0.953159 0.890408 0.412740
0.968214 0.864064 0.374922
0.968214 0.856579 0.363637
0.968214 0.853170 0.363697
0.968214 0.850264 0.363637
0.349087 0.842148 0.369488
0.358117 0.846658 0.372282
0.392396 0.849587 0.368001
0.431628 0.854469 0.361038
0.470358 0.858153 0.367456
0.532312 0.862597 0.378344
0.613994 0.870720 0.389974
0.684663 0.893950 0.399368
0.771317 0.999089 0.414277
0.840310 0.999089 0.423693
0.902739 0.999089 0.433130
0.958841 0.999089 0.438800
0.979755 0.988713 0.439360
0.976077 0.895785 0.392558
0.968214 0.867741 0.370095
0.968214 0.861769 0.364057
0.387362 0.861078 0.391310
0.411185 0.862255 0.391117
0.436072 0.865070 0.390589
0.479912 0.869605 0.385835
0.517888 0.872357 0.391070
0.565046 0.890126 0.397143
0.634921 0.999162 0.410622
0.695492 0.999089 0.419716
0.768653 0.999089 0.420220
0.824095 0.999089 0.429197
0.890701 0.999089 0.431514
0.953201 0.999089 0.439031
0.979540 0.999089 0.442773
0.980860 0.999089 0.442714
0.982091 0.999143 0.433706
0.975993 0.999089 0.403455
0.075452 0.116209 0.091492
0.089223 0.109693 0.091492
0.104879 0.108051 0.088516
0.152482 0.121927 0.095969
0.222196 0.153874 0.121259
0.312969 0.173905 0.129930
0.453603 0.185158 0.140590
0.608182 0.198044 0.165613
0.772905 0.228208 0.199755
0.892300 0.248760 0.234236
0.966438 0.292738 0.258251
0.986079 0.329760 0.275641
0.993841 0.369876 0.290813
0.994620 0.432754 0.310999
0.992887 0.498859 0.318946
0.992843 0.539208 0.322137
0.075452 0.116209 0.091492
0.089653 0.117316 0.094138
0.103977 0.111115 0.089250
0.154803 0.126474 0.096381
0.238877 0.152263 0.121320
0.342949 0.168373 0.127142
0.487527 0.170463 0.139172
0.634094 0.192555 0.167271
0.784964 0.222167 0.204071
0.901635 0.247415 0.233252
0.967248 0.289751 0.258114
0.986002 0.329405 0.275399
0.993495 0.377678 0.290813
0.994620 0.433715 0.311739
0.992887 0.492343 0.318946
0.992843 0.542943 0.322137
0.075452 0.116697 0.091353
0.089610 0.118726 0.092529
0.108501 0.119750 0.092853
0.169945 0.140076 0.102212
0.249520 0.168672 0.116404
0.331471 0.193537 0.125935
0.475561 0.216945 0.148378
0.627046 0.230610 0.174974
0.792889 0.246053 0.212927
0.916269 0.252437 0.238385
0.975909 0.275854 0.260293
0.988475 0.298976 0.275352
0.994182 0.355794 0.291329
0.995074 0.417333 0.311277
0.993670 0.480566 0.316513
0.992843 0.531713 0.321676
0.083461 0.150237 0.103918
0.099006 0.153749 0.104406
0.117671 0.159346 0.107635
0.159022 0.160831 0.108130
0.235298 0.180163 0.123348
0.322870 0.212891 0.127992
0.468559 0.242279 0.151596
0.630549 0.258775 0.182211
0.806852 0.277831 0.220781
0.919234 0.298277 0.244874
0.975802 0.321204 0.264432
0.989560 0.341482 0.281825
0.994228 0.375725 0.294569
0.994925 0.423964 0.313752
0.993610 0.470621 0.316782
0.992843 0.523249 0.319685
0.095869 0.200821 0.134528
0.100816 0.202703 0.128926
0.132334 0.210844 0.127835
0.162812 0.216739 0.131149
0.217826 0.220675 0.131905
0.314076 0.235325 0.136828
0.467895 0.275429 0.159412
0.625223 0.314554 0.194746
0.797288 0.351186 0.230520
0.912702 0.378527 0.254536
0.968739 0.412251 0.276357
0.984986 0.433425 0.290746
0.992112 0.464810 0.301774
0.993089 0.506266 0.319199
0.992711 0.538000 0.322521
0.992460 0.574071 0.322891
0.099119 0.242447 0.149498
0.114111 0.245024 0.146318
0.141274 0.248423 0.143553
0.165361 0.260936 0.146318
0.210567 0.290032 0.151826
0.293422 0.283998 0.150905
0.466346 0.306826 0.167432
0.637663 0.348856 0.205079
0.813415 0.392554 0.241449
0.919441 0.434979 0.266304
0.966132 0.473783 0.288000
0.982049 0.510660 0.300284
0.988896 0.549763 0.315788
0.991823 0.592610 0.325983
0.990344 0.628554 0.329911
0.989575 0.648976 0.332670
0.111101 0.291137 0.170193
0.118300 0.294577 0.167173
0.147123 0.308881 0.163500
0.173551 0.319192 0.162728
0.220733 0.361984 0.171272
0.277147 0.400019 0.184518
0.439533 0.374640 0.185380
0.636743 0.397085 0.215655
0.818570 0.445330 0.253476
0.918277 0.486157 0.278088
0.964963 0.530124 0.296326
0.982083 0.570028 0.314322
0.989915 0.612645 0.325561
0.989581 0.658020 0.332024
0.986587 0.695596 0.335240
0.984392 0.707278 0.337237
0.126536 0.357469 0.192012
0.133986 0.361567 0.189881
0.159232 0.376976 0.188299
0.186075 0.391637 0.188403
0.239108 0.431850 0.195896
0.289594 0.479075 0.210745
0.401080 0.511325 0.226286
0.601586 0.473389 0.227036
0.809505 0.498149 0.262642
0.915847 0.538799 0.287217
0.962431 0.577148 0.303992
0.981833 0.621500 0.322024
0.988535 0.663285 0.332508
0.985794 0.699466 0.337215
0.983657 0.729383 0.338482
0.983570 0.735944 0.341696
0.154027 0.443216 0.225725
0.159392 0.448748 0.221220
0.182623 0.464120 0.220516
0.214508 0.482853 0.221220
0.267018 0.521095 0.222928
0.320348 0.564753 0.243858
0.425039 0.626925 0.265830
0.562604 0.632406 0.270480
0.771672 0.580632 0.276579
0.897876 0.595736 0.296505
0.959318 0.629952 0.314286
0.980568 0.669182 0.328388
0.984134 0.707337 0.336361
0.983524 0.739008 0.341699
0.982217 0.762261 0.347553
0.981528 0.764646 0.347672
0.180364 0.525629 0.251553
0.183183 0.530335 0.249800
0.211512 0.544201 0.247114
0.240273 0.560933 0.249066
0.289197 0.592792 0.249141
0.349101 0.639937 0.268180
0.451507 0.698580 0.290530
0.574612 0.733066 0.310317
0.716778 0.708263 0.301581
0.861396 0.669823 0.305838
0.951513 0.680578 0.323111
0.977866 0.708222 0.334821
0.983506 0.740014 0.343393
0.981018 0.768871 0.348596
0.978465 0.782505 0.350845
0.978404 0.784728 0.350845
0.213403 0.615954 0.285409
0.213985 0.617461 0.282207
0.236245 0.630498 0.280990
0.273320 0.648286 0.279247
0.323546 0.673368 0.278957
0.385382 0.712681 0.293421
0.477501 0.761436 0.316682
0.596881 0.798485 0.332717
0.721052 0.812953 0.341356
0.806806 0.782504 0.329269
0.920368 0.749272 0.330924
0.973509 0.759619 0.342698
0.980314 0.774485 0.348277
0.976874 0.794109 0.351924
0.973575 0.808663 0.352014
0.972305 0.812094 0.351924
0.248851 0.688758 0.311968
0.249257 0.689594 0.308047
0.269164 0.701263 0.307490
0.307830 0.717200 0.305812
0.359033 0.738864 0.301028
0.414121 0.769080 0.317857
0.510115 0.811607 0.335202
0.615189 0.835075 0.348376
0.737060 0.847728 0.359245
0.811986 0.849130 0.361291
0.881694 0.833674 0.347318
0.961022 0.812079 0.347843
0.973889 0.809587 0.351628
0.970815 0.822124 0.354311
0.968792 0.826473 0.352369
0.968698 0.828821 0.355025
0.278016 0.757346 0.335337
0.286227 0.758837 0.331604
0.305982 0.768848 0.331621
0.351464 0.780877 0.327145
0.395685 0.799778 0.325534
0.450735 0.819535 0.338590
0.533190 0.840952 0.350877
0.635544 0.852698 0.362474
0.747401 0.860550 0.376150
0.823779 0.862768 0.385513
0.888469 0.862242 0.386667
0.930731 0.853839 0.361532
0.967595 0.841362 0.359854
0.968214 0.841399 0.360461
0.968214 0.840024 0.357608
0.968214 0.838722 0.357498
0.313499 0.813299 0.355854
0.318062 0.814319 0.354966
0.346359 0.826255 0.354398
0.381198 0.834236 0.350459
0.431625 0.838737 0.347924
0.486333 0.848178 0.353949
0.560843 0.856829 0.369623
0.653022 0.863756 0.383946
0.755052 0.871303 0.390765
0.827442 0.885255 0.404296
0.897785 0.902228 0.413337
0.944106 0.892105 0.417856
0.967017 0.866777 0.376418
0.968214 0.857377 0.363637
0.968214 0.854408 0.363697
0.968214 0.850331 0.363637
0.347889 0.845164 0.382607
0.349018 0.846500 0.381601
0.384595 0.851131 0.375834
0.426583 0.853747 0.366623
0.469031 0.857901 0.369963
0.518513 0.861136 0.377557
0.594469 0.867757 0.388731
0.673723 0.882923 0.397842
0.753108 0.999089 0.414030
0.819939 0.999089 0.423913
0.895608 0.999089 0.432173
0.952269 0.999089 0.436755
0.978561 0.993826 0.440301
0.977342 0.894412 0.392567
0.968214 0.868672 0.372551
0.968214 0.861923 0.364065
0.365943 0.860053 0.404398
0.387616 0.862183 0.398508
0.433022 0.865002 0.391596
0.470255 0.869493 0.388750
0.517165 0.871903 0.390825
0.557289 0.882741 0.396377
0.624431 0.999089 0.410401
0.678644 0.999089 0.419683
0.755687 0.999089 0.424476
0.810225 0.999089 0.428254
0.878604 0.999089 0.432010
0.936844 0.999089 0.439563
0.978125 0.999089 0.442027
0.980860 0.999089 0.443063
0.980881 0.999089 0.433715
0.975993 0.999089 0.406084
0.085821 0.145031 0.124028
0.086673 0.139559 0.114488
0.102829 0.138943 0.112117
0.125591 0.140570 0.105554
0.182876 0.153940 0.122060
0.248676 0.188577 0.143358
0.364912 0.221371 0.155516
0.511490 0.242631 0.173808
0.694575 0.275561 0.201623
0.858488 0.294153 0.233985
0.960007 0.312100 0.260834
0.985157 0.340341 0.275411
0.993312 0.381154 0.291561
0.994463 0.434642 0.311739
0.992887 0.496623 0.318946
0.992843 0.539208 0.322137
0.085585 0.144820 0.115652
0.086624 0.144670 0.123390
0.103494 0.143813 0.114907
0.130141 0.145688 0.107763
0.188934 0.160287 0.123674
0.266403 0.197752 0.147534
0.384773 0.219627 0.157876
0.540127 0.245768 0.176507
0.723407 0.276647 0.205459
0.872549 0.294086 0.234556
0.965198 0.317084 0.260963
0.985739 0.341270 0.275979
0.993312 0.382606 0.290813
0.994463 0.435635 0.311740
0.992887 0.492403 0.318946
0.992843 0.542942 0.322137
0.076615 0.141470 0.115263
0.085911 0.142274 0.113286
0.104273 0.149578 0.121209
0.133110 0.147349 0.113286
0.206876 0.173018 0.130722
0.301589 0.193628 0.142043
0.448492 0.214235 0.156738
0.601048 0.237683 0.177702
0.773336 0.265837 0.212343
0.900834 0.285065 0.239111
0.969994 0.311275 0.261926
0.987038 0.341101 0.276801
0.993676 0.381018 0.292717
0.994660 0.436565 0.313924
0.993075 0.488958 0.318627
0.992307 0.542014 0.322082
0.078304 0.143917 0.110495
0.086177 0.147797 0.112873
0.101482 0.155055 0.116442
0.143623 0.165005 0.124038
0.219312 0.187228 0.134091
0.319075 0.213724 0.141204
0.460502 0.243308 0.157873
0.627388 0.267534 0.185756
0.808818 0.279852 0.219310
0.922205 0.294223 0.244009
0.977692 0.306507 0.265179
0.989092 0.328673 0.280235
0.994530 0.364218 0.292527
0.994925 0.415511 0.310702
0.994153 0.464154 0.316201
0.992843 0.523432 0.319593
0.088529 0.195705 0.142252
0.094475 0.202244 0.139747
0.104684 0.209761 0.140014
0.151421 0.215266 0.139747
0.208701 0.222036 0.141202
0.309162 0.239379 0.148552
0.451713 0.273788 0.166471
0.613455 0.316599 0.193080
0.785681 0.345967 0.227706
0.912746 0.371807 0.253351
0.971383 0.387794 0.272827
0.985856 0.413358 0.288084
0.992480 0.443974 0.300656
0.993621 0.476180 0.315028
0.992868 0.518508 0.319924
0.992645 0.557464 0.324675
0.096109 0.250720 0.163968
0.099298 0.247069 0.161055
0.107826 0.245743 0.156540
0.150827 0.258013 0.154363
0.200967 0.284693 0.157882
0.283752 0.285059 0.159334
0.451825 0.306393 0.174218
0.615311 0.357703 0.204586
0.786107 0.395806 0.239207
0.897127 0.443203 0.265914
0.960237 0.480820 0.286517
0.977577 0.514963 0.299158
0.988128 0.539724 0.313424
0.992303 0.573064 0.325108
0.991473 0.602402 0.326795
0.989843 0.634246 0.330307
0.115768 0.308259 0.190178
0.114003 0.303883 0.182375
0.118508 0.302329 0.176827
0.156715 0.318619 0.172730
0.205348 0.351636 0.175775
0.263667 0.391244 0.185048
0.418731 0.379860 0.189867
0.610961 0.403831 0.213964
0.784873 0.453814 0.249647
0.900929 0.496247 0.277109
0.957457 0.540257 0.296199
0.977110 0.578957 0.312602
0.987466 0.618104 0.324768
0.989757 0.653928 0.331785
0.987466 0.683990 0.335193
0.984512 0.705912 0.336249
0.132357 0.376898 0.214384
0.133509 0.377983 0.209141
0.133274 0.373019 0.203291
0.175008 0.392502 0.201010
0.222247 0.423011 0.200624
0.281099 0.471736 0.213338
0.385848 0.513928 0.228773
0.577296 0.480242 0.227386
