example_ofxGpuLutCube/bin/data/ofxGpuLutCube/LUT/T5 (warm fade).cube
LUT_3D_SIZE 6
0.226576 0.155629 0.107567
0.304655 0.155629 0.107567
0.396335 0.157917 0.107416
0.525752 0.167952 0.104985
0.719065 0.210780 0.090580
0.901469 0.295320 0.067062
0.224912 0.245995 0.109232
0.306542 0.244360 0.109214
0.402479 0.252217 0.106821
0.536357 0.267753 0.101987
0.723968 0.315483 0.086239
0.899340 0.392930 0.059486
0.235270 0.368104 0.109855
0.321216 0.369551 0.108529
0.424546 0.381827 0.106499
0.574670 0.414500 0.096112
0.752438 0.467210 0.068920
0.907765 0.520263 0.023824
0.284500 0.588952 0.120982
0.371175 0.591028 0.120975
0.492518 0.605751 0.113921
0.644626 0.633849 0.101888
0.806116 0.662926 0.086656
0.927338 0.679641 0.088977
0.390902 0.817390 0.205521
0.480460 0.817783 0.210151
0.590040 0.821701 0.214675
0.709278 0.826349 0.217455
0.834959 0.835199 0.222076
0.941145 0.829669 0.222934
0.491763 0.949432 0.292765
0.571216 0.949432 0.294960
0.661975 0.951581 0.299469
0.755160 0.953846 0.301917
0.850895 0.958397 0.310753
0.946079 0.962602 0.319430
0.221999 0.157917 0.201499
0.306140 0.156918 0.201507
0.398952 0.160268 0.205978
0.540852 0.174198 0.207640
0.733297 0.222488 0.200114
0.907638 0.305542 0.184927
0.226468 0.248250 0.205967
0.307883 0.249160 0.206488
0.407871 0.255346 0.207620
0.549449 0.273308 0.206187
0.739327 0.326116 0.196664
0.907677 0.405745 0.185871
0.245104 0.379332 0.216643
0.327315 0.379320 0.214294
0.434744 0.391941 0.212653
0.584932 0.420939 0.206569
0.763291 0.472648 0.189837
0.914369 0.528232 0.185172
0.297781 0.612510 0.243138
0.384515 0.608528 0.239829
0.501280 0.618507 0.240198
0.655305 0.643429 0.231073
0.809854 0.668399 0.225560
0.930479 0.681060 0.232382
0.412618 0.825223 0.334492
0.495771 0.823033 0.333245
0.597471 0.823279 0.336657
0.716868 0.830753 0.339925
0.838744 0.837152 0.342254
0.942022 0.833502 0.342135
0.504419 0.952944 0.396892
0.580317 0.950716 0.395620
0.668396 0.952937 0.400346
0.759061 0.954889 0.403828
0.852276 0.957690 0.409301
0.944708 0.963155 0.417098
0.226987 0.161027 0.332847
0.313906 0.165283 0.333792
0.426673 0.180555 0.341150
0.565958 0.193221 0.361810
0.783805 0.229026 0.392882
0.926487 0.368963 0.438514
0.232661 0.265341 0.340932
0.318929 0.263252 0.341938
0.435089 0.279572 0.347329
0.569607 0.294125 0.363678
0.776112 0.346258 0.390418
0.919365 0.446476 0.420034
0.252156 0.406972 0.364332
0.339391 0.407933 0.364294
0.457520 0.417833 0.372376
0.615325 0.449306 0.383896
0.791218 0.509699 0.403322
0.924273 0.561484 0.420914
0.327225 0.636081 0.421536
0.415021 0.636125 0.419324
0.532602 0.645654 0.424099
0.672625 0.662869 0.426498
0.817834 0.678018 0.424868
0.931199 0.689611 0.427459
0.449098 0.830711 0.477463
0.524091 0.828174 0.469639
0.622885 0.829016 0.474638
0.728683 0.833374 0.477491
0.843935 0.841747 0.477235
0.943406 0.837702 0.478508
0.517008 0.954076 0.501109
0.592918 0.954076 0.499282
0.678123 0.952231 0.506265
0.766850 0.956369 0.512893
0.856596 0.960760 0.515087
0.946528 0.963750 0.521693
0.237121 0.195518 0.572479
0.344662 0.198528 0.573943
0.497917 0.230252 0.580473
0.676654 0.327350 0.587434
0.800951 0.366386 0.588817
0.921695 0.392576 0.587031
0.253472 0.317186 0.572636
0.342684 0.306391 0.571858
0.495145 0.332537 0.579505
0.672206 0.418048 0.583130
0.795108 0.452725 0.584212
0.919300 0.479116 0.584663
0.266184 0.479135 0.574171
0.360122 0.476250 0.574332
0.503339 0.484460 0.582959
0.688427 0.551405 0.588839
0.807257 0.579176 0.589124
0.927803 0.607597 0.592197
0.345103 0.670051 0.589447
0.434523 0.668266 0.586764
0.553957 0.673416 0.589539
0.698303 0.687883 0.594963
0.832349 0.713726 0.600622
0.938768 0.740802 0.608226
0.460497 0.834945 0.598086
0.545984 0.835956 0.600883
0.646955 0.838544 0.602027
0.754789 0.842182 0.609593
0.852183 0.848623 0.612136
0.943938 0.848568 0.608702
0.525384 0.955544 0.613483
0.610124 0.955360 0.615737
0.694789 0.956494 0.620000
0.784011 0.960555 0.630338
0.864629 0.962805 0.634825
0.948373 0.965772 0.638736
0.374309 0.340840 0.738498
0.477707 0.351323 0.735349
0.612121 0.388714 0.735243
0.747146 0.441445 0.731435
0.859178 0.486819 0.730983
0.938386 0.495997 0.723361
0.385491 0.446468 0.733725
0.477242 0.447999 0.734932
0.610240 0.482123 0.733151
0.744142 0.529349 0.730826
0.857633 0.573590 0.731160
0.937848 0.580311 0.724054
0.394999 0.574613 0.730939
0.495556 0.582056 0.731485
0.618514 0.598005 0.731024
0.748124 0.630698 0.730591
0.859293 0.667595 0.734498
0.939239 0.675799 0.725939
0.401481 0.707559 0.726908
0.491608 0.707599 0.728463
0.605400 0.711907 0.729335
0.747112 0.733309 0.732835
0.862911 0.763960 0.738066
0.943187 0.774074 0.732485
0.480449 0.843922 0.733429
0.563673 0.844502 0.731842
0.657766 0.844881 0.733095
0.756840 0.848833 0.733482
0.856851 0.854812 0.736371
0.946126 0.870376 0.742190
0.526097 0.958562 0.725726
0.606623 0.958561 0.728219
0.691296 0.958734 0.731228
0.782224 0.961384 0.736175
0.869204 0.965704 0.745809
0.948753 0.968342 0.750057
0.475353 0.438735 0.877066
0.561900 0.445690 0.874653
0.661809 0.459392 0.872240
0.764356 0.484338 0.871838
0.860096 0.507405 0.869553
0.944524 0.525269 0.872085
0.480504 0.530314 0.872638
0.564009 0.534262 0.870915
0.663853 0.549712 0.869732
0.766827 0.573899 0.869778
0.862175 0.594584 0.871752
0.944618 0.610529 0.872189
0.484768 0.626537 0.874539
0.571995 0.634887 0.875728
0.669403 0.646963 0.871282
0.767700 0.666993 0.871089
0.860856 0.685811 0.871928
0.946937 0.699111 0.873200
0.469988 0.728236 0.875267
0.558214 0.730045 0.874517
0.660672 0.737992 0.874089
0.769901 0.759932 0.874554
0.862887 0.777499 0.874533
0.947267 0.790829 0.876710
0.509001 0.847776 0.876800
0.589667 0.845975 0.877041
0.674902 0.848905 0.877110
0.767140 0.853768 0.877317
0.861661 0.863170 0.876942
0.949047 0.881450 0.881523
0.537627 0.960985 0.877041
0.615775 0.961009 0.877092
0.702360 0.963298 0.879559
0.785078 0.965630 0.882406
0.868729 0.965848 0.879863
0.949094 0.970287 0.884647
