example_ofxGpuLutCube/bin/data/ofxGpuLutCube/LUT/T5 (warm fade).cube
LUT_3D_SIZE 16
0.226576 0.155629 0.107567
0.252471 0.155629 0.107567
0.278381 0.155629 0.107567
0.304655 0.155629 0.107567
0.331163 0.155665 0.107603
0.362924 0.157917 0.109741
0.396335 0.157917 0.107416
0.430976 0.158321 0.105278
0.476545 0.163000 0.105278
0.525752 0.167952 0.104985
0.587276 0.175565 0.102013
0.649540 0.188099 0.095580
0.719065 0.210780 0.090580
0.789458 0.239241 0.079754
0.849566 0.267892 0.071568
0.901469 0.295320 0.067062
0.226576 0.183800 0.107567
0.252283 0.183988 0.107567
0.278379 0.183810 0.107567
0.304656 0.183949 0.107567
0.333419 0.186346 0.109852
0.363254 0.186843 0.109629
0.398638 0.188860 0.109476
0.433497 0.189728 0.107334
0.479070 0.194231 0.106877
0.528217 0.199223 0.103196
0.589070 0.207077 0.102339
0.649741 0.219664 0.097569
0.719047 0.242020 0.090380
0.789162 0.270340 0.079762
0.847243 0.298739 0.071745
0.897211 0.325689 0.065146
0.226179 0.212992 0.107964
0.250289 0.214881 0.107964
0.278172 0.212995 0.107964
0.305059 0.212668 0.107970
0.333875 0.215644 0.109410
0.365665 0.217874 0.107996
0.399231 0.218640 0.107416
0.436060 0.222837 0.105278
0.482065 0.225982 0.105226
0.530689 0.231614 0.104511
0.588481 0.241204 0.101865
0.652067 0.255640 0.096923
0.719711 0.276387 0.088410
0.787499 0.304142 0.078992
0.845523 0.332253 0.072590
0.897244 0.355708 0.064708
0.224912 0.245995 0.109232
0.251007 0.245995 0.109232
0.277116 0.245986 0.109232
0.306542 0.244360 0.109214
0.336374 0.248401 0.106970
0.368214 0.249109 0.109062
0.402479 0.252217 0.106821
0.440077 0.255580 0.105914
0.487192 0.260640 0.104947
0.536357 0.267753 0.101987
0.593373 0.276739 0.099239
0.656006 0.293385 0.093860
0.723968 0.315483 0.086239
0.790620 0.341874 0.074528
0.848568 0.369036 0.065893
0.899340 0.392930 0.059486
0.227439 0.278991 0.107567
0.253616 0.278991 0.107567
0.279812 0.279001 0.107577
0.307774 0.279893 0.108390
0.339135 0.282162 0.106174
0.371805 0.283925 0.107452
0.409448 0.288727 0.105308
0.448515 0.293767 0.105585
0.495034 0.299743 0.103830
0.543975 0.307220 0.099460
0.601222 0.318500 0.096354
0.663284 0.335615 0.088635
0.729018 0.358426 0.079793
0.794750 0.385989 0.070270
0.852061 0.410537 0.059588
0.901067 0.431593 0.053746
0.229979 0.319943 0.108680
0.258456 0.318829 0.108680
0.284766 0.318869 0.108701
0.314502 0.321177 0.109825
0.344304 0.323485 0.108680
0.377992 0.326229 0.108527
0.416314 0.331150 0.105127
0.458722 0.337604 0.102990
0.506443 0.346223 0.102484
0.555442 0.356132 0.097815
0.614647 0.369591 0.092624
0.674147 0.386063 0.084741
0.738690 0.407591 0.075569
0.800232 0.432792 0.062646
0.854188 0.454710 0.048957
0.904770 0.475875 0.043609
0.235270 0.368104 0.109855
0.263430 0.367203 0.109870
0.291176 0.368579 0.111167
0.321216 0.369551 0.108529
0.352379 0.371926 0.109855
0.388379 0.375752 0.109679
0.424546 0.381827 0.106499
0.470327 0.389731 0.104139
0.520083 0.401181 0.101069
0.574670 0.414500 0.096112
0.632640 0.429490 0.088948
0.691546 0.448707 0.080532
0.752438 0.467210 0.068920
0.811285 0.485997 0.053759
0.860613 0.502800 0.036833
0.907765 0.520263 0.023824
0.246164 0.428815 0.111484
0.272549 0.428803 0.111493
0.301238 0.427888 0.112111
0.330758 0.429623 0.110849
0.365154 0.433542 0.111401
0.401717 0.436777 0.109710
0.442467 0.443849 0.107394
0.486555 0.452713 0.104873
0.540457 0.465371 0.100013
0.597490 0.481201 0.093588
0.655910 0.497646 0.086065
0.712786 0.516478 0.075659
0.769691 0.532936 0.065147
0.825026 0.547042 0.051244
0.869706 0.558896 0.037412
0.913252 0.571223 0.025889
0.260780 0.503502 0.115916
0.289057 0.501610 0.115916
0.316007 0.501224 0.115916
0.348588 0.501806 0.115838
0.382549 0.506529 0.114008
0.420597 0.512728 0.113339
0.465299 0.519880 0.109263
0.511927 0.529197 0.106723
0.561098 0.539185 0.101828
0.617012 0.552581 0.094605
0.679466 0.570606 0.085880
0.736665 0.585288 0.078086
0.788495 0.600337 0.069306
0.838160 0.608607 0.062390
0.878443 0.616556 0.055300
0.920806 0.626682 0.055505
0.284500 0.588952 0.120982
0.311084 0.588794 0.120982
0.339712 0.588854 0.120982
0.371175 0.591028 0.120975
0.409001 0.593761 0.120824
0.449343 0.600573 0.120348
0.492518 0.605751 0.113921
0.540226 0.614825 0.111585
0.591893 0.622452 0.108600
0.644626 0.633849 0.101888
0.701646 0.644371 0.096647
0.755572 0.655277 0.090013
0.806116 0.662926 0.086656
0.850601 0.669431 0.085163
0.889392 0.675509 0.083920
0.927338 0.679641 0.088977
0.314362 0.679458 0.135614
0.340915 0.679458 0.135672
0.371877 0.679520 0.135735
0.405360 0.681838 0.138019
0.441138 0.684101 0.137777
0.479523 0.686727 0.133554
0.524619 0.693254 0.133144
0.572219 0.695945 0.129097
0.623449 0.702608 0.128855
0.671311 0.707520 0.126860
0.722997 0.714972 0.125867
0.768615 0.719668 0.116885
0.819051 0.725848 0.118080
0.860916 0.728004 0.120732
0.898126 0.730502 0.123356
0.934342 0.730507 0.130723
0.349681 0.755780 0.162253
0.380347 0.755780 0.164303
0.407341 0.755827 0.164640
0.442447 0.757836 0.168886
0.477797 0.758162 0.169119
0.513885 0.760364 0.169015
0.558439 0.764469 0.167452
0.602207 0.765040 0.169379
0.645496 0.769404 0.169600
0.694061 0.773573 0.169414
0.742323 0.777723 0.167793
0.785559 0.780330 0.168083
0.828936 0.781933 0.167428
0.870718 0.781667 0.165245
0.903784 0.781577 0.171409
0.939808 0.782519 0.180600
0.390902 0.817390 0.205521
0.419450 0.817390 0.205538
0.449927 0.817396 0.207845
0.480460 0.817783 0.210151
0.513331 0.819334 0.212398
0.549005 0.819754 0.212817
0.590040 0.821701 0.214675
0.626269 0.823668 0.214780
0.669610 0.825855 0.216652
0.709278 0.826349 0.217455
0.752893 0.828654 0.219307
0.796723 0.831131 0.220132
0.834959 0.835199 0.222076
0.875502 0.834593 0.221356
0.908763 0.834287 0.221348
0.941145 0.829669 0.222934
0.432085 0.866437 0.246305
0.460060 0.866437 0.245909
0.488432 0.866445 0.247803
0.516818 0.868313 0.250097
0.547522 0.866453 0.252390
0.581971 0.868325 0.254660
0.616842 0.868330 0.254660
0.653592 0.868758 0.254665
0.690709 0.871046 0.255130
0.725635 0.872948 0.259245
0.763229 0.875239 0.259724
0.804100 0.877526 0.263814
0.840815 0.879426 0.263824
0.878409 0.882039 0.264592
0.911273 0.877783 0.263060
0.945424 0.876717 0.262891
0.467012 0.908951 0.277533
0.492554 0.908951 0.275616
0.520362 0.908951 0.275607
0.548897 0.908951 0.277863
0.578968 0.908951 0.279785
0.609418 0.908951 0.282056
0.642103 0.909303 0.282462
0.674468 0.911175 0.282822
0.708707 0.913094 0.284688
0.741529 0.913514 0.286607
0.777566 0.915364 0.288868
0.812680 0.917628 0.291492
0.845140 0.918085 0.291968
0.879380 0.919917 0.294140
0.913915 0.920033 0.294615
0.942212 0.919240 0.292871
0.491763 0.949432 0.292765
0.515282 0.949432 0.292742
0.541044 0.949432 0.292742
0.571216 0.949432 0.294960
0.599338 0.949432 0.295052
0.629539 0.949432 0.297226
0.661975 0.951581 0.299469
0.692427 0.951741 0.301712
0.722772 0.951764 0.301894
0.755160 0.953846 0.301917
0.785704 0.954074 0.303976
0.820081 0.956131 0.308256
0.850895 0.958397 0.310753
0.881259 0.958695 0.313018
0.913496 0.958698 0.315260
0.946079 0.962602 0.319430
0.226576 0.155629 0.138217
0.252066 0.156033 0.138217
0.276514 0.157496 0.138223
0.304656 0.155629 0.138377
0.332991 0.157493 0.140358
0.363016 0.158009 0.140945
0.398203 0.159785 0.140426
0.433264 0.160610 0.138760
0.478935 0.165289 0.138342
0.528899 0.170299 0.134396
0.590024 0.178378 0.132012
0.652007 0.191234 0.128731
0.719698 0.213701 0.121795
0.792000 0.244159 0.112844
0.847994 0.270743 0.102378
0.900849 0.296391 0.097551
0.226421 0.183955 0.138217
0.250752 0.185519 0.138217
0.278398 0.183850 0.138250
0.304845 0.183989 0.138406
0.333578 0.186250 0.140606
0.363494 0.186668 0.137303
0.397195 0.187137 0.138549
0.433860 0.189549 0.138402
0.479488 0.194073 0.137614
0.528847 0.199456 0.133720
0.588489 0.209394 0.131399
0.651948 0.223694 0.128352
0.718178 0.244686 0.119541
0.791044 0.273060 0.110789
0.847059 0.299665 0.102101
0.897606 0.326461 0.095718
0.224633 0.214538 0.138736
0.252066 0.212999 0.138614
0.278511 0.213327 0.138950
0.306945 0.214586 0.140506
0.335383 0.217063 0.141583
0.365733 0.217890 0.138622
0.400735 0.221695 0.137860
0.436450 0.223047 0.136335
0.482605 0.226327 0.136046
0.532578 0.233287 0.133438
0.590490 0.243046 0.131111
0.654374 0.258013 0.127660
0.721994 0.278591 0.119155
0.790099 0.306660 0.109975
0.846084 0.333164 0.099738
0.898605 0.357936 0.094480
0.224912 0.245995 0.140117
0.250806 0.245995 0.139882
0.277170 0.246101 0.139993
0.307162 0.244765 0.139975
0.336492 0.248496 0.137733
0.368894 0.249719 0.139767
0.403385 0.253049 0.138397
0.440348 0.255757 0.136852
0.487579 0.260917 0.136005
0.536864 0.268142 0.133089
0.594661 0.277945 0.130567
0.656830 0.295057 0.124961
0.725102 0.316799 0.116710
0.792623 0.343977 0.105902
0.849091 0.371167 0.095032
0.899137 0.394726 0.089955
0.227604 0.279155 0.138714
0.253487 0.279144 0.138370
0.280283 0.279557 0.138783
0.309154 0.280297 0.139449
0.339570 0.282596 0.137225
0.373347 0.285429 0.138348
0.410883 0.290119 0.137732
0.448667 0.293860 0.136797
0.495476 0.299915 0.135681
0.546175 0.307640 0.131464
0.602922 0.319765 0.128417
0.664874 0.337128 0.121151
0.730923 0.360280 0.113204
0.795984 0.387278 0.102512
0.853225 0.411583 0.090307
0.901345 0.434466 0.084439
0.231320 0.321284 0.141090
0.257196 0.321265 0.140653
0.286338 0.320571 0.141072
0.314669 0.321601 0.141993
0.345567 0.324775 0.140592
0.378455 0.326692 0.138777
0.417860 0.332673 0.137733
0.460157 0.338992 0.135552
0.507055 0.346346 0.134608
0.558974 0.356234 0.131189
0.615358 0.369698 0.126184
0.676706 0.387213 0.118296
0.740474 0.408042 0.109163
0.802916 0.434201 0.096651
0.856727 0.456218 0.084219
0.905500 0.476880 0.075652
0.237828 0.370932 0.143826
0.263697 0.370638 0.143039
0.293421 0.371015 0.143179
0.321355 0.371346 0.141865
0.354575 0.374421 0.142974
0.389718 0.377576 0.141386
0.427151 0.384432 0.138701
0.471663 0.391036 0.136133
0.521840 0.402754 0.133638
0.576134 0.414882 0.129512
0.634602 0.430857 0.122681
0.694438 0.448679 0.114316
0.755123 0.467510 0.104229
0.813916 0.487381 0.091104
0.862058 0.504139 0.079373
0.909064 0.521530 0.068166
0.248584 0.433318 0.145875
0.274752 0.431807 0.145120
0.303620 0.432339 0.145106
0.332574 0.432305 0.144482
0.367303 0.436311 0.145040
0.402443 0.441011 0.143313
0.442358 0.446760 0.140456
0.488216 0.454662 0.137643
0.538533 0.466349 0.133834
0.598431 0.481854 0.128685
0.658407 0.499980 0.120138
0.714418 0.516970 0.111639
0.772245 0.533328 0.101857
0.826263 0.547855 0.090969
0.870974 0.560078 0.081492
0.915379 0.571249 0.074356
0.263446 0.510423 0.150351
0.291247 0.508500 0.149669
0.320291 0.508121 0.149669
0.349334 0.506705 0.149611
0.384972 0.511335 0.148079
0.420906 0.515796 0.147119
0.464950 0.522637 0.143346
0.511078 0.531850 0.140715
0.562891 0.541515 0.135662
0.621058 0.555171 0.129281
0.681554 0.573183 0.121936
0.735579 0.587115 0.114859
0.789384 0.599366 0.107873
0.838641 0.611854 0.101746
0.880727 0.618301 0.097222
0.922128 0.625606 0.097533
0.287247 0.600538 0.157987
0.313624 0.598613 0.157244
0.344438 0.596064 0.157244
0.373860 0.595963 0.157171
0.409557 0.596975 0.155319
0.451338 0.603287 0.154313
0.493312 0.608781 0.150562
0.542196 0.617517 0.147873
0.593918 0.625104 0.145109
0.647187 0.636014 0.140152
0.702216 0.645246 0.133904
0.756244 0.656088 0.127785
0.807788 0.665042 0.126173
0.852170 0.672295 0.125045
0.890135 0.674960 0.125617
0.928916 0.679201 0.129715
0.319512 0.689457 0.174799
0.348028 0.687129 0.174128
0.376685 0.686712 0.172331
0.409611 0.686291 0.174141
0.441647 0.686781 0.174395
0.482516 0.689250 0.172672
0.527221 0.693694 0.171932
0.574172 0.696787 0.168005
0.623726 0.703602 0.166338
0.673579 0.710059 0.165455
0.725602 0.716824 0.162318
0.771031 0.719662 0.160217
0.819672 0.726139 0.155978
0.863095 0.730159 0.160319
0.898590 0.728906 0.163278
0.933345 0.731804 0.170173
0.359769 0.763049 0.208494
0.387417 0.762408 0.207616
0.414131 0.762373 0.207614
0.445115 0.760463 0.207581
0.480635 0.760018 0.206604
0.516311 0.762341 0.208011
0.560585 0.764765 0.206360
0.601078 0.766975 0.206221
0.647746 0.769456 0.207600
0.694269 0.772456 0.206521
0.742326 0.776706 0.208591
0.787806 0.782116 0.208942
0.829108 0.780511 0.206458
0.872614 0.784253 0.204772
0.905892 0.781600 0.210613
0.939522 0.782780 0.217822
0.404432 0.823613 0.251195
0.428300 0.821684 0.248718
0.455098 0.821943 0.248126
0.484136 0.819703 0.248449
0.518130 0.817862 0.250039
0.549712 0.820025 0.249518
0.590852 0.820275 0.249928
0.628492 0.824263 0.253614
0.670435 0.824840 0.253468
0.711763 0.828637 0.255194
0.753631 0.830920 0.254329
0.797950 0.832960 0.257894
0.835366 0.835257 0.258403
0.875914 0.834597 0.257684
0.909183 0.834288 0.255698
0.942675 0.831465 0.260572
0.442017 0.869077 0.288595
0.467472 0.869061 0.287936
0.493340 0.870611 0.284501
0.521760 0.868724 0.286046
0.552045 0.867184 0.284843
0.582764 0.868728 0.286818
0.619509 0.869085 0.289992
0.654334 0.871041 0.292118
0.693009 0.872942 0.292524
0.727911 0.875234 0.292850
0.765149 0.877418 0.293075
0.804441 0.877871 0.297138
0.841539 0.880143 0.299135
0.878803 0.882114 0.300055
0.913083 0.879566 0.298570
0.943427 0.877351 0.294991
0.476212 0.911240 0.315759
0.501701 0.911240 0.315413
0.526035 0.911240 0.313842
0.553532 0.909385 0.312947
0.581699 0.910849 0.314780
0.612112 0.910878 0.315213
0.644446 0.911230 0.315907
0.676408 0.913102 0.317291
0.710695 0.913229 0.318078
0.743520 0.915424 0.319686
0.778332 0.917312 0.320752
0.812716 0.917727 0.324031
0.846957 0.919902 0.325191
0.879557 0.920093 0.326819
0.916053 0.922171 0.328172
0.944231 0.921381 0.327572
0.499044 0.951743 0.332389
0.524548 0.951743 0.332546
0.550208 0.951743 0.332528
0.574160 0.949898 0.327102
0.602054 0.949471 0.328746
0.632247 0.949455 0.329207
0.662560 0.951605 0.331360
0.692488 0.951764 0.332493
0.723173 0.952140 0.335027
0.755593 0.954274 0.335625
0.787791 0.956191 0.337707
0.820336 0.956387 0.339269
0.850919 0.958417 0.341433
0.881613 0.959051 0.344042
0.915517 0.960738 0.347941
0.944862 0.962970 0.350466
0.224907 0.156463 0.169109
0.250288 0.157916 0.169109
0.278568 0.155633 0.169109
0.304655 0.155629 0.169181
0.332012 0.156513 0.170305
0.362969 0.157962 0.172006
0.397385 0.158968 0.170749
0.434334 0.161519 0.170942
0.481985 0.166205 0.171604
0.534159 0.171452 0.169184
0.593819 0.181385 0.166003
0.656542 0.195699 0.162562
0.724035 0.217159 0.155526
0.794749 0.246053 0.147221
0.851450 0.273384 0.137814
0.901097 0.300683 0.132088
0.226504 0.184057 0.169181
0.252402 0.183938 0.169178
0.278761 0.183989 0.169297
0.305613 0.184758 0.170099
0.333523 0.186195 0.171718
0.365286 0.188456 0.173867
0.398913 0.188788 0.171860
0.436641 0.192244 0.172635
0.482613 0.195938 0.171183
0.534180 0.201298 0.168219
0.593652 0.212041 0.166682
0.655960 0.226672 0.163630
0.723945 0.249166 0.156146
0.792663 0.276836 0.147842
0.847218 0.304042 0.137797
0.900284 0.329394 0.130789
0.225489 0.214371 0.170196
0.251384 0.214371 0.170196
0.280021 0.214784 0.171292
0.306944 0.214883 0.171542
0.334684 0.216002 0.172107
0.366458 0.218099 0.170963
0.400412 0.220178 0.169711
0.439435 0.224891 0.170089
0.485839 0.227144 0.169779
0.535470 0.232979 0.167116
0.594391 0.243929 0.165524
0.658954 0.260061 0.162123
0.725649 0.281884 0.154857
0.793639 0.310011 0.146472
0.849654 0.336224 0.137020
0.898967 0.361401 0.130041
0.225145 0.246228 0.171696
0.251038 0.246227 0.171632
0.278143 0.247422 0.171977
0.307396 0.246862 0.172226
0.337601 0.248937 0.171393
0.369728 0.250327 0.171775
0.405052 0.254086 0.170951
0.444038 0.256934 0.170537
0.490634 0.261869 0.170262
0.541327 0.270013 0.167872
0.600332 0.281002 0.165765
0.662622 0.297348 0.160207
0.729618 0.320580 0.153713
0.796366 0.347665 0.144196
0.852284 0.374314 0.134877
0.899828 0.398292 0.128403
0.229174 0.280726 0.173010
0.255059 0.280716 0.172227
0.282884 0.282631 0.172531
0.309889 0.282999 0.173081
0.341751 0.284778 0.171941
0.374908 0.286862 0.171366
0.412467 0.291027 0.171662
0.450907 0.294879 0.170391
0.498288 0.301213 0.168804
0.549882 0.309891 0.166636
0.607319 0.321397 0.163178
0.669875 0.340708 0.157841
0.736088 0.363817 0.150214
0.799999 0.390697 0.141517
0.855785 0.414415 0.133084
0.903213 0.436540 0.126595
0.233586 0.323550 0.175334
0.259462 0.323108 0.174267
0.288164 0.324189 0.174955
0.316223 0.324288 0.175617
0.347315 0.326994 0.174570
0.381172 0.329409 0.173365
0.420538 0.335270 0.173261
0.462448 0.341132 0.171240
0.509754 0.348312 0.168342
0.562617 0.357702 0.166541
0.619176 0.371071 0.162148
0.680326 0.389003 0.155002
0.744866 0.411458 0.146529
0.806058 0.436625 0.136949
0.859533 0.457960 0.129855
0.907536 0.478461 0.124327
0.240191 0.374937 0.178431
0.266063 0.373716 0.177396
0.294114 0.373396 0.177044
0.323134 0.374527 0.176445
0.355715 0.377221 0.176715
0.390234 0.380755 0.176273
0.429901 0.387182 0.173940
0.474854 0.394156 0.171411
0.524934 0.405573 0.168973
0.579966 0.417146 0.165488
0.638106 0.432690 0.159869
0.698116 0.449421 0.151694
0.758124 0.469106 0.142924
0.816606 0.488941 0.134381
0.864294 0.505617 0.125686
0.910262 0.522625 0.122014
0.250668 0.437499 0.182293
0.277522 0.437064 0.181666
0.305781 0.436653 0.180634
0.334594 0.436395 0.180507
0.368218 0.439835 0.181426
0.404665 0.444606 0.179768
0.446859 0.451318 0.177852
0.491747 0.458193 0.173581
0.542004 0.469605 0.170490
0.603126 0.485182 0.165744
0.662063 0.502600 0.158839
0.718754 0.519587 0.152301
0.774891 0.535054 0.143235
0.828373 0.548878 0.136653
0.871637 0.560785 0.130496
0.915119 0.570941 0.126917
0.266786 0.514839 0.188582
0.294028 0.514051 0.187564
0.322937 0.512015 0.186398
0.352312 0.511878 0.186704
0.387820 0.515680 0.187380
0.424189 0.519339 0.184448
0.467230 0.526463 0.182873
0.514577 0.535392 0.179936
0.566479 0.545162 0.174981
0.624887 0.559342 0.169412
0.685106 0.575842 0.162486
0.739117 0.589922 0.156774
0.791489 0.601660 0.152218
0.841068 0.612261 0.147220
0.881736 0.618732 0.145303
0.922969 0.625592 0.145935
0.290912 0.604266 0.198261
0.318151 0.603332 0.197902
0.346308 0.600364 0.196626
0.378702 0.600437 0.196934
0.413414 0.602216 0.196854
0.452375 0.606876 0.194011
0.497365 0.613141 0.192833
0.543794 0.620351 0.188531
0.594906 0.628455 0.185761
0.650061 0.638219 0.181313
0.705782 0.649417 0.178475
0.759435 0.658653 0.174218
0.807148 0.666961 0.171575
0.851828 0.673815 0.171855
0.890581 0.676398 0.172594
0.929502 0.680310 0.176870
0.323195 0.693988 0.215186
0.353525 0.691714 0.214862
0.379338 0.690178 0.213472
0.411804 0.687985 0.213855
0.444907 0.689433 0.215260
0.485980 0.691946 0.214466
0.529704 0.697269 0.213722
0.575705 0.701205 0.211499
0.624590 0.707224 0.210610
0.675123 0.712590 0.208986
0.726817 0.717829 0.206987
0.773752 0.721246 0.206692
0.822064 0.726923 0.204522
0.863796 0.730380 0.207279
0.900082 0.730709 0.209634
0.934112 0.732874 0.215898
0.364124 0.765501 0.249579
0.391166 0.764090 0.249160
0.418531 0.763226 0.247998
0.449416 0.762223 0.248371
0.483886 0.760948 0.250572
0.519894 0.763323 0.251743
0.563209 0.766579 0.251321
0.604320 0.768044 0.248476
0.649614 0.772220 0.248268
0.695763 0.776483 0.248783
0.741779 0.779019 0.252084
0.788486 0.782993 0.252073
0.829877 0.782322 0.249836
0.871638 0.786087 0.250000
0.906700 0.782609 0.254428
0.938425 0.783022 0.260159
0.407449 0.823900 0.290747
0.432649 0.822708 0.289139
0.459633 0.822656 0.288253
0.490702 0.820728 0.288591
0.520917 0.819854 0.289907
0.555445 0.821628 0.293966
0.593483 0.822259 0.292469
0.631125 0.825851 0.294996
0.672799 0.826370 0.293460
0.714157 0.829341 0.294918
0.755682 0.831582 0.297410
0.796170 0.833182 0.297818
0.837757 0.836044 0.297515
0.876291 0.834592 0.296499
0.910172 0.834307 0.295556
0.941889 0.832163 0.299153
0.446269 0.870763 0.324566
0.470720 0.870762 0.323033
0.496563 0.870615 0.322455
0.525781 0.870611 0.322738
0.555414 0.869410 0.322897
0.586820 0.868749 0.325041
0.622189 0.871444 0.326663
0.656843 0.871040 0.327080
0.693828 0.872941 0.328386
0.728740 0.875228 0.329357
0.766174 0.877114 0.329769
0.806132 0.878735 0.332480
0.843093 0.880989 0.334320
0.880342 0.882255 0.335817
0.910864 0.879361 0.333841
0.942131 0.878933 0.331874
0.478908 0.911926 0.349502
0.503207 0.911926 0.348263
0.529110 0.911246 0.347455
0.556367 0.911109 0.347709
0.584493 0.911012 0.348530
0.614879 0.910881 0.349966
0.647189 0.911914 0.351540
0.678018 0.913255 0.350762
0.711750 0.913520 0.351552
0.744517 0.915721 0.353277
0.779904 0.915817 0.355359
0.813475 0.917647 0.356032
0.847008 0.919778 0.359376
0.880500 0.921025 0.360178
0.916121 0.922239 0.362304
0.944299 0.920736 0.360422
0.501726 0.951751 0.363693
0.525356 0.951751 0.363743
0.551279 0.951743 0.363234
0.577055 0.950925 0.363455
0.604940 0.950311 0.364262
0.635092 0.949493 0.365677
0.665361 0.951619 0.367893
0.693524 0.952542 0.366107
0.725022 0.953939 0.367862
0.757500 0.956158 0.370103
0.788020 0.956364 0.372363
0.820418 0.956385 0.372054
0.850903 0.957684 0.374011
0.883254 0.960587 0.376797
0.915790 0.961007 0.379843
0.945742 0.962963 0.382905
0.221999 0.157917 0.201499
0.249111 0.157911 0.201499
0.278770 0.155635 0.201499
0.306140 0.156918 0.201507
0.333416 0.157938 0.202650
0.363039 0.159306 0.204593
0.398952 0.160268 0.205978
0.438444 0.161656 0.206244
0.486408 0.167730 0.207249
0.540852 0.174198 0.207640
0.599703 0.184132 0.206860
0.664915 0.198762 0.203733
0.733297 0.222488 0.200114
0.801318 0.249906 0.193019
0.858045 0.277284 0.187935
0.907638 0.305542 0.184927
0.225203 0.186765 0.202873
0.251106 0.186530 0.202864
0.279979 0.185277 0.202867
0.308421 0.187371 0.203788
0.334806 0.187479 0.203990
0.365402 0.188566 0.205529
0.399291 0.188784 0.205982
0.440757 0.192310 0.208162
0.487150 0.197413 0.208263
0.541187 0.202954 0.206620
0.600920 0.214910 0.206668
0.664432 0.229687 0.204777
0.734438 0.253318 0.199687
0.801971 0.280859 0.194971
0.855057 0.309183 0.187990
0.906987 0.335452 0.183059
0.224521 0.217215 0.204021
0.250413 0.217156 0.203789
0.279194 0.216110 0.203953
0.308212 0.216395 0.204195
0.336357 0.217427 0.205441
0.367922 0.219491 0.206657
0.402264 0.220358 0.205731
0.444105 0.224621 0.206236
0.491488 0.229604 0.208037
0.543979 0.236029 0.206220
0.603808 0.248080 0.207635
0.667470 0.264534 0.204395
0.733872 0.287372 0.197268
0.800574 0.315706 0.192398
0.856274 0.342354 0.187317
0.905668 0.367608 0.184414
0.226468 0.248250 0.205967
0.252362 0.248250 0.205040
0.279615 0.248901 0.205489
0.307883 0.249160 0.206488
0.339930 0.250211 0.207741
0.371512 0.251724 0.207704
0.407871 0.255346 0.207620
0.450661 0.258900 0.207433
0.495360 0.262988 0.207314
0.549449 0.273308 0.206187
0.608921 0.284888 0.204602
0.672046 0.302336 0.201231
0.739327 0.326116 0.196664
0.804394 0.354171 0.190770
0.858772 0.380775 0.188167
0.907677 0.405745 0.185871
0.230591 0.284757 0.209544
0.256485 0.284750 0.208764
0.284769 0.284541 0.208406
0.312220 0.285692 0.209207
0.343602 0.286617 0.207810
0.377619 0.288904 0.208184
0.415299 0.292909 0.208820
0.456073 0.297165 0.207555
0.503884 0.303493 0.206697
0.557454 0.313176 0.206029
0.615825 0.326355 0.203369
0.679252 0.345799 0.199964
0.745779 0.369823 0.195148
0.808044 0.396671 0.189957
0.861279 0.421549 0.185470
0.910100 0.444406 0.185096
0.236317 0.326999 0.211890
0.262209 0.326526 0.210836
0.290051 0.327587 0.211745
0.319027 0.327571 0.211747
0.349933 0.330428 0.211841
0.383939 0.332732 0.209790
0.423886 0.337861 0.210355
0.465861 0.343599 0.209073
0.515124 0.351435 0.206927
0.568004 0.360815 0.205846
0.626082 0.374826 0.201873
0.688259 0.393043 0.197925
0.752270 0.417496 0.192162
0.813375 0.443434 0.187137
0.865160 0.464421 0.184607
0.912309 0.485854 0.185863
0.245104 0.379332 0.216643
0.270981 0.378946 0.216526
0.298694 0.379215 0.216526
0.327315 0.379320 0.214294
0.359837 0.382147 0.215345
0.393695 0.385379 0.214841
0.434744 0.391941 0.212653
0.480480 0.398420 0.212279
0.530194 0.409462 0.209865
0.584932 0.420939 0.206569
0.643945 0.435950 0.201889
0.703793 0.452713 0.196095
0.763291 0.472648 0.189837
0.821811 0.492810 0.184651
0.869711 0.510426 0.182559
0.914369 0.528232 0.185172
0.257121 0.444926 0.222666
0.282988 0.443936 0.222518
0.310805 0.443545 0.220936
0.339107 0.443679 0.219366
0.372353 0.445283 0.220769
0.409436 0.450556 0.220873
0.450535 0.456797 0.219196
0.497631 0.464540 0.216485
