example_ofxGpuLutCube/bin/data/ofxGpuLutCube/LUT/T50 (sunset fade).cube
LUT_3D_SIZE 16
0.000000 0.000000 0.000000
0.057017 0.000000 0.000000
0.117228 0.000000 0.000000
0.181313 0.000000 0.000000
0.248620 0.000000 0.000000
0.319993 0.000000 0.000000
0.392846 0.000000 0.000000
0.469074 0.000000 0.000000
0.548332 0.000000 0.000000
0.630344 0.000000 0.000000
0.715390 0.000000 0.000000
0.801021 0.000000 0.000000
0.889886 0.000000 0.000000
0.963774 0.000000 0.000000
0.990225 0.000000 0.000000
1.000038 0.000000 0.000000
0.000000 0.070498 0.000000
0.057017 0.070498 0.000000
0.117228 0.070498 0.000000
0.181313 0.070498 0.000000
0.248620 0.070498 0.000000
0.319993 0.070498 0.000000
0.392846 0.070498 0.000000
0.469074 0.070498 0.000000
0.548332 0.070498 0.000000
0.630344 0.070498 0.000000
0.715390 0.070498 0.000000
0.801021 0.070498 0.000000
0.889886 0.070498 0.000000
0.963774 0.070498 0.000000
0.990225 0.070498 0.000000
1.000038 0.070498 0.000000
0.000000 0.140163 0.000000
0.057017 0.140163 0.000000
0.117228 0.140163 0.000000
0.181313 0.140163 0.000000
0.248620 0.140163 0.000000
0.319993 0.140163 0.000000
0.392846 0.140163 0.000000
0.469074 0.140163 0.000000
0.548332 0.140163 0.000000
0.630344 0.140163 0.000000
0.715390 0.140163 0.000000
0.801021 0.140163 0.000000
0.889886 0.140163 0.000000
0.963774 0.140163 0.000000
0.990225 0.140163 0.000000
1.000038 0.140163 0.000000
0.000000 0.209013 0.000000
0.057017 0.209013 0.000000
0.117228 0.209013 0.000000
0.181313 0.209013 0.000000
0.248620 0.209013 0.000000
0.319993 0.209013 0.000000
0.392846 0.209013 0.000000
0.469074 0.209013 0.000000
0.548332 0.209013 0.000000
0.630344 0.209013 0.000000
0.715390 0.209013 0.000000
0.801021 0.209013 0.000000
0.889886 0.209013 0.000000
0.963774 0.209013 0.000000
0.990225 0.209013 0.000000
1.000038 0.209013 0.000000
0.000000 0.276999 0.000000
0.057017 0.276999 0.000000
0.117228 0.276999 0.000000
0.181313 0.276999 0.000000
0.248620 0.276999 0.000000
0.319993 0.276999 0.000000
0.392846 0.276999 0.000000
0.469074 0.276999 0.000000
0.548332 0.276999 0.000000
0.630344 0.276999 0.000000
0.715390 0.276999 0.000000
0.801021 0.276999 0.000000
0.889886 0.276999 0.000000
0.963774 0.276999 0.000000
0.990225 0.276999 0.000000
1.000038 0.276999 0.000000
0.000000 0.344147 0.000000
0.057017 0.344147 0.000000
0.117228 0.344147 0.000000
0.181313 0.344147 0.000000
0.248620 0.344147 0.000000
0.319993 0.344147 0.000000
0.392846 0.344147 0.000000
0.469074 0.344147 0.000000
0.548332 0.344147 0.000000
0.630344 0.344147 0.000000
0.715390 0.344147 0.000000
0.801021 0.344147 0.000000
0.889886 0.344147 0.000000
0.963774 0.344147 0.000000
0.990225 0.344147 0.000000
1.000038 0.344147 0.000000
0.000000 0.410375 0.000000
0.057017 0.410375 0.000000
0.117228 0.410375 0.000000
0.181313 0.410375 0.000000
0.248620 0.410375 0.000000
0.319993 0.410375 0.000000
0.392846 0.410375 0.000000
0.469074 0.410375 0.000000
0.548332 0.410375 0.000000
0.630344 0.410375 0.000000
0.715390 0.410375 0.000000
0.801021 0.410375 0.000000
0.889886 0.410375 0.000000
0.963774 0.410375 0.000000
0.990225 0.410375 0.000000
1.000038 0.410375 0.000000
0.000000 0.475391 0.000000
0.057017 0.475391 0.000000
0.117228 0.475391 0.000000
0.181313 0.475391 0.000000
0.248620 0.475391 0.000000
0.319993 0.475391 0.000000
0.392846 0.475391 0.000000
0.469074 0.475391 0.000000
0.548332 0.475391 0.000000
0.630344 0.475391 0.000000
0.715390 0.475391 0.000000
0.801021 0.475391 0.000000
0.889886 0.475391 0.000000
0.963774 0.475391 0.000000
0.990225 0.475391 0.000000
1.000038 0.475391 0.000000
0.000000 0.539376 0.000000
0.057017 0.539376 0.000000
0.117228 0.539376 0.000000
0.181313 0.539376 0.000000
0.248620 0.539376 0.000000
0.319993 0.539376 0.000000
0.392846 0.539376 0.000000
0.469074 0.539376 0.000000
0.548332 0.539376 0.000000
0.630344 0.539376 0.000000
0.715390 0.539376 0.000000
0.801021 0.539376 0.000000
0.889886 0.539376 0.000000
0.963774 0.539376 0.000000
0.990225 0.539376 0.000000
1.000038 0.539376 0.000000
0.000000 0.602271 0.000000
0.057017 0.602271 0.000000
0.117228 0.602271 0.000000
0.181313 0.602271 0.000000
0.248620 0.602271 0.000000
0.319993 0.602271 0.000000
0.392846 0.602271 0.000000
0.469074 0.602271 0.000000
0.548332 0.602271 0.000000
0.630344 0.602271 0.000000
0.715390 0.602271 0.000000
0.801021 0.602271 0.000000
0.889886 0.602271 0.000000
0.963774 0.602271 0.000000
0.990225 0.602271 0.000000
1.000038 0.602271 0.000000
0.000000 0.664143 0.000000
0.057017 0.664143 0.000000
0.117228 0.664143 0.000000
0.181313 0.664143 0.000000
0.248620 0.664143 0.000000
0.319993 0.664143 0.000000
0.392846 0.664143 0.000000
0.469074 0.664143 0.000000
0.548332 0.664143 0.000000
0.630344 0.664143 0.000000
0.715390 0.664143 0.000000
0.801021 0.664143 0.000000
0.889886 0.664143 0.000000
0.963774 0.664143 0.000000
0.990225 0.664143 0.000000
1.000038 0.664143 0.000000
0.000000 0.725167 0.000000
0.057017 0.725167 0.000000
0.117228 0.725167 0.000000
0.181313 0.725167 0.000000
0.248620 0.725167 0.000000
0.319993 0.725167 0.000000
0.392846 0.725167 0.000000
0.469074 0.725167 0.000000
0.548332 0.725167 0.000000
0.630344 0.725167 0.000000
0.715390 0.725167 0.000000
0.801021 0.725167 0.000000
0.889886 0.725167 0.000000
0.963774 0.725167 0.000000
0.990225 0.725167 0.000000
1.000038 0.725167 0.000000
0.000000 0.785412 0.000000
0.057017 0.785412 0.000000
0.117228 0.785412 0.000000
0.181313 0.785412 0.000000
0.248620 0.785412 0.000000
0.319993 0.785412 0.000000
0.392846 0.785412 0.000000
0.469074 0.785412 0.000000
0.548332 0.785412 0.000000
0.630344 0.785412 0.000000
0.715390 0.785412 0.000000
0.801021 0.785412 0.000000
0.889886 0.785412 0.000000
0.963774 0.785412 0.000000
0.990225 0.785412 0.000000
1.000038 0.785412 0.000000
0.000000 0.835507 0.000000
0.057017 0.835507 0.000000
0.117228 0.835507 0.000000
0.181313 0.835507 0.000000
0.248620 0.835507 0.000000
0.319993 0.835507 0.000000
0.392846 0.835507 0.000000
0.469074 0.835507 0.000000
0.548332 0.835507 0.000000
0.630344 0.835507 0.000000
0.715390 0.835507 0.000000
0.801021 0.835507 0.000000
0.889886 0.835507 0.000000
0.963774 0.835507 0.000000
0.990225 0.835507 0.000000
1.000038 0.835507 0.000000
0.000000 0.859212 0.000000
0.057017 0.859212 0.000000
0.117228 0.859212 0.000000
0.181313 0.859212 0.000000
0.248620 0.859212 0.000000
0.319993 0.859212 0.000000
0.392846 0.859212 0.000000
0.469074 0.859212 0.000000
0.548332 0.859212 0.000000
0.630344 0.859212 0.000000
0.715390 0.859212 0.000000
0.801021 0.859212 0.000000
0.889886 0.859212 0.000000
0.963774 0.859212 0.000000
0.990225 0.859212 0.000000
1.000038 0.859212 0.000000
0.000000 0.999089 0.000000
0.057017 0.999089 0.000000
0.117228 0.999089 0.000000
0.181313 0.999089 0.000000
0.248620 0.999089 0.000000
0.319993 0.999089 0.000000
0.392846 0.999089 0.000000
0.469074 0.999089 0.000000
0.548332 0.999089 0.000000
0.630344 0.999089 0.000000
0.715390 0.999089 0.000000
0.801021 0.999089 0.000000
0.889886 0.999089 0.000000
0.963774 0.999089 0.000000
0.990225 0.999089 0.000000
1.000038 0.999089 0.000000
0.000000 0.000000 0.051015
0.057017 0.000000 0.051015
0.117228 0.000000 0.051015
0.181313 0.000000 0.051015
0.248620 0.000000 0.051015
0.319993 0.000000 0.051015
0.392846 0.000000 0.051015
0.469074 0.000000 0.051015
0.548332 0.000000 0.051015
0.630344 0.000000 0.051015
0.715390 0.000000 0.051015
0.801021 0.000000 0.051015
0.889886 0.000000 0.051015
0.963774 0.000000 0.051015
0.990225 0.000000 0.051015
1.000038 0.000000 0.051015
0.000000 0.070498 0.051015
0.057017 0.070498 0.051015
0.117228 0.070498 0.051015
0.181313 0.070498 0.051015
0.248620 0.070498 0.051015
0.319993 0.070498 0.051015
0.392846 0.070498 0.051015
0.469074 0.070498 0.051015
0.548332 0.070498 0.051015
0.630344 0.070498 0.051015
0.715390 0.070498 0.051015
0.801021 0.070498 0.051015
0.889886 0.070498 0.051015
0.963774 0.070498 0.051015
0.990225 0.070498 0.051015
1.000038 0.070498 0.051015
0.000000 0.140163 0.051015
0.057017 0.140163 0.051015
0.117228 0.140163 0.051015
0.181313 0.140163 0.051015
0.248620 0.140163 0.051015
0.319993 0.140163 0.051015
0.392846 0.140163 0.051015
0.469074 0.140163 0.051015
0.548332 0.140163 0.051015
0.630344 0.140163 0.051015
0.715390 0.140163 0.051015
0.801021 0.140163 0.051015
0.889886 0.140163 0.051015
0.963774 0.140163 0.051015
0.990225 0.140163 0.051015
1.000038 0.140163 0.051015
0.000000 0.209013 0.051015
0.057017 0.209013 0.051015
0.117228 0.209013 0.051015
0.181313 0.209013 0.051015
0.248620 0.209013 0.051015
0.319993 0.209013 0.051015
0.392846 0.209013 0.051015
0.469074 0.209013 0.051015
0.548332 0.209013 0.051015
0.630344 0.209013 0.051015
0.715390 0.209013 0.051015
0.801021 0.209013 0.051015
0.889886 0.209013 0.051015
0.963774 0.209013 0.051015
0.990225 0.209013 0.051015
1.000038 0.209013 0.051015
0.000000 0.276999 0.051015
0.057017 0.276999 0.051015
0.117228 0.276999 0.051015
0.181313 0.276999 0.051015
0.248620 0.276999 0.051015
0.319993 0.276999 0.051015
0.392846 0.276999 0.051015
0.469074 0.276999 0.051015
0.548332 0.276999 0.051015
0.630344 0.276999 0.051015
0.715390 0.276999 0.051015
0.801021 0.276999 0.051015
0.889886 0.276999 0.051015
0.963774 0.276999 0.051015
0.990225 0.276999 0.051015
1.000038 0.276999 0.051015
0.000000 0.344147 0.051015
0.057017 0.344147 0.051015
0.117228 0.344147 0.051015
0.181313 0.344147 0.051015
0.248620 0.344147 0.051015
0.319993 0.344147 0.051015
0.392846 0.344147 0.051015
0.469074 0.344147 0.051015
0.548332 0.344147 0.051015
0.630344 0.344147 0.051015
0.715390 0.344147 0.051015
0.801021 0.344147 0.051015
0.889886 0.344147 0.051015
0.963774 0.344147 0.051015
0.990225 0.344147 0.051015
1.000038 0.344147 0.051015
0.000000 0.410375 0.051015
0.057017 0.410375 0.051015
0.117228 0.410375 0.051015
0.181313 0.410375 0.051015
0.248620 0.410375 0.051015
0.319993 0.410375 0.051015
0.392846 0.410375 0.051015
0.469074 0.410375 0.051015
0.548332 0.410375 0.051015
0.630344 0.410375 0.051015
0.715390 0.410375 0.051015
0.801021 0.410375 0.051015
0.889886 0.410375 0.051015
0.963774 0.410375 0.051015
0.990225 0.410375 0.051015
1.000038 0.410375 0.051015
0.000000 0.475391 0.051015
0.057017 0.475391 0.051015
0.117228 0.475391 0.051015
0.181313 0.475391 0.051015
0.248620 0.475391 0.051015
0.319993 0.475391 0.051015
0.392846 0.475391 0.051015
0.469074 0.475391 0.051015
0.548332 0.475391 0.051015
0.630344 0.475391 0.051015
0.715390 0.475391 0.051015
0.801021 0.475391 0.051015
0.889886 0.475391 0.051015
0.963774 0.475391 0.051015
0.990225 0.475391 0.051015
1.000038 0.475391 0.051015
0.000000 0.539376 0.051015
0.057017 0.539376 0.051015
0.117228 0.539376 0.051015
0.181313 0.539376 0.051015
0.248620 0.539376 0.051015
0.319993 0.539376 0.051015
0.392846 0.539376 0.051015
0.469074 0.539376 0.051015
0.548332 0.539376 0.051015
0.630344 0.539376 0.051015
0.715390 0.539376 0.051015
0.801021 0.539376 0.051015
0.889886 0.539376 0.051015
0.963774 0.539376 0.051015
0.990225 0.539376 0.051015
1.000038 0.539376 0.051015
0.000000 0.602271 0.051015
0.057017 0.602271 0.051015
0.117228 0.602271 0.051015
0.181313 0.602271 0.051015
0.248620 0.602271 0.051015
0.319993 0.602271 0.051015
0.392846 0.602271 0.051015
0.469074 0.602271 0.051015
0.548332 0.602271 0.051015
0.630344 0.602271 0.051015
0.715390 0.602271 0.051015
0.801021 0.602271 0.051015
0.889886 0.602271 0.051015
0.963774 0.602271 0.051015
0.990225 0.602271 0.051015
1.000038 0.602271 0.051015
0.000000 0.664143 0.051015
0.057017 0.664143 0.051015
0.117228 0.664143 0.051015
0.181313 0.664143 0.051015
0.248620 0.664143 0.051015
0.319993 0.664143 0.051015
0.392846 0.664143 0.051015
0.469074 0.664143 0.051015
0.548332 0.664143 0.051015
0.630344 0.664143 0.051015
0.715390 0.664143 0.051015
0.801021 0.664143 0.051015
0.889886 0.664143 0.051015
0.963774 0.664143 0.051015
0.990225 0.664143 0.051015
1.000038 0.664143 0.051015
0.000000 0.725167 0.051015
0.057017 0.725167 0.051015
0.117228 0.725167 0.051015
0.181313 0.725167 0.051015
0.248620 0.725167 0.051015
0.319993 0.725167 0.051015
0.392846 0.725167 0.051015
0.469074 0.725167 0.051015
0.548332 0.725167 0.051015
0.630344 0.725167 0.051015
0.715390 0.725167 0.051015
0.801021 0.725167 0.051015
0.889886 0.725167 0.051015
0.963774 0.725167 0.051015
0.990225 0.725167 0.051015
1.000038 0.725167 0.051015
0.000000 0.785412 0.051015
0.057017 0.785412 0.051015
0.117228 0.785412 0.051015
0.181313 0.785412 0.051015
0.248620 0.785412 0.051015
0.319993 0.785412 0.051015
0.392846 0.785412 0.051015
0.469074 0.785412 0.051015
0.548332 0.785412 0.051015
0.630344 0.785412 0.051015
0.715390 0.785412 0.051015
0.801021 0.785412 0.051015
0.889886 0.785412 0.051015
0.963774 0.785412 0.051015
0.990225 0.785412 0.051015
1.000038 0.785412 0.051015
0.000000 0.835507 0.051015
0.057017 0.835507 0.051015
0.117228 0.835507 0.051015
0.181313 0.835507 0.051015
0.248620 0.835507 0.051015
0.319993 0.835507 0.051015
0.392846 0.835507 0.051015
0.469074 0.835507 0.051015
0.548332 0.835507 0.051015
0.630344 0.835507 0.051015
0.715390 0.835507 0.051015
0.801021 0.835507 0.051015
0.889886 0.835507 0.051015
0.963774 0.835507 0.051015
0.990225 0.835507 0.051015
1.000038 0.835507 0.051015
0.000000 0.859212 0.051015
0.057017 0.859212 0.051015
0.117228 0.859212 0.051015
0.181313 0.859212 0.051015
0.248620 0.859212 0.051015
0.319993 0.859212 0.051015
0.392846 0.859212 0.051015
0.469074 0.859212 0.051015
0.548332 0.859212 0.051015
0.630344 0.859212 0.051015
0.715390 0.859212 0.051015
0.801021 0.859212 0.051015
0.889886 0.859212 0.051015
0.963774 0.859212 0.051015
0.990225 0.859212 0.051015
1.000038 0.859212 0.051015
0.000000 0.999089 0.051015
0.057017 0.999089 0.051015
0.117228 0.999089 0.051015
0.181313 0.999089 0.051015
0.248620 0.999089 0.051015
0.319993 0.999089 0.051015
0.392846 0.999089 0.051015
0.469074 0.999089 0.051015
0.548332 0.999089 0.051015
0.630344 0.999089 0.051015
0.715390 0.999089 0.051015
0.801021 0.999089 0.051015
0.889886 0.999089 0.051015
0.963774 0.999089 0.051015
0.990225 0.999089 0.051015
1.000038 0.999089 0.051015
0.000000 0.000000 0.101899
0.057017 0.000000 0.101899
0.117228 0.000000 0.101899
0.181313 0.000000 0.101899
0.248620 0.000000 0.101899
0.319993 0.000000 0.101899
0.392846 0.000000 0.101899
0.469074 0.000000 0.101899
0.548332 0.000000 0.101899
0.630344 0.000000 0.101899
0.715390 0.000000 0.101899
0.801021 0.000000 0.101899
0.889886 0.000000 0.101899
0.963774 0.000000 0.101899
0.990225 0.000000 0.101899
1.000038 0.000000 0.101899
0.000000 0.070498 0.101899
0.057017 0.070498 0.101899
0.117228 0.070498 0.101899
0.181313 0.070498 0.101899
0.248620 0.070498 0.101899
0.319993 0.070498 0.101899
0.392846 0.070498 0.101899
0.469074 0.070498 0.101899
0.548332 0.070498 0.101899
0.630344 0.070498 0.101899
0.715390 0.070498 0.101899
0.801021 0.070498 0.101899
0.889886 0.070498 0.101899
0.963774 0.070498 0.101899
0.990225 0.070498 0.101899
1.000038 0.070498 0.101899
0.000000 0.140163 0.101899
0.057017 0.140163 0.101899
0.117228 0.140163 0.101899
0.181313 0.140163 0.101899
0.248620 0.140163 0.101899
0.319993 0.140163 0.101899
0.392846 0.140163 0.101899
0.469074 0.140163 0.101899
0.548332 0.140163 0.101899
0.630344 0.140163 0.101899
0.715390 0.140163 0.101899
0.801021 0.140163 0.101899
0.889886 0.140163 0.101899
0.963774 0.140163 0.101899
0.990225 0.140163 0.101899
1.000038 0.140163 0.101899
0.000000 0.209013 0.101899
0.057017 0.209013 0.101899
0.117228 0.209013 0.101899
0.181313 0.209013 0.101899
0.248620 0.209013 0.101899
0.319993 0.209013 0.101899
0.392846 0.209013 0.101899
0.469074 0.209013 0.101899
0.548332 0.209013 0.101899
0.630344 0.209013 0.101899
0.715390 0.209013 0.101899
0.801021 0.209013 0.101899
0.889886 0.209013 0.101899
0.963774 0.209013 0.101899
0.990225 0.209013 0.101899
1.000038 0.209013 0.101899
0.000000 0.276999 0.101899
0.057017 0.276999 0.101899
0.117228 0.276999 0.101899
0.181313 0.276999 0.101899
0.248620 0.276999 0.101899
0.319993 0.276999 0.101899
0.392846 0.276999 0.101899
0.469074 0.276999 0.101899
0.548332 0.276999 0.101899
0.630344 0.276999 0.101899
0.715390 0.276999 0.101899
0.801021 0.276999 0.101899
0.889886 0.276999 0.101899
0.963774 0.276999 0.101899
0.990225 0.276999 0.101899
1.000038 0.276999 0.101899
0.000000 0.344147 0.101899
0.057017 0.344147 0.101899
0.117228 0.344147 0.101899
0.181313 0.344147 0.101899
0.248620 0.344147 0.101899
0.319993 0.344147 0.101899
0.392846 0.344147 0.101899
0.469074 0.344147 0.101899
0.548332 0.344147 0.101899
0.630344 0.344147 0.101899
0.715390 0.344147 0.101899
0.801021 0.344147 0.101899
0.889886 0.344147 0.101899
0.963774 0.344147 0.101899
0.990225 0.344147 0.101899
1.000038 0.344147 0.101899
0.000000 0.410375 0.101899
0.057017 0.410375 0.101899
0.117228 0.410375 0.101899
0.181313 0.410375 0.101899
0.248620 0.410375 0.101899
0.319993 0.410375 0.101899
0.392846 0.410375 0.101899
0.469074 0.410375 0.101899
0.548332 0.410375 0.101899
0.630344 0.410375 0.101899
0.715390 0.410375 0.101899
0.801021 0.410375 0.101899
0.889886 0.410375 0.101899
0.963774 0.410375 0.101899
0.990225 0.410375 0.101899
1.000038 0.410375 0.101899
0.000000 0.475391 0.101899
0.057017 0.475391 0.101899
0.117228 0.475391 0.101899
0.181313 0.475391 0.101899
0.248620 0.475391 0.101899
0.319993 0.475391 0.101899
0.392846 0.475391 0.101899
0.469074 0.475391 0.101899
0.548332 0.475391 0.101899
0.630344 0.475391 0.101899
0.715390 0.475391 0.101899
0.801021 0.475391 0.101899
0.889886 0.475391 0.101899
0.963774 0.475391 0.101899
0.990225 0.475391 0.101899
1.000038 0.475391 0.101899
0.000000 0.539376 0.101899
0.057017 0.539376 0.101899
0.117228 0.539376 0.101899
0.181313 0.539376 0.101899
0.248620 0.539376 0.101899
0.319993 0.539376 0.101899
0.392846 0.539376 0.101899
0.469074 0.539376 0.101899
0.548332 0.539376 0.101899
0.630344 0.539376 0.101899
0.715390 0.539376 0.101899
0.801021 0.539376 0.101899
0.889886 0.539376 0.101899
0.963774 0.539376 0.101899
0.990225 0.539376 0.101899
1.000038 0.539376 0.101899
0.000000 0.602271 0.101899
0.057017 0.602271 0.101899
0.117228 0.602271 0.101899
0.181313 0.602271 0.101899
0.248620 0.602271 0.101899
0.319993 0.602271 0.101899
0.392846 0.602271 0.101899
0.469074 0.602271 0.101899
0.548332 0.602271 0.101899
0.630344 0.602271 0.101899
0.715390 0.602271 0.101899
0.801021 0.602271 0.101899
0.889886 0.602271 0.101899
0.963774 0.602271 0.101899
0.990225 0.602271 0.101899
1.000038 0.602271 0.101899
0.000000 0.664143 0.101899
0.057017 0.664143 0.101899
0.117228 0.664143 0.101899
0.181313 0.664143 0.101899
0.248620 0.664143 0.101899
0.319993 0.664143 0.101899
0.392846 0.664143 0.101899
0.469074 0.664143 0.101899
0.548332 0.664143 0.101899
0.630344 0.664143 0.101899
0.715390 0.664143 0.101899
0.801021 0.664143 0.101899
0.889886 0.664143 0.101899
0.963774 0.664143 0.101899
0.990225 0.664143 0.101899
1.000038 0.664143 0.101899
0.000000 0.725167 0.101899
0.057017 0.725167 0.101899
0.117228 0.725167 0.101899
0.181313 0.725167 0.101899
0.248620 0.725167 0.101899
0.319993 0.725167 0.101899
0.392846 0.725167 0.101899
0.469074 0.725167 0.101899
0.548332 0.725167 0.101899
0.630344 0.725167 0.101899
0.715390 0.725167 0.101899
0.801021 0.725167 0.101899
0.889886 0.725167 0.101899
0.963774 0.725167 0.101899
0.990225 0.725167 0.101899
1.000038 0.725167 0.101899
0.000000 0.785412 0.101899
0.057017 0.785412 0.101899
0.117228 0.785412 0.101899
0.181313 0.785412 0.101899
0.248620 0.785412 0.101899
0.319993 0.785412 0.101899
0.392846 0.785412 0.101899
0.469074 0.785412 0.101899
0.548332 0.785412 0.101899
0.630344 0.785412 0.101899
0.715390 0.785412 0.101899
0.801021 0.785412 0.101899
0.889886 0.785412 0.101899
0.963774 0.785412 0.101899
0.990225 0.785412 0.101899
1.000038 0.785412 0.101899
0.000000 0.835507 0.101899
0.057017 0.835507 0.101899
0.117228 0.835507 0.101899
0.181313 0.835507 0.101899
0.248620 0.835507 0.101899
0.319993 0.835507 0.101899
0.392846 0.835507 0.101899
0.469074 0.835507 0.101899
0.548332 0.835507 0.101899
0.630344 0.835507 0.101899
0.715390 0.835507 0.101899
0.801021 0.835507 0.101899
0.889886 0.835507 0.101899
0.963774 0.835507 0.101899
0.990225 0.835507 0.101899
1.000038 0.835507 0.101899
0.000000 0.859212 0.101899
0.057017 0.859212 0.101899
0.117228 0.859212 0.101899
0.181313 0.859212 0.101899
0.248620 0.859212 0.101899
0.319993 0.859212 0.101899
0.392846 0.859212 0.101899
0.469074 0.859212 0.101899
0.548332 0.859212 0.101899
0.630344 0.859212 0.101899
0.715390 0.859212 0.101899
0.801021 0.859212 0.101899
0.889886 0.859212 0.101899
0.963774 0.859212 0.101899
0.990225 0.859212 0.101899
1.000038 0.859212 0.101899
0.000000 0.999089 0.101899
0.057017 0.999089 0.101899
0.117228 0.999089 0.101899
0.181313 0.999089 0.101899
0.248620 0.999089 0.101899
0.319993 0.999089 0.101899
0.392846 0.999089 0.101899
0.469074 0.999089 0.101899
0.548332 0.999089 0.101899
0.630344 0.999089 0.101899
0.715390 0.999089 0.101899
0.801021 0.999089 0.101899
0.889886 0.999089 0.101899
0.963774 0.999089 0.101899
0.990225 0.999089 0.101899
1.000038 0.999089 0.101899
0.000000 0.000000 0.152674
0.057017 0.000000 0.152674
0.117228 0.000000 0.152674
0.181313 0.000000 0.152674
0.248620 0.000000 0.152674
0.319993 0.000000 0.152674
0.392846 0.000000 0.152674
0.469074 0.000000 0.152674
0.548332 0.000000 0.152674
0.630344 0.000000 0.152674
0.715390 0.000000 0.152674
0.801021 0.000000 0.152674
0.889886 0.000000 0.152674
0.963774 0.000000 0.152674
0.990225 0.000000 0.152674
1.000038 0.000000 0.152674
0.000000 0.070498 0.152674
0.057017 0.070498 0.152674
0.117228 0.070498 0.152674
0.181313 0.070498 0.152674
0.248620 0.070498 0.152674
0.319993 0.070498 0.152674
0.392846 0.070498 0.152674
0.469074 0.070498 0.152674
0.548332 0.070498 0.152674
0.630344 0.070498 0.152674
0.715390 0.070498 0.152674
0.801021 0.070498 0.152674
0.889886 0.070498 0.152674
0.963774 0.070498 0.152674
0.990225 0.070498 0.152674
1.000038 0.070498 0.152674
0.000000 0.140163 0.152674
0.057017 0.140163 0.152674
0.117228 0.140163 0.152674
0.181313 0.140163 0.152674
0.248620 0.140163 0.152674
0.319993 0.140163 0.152674
0.392846 0.140163 0.152674
0.469074 0.140163 0.152674
0.548332 0.140163 0.152674
0.630344 0.140163 0.152674
0.715390 0.140163 0.152674
0.801021 0.140163 0.152674
0.889886 0.140163 0.152674
0.963774 0.140163 0.152674
0.990225 0.140163 0.152674
1.000038 0.140163 0.152674
0.000000 0.209013 0.152674
0.057017 0.209013 0.152674
0.117228 0.209013 0.152674
0.181313 0.209013 0.152674
0.248620 0.209013 0.152674
0.319993 0.209013 0.152674
0.392846 0.209013 0.152674
0.469074 0.209013 0.152674
0.548332 0.209013 0.152674
0.630344 0.209013 0.152674
0.715390 0.209013 0.152674
0.801021 0.209013 0.152674
0.889886 0.209013 0.152674
0.963774 0.209013 0.152674
0.990225 0.209013 0.152674
1.000038 0.209013 0.152674
0.000000 0.276999 0.152674
0.057017 0.276999 0.152674
0.117228 0.276999 0.152674
0.181313 0.276999 0.152674
0.248620 0.276999 0.152674
0.319993 0.276999 0.152674
0.392846 0.276999 0.152674
0.469074 0.276999 0.152674
0.548332 0.276999 0.152674
0.630344 0.276999 0.152674
0.715390 0.276999 0.152674
0.801021 0.276999 0.152674
0.889886 0.276999 0.152674
0.963774 0.276999 0.152674
0.990225 0.276999 0.152674
1.000038 0.276999 0.152674
0.000000 0.344147 0.152674
0.057017 0.344147 0.152674
0.117228 0.344147 0.152674
0.181313 0.344147 0.152674
0.248620 0.344147 0.152674
0.319993 0.344147 0.152674
0.392846 0.344147 0.152674
0.469074 0.344147 0.152674
0.548332 0.344147 0.152674
0.630344 0.344147 0.152674
0.715390 0.344147 0.152674
0.801021 0.344147 0.152674
0.889886 0.344147 0.152674
0.963774 0.344147 0.152674
0.990225 0.344147 0.152674
1.000038 0.344147 0.152674
0.000000 0.410375 0.152674
0.057017 0.410375 0.152674
0.117228 0.410375 0.152674
0.181313 0.410375 0.152674
0.248620 0.410375 0.152674
0.319993 0.410375 0.152674
0.392846 0.410375 0.152674
0.469074 0.410375 0.152674
0.548332 0.410375 0.152674
0.630344 0.410375 0.152674
0.715390 0.410375 0.152674
0.801021 0.410375 0.152674
0.889886 0.410375 0.152674
0.963774 0.410375 0.152674
0.990225 0.410375 0.152674
1.000038 0.410375 0.152674
0.000000 0.475391 0.152674
0.057017 0.475391 0.152674
0.117228 0.475391 0.152674
0.181313 0.475391 0.152674
0.248620 0.475391 0.152674
0.319993 0.475391 0.152674
0.392846 0.475391 0.152674
0.469074 0.475391 0.152674
