example_ofxGpuLutCube/bin/data/ofxGpuLutCube/LUT/T50 (sunset fade).cube
LUT_3D_SIZE 6
0.000000 0.000000 0.000000
0.181313 0.000000 0.000000
0.392846 0.000000 0.000000
0.630344 0.000000 0.000000
0.889886 0.000000 0.000000
1.000038 0.000000 0.000000
0.000000 0.209013 0.000000
0.181313 0.209013 0.000000
0.392846 0.209013 0.000000
0.630344 0.209013 0.000000
0.889886 0.209013 0.000000
1.000038 0.209013 0.000000
0.000000 0.410375 0.000000
0.181313 0.410375 0.000000
0.392846 0.410375 0.000000
0.630344 0.410375 0.000000
0.889886 0.410375 0.000000
1.000038 0.410375 0.000000
0.000000 0.602271 0.000000
0.181313 0.602271 0.000000
0.392846 0.602271 0.000000
0.630344 0.602271 0.000000
0.889886 0.602271 0.000000
1.000038 0.602271 0.000000
0.000000 0.785412 0.000000
0.181313 0.785412 0.000000
0.392846 0.785412 0.000000
0.630344 0.785412 0.000000
0.889886 0.785412 0.000000
1.000038 0.785412 0.000000
0.000000 0.999089 0.000000
0.181313 0.999089 0.000000
0.392846 0.999089 0.000000
0.630344 0.999089 0.000000
0.889886 0.999089 0.000000
1.000038 0.999089 0.000000
0.000000 0.000000 0.152674
0.181313 0.000000 0.152674
0.392846 0.000000 0.152674
0.630344 0.000000 0.152674
0.889886 0.000000 0.152674
1.000038 0.000000 0.152674
0.000000 0.209013 0.152674
0.181313 0.209013 0.152674
0.392846 0.209013 0.152674
0.630344 0.209013 0.152674
0.889886 0.209013 0.152674
1.000038 0.209013 0.152674
0.000000 0.410375 0.152674
0.181313 0.410375 0.152674
0.392846 0.410375 0.152674
0.630344 0.410375 0.152674
0.889886 0.410375 0.152674
1.000038 0.410375 0.152674
0.000000 0.602271 0.152674
0.181313 0.602271 0.152674
0.392846 0.602271 0.152674
0.630344 0.602271 0.152674
0.889886 0.602271 0.152674
1.000038 0.602271 0.152674
0.000000 0.785412 0.152674
0.181313 0.785412 0.152674
0.392846 0.785412 0.152674
0.630344 0.785412 0.152674
0.889886 0.785412 0.152674
1.000038 0.785412 0.152674
0.000000 0.999089 0.152674
0.181313 0.999089 0.152674
0.392846 0.999089 0.152674
0.630344 0.999089 0.152674
0.889886 0.999089 0.152674
1.000038 0.999089 0.152674
0.000000 0.000000 0.304280
0.181313 0.000000 0.304280
0.392846 0.000000 0.304280
0.630344 0.000000 0.304280
0.889886 0.000000 0.304280
1.000038 0.000000 0.304280
0.000000 0.209013 0.304280
0.181313 0.209013 0.304280
0.392846 0.209013 0.304280
0.630344 0.209013 0.304280
0.889886 0.209013 0.304280
1.000038 0.209013 0.304280
0.000000 0.410375 0.304280
0.181313 0.410375 0.304280
0.392846 0.410375 0.304280
0.630344 0.410375 0.304280
0.889886 0.410375 0.304280
1.000038 0.410375 0.304280
0.000000 0.602271 0.304280
0.181313 0.602271 0.304280
0.392846 0.602271 0.304280
0.630344 0.602271 0.304280
0.889886 0.602271 0.304280
1.000038 0.602271 0.304280
0.000000 0.785412 0.304280
0.181313 0.785412 0.304280
0.392846 0.785412 0.304280
0.630344 0.785412 0.304280
0.889886 0.785412 0.304280
1.000038 0.785412 0.304280
0.000000 0.999089 0.304280
0.181313 0.999089 0.304280
0.392846 0.999089 0.304280
0.630344 0.999089 0.304280
0.889886 0.999089 0.304280
1.000038 0.999089 0.304280
0.000000 0.000000 0.457846
0.181313 0.000000 0.457846
0.392846 0.000000 0.457846
0.630344 0.000000 0.457846
0.889886 0.000000 0.457846
1.000038 0.000000 0.457846
0.000000 0.209013 0.457846
0.181313 0.209013 0.457846
0.392846 0.209013 0.457846
0.630344 0.209013 0.457846
0.889886 0.209013 0.457846
1.000038 0.209013 0.457846
0.000000 0.410375 0.457846
0.181313 0.410375 0.457846
0.392846 0.410375 0.457846
0.630344 0.410375 0.457846
0.889886 0.410375 0.457846
1.000038 0.410375 0.457846
0.000000 0.602271 0.457846
0.181313 0.602271 0.457846
0.392846 0.602271 0.457846
0.630344 0.602271 0.457846
0.889886 0.602271 0.457846
1.000038 0.602271 0.457846
0.000000 0.785412 0.457846
0.181313 0.785412 0.457846
0.392846 0.785412 0.457846
0.630344 0.785412 0.457846
0.889886 0.785412 0.457846
1.000038 0.785412 0.457846
0.000000 0.999089 0.457846
0.181313 0.999089 0.457846
0.392846 0.999089 0.457846
0.630344 0.999089 0.457846
0.889886 0.999089 0.457846
1.000038 0.999089 0.457846
0.000000 0.000000 0.612274
0.181313 0.000000 0.612274
0.392846 0.000000 0.612274
0.630344 0.000000 0.612274
0.889886 0.000000 0.612274
1.000038 0.000000 0.612274
0.000000 0.209013 0.612274
0.181313 0.209013 0.612274
0.392846 0.209013 0.612274
0.630344 0.209013 0.612274
0.889886 0.209013 0.612274
1.000038 0.209013 0.612274
0.000000 0.410375 0.612274
0.181313 0.410375 0.612274
0.392846 0.410375 0.612274
0.630344 0.410375 0.612274
0.889886 0.410375 0.612274
1.000038 0.410375 0.612274
0.000000 0.602271 0.612274
0.181313 0.602271 0.612274
0.392846 0.602271 0.612274
0.630344 0.602271 0.612274
0.889886 0.602271 0.612274
1.000038 0.602271 0.612274
0.000000 0.785412 0.612274
0.181313 0.785412 0.612274
0.392846 0.785412 0.612274
0.630344 0.785412 0.612274
0.889886 0.785412 0.612274
1.000038 0.785412 0.612274
0.000000 0.999089 0.612274
0.181313 0.999089 0.612274
0.392846 0.999089 0.612274
0.630344 0.999089 0.612274
0.889886 0.999089 0.612274
1.000038 0.999089 0.612274
0.000000 0.000000 0.998362
0.181313 0.000000 0.998362
0.392846 0.000000 0.998362
0.630344 0.000000 0.998362
0.889886 0.000000 0.998362
1.000038 0.000000 0.998362
0.000000 0.209013 0.998362
0.181313 0.209013 0.998362
0.392846 0.209013 0.998362
0.630344 0.209013 0.998362
0.889886 0.209013 0.998362
1.000038 0.209013 0.998362
0.000000 0.410375 0.998362
0.181313 0.410375 0.998362
0.392846 0.410375 0.998362
0.630344 0.410375 0.998362
0.889886 0.410375 0.998362
1.000038 0.410375 0.998362
0.000000 0.602271 0.998362
0.181313 0.602271 0.998362
0.392846 0.602271 0.998362
0.630344 0.602271 0.998362
0.889886 0.602271 0.998362
1.000038 0.602271 0.998362
0.000000 0.785412 0.998362
0.181313 0.785412 0.998362
0.392846 0.785412 0.998362
0.630344 0.785412 0.998362
0.889886 0.785412 0.998362
1.000038 0.785412 0.998362
0.000000 0.999089 0.998362
0.181313 0.999089 0.998362
0.392846 0.999089 0.998362
0.630344 0.999089 0.998362
0.889886 0.999089 0.998362
1.000038 0.999089 0.998362
