example_ofxGpuLutCube/bin/data/ofxGpuLutCube/LUT/T6 (smooth navy fade).cube
LUT_3D_SIZE 6
0.130219 0.130219 0.130219
0.189636 0.130219 0.130243
0.387946 0.130219 0.130298
0.668475 0.142938 0.130493
0.792743 0.151654 0.130615
0.876475 0.155020 0.130707
0.130292 0.181085 0.130310
0.189122 0.182540 0.130310
0.385125 0.192970 0.130383
0.671123 0.206610 0.130569
0.795375 0.216691 0.130725
0.878326 0.220973 0.130840
0.155738 0.310022 0.130506
0.223146 0.320419 0.130559
0.487546 0.389769 0.144792
0.752138 0.376421 0.147455
0.838874 0.364913 0.146042
0.896383 0.351339 0.142734
0.278796 0.585620 0.179913
0.374093 0.633246 0.201861
0.668452 0.719099 0.250243
0.850855 0.720207 0.257266
0.930691 0.718724 0.258032
0.973143 0.712579 0.254474
0.377570 0.770404 0.233087
0.482979 0.812878 0.258955
0.749611 0.859668 0.299816
0.884895 0.858404 0.304530
0.934400 0.859208 0.306815
0.973118 0.857262 0.305515
0.445404 0.894002 0.274417
0.578112 0.922918 0.297660
0.794502 0.954127 0.332100
0.888452 0.954532 0.338694
0.934375 0.949911 0.336307
0.973149 0.949309 0.336476
0.130219 0.130243 0.181269
0.187965 0.130274 0.181332
0.340596 0.130221 0.178406
0.648813 0.139653 0.170225
0.782609 0.149597 0.173605
0.870406 0.153581 0.178235
0.130219 0.181975 0.183268
0.190255 0.183277 0.183899
0.372748 0.191745 0.178142
0.673891 0.207330 0.171762
0.796717 0.217014 0.178454
0.879179 0.220991 0.183133
0.163752 0.319440 0.200912
0.225485 0.324975 0.200542
0.470478 0.399667 0.210896
0.756907 0.388690 0.211076
0.842321 0.377338 0.210076
0.901282 0.371246 0.209439
0.289253 0.601602 0.251366
0.371961 0.633954 0.262412
0.657427 0.730458 0.311816
0.855163 0.739894 0.324163
0.933229 0.737702 0.324648
0.973074 0.731684 0.321190
0.386376 0.782122 0.301588
0.484910 0.826533 0.328060
0.742663 0.876130 0.368028
0.887418 0.881822 0.379144
0.934352 0.882093 0.381528
0.973071 0.879610 0.379886
0.459010 0.909224 0.344813
0.568983 0.938086 0.367382
0.793795 0.969057 0.401798
0.888911 0.973483 0.416970
0.934482 0.970570 0.412412
0.973076 0.969215 0.411240
0.130219 0.130255 0.307312
0.188626 0.130253 0.308322
0.319512 0.130258 0.322480
0.604070 0.139811 0.335016
0.753065 0.151497 0.352188
0.845106 0.157742 0.367043
0.130219 0.189983 0.317948
0.190377 0.190059 0.317903
0.325215 0.195766 0.335396
0.628044 0.210083 0.348330
0.773285 0.220011 0.367686
0.861648 0.225293 0.379662
0.172042 0.351724 0.396763
0.234973 0.357743 0.398628
0.377423 0.433737 0.440182
0.750375 0.448845 0.419296
0.855668 0.446030 0.422592
0.914831 0.440240 0.428487
0.287340 0.634318 0.521699
0.365056 0.659630 0.534816
0.568554 0.755827 0.579544
0.840804 0.786127 0.587139
0.934006 0.786342 0.566329
0.972642 0.778916 0.538930
0.377811 0.806111 0.587909
0.473994 0.848871 0.611040
0.684898 0.902797 0.645055
0.884046 0.923544 0.652831
0.933935 0.922071 0.655975
0.972563 0.920327 0.647260
0.453984 0.933832 0.626640
0.540279 0.961820 0.645793
0.749394 0.973505 0.674114
0.888952 0.973469 0.682293
0.934312 0.973467 0.682732
0.972533 0.973437 0.680341
0.131006 0.132709 0.521259
0.190301 0.132302 0.528140
0.314237 0.135750 0.560805
0.589249 0.147587 0.605107
0.738339 0.158918 0.629199
0.831187 0.165684 0.642640
0.133517 0.204772 0.552753
0.191891 0.205133 0.557357
0.319415 0.209407 0.592144
0.621740 0.221074 0.639720
0.765466 0.230166 0.660160
0.853566 0.236683 0.672108
0.176156 0.387357 0.659421
0.239280 0.398080 0.668722
0.369035 0.477236 0.720415
0.716749 0.530356 0.757567
0.851777 0.548811 0.770273
0.931199 0.556833 0.777868
0.289709 0.668000 0.758004
0.368339 0.694028 0.771889
0.540535 0.768515 0.808989
0.810962 0.811527 0.839351
0.928863 0.816028 0.842286
0.971741 0.815380 0.842564
0.374887 0.824982 0.795702
0.467635 0.864152 0.818349
0.656025 0.912230 0.850850
0.858080 0.933151 0.872732
0.933427 0.934532 0.877672
0.971817 0.934829 0.875182
0.452615 0.951661 0.832303
0.534948 0.971525 0.849919
0.718320 0.973536 0.873646
0.885284 0.973418 0.888860
0.933761 0.973394 0.891955
0.971825 0.973394 0.891908
0.136749 0.137628 0.671564
0.193522 0.137356 0.680124
0.331781 0.139143 0.707770
0.596605 0.154705 0.740670
0.745827 0.164804 0.766614
0.841067 0.171019 0.779477
0.137916 0.211066 0.698064
0.195057 0.211825 0.704131
0.340607 0.216604 0.733361
0.627240 0.228451 0.768954
0.775070 0.238678 0.793494
0.860731 0.243317 0.802955
0.184923 0.407924 0.791518
0.248661 0.422782 0.801814
0.387129 0.499940 0.844423
0.719275 0.547182 0.873283
0.857864 0.570784 0.888546
0.935304 0.577838 0.893360
0.303739 0.687528 0.874646
0.386144 0.718567 0.889813
0.559447 0.784430 0.922631
0.809170 0.818223 0.939142
0.919724 0.821925 0.940508
0.971374 0.824582 0.941132
0.398337 0.852253 0.913839
0.480988 0.878925 0.926156
0.670130 0.918827 0.941452
0.853306 0.934087 0.941933
0.933288 0.935119 0.942012
0.971625 0.935405 0.942316
0.464481 0.963629 0.937915
0.546215 0.973566 0.942178
0.726861 0.973494 0.942340
0.881562 0.973394 0.942358
0.933604 0.973401 0.942370
0.971667 0.973395 0.942389
0.140128 0.138183 0.768393
0.199160 0.138347 0.777634
0.357484 0.140886 0.801544
0.607375 0.158627 0.828521
0.750485 0.169568 0.850805
0.846883 0.175648 0.865807
0.142428 0.214772 0.791305
0.200150 0.215614 0.797780
0.367870 0.221776 0.825236
0.636987 0.233334 0.853513
0.778132 0.243456 0.874006
0.864587 0.247649 0.884520
0.194162 0.421556 0.876744
0.259851 0.442086 0.888860
0.415282 0.517744 0.928324
0.726070 0.556978 0.951932
0.859405 0.575158 0.964282
0.938340 0.585798 0.970085
0.320313 0.703824 0.956578
0.405551 0.739082 0.971334
0.586656 0.794494 0.980179
0.814083 0.821640 0.980316
0.923115 0.828596 0.980313
0.971647 0.832054 0.980352
0.424484 0.875778 0.980230
0.502648 0.896862 0.980260
0.684954 0.925427 0.980315
0.856693 0.935147 0.980410
0.933492 0.935435 0.980443
0.971563 0.935430 0.980443
0.480332 0.972443 0.980472
0.566860 0.973603 0.980552
0.739368 0.973516 0.980498
0.882905 0.973418 0.980474
0.933490 0.973413 0.980474
0.971533 0.973424 0.980474
