example_ofxGpuLutCube/bin/data/ofxGpuLutCube/LUT/T6 (smooth navy fade).cube
LUT_3D_SIZE 16
0.130219 0.130219 0.130219
0.139866 0.130272 0.130219
0.163086 0.130294 0.130257
0.189636 0.130219 0.130243
0.222870 0.130219 0.130266
0.282074 0.130219 0.130290
0.387946 0.130219 0.130298
0.509733 0.130219 0.130369
0.604084 0.137160 0.130436
0.668475 0.142938 0.130493
0.717295 0.147237 0.130574
0.757752 0.150018 0.130571
0.792743 0.151654 0.130615
0.823857 0.152649 0.130654
0.851957 0.153446 0.130672
0.876475 0.155020 0.130707
0.130219 0.132282 0.130223
0.139808 0.132293 0.130228
0.163115 0.132368 0.130256
0.189434 0.132367 0.130247
0.222917 0.133135 0.130268
0.282519 0.136870 0.130289
0.388891 0.144154 0.130332
0.510925 0.150425 0.130377
0.605725 0.156536 0.130465
0.670158 0.163073 0.130528
0.718678 0.167393 0.130598
0.759012 0.170613 0.130607
0.794096 0.172703 0.130650
0.825059 0.173942 0.130668
0.852795 0.174798 0.130714
0.877198 0.175099 0.130685
0.130310 0.155092 0.130272
0.139936 0.155453 0.130288
0.163012 0.155797 0.130251
0.189236 0.156109 0.130241
0.222432 0.156939 0.130257
0.282119 0.160577 0.130298
0.389479 0.167645 0.130313
0.512742 0.173375 0.130417
0.607954 0.178130 0.130496
0.671785 0.184568 0.130560
0.720140 0.188957 0.130593
0.760395 0.192228 0.130657
0.795559 0.194398 0.130663
0.826473 0.196051 0.130737
0.854193 0.197247 0.130721
0.878305 0.198115 0.130760
0.130292 0.181085 0.130310
0.141041 0.181567 0.130296
0.163666 0.182013 0.130322
0.189122 0.182540 0.130310
0.221863 0.183437 0.130313
0.280298 0.186347 0.130329
0.385125 0.192970 0.130383
0.507931 0.198367 0.130453
0.606189 0.201203 0.130493
0.671123 0.206610 0.130569
0.719643 0.211035 0.130629
0.760100 0.214327 0.130640
0.795375 0.216691 0.130725
0.826451 0.218596 0.130735
0.854155 0.219897 0.130796
0.878326 0.220973 0.130840
0.130282 0.210589 0.130343
0.144238 0.210902 0.130341
0.166339 0.211409 0.130340
0.190880 0.212530 0.130352
0.223538 0.214163 0.130355
0.286187 0.217203 0.130357
0.401083 0.222911 0.130441
0.522188 0.226902 0.130464
0.617269 0.228131 0.130541
0.679994 0.231461 0.130589
0.727803 0.235356 0.130681
0.767301 0.238502 0.130708
0.801076 0.240795 0.130747
0.829744 0.242300 0.130765
0.855109 0.243306 0.130788
0.878277 0.244349 0.130829
0.135152 0.249491 0.130402
0.153097 0.250078 0.130403
0.174750 0.250773 0.130425
0.199587 0.253001 0.130428
0.232964 0.259824 0.130434
0.302541 0.268975 0.130470
0.435459 0.275228 0.130564
0.561470 0.275394 0.130592
0.652255 0.272850 0.130639
0.711460 0.271629 0.130707
0.756300 0.272017 0.130758
0.790465 0.272830 0.130794
0.819210 0.273220 0.130806
0.843594 0.273099 0.130834
0.864579 0.272460 0.130866
0.884115 0.272096 0.130859
0.155738 0.310022 0.130506
0.174608 0.311084 0.130507
0.196371 0.313345 0.130516
0.223146 0.320419 0.130559
0.263181 0.341592 0.133783
0.342002 0.371222 0.141097
0.487546 0.389769 0.144792
0.617585 0.390220 0.146365
0.700458 0.381630 0.146758
0.752138 0.376421 0.147455
0.789201 0.373659 0.147959
0.816462 0.369788 0.147328
0.838874 0.364913 0.146042
0.859249 0.359838 0.144622
0.878477 0.355578 0.143554
0.896383 0.351339 0.142734
0.192140 0.398635 0.138727
0.211658 0.401717 0.139995
0.235021 0.407043 0.141595
0.267674 0.424229 0.146241
0.318119 0.462584 0.158180
0.409939 0.508890 0.175240
0.557805 0.535672 0.188302
0.674912 0.542661 0.193176
0.749784 0.539839 0.195367
0.798622 0.535353 0.195860
0.830701 0.530956 0.195164
0.854911 0.526920 0.194049
0.876756 0.523959 0.193160
0.896414 0.518287 0.191187
0.914782 0.512606 0.189174
0.932420 0.508570 0.187762
0.237248 0.500053 0.158473
0.257836 0.505215 0.160633
0.284594 0.515873 0.164726
0.324228 0.540733 0.174370
0.380534 0.580003 0.190430
0.482638 0.619930 0.209244
0.620487 0.643272 0.223440
0.712264 0.645146 0.225770
0.780072 0.647206 0.229446
0.829531 0.647562 0.231885
0.863662 0.646381 0.232412
0.888326 0.644283 0.231728
0.910512 0.642731 0.231177
0.930887 0.640483 0.230185
0.949520 0.636894 0.228523
0.966784 0.633991 0.227114
0.278796 0.585620 0.179913
0.300200 0.591860 0.182938
0.329320 0.604941 0.188934
0.374093 0.633246 0.201861
0.432988 0.667255 0.217601
0.543142 0.698570 0.235109
0.668452 0.719099 0.250243
0.744291 0.718607 0.252039
0.802237 0.718076 0.253967
0.850855 0.720207 0.257266
0.886190 0.720870 0.258905
0.910797 0.720059 0.258769
0.930691 0.718724 0.258032
0.946791 0.716982 0.257041
0.960941 0.714868 0.255777
0.973143 0.712579 0.254474
0.315623 0.656769 0.199809
0.340351 0.666466 0.204584
0.372548 0.682504 0.212440
0.415253 0.706403 0.224363
0.480054 0.734506 0.239450
0.594676 0.759783 0.256429
0.703874 0.775747 0.270683
0.771319 0.776959 0.274147
0.820609 0.773443 0.273638
0.865942 0.775289 0.276557
0.899556 0.776337 0.278436
0.919936 0.775884 0.278602
0.934444 0.775067 0.278180
0.948032 0.773669 0.277303
0.960954 0.772300 0.276372
0.973109 0.770901 0.275415
0.347992 0.716976 0.217076
0.374520 0.728598 0.223086
0.407868 0.745227 0.231904
0.450502 0.765366 0.243217
0.520647 0.787387 0.257048
0.633026 0.808192 0.273274
0.728770 0.821024 0.286484
0.790571 0.822925 0.290783
0.836816 0.819752 0.290257
0.877710 0.820123 0.291779
0.904607 0.821433 0.293804
0.919997 0.821215 0.294167
0.934443 0.820724 0.293996
0.948039 0.820062 0.293704
0.960978 0.819011 0.292973
0.973119 0.818000 0.292084
0.377570 0.770404 0.233087
0.403328 0.781353 0.239472
0.435873 0.795976 0.248103
0.482979 0.812878 0.258955
0.561928 0.831439 0.272391
0.666514 0.848944 0.287506
0.749611 0.859668 0.299816
0.807745 0.862614 0.305248
0.851598 0.860103 0.304828
0.884895 0.858404 0.304530
0.904685 0.859383 0.306189
0.919967 0.859538 0.306851
0.934400 0.859208 0.306815
0.948017 0.858916 0.306633
0.960953 0.858227 0.306268
0.973118 0.857262 0.305515
0.403316 0.817491 0.247831
0.427959 0.826678 0.253725
0.460755 0.839060 0.261798
0.515670 0.853830 0.272471
0.599598 0.869987 0.285610
0.694718 0.884597 0.299762
0.766657 0.893810 0.310980
0.821671 0.897491 0.317259
0.864173 0.895979 0.317532
0.888356 0.892917 0.316033
0.904671 0.892568 0.316492
0.919945 0.892975 0.317406
0.934387 0.892711 0.317431
0.948039 0.892505 0.317371
0.960982 0.892177 0.317272
0.973118 0.891447 0.316747
0.425488 0.858299 0.261649
0.448986 0.865948 0.266918
0.485642 0.876249 0.274452
0.547087 0.889859 0.285165
0.632390 0.904567 0.298229
0.717496 0.916936 0.311403
0.781652 0.925271 0.321909
0.833947 0.929537 0.328580
0.870134 0.928713 0.329696
0.888427 0.924934 0.327582
0.904681 0.922664 0.326540
0.919965 0.922870 0.327198
0.934403 0.922804 0.327473
0.948017 0.922638 0.327601
0.960987 0.922437 0.327648
0.973118 0.922178 0.327483
0.445404 0.894002 0.274417
0.470283 0.900733 0.279416
0.513301 0.910478 0.286911
0.578112 0.922918 0.297660
0.658992 0.935735 0.309988
0.734168 0.945881 0.321791
0.794502 0.954127 0.332100
0.844668 0.959227 0.339313
0.871300 0.958775 0.340797
0.888452 0.954532 0.338694
0.904673 0.950393 0.336036
0.919965 0.950045 0.336169
0.934375 0.949911 0.336307
0.948038 0.949849 0.336521
0.960938 0.949629 0.336602
0.973149 0.949309 0.336476
0.130219 0.130223 0.131903
0.140201 0.130220 0.131885
0.163132 0.130223 0.131890
0.188917 0.130240 0.131801
0.220286 0.130244 0.131753
0.275384 0.130220 0.131648
0.379994 0.130219 0.131297
0.504585 0.130219 0.131095
0.601900 0.136999 0.131191
0.667859 0.142631 0.131276
0.717434 0.146819 0.131382
0.758186 0.149704 0.131800
0.793461 0.151396 0.132203
0.824636 0.152465 0.132492
0.852530 0.153371 0.133570
0.877012 0.154682 0.135067
0.130220 0.132302 0.131948
0.140819 0.132324 0.131964
0.163558 0.132360 0.131931
0.189245 0.132359 0.131878
0.221020 0.132809 0.131780
0.277511 0.136222 0.131660
0.383533 0.143546 0.131399
0.509298 0.150100 0.131159
0.606146 0.156722 0.131270
0.670808 0.163224 0.131293
0.719715 0.167610 0.131615
0.759889 0.170604 0.132088
0.794913 0.172524 0.132444
0.825939 0.173888 0.133663
0.853664 0.174659 0.135330
0.877819 0.174832 0.136649
0.130319 0.155150 0.132015
0.141187 0.155581 0.132046
0.163734 0.155767 0.132036
0.189293 0.156132 0.131974
0.221095 0.156756 0.131881
0.277971 0.160020 0.131784
0.385219 0.167185 0.131548
0.511361 0.173196 0.131169
0.608897 0.178380 0.131290
0.673238 0.184665 0.131366
0.721325 0.189137 0.131797
0.761214 0.192210 0.132317
0.796038 0.194452 0.133101
0.826989 0.196138 0.135233
0.854669 0.197252 0.137091
0.878671 0.197922 0.138470
0.130235 0.181217 0.132131
0.142230 0.181567 0.132165
0.164267 0.181976 0.132315
0.189447 0.182496 0.132263
0.221174 0.183267 0.132078
0.277457 0.185994 0.131917
0.383289 0.192618 0.131642
0.509401 0.198316 0.131233
0.609099 0.201377 0.131293
0.674088 0.207191 0.131378
0.721997 0.211426 0.131980
0.762110 0.214560 0.132465
0.796831 0.217000 0.133961
0.827646 0.218817 0.136313
0.855209 0.220206 0.138178
0.879009 0.221053 0.139465
0.130231 0.210670 0.132423
0.145149 0.211043 0.132423
0.166662 0.211511 0.132599
0.191104 0.212422 0.132968
0.222860 0.213942 0.133136
0.283860 0.216893 0.132330
0.398121 0.222516 0.131842
0.521170 0.226753 0.131296
0.617560 0.228085 0.131348
0.680912 0.231757 0.131649
0.729037 0.235798 0.132284
0.768629 0.238877 0.133296
0.802371 0.241083 0.135718
0.831206 0.242608 0.137740
0.856640 0.243783 0.139214
0.879425 0.244476 0.140160
0.136291 0.250078 0.135439
0.154341 0.250495 0.135984
0.175162 0.251176 0.136425
0.199566 0.253081 0.137110
0.231866 0.259641 0.138907
0.299554 0.269304 0.139334
0.433011 0.275542 0.135562
0.561074 0.275990 0.133252
0.652239 0.273682 0.133992
0.711679 0.272038 0.135815
0.756568 0.272225 0.137595
0.790772 0.273023 0.139739
0.819678 0.273585 0.141371
0.844149 0.273594 0.142298
0.865171 0.273158 0.142730
0.884528 0.272788 0.143294
0.157661 0.312127 0.144453
0.176109 0.313213 0.145112
0.197227 0.314976 0.145798
0.223088 0.320471 0.147550
0.261840 0.340646 0.152835
0.338661 0.371742 0.161117
0.485037 0.391918 0.164527
0.616905 0.392699 0.165537
0.701827 0.385366 0.166511
0.753273 0.379490 0.167145
0.789982 0.375851 0.167322
0.817374 0.372919 0.167051
0.839567 0.367064 0.165396
0.859913 0.362281 0.164241
0.879152 0.358277 0.163310
0.897080 0.354113 0.162320
0.194418 0.401953 0.160359
0.213743 0.404998 0.161326
0.236390 0.409698 0.162785
0.267350 0.424011 0.166411
0.316340 0.460858 0.176783
0.405234 0.508648 0.193461
0.554749 0.538131 0.207167
0.674707 0.546390 0.212217
0.750930 0.543566 0.214449
0.799618 0.538468 0.214720
0.831787 0.534060 0.214023
0.856122 0.530414 0.212998
0.877683 0.526405 0.211879
0.897398 0.521069 0.210078
0.915804 0.515712 0.208265
0.933422 0.511274 0.206797
0.239866 0.503743 0.179210
0.260090 0.508660 0.181109
0.285110 0.517157 0.184457
0.323093 0.539537 0.192725
0.379214 0.579246 0.208318
0.477646 0.619954 0.226951
0.617999 0.645093 0.241847
0.712660 0.647882 0.244609
0.780889 0.650490 0.248461
0.830452 0.651216 0.251140
0.864983 0.649827 0.251540
0.889606 0.647225 0.250651
0.911780 0.645734 0.250161
0.932200 0.643615 0.249247
0.950750 0.639993 0.247615
0.967564 0.636582 0.246141
0.281534 0.589459 0.200084
0.302936 0.595337 0.203021
0.330457 0.606479 0.207952
0.373182 0.632663 0.219847
0.430672 0.667188 0.235619
0.537287 0.699310 0.253017
0.667123 0.721136 0.268854
0.745145 0.721939 0.271569
0.803175 0.721600 0.273479
0.851835 0.723813 0.276887
0.887555 0.724595 0.278574
0.912265 0.723896 0.278489
0.931142 0.722610 0.277796
0.947175 0.721099 0.277003
0.960956 0.718752 0.275650
0.973112 0.716218 0.274178
0.318549 0.660279 0.219949
0.342153 0.668733 0.224122
0.373093 0.683375 0.231179
0.415089 0.707063 0.242968
0.476624 0.735851 0.258132
0.589503 0.761729 0.275127
0.702877 0.778423 0.289971
0.773790 0.781912 0.295034
0.822144 0.777940 0.294179
0.867185 0.779525 0.296910
0.900264 0.780733 0.298904
0.919940 0.780441 0.299181
0.934398 0.779840 0.298972
0.948017 0.778534 0.298069
0.960943 0.776822 0.296957
0.973100 0.775051 0.295902
0.350822 0.720425 0.237230
0.376785 0.731382 0.242970
0.409763 0.747793 0.251655
0.451171 0.768066 0.262930
0.518421 0.790130 0.276681
0.629343 0.811058 0.292795
0.728307 0.824424 0.306451
0.793953 0.829141 0.313037
0.839152 0.825340 0.311956
0.879019 0.824803 0.312922
0.904612 0.826280 0.314956
0.919966 0.826335 0.315646
0.934387 0.825928 0.315552
0.948040 0.825299 0.315300
0.960961 0.824043 0.314418
0.973118 0.822698 0.313346
0.380448 0.774107 0.253721
0.406846 0.785422 0.260296
0.439088 0.800025 0.268961
0.483363 0.816480 0.279542
0.559090 0.834814 0.292652
0.664152 0.852473 0.307928
0.749680 0.863804 0.320574
0.810705 0.869158 0.328164
0.854996 0.867066 0.328121
0.885512 0.863774 0.326509
0.904678 0.864576 0.328074
0.919976 0.864991 0.329007
0.934392 0.864578 0.328932
0.948003 0.864173 0.328727
0.960970 0.863573 0.328366
0.973117 0.862626 0.327580
0.407421 0.822124 0.269283
0.432531 0.831748 0.275485
0.464632 0.843840 0.283459
0.516221 0.858116 0.293771
0.597639 0.874029 0.306563
0.693177 0.888759 0.320810
0.767643 0.898672 0.332620
0.824923 0.904462 0.340664
0.866182 0.904163 0.342076
0.888345 0.898937 0.338750
0.904675 0.897870 0.338734
0.919965 0.898309 0.339607
0.934393 0.897976 0.339605
0.947994 0.897663 0.339391
0.960929 0.897213 0.339137
0.973125 0.896607 0.338711
0.430087 0.863160 0.282726
0.453526 0.870681 0.288098
0.488636 0.880671 0.295300
0.547426 0.893874 0.305766
0.631142 0.908501 0.318580
0.716367 0.920730 0.331601
0.782670 0.929771 0.342738
0.836806 0.935749 0.350813
0.870724 0.936462 0.353333
0.888427 0.930920 0.349747
0.904654 0.927579 0.347741
0.919951 0.927415 0.348089
0.934373 0.927372 0.348325
0.947993 0.927227 0.348298
0.960980 0.926982 0.348207
0.973115 0.926577 0.347970
0.449360 0.898057 0.293992
0.473967 0.904741 0.299052
0.514481 0.914103 0.306274
0.578282 0.926290 0.316671
0.659781 0.939323 0.329195
0.734809 0.949512 0.340965
0.795206 0.957651 0.351150
0.845731 0.963001 0.359006
0.871355 0.964075 0.362123
0.888560 0.960188 0.359535
0.904660 0.954842 0.355714
0.919948 0.953890 0.355470
0.934386 0.953784 0.355704
0.947986 0.953555 0.355665
0.960917 0.953274 0.355476
0.973115 0.952854 0.355215
0.130219 0.130286 0.153667
0.140311 0.130221 0.153589
0.162819 0.130225 0.153485
0.188114 0.130247 0.153209
0.218232 0.130231 0.152600
0.266027 0.130244 0.151664
0.364421 0.130230 0.148928
0.491154 0.130219 0.144403
0.594832 0.135812 0.141183
0.663639 0.141913 0.141478
0.714324 0.146208 0.144980
0.755670 0.149033 0.148358
0.791209 0.150848 0.150882
0.822468 0.151980 0.153030
0.850644 0.152855 0.154673
0.875507 0.154175 0.156194
0.130219 0.132334 0.154158
0.141264 0.132350 0.154190
0.163627 0.132350 0.154009
0.188725 0.132373 0.153596
0.219097 0.132854 0.152907
0.268269 0.135581 0.151743
0.369504 0.142401 0.149139
0.497801 0.149664 0.145360
0.600879 0.156106 0.142138
0.668353 0.162731 0.143078
0.718065 0.167343 0.147047
0.758890 0.170342 0.150272
0.793929 0.172354 0.152831
0.824972 0.173754 0.154943
0.852829 0.174427 0.156497
0.877021 0.174592 0.157702
0.130219 0.155540 0.154469
0.142076 0.156136 0.154806
0.164497 0.156058 0.154797
0.189327 0.156192 0.154315
0.220018 0.156685 0.153315
0.272076 0.159354 0.152110
0.376530 0.166483 0.149853
0.505719 0.173027 0.146088
0.607171 0.178464 0.142736
0.672565 0.184695 0.144857
0.720986 0.189133 0.148664
0.760999 0.192249 0.151965
0.795918 0.194450 0.154505
0.826925 0.196091 0.156687
0.854662 0.197283 0.158414
0.878690 0.197914 0.159566
0.130219 0.181438 0.155280
0.143325 0.181776 0.155423
0.165067 0.182276 0.155884
0.189619 0.182659 0.155722
0.220507 0.183231 0.154543
0.273936 0.185589 0.152741
0.380897 0.192197 0.150632
0.509642 0.198334 0.146754
0.611053 0.201732 0.143519
0.675958 0.207437 0.146115
0.723072 0.211615 0.149868
0.762786 0.214744 0.153177
0.797423 0.217067 0.155809
0.828192 0.218855 0.158068
0.855634 0.220143 0.159761
0.879323 0.221029 0.161007
0.130219 0.211109 0.156930
0.146413 0.211235 0.156768
0.167533 0.211720 0.157062
0.191303 0.212566 0.157585
0.221987 0.213977 0.157338
0.279962 0.216531 0.155037
0.393409 0.222095 0.151507
0.519472 0.226629 0.147135
0.619172 0.228112 0.144836
0.683387 0.232131 0.147896
0.731598 0.236209 0.152114
0.770873 0.239269 0.155423
0.804410 0.241426 0.157906
0.832945 0.242896 0.159702
0.858321 0.244067 0.161116
0.880791 0.244810 0.162091
0.137591 0.251003 0.161025
0.155740 0.251466 0.161022
0.176253 0.251972 0.161139
0.199750 0.253468 0.161544
0.230656 0.259419 0.162950
0.293975 0.269335 0.163217
0.428280 0.276102 0.158589
0.559524 0.276250 0.154233
0.652090 0.273929 0.154278
0.712014 0.272484 0.156882
0.757241 0.272648 0.159574
0.791248 0.273388 0.161474
0.820035 0.274179 0.162992
0.844563 0.274291 0.163922
0.865778 0.274028 0.164440
0.885032 0.273766 0.164893
0.160239 0.314855 0.169596
0.178768 0.316134 0.169995
0.199075 0.317596 0.170330
0.223372 0.321296 0.171185
0.259840 0.339560 0.175381
0.332385 0.371904 0.182974
0.480149 0.394474 0.186258
0.614897 0.394859 0.186352
0.703067 0.388945 0.187667
0.754775 0.383207 0.188223
0.790821 0.377911 0.187882
0.817896 0.374221 0.187382
0.840233 0.369302 0.186219
0.860751 0.365194 0.185295
0.880370 0.362674 0.184952
0.898475 0.359975 0.184493
0.198265 0.407585 0.184642
0.217046 0.410181 0.185385
0.238581 0.414084 0.186390
0.267035 0.424897 0.188812
0.312852 0.457507 0.197041
0.397713 0.507865 0.213043
0.549940 0.541169 0.227267
0.673635 0.550877 0.232810
0.752162 0.548720 0.235158
0.801566 0.543673 0.235581
0.833505 0.538642 0.234644
0.857571 0.534393 0.233441
0.879063 0.530123 0.232158
0.898684 0.524676 0.230467
0.917449 0.520046 0.229034
0.934902 0.515595 0.227621
0.243143 0.509182 0.202161
0.262822 0.513222 0.203571
0.286377 0.520099 0.205913
0.322155 0.539286 0.212776
0.376463 0.577665 0.227064
0.469997 0.620223 0.245814
0.612655 0.647927 0.261685
0.712884 0.652527 0.265302
0.781888 0.655235 0.269215
0.832163 0.656926 0.272348
0.867129 0.655325 0.272755
0.891862 0.652271 0.271628
0.913880 0.650487 0.270939
0.934151 0.648246 0.270052
0.952775 0.644994 0.268770
0.968941 0.641837 0.267258
0.284640 0.594283 0.221734
0.305544 0.599811 0.224282
0.332433 0.609964 0.228791
0.372841 0.632993 0.239140
0.429186 0.667849 0.254924
0.531081 0.701454 0.272597
0.663514 0.724453 0.289001
0.746295 0.727076 0.292928
0.804360 0.727148 0.295020
0.853343 0.730025 0.298802
0.889708 0.730986 0.300657
0.914240 0.729892 0.300368
0.932071 0.728147 0.299454
0.947821 0.726689 0.298718
0.960920 0.724719 0.297627
0.973095 0.722183 0.296107
0.321086 0.664334 0.240993
0.344030 0.671980 0.244787
0.374581 0.685824 0.251462
0.416156 0.709135 0.263140
0.473179 0.738220 0.278281
0.581150 0.764839 0.295341
0.699600 0.782691 0.310715
0.775484 0.788365 0.317586
0.823650 0.784236 0.316677
0.868808 0.786319 0.319665
0.901690 0.787876 0.321879
0.919988 0.787409 0.322152
0.934382 0.786587 0.321854
0.948027 0.785266 0.320999
0.960885 0.783427 0.319831
0.973093 0.781543 0.318578
0.353377 0.723904 0.258249
0.378603 0.734064 0.263567
0.411957 0.750723 0.272465
0.453084 0.771909 0.284262
0.514832 0.794242 0.298001
0.622631 0.815541 0.314120
0.726223 0.829634 0.328311
0.796597 0.836336 0.336686
0.842324 0.833392 0.336339
0.880623 0.832415 0.336757
0.904617 0.833778 0.338865
0.919973 0.833969 0.339722
0.934376 0.833563 0.339724
0.947996 0.832916 0.339391
0.960914 0.831406 0.338315
0.973089 0.829383 0.336791
0.382983 0.777278 0.274797
0.409103 0.788361 0.281271
0.442160 0.804103 0.290614
0.484155 0.820996 0.301479
0.555324 0.839598 0.314730
0.659733 0.857796 0.330129
0.748088 0.869662 0.343276
0.812990 0.876587 0.352380
0.858821 0.876017 0.353717
0.886803 0.871973 0.351510
0.904675 0.872176 0.352586
0.919936 0.872715 0.353677
0.934381 0.872388 0.353760
0.947991 0.872017 0.353619
0.960921 0.871445 0.353343
0.973094 0.870082 0.352345
0.410154 0.825450 0.290849
0.436016 0.835845 0.297521
0.468180 0.848841 0.306170
0.515166 0.862935 0.316292
0.593071 0.879322 0.329321
0.690677 0.894730 0.343950
0.767145 0.904872 0.356034
0.827180 0.912119 0.365406
0.868226 0.913793 0.368713
0.888376 0.907889 0.364896
0.904654 0.906073 0.364263
0.919907 0.906463 0.365219
0.934352 0.906117 0.365301
0.947980 0.905821 0.365188
0.960919 0.905481 0.365036
0.973094 0.904937 0.364710
0.434352 0.867718 0.305589
0.458866 0.876463 0.311789
0.492584 0.886934 0.319348
0.546442 0.899814 0.329387
0.627463 0.914511 0.342274
0.715603 0.927388 0.355783
0.783116 0.936336 0.366857
0.839280 0.943416 0.375989
0.871136 0.946726 0.380956
0.888427 0.941145 0.377516
0.904644 0.936724 0.374583
0.919933 0.936219 0.374743
0.934338 0.935939 0.374901
0.947982 0.935600 0.374833
0.960922 0.935368 0.374680
0.973094 0.934946 0.374465
0.455012 0.903948 0.318316
0.479931 0.911372 0.323762
0.516819 0.920552 0.330782
0.576460 0.932368 0.340813
0.657114 0.945682 0.353468
0.734311 0.956353 0.365635
0.796107 0.964103 0.375908
0.847916 0.969439 0.384650
0.871496 0.972341 0.390083
0.888747 0.969871 0.388244
0.904770 0.964584 0.383604
0.920003 0.962670 0.382684
0.934362 0.962455 0.382814
0.947986 0.962069 0.382630
0.960944 0.961816 0.382551
0.973096 0.961493 0.382408
0.130219 0.130243 0.181269
0.140413 0.130258 0.181266
0.163075 0.130228 0.181351
0.187965 0.130274 0.181332
0.216941 0.130231 0.181092
0.258415 0.130249 0.180347
0.340596 0.130221 0.178406
0.461323 0.130219 0.174735
0.573212 0.133673 0.171475
0.648813 0.139653 0.170225
0.703031 0.144301 0.170571
0.746018 0.147360 0.171903
0.782609 0.149597 0.173605
0.814994 0.150757 0.175428
0.844207 0.151792 0.176897
0.870406 0.153581 0.178235
0.130219 0.132445 0.181790
0.141402 0.132451 0.181723
0.163543 0.132512 0.181801
0.188247 0.132602 0.181761
0.216895 0.133233 0.181425
0.259033 0.135175 0.180448
0.344561 0.141198 0.178391
0.469732 0.148646 0.174610
0.581994 0.154311 0.171344
0.656216 0.160817 0.170527
0.708922 0.165774 0.171436
0.751199 0.169051 0.173288
0.787150 0.171261 0.175239
0.818783 0.172702 0.176986
0.847143 0.173532 0.178338
0.872531 0.173985 0.179496
0.130224 0.155800 0.182173
0.142294 0.156296 0.182351
0.164569 0.156438 0.182443
0.188880 0.156585 0.182413
0.217684 0.157044 0.181913
0.262168 0.158846 0.180609
0.354879 0.165076 0.178133
0.483164 0.172174 0.174698
0.592626 0.177116 0.171767
0.664065 0.183356 0.171320
0.715035 0.188192 0.172724
0.756323 0.191570 0.174863
0.792070 0.193831 0.176967
0.823527 0.195615 0.178757
0.851582 0.196962 0.180314
0.876419 0.197716 0.181432
0.130219 0.181975 0.183268
0.143721 0.182368 0.183464
0.165977 0.182912 0.183820
0.190255 0.183277 0.183899
0.219316 0.183585 0.183129
0.268104 0.185266 0.180973
0.372748 0.191745 0.178142
0.502623 0.198154 0.174589
0.607071 0.201604 0.171563
0.673891 0.207330 0.171762
0.722066 0.211501 0.173638
0.762048 0.214666 0.176105
0.796717 0.217014 0.178454
0.827546 0.218765 0.180338
0.855157 0.220177 0.181877
0.879179 0.220991 0.183133
0.130219 0.211846 0.185372
0.146799 0.212093 0.185423
0.168695 0.212491 0.185481
0.192163 0.213236 0.185691
0.220682 0.214520 0.185572
0.273549 0.216577 0.182734
0.388919 0.221774 0.178338
0.519403 0.226607 0.174542
0.622475 0.228472 0.171428
0.686865 0.232638 0.172617
0.734141 0.236627 0.175630
0.772512 0.239581 0.178357
0.805310 0.241586 0.180488
0.833451 0.243003 0.182063
0.858819 0.244116 0.183403
0.881358 0.244834 0.184399
0.138558 0.253243 0.190936
0.157338 0.253442 0.190778
0.178124 0.253594 0.190092
0.201090 0.254748 0.190049
0.229392 0.260014 0.190858
0.284342 0.269970 0.190823
0.420575 0.277865 0.184957
0.556220 0.277686 0.179811
0.651776 0.274816 0.178228
0.713036 0.273224 0.179897
0.758767 0.274161 0.182654
0.792371 0.275383 0.184590
0.820745 0.276327 0.185921
0.845187 0.276309 0.186706
0.866400 0.275838 0.187187
0.885619 0.275080 0.187416
0.163752 0.319440 0.200912
0.182308 0.320790 0.200918
0.202482 0.322173 0.200743
0.225485 0.324975 0.200542
0.258430 0.339484 0.202503
0.321625 0.372754 0.208471
0.470478 0.399667 0.210896
0.612908 0.401010 0.209755
0.704135 0.394574 0.210588
0.756907 0.388690 0.211076
0.792926 0.384788 0.211235
0.819633 0.380097 0.210486
0.842321 0.377338 0.210076
0.863035 0.374316 0.209531
0.882864 0.372599 0.209403
0.901282 0.371246 0.209439
0.203908 0.416016 0.216690
0.222502 0.418540 0.216927
0.243275 0.421873 0.217014
0.268983 0.429310 0.217562
0.310520 0.456513 0.222415
0.387438 0.508569 0.235552
0.541278 0.546980 0.249843
0.671170 0.558035 0.255419
