example_ofxGpuLutCube/bin/data/ofxGpuLutCube/LUT/T7 (teal fade).cube
LUT_3D_SIZE 6
0.042320 0.047509 0.049561
0.120279 0.060356 0.052765
0.238909 0.081838 0.053437
0.423209 0.104423 0.060009
0.619765 0.127974 0.085019
0.759709 0.149233 0.101822
0.049942 0.126359 0.067623
0.122279 0.131282 0.067296
0.256132 0.144946 0.058634
0.436231 0.168136 0.062306
0.609145 0.189148 0.081983
0.738042 0.207496 0.096547
0.060030 0.233916 0.097282
0.124225 0.241249 0.092900
0.261636 0.240651 0.087244
0.472839 0.252184 0.071880
0.646931 0.287216 0.088049
0.769424 0.320630 0.096504
0.059747 0.352894 0.132287
0.126563 0.362774 0.123719
0.248251 0.393764 0.123088
0.493389 0.393790 0.101086
0.691409 0.416224 0.106002
0.821688 0.458834 0.114006
0.082126 0.494140 0.167699
0.158811 0.507775 0.162312
0.298353 0.556540 0.166660
0.570840 0.616097 0.169545
0.755294 0.613098 0.148189
0.885921 0.629739 0.148363
0.104759 0.638981 0.186609
0.193925 0.667572 0.179958
0.358615 0.734815 0.189793
0.630072 0.803026 0.207496
0.798351 0.825482 0.189900
0.927420 0.822172 0.167076
0.042043 0.069788 0.120295
0.114469 0.071690 0.118754
0.235120 0.092043 0.123076
0.426723 0.113040 0.108594
0.623015 0.140939 0.129133
0.759215 0.162048 0.146435
0.044724 0.128840 0.140290
0.113488 0.134940 0.138657
0.253847 0.150219 0.129119
0.442195 0.164245 0.109318
0.608147 0.184212 0.127652
0.734300 0.202333 0.141208
0.049154 0.245018 0.176846
0.105234 0.242965 0.159098
0.251816 0.246233 0.150278
0.464648 0.257541 0.114871
0.634553 0.290838 0.127578
0.759398 0.322810 0.136945
0.052377 0.360459 0.201851
0.107988 0.367918 0.183243
0.228706 0.389492 0.183162
0.482872 0.403150 0.154642
0.684016 0.424145 0.153690
0.820440 0.469336 0.163191
0.079241 0.499066 0.250239
0.145560 0.512221 0.227801
0.274301 0.549859 0.225858
0.547013 0.624580 0.227833
0.748225 0.627400 0.200193
0.886876 0.642954 0.204048
0.107083 0.662282 0.275053
0.175194 0.677961 0.248221
0.328146 0.726994 0.244242
0.599063 0.804829 0.260521
0.794522 0.845547 0.266983
0.931369 0.837477 0.227442
0.042534 0.108241 0.215112
0.098905 0.108517 0.209603
0.216184 0.116149 0.204855
0.405418 0.144613 0.206543
0.598104 0.178578 0.220310
0.741402 0.199125 0.221154
0.044475 0.159915 0.236869
0.093104 0.167692 0.240376
0.228398 0.172171 0.228433
0.420543 0.191938 0.218363
0.596162 0.214177 0.213639
0.728605 0.232916 0.210602
0.048026 0.239094 0.265217
0.088268 0.248608 0.268015
0.212968 0.259787 0.267775
0.453722 0.270289 0.235525
0.630535 0.286697 0.219283
0.761551 0.305477 0.217173
0.058499 0.401370 0.330434
0.095174 0.397992 0.311828
0.179727 0.398888 0.285070
0.464022 0.425628 0.267847
0.673378 0.446976 0.259473
0.814067 0.492443 0.258817
0.090514 0.552515 0.392740
0.127399 0.538453 0.362280
0.234726 0.561384 0.332593
0.504688 0.627102 0.338785
0.739220 0.651116 0.300668
0.886596 0.662372 0.283983
0.118249 0.702338 0.441457
0.157443 0.704353 0.399778
0.273007 0.756853 0.347848
0.557955 0.811273 0.363929
0.783121 0.857363 0.387344
0.930777 0.852291 0.313122
0.050269 0.162424 0.340758
0.097098 0.160888 0.328562
0.184258 0.168496 0.323277
0.359677 0.182896 0.301926
0.553287 0.199124 0.294557
0.688074 0.225370 0.309984
0.051172 0.211112 0.361750
0.094383 0.216560 0.366750
0.177662 0.218158 0.352083
0.362888 0.227019 0.317375
0.539555 0.240147 0.303887
0.667450 0.267516 0.320036
0.053562 0.273673 0.388034
0.092914 0.284035 0.395912
0.166709 0.296992 0.408177
0.374960 0.304654 0.368731
0.571406 0.322431 0.357163
0.711484 0.350353 0.371780
0.055846 0.371558 0.409138
0.095971 0.387877 0.420593
0.144756 0.413453 0.444117
0.390094 0.448642 0.457226
0.649226 0.479579 0.455565
0.805748 0.507935 0.459987
0.089586 0.551354 0.517458
0.135940 0.584379 0.530089
0.183169 0.613876 0.540130
0.408499 0.635315 0.508847
0.722220 0.683053 0.503276
0.887096 0.705858 0.516544
0.122608 0.725076 0.614495
0.169129 0.752010 0.602585
0.214561 0.772042 0.578611
0.476399 0.826334 0.523948
0.753792 0.867382 0.548164
0.932978 0.872584 0.483627
0.065728 0.220148 0.466419
0.107684 0.217792 0.448732
0.186689 0.224755 0.435471
0.325718 0.235088 0.412706
0.495514 0.251240 0.390897
0.657949 0.258190 0.379108
0.066048 0.264700 0.483541
0.107226 0.267296 0.486420
0.177968 0.267476 0.460758
0.318106 0.273788 0.426200
0.479911 0.288282 0.405506
0.633159 0.295449 0.394831
0.065206 0.319491 0.503409
0.105417 0.327473 0.510521
0.164435 0.338457 0.524448
0.321649 0.339772 0.493455
0.517059 0.357786 0.461627
0.681586 0.371144 0.458459
0.066062 0.406240 0.522196
0.106522 0.421312 0.536720
0.149579 0.445637 0.564109
0.331955 0.482392 0.599124
0.597969 0.507748 0.586124
0.780405 0.542232 0.597707
0.088906 0.534720 0.591690
0.133239 0.558374 0.608814
0.181000 0.592469 0.638873
0.349378 0.641202 0.678660
0.689667 0.701597 0.708606
0.880414 0.736925 0.724644
0.117224 0.691213 0.691575
0.165192 0.729683 0.711213
0.218149 0.781416 0.744438
0.330190 0.831546 0.759725
0.713732 0.880132 0.727581
0.929718 0.893756 0.714581
0.077739 0.271333 0.573408
0.118633 0.268673 0.553277
0.193576 0.272542 0.530286
0.328886 0.279092 0.515611
0.470672 0.295111 0.501027
0.626600 0.301415 0.482274
0.076349 0.311825 0.588962
0.116567 0.311848 0.588950
0.180223 0.309695 0.555210
0.306850 0.306285 0.525568
0.455681 0.322591 0.512514
0.602257 0.333178 0.494361
0.073863 0.359876 0.600383
0.114695 0.365106 0.605435
0.164067 0.375001 0.619845
0.295159 0.373081 0.586249
0.481739 0.389237 0.576928
0.672507 0.400928 0.551228
0.074041 0.443595 0.620687
0.114707 0.457277 0.633980
0.158215 0.479451 0.659489
0.307713 0.512528 0.696131
0.544291 0.530794 0.705633
0.771316 0.554977 0.717782
0.095343 0.557270 0.681483
0.139750 0.579568 0.702549
0.188095 0.612230 0.736075
0.326905 0.657890 0.779005
0.646536 0.715384 0.833219
0.870383 0.739445 0.845840
0.115327 0.677378 0.752889
0.162866 0.711682 0.779754
0.213954 0.752864 0.815357
0.323023 0.798706 0.851869
0.670450 0.857051 0.888934
0.913191 0.903210 0.901681
