example_ofxGpuLutCube/bin/data/ofxGpuLutCube/LUT/T7 (teal fade).cube
LUT_3D_SIZE 16
0.042320 0.047509 0.049561
0.060613 0.050076 0.050107
0.087395 0.054272 0.051164
0.120279 0.060356 0.052765
0.155729 0.067579 0.054173
0.194776 0.074733 0.054771
0.238909 0.081838 0.053437
0.291214 0.089447 0.050664
0.354830 0.096698 0.053257
0.423209 0.104423 0.060009
0.489309 0.113063 0.067994
0.555361 0.120842 0.076553
0.619765 0.127974 0.085019
0.677788 0.134931 0.092396
0.730413 0.144127 0.098934
0.759709 0.149233 0.101822
0.044256 0.069168 0.053883
0.061619 0.069942 0.053852
0.089842 0.072551 0.053581
0.123528 0.078835 0.055470
0.160275 0.085506 0.056989
0.201012 0.091955 0.057176
0.247780 0.098642 0.054993
0.302573 0.105676 0.052486
0.367512 0.112665 0.056104
0.436653 0.120763 0.062937
0.503021 0.128711 0.070674
0.565768 0.135972 0.078685
0.623644 0.142839 0.086181
0.676985 0.149475 0.092805
0.726921 0.156722 0.098912
0.755497 0.161044 0.101616
0.046600 0.095088 0.059419
0.062225 0.097329 0.059853
0.087668 0.098240 0.059253
0.124988 0.099678 0.058286
0.162951 0.106798 0.059353
0.204709 0.114827 0.059443
0.253234 0.121648 0.056890
0.309213 0.127729 0.053830
0.373687 0.133156 0.056765
0.441015 0.139496 0.063283
0.503496 0.146367 0.070521
0.561687 0.153252 0.077634
0.616749 0.160217 0.084568
0.668760 0.167237 0.091092
0.717826 0.174280 0.096930
0.745793 0.178414 0.099507
0.049942 0.126359 0.067623
0.065057 0.129568 0.067152
0.087832 0.131588 0.067521
0.122279 0.131282 0.067296
0.163462 0.131396 0.064040
0.207587 0.137499 0.062006
0.256132 0.144946 0.058634
0.310454 0.152897 0.055194
0.371808 0.160598 0.056715
0.436231 0.168136 0.062306
0.496877 0.175274 0.068947
0.554338 0.182251 0.075482
0.609145 0.189148 0.081983
0.661003 0.196283 0.088267
0.710076 0.203504 0.093995
0.738042 0.207496 0.096547
0.053701 0.162473 0.077296
0.068818 0.165404 0.076282
0.089804 0.167360 0.075518
0.121988 0.168688 0.078679
0.161700 0.167340 0.075536
0.207943 0.164928 0.068962
0.259631 0.169296 0.063007
0.317463 0.176802 0.059061
0.381047 0.185358 0.059714
0.445511 0.194871 0.064961
0.505324 0.204550 0.070618
0.561407 0.214006 0.076200
0.614759 0.223068 0.081826
0.665978 0.232200 0.087244
0.714609 0.241070 0.092186
0.742177 0.245908 0.094211
0.057006 0.198514 0.087332
0.072238 0.200427 0.085805
0.091842 0.202778 0.083468
0.123024 0.204738 0.085954
0.161930 0.206120 0.089263
0.207607 0.202358 0.081740
0.261271 0.198649 0.072606
0.323246 0.202696 0.064248
0.392336 0.211616 0.063699
0.460633 0.222191 0.068529
0.522056 0.233152 0.073988
0.577909 0.243844 0.079347
0.630050 0.254462 0.084625
0.679683 0.265629 0.089450
0.726839 0.277115 0.093545
0.753651 0.283992 0.094332
0.060030 0.233916 0.097282
0.075280 0.235410 0.095919
0.094657 0.237571 0.093089
0.124225 0.241249 0.092900
0.161324 0.243829 0.097805
0.208473 0.247041 0.093363
0.261636 0.240651 0.087244
0.326332 0.235845 0.073417
0.400412 0.241851 0.067434
0.472839 0.252184 0.071880
0.537021 0.263731 0.077457
0.594748 0.275415 0.082999
0.646931 0.287216 0.088049
0.695501 0.299590 0.092355
0.741934 0.312657 0.096022
0.769424 0.320630 0.096504
0.061860 0.271254 0.108031
0.076961 0.272098 0.106874
0.096098 0.274397 0.103729
0.125616 0.278479 0.102163
0.160583 0.283747 0.103833
0.203407 0.289707 0.105166
0.260629 0.294552 0.098632
0.326945 0.284381 0.087648
0.403937 0.280429 0.075795
0.480371 0.287425 0.075159
0.547296 0.298471 0.080851
0.606475 0.310253 0.086536
0.660534 0.323250 0.091526
0.710650 0.336995 0.095733
0.757636 0.351839 0.099084
0.786298 0.360943 0.099164
0.061169 0.310533 0.120532
0.076053 0.311546 0.119183
0.096262 0.314484 0.114868
0.126096 0.319104 0.112737
0.159089 0.326288 0.112266
0.197837 0.333132 0.115266
0.252514 0.345309 0.111414
0.325342 0.350004 0.106276
0.405809 0.335316 0.092412
0.485300 0.333831 0.084812
0.556155 0.341287 0.086330
0.618063 0.352475 0.090567
0.674173 0.366015 0.095820
0.725941 0.381018 0.100217
0.774507 0.397390 0.103241
0.803774 0.407593 0.103615
0.059747 0.352894 0.132287
0.074568 0.355276 0.129300
0.097438 0.358043 0.125972
0.126563 0.362774 0.123719
0.159033 0.370575 0.122399
0.196822 0.379261 0.124462
0.248251 0.393764 0.123088
0.322535 0.408457 0.125970
0.414330 0.409061 0.115488
0.493389 0.393790 0.101086
0.568370 0.396266 0.099900
0.633577 0.404870 0.102724
0.691409 0.416224 0.106002
0.744114 0.430883 0.109298
0.792967 0.447392 0.112662
0.821688 0.458834 0.114006
0.061210 0.398073 0.141307
0.077317 0.400674 0.138690
0.102244 0.403175 0.137226
0.131774 0.408404 0.135234
0.165572 0.416864 0.134919
0.204959 0.428250 0.136847
0.255555 0.444133 0.137261
0.330553 0.464668 0.140351
0.428612 0.477883 0.140701
0.515188 0.471026 0.122606
0.586830 0.462778 0.116692
0.653708 0.466148 0.118473
0.712666 0.474696 0.120457
0.765390 0.485400 0.122806
0.813584 0.500714 0.125050
0.842588 0.511673 0.125896
0.067819 0.445838 0.153331
0.084700 0.448725 0.151100
0.110612 0.452140 0.149725
0.142397 0.457535 0.148372
0.178574 0.467810 0.148758
0.221166 0.481807 0.150557
0.273526 0.499144 0.151925
0.350503 0.521487 0.153976
0.452787 0.542504 0.159376
0.542342 0.544812 0.147198
0.613043 0.537991 0.134653
0.676497 0.536182 0.133735
0.735505 0.540214 0.135775
0.787396 0.548624 0.136711
0.834955 0.558966 0.137290
0.864768 0.568775 0.137279
0.082126 0.494140 0.167699
0.099885 0.496741 0.166290
0.126291 0.501078 0.164604
0.158811 0.507775 0.162312
0.197367 0.520948 0.162332
0.243269 0.537680 0.164711
0.298353 0.556540 0.166660
0.377988 0.580134 0.166953
0.480836 0.604584 0.174576
0.570840 0.616097 0.169545
0.640780 0.612332 0.154681
0.700386 0.610259 0.148493
0.755294 0.613098 0.148189
0.807881 0.616477 0.149235
0.854872 0.623893 0.149377
0.885921 0.629739 0.148363
0.098191 0.542464 0.181999
0.116912 0.545854 0.180845
0.143929 0.550829 0.178567
0.177443 0.560364 0.174963
0.218547 0.577024 0.174346
0.268048 0.597117 0.175833
0.327164 0.618047 0.176620
0.408585 0.642585 0.179394
0.509530 0.668136 0.187528
0.596403 0.685119 0.189831
0.665334 0.690010 0.177706
0.722623 0.685772 0.164431
0.772838 0.685491 0.159746
0.822760 0.689114 0.158892
0.874163 0.692402 0.158415
0.905945 0.696078 0.158169
0.104395 0.602393 0.185767
0.124393 0.607829 0.183606
0.154012 0.613956 0.180472
0.191308 0.624383 0.176906
0.236414 0.640654 0.177182
0.288189 0.661921 0.180415
0.351156 0.685539 0.184741
0.433821 0.710105 0.190257
0.533455 0.734086 0.197923
0.619657 0.751936 0.201899
0.685361 0.763181 0.199212
0.740060 0.767340 0.187288
0.788718 0.762456 0.173842
0.835558 0.762379 0.167922
0.885980 0.764326 0.165980
0.922446 0.763105 0.164343
0.104759 0.638981 0.186609
0.124260 0.645330 0.185268
0.154893 0.653477 0.182919
0.193925 0.667572 0.179958
0.239943 0.687988 0.180926
0.293980 0.710648 0.184883
0.358615 0.734815 0.189793
0.442274 0.759693 0.195446
0.540712 0.783787 0.202420
0.630072 0.803026 0.207496
0.697115 0.816262 0.208812
0.750670 0.825289 0.204202
0.798351 0.825482 0.189900
0.844007 0.820787 0.174624
0.893463 0.822083 0.169666
0.927420 0.822172 0.167076
0.042235 0.051534 0.068667
0.060242 0.052822 0.069102
0.087617 0.055350 0.069036
0.121225 0.060504 0.069746
0.157329 0.065857 0.069772
0.196791 0.072857 0.069136
0.241705 0.080488 0.066586
0.294860 0.087548 0.063830
0.358815 0.095243 0.067256
0.426865 0.103347 0.073945
0.493438 0.110987 0.081907
0.559456 0.118690 0.090520
0.621839 0.127156 0.098839
0.678391 0.136298 0.105990
0.730244 0.147006 0.112628
0.758971 0.152588 0.115486
0.043781 0.070268 0.073219
0.060776 0.071045 0.072786
0.089090 0.073974 0.072466
0.123613 0.080159 0.073317
0.160855 0.087483 0.073947
0.202198 0.094931 0.073033
0.249870 0.101998 0.069446
0.305734 0.109543 0.065840
0.369688 0.117193 0.068586
0.439154 0.124714 0.075707
0.505016 0.132277 0.083609
0.566842 0.139406 0.091924
0.623977 0.146121 0.099707
0.677147 0.152611 0.106469
0.727184 0.158520 0.112561
0.755744 0.162315 0.115218
0.045826 0.096754 0.079079
0.061790 0.097626 0.078209
0.087415 0.098581 0.077618
0.124379 0.101546 0.076515
0.162607 0.108701 0.077678
0.205459 0.115653 0.076744
0.255280 0.121893 0.072363
0.312252 0.128187 0.067964
0.375544 0.135040 0.070053
0.441969 0.141950 0.076497
0.503875 0.148873 0.083767
0.561738 0.155663 0.091000
0.616470 0.162357 0.097981
0.668203 0.168930 0.104442
0.717229 0.175571 0.110232
0.745339 0.179519 0.112838
0.048938 0.128232 0.086381
0.064592 0.130313 0.086083
0.086395 0.132081 0.086037
0.121041 0.132382 0.084377
0.163443 0.132970 0.080949
0.207225 0.139198 0.078866
0.256092 0.146379 0.074315
0.311749 0.153608 0.069059
0.373070 0.160786 0.069371
0.437724 0.167833 0.075168
0.498400 0.174571 0.081863
0.555353 0.181250 0.088457
0.609373 0.187955 0.095076
0.660668 0.194912 0.101373
0.709278 0.201905 0.107117
0.737286 0.205905 0.109690
0.052091 0.164039 0.095972
0.067881 0.166247 0.095345
0.087726 0.168292 0.093786
0.119481 0.169591 0.094728
0.160639 0.168141 0.091886
0.208399 0.165965 0.084440
0.260347 0.170585 0.077650
0.317272 0.177936 0.072053
0.380810 0.186407 0.072063
0.445347 0.195793 0.077250
0.505300 0.205211 0.082892
0.561083 0.214271 0.088568
0.614130 0.222806 0.094422
0.664798 0.231240 0.100064
0.713228 0.239393 0.105444
0.740779 0.243986 0.107623
0.054950 0.199651 0.105565
0.070943 0.201028 0.104422
0.089504 0.203697 0.101018
0.120017 0.205408 0.101816
0.159550 0.206501 0.104988
0.206712 0.203124 0.097305
0.262092 0.199632 0.087222
0.324513 0.203728 0.078182
0.392613 0.212651 0.076586
0.460036 0.223295 0.081195
0.521145 0.234070 0.086383
0.576890 0.244734 0.091842
0.628600 0.255364 0.097241
0.677664 0.266272 0.102152
0.724551 0.277386 0.106424
0.751337 0.283961 0.107397
0.057565 0.235176 0.115159
0.073731 0.235932 0.113775
0.091925 0.238829 0.109520
0.121158 0.242073 0.108521
0.158794 0.244039 0.112930
0.206113 0.247004 0.108678
0.260870 0.241569 0.102128
0.327474 0.237035 0.087268
0.401987 0.242940 0.081262
0.473961 0.253565 0.085527
0.536888 0.264897 0.090484
0.593269 0.276284 0.095680
0.645036 0.288012 0.100770
0.693619 0.300411 0.105238
0.740158 0.313576 0.109070
0.767602 0.321472 0.109538
0.059131 0.272467 0.125824
0.075326 0.272897 0.124105
0.093482 0.275480 0.119709
0.122891 0.279331 0.117655
0.158149 0.283804 0.119413
0.200788 0.289205 0.120659
0.257830 0.294431 0.112557
0.326181 0.285665 0.102434
0.404881 0.281753 0.089948
0.481124 0.288912 0.088933
0.548111 0.299958 0.094268
0.606691 0.311791 0.099570
0.659561 0.324464 0.104324
0.709288 0.338146 0.108608
0.756510 0.353017 0.112050
0.785762 0.362511 0.112061
0.058649 0.311865 0.138306
0.074613 0.312392 0.136252
0.093601 0.315794 0.130622
0.123686 0.319863 0.128366
0.156872 0.325929 0.128321
0.195527 0.332525 0.130959
0.249434 0.344579 0.125575
0.322339 0.350058 0.120173
0.404720 0.336556 0.106839
0.485634 0.335526 0.098671
0.556174 0.342899 0.099886
0.618381 0.354442 0.103763
0.674856 0.368188 0.108969
0.726299 0.383275 0.113076
0.774006 0.399454 0.116285
0.803837 0.409918 0.117546
0.057375 0.354025 0.150334
0.073191 0.356100 0.146588
0.094923 0.359716 0.141266
0.124397 0.363871 0.139109
0.156966 0.370263 0.138781
0.194423 0.378622 0.140340
0.244996 0.392647 0.137646
0.318536 0.408057 0.139777
0.411680 0.410365 0.130163
0.491754 0.395562 0.115427
0.568000 0.398342 0.113619
0.633404 0.407001 0.116528
0.691635 0.418722 0.120003
0.744856 0.433782 0.123466
0.793941 0.450671 0.126909
0.822077 0.461682 0.128182
0.058937 0.399142 0.159784
0.075311 0.401961 0.155716
0.100005 0.404937 0.152587
0.129611 0.409696 0.150833
0.163179 0.416536 0.151140
0.202346 0.427514 0.152700
0.252239 0.442829 0.152916
0.325877 0.463289 0.153242
0.423668 0.478100 0.154826
0.511846 0.473508 0.137735
0.585156 0.465789 0.131000
0.653138 0.468985 0.132618
0.712671 0.477548 0.134801
0.766025 0.488560 0.137334
0.815023 0.504423 0.139759
0.843201 0.515386 0.140618
0.066120 0.447247 0.171868
0.083413 0.449887 0.168432
0.109177 0.453399 0.165949
0.140617 0.458005 0.164512
0.175974 0.466777 0.164866
0.217718 0.480713 0.166347
0.269582 0.497730 0.167937
0.344975 0.519949 0.167541
0.447243 0.542702 0.173256
0.538345 0.548136 0.163510
0.610591 0.542229 0.149760
0.675127 0.539732 0.148091
0.735406 0.543916 0.150326
0.787923 0.552466 0.151544
0.836230 0.563005 0.152430
0.865598 0.572627 0.152545
0.080329 0.495790 0.187038
0.098739 0.498099 0.184232
0.125334 0.502316 0.181475
0.157373 0.508179 0.178981
0.194284 0.519552 0.178499
0.238819 0.535834 0.180237
0.293227 0.554456 0.182734
0.370759 0.578274 0.182506
0.473446 0.604092 0.188072
0.565929 0.619603 0.186281
0.637436 0.618409 0.171569
0.697954 0.615709 0.163886
0.754354 0.617568 0.163125
0.808494 0.621021 0.164348
0.856311 0.628587 0.164884
0.886925 0.634186 0.164066
0.096445 0.544532 0.201940
0.115587 0.547636 0.199156
0.142990 0.552517 0.195951
0.175829 0.560833 0.192230
0.214647 0.574783 0.190909
0.262263 0.594061 0.191859
0.320188 0.615444 0.192858
0.399519 0.640618 0.193603
0.500455 0.667671 0.200921
0.591087 0.687583 0.205335
0.661360 0.695516 0.196015
0.719857 0.693123 0.181501
0.771120 0.691309 0.175169
0.822087 0.694551 0.174485
0.875369 0.698054 0.174271
0.907143 0.701164 0.173979
0.101307 0.606622 0.205535
0.121646 0.611449 0.201760
0.152312 0.616981 0.197975
0.188662 0.625694 0.194046
0.231222 0.639758 0.192797
0.281546 0.658645 0.195215
0.342531 0.682026 0.199076
0.423769 0.707622 0.204174
0.523796 0.733459 0.211604
0.613715 0.753742 0.216569
0.681939 0.767163 0.216737
0.738119 0.773728 0.208143
0.786997 0.770508 0.192444
0.834206 0.768904 0.184044
0.885485 0.770104 0.182098
0.923045 0.768701 0.180610
0.102927 0.643540 0.206461
0.122451 0.649109 0.203559
0.152775 0.656858 0.200491
0.191688 0.668703 0.197050
0.234926 0.686123 0.196333
0.286980 0.707592 0.199546
0.349880 0.731613 0.204186
0.431844 0.757394 0.209505
0.530419 0.783150 0.216224
0.623452 0.804824 0.221954
0.693887 0.819748 0.224272
0.749371 0.829815 0.222729
0.797763 0.833635 0.212814
0.842917 0.828922 0.193999
0.893456 0.828198 0.186341
0.929098 0.826822 0.183614
0.042094 0.059108 0.092468
0.058543 0.059819 0.092546
0.084555 0.060387 0.092075
0.118066 0.064501 0.092109
0.154588 0.071491 0.094530
0.195962 0.077550 0.094700
0.242960 0.082445 0.091420
0.297404 0.087317 0.085700
0.361327 0.092448 0.084023
0.429212 0.100509 0.089562
0.494691 0.110712 0.097120
0.559809 0.121371 0.105458
0.620935 0.132152 0.113479
0.677012 0.142763 0.121074
0.728765 0.153071 0.127975
0.757666 0.158031 0.130853
0.043477 0.076399 0.097112
0.059643 0.078187 0.098431
0.086139 0.078946 0.097461
0.121924 0.082810 0.097065
0.159351 0.089075 0.098275
0.201782 0.094311 0.096610
0.251240 0.099631 0.092242
0.308415 0.105542 0.085919
0.373730 0.111594 0.085755
0.442989 0.119543 0.092170
0.507873 0.127653 0.100011
0.568432 0.135730 0.108093
0.624390 0.143766 0.115371
0.676469 0.152040 0.122007
0.725280 0.161140 0.128096
0.753582 0.165902 0.130765
0.044556 0.097043 0.102872
0.059920 0.099261 0.103661
0.085321 0.100225 0.102280
0.121714 0.104170 0.101284
0.160908 0.111293 0.101749
0.205069 0.118001 0.099676
0.256461 0.123805 0.093689
0.314473 0.129970 0.086188
0.377503 0.137101 0.085206
0.442776 0.144463 0.091516
0.504059 0.151323 0.098967
0.561307 0.157390 0.106422
0.615541 0.163595 0.113430
0.666983 0.169936 0.119773
0.715880 0.176243 0.125568
0.743782 0.180257 0.128093
0.046180 0.130276 0.114842
0.061510 0.132045 0.112984
0.084083 0.132418 0.109953
0.118135 0.133169 0.107684
0.160388 0.135921 0.105586
0.204721 0.142233 0.103788
0.255034 0.148073 0.098109
0.311983 0.153843 0.089690
0.374672 0.159873 0.085459
0.438147 0.166494 0.090167
0.498495 0.172920 0.096974
0.554749 0.179705 0.103686
0.607943 0.186566 0.110328
0.658686 0.193552 0.116609
0.707081 0.200255 0.122346
0.735113 0.204165 0.124870
0.048359 0.167883 0.124745
0.064328 0.168084 0.121033
0.084485 0.169100 0.117402
0.114643 0.170067 0.116045
0.157287 0.169392 0.113568
0.205822 0.168109 0.107576
0.257690 0.173138 0.101017
0.315883 0.179843 0.092007
0.379382 0.187435 0.086972
0.443758 0.195815 0.090657
0.503665 0.204069 0.096718
0.559647 0.211883 0.102793
0.612473 0.219552 0.109028
0.662666 0.227165 0.115046
0.710630 0.234701 0.120544
0.738311 0.238842 0.123011
0.050641 0.202916 0.132077
0.066784 0.202447 0.127941
0.086322 0.203673 0.124404
0.113998 0.206052 0.122150
0.154312 0.207407 0.124854
0.203447 0.204439 0.118437
0.259585 0.201309 0.109029
0.322389 0.205498 0.096280
0.389444 0.214174 0.090731
0.456365 0.224439 0.094289
0.517236 0.234966 0.099810
0.572986 0.245158 0.105292
0.624580 0.255180 0.110745
0.673338 0.265291 0.115785
0.720227 0.275630 0.120357
0.747527 0.281669 0.121828
0.052494 0.237625 0.139261
0.068788 0.237220 0.136327
0.088345 0.238511 0.133004
0.114487 0.242628 0.128386
0.152995 0.244746 0.131684
0.200804 0.247314 0.129994
0.257116 0.243144 0.123123
0.324912 0.238515 0.106808
0.398846 0.244063 0.096495
0.469723 0.254834 0.099101
0.532422 0.266110 0.104212
0.588832 0.277398 0.109331
0.640620 0.289026 0.114302
0.689200 0.301234 0.118794
0.735796 0.314341 0.122606
0.763801 0.322380 0.123237
0.053681 0.274243 0.148880
0.069978 0.274115 0.146485
0.089433 0.275578 0.143008
0.115719 0.281072 0.136237
0.152685 0.284042 0.138737
0.194818 0.288353 0.141373
0.252248 0.294496 0.132187
0.321930 0.287281 0.123187
0.401565 0.283063 0.106959
0.477202 0.290300 0.103597
0.543876 0.301198 0.108432
0.602106 0.313110 0.113368
0.655573 0.325872 0.117940
0.705700 0.339740 0.122286
0.753547 0.354936 0.125894
0.782972 0.364420 0.125805
0.053745 0.313297 0.160417
0.069716 0.313576 0.158518
0.088942 0.316219 0.153354
0.117322 0.321999 0.146286
0.152192 0.325810 0.147805
0.190267 0.331600 0.150337
0.242872 0.343437 0.144204
0.315977 0.350227 0.136614
0.400185 0.338491 0.124622
0.481784 0.337125 0.115008
0.552114 0.344621 0.115478
0.614587 0.356002 0.118702
0.671179 0.370075 0.123466
0.723249 0.385508 0.127647
0.771837 0.402135 0.131886
0.802009 0.412656 0.133600
0.053375 0.354844 0.173188
0.068687 0.355610 0.170713
0.088278 0.361339 0.162089
0.118912 0.366195 0.156845
0.152713 0.370205 0.158041
0.189520 0.377835 0.159803
0.238313 0.390836 0.157703
0.311149 0.407194 0.154992
0.405547 0.412342 0.147607
0.487731 0.398301 0.132886
0.563720 0.400308 0.129148
0.629540 0.409193 0.131986
0.688345 0.420942 0.135622
0.742472 0.436272 0.139467
0.791584 0.453646 0.143173
0.821523 0.465121 0.144633
0.056370 0.397928 0.185746
0.071261 0.400513 0.181930
0.092639 0.407761 0.172126
0.124929 0.411633 0.169190
0.158917 0.416459 0.170305
0.197080 0.426474 0.171766
0.245290 0.440962 0.173137
0.317130 0.461348 0.168606
0.415477 0.478734 0.171397
0.506238 0.477293 0.156032
0.580921 0.469686 0.147263
0.649391 0.471735 0.148199
0.709858 0.480127 0.150630
0.763980 0.491458 0.153538
0.813670 0.507649 0.156447
0.842795 0.519394 0.157361
0.064595 0.446092 0.199528
0.079410 0.449728 0.195231
0.103861 0.454785 0.187332
0.136887 0.459436 0.184076
0.171882 0.466404 0.184426
0.211625 0.478925 0.185309
0.262075 0.495488 0.187642
0.335293 0.517404 0.186935
0.437296 0.542192 0.188693
0.531252 0.552355 0.182713
0.605430 0.547798 0.166954
0.671404 0.543965 0.163675
0.732677 0.547271 0.166057
0.786095 0.555567 0.167848
0.835297 0.566524 0.169553
0.865506 0.576679 0.170029
0.077435 0.498641 0.213804
0.093547 0.500411 0.210244
0.120534 0.503804 0.203472
0.154050 0.509669 0.199351
0.189943 0.518943 0.198426
0.231785 0.533390 0.198887
0.284664 0.551569 0.201847
0.359835 0.575393 0.203257
0.461612 0.602538 0.203745
0.557660 0.622721 0.204996
0.631650 0.625898 0.192306
0.693624 0.622332 0.181403
0.751730 0.622185 0.179661
0.807143 0.624860 0.181049
0.855551 0.632298 0.182097
0.887010 0.638366 0.181614
0.094276 0.549740 0.230082
0.110507 0.550980 0.226715
0.138099 0.555024 0.219368
0.172362 0.562961 0.213826
0.209511 0.574157 0.211647
0.253894 0.590646 0.211267
0.310408 0.611741 0.213074
0.386917 0.637162 0.212952
0.486809 0.665884 0.216494
0.581846 0.688765 0.222096
0.654991 0.700685 0.216791
0.715286 0.701234 0.201663
0.768150 0.698108 0.192710
0.820495 0.699818 0.191719
0.874860 0.702477 0.192144
0.907815 0.705681 0.192041
0.100387 0.611147 0.238138
0.115558 0.614869 0.232086
0.144895 0.622113 0.221031
0.183547 0.630693 0.215633
0.223756 0.641910 0.212679
0.272473 0.657197 0.213501
0.332102 0.677754 0.216655
0.410793 0.703701 0.220876
0.509371 0.731263 0.227769
0.603561 0.754650 0.233547
0.676123 0.770194 0.235730
0.734239 0.778699 0.230685
0.784260 0.778276 0.214189
0.831767 0.775350 0.202356
0.884428 0.776016 0.200264
0.923277 0.773713 0.199068
0.103732 0.651712 0.233141
0.118900 0.654743 0.229493
0.145192 0.661572 0.223379
0.187384 0.672522 0.218659
0.228297 0.686169 0.215845
0.278079 0.704779 0.217291
0.339369 0.727966 0.221209
0.418922 0.753666 0.225800
0.516687 0.781017 0.232109
0.612593 0.805238 0.238203
0.687688 0.822324 0.241381
0.746344 0.833614 0.242971
0.796449 0.840460 0.238122
0.841580 0.836816 0.217644
0.892239 0.834554 0.206083
0.931151 0.832065 0.203477
0.042043 0.069788 0.120295
0.057782 0.070683 0.120720
0.080876 0.071066 0.119927
0.114469 0.071690 0.118754
0.149416 0.075764 0.118041
0.188703 0.083114 0.120479
0.235120 0.092043 0.123076
0.292382 0.100118 0.121366
0.358667 0.106078 0.112825
0.426723 0.113040 0.108594
0.493898 0.122644 0.113229
0.561256 0.131842 0.120847
0.623015 0.140939 0.129133
0.679318 0.149695 0.136680
0.730794 0.157887 0.143479
0.759215 0.162048 0.146435
0.043187 0.087418 0.126072
0.058850 0.089211 0.127765
0.082401 0.089534 0.126470
0.116913 0.090278 0.125170
0.153946 0.094258 0.123901
0.194962 0.101817 0.126478
0.245007 0.109998 0.127961
0.304390 0.117361 0.125108
0.372926 0.122136 0.116022
0.442400 0.129239 0.113896
0.507142 0.137719 0.117768
0.567760 0.146143 0.124422
0.623767 0.154343 0.131378
0.676133 0.162289 0.138067
0.725116 0.170126 0.144314
0.752933 0.174195 0.147107
0.043888 0.104710 0.130855
0.058898 0.107324 0.132725
0.082253 0.109443 0.133544
0.116672 0.110596 0.131913
0.157025 0.114978 0.130891
0.201345 0.121003 0.130854
0.254195 0.126319 0.128268
0.315287 0.130912 0.120684
0.382273 0.135574 0.112973
0.447065 0.142443 0.112334
0.507131 0.149433 0.117295
0.563320 0.156403 0.123811
0.616216 0.163581 0.130397
0.666489 0.170903 0.136736
0.714404 0.178391 0.142579
0.741897 0.182503 0.145154
0.044724 0.128840 0.140290
0.059440 0.131659 0.141270
0.080458 0.133885 0.140963
0.113488 0.134940 0.138657
0.156124 0.139089 0.136741
0.201547 0.145326 0.134947
0.253847 0.150219 0.129119
0.313051 0.154211 0.118944
0.377345 0.158564 0.109116
0.442195 0.164245 0.109318
0.500620 0.170695 0.114769
0.555903 0.177231 0.121340
0.608147 0.184212 0.127652
0.658178 0.191298 0.133574
0.706109 0.198138 0.138913
0.734300 0.202333 0.141208
0.045825 0.166815 0.155756
0.060174 0.169696 0.154778
0.078945 0.170856 0.151224
0.108196 0.170571 0.146217
0.150901 0.170921 0.142852
0.201035 0.172283 0.139943
0.253722 0.177796 0.135154
0.313636 0.182893 0.125735
0.378645 0.188423 0.114979
0.444690 0.194741 0.112096
0.505253 0.200821 0.114845
0.560068 0.207344 0.119916
0.611799 0.214102 0.125981
0.661663 0.221223 0.131820
0.709566 0.228581 0.136997
0.737512 0.233176 0.139107
0.047490 0.207722 0.168111
0.061367 0.208089 0.164335
0.079582 0.206402 0.158129
0.105067 0.207366 0.152286
0.144450 0.209053 0.150527
0.197920 0.206743 0.146418
0.255359 0.205076 0.140232
0.318623 0.209593 0.129443
0.386412 0.217261 0.117658
0.453344 0.226824 0.113465
0.514124 0.235930 0.116264
0.569566 0.244398 0.120717
0.621339 0.252577 0.125501
0.670021 0.261406 0.130551
0.717372 0.270870 0.135371
0.745362 0.276515 0.137078
0.049154 0.245018 0.176846
0.062793 0.243441 0.171951
0.080856 0.240898 0.165100
0.105234 0.242965 0.159098
0.141918 0.246639 0.155966
0.191782 0.248492 0.157082
0.251816 0.246233 0.150278
0.321068 0.241904 0.137727
0.395438 0.246827 0.120048
0.464648 0.257541 0.114871
0.526912 0.268718 0.117809
0.582857 0.279756 0.122745
0.634553 0.290838 0.127578
0.683488 0.302549 0.132039
0.730682 0.315122 0.136035
0.759398 0.322810 0.136945
0.050498 0.282003 0.184674
0.063916 0.279840 0.179737
0.081708 0.277299 0.173092
0.106014 0.281069 0.167029
0.142578 0.285790 0.163116
0.185891 0.288745 0.166335
0.244147 0.295619 0.159890
0.316274 0.290635 0.151588
