example_ofxGpuLutCube/bin/data/ofxGpuLutCube/LUT/T8 (hard teal orange).cube
LUT_3D_SIZE 6
0.058606 0.056426 0.055107
0.172005 0.074769 0.060944
0.502834 0.096142 0.076518
0.756709 0.117223 0.088696
0.836884 0.137862 0.094825
0.833695 0.141120 0.097466
0.064545 0.118938 0.068229
0.134040 0.118940 0.065680
0.474424 0.146918 0.079105
0.730117 0.172485 0.093174
0.835685 0.174830 0.100810
0.838929 0.175384 0.100851
0.077430 0.235542 0.092887
0.080877 0.223545 0.080870
0.395828 0.230728 0.085998
0.745945 0.262769 0.103182
0.847984 0.283314 0.110123
0.846546 0.281380 0.108566
0.089846 0.381136 0.121440
0.088192 0.376435 0.112986
0.158512 0.358790 0.098987
0.691175 0.371575 0.106303
0.851380 0.396561 0.117504
0.856634 0.391384 0.116004
0.103937 0.535724 0.162905
0.103318 0.531186 0.151426
0.099954 0.517768 0.130756
0.470642 0.485053 0.106995
0.829881 0.516057 0.127300
0.862118 0.517562 0.128544
0.117208 0.667464 0.260082
0.119858 0.667410 0.243297
0.114234 0.654869 0.207138
0.206892 0.624562 0.139048
0.721981 0.607540 0.124961
0.873875 0.620976 0.133188
0.062617 0.077944 0.123465
0.159227 0.076828 0.111055
0.467884 0.107630 0.103370
0.738279 0.126282 0.099177
0.837044 0.143517 0.097088
0.836336 0.151202 0.097491
0.066492 0.150857 0.155581
0.112471 0.154770 0.127143
0.431232 0.176186 0.119242
0.722478 0.196151 0.106873
0.837830 0.202690 0.105726
0.840243 0.192502 0.103018
0.079781 0.289608 0.201886
0.082889 0.282707 0.176207
0.362644 0.272771 0.112358
0.725088 0.293623 0.106266
0.849004 0.305960 0.112957
0.852130 0.307927 0.111002
0.093338 0.447223 0.257420
0.093098 0.435084 0.220554
0.145619 0.421489 0.162038
0.675432 0.400414 0.105351
0.850986 0.415238 0.118917
0.857805 0.411177 0.119476
0.108285 0.589393 0.313860
0.107363 0.580928 0.278501
0.106008 0.567944 0.240572
0.431348 0.522442 0.112692
0.828262 0.529268 0.125783
0.865036 0.529528 0.127712
0.123077 0.714097 0.426768
0.122752 0.708089 0.404695
0.119183 0.700279 0.369669
0.198603 0.669784 0.219763
0.710909 0.625401 0.125813
0.874872 0.634268 0.133435
0.071546 0.119094 0.328188
0.130709 0.119731 0.314679
0.461319 0.123835 0.278451
0.732621 0.153018 0.229364
0.840839 0.175035 0.197650
0.843679 0.175944 0.151655
0.077568 0.195223 0.348266
0.112024 0.210028 0.338206
0.412583 0.209193 0.310318
0.716838 0.224198 0.251734
0.847263 0.237119 0.216996
0.849007 0.231687 0.160799
0.089509 0.347527 0.423631
0.094023 0.349932 0.407680
0.294598 0.384992 0.367500
0.680852 0.409440 0.310980
0.845968 0.415192 0.263741
0.858799 0.365446 0.183464
0.102808 0.532030 0.518733
0.102774 0.529117 0.503093
0.145007 0.527580 0.441657
0.642329 0.504822 0.254128
0.842257 0.521260 0.239042
0.863725 0.492168 0.185370
0.117402 0.666704 0.571748
0.116627 0.664063 0.557906
0.112743 0.653295 0.514790
0.365530 0.630234 0.341949
0.811339 0.598975 0.184550
0.870381 0.569067 0.143787
0.128721 0.765289 0.645702
0.129877 0.769978 0.643962
0.127329 0.759893 0.607821
0.201380 0.746097 0.497856
0.670116 0.695332 0.227041
0.871650 0.650516 0.139550
0.090040 0.192163 0.589781
0.124154 0.193242 0.563070
0.380200 0.177577 0.569660
0.728831 0.183046 0.502904
0.849483 0.213732 0.453565
0.854152 0.221397 0.390666
0.090055 0.263102 0.598947
0.120823 0.269105 0.586498
0.347968 0.267353 0.585204
0.719352 0.240993 0.520238
0.855739 0.282346 0.481669
0.858254 0.299655 0.422008
0.098152 0.401805 0.623853
0.104651 0.410757 0.619662
0.272140 0.463554 0.617852
0.666766 0.469492 0.587607
0.840911 0.495273 0.548956
0.872274 0.418915 0.455226
0.112669 0.567637 0.687302
0.110836 0.568922 0.679180
0.164654 0.590850 0.665096
0.587120 0.639874 0.635447
0.815789 0.662146 0.614973
0.890911 0.645028 0.541625
0.124191 0.717011 0.755184
0.123702 0.718389 0.746182
0.123070 0.715723 0.734971
0.339763 0.723519 0.675428
0.788865 0.728004 0.555305
0.896523 0.733387 0.518891
0.135083 0.798366 0.773450
0.135649 0.798442 0.765403
0.136248 0.799895 0.764806
0.216624 0.804926 0.731517
0.629569 0.811537 0.631300
0.885487 0.770275 0.385489
0.097889 0.265766 0.755624
0.104982 0.265372 0.742768
0.319530 0.265958 0.740323
0.690528 0.232586 0.724781
0.850214 0.246618 0.693438
0.853760 0.251177 0.647519
0.104505 0.325342 0.763149
0.119984 0.336405 0.753563
0.325691 0.348161 0.753444
0.684420 0.301806 0.742726
0.856043 0.313531 0.707337
0.864078 0.322878 0.662837
0.112068 0.468918 0.780089
0.112642 0.472462 0.774855
0.246013 0.510174 0.776256
0.626418 0.499428 0.774620
0.854878 0.446936 0.734960
0.880927 0.423726 0.688380
0.121027 0.599728 0.799244
0.119998 0.603257 0.793467
0.145339 0.619111 0.792766
0.537171 0.679325 0.790442
0.811034 0.686145 0.784194
0.897031 0.690176 0.747135
0.129400 0.728418 0.842611
0.132257 0.731717 0.840422
0.129400 0.735406 0.833707
0.347329 0.759279 0.812678
0.758612 0.807305 0.812766
0.899799 0.820386 0.798678
0.142162 0.830557 0.883939
0.141782 0.833275 0.882030
0.141260 0.833684 0.878076
0.139965 0.834214 0.860410
0.579558 0.870474 0.838673
0.882420 0.872506 0.769544
0.104092 0.329258 0.828919
0.106875 0.329550 0.825327
0.227686 0.349363 0.839852
0.622500 0.310658 0.841196
0.840611 0.296169 0.826423
0.860890 0.297604 0.815803
0.110461 0.398756 0.837356
0.109714 0.405739 0.837815
0.216427 0.426831 0.846933
0.609238 0.391747 0.847871
0.839089 0.372000 0.838541
0.869471 0.371452 0.835719
0.116962 0.468846 0.845468
0.117423 0.474960 0.842318
0.192662 0.492735 0.854288
0.579125 0.501805 0.862585
0.828927 0.452831 0.849742
0.880209 0.453124 0.848569
0.126082 0.626263 0.857445
0.126254 0.629888 0.860201
0.126365 0.634536 0.860513
0.433321 0.677809 0.878014
0.796631 0.634048 0.880590
0.889217 0.555309 0.862082
0.131650 0.732801 0.870868
0.133559 0.734293 0.872769
0.132055 0.741295 0.870234
0.233453 0.757687 0.877802
0.717135 0.827860 0.909318
0.898515 0.825080 0.914272
0.142413 0.840884 0.884678
0.142509 0.843085 0.886475
0.145567 0.844751 0.890591
0.142882 0.848189 0.890227
0.452284 0.880551 0.912654
0.862466 0.929398 0.936729
