example_ofxGpuLutCube/bin/data/ofxGpuLutCube/LUT/T8 (hard teal orange).cube
LUT_3D_SIZE 16
0.058606 0.056426 0.055107
0.071412 0.060490 0.055617
0.117711 0.060333 0.058496
0.172005 0.074769 0.060944
0.262695 0.082070 0.063273
0.372536 0.092111 0.074147
0.502834 0.096142 0.076518
0.603198 0.108217 0.079758
0.688598 0.116323 0.087134
0.756709 0.117223 0.088696
0.800378 0.124007 0.094859
0.831013 0.132264 0.095122
0.836884 0.137862 0.094825
0.833666 0.141087 0.097463
0.835960 0.143682 0.097710
0.833695 0.141120 0.097466
0.058185 0.073497 0.059230
0.067210 0.073632 0.055483
0.111474 0.074443 0.062603
0.163634 0.081918 0.061851
0.252474 0.088063 0.061511
0.361075 0.097581 0.072485
0.484993 0.108272 0.077185
0.598699 0.114058 0.083673
0.679926 0.120816 0.088777
0.752178 0.126950 0.093996
0.797680 0.131075 0.094971
0.831256 0.142275 0.097902
0.836454 0.145976 0.097848
0.836336 0.150632 0.098026
0.836336 0.153751 0.098072
0.836903 0.154374 0.098081
0.059860 0.098467 0.066462
0.062673 0.093688 0.058797
0.093924 0.092206 0.059957
0.156815 0.098434 0.061676
0.239877 0.103337 0.064099
0.350396 0.119618 0.076198
0.468949 0.124047 0.075808
0.581856 0.132736 0.085343
0.671017 0.136519 0.088932
0.746971 0.141400 0.095708
0.793846 0.143305 0.097995
0.830607 0.150684 0.098621
0.836336 0.154998 0.098090
0.839200 0.158149 0.098136
0.839168 0.164620 0.098140
0.839184 0.164544 0.097158
0.064545 0.118938 0.068229
0.059746 0.117435 0.063700
0.075463 0.116085 0.063851
0.134040 0.118940 0.065680
0.231429 0.125242 0.068909
0.350575 0.136166 0.074950
0.474424 0.146918 0.079105
0.578924 0.153625 0.084382
0.665918 0.162430 0.089487
0.730117 0.172485 0.093174
0.786305 0.175220 0.098170
0.828241 0.176785 0.099687
0.835685 0.174830 0.100810
0.837402 0.174022 0.098300
0.838911 0.179176 0.102511
0.838929 0.175384 0.100851
0.062081 0.151596 0.073715
0.067929 0.147851 0.076315
0.069740 0.145417 0.070867
0.105155 0.143640 0.067258
0.197902 0.149801 0.071272
0.328007 0.164139 0.076422
0.473515 0.170830 0.081455
0.584735 0.177909 0.087484
0.676960 0.191183 0.092317
0.736889 0.194862 0.095319
0.788144 0.203037 0.098798
0.825251 0.210061 0.102745
0.839830 0.218986 0.105482
0.842125 0.215189 0.104364
0.841648 0.212930 0.106760
0.839236 0.198715 0.102085
0.069206 0.194096 0.081134
0.069063 0.190386 0.080364
0.071454 0.183289 0.074283
0.085119 0.184773 0.075640
0.148245 0.183353 0.072697
0.282951 0.192417 0.078039
0.451794 0.199624 0.086148
0.589657 0.210984 0.091711
0.675922 0.219556 0.094126
0.745691 0.229103 0.099668
0.797170 0.237202 0.102877
0.834953 0.241529 0.106525
0.843114 0.247718 0.106959
0.846176 0.251002 0.104603
0.846230 0.254434 0.105785
0.846058 0.247624 0.105659
0.077430 0.235542 0.092887
0.072681 0.233941 0.090109
0.072669 0.234441 0.089321
0.080877 0.223545 0.080870
0.107666 0.222297 0.082893
0.211105 0.221928 0.085174
0.395828 0.230728 0.085998
0.562864 0.241629 0.092106
0.670887 0.252329 0.095645
0.745945 0.262769 0.103182
0.797644 0.267170 0.108764
0.835484 0.277990 0.106931
0.847984 0.283314 0.110123
0.846745 0.284079 0.108408
0.846351 0.286913 0.108714
0.846546 0.281380 0.108566
0.077180 0.282504 0.100893
0.078544 0.280844 0.097436
0.077991 0.279859 0.096041
0.078230 0.274817 0.093742
0.085105 0.271514 0.086103
0.147166 0.272588 0.091263
0.303129 0.270153 0.086073
0.511916 0.278827 0.093058
0.650372 0.290693 0.101349
0.739260 0.299594 0.104743
0.801778 0.303750 0.111184
0.838586 0.314071 0.113274
0.848742 0.316437 0.113242
0.850989 0.315566 0.111344
0.850896 0.318502 0.113048
0.852664 0.315067 0.111754
0.084049 0.333126 0.111976
0.086235 0.332990 0.109875
0.083328 0.328791 0.103292
0.083259 0.325677 0.102414
0.079977 0.322503 0.101384
0.109896 0.320410 0.095397
0.223665 0.310730 0.095127
0.434965 0.314314 0.092725
0.611876 0.329429 0.100497
0.725215 0.338411 0.104204
0.795964 0.347422 0.112635
0.834734 0.352855 0.114289
0.850604 0.357303 0.115603
0.853071 0.356562 0.114458
0.852918 0.358654 0.114411
0.853173 0.355245 0.115669
0.089846 0.381136 0.121440
0.087665 0.383840 0.118916
0.087433 0.380682 0.115287
0.088192 0.376435 0.112986
0.087339 0.372047 0.108045
0.093489 0.367758 0.100618
0.158512 0.358790 0.098987
0.328332 0.354793 0.092539
0.546539 0.362951 0.098607
0.691175 0.371575 0.106303
0.783190 0.380168 0.115165
0.831795 0.392069 0.117148
0.851380 0.396561 0.117504
0.856931 0.392083 0.116317
0.856476 0.394787 0.115972
0.856634 0.391384 0.116004
0.094893 0.436326 0.134496
0.094848 0.436036 0.130743
0.094658 0.431971 0.127187
0.092596 0.428958 0.121073
0.096646 0.422759 0.112497
0.085264 0.419317 0.113090
0.119738 0.413632 0.108186
0.221518 0.404938 0.098860
0.447202 0.401177 0.095539
0.636664 0.405600 0.101900
0.754376 0.422058 0.113673
0.816888 0.429670 0.117726
0.855887 0.437496 0.120914
0.855892 0.439531 0.119872
0.858007 0.435951 0.117712
0.863207 0.432518 0.119827
0.096951 0.484823 0.145385
0.096253 0.483922 0.143755
0.096258 0.483499 0.139359
0.096001 0.479526 0.132644
0.095766 0.478206 0.128416
0.095611 0.474498 0.128201
0.101699 0.467995 0.117693
0.165530 0.455328 0.112499
0.333377 0.443102 0.101653
0.568728 0.445314 0.102373
0.708801 0.457610 0.110899
0.791223 0.469062 0.117495
0.847829 0.476462 0.127230
0.858500 0.475913 0.123257
0.861627 0.475700 0.122952
0.861083 0.475703 0.125333
0.103937 0.535724 0.162905
0.104496 0.533914 0.157600
0.102777 0.533761 0.155433
0.103318 0.531186 0.151426
0.102834 0.526291 0.143830
0.103406 0.523488 0.138964
0.099954 0.517768 0.130756
0.126565 0.511056 0.123834
0.234478 0.492655 0.112592
0.470642 0.485053 0.106995
0.657313 0.492474 0.113057
0.760361 0.505778 0.120318
0.829881 0.516057 0.127300
0.863810 0.519072 0.127362
0.867157 0.516149 0.128524
0.862118 0.517562 0.128544
0.110148 0.583437 0.187614
0.108150 0.579173 0.181716
0.105235 0.582605 0.178071
0.105910 0.579963 0.171824
0.104864 0.577679 0.165712
0.110559 0.567784 0.153716
0.108002 0.570604 0.150630
0.105884 0.561898 0.133414
0.175457 0.545917 0.126605
0.338593 0.534438 0.113978
0.582973 0.526994 0.112336
0.715446 0.541464 0.121468
0.801812 0.550848 0.125447
0.859472 0.559874 0.132531
0.872040 0.555248 0.131537
0.867850 0.555598 0.131691
0.113818 0.632500 0.211158
0.113265 0.631094 0.209837
0.113290 0.630320 0.206821
0.113373 0.624301 0.199008
0.112843 0.622962 0.190994
0.110483 0.618498 0.184101
0.113010 0.617777 0.173818
0.109710 0.611547 0.159724
0.136592 0.600377 0.143819
0.254507 0.582201 0.123604
0.477679 0.567946 0.109193
0.652918 0.573893 0.119136
0.765000 0.582155 0.126093
0.835669 0.591269 0.132528
0.869697 0.590696 0.135805
0.866660 0.593402 0.129589
0.117208 0.667464 0.260082
0.117072 0.667118 0.255624
0.118878 0.670219 0.251706
0.119858 0.667410 0.243297
0.119047 0.664352 0.233658
0.113074 0.659663 0.221946
0.114234 0.654869 0.207138
0.117819 0.650101 0.191035
0.115196 0.640583 0.165970
0.206892 0.624562 0.139048
0.365850 0.605826 0.118162
0.581065 0.600117 0.118633
0.721981 0.607540 0.124961
0.810776 0.617405 0.130948
0.867660 0.620590 0.140578
0.873875 0.620976 0.133188
0.055703 0.062677 0.066284
0.070804 0.064216 0.062230
0.109145 0.063512 0.064546
0.163684 0.071848 0.064593
0.255019 0.083588 0.067973
0.365084 0.090980 0.073011
0.488988 0.101203 0.077349
0.597258 0.107401 0.083124
0.679787 0.116680 0.086577
0.750396 0.122826 0.091098
0.796862 0.127123 0.092558
0.833700 0.130192 0.094843
0.836815 0.137916 0.096919
0.834398 0.138505 0.095243
0.836962 0.144866 0.098247
0.839254 0.147728 0.100837
0.057729 0.079367 0.075270
0.067279 0.078453 0.068299
0.102044 0.078840 0.069494
0.155335 0.085771 0.065216
0.241597 0.093724 0.068159
0.349771 0.104502 0.074917
0.477928 0.114354 0.079950
0.593583 0.117278 0.084536
0.680902 0.124268 0.089488
0.749108 0.130586 0.094206
0.794992 0.137693 0.095136
0.832712 0.143180 0.095395
0.836336 0.149484 0.098009
0.836405 0.151904 0.098332
0.836794 0.154976 0.098089
0.836455 0.155006 0.098090
0.058192 0.099848 0.079886
0.064392 0.099410 0.074868
0.093633 0.097837 0.071466
0.142514 0.104655 0.066786
0.232223 0.109239 0.070377
0.336948 0.122310 0.071843
0.461845 0.130018 0.078822
0.576996 0.138010 0.085020
0.670280 0.147107 0.090008
0.738365 0.149229 0.094338
0.789765 0.149943 0.096546
0.831970 0.154125 0.100915
0.836817 0.160471 0.097276
0.840557 0.163520 0.097623
0.837432 0.168207 0.096633
0.840398 0.171294 0.099394
0.063909 0.129537 0.089732
0.062681 0.128694 0.083236
0.076532 0.128026 0.079247
0.123989 0.126729 0.069327
0.223224 0.131358 0.070622
0.337206 0.141532 0.074054
0.465688 0.149593 0.078850
0.573623 0.159255 0.085841
0.661269 0.169322 0.091191
0.727688 0.179284 0.095698
0.784939 0.185195 0.101040
0.825348 0.185306 0.102682
0.838519 0.184746 0.102417
0.839897 0.180795 0.099983
0.840077 0.184169 0.104916
0.841805 0.184061 0.106167
0.063553 0.165059 0.096706
0.063933 0.161589 0.090409
0.070765 0.157193 0.084195
0.103216 0.156300 0.077104
0.187232 0.156695 0.071054
0.323011 0.163910 0.080056
0.469393 0.174313 0.085227
0.581559 0.183588 0.092591
0.671140 0.194338 0.093029
0.732483 0.205572 0.099494
0.783883 0.211847 0.102894
0.824549 0.218583 0.104979
0.839094 0.225341 0.106189
0.842350 0.220166 0.103582
0.842945 0.217705 0.105236
0.841504 0.206468 0.102882
0.069813 0.207292 0.104964
0.068502 0.204024 0.098528
0.071750 0.199470 0.095806
0.083961 0.196966 0.087342
0.140085 0.194809 0.076733
0.271003 0.194637 0.080396
0.443385 0.203288 0.087051
0.581105 0.213120 0.092184
0.673100 0.226015 0.095415
0.743995 0.233618 0.100977
0.793135 0.241523 0.105497
0.832532 0.249954 0.109947
0.843160 0.256287 0.108729
0.846452 0.257944 0.108690
0.845590 0.261230 0.108181
0.846112 0.258614 0.108712
0.078319 0.249906 0.116273
0.076406 0.248028 0.109551
0.075890 0.247598 0.109142
0.082666 0.240176 0.097989
0.110429 0.236807 0.091708
0.199864 0.231852 0.079853
0.395903 0.240112 0.087493
0.561854 0.249546 0.092805
0.669797 0.259131 0.095786
0.740743 0.266697 0.100908
0.796973 0.275098 0.109337
0.835698 0.285002 0.109817
0.846780 0.288680 0.109324
0.848307 0.291747 0.109611
0.846961 0.294062 0.109715
0.850141 0.291746 0.109469
0.079097 0.301259 0.122414
0.080696 0.295256 0.114128
0.079554 0.294024 0.114170
0.079384 0.291253 0.109670
0.087522 0.286666 0.101161
0.143843 0.280119 0.088011
0.307688 0.272389 0.084286
0.509316 0.284559 0.092152
0.648525 0.293996 0.101345
0.736410 0.306507 0.104289
0.798198 0.311716 0.111862
0.836205 0.321383 0.112638
0.848387 0.324926 0.113752
0.851466 0.325396 0.112762
0.849823 0.325918 0.111672
0.851170 0.324834 0.114045
0.084373 0.346305 0.129967
0.084047 0.346225 0.127219
0.085804 0.344536 0.125820
0.085698 0.340755 0.118595
0.084061 0.339370 0.115482
0.111642 0.331155 0.104273
0.214322 0.319885 0.092475
0.428804 0.319961 0.090354
0.611253 0.332532 0.101634
0.721992 0.342460 0.104447
0.791708 0.349279 0.111833
0.833460 0.355655 0.113580
0.850402 0.362528 0.115897
0.854338 0.364767 0.113822
0.854337 0.364762 0.115879
0.853786 0.359431 0.115546
0.090309 0.398223 0.144090
0.089903 0.397462 0.141106
0.090032 0.396568 0.137314
0.090687 0.393627 0.134158
0.090162 0.383786 0.123595
0.095107 0.378456 0.114840
0.157441 0.370857 0.104738
0.325589 0.360872 0.093813
0.542454 0.368482 0.096605
0.686363 0.380808 0.106116
0.780519 0.387522 0.111649
0.828261 0.397231 0.116677
0.851207 0.403250 0.118118
0.858741 0.401783 0.118812
0.856431 0.402349 0.117114
0.854626 0.396030 0.116569
0.095502 0.446840 0.155357
0.095332 0.446318 0.152252
0.095093 0.445267 0.148319
0.094904 0.442331 0.141623
0.097360 0.436739 0.138370
0.092029 0.436172 0.132308
0.115344 0.425347 0.115476
0.216873 0.412300 0.103095
0.451977 0.404078 0.095377
0.635950 0.415086 0.104498
0.746794 0.425848 0.112720
0.811307 0.437073 0.117822
0.856817 0.443572 0.120271
0.857700 0.443002 0.119318
0.858625 0.436654 0.117712
0.857550 0.436769 0.119853
0.097278 0.501626 0.171081
0.099324 0.500661 0.169729
0.099881 0.496724 0.164711
0.099989 0.495789 0.158276
0.099151 0.491768 0.147154
0.096466 0.484892 0.146156
0.099337 0.477459 0.129589
0.159292 0.466781 0.116008
0.322831 0.451100 0.104168
0.564418 0.451927 0.103799
0.710791 0.461616 0.111643
0.787623 0.472621 0.119594
0.846487 0.484007 0.125827
0.857777 0.486602 0.121061
0.861765 0.481299 0.118925
0.859429 0.477145 0.120745
0.102569 0.548077 0.189764
0.102485 0.546191 0.187879
0.103568 0.544506 0.182731
0.102781 0.541498 0.176503
0.102676 0.539078 0.169258
0.102472 0.536264 0.160332
0.102181 0.530399 0.151057
0.130324 0.516824 0.131260
0.233778 0.502300 0.117177
0.467619 0.489481 0.101995
0.655860 0.497020 0.111054
0.757673 0.511738 0.117563
0.827079 0.521047 0.125852
0.860587 0.525483 0.125535
0.861939 0.525125 0.127304
0.863754 0.516904 0.125067
0.110078 0.597735 0.220153
0.110153 0.597311 0.214494
0.109317 0.591527 0.203414
0.108628 0.591624 0.197449
0.105417 0.589924 0.194116
0.111226 0.583350 0.182176
0.103533 0.578315 0.169970
0.110427 0.570048 0.153139
0.174852 0.556723 0.131836
0.335284 0.541128 0.110561
0.577752 0.535181 0.112769
0.709757 0.546272 0.120162
0.799488 0.555666 0.124145
0.854046 0.561644 0.127600
0.865240 0.563884 0.130510
0.868389 0.558396 0.129919
0.113457 0.642647 0.250767
0.113481 0.642384 0.246456
0.113739 0.639592 0.242119
0.113679 0.639268 0.234042
0.112936 0.637306 0.228805
0.113178 0.633358 0.214482
0.112440 0.630473 0.200994
0.113757 0.622570 0.183256
0.138360 0.609037 0.154955
0.248576 0.592702 0.127757
0.468399 0.575505 0.111011
0.655311 0.578389 0.117404
0.763479 0.586590 0.126676
0.836754 0.594811 0.132978
0.867324 0.600322 0.137965
0.870172 0.600173 0.134659
0.121227 0.676533 0.301563
0.120609 0.679215 0.298588
0.119598 0.678854 0.294872
0.118354 0.677305 0.282161
0.120488 0.677073 0.276674
0.120190 0.671772 0.263506
0.118836 0.667011 0.247219
0.117307 0.661183 0.225476
0.118235 0.649532 0.191933
0.201275 0.639339 0.152912
0.362457 0.614456 0.121510
0.584039 0.603646 0.118943
0.723230 0.610185 0.127184
0.812366 0.620042 0.133705
0.861784 0.627846 0.140578
0.871256 0.624893 0.135470
0.057530 0.067582 0.086237
0.067369 0.068813 0.079203
0.108693 0.066323 0.081779
0.162430 0.078147 0.083679
0.240731 0.084426 0.081114
0.352324 0.096160 0.084637
0.475029 0.103975 0.084356
0.586386 0.110298 0.086948
0.677511 0.117935 0.088168
0.745322 0.120997 0.089662
0.797579 0.129083 0.094887
0.830654 0.135248 0.093276
0.833707 0.140879 0.093625
0.836556 0.144232 0.096129
0.838283 0.149541 0.099777
0.836336 0.150613 0.098026
0.059550 0.081348 0.092900
0.066400 0.086250 0.087145
0.102334 0.082332 0.088099
0.148598 0.090065 0.084019
0.233316 0.095343 0.085314
0.338390 0.105963 0.084650
0.470116 0.113239 0.085387
0.585448 0.119797 0.087530
0.674906 0.126529 0.089465
0.742364 0.133163 0.092329
0.794985 0.139077 0.096278
0.831432 0.147138 0.098161
0.836932 0.152479 0.099497
0.836565 0.155188 0.097614
0.836611 0.160289 0.097919
0.838606 0.162048 0.099236
0.058266 0.107209 0.105965
0.061842 0.107581 0.098034
0.087959 0.107807 0.094709
0.134496 0.111345 0.088031
0.216992 0.117634 0.090550
0.322119 0.129021 0.090420
0.453110 0.134937 0.089764
0.573523 0.142482 0.088619
0.666713 0.149141 0.088633
0.735803 0.156813 0.091596
0.792116 0.159265 0.094121
0.832257 0.161003 0.097690
0.837415 0.167195 0.099044
0.836447 0.168892 0.096304
0.836753 0.175502 0.099350
0.841131 0.174114 0.102641
0.064012 0.140242 0.115771
0.061522 0.140917 0.110045
0.072636 0.136980 0.099451
0.121549 0.136814 0.090330
0.209755 0.139970 0.085974
0.317648 0.150930 0.086589
0.446015 0.159326 0.092756
0.560592 0.167082 0.092605
0.655124 0.175720 0.092392
0.727636 0.186356 0.095048
0.785448 0.192191 0.098747
0.823584 0.195236 0.103002
0.836408 0.195606 0.102209
0.839462 0.188322 0.101928
0.839196 0.188700 0.103216
0.840341 0.188947 0.102595
0.067044 0.178730 0.125024
0.067175 0.180803 0.124949
0.073766 0.171055 0.115136
0.101592 0.172521 0.101682
0.181684 0.171405 0.085474
0.308085 0.177127 0.086434
0.449016 0.184477 0.088804
0.566881 0.191172 0.090493
0.661315 0.201912 0.094578
0.728465 0.213052 0.099543
0.779113 0.217834 0.100828
0.819995 0.226539 0.104676
0.839341 0.233960 0.108265
0.841862 0.231768 0.104670
0.843696 0.227275 0.106654
0.843349 0.212074 0.104464
0.070168 0.224216 0.144048
0.071917 0.222426 0.135544
0.075530 0.217625 0.128284
0.081214 0.216080 0.114280
0.137442 0.212208 0.101152
0.255516 0.210675 0.087109
0.434886 0.214842 0.088108
0.569636 0.222102 0.091815
0.666079 0.230767 0.096375
0.733043 0.240789 0.099564
0.786457 0.248835 0.105266
0.827949 0.256103 0.108924
0.844175 0.264296 0.109852
0.846855 0.268643 0.108097
0.844394 0.268643 0.108313
0.847844 0.262851 0.108692
0.076591 0.268688 0.149844
0.077131 0.264954 0.143818
0.075458 0.262489 0.134303
0.081497 0.257316 0.123773
0.102394 0.258797 0.115140
0.193520 0.250147 0.098601
0.378842 0.249505 0.090991
0.548916 0.256884 0.094126
0.665037 0.265884 0.096437
0.737927 0.274735 0.100615
0.789869 0.281477 0.105062
0.832796 0.289583 0.110301
0.847049 0.296495 0.111930
0.851577 0.299658 0.113244
0.850413 0.302057 0.112729
0.849947 0.298359 0.111550
0.082637 0.320463 0.162047
0.085025 0.317775 0.156515
0.080793 0.312512 0.147565
0.080756 0.308850 0.139288
0.086146 0.308077 0.127875
0.139973 0.298140 0.108568
0.285269 0.292322 0.094228
0.507106 0.292355 0.093098
0.645479 0.303091 0.102865
0.734112 0.310772 0.102918
0.793966 0.317353 0.109179
0.834616 0.325379 0.115196
0.846618 0.331998 0.112647
0.852901 0.334241 0.112442
0.850758 0.335126 0.111725
0.851415 0.334593 0.111664
0.087763 0.367884 0.170684
0.087587 0.367356 0.165002
0.088560 0.363417 0.159886
0.087754 0.359784 0.150952
0.084264 0.359120 0.146250
0.112497 0.350485 0.128850
0.203717 0.339514 0.108287
0.422152 0.332293 0.093510
0.605295 0.338610 0.098161
0.720729 0.351100 0.104702
0.788662 0.357290 0.109685
0.834217 0.362792 0.112310
0.850899 0.368591 0.118545
0.853417 0.367711 0.116554
0.853715 0.371658 0.116941
0.853999 0.366136 0.115750
0.089257 0.417743 0.183744
0.090588 0.416335 0.176323
0.091187 0.413323 0.172069
0.091049 0.410462 0.164442
0.091188 0.404755 0.156655
0.097873 0.400556 0.143808
0.153047 0.393327 0.122265
0.302730 0.376548 0.098653
0.537695 0.379101 0.100105
0.680940 0.386237 0.104902
0.775882 0.394087 0.110313
0.828016 0.402432 0.114315
0.850714 0.409505 0.117728
0.858088 0.407083 0.118868
0.856611 0.406440 0.117951
0.858278 0.403535 0.117408
0.097634 0.467605 0.200048
0.096429 0.465338 0.193108
0.098306 0.464396 0.186735
0.095545 0.461273 0.179480
0.098417 0.455752 0.171942
0.095822 0.454856 0.164783
0.117163 0.445468 0.144320
0.212720 0.428834 0.111617
0.428659 0.416576 0.100300
0.633335 0.420734 0.106558
0.748428 0.429420 0.115103
0.817568 0.443171 0.119407
0.854816 0.447745 0.121138
0.858897 0.449771 0.120011
0.857940 0.446391 0.120976
0.856630 0.444394 0.119853
0.101265 0.516797 0.212829
0.101232 0.514397 0.207330
0.099902 0.511562 0.198626
0.100053 0.510690 0.195564
0.099702 0.506714 0.181271
0.098078 0.504628 0.179689
0.100858 0.495829 0.157809
0.159070 0.485215 0.134303
0.319454 0.465626 0.109131
0.560224 0.457069 0.103260
0.704689 0.466835 0.113785
0.790922 0.479932 0.119511
0.844043 0.488862 0.126535
0.857214 0.490270 0.122485
0.861230 0.486459 0.123622
0.861584 0.484477 0.122410
0.105243 0.565598 0.232706
0.105590 0.565011 0.229233
0.105553 0.561784 0.222182
0.104165 0.559981 0.215074
0.102442 0.559114 0.206827
0.102468 0.550351 0.197602
0.101257 0.545802 0.183403
0.126289 0.535493 0.157370
0.228649 0.518296 0.125893
0.457468 0.501184 0.107648
0.645528 0.504428 0.108473
0.755708 0.514766 0.120011
0.826117 0.523029 0.127157
0.864156 0.525556 0.129388
0.867374 0.525301 0.130217
0.863827 0.524676 0.128242
0.112462 0.614448 0.263909
0.110834 0.609781 0.258799
0.109797 0.607562 0.249198
0.110166 0.606795 0.243103
0.107831 0.604163 0.238927
0.109667 0.603534 0.224261
0.110154 0.593523 0.205687
0.110442 0.587541 0.186903
0.175909 0.572704 0.149929
0.327688 0.550515 0.117039
0.564628 0.541506 0.110633
0.706180 0.550690 0.122928
0.798667 0.559237 0.126560
0.857143 0.563904 0.132791
0.868907 0.562032 0.133520
0.868269 0.564651 0.133114
0.117272 0.659986 0.302989
0.116592 0.657921 0.297496
0.114096 0.654460 0.288678
0.114656 0.653173 0.284037
0.114703 0.652876 0.275794
0.115815 0.648130 0.262517
0.113738 0.645714 0.245946
0.113424 0.635567 0.222305
0.139982 0.625795 0.186076
0.247603 0.605351 0.139513
0.458178 0.585659 0.114699
0.652052 0.583317 0.116632
0.760328 0.592138 0.125946
0.833753 0.600939 0.130931
0.869484 0.600666 0.135011
0.870249 0.600919 0.132581
0.120746 0.696998 0.356932
0.119612 0.696274 0.353170
0.120614 0.695567 0.346413
0.120281 0.694433 0.338023
0.117824 0.690197 0.328517
0.119506 0.688930 0.318913
0.117877 0.685344 0.301014
0.118776 0.677327 0.277175
0.116505 0.667933 0.235471
0.200615 0.650655 0.177467
0.355500 0.629664 0.132080
0.575628 0.615569 0.124983
0.715918 0.617492 0.124512
0.808823 0.625089 0.127919
0.866821 0.632703 0.139648
0.872399 0.627786 0.132779
0.062617 0.077944 0.123465
0.067243 0.078637 0.116177
0.101785 0.077973 0.121259
0.159227 0.076828 0.111055
0.238455 0.090406 0.106803
0.342887 0.098315 0.105266
0.467884 0.107630 0.103370
0.577712 0.114349 0.102440
0.668168 0.120842 0.097989
0.738279 0.126282 0.099177
0.793033 0.130604 0.099412
0.832516 0.136666 0.098439
0.837044 0.143517 0.097088
0.838063 0.148787 0.099749
0.835992 0.150258 0.098021
0.836336 0.151202 0.097491
0.061909 0.088892 0.128672
0.065790 0.093905 0.122221
0.096134 0.090719 0.122240
0.151114 0.088525 0.112102
0.231012 0.100914 0.114604
0.329347 0.113082 0.111484
0.459440 0.121272 0.108509
0.575890 0.127003 0.105889
0.664603 0.133894 0.104285
0.733811 0.139003 0.102268
0.790353 0.143369 0.099032
0.829472 0.150786 0.100350
0.836794 0.156255 0.098108
0.838650 0.158805 0.098145
0.839413 0.162902 0.098273
0.840848 0.164428 0.099366
0.062842 0.110540 0.133112
0.062897 0.112422 0.125874
0.087494 0.117326 0.126993
0.128557 0.124212 0.121568
0.214816 0.127400 0.118772
0.317415 0.134944 0.115559
0.444004 0.143233 0.116308
0.566826 0.148409 0.109814
0.662082 0.152782 0.107286
0.731820 0.157556 0.103087
0.786812 0.159103 0.101556
0.826915 0.164320 0.101343
0.836340 0.171598 0.101118
0.836808 0.174879 0.100637
0.840021 0.176270 0.101211
0.840057 0.181462 0.103271
0.066492 0.150857 0.155581
0.064695 0.148525 0.146320
0.071483 0.150151 0.136722
0.112471 0.154770 0.127143
0.192522 0.158488 0.123682
0.297996 0.166936 0.121455
0.431232 0.176186 0.119242
0.550396 0.185352 0.114326
0.648682 0.191367 0.112284
0.722478 0.196151 0.106873
0.780961 0.196334 0.106429
0.821713 0.199702 0.104758
0.837830 0.202690 0.105726
0.840919 0.193953 0.102031
0.839244 0.197399 0.103847
0.840243 0.192502 0.103018
0.069988 0.197418 0.174308
0.068112 0.195646 0.166726
0.073143 0.189818 0.159929
0.096062 0.189214 0.140413
0.166949 0.190171 0.124224
0.288301 0.193330 0.117088
0.429846 0.203848 0.115281
0.545030 0.213487 0.113553
0.643497 0.221453 0.113846
0.719385 0.229038 0.112167
0.777678 0.231327 0.110744
0.819157 0.235432 0.108198
0.842400 0.240808 0.109036
0.843868 0.241195 0.104979
0.841563 0.237441 0.107439
0.843660 0.219451 0.103812
0.075681 0.244290 0.190289
0.072822 0.241346 0.179194
0.075322 0.238038 0.175209
0.080256 0.238448 0.159374
0.129932 0.233052 0.139324
0.243273 0.231348 0.115817
0.416789 0.234607 0.108863
0.547767 0.246542 0.108355
0.648445 0.252574 0.110273
0.723066 0.259748 0.107950
0.778600 0.262114 0.108671
0.822277 0.268455 0.112266
0.844275 0.274596 0.111292
0.846311 0.278530 0.108940
0.846190 0.276371 0.108438
0.847855 0.272371 0.108377
0.079781 0.289608 0.201886
0.079033 0.289053 0.201460
0.079579 0.288852 0.192196
0.082889 0.282707 0.176207
0.100273 0.281325 0.158057
0.183175 0.277429 0.132246
0.362644 0.272771 0.112358
0.537442 0.275521 0.103011
0.651677 0.284954 0.106629
0.725088 0.293623 0.106266
0.787454 0.297331 0.111786
0.825325 0.301997 0.111108
0.849004 0.305960 0.112957
0.849236 0.308106 0.110308
0.852296 0.309065 0.112507
0.852130 0.307927 0.111002
0.084157 0.344088 0.221003
0.084755 0.339637 0.215228
0.083587 0.338143 0.205801
0.082243 0.332111 0.190351
0.091073 0.331117 0.175342
0.134875 0.328040 0.152350
0.273408 0.316927 0.121982
0.491602 0.314116 0.103610
