example_ofxGpuLutCube/bin/data/ofxGpuLutCube/LUT/T9 (smooth clear).cube
LUT_3D_SIZE 16
0.017794 0.019733 0.000000
0.082814 0.019733 0.000000
0.148840 0.019733 0.000000
0.216149 0.019733 0.000000
0.283988 0.019733 0.000000
0.353214 0.019733 0.000000
0.421345 0.019733 0.000000
0.490191 0.019733 0.000000
0.559330 0.019733 0.000000
0.628709 0.019733 0.000000
0.698694 0.019733 0.000000
0.767436 0.019733 0.000000
0.837226 0.019733 0.000000
0.908403 0.019733 0.000000
0.966629 0.019733 0.000000
1.000000 0.019733 0.000000
0.017794 0.097707 0.000000
0.082814 0.097707 0.000000
0.148840 0.097707 0.000000
0.216149 0.097707 0.000000
0.283988 0.097707 0.000000
0.353214 0.097707 0.000000
0.421345 0.097707 0.000000
0.490191 0.097707 0.000000
0.559330 0.097707 0.000000
0.628709 0.097707 0.000000
0.698694 0.097707 0.000000
0.767436 0.097707 0.000000
0.837226 0.097707 0.000000
0.908403 0.097707 0.000000
0.966629 0.097707 0.000000
1.000000 0.097707 0.000000
0.017794 0.173227 0.000000
0.082814 0.173227 0.000000
0.148840 0.173227 0.000000
0.216149 0.173227 0.000000
0.283988 0.173227 0.000000
0.353214 0.173227 0.000000
0.421345 0.173227 0.000000
0.490191 0.173227 0.000000
0.559330 0.173227 0.000000
0.628709 0.173227 0.000000
0.698694 0.173227 0.000000
0.767436 0.173227 0.000000
0.837226 0.173227 0.000000
0.908403 0.173227 0.000000
0.966629 0.173227 0.000000
1.000000 0.173227 0.000000
0.017794 0.247570 0.000000
0.082814 0.247570 0.000000
0.148840 0.247570 0.000000
0.216149 0.247570 0.000000
0.283988 0.247570 0.000000
0.353214 0.247570 0.000000
0.421345 0.247570 0.000000
0.490191 0.247570 0.000000
0.559330 0.247570 0.000000
0.628709 0.247570 0.000000
0.698694 0.247570 0.000000
0.767436 0.247570 0.000000
0.837226 0.247570 0.000000
0.908403 0.247570 0.000000
0.966629 0.247570 0.000000
1.000000 0.247570 0.000000
0.017794 0.321107 0.000000
0.082814 0.321107 0.000000
0.148840 0.321107 0.000000
0.216149 0.321107 0.000000
0.283988 0.321107 0.000000
0.353214 0.321107 0.000000
0.421345 0.321107 0.000000
0.490191 0.321107 0.000000
0.559330 0.321107 0.000000
0.628709 0.321107 0.000000
0.698694 0.321107 0.000000
0.767436 0.321107 0.000000
0.837226 0.321107 0.000000
0.908403 0.321107 0.000000
0.966629 0.321107 0.000000
1.000000 0.321107 0.000000
0.017794 0.394068 0.000000
0.082814 0.394068 0.000000
0.148840 0.394068 0.000000
0.216149 0.394068 0.000000
0.283988 0.394068 0.000000
0.353214 0.394068 0.000000
0.421345 0.394068 0.000000
0.490191 0.394068 0.000000
0.559330 0.394068 0.000000
0.628709 0.394068 0.000000
0.698694 0.394068 0.000000
0.767436 0.394068 0.000000
0.837226 0.394068 0.000000
0.908403 0.394068 0.000000
0.966629 0.394068 0.000000
1.000000 0.394068 0.000000
0.017794 0.466521 0.000000
0.082814 0.466521 0.000000
0.148840 0.466521 0.000000
0.216149 0.466521 0.000000
0.283988 0.466521 0.000000
0.353214 0.466521 0.000000
0.421345 0.466521 0.000000
0.490191 0.466521 0.000000
0.559330 0.466521 0.000000
0.628709 0.466521 0.000000
0.698694 0.466521 0.000000
0.767436 0.466521 0.000000
0.837226 0.466521 0.000000
0.908403 0.466521 0.000000
0.966629 0.466521 0.000000
1.000000 0.466521 0.000000
0.017794 0.538523 0.000000
0.082814 0.538523 0.000000
0.148840 0.538523 0.000000
0.216149 0.538523 0.000000
0.283988 0.538523 0.000000
0.353214 0.538523 0.000000
0.421345 0.538523 0.000000
0.490191 0.538523 0.000000
0.559330 0.538523 0.000000
0.628709 0.538523 0.000000
0.698694 0.538523 0.000000
0.767436 0.538523 0.000000
0.837226 0.538523 0.000000
0.908403 0.538523 0.000000
0.966629 0.538523 0.000000
1.000000 0.538523 0.000000
0.017794 0.610323 0.000000
0.082814 0.610323 0.000000
0.148840 0.610323 0.000000
0.216149 0.610323 0.000000
0.283988 0.610323 0.000000
0.353214 0.610323 0.000000
0.421345 0.610323 0.000000
0.490191 0.610323 0.000000
0.559330 0.610323 0.000000
0.628709 0.610323 0.000000
0.698694 0.610323 0.000000
0.767436 0.610323 0.000000
0.837226 0.610323 0.000000
0.908403 0.610323 0.000000
0.966629 0.610323 0.000000
1.000000 0.610323 0.000000
0.017794 0.681796 0.000000
0.082814 0.681796 0.000000
0.148840 0.681796 0.000000
0.216149 0.681796 0.000000
0.283988 0.681796 0.000000
0.353214 0.681796 0.000000
0.421345 0.681796 0.000000
0.490191 0.681796 0.000000
0.559330 0.681796 0.000000
0.628709 0.681796 0.000000
0.698694 0.681796 0.000000
0.767436 0.681796 0.000000
0.837226 0.681796 0.000000
0.908403 0.681796 0.000000
0.966629 0.681796 0.000000
1.000000 0.681796 0.000000
0.017794 0.752969 0.000000
0.082814 0.752969 0.000000
0.148840 0.752969 0.000000
0.216149 0.752969 0.000000
0.283988 0.752969 0.000000
0.353214 0.752969 0.000000
0.421345 0.752969 0.000000
0.490191 0.752969 0.000000
0.559330 0.752969 0.000000
0.628709 0.752969 0.000000
0.698694 0.752969 0.000000
0.767436 0.752969 0.000000
0.837226 0.752969 0.000000
0.908403 0.752969 0.000000
0.966629 0.752969 0.000000
1.000000 0.752969 0.000000
0.017794 0.823910 0.000000
0.082814 0.823910 0.000000
0.148840 0.823910 0.000000
0.216149 0.823910 0.000000
0.283988 0.823910 0.000000
0.353214 0.823910 0.000000
0.421345 0.823910 0.000000
0.490191 0.823910 0.000000
0.559330 0.823910 0.000000
0.628709 0.823910 0.000000
0.698694 0.823910 0.000000
0.767436 0.823910 0.000000
0.837226 0.823910 0.000000
0.908403 0.823910 0.000000
0.966629 0.823910 0.000000
1.000000 0.823910 0.000000
0.017794 0.894588 0.000000
0.082814 0.894588 0.000000
0.148840 0.894588 0.000000
0.216149 0.894588 0.000000
0.283988 0.894588 0.000000
0.353214 0.894588 0.000000
0.421345 0.894588 0.000000
0.490191 0.894588 0.000000
0.559330 0.894588 0.000000
0.628709 0.894588 0.000000
0.698694 0.894588 0.000000
0.767436 0.894588 0.000000
0.837226 0.894588 0.000000
0.908403 0.894588 0.000000
0.966629 0.894588 0.000000
1.000000 0.894588 0.000000
0.017794 0.955011 0.000000
0.082814 0.955011 0.000000
0.148840 0.955011 0.000000
0.216149 0.955011 0.000000
0.283988 0.955011 0.000000
0.353214 0.955011 0.000000
0.421345 0.955011 0.000000
0.490191 0.955011 0.000000
0.559330 0.955011 0.000000
0.628709 0.955011 0.000000
0.698694 0.955011 0.000000
0.767436 0.955011 0.000000
0.837226 0.955011 0.000000
0.908403 0.955011 0.000000
0.966629 0.955011 0.000000
1.000000 0.955011 0.000000
0.017794 0.989501 0.000000
0.082814 0.989501 0.000000
0.148840 0.989501 0.000000
0.216149 0.989501 0.000000
0.283988 0.989501 0.000000
0.353214 0.989501 0.000000
0.421345 0.989501 0.000000
0.490191 0.989501 0.000000
0.559330 0.989501 0.000000
0.628709 0.989501 0.000000
0.698694 0.989501 0.000000
0.767436 0.989501 0.000000
0.837226 0.989501 0.000000
0.908403 0.989501 0.000000
0.966629 0.989501 0.000000
1.000000 0.989501 0.000000
0.017794 1.000000 0.000000
0.082814 1.000000 0.000000
0.148840 1.000000 0.000000
0.216149 1.000000 0.000000
0.283988 1.000000 0.000000
0.353214 1.000000 0.000000
0.421345 1.000000 0.000000
0.490191 1.000000 0.000000
0.559330 1.000000 0.000000
0.628709 1.000000 0.000000
0.698694 1.000000 0.000000
0.767436 1.000000 0.000000
0.837226 1.000000 0.000000
0.908403 1.000000 0.000000
0.966629 1.000000 0.000000
1.000000 1.000000 0.000000
0.017794 0.019733 0.114255
0.082814 0.019733 0.114255
0.148840 0.019733 0.114255
0.216149 0.019733 0.114255
0.283988 0.019733 0.114255
0.353214 0.019733 0.114255
0.421345 0.019733 0.114255
0.490191 0.019733 0.114255
0.559330 0.019733 0.114255
0.628709 0.019733 0.114255
0.698694 0.019733 0.114255
0.767436 0.019733 0.114255
0.837226 0.019733 0.114255
0.908403 0.019733 0.114255
0.966629 0.019733 0.114255
1.000000 0.019733 0.114255
0.017794 0.097707 0.114255
0.082814 0.097707 0.114255
0.148840 0.097707 0.114255
0.216149 0.097707 0.114255
0.283988 0.097707 0.114255
0.353214 0.097707 0.114255
0.421345 0.097707 0.114255
0.490191 0.097707 0.114255
0.559330 0.097707 0.114255
0.628709 0.097707 0.114255
0.698694 0.097707 0.114255
0.767436 0.097707 0.114255
0.837226 0.097707 0.114255
0.908403 0.097707 0.114255
0.966629 0.097707 0.114255
1.000000 0.097707 0.114255
0.017794 0.173227 0.114255
0.082814 0.173227 0.114255
0.148840 0.173227 0.114255
0.216149 0.173227 0.114255
0.283988 0.173227 0.114255
0.353214 0.173227 0.114255
0.421345 0.173227 0.114255
0.490191 0.173227 0.114255
0.559330 0.173227 0.114255
0.628709 0.173227 0.114255
0.698694 0.173227 0.114255
0.767436 0.173227 0.114255
0.837226 0.173227 0.114255
0.908403 0.173227 0.114255
0.966629 0.173227 0.114255
1.000000 0.173227 0.114255
0.017794 0.247570 0.114255
0.082814 0.247570 0.114255
0.148840 0.247570 0.114255
0.216149 0.247570 0.114255
0.283988 0.247570 0.114255
0.353214 0.247570 0.114255
0.421345 0.247570 0.114255
0.490191 0.247570 0.114255
0.559330 0.247570 0.114255
0.628709 0.247570 0.114255
0.698694 0.247570 0.114255
0.767436 0.247570 0.114255
0.837226 0.247570 0.114255
0.908403 0.247570 0.114255
0.966629 0.247570 0.114255
1.000000 0.247570 0.114255
0.017794 0.321107 0.114255
0.082814 0.321107 0.114255
0.148840 0.321107 0.114255
0.216149 0.321107 0.114255
0.283988 0.321107 0.114255
0.353214 0.321107 0.114255
0.421345 0.321107 0.114255
0.490191 0.321107 0.114255
0.559330 0.321107 0.114255
0.628709 0.321107 0.114255
0.698694 0.321107 0.114255
0.767436 0.321107 0.114255
0.837226 0.321107 0.114255
0.908403 0.321107 0.114255
0.966629 0.321107 0.114255
1.000000 0.321107 0.114255
0.017794 0.394068 0.114255
0.082814 0.394068 0.114255
0.148840 0.394068 0.114255
0.216149 0.394068 0.114255
0.283988 0.394068 0.114255
0.353214 0.394068 0.114255
0.421345 0.394068 0.114255
0.490191 0.394068 0.114255
0.559330 0.394068 0.114255
0.628709 0.394068 0.114255
0.698694 0.394068 0.114255
0.767436 0.394068 0.114255
0.837226 0.394068 0.114255
0.908403 0.394068 0.114255
0.966629 0.394068 0.114255
1.000000 0.394068 0.114255
0.017794 0.466521 0.114255
0.082814 0.466521 0.114255
0.148840 0.466521 0.114255
0.216149 0.466521 0.114255
0.283988 0.466521 0.114255
0.353214 0.466521 0.114255
0.421345 0.466521 0.114255
0.490191 0.466521 0.114255
0.559330 0.466521 0.114255
0.628709 0.466521 0.114255
0.698694 0.466521 0.114255
0.767436 0.466521 0.114255
0.837226 0.466521 0.114255
0.908403 0.466521 0.114255
0.966629 0.466521 0.114255
1.000000 0.466521 0.114255
0.017794 0.538523 0.114255
0.082814 0.538523 0.114255
0.148840 0.538523 0.114255
0.216149 0.538523 0.114255
0.283988 0.538523 0.114255
0.353214 0.538523 0.114255
0.421345 0.538523 0.114255
0.490191 0.538523 0.114255
0.559330 0.538523 0.114255
0.628709 0.538523 0.114255
0.698694 0.538523 0.114255
0.767436 0.538523 0.114255
0.837226 0.538523 0.114255
0.908403 0.538523 0.114255
0.966629 0.538523 0.114255
1.000000 0.538523 0.114255
0.017794 0.610323 0.114255
0.082814 0.610323 0.114255
0.148840 0.610323 0.114255
0.216149 0.610323 0.114255
0.283988 0.610323 0.114255
0.353214 0.610323 0.114255
0.421345 0.610323 0.114255
0.490191 0.610323 0.114255
0.559330 0.610323 0.114255
0.628709 0.610323 0.114255
0.698694 0.610323 0.114255
0.767436 0.610323 0.114255
0.837226 0.610323 0.114255
0.908403 0.610323 0.114255
0.966629 0.610323 0.114255
1.000000 0.610323 0.114255
0.017794 0.681796 0.114255
0.082814 0.681796 0.114255
0.148840 0.681796 0.114255
0.216149 0.681796 0.114255
0.283988 0.681796 0.114255
0.353214 0.681796 0.114255
0.421345 0.681796 0.114255
0.490191 0.681796 0.114255
0.559330 0.681796 0.114255
0.628709 0.681796 0.114255
0.698694 0.681796 0.114255
0.767436 0.681796 0.114255
0.837226 0.681796 0.114255
0.908403 0.681796 0.114255
0.966629 0.681796 0.114255
1.000000 0.681796 0.114255
0.017794 0.752969 0.114255
0.082814 0.752969 0.114255
0.148840 0.752969 0.114255
0.216149 0.752969 0.114255
0.283988 0.752969 0.114255
0.353214 0.752969 0.114255
0.421345 0.752969 0.114255
0.490191 0.752969 0.114255
0.559330 0.752969 0.114255
0.628709 0.752969 0.114255
0.698694 0.752969 0.114255
0.767436 0.752969 0.114255
0.837226 0.752969 0.114255
0.908403 0.752969 0.114255
0.966629 0.752969 0.114255
1.000000 0.752969 0.114255
0.017794 0.823910 0.114255
0.082814 0.823910 0.114255
0.148840 0.823910 0.114255
0.216149 0.823910 0.114255
0.283988 0.823910 0.114255
0.353214 0.823910 0.114255
0.421345 0.823910 0.114255
0.490191 0.823910 0.114255
0.559330 0.823910 0.114255
0.628709 0.823910 0.114255
0.698694 0.823910 0.114255
0.767436 0.823910 0.114255
0.837226 0.823910 0.114255
0.908403 0.823910 0.114255
0.966629 0.823910 0.114255
1.000000 0.823910 0.114255
0.017794 0.894588 0.114255
0.082814 0.894588 0.114255
0.148840 0.894588 0.114255
0.216149 0.894588 0.114255
0.283988 0.894588 0.114255
0.353214 0.894588 0.114255
0.421345 0.894588 0.114255
0.490191 0.894588 0.114255
0.559330 0.894588 0.114255
0.628709 0.894588 0.114255
0.698694 0.894588 0.114255
0.767436 0.894588 0.114255
0.837226 0.894588 0.114255
0.908403 0.894588 0.114255
0.966629 0.894588 0.114255
1.000000 0.894588 0.114255
0.017794 0.955011 0.114255
0.082814 0.955011 0.114255
0.148840 0.955011 0.114255
0.216149 0.955011 0.114255
0.283988 0.955011 0.114255
0.353214 0.955011 0.114255
0.421345 0.955011 0.114255
0.490191 0.955011 0.114255
0.559330 0.955011 0.114255
0.628709 0.955011 0.114255
0.698694 0.955011 0.114255
0.767436 0.955011 0.114255
0.837226 0.955011 0.114255
0.908403 0.955011 0.114255
0.966629 0.955011 0.114255
1.000000 0.955011 0.114255
0.017794 0.989501 0.114255
0.082814 0.989501 0.114255
0.148840 0.989501 0.114255
0.216149 0.989501 0.114255
0.283988 0.989501 0.114255
0.353214 0.989501 0.114255
0.421345 0.989501 0.114255
0.490191 0.989501 0.114255
0.559330 0.989501 0.114255
0.628709 0.989501 0.114255
0.698694 0.989501 0.114255
0.767436 0.989501 0.114255
0.837226 0.989501 0.114255
0.908403 0.989501 0.114255
0.966629 0.989501 0.114255
1.000000 0.989501 0.114255
0.017794 1.000000 0.114255
0.082814 1.000000 0.114255
0.148840 1.000000 0.114255
0.216149 1.000000 0.114255
0.283988 1.000000 0.114255
0.353214 1.000000 0.114255
0.421345 1.000000 0.114255
0.490191 1.000000 0.114255
0.559330 1.000000 0.114255
0.628709 1.000000 0.114255
0.698694 1.000000 0.114255
0.767436 1.000000 0.114255
0.837226 1.000000 0.114255
0.908403 1.000000 0.114255
0.966629 1.000000 0.114255
1.000000 1.000000 0.114255
0.017794 0.019733 0.206680
0.082814 0.019733 0.206680
0.148840 0.019733 0.206680
0.216149 0.019733 0.206680
0.283988 0.019733 0.206680
0.353214 0.019733 0.206680
0.421345 0.019733 0.206680
0.490191 0.019733 0.206680
0.559330 0.019733 0.206680
0.628709 0.019733 0.206680
0.698694 0.019733 0.206680
0.767436 0.019733 0.206680
0.837226 0.019733 0.206680
0.908403 0.019733 0.206680
0.966629 0.019733 0.206680
1.000000 0.019733 0.206680
0.017794 0.097707 0.206680
0.082814 0.097707 0.206680
0.148840 0.097707 0.206680
0.216149 0.097707 0.206680
0.283988 0.097707 0.206680
0.353214 0.097707 0.206680
0.421345 0.097707 0.206680
0.490191 0.097707 0.206680
0.559330 0.097707 0.206680
0.628709 0.097707 0.206680
0.698694 0.097707 0.206680
0.767436 0.097707 0.206680
0.837226 0.097707 0.206680
0.908403 0.097707 0.206680
0.966629 0.097707 0.206680
1.000000 0.097707 0.206680
0.017794 0.173227 0.206680
0.082814 0.173227 0.206680
0.148840 0.173227 0.206680
0.216149 0.173227 0.206680
0.283988 0.173227 0.206680
0.353214 0.173227 0.206680
0.421345 0.173227 0.206680
0.490191 0.173227 0.206680
0.559330 0.173227 0.206680
0.628709 0.173227 0.206680
0.698694 0.173227 0.206680
0.767436 0.173227 0.206680
0.837226 0.173227 0.206680
0.908403 0.173227 0.206680
0.966629 0.173227 0.206680
1.000000 0.173227 0.206680
0.017794 0.247570 0.206680
0.082814 0.247570 0.206680
0.148840 0.247570 0.206680
0.216149 0.247570 0.206680
0.283988 0.247570 0.206680
0.353214 0.247570 0.206680
0.421345 0.247570 0.206680
0.490191 0.247570 0.206680
0.559330 0.247570 0.206680
0.628709 0.247570 0.206680
0.698694 0.247570 0.206680
0.767436 0.247570 0.206680
0.837226 0.247570 0.206680
0.908403 0.247570 0.206680
0.966629 0.247570 0.206680
1.000000 0.247570 0.206680
0.017794 0.321107 0.206680
0.082814 0.321107 0.206680
0.148840 0.321107 0.206680
0.216149 0.321107 0.206680
0.283988 0.321107 0.206680
0.353214 0.321107 0.206680
0.421345 0.321107 0.206680
0.490191 0.321107 0.206680
0.559330 0.321107 0.206680
0.628709 0.321107 0.206680
0.698694 0.321107 0.206680
0.767436 0.321107 0.206680
0.837226 0.321107 0.206680
0.908403 0.321107 0.206680
0.966629 0.321107 0.206680
1.000000 0.321107 0.206680
0.017794 0.394068 0.206680
0.082814 0.394068 0.206680
0.148840 0.394068 0.206680
0.216149 0.394068 0.206680
0.283988 0.394068 0.206680
0.353214 0.394068 0.206680
0.421345 0.394068 0.206680
0.490191 0.394068 0.206680
0.559330 0.394068 0.206680
0.628709 0.394068 0.206680
0.698694 0.394068 0.206680
0.767436 0.394068 0.206680
0.837226 0.394068 0.206680
0.908403 0.394068 0.206680
0.966629 0.394068 0.206680
1.000000 0.394068 0.206680
0.017794 0.466521 0.206680
0.082814 0.466521 0.206680
0.148840 0.466521 0.206680
0.216149 0.466521 0.206680
0.283988 0.466521 0.206680
0.353214 0.466521 0.206680
0.421345 0.466521 0.206680
0.490191 0.466521 0.206680
0.559330 0.466521 0.206680
0.628709 0.466521 0.206680
0.698694 0.466521 0.206680
0.767436 0.466521 0.206680
0.837226 0.466521 0.206680
0.908403 0.466521 0.206680
0.966629 0.466521 0.206680
1.000000 0.466521 0.206680
0.017794 0.538523 0.206680
0.082814 0.538523 0.206680
0.148840 0.538523 0.206680
0.216149 0.538523 0.206680
0.283988 0.538523 0.206680
0.353214 0.538523 0.206680
0.421345 0.538523 0.206680
0.490191 0.538523 0.206680
0.559330 0.538523 0.206680
0.628709 0.538523 0.206680
0.698694 0.538523 0.206680
0.767436 0.538523 0.206680
0.837226 0.538523 0.206680
0.908403 0.538523 0.206680
0.966629 0.538523 0.206680
1.000000 0.538523 0.206680
0.017794 0.610323 0.206680
0.082814 0.610323 0.206680
0.148840 0.610323 0.206680
0.216149 0.610323 0.206680
0.283988 0.610323 0.206680
0.353214 0.610323 0.206680
0.421345 0.610323 0.206680
0.490191 0.610323 0.206680
0.559330 0.610323 0.206680
0.628709 0.610323 0.206680
0.698694 0.610323 0.206680
0.767436 0.610323 0.206680
0.837226 0.610323 0.206680
0.908403 0.610323 0.206680
0.966629 0.610323 0.206680
1.000000 0.610323 0.206680
0.017794 0.681796 0.206680
0.082814 0.681796 0.206680
0.148840 0.681796 0.206680
0.216149 0.681796 0.206680
0.283988 0.681796 0.206680
0.353214 0.681796 0.206680
0.421345 0.681796 0.206680
0.490191 0.681796 0.206680
0.559330 0.681796 0.206680
0.628709 0.681796 0.206680
0.698694 0.681796 0.206680
0.767436 0.681796 0.206680
0.837226 0.681796 0.206680
0.908403 0.681796 0.206680
0.966629 0.681796 0.206680
1.000000 0.681796 0.206680
0.017794 0.752969 0.206680
0.082814 0.752969 0.206680
0.148840 0.752969 0.206680
0.216149 0.752969 0.206680
0.283988 0.752969 0.206680
0.353214 0.752969 0.206680
0.421345 0.752969 0.206680
0.490191 0.752969 0.206680
0.559330 0.752969 0.206680
0.628709 0.752969 0.206680
0.698694 0.752969 0.206680
0.767436 0.752969 0.206680
0.837226 0.752969 0.206680
0.908403 0.752969 0.206680
0.966629 0.752969 0.206680
1.000000 0.752969 0.206680
0.017794 0.823910 0.206680
0.082814 0.823910 0.206680
0.148840 0.823910 0.206680
0.216149 0.823910 0.206680
0.283988 0.823910 0.206680
0.353214 0.823910 0.206680
0.421345 0.823910 0.206680
0.490191 0.823910 0.206680
0.559330 0.823910 0.206680
0.628709 0.823910 0.206680
0.698694 0.823910 0.206680
0.767436 0.823910 0.206680
0.837226 0.823910 0.206680
0.908403 0.823910 0.206680
0.966629 0.823910 0.206680
1.000000 0.823910 0.206680
0.017794 0.894588 0.206680
0.082814 0.894588 0.206680
0.148840 0.894588 0.206680
0.216149 0.894588 0.206680
0.283988 0.894588 0.206680
0.353214 0.894588 0.206680
0.421345 0.894588 0.206680
0.490191 0.894588 0.206680
0.559330 0.894588 0.206680
0.628709 0.894588 0.206680
0.698694 0.894588 0.206680
0.767436 0.894588 0.206680
0.837226 0.894588 0.206680
0.908403 0.894588 0.206680
0.966629 0.894588 0.206680
1.000000 0.894588 0.206680
0.017794 0.955011 0.206680
0.082814 0.955011 0.206680
0.148840 0.955011 0.206680
0.216149 0.955011 0.206680
0.283988 0.955011 0.206680
0.353214 0.955011 0.206680
0.421345 0.955011 0.206680
0.490191 0.955011 0.206680
0.559330 0.955011 0.206680
0.628709 0.955011 0.206680
0.698694 0.955011 0.206680
0.767436 0.955011 0.206680
0.837226 0.955011 0.206680
0.908403 0.955011 0.206680
0.966629 0.955011 0.206680
1.000000 0.955011 0.206680
0.017794 0.989501 0.206680
0.082814 0.989501 0.206680
0.148840 0.989501 0.206680
0.216149 0.989501 0.206680
0.283988 0.989501 0.206680
0.353214 0.989501 0.206680
0.421345 0.989501 0.206680
0.490191 0.989501 0.206680
0.559330 0.989501 0.206680
0.628709 0.989501 0.206680
0.698694 0.989501 0.206680
0.767436 0.989501 0.206680
0.837226 0.989501 0.206680
0.908403 0.989501 0.206680
0.966629 0.989501 0.206680
1.000000 0.989501 0.206680
0.017794 1.000000 0.206680
0.082814 1.000000 0.206680
0.148840 1.000000 0.206680
0.216149 1.000000 0.206680
0.283988 1.000000 0.206680
0.353214 1.000000 0.206680
0.421345 1.000000 0.206680
0.490191 1.000000 0.206680
0.559330 1.000000 0.206680
0.628709 1.000000 0.206680
0.698694 1.000000 0.206680
0.767436 1.000000 0.206680
0.837226 1.000000 0.206680
0.908403 1.000000 0.206680
0.966629 1.000000 0.206680
1.000000 1.000000 0.206680
0.017794 0.019733 0.291984
0.082814 0.019733 0.291984
0.148840 0.019733 0.291984
0.216149 0.019733 0.291984
0.283988 0.019733 0.291984
0.353214 0.019733 0.291984
0.421345 0.019733 0.291984
0.490191 0.019733 0.291984
0.559330 0.019733 0.291984
0.628709 0.019733 0.291984
0.698694 0.019733 0.291984
0.767436 0.019733 0.291984
0.837226 0.019733 0.291984
0.908403 0.019733 0.291984
0.966629 0.019733 0.291984
1.000000 0.019733 0.291984
0.017794 0.097707 0.291984
0.082814 0.097707 0.291984
0.148840 0.097707 0.291984
0.216149 0.097707 0.291984
0.283988 0.097707 0.291984
0.353214 0.097707 0.291984
0.421345 0.097707 0.291984
0.490191 0.097707 0.291984
0.559330 0.097707 0.291984
0.628709 0.097707 0.291984
0.698694 0.097707 0.291984
0.767436 0.097707 0.291984
0.837226 0.097707 0.291984
0.908403 0.097707 0.291984
0.966629 0.097707 0.291984
1.000000 0.097707 0.291984
0.017794 0.173227 0.291984
0.082814 0.173227 0.291984
0.148840 0.173227 0.291984
0.216149 0.173227 0.291984
0.283988 0.173227 0.291984
0.353214 0.173227 0.291984
0.421345 0.173227 0.291984
0.490191 0.173227 0.291984
0.559330 0.173227 0.291984
0.628709 0.173227 0.291984
0.698694 0.173227 0.291984
0.767436 0.173227 0.291984
0.837226 0.173227 0.291984
0.908403 0.173227 0.291984
0.966629 0.173227 0.291984
1.000000 0.173227 0.291984
0.017794 0.247570 0.291984
0.082814 0.247570 0.291984
0.148840 0.247570 0.291984
0.216149 0.247570 0.291984
0.283988 0.247570 0.291984
0.353214 0.247570 0.291984
0.421345 0.247570 0.291984
0.490191 0.247570 0.291984
0.559330 0.247570 0.291984
0.628709 0.247570 0.291984
0.698694 0.247570 0.291984
0.767436 0.247570 0.291984
0.837226 0.247570 0.291984
0.908403 0.247570 0.291984
0.966629 0.247570 0.291984
1.000000 0.247570 0.291984
0.017794 0.321107 0.291984
0.082814 0.321107 0.291984
0.148840 0.321107 0.291984
0.216149 0.321107 0.291984
0.283988 0.321107 0.291984
0.353214 0.321107 0.291984
0.421345 0.321107 0.291984
0.490191 0.321107 0.291984
0.559330 0.321107 0.291984
0.628709 0.321107 0.291984
0.698694 0.321107 0.291984
0.767436 0.321107 0.291984
0.837226 0.321107 0.291984
0.908403 0.321107 0.291984
0.966629 0.321107 0.291984
1.000000 0.321107 0.291984
0.017794 0.394068 0.291984
0.082814 0.394068 0.291984
0.148840 0.394068 0.291984
0.216149 0.394068 0.291984
0.283988 0.394068 0.291984
0.353214 0.394068 0.291984
0.421345 0.394068 0.291984
0.490191 0.394068 0.291984
0.559330 0.394068 0.291984
0.628709 0.394068 0.291984
0.698694 0.394068 0.291984
0.767436 0.394068 0.291984
0.837226 0.394068 0.291984
0.908403 0.394068 0.291984
0.966629 0.394068 0.291984
1.000000 0.394068 0.291984
0.017794 0.466521 0.291984
0.082814 0.466521 0.291984
0.148840 0.466521 0.291984
0.216149 0.466521 0.291984
0.283988 0.466521 0.291984
0.353214 0.466521 0.291984
0.421345 0.466521 0.291984
0.490191 0.466521 0.291984
0.559330 0.466521 0.291984
0.628709 0.466521 0.291984
0.698694 0.466521 0.291984
0.767436 0.466521 0.291984
0.837226 0.466521 0.291984
0.908403 0.466521 0.291984
0.966629 0.466521 0.291984
1.000000 0.466521 0.291984
0.017794 0.538523 0.291984
0.082814 0.538523 0.291984
0.148840 0.538523 0.291984
0.216149 0.538523 0.291984
0.283988 0.538523 0.291984
0.353214 0.538523 0.291984
0.421345 0.538523 0.291984
0.490191 0.538523 0.291984
