example_ofxGpuLutCube/bin/data/ofxGpuLutCube/LUT/T9 (smooth clear).cube
LUT_3D_SIZE 6
0.017794 0.019733 0.000000
0.216149 0.019733 0.000000
0.421345 0.019733 0.000000
0.628709 0.019733 0.000000
0.837226 0.019733 0.000000
1.000000 0.019733 0.000000
0.017794 0.247570 0.000000
0.216149 0.247570 0.000000
0.421345 0.247570 0.000000
0.628709 0.247570 0.000000
0.837226 0.247570 0.000000
1.000000 0.247570 0.000000
0.017794 0.466521 0.000000
0.216149 0.466521 0.000000
0.421345 0.466521 0.000000
0.628709 0.466521 0.000000
0.837226 0.466521 0.000000
1.000000 0.466521 0.000000
0.017794 0.681796 0.000000
0.216149 0.681796 0.000000
0.421345 0.681796 0.000000
0.628709 0.681796 0.000000
0.837226 0.681796 0.000000
1.000000 0.681796 0.000000
0.017794 0.894588 0.000000
0.216149 0.894588 0.000000
0.421345 0.894588 0.000000
0.628709 0.894588 0.000000
0.837226 0.894588 0.000000
1.000000 0.894588 0.000000
0.017794 1.000000 0.000000
0.216149 1.000000 0.000000
0.421345 1.000000 0.000000
0.628709 1.000000 0.000000
0.837226 1.000000 0.000000
1.000000 1.000000 0.000000
0.017794 0.019733 0.291984
0.216149 0.019733 0.291984
0.421345 0.019733 0.291984
0.628709 0.019733 0.291984
0.837226 0.019733 0.291984
1.000000 0.019733 0.291984
0.017794 0.247570 0.291984
0.216149 0.247570 0.291984
0.421345 0.247570 0.291984
0.628709 0.247570 0.291984
0.837226 0.247570 0.291984
1.000000 0.247570 0.291984
0.017794 0.466521 0.291984
0.216149 0.466521 0.291984
0.421345 0.466521 0.291984
0.628709 0.466521 0.291984
0.837226 0.466521 0.291984
1.000000 0.466521 0.291984
0.017794 0.681796 0.291984
0.216149 0.681796 0.291984
0.421345 0.681796 0.291984
0.628709 0.681796 0.291984
0.837226 0.681796 0.291984
1.000000 0.681796 0.291984
0.017794 0.894588 0.291984
0.216149 0.894588 0.291984
0.421345 0.894588 0.291984
0.628709 0.894588 0.291984
0.837226 0.894588 0.291984
1.000000 0.894588 0.291984
0.017794 1.000000 0.291984
0.216149 1.000000 0.291984
0.421345 1.000000 0.291984
0.628709 1.000000 0.291984
0.837226 1.000000 0.291984
1.000000 1.000000 0.291984
0.017794 0.019733 0.526129
0.216149 0.019733 0.526129
0.421345 0.019733 0.526129
0.628709 0.019733 0.526129
0.837226 0.019733 0.526129
1.000000 0.019733 0.526129
0.017794 0.247570 0.526129
0.216149 0.247570 0.526129
0.421345 0.247570 0.526129
0.628709 0.247570 0.526129
0.837226 0.247570 0.526129
1.000000 0.247570 0.526129
0.017794 0.466521 0.526129
0.216149 0.466521 0.526129
0.421345 0.466521 0.526129
0.628709 0.466521 0.526129
0.837226 0.466521 0.526129
1.000000 0.466521 0.526129
0.017794 0.681796 0.526129
0.216149 0.681796 0.526129
0.421345 0.681796 0.526129
0.628709 0.681796 0.526129
0.837226 0.681796 0.526129
1.000000 0.681796 0.526129
0.017794 0.894588 0.526129
0.216149 0.894588 0.526129
0.421345 0.894588 0.526129
0.628709 0.894588 0.526129
0.837226 0.894588 0.526129
1.000000 0.894588 0.526129
0.017794 1.000000 0.526129
0.216149 1.000000 0.526129
0.421345 1.000000 0.526129
0.628709 1.000000 0.526129
0.837226 1.000000 0.526129
1.000000 1.000000 0.526129
0.017794 0.019733 0.741996
0.216149 0.019733 0.741996
0.421345 0.019733 0.741996
0.628709 0.019733 0.741996
0.837226 0.019733 0.741996
1.000000 0.019733 0.741996
0.017794 0.247570 0.741996
0.216149 0.247570 0.741996
0.421345 0.247570 0.741996
0.628709 0.247570 0.741996
0.837226 0.247570 0.741996
1.000000 0.247570 0.741996
0.017794 0.466521 0.741996
0.216149 0.466521 0.741996
0.421345 0.466521 0.741996
0.628709 0.466521 0.741996
0.837226 0.466521 0.741996
1.000000 0.466521 0.741996
0.017794 0.681796 0.741996
0.216149 0.681796 0.741996
0.421345 0.681796 0.741996
0.628709 0.681796 0.741996
0.837226 0.681796 0.741996
1.000000 0.681796 0.741996
0.017794 0.894588 0.741996
0.216149 0.894588 0.741996
0.421345 0.894588 0.741996
0.628709 0.894588 0.741996
0.837226 0.894588 0.741996
1.000000 0.894588 0.741996
0.017794 1.000000 0.741996
0.216149 1.000000 0.741996
0.421345 1.000000 0.741996
0.628709 1.000000 0.741996
0.837226 1.000000 0.741996
1.000000 1.000000 0.741996
0.017794 0.019733 0.943133
0.216149 0.019733 0.943133
0.421345 0.019733 0.943133
0.628709 0.019733 0.943133
0.837226 0.019733 0.943133
1.000000 0.019733 0.943133
0.017794 0.247570 0.943133
0.216149 0.247570 0.943133
0.421345 0.247570 0.943133
0.628709 0.247570 0.943133
0.837226 0.247570 0.943133
1.000000 0.247570 0.943133
0.017794 0.466521 0.943133
0.216149 0.466521 0.943133
0.421345 0.466521 0.943133
0.628709 0.466521 0.943133
0.837226 0.466521 0.943133
1.000000 0.466521 0.943133
0.017794 0.681796 0.943133
0.216149 0.681796 0.943133
0.421345 0.681796 0.943133
0.628709 0.681796 0.943133
0.837226 0.681796 0.943133
1.000000 0.681796 0.943133
0.017794 0.894588 0.943133
0.216149 0.894588 0.943133
0.421345 0.894588 0.943133
0.628709 0.894588 0.943133
0.837226 0.894588 0.943133
1.000000 0.894588 0.943133
0.017794 1.000000 0.943133
0.216149 1.000000 0.943133
0.421345 1.000000 0.943133
0.628709 1.000000 0.943133
0.837226 1.000000 0.943133
1.000000 1.000000 0.943133
0.017794 0.019733 1.000000
0.216149 0.019733 1.000000
0.421345 0.019733 1.000000
0.628709 0.019733 1.000000
0.837226 0.019733 1.000000
1.000000 0.019733 1.000000
0.017794 0.247570 1.000000
0.216149 0.247570 1.000000
0.421345 0.247570 1.000000
0.628709 0.247570 1.000000
0.837226 0.247570 1.000000
1.000000 0.247570 1.000000
0.017794 0.466521 1.000000
0.216149 0.466521 1.000000
0.421345 0.466521 1.000000
0.628709 0.466521 1.000000
0.837226 0.466521 1.000000
1.000000 0.466521 1.000000
0.017794 0.681796 1.000000
0.216149 0.681796 1.000000
0.421345 0.681796 1.000000
0.628709 0.681796 1.000000
0.837226 0.681796 1.000000
1.000000 0.681796 1.000000
0.017794 0.894588 1.000000
0.216149 0.894588 1.000000
0.421345 0.894588 1.000000
0.628709 0.894588 1.000000
0.837226 0.894588 1.000000
1.000000 0.894588 1.000000
0.017794 1.000000 1.000000
0.216149 1.000000 1.000000
0.421345 1.000000 1.000000
0.628709 1.000000 1.000000
0.837226 1.000000 1.000000
1.000000 1.000000 1.000000
