example_ofxGpuLutCube/bin/data/ofxGpuLutCube/LUT/TealOrangePlusContrast.cube
TITLE "16x16x16 Adobe/IRIDAS cube 3D LUT exported with GrossGrade v0.1.027.1 (beta) 64 bit"
DOMAIN_MIN 0 0 0
DOMAIN_MAX 1 1 1
LUT_3D_SIZE 16
0.000000000 0.007800000 0.082300000
0.035220005 0.000000000 0.071120001
0.097433336 0.000000000 0.074746668
0.152180016 0.000000000 0.040799983
0.190900013 0.000000000 0.000000000
0.235233352 0.000000000 0.000000000
0.285540015 0.000000000 0.000000000
0.339419991 0.000000000 0.000000000
0.397873312 0.000000000 0.000000000
0.468100011 0.000000000 0.000000000
0.545099974 0.000000000 0.000000000
0.629053354 0.000000000 0.000000000
0.716839969 0.000000000 0.000000000
0.814766765 0.000000000 0.000000000
0.918953180 0.051239930 0.000000000
1.000000000 0.164600000 0.000000000
0.000000000 0.022386670 0.066179998
0.001560001 0.014580003 0.018199999
0.065420009 0.006520002 0.000000000
0.130453333 0.004186670 0.000000000
0.169093341 0.004966672 0.000000000
0.211520016 0.004966672 0.000000000
0.258320034 0.005746671 0.000000000
0.315759987 0.006526673 0.000000000
0.382699966 0.009406672 0.000000000
0.456660002 0.021886675 0.000000000
0.533006608 0.033326671 0.000000000
0.619366646 0.069220014 0.000000000
0.717620015 0.078166679 0.000000000
0.798906744 0.112226710 0.000000000
0.906733155 0.121366665 0.000000000
1.000000000 0.197400004 0.000000000
0.000000000 0.070120007 0.053126659
0.000780001 0.065960005 0.000000000
0.033333346 0.061713338 0.000000000
0.099520013 0.055480007 0.000000000
0.141973361 0.070639998 0.000000000
0.185373336 0.080260001 0.000000000
0.237600029 0.085980013 0.000000000
0.294400007 0.098993339 0.000000000
0.358213305 0.114233330 0.000000000
0.435339987 0.125033349 0.000000000
0.523126602 0.140633330 0.000000000
0.609340012 0.153953344 0.000000000
0.705100000 0.168060005 0.000000000
0.802546799 0.187013343 0.000000000
0.907253206 0.187573329 0.000000000
1.000000000 0.224493340 0.000000000
0.000000000 0.126300007 0.012479995
0.000000000 0.126040012 0.000000000
0.022413339 0.116160013 0.000000000
0.108900018 0.116940022 0.000000000
0.158106685 0.114340015 0.000000000
0.205280021 0.123500019 0.000000000
0.248580039 0.134940028 0.000000000
0.299879998 0.154726669 0.000000000
0.364453316 0.174380004 0.000000000
0.442359984 0.193040028 0.000000000
0.519746602 0.215159997 0.000000000
0.604919970 0.238100037 0.000000000
0.697279990 0.250239998 0.000000000
0.794486761 0.278966725 0.000000000
0.903553128 0.277700007 0.000000000
0.997659981 0.295640022 0.000000000
0.000000000 0.178460017 0.008346674
0.000000000 0.178460017 0.000000000
0.013053345 0.175600022 0.000000000
0.112060025 0.175600022 0.000000000
0.174900010 0.177420005 0.000000000
0.237053350 0.181420013 0.000000000
0.292066723 0.195140034 0.000000000
0.336546689 0.208166674 0.000000000
0.396066695 0.231046662 0.000000000
0.462720007 0.254026681 0.000000000
0.536466658 0.281306654 0.000000000
0.618626654 0.309326708 0.000000000
0.706439972 0.321940035 0.000000000
0.796046734 0.345366687 0.000000000
0.894833207 0.364673346 0.000000000
0.991420031 0.369880021 0.000000000
0.000000000 0.250833333 0.035266668
0.000000000 0.251113325 0.000000000
0.010973344 0.251673341 0.000000000
0.113120034 0.250833333 0.000000000
0.189613357 0.250833333 0.000000000
0.264133364 0.253533363 0.000000000
0.331960052 0.263873369 0.000000000
0.390060037 0.274286687 0.000000000
0.444773316 0.289680004 0.000000000
0.509293318 0.312593341 0.000000000
0.573899925 0.338533342 0.000000000
0.654993415 0.366493344 0.000000000
0.731033325 0.389853328 0.000000000
0.818540096 0.408666700 0.000000000
0.912713230 0.431333333 0.000000000
1.000000000 0.446933359 0.000000000
0.000000000 0.330940038 0.040079996
0.000000000 0.332500041 0.003900006
0.000000000 0.335020065 0.000000000
0.090160012 0.331720054 0.000000000
0.214146689 0.333020031 0.000000000
0.286533386 0.335360050 0.000000000
0.365480065 0.346720070 0.000000000
0.440220058 0.352180064 0.000000000
0.506233394 0.359460026 0.000000000
0.567920089 0.377940029 0.000000000
0.631026626 0.399500012 0.000000000
0.709260046 0.426160038 0.000000000
0.781980038 0.450200021 0.000000000
0.865206838 0.473000050 0.000000000
0.942939997 0.491773307 0.000000000
1.000000000 0.506600022 0.000000000
0.000000000 0.420726657 0.082906663
0.000000000 0.423326701 0.028200001
0.010453342 0.426446676 0.000000000
0.064026713 0.425666690 0.000000000
0.239706680 0.421506643 0.000000000
0.332493365 0.426186681 0.000000000
0.413000047 0.431906670 0.000000000
0.482540041 0.434506685 0.000000000
0.559893370 0.441266686 0.000000000
0.639226675 0.451926649 0.000000000
0.707766652 0.466426671 0.000000000
0.768273354 0.483193338 0.000000000
0.836526692 0.504799962 0.000000000
0.907986760 0.526286721 0.000000000
0.976953268 0.544666708 0.000000000
1.000000000 0.559226632 0.000000000
0.000000000 0.510593355 0.153999999
0.000000000 0.516833305 0.085513309
0.014653344 0.520473361 0.029799974
0.124200031 0.519693315 0.000000000
0.266906679 0.519746661 0.000000000
0.384326696 0.519733310 0.000000000
0.464813352 0.519173324 0.000000000
0.540366650 0.524113357 0.000000000
0.612246573 0.524373293 0.000000000
0.693533301 0.528899968 0.000000000
0.764653265 0.536273301 0.000000000
0.841526687 0.550153315 0.000000000
0.891739964 0.562633336 0.000000000
0.960773408 0.578006685 0.000000000
0.995813251 0.598419964 0.000000000
1.000000000 0.609413266 0.000000000
0.061260018 0.612540007 0.187480003
0.074786700 0.619620025 0.153793350
0.099320039 0.619086683 0.088366665
0.194520041 0.617220044 0.000000000
0.308546692 0.616726696 0.000000000
0.423333377 0.618886709 0.000000000
0.527880073 0.615660012 0.000000000
0.592700005 0.611239970 0.000000000
0.673713326 0.618000031 0.000000000
0.740440011 0.614099920 0.000000000
0.818859994 0.616006613 0.000000000
0.891213417 0.623579979 0.000000000
0.950639963 0.625919998 0.000000000
0.989026785 0.637680054 0.000000000
0.999740005 0.652759969 0.000000000
1.000000000 0.661899984 0.000000000
0.185566589 0.709766686 0.218199983
0.194206595 0.708759964 0.197659999
0.200199947 0.712673306 0.146473289
0.251760006 0.716853261 0.049326591
0.347706676 0.711886525 0.012999980
0.447033346 0.709800005 0.020899992
0.561280072 0.699366629 0.014639949
0.648946643 0.699106634 0.000000000
0.710859954 0.695986688 0.000000000
0.782686651 0.699366629 0.000000000
0.852266669 0.694166601 0.000000000
0.928866684 0.699886560 0.000000000
0.983280003 0.693646610 0.000000000
0.997399986 0.697826684 0.000000000
1.000000000 0.694719970 0.000000000
1.000000000 0.711099923 0.000000000
0.270493329 0.791833341 0.224439994
0.275739998 0.790793359 0.213520005
0.283153325 0.792873383 0.187946662
0.292553365 0.800700068 0.090879992
0.389780015 0.798619986 0.065813333
0.463713378 0.793653309 0.034999996
0.576740026 0.786893368 0.014639992
0.671386719 0.775193393 0.000000000
0.749893308 0.773113370 0.000000000
0.813620031 0.770513296 0.000000000
0.875366628 0.765313327 0.000000000
0.952493310 0.763753355 0.000000000
0.991360068 0.759333313 0.000000000
1.000000000 0.754580021 0.000000000
1.000000000 0.749753296 0.000000000
1.000000000 0.751313329 0.000000000
0.320760012 0.868180037 0.242359996
0.330900013 0.865840018 0.248400003
0.337473333 0.874940038 0.219813317
0.351320028 0.878320038 0.142779991
0.415966660 0.874939978 0.098319992
0.499080002 0.870780051 0.073166654
0.588220060 0.865840018 0.021959983
0.672439992 0.851540029 0.000000000
0.770693302 0.842126667 0.000000000
0.840020001 0.836119950 0.000000000
0.904580057 0.835340023 0.000000000
0.967133403 0.828059971 0.000000000
0.995320022 0.821139991 0.000000000
1.000000000 0.816113353 0.000000000
1.000000000 0.805673361 0.000000000
1.000000000 0.795260012 0.000000000
0.390586734 0.936726749 0.291126698
0.394486755 0.936466753 0.288793385
0.384086698 0.941146731 0.238753334
0.398920029 0.941666722 0.206606716
0.421426654 0.941146731 0.108339995
0.499593318 0.939326763 0.090260014
0.594766676 0.933566749 0.051446658
0.680019975 0.925200105 0.009360023
0.770433307 0.913760126 0.000000000
0.854580045 0.899446785 0.000000000
0.924686670 0.889366746 0.000000000
0.983786702 0.884886742 0.000000000
0.998440027 0.873966694 0.000000000
1.000000000 0.872120082 0.000000000
1.000000000 0.850440025 0.000000000
1.000000000 0.841340065 0.000000000
0.421839982 0.996339917 0.301820010
0.422359973 0.992959917 0.297100008
0.423659980 0.996599913 0.230260029
0.420019984 0.996599913 0.211720020
0.445946634 0.996599913 0.146486580
0.516673267 0.993999898 0.064766675
0.581620038 0.987500012 0.011206731
0.663266659 0.981253266 0.001560025
0.757433355 0.966533303 0.000000000
0.854839981 0.953153253 0.000000000
0.931446612 0.939046562 0.000000000
0.987179995 0.934319913 0.000000000
1.000000000 0.921579897 0.000000000
1.000000000 0.911959887 0.000000000
1.000000000 0.900520027 0.000000000
1.000000000 0.883593261 0.000000000
0.431300014 1.000000000 0.290100008
0.431833327 1.000000000 0.292439997
0.438780010 1.000000000 0.263266653
0.434579998 1.000000000 0.201499984
0.441780031 1.000000000 0.109526634
0.496733367 1.000000000 0.007799998
0.586680055 1.000000000 0.000000000
0.666906655 1.000000000 0.000000000
0.735973358 1.000000000 0.000000000
0.831440032 0.997659981 0.000000000
0.922866642 0.983099997 0.000000000
0.983539999 0.970806658 0.000000000
0.999220014 0.959179997 0.000000000
1.000000000 0.950039983 0.000000000
1.000000000 0.937986672 0.000000000
1.000000000 0.917699993 0.000000000
0.000000000 0.015600000 0.092199996
0.000000000 0.003640000 0.108606659
0.036793340 0.000000000 0.136973336
0.104713343 0.000000000 0.143286660
0.162579998 0.000000000 0.091846660
0.218020007 0.000000000 0.025533339
0.276100039 0.000000000 0.008626675
0.342826635 0.000000000 0.006806673
0.415239960 0.000000000 0.003140004
0.493100017 0.000000000 0.000000000
0.572826564 0.000000000 0.000000000
0.656973302 0.000000000 0.000000000
0.756699979 0.000000000 0.000000000
0.842386782 0.000000000 0.000000000
0.944306552 0.000000000 0.000000000
1.000000000 0.065893330 0.000000000
0.000000000 0.029666668 0.086980000
-0.000000000 0.018486669 0.078919999
0.063860007 0.003660003 0.080733322
0.128373340 0.003660003 0.038746659
0.174040020 0.003660004 0.005486671
0.221446678 0.003140002 0.002880002
0.283200055 0.001820001 0.000000000
0.350646675 0.000780001 0.000000000
0.423346639 0.000000000 0.000000000
0.497300059 0.000000000 0.000000000
0.570226550 0.000000000 0.000000000
0.661653340 0.000000000 0.000000000
0.739319980 0.000000000 0.000000000
0.840006769 0.000000000 0.000000000
0.940666556 0.000000000 0.000000000
1.000000000 0.120773330 0.000000000
0.000000000 0.072980002 0.088560000
0.000000000 0.069339998 0.059933335
0.031513341 0.061713342 0.003926670
0.095100015 0.065180004 0.001820001
0.138326675 0.070640005 0.001040001
0.193780005 0.071660005 0.000000000
0.257180005 0.066420011 0.000000000
0.325399965 0.058033347 0.000000000
0.392599970 0.052240007 0.000000000
0.467859983 0.060960010 0.000000000
0.554766595 0.075573325 0.000000000
0.640066743 0.092513353 0.000000000
0.736446679 0.109093331 0.000000000
0.833506823 0.115153342 0.000000000
0.935359895 0.105013363 0.000000000
1.000000000 0.187540010 0.000000000
0.000000000 0.123180009 0.089860000
0.000000000 0.122920014 0.045320012
0.008626673 0.116680011 0.003926670
0.103953347 0.117200017 0.003400003
0.156026676 0.115926675 0.002620002
0.197473347 0.128440008 0.001300001
0.244620025 0.140920013 0.000000000
0.306380004 0.157586709 0.000000000
0.371733338 0.176466674 0.000000000
0.443660051 0.194080025 0.000000000
0.525226653 0.205013350 0.000000000
0.625886738 0.216460019 0.000000000
0.718160033 0.228980035 0.000000000
0.825906813 0.240160033 0.000000000
0.926259875 0.244580030 0.000000000
1.000000000 0.252100050 0.000000000
0.000000000 0.175860003 0.093246669
0.000000000 0.178200006 0.075300008
0.003400003 0.178993344 0.006006672
0.100573353 0.175346687 0.003400003
0.165980011 0.180060014 0.003660003
0.230033353 0.187273368 0.002360002
0.282900006 0.197480008 0.001040001
0.324166715 0.213366672 0.000000000
0.390579939 0.237026691 0.000000000
0.462180018 0.257226676 0.000000000
0.536986709 0.281826645 0.000000000
0.621726692 0.303206652 0.000000000
0.712426662 0.317420036 0.000000000
0.808806777 0.329766691 0.000000000
0.913759887 0.346926659 0.000000000
1.000000000 0.355506659 0.000000000
0.000000000 0.241473347 0.108166672
0.000000000 0.249033347 0.087780006
0.000000000 0.253273338 0.019006671
0.065653376 0.255940020 0.005746669
0.186380014 0.250413328 0.003400003
0.254053354 0.259060025 0.004186670
0.316353381 0.263873369 0.002360002
0.379346699 0.274806678 0.000520001
0.436593324 0.294886678 0.000000000
0.499893367 0.319446653 0.000000000
0.575166643 0.344873309 0.000000000
0.650173366 0.368313372 0.000000000
0.731013417 0.383700013 0.000000000
0.819806755 0.407606721 0.000000000
0.917133212 0.431073308 0.000000000
1.000000000 0.442773372 0.000000000
0.000000000 0.329900056 0.125266686
0.000000000 0.326780081 0.116246700
0.000000000 0.336320043 0.040193349
0.031380050 0.336580038 0.012506665
0.201913372 0.335540086 0.004446670
0.292053372 0.339960068 0.002880002
0.361280054 0.346200049 0.004186670
0.430340022 0.352700055 0.004706671
0.496973336 0.358940005 0.000000003
0.561993361 0.381373405 0.000000000
0.625800014 0.401840061 0.000000000
0.701593339 0.427460015 0.000000000
0.776199996 0.448000044 0.000000000
0.859060109 0.474780083 0.000000000
0.932273269 0.490993351 0.000000000
1.000000000 0.505560040 0.000000000
0.000000000 0.421246678 0.156386673
0.000000000 0.422546655 0.151826680
0.000000000 0.427226663 0.079806663
0.035820052 0.424366653 0.017493334
0.207653359 0.426186681 0.008866669
0.328593373 0.424366683 0.004966672
0.404680073 0.430606663 0.004966672
0.479626685 0.433986664 0.004966672
0.554413319 0.442566663 0.004706671
0.628160000 0.451419979 0.002620002
0.701626658 0.473219991 0.000000001
0.762033343 0.488913327 0.000000000
0.830026686 0.506626666 0.000000000
0.902926743 0.532006681 0.000000000
0.965753257 0.545586646 0.000000000
1.000000000 0.564946651 0.000000000
0.000000000 0.509033322 0.197686657
0.000000000 0.518133283 0.178559989
0.009406670 0.519446671 0.124766655
0.050700054 0.524173319 0.050706655
0.240566671 0.526606679 0.032106660
0.361899972 0.521586657 0.010166665
0.462993383 0.519453287 0.005486671
0.538546622 0.523093283 0.005746671
0.613026679 0.528646648 0.005226672
0.692486703 0.534673333 0.006006670
0.760726631 0.540953338 0.002880002
0.833153367 0.556133330 0.000000000
0.886799932 0.566533327 0.000000000
0.951413333 0.584766686 0.000000000
0.990873277 0.597779989 0.000000000
1.000000000 0.617839992 0.000000000
0.093820028 0.612540007 0.241339996
0.105180040 0.617220044 0.218906686
0.104873374 0.617226720 0.168133348
0.132560074 0.620646775 0.090240002
0.299066693 0.622546673 0.060940009
0.413313389 0.622020006 0.034706671
0.528920054 0.614360034 0.013306668
0.595039964 0.612800002 0.007566675
0.667473376 0.613066673 0.006806672
0.737320006 0.618080020 0.006266672
0.817240059 0.618640006 0.007326673
0.889133334 0.625406682 0.004966672
0.946740031 0.629820049 0.000000002
0.985906720 0.642100036 0.000000000
0.998960018 0.652500033 0.000000000
1.000000000 0.663540006 0.000000000
0.214139938 0.707426608 0.280759990
0.231466606 0.710026681 0.249986634
0.240013286 0.714766562 0.216019943
0.242966637 0.716366649 0.137793303
0.334346652 0.712673187 0.098299973
0.439213365 0.708993316 0.058086652
0.546200097 0.705606699 0.037146658
0.636846662 0.696246624 0.017266661
0.710039914 0.696506560 0.007586672
0.776706576 0.695206642 0.018226665
0.847066641 0.695466638 0.022126654
0.919473410 0.694686592 0.007066673
0.982760012 0.694166660 0.003926670
0.996880054 0.698606670 0.000000000
1.000000000 0.699659944 0.000000000
1.000000000 0.712399960 0.000000000
0.283853322 0.787673354 0.298186660
0.288046658 0.788713336 0.285940021
0.310600013 0.794200063 0.263786674
0.315846682 0.800180018 0.170226663
0.371266693 0.801220000 0.121620007
0.455913365 0.793913305 0.097526677
0.562060058 0.788713336 0.076579995
0.656486750 0.778313339 0.036633339
0.745913327 0.768953383 0.006526673
0.813880026 0.770773351 0.008366673
0.874046624 0.765313327 0.011206670
0.945386708 0.766353309 0.012246667
0.989020050 0.760633349 0.006806672
1.000000000 0.754580021 0.004706671
1.000000000 0.751586676 0.000000001
1.000000000 0.760613322 0.000000000
0.355326682 0.864540040 0.329106688
0.349979997 0.861939967 0.301839978
0.362413317 0.868700027 0.298373342
0.367406636 0.875980020 0.220999986
0.391966671 0.876760006 0.166819990
0.480520040 0.870779991 0.116586670
0.577246726 0.864539981 0.095846668
0.672186732 0.859080017 0.075039990
0.765753329 0.845773339 0.021193355
0.841840029 0.837419987 0.005226673
0.905099988 0.828839958 0.006526673
0.967133403 0.827539980 0.003660004
0.993739963 0.822193325 0.004706671
1.000000000 0.813513339 0.000260001
1.000000000 0.805933356 0.002620003
1.000000000 0.800779998 0.000000000
0.399206698 0.932740092 0.340606660
0.399180025 0.931960046 0.290639967
0.402346700 0.936726749 0.290679961
0.411446720 0.938806713 0.246020019
0.422713429 0.943486691 0.184560001
0.496213347 0.940106750 0.101766638
0.584520042 0.933826745 0.090486676
0.669306695 0.927280128 0.084240027
0.764453292 0.915320098 0.034273356
0.858220041 0.899706781 0.000260000
0.925719976 0.890426755 0.001040000
0.983526707 0.886446714 0.002086668
0.998440027 0.877346694 0.000000001
1.000000000 0.871860087 0.000000000
1.000000000 0.857026815 0.000000000
1.000000000 0.842120051 0.000000000
0.437199950 0.992173254 0.358113259
0.436939955 0.995553255 0.321346611
0.438766629 0.996339917 0.312719971
0.438766629 0.996339917 0.247393310
0.445806623 0.996859968 0.172360033
0.507386684 0.994519889 0.105146646
0.590560079 0.986459970 0.049686663
0.668073297 0.979693174 0.011766787
0.747553349 0.970266581 0.004186751
0.854059994 0.953999877 0.000000000
0.928579986 0.940606594 0.000000000
0.985100031 0.932239950 0.000000000
1.000000000 0.918979824 0.000000000
1.000000000 0.915339947 0.000000000
1.000000000 0.900519907 0.000000000
1.000000000 0.883593261 0.000000000
0.447886676 1.000000000 0.349779993
0.441386640 1.000000000 0.330446690
0.441386670 1.000000000 0.300499976
0.447626680 1.000000000 0.268726617
0.448426664 1.000000000 0.162419975
0.492540002 1.000000000 0.058039993
0.562839985 1.000000000 0.023226650
0.637626708 1.000000000 0.000520001
0.727086663 1.000000000 0.000000000
0.823593378 1.000000000 0.000000000
0.920006633 0.987259984 0.000000000
0.983539999 0.971846640 0.000000000
0.999220014 0.962040007 0.000000000
1.000000000 0.950559974 0.000000000
1.000000000 0.934606671 0.000000000
1.000000000 0.921599984 0.000000000
0.000000000 0.016120002 0.126813337
0.000000000 0.016640004 0.138286680
0.000000000 0.001560001 0.150340006
0.047860004 0.001560001 0.183620006
0.095873334 0.003120003 0.206539989
0.157886654 0.005240004 0.187773347
0.231046706 0.004173337 0.158946663
0.305093348 0.004173337 0.135473341
0.388279974 0.003120003 0.097873375
0.474859983 0.000000000 0.044466682
0.565246582 0.000000000 0.025106689
0.660613358 0.000000000 0.021426685
0.752760053 0.000000000 0.017253350
0.855453372 0.000000000 0.007853339
0.966373146 0.000000000 0.000520003
1.000000000 0.000000000 0.000000000
0.000000000 0.026806669 0.101580001
0.000000000 0.028386669 0.105480000
0.000000000 0.024746671 0.119020000
0.051273342 0.018766675 0.154760003
0.106813349 0.025786672 0.168026686
0.176119998 0.023186674 0.145333350
0.246173367 0.010706672 0.123413332
0.314973295 0.009146675 0.096173346
0.393400013 0.006526675 0.064533368
0.481540024 0.004446671 0.025340017
0.566839993 0.003400004 0.018560017
0.658266723 0.000520001 0.014900011
0.762919903 0.000000000 0.008086678
0.870546699 0.000000000 0.003400003
0.965873241 0.000000000 0.000000001
1.000000000 0.000000000 0.000000000
0.000000000 0.069080003 0.100540005
0.000000000 0.072460003 0.097160004
0.005240004 0.065700002 0.090400003
0.080280021 0.062753342 0.100800000
0.148746669 0.062753342 0.073240012
0.207380012 0.062233344 0.082853340
0.270620018 0.052793335 0.043173321
0.340726674 0.034153342 0.013613345
0.415499985 0.021673350 0.012533344
0.497260004 0.016213346 0.007320006
0.587126672 0.016213350 0.004720005
0.674693406 0.012013342 0.000000000
0.774120033 0.014653345 0.000000000
0.878086805 0.012533343 0.000000000
0.968753219 0.005760008 0.000000000
1.000000000 0.000000000 0.000000000
0.000000000 0.123180009 0.129713342
0.000000000 0.123440012 0.114853345
0.001040001 0.120866679 0.105253339
0.085220024 0.118800029 0.066213332
0.139106691 0.119840018 0.036213342
0.186300024 0.134160012 0.023193344
0.256380051 0.135720029 0.011493344
0.338926673 0.137280032 0.006280006
0.415999949 0.128966704 0.002600004
0.497513354 0.135480031 0.000000000
0.578026652 0.143800020 0.000000000
0.667673349 0.154780030 0.000000000
0.759233356 0.164426684 0.000000000
0.859906793 0.180226699 0.000000000
0.959153235 0.180306718 0.000000000
1.000000000 0.190926671 0.000000000
0.000000000 0.177939996 0.151566669
0.000000000 0.178726673 0.141166672
0.000000000 0.175080031 0.119013339
0.053666696 0.180326670 0.066733338
0.160446689 0.184520006 0.060933340
0.220406696 0.186880022 0.046873339
0.268020034 0.205813363 0.025793333
0.319446683 0.219866678 0.009413343
0.387459993 0.240693346 0.010453342
0.461899996 0.255706698 0.008893342
0.550886631 0.268786699 0.009413342
0.653073311 0.277166694 0.001040000
0.749313354 0.293860018 0.000000000
0.842120051 0.301946700 0.000000000
0.946146488 0.311306685 0.000000000
1.000000000 0.311033368 0.000000000
0.000000000 0.246153340 0.173033342
0.000000000 0.250833333 0.166000009
0.000000000 0.250153333 0.132313341
0.021680037 0.258540034 0.077400006
0.167053357 0.254313350 0.061720010
0.250413358 0.265953332 0.066933341
0.314260006 0.267773360 0.044533335
0.370466650 0.284166664 0.024533346
0.426713347 0.302973330 0.010973347
0.491493344 0.324713379 0.006280006
0.569346666 0.349033326 0.006280006
0.652293384 0.366753370 0.005240004
0.742779970 0.386993349 0.001040002
0.838713467 0.407646686 0.000000000
0.938286483 0.417033374 0.000000000
1.000000000 0.420933336 0.000000000
0.000000000 0.327300042 0.206033349
0.000000000 0.331459999 0.192766681
0.000000000 0.336580068 0.161020026
0.017780032 0.345680058 0.091253348
0.161280036 0.342300057 0.076360025
0.277173340 0.338660061 0.061460014
0.352440059 0.353740036 0.073773339
0.429560035 0.357380062 0.057040047
0.494373351 0.368313402 0.019333368
0.554160058 0.388020039 0.010973344
0.620599985 0.410486639 0.006800008
0.699760020 0.436820060 0.000520001
0.773079991 0.454140067 0.000000000
0.857500076 0.477726728 0.000000000
0.943193197 0.494380057 0.000000000
1.000000000 0.501920044 0.000000000
0.000000000 0.421246678 0.236333340
0.000000000 0.420726657 0.219313338
0.002600002 0.426706702 0.200039983
0.026926709 0.430606663 0.126866668
0.175380021 0.428006649 0.097493343
0.308793366 0.430606663 0.081313342
0.398700058 0.432166725 0.067220010
0.473386675 0.441786647 0.077140011
0.551033318 0.445686638 0.076346681
0.619826674 0.456166685 0.030873345
0.693273306 0.477446675 0.012013358
0.759433389 0.494633347 0.004720004
0.822993398 0.514726698 0.000000002
0.896166801 0.533593357 0.000000000
0.967299879 0.550386667 0.000000000
1.000000000 0.563386619 0.000000000
0.000000000 0.512673318 0.273466676
0.003140001 0.514233291 0.250393331
0.018813340 0.516053319 0.234493315
0.082093313 0.525006652 0.166293308
0.214566663 0.526339948 0.121133335
0.346093297 0.528913379 0.100380003
0.452060014 0.522699952 0.087033346
0.535686731 0.531033278 0.092013337
0.598466635 0.528693259 0.087553345
0.679960012 0.534673333 0.090446651
0.755266607 0.544593334 0.049726691
0.825873315 0.558993340 0.013613340
0.881859958 0.571500003 0.006800003
0.948033452 0.587899983 0.000000000
0.992433250 0.604180038 0.000000000
1.000000000 0.621479928 0.000000000
0.089646697 0.614100039 0.301513374
0.109073378 0.613060057 0.285453349
0.122900039 0.613060057 0.262800008
0.196320042 0.620180011 0.197946668
0.268986702 0.624940097 0.137253344
0.382980019 0.624099970 0.130493343
