example_ofxGpuLutCube/bin/data/ofxGpuLutCube/LUT/TealOrangePlusContrast.cube
TITLE "16x16x16 Adobe/IRIDAS cube 3D LUT exported with GrossGrade v0.1.027.1 (beta) 64 bit"
DOMAIN_MIN 0 0 0
DOMAIN_MAX 1 1 1
LUT_3D_SIZE 6
0.000000000 0.007800000 0.082300000
0.152180016 0.000000000 0.040799983
0.285540015 0.000000000 0.000000000
0.468100011 0.000000000 0.000000000
0.716839969 0.000000000 0.000000000
1.000000000 0.164600000 0.000000000
0.000000000 0.126300007 0.012479995
0.108900018 0.116940022 0.000000000
0.248580039 0.134940028 0.000000000
0.442359984 0.193040028 0.000000000
0.697279990 0.250239998 0.000000000
0.997659981 0.295640022 0.000000000
0.000000000 0.330940038 0.040079996
0.090160012 0.331720054 0.000000000
0.365480065 0.346720070 0.000000000
0.567920089 0.377940029 0.000000000
0.781980038 0.450200021 0.000000000
1.000000000 0.506600022 0.000000000
0.061260018 0.612540007 0.187480003
0.194520041 0.617220044 0.000000000
0.527880073 0.615660012 0.000000000
0.740440011 0.614099920 0.000000000
0.950639963 0.625919998 0.000000000
1.000000000 0.661899984 0.000000000
0.320760012 0.868180037 0.242359996
0.351320028 0.878320038 0.142779991
0.588220060 0.865840018 0.021959983
0.840020001 0.836119950 0.000000000
0.995320022 0.821139991 0.000000000
1.000000000 0.795260012 0.000000000
0.431300014 1.000000000 0.290100008
0.434579998 1.000000000 0.201499984
0.586680055 1.000000000 0.000000000
0.831440032 0.997659981 0.000000000
0.999220014 0.959179997 0.000000000
1.000000000 0.917699993 0.000000000
0.000000000 0.020280002 0.169340000
0.000000000 0.017220007 0.192200020
0.163080037 0.043960009 0.276900053
0.426680028 0.027380023 0.240840048
0.727060020 0.015680026 0.174100056
1.000000000 0.000000000 0.044680066
0.000000000 0.120060012 0.127900019
0.051020019 0.122460015 0.129480019
0.264300048 0.136500016 0.153720021
0.490240037 0.140400037 0.098780029
0.782759964 0.126300022 0.027440043
1.000000000 0.035320051 0.000000000
0.000000000 0.330940068 0.258000046
0.018800030 0.339700043 0.213340044
0.345160067 0.356080055 0.149780035
0.547400117 0.398440033 0.093340047
0.773340046 0.458120018 0.040780034
1.000000000 0.486320049 0.021200031
0.076080017 0.612540066 0.380440027
0.211800054 0.616460025 0.320780039
0.472920030 0.625980020 0.194560021
0.722400010 0.622020006 0.184340030
0.934159994 0.636120081 0.105880029
1.000000000 0.672900021 0.008640014
0.343459994 0.861159980 0.451800019
0.412540048 0.868180037 0.401580036
0.538060069 0.875200033 0.239980012
0.827520132 0.843940020 0.184420019
0.992139995 0.827539980 0.162280038
1.000000000 0.803099990 0.025880035
0.448660016 1.000000000 0.451080054
0.501080036 1.000000000 0.408660024
0.531720042 1.000000000 0.207839996
0.803900003 1.000000000 0.075300016
0.996880054 0.961560011 0.007860018
1.000000000 0.925499976 0.000000000
0.000000000 0.060400013 0.312060028
0.000000000 0.099580020 0.293340057
0.000000000 0.120040022 0.342820048
0.262700021 0.165460020 0.498080045
0.556840003 0.236040011 0.632920086
0.923879981 0.269100040 0.645520091
0.000000000 0.156860024 0.192980021
0.000000000 0.174080029 0.245400026
0.096480027 0.193820029 0.323800027
0.334879994 0.235240012 0.492580026
0.620399952 0.294120014 0.596060038
0.978839934 0.317540020 0.588980019
0.000000000 0.336580068 0.329380035
0.031360049 0.347500086 0.330280066
0.294100076 0.370120019 0.347500056
0.538040102 0.397660047 0.389820039
0.814859986 0.428240061 0.408700049
1.000000000 0.439160049 0.381980091
0.061260018 0.611759961 0.524760067
0.217260033 0.618019998 0.513720095
0.430580050 0.628320038 0.481600046
0.691699982 0.640020013 0.394540012
0.888639927 0.663420081 0.363100052
1.000000000 0.692620039 0.324700028
0.327039987 0.865060031 0.657220006
0.396040022 0.863500059 0.634480059
0.550620019 0.862720013 0.558460057
0.763960004 0.858819962 0.409480065
0.985880017 0.836120069 0.385060042
1.000000000 0.821880043 0.324580044
0.446319997 1.000000000 0.677740037
0.489380002 1.000000000 0.650920093
0.601560056 1.000000000 0.574860096
0.721539974 1.000000000 0.370940030
0.991360009 0.969419956 0.297280073
1.000000000 0.930960000 0.265860051
0.000000000 0.130180016 0.427480012
0.000000000 0.156040013 0.436880022
0.000000000 0.197660014 0.428260028
0.113680020 0.243919998 0.550700009
0.452580005 0.310620010 0.741900027
0.780499995 0.386740029 0.949739993
0.000000000 0.202400014 0.343500018
0.000000000 0.225820020 0.387400001
0.000000000 0.272960037 0.450160027
0.216460004 0.305119991 0.548240006
0.520760000 0.371780008 0.746659994
0.824239969 0.426580012 0.940380037
0.000000000 0.373260021 0.411080033
0.000000000 0.388200045 0.399220020
0.037600055 0.428240061 0.453280032
0.405500054 0.459620029 0.563960075
0.680000067 0.504280031 0.757679939
0.930939972 0.540480018 0.876859963
0.232880011 0.616439998 0.574880004
0.315320045 0.625200033 0.579560041
0.477580041 0.637680054 0.583460033
0.658740044 0.653280079 0.598380029
0.872860014 0.658739984 0.642359912
1.000000000 0.662640035 0.652499974
0.347420007 0.861159980 0.775680065
0.411760002 0.867399991 0.773339987
0.554540038 0.865840018 0.741100013
0.730960011 0.865059972 0.691840053
0.960140049 0.850220025 0.592079937
1.000000000 0.844699979 0.530900002
0.419499993 1.000000000 0.831380010
0.482360005 1.000000000 0.820340037
0.593760014 1.000000000 0.788259983
0.734919965 1.000000000 0.700419962
0.940400004 0.984399974 0.525500000
1.000000000 0.941100001 0.483220011
0.000000000 0.198439986 0.570280015
0.000000000 0.223460019 0.588239968
0.000000000 0.277600050 0.599160016
0.000000000 0.338040024 0.637679994
0.344240040 0.394480020 0.796019971
0.693280041 0.469799995 0.997660041
0.000000000 0.270639986 0.519199967
0.000000000 0.286259979 0.543519974
0.000000000 0.346659988 0.627539992
0.000000000 0.400780022 0.646319985
0.424259990 0.446280032 0.799140036
0.738780022 0.505940020 0.993759990
0.000000000 0.432920039 0.483060032
0.000000000 0.447020024 0.509079993
0.000000000 0.495700032 0.610200047
0.000000086 0.556020021 0.705139935
0.578020036 0.566260040 0.804620028
0.836059988 0.599980056 0.989859998
0.129360124 0.651720047 0.694139957
0.188300088 0.657959998 0.679239988
0.337180018 0.677700043 0.657960057
0.445520073 0.719200075 0.714519978
0.739539981 0.723100066 0.810100019
0.967919946 0.730960011 0.980480015
0.476040006 0.863500059 0.808520079
0.516859949 0.859600008 0.794480085
0.626680017 0.863499999 0.795259953
0.761619985 0.865059972 0.792900026
0.927779973 0.863499939 0.794479966
1.000000000 0.844700038 0.826759934
0.448599994 1.000000000 0.960839987
0.496399969 1.000000000 0.937279999
0.593699992 1.000000000 0.919979990
0.747520030 1.000000000 0.874479949
0.889299989 0.989859998 0.812480032
1.000000000 0.948220015 0.683059990
0.000000000 0.286199987 0.729399979
0.000000000 0.305220008 0.745800018
0.000000000 0.363940001 0.781279981
0.000000000 0.434500009 0.800000012
0.000000000 0.508280039 0.883839965
0.619499981 0.556800008 1.000000000
0.000000000 0.352180004 0.702039957
0.000000000 0.366219997 0.725499988
0.000000000 0.424280047 0.792199969
0.000000000 0.488600016 0.818779945
0.016460018 0.552159965 0.892660022
0.656480014 0.584399998 1.000000000
0.000000000 0.507420003 0.663580000
0.000000000 0.527020037 0.694059968
0.000000000 0.565440059 0.767840028
0.000000000 0.630580008 0.873680055
0.266680002 0.665860057 0.904379964
0.741919994 0.676840067 1.000000000
0.000000000 0.713679969 0.707440019
0.000000000 0.719160020 0.713679969
0.000000000 0.746739984 0.744260013
0.079980031 0.782720029 0.843119979
0.349820077 0.817340016 0.946619987
0.854879975 0.791419983 1.000000000
0.508980036 0.876819968 0.876839936
0.506640017 0.875259995 0.885420024
0.545899987 0.886979997 0.904380023
0.655640006 0.900480032 0.870520055
0.740420043 0.923940063 0.896340013
0.967180014 0.898920000 0.975039959
0.568700016 1.000000000 0.941100001
0.606260061 1.000000000 0.944300056
0.684760034 1.000000000 0.934080005
0.800000012 0.992200017 0.913020015
0.921540022 0.981279969 0.896399975
1.000000000 0.956799984 0.874499977
