example_ofxGpuLutCube/bin/data/ofxGpuLutCube/LUT/TensionGreen.cube
TITLE "16x16x16 Adobe/IRIDAS cube 3D LUT exported with GrossGrade v0.1.027.1 (beta) 64 bit"
DOMAIN_MIN 0 0 0
DOMAIN_MAX 1 1 1
LUT_3D_SIZE 6
0.000000000 0.000000000 0.027300000
0.141180009 0.038519997 0.041579992
0.339700043 0.028900003 0.000000000
0.512120008 0.048659999 0.000000000
0.717639983 0.029699998 0.000000000
0.925499976 0.003900000 0.000000000
0.008580008 0.171680018 0.054120000
0.133320004 0.183620021 0.000000000
0.328720033 0.183620021 0.000000000
0.533240020 0.181940019 0.000000000
0.712200105 0.207020000 0.000000000
0.920819998 0.201620013 0.000000000
0.084760033 0.349060059 0.054940011
0.151340023 0.358420044 0.003120005
0.293340057 0.377980053 0.000000000
0.487120003 0.389680058 0.000000000
0.732500017 0.373300016 0.000000000
0.978940010 0.339700043 0.000000000
0.214100018 0.539600015 0.164740011
0.249380022 0.544419944 0.118360005
0.358440012 0.557720006 0.065100014
0.495700002 0.578780055 0.091060005
0.704360008 0.583499968 0.044700041
0.938759983 0.574100018 0.000000000
0.381979972 0.729340017 0.280719995
0.404619992 0.732540011 0.266619980
0.458780020 0.742680013 0.193700001
0.585820019 0.752099991 0.199939996
0.731760025 0.771059990 0.233000025
0.915359974 0.779640019 0.219680011
0.537199974 0.917699993 0.423400015
0.556020021 0.918479979 0.404679984
0.593760014 0.927060008 0.352860004
0.686379969 0.939540029 0.313800007
0.821919978 0.950540006 0.325500011
0.964600027 0.968699992 0.352899998
0.000000000 0.032120001 0.101860009
0.075340010 0.077680014 0.113020010
0.192260042 0.160760015 0.139580011
0.411820024 0.195340008 0.150580004
0.643140018 0.203980014 0.147420034
0.889540017 0.138120040 0.159980029
0.043220006 0.168560028 0.123960011
0.104980014 0.188360021 0.136440024
0.278520018 0.213340014 0.141900003
0.475360006 0.226600021 0.129460007
0.697280049 0.223480016 0.125580013
0.924719989 0.193060026 0.156080022
0.138020009 0.346720010 0.177200019
0.150600031 0.360760033 0.161540017
0.282420009 0.381880015 0.119280010
0.490179986 0.395340085 0.060400043
0.728600025 0.381100059 0.024320025
0.917720020 0.399280041 0.108279988
0.243100002 0.534800053 0.250900030
0.251720041 0.545980036 0.231320024
0.341260046 0.560060024 0.172580019
0.488680065 0.578779995 0.181940019
0.699679971 0.584280014 0.152140006
0.937240005 0.575659990 0.070520036
0.381220013 0.725440025 0.350600034
0.398380011 0.734879971 0.342719972
0.456440032 0.743459940 0.293399990
0.580360055 0.756919920 0.261940032
0.726220131 0.773399949 0.283899993
0.909900010 0.784319997 0.279180020
0.541100025 0.917699993 0.465920031
0.566999972 0.915359974 0.458039999
0.593760014 0.927060008 0.426580012
0.686200023 0.939540029 0.364740014
0.814819992 0.951340020 0.375799984
0.957579970 0.966220021 0.389080018
0.027420010 0.072940007 0.172520012
0.086260013 0.109900013 0.182840019
0.193760023 0.178760022 0.202340022
0.304320008 0.264320016 0.225860015
0.454879969 0.348239988 0.263560027
0.696519971 0.384340018 0.322380006
0.061180014 0.185180023 0.197660014
0.106600016 0.205520034 0.202340022
0.214940026 0.246180013 0.210980028
0.322280020 0.316040009 0.237640008
0.494120002 0.376420051 0.283920020
0.741159916 0.403180033 0.327879995
0.155300021 0.354520053 0.229760021
0.183440030 0.361540020 0.230580017
0.261180043 0.392140031 0.256500036
0.440019995 0.411820054 0.276140004
0.635339975 0.434480071 0.302700043
0.857300043 0.446180046 0.332680047
0.276920021 0.535579979 0.328540027
0.301200002 0.539640009 0.331660002
0.347520053 0.560060024 0.342820048
0.480020016 0.586620033 0.309000045
0.696559966 0.593639970 0.290200025
0.934860051 0.580380023 0.274560034
0.447860003 0.718419969 0.465860039
0.454100013 0.723879933 0.462680012
0.470540017 0.743460000 0.443960041
0.560860038 0.760860026 0.381180018
0.716860116 0.778079987 0.398380041
0.903539956 0.787440002 0.381980032
0.589860022 0.908340037 0.587520063
0.585960090 0.915359974 0.574860036
0.602339923 0.927059948 0.541140079
0.672120035 0.941140056 0.501140058
0.797659993 0.955240011 0.469780028
0.945100009 0.970300019 0.498020023
0.083080009 0.125500008 0.238399997
0.127860010 0.147400007 0.247899994
0.206240028 0.202340007 0.263540030
0.316020012 0.283859998 0.291060001
0.439240009 0.371859968 0.332580030
0.576600015 0.467480004 0.396880001
0.106660008 0.211760014 0.261980027
0.144300014 0.226600006 0.266659975
0.221180022 0.270620048 0.280020028
0.333360016 0.332580030 0.306659997
0.458039999 0.408640027 0.345880002
0.586740017 0.494059980 0.407800019
0.171780020 0.370180011 0.308219999
0.205520019 0.379540026 0.309000015
0.261180013 0.405580044 0.320820004
0.374139994 0.443120033 0.351420015
0.501200020 0.504260063 0.396820039
0.658039987 0.562340081 0.461180001
0.298079997 0.541160047 0.384279996
0.322280020 0.549140036 0.389740020
0.378780037 0.568639994 0.407840043
0.460299969 0.594420016 0.437680036
0.639260113 0.612660050 0.472860008
0.838519990 0.635340035 0.510559976
0.458039969 0.727780044 0.526279986
0.471320003 0.727780044 0.523879945
0.517639995 0.739560008 0.541099966
0.574899971 0.761699975 0.544279993
0.699679971 0.785880029 0.523940027
0.909060001 0.791339993 0.502740026
0.614040017 0.906000018 0.660420001
0.625800014 0.908339977 0.666700006
0.662759960 0.915359974 0.671379983
0.685420036 0.937979996 0.649500012
0.779659986 0.959140003 0.590580046
0.927839994 0.976599991 0.614099979
0.139540002 0.173419997 0.309839994
0.167899996 0.192200005 0.316859961
0.237600014 0.241620004 0.335680008
0.340380013 0.310560018 0.365559995
0.450239956 0.389800012 0.407020003
0.590640008 0.479960024 0.472920001
0.159180015 0.243960023 0.329420000
0.182000011 0.259600043 0.332539976
0.250200033 0.298800051 0.354499966
0.353000045 0.356820047 0.382779986
0.472919971 0.427420050 0.424300015
0.604680061 0.506720006 0.486199975
0.202340007 0.391360044 0.380439997
0.231340021 0.398520052 0.381999999
0.295680016 0.422000080 0.399980009
0.388960004 0.462740034 0.429760009
0.510619998 0.517679989 0.475219995
0.643979967 0.584380090 0.527779996
0.316800028 0.554600060 0.467420012
0.341220021 0.563179970 0.476019949
0.385060042 0.581939995 0.490260035
0.461860031 0.611100078 0.515240014
0.586660028 0.643920004 0.548139989
0.700420022 0.691840053 0.600719988
0.476040006 0.733319998 0.585100055
0.495000005 0.731700063 0.574180007
0.533279955 0.746579945 0.594460011
0.588220060 0.765579998 0.610080063
0.675980031 0.799160004 0.654140055
0.839299977 0.818779945 0.692659914
0.625740051 0.913020015 0.721599996
0.637699962 0.913020015 0.721599996
0.671380043 0.920040011 0.732520044
0.725499988 0.935640037 0.747420013
0.789020061 0.962260067 0.772620022
0.926279962 0.980499983 0.743520021
0.200000003 0.223399997 0.388300002
0.222680017 0.243980005 0.394539982
0.279179990 0.284640014 0.411700010
0.363220006 0.343500018 0.442420006
0.476040035 0.415599972 0.483080000
0.603900015 0.502099991 0.552900016
0.210920006 0.288599998 0.403120011
0.231260017 0.297960013 0.414820015
0.300359994 0.332540005 0.430480003
0.374919981 0.385140032 0.454959989
0.494840026 0.447840005 0.505160034
0.622680008 0.529420018 0.566999972
0.254940003 0.414940029 0.453380018
0.280799985 0.423519999 0.461180001
0.336460024 0.445400059 0.479960024
0.418060035 0.484760046 0.508220017
0.530900061 0.538020015 0.550539970
0.657280028 0.596880019 0.611699998
0.357719988 0.579600036 0.554539979
0.363180012 0.582720041 0.558499992
0.416500032 0.599959970 0.572579980
0.494180024 0.625140011 0.595320046
0.595259964 0.661919951 0.629819989
0.716140032 0.705879986 0.673680067
0.492659986 0.748979986 0.672100008
0.495800018 0.746639967 0.671359956
0.540360034 0.760879993 0.679939926
0.609300017 0.781199992 0.701260030
0.683059990 0.808520019 0.726219952
0.799979985 0.844700038 0.764819980
0.651000023 0.917699993 0.772700012
0.663580000 0.922379971 0.785179973
0.686199963 0.929400027 0.790639997
0.745840013 0.945840001 0.810920000
0.806240022 0.967099965 0.833000004
0.972700000 0.988300025 0.968699992
