example_ofxGpuLutCube/bin/data/ofxGpuLutCube/LUT/TensionGreen.cube
TITLE "16x16x16 Adobe/IRIDAS cube 3D LUT exported with GrossGrade v0.1.027.1 (beta) 64 bit"
DOMAIN_MIN 0 0 0
DOMAIN_MAX 1 1 1
LUT_3D_SIZE 16
0.000000000 0.000000000 0.027300000
0.003400003 0.019239999 0.039039999
0.061453342 0.018760001 0.036959998
0.141180009 0.038519997 0.041579992
0.206060022 0.036440000 0.015339997
0.275833368 0.035299998 0.002599999
0.339700043 0.028900003 0.000000000
0.398180008 0.025793333 0.000000000
0.452473313 0.036299989 0.000000000
0.512120008 0.048659999 0.000000000
0.576466620 0.049699999 0.000000000
0.650733352 0.053860001 0.000000000
0.717639983 0.029699998 0.000000000
0.783826768 0.030246675 0.000000000
0.854453266 0.002086707 0.000000000
0.925499976 0.003900000 0.000000000
0.000000000 0.062300000 0.048146665
0.004966671 0.069580004 0.018979998
0.086246669 0.066459998 0.000000000
0.156080022 0.069579996 0.000000000
0.216746688 0.066200003 0.000000000
0.280320048 0.068800002 0.000000000
0.335180044 0.075820006 0.000000000
0.389699966 0.080499999 0.000000000
0.450393289 0.088040002 0.000000000
0.515500009 0.088299997 0.000000000
0.578026593 0.094806671 0.000000000
0.641886652 0.103326671 0.000000000
0.720760047 0.081340000 0.000000000
0.777846754 0.087780014 0.000000000
0.853933215 0.054933388 0.000000000
0.917959988 0.084140003 0.000000000
0.000520001 0.116673335 0.061746664
0.021366673 0.120053329 0.026540000
0.081300013 0.118273340 0.010139998
0.140400022 0.122433335 0.000000000
0.213613346 0.124513343 0.000000000
0.280320019 0.120093338 0.000000000
0.344120055 0.116440006 0.000000000
0.398220003 0.125019997 0.000000000
0.446753323 0.136953339 0.000000000
0.510833383 0.145833343 0.000000000
0.578806639 0.149006680 0.000000000
0.641313374 0.156580016 0.000000000
0.710340023 0.149233341 0.000000000
0.774206698 0.148433343 0.000000000
0.853139937 0.133873358 0.000000000
0.921599984 0.120873339 0.000000000
0.008580008 0.171680018 0.054120000
0.040606674 0.171420008 0.034039997
0.087540008 0.171940014 0.003119999
0.133320004 0.183620021 0.000000000
0.188580006 0.187280014 0.000000000
0.256793320 0.185240030 0.000000000
0.328720033 0.183620021 0.000000000
0.398000002 0.182040021 0.000000000
0.466393322 0.179053366 0.000000000
0.533240020 0.181940019 0.000000000
0.592620015 0.188820019 0.000000000
0.654373348 0.196099997 0.000000000
0.712200105 0.207020000 0.000000000
0.782786727 0.204420000 0.000000000
0.850459933 0.193560034 0.000000000
0.920819998 0.201620013 0.000000000
0.030500002 0.229226679 0.052040003
0.052826669 0.230266675 0.020540001
0.087540001 0.228446692 0.001560001
0.132080019 0.235986680 0.000000000
0.179240003 0.243006676 0.000000000
0.234713346 0.248293355 0.000000000
0.306353360 0.252640009 0.000000000
0.377999991 0.252039999 0.000000000
0.450133324 0.249906689 0.000000000
0.525933325 0.245086685 0.000000000
0.601719975 0.239886686 0.000000000
0.675173342 0.233646676 0.000000000
0.735920072 0.237806678 0.000000000
0.802560091 0.232086673 0.000000000
0.861146629 0.244246647 0.000000000
0.927086651 0.245566666 0.000000000
0.047133334 0.286300033 0.052299999
0.058313332 0.289160013 0.033360001
0.090140007 0.290720016 0.012479999
0.137280002 0.298260033 0.000000000
0.187520027 0.301900029 0.000000000
0.235233352 0.308433354 0.000000000
0.294640005 0.315473348 0.000000000
0.360006660 0.322153360 0.000000000
0.431899995 0.323913306 0.000000000
0.506919980 0.319093347 0.000000000
0.584266603 0.313633353 0.000000000
0.669193387 0.308433324 0.000000000
0.737999976 0.302193314 0.000000000
0.815400124 0.285780013 0.000000000
0.889393270 0.282400012 0.000000000
0.962100029 0.278500021 0.000000000
0.084760033 0.349060059 0.054940011
0.089960031 0.350620031 0.057273347
0.116753355 0.353480041 0.028680008
0.151340023 0.358420044 0.003120005
0.194360018 0.365700036 0.000000000
0.246173337 0.367520034 0.000000000
0.293340057 0.377980053 0.000000000
0.350126654 0.382140040 0.000000000
0.414979964 0.387860060 0.000000000
0.487120003 0.389680058 0.000000000
0.567626655 0.387080073 0.000000000
0.652553320 0.381620020 0.000000000
0.732500017 0.373300016 0.000000000
0.814400017 0.362593353 0.000000000
0.895973265 0.351660073 0.000000000
0.978940010 0.339700043 0.000000000
0.130486667 0.411839992 0.085039996
0.134906664 0.414179981 0.075540006
0.153666675 0.416260004 0.055713333
0.176180005 0.419640005 0.022179991
0.212820023 0.425906688 0.002339998
0.258833349 0.430866688 0.000000000
0.308460027 0.436586678 0.000000000
0.355326653 0.443086684 0.003640001
0.410299987 0.447506666 0.000000003
0.482699990 0.452966690 0.000000000
0.550939977 0.455826670 0.000000000
0.634566724 0.453486681 0.000000000
0.712700009 0.448026657 0.000000000
0.796826780 0.444646686 0.000000000
0.886693239 0.433726698 0.000000000
0.967360020 0.419166684 0.000000000
0.168139994 0.474613309 0.124719992
0.174119979 0.474613309 0.105079986
0.180879980 0.476953298 0.096459985
0.212539986 0.480333298 0.059873305
0.235806689 0.483453304 0.020099988
0.281053334 0.491559982 0.016999992
0.329380006 0.494159967 0.013039982
0.377753317 0.501439989 0.025099985
0.418099999 0.510019958 0.037133314
0.487380028 0.510019958 0.039733309
0.549099982 0.516833246 0.029279981
0.630353332 0.521513343 0.000000000
0.700460017 0.518393278 0.000000000
0.784346759 0.516313314 0.000000000
0.865893245 0.510540009 0.000000000
0.948426664 0.496499985 0.000000000
0.214100018 0.539600015 0.164740011
0.223059997 0.541786671 0.155360013
0.232433349 0.540146708 0.143746689
0.249380022 0.544419944 0.118360005
0.271420002 0.548099995 0.078720011
0.307733327 0.554080069 0.054060005
0.358440012 0.557720006 0.065100014
0.402086645 0.559280038 0.060040012
0.450659990 0.570720017 0.080599993
0.495700002 0.578780055 0.091060005
0.561119974 0.580086648 0.101453349
0.631913364 0.583239973 0.089940012
0.704360008 0.583499968 0.044700041
0.774726748 0.587399960 0.018780008
0.854453266 0.583726704 0.000000013
0.938759983 0.574100018 0.000000000
0.270499974 0.606400013 0.206499979
0.274226636 0.605166614 0.199219987
0.288446635 0.604319930 0.186119974
0.294459999 0.609386623 0.164706632
0.319966644 0.614499986 0.143999964
0.352966636 0.619700015 0.121499971
0.395520002 0.620999932 0.103299960
0.441026628 0.625419974 0.113179974
0.478979945 0.626199961 0.114999972
0.526500046 0.636080027 0.124979980
0.569966614 0.640566707 0.130699977
0.638766706 0.647066653 0.145326659
0.702539980 0.647066653 0.144766599
0.774726748 0.651226640 0.105059892
0.845806599 0.651226640 0.080553293
0.924199998 0.648366630 0.044466622
0.327500015 0.667633355 0.236880004
0.333033353 0.669453323 0.240260005
0.336753339 0.668933332 0.231900007
0.348253340 0.669973373 0.212740004
0.369213343 0.677333295 0.199140012
0.392380029 0.676813304 0.175873339
0.430059999 0.682013333 0.148713320
0.469740033 0.687093318 0.146893352
0.508459985 0.690293312 0.153133333
0.554859996 0.692633331 0.157153338
0.607006669 0.703033328 0.175966650
0.655413330 0.702020049 0.178573340
0.708540022 0.704100013 0.186140001
0.783566773 0.713200033 0.192106649
0.851573288 0.716579974 0.176233366
0.920559943 0.713720024 0.132773340
0.381979972 0.729340017 0.280719995
0.386680007 0.727260053 0.287479997
0.387979984 0.730653346 0.274739981
0.404619992 0.732540011 0.266619980
0.419319987 0.735920072 0.249433324
0.432740033 0.739820004 0.222759992
0.458780020 0.742680013 0.193700001
0.500900030 0.747359931 0.187200010
0.541873276 0.750800014 0.195000008
0.585820019 0.752099991 0.199939996
0.634259939 0.759059966 0.205700010
0.687653363 0.768200040 0.219500005
0.731760025 0.771059990 0.233000025
0.795526743 0.774959981 0.231440008
0.854713261 0.777039945 0.247119993
0.915359974 0.779640019 0.219680011
0.450006753 0.795526743 0.334300041
0.447586745 0.795006752 0.330920041
0.453906745 0.796046734 0.317920029
0.456766725 0.799440086 0.322860032
0.463526696 0.799440086 0.307260036
0.477086723 0.802560091 0.281406730
0.502686739 0.809320092 0.254646719
0.536686659 0.812440097 0.237440065
0.571246743 0.815560102 0.232760042
0.610939980 0.815040112 0.234580040
0.665286660 0.818160117 0.248686671
0.710846722 0.820020080 0.244473383
0.763779998 0.827540040 0.260140002
0.809580147 0.835360050 0.270326704
0.862253308 0.835880041 0.284633309
0.927320063 0.839780092 0.282806724
0.484379977 0.855233252 0.374233305
0.484893292 0.855493248 0.373173267
0.495039970 0.858353257 0.361733288
0.494319916 0.857053280 0.359393299
0.507539928 0.863813281 0.345873296
0.523659945 0.865113258 0.333099931
0.543979883 0.866413295 0.311179936
0.571233273 0.870833218 0.293353230
0.607259929 0.873173296 0.272933275
0.648339927 0.877073288 0.270853281
0.698339939 0.880973279 0.279953271
0.738553345 0.882273257 0.284379959
0.791353285 0.885393262 0.299433291
0.839520097 0.893213212 0.306759953
0.885393322 0.894253254 0.300259978
0.947693348 0.905713260 0.326779962
0.537199974 0.917699993 0.423400015
0.537459970 0.917699993 0.422879994
0.543193400 0.917699993 0.414560020
0.556020021 0.918479979 0.404679984
0.557113349 0.922640026 0.388039976
0.573933363 0.925499976 0.371299982
0.593760014 0.927060008 0.352860004
0.620680034 0.929400027 0.333820015
0.650013328 0.933560014 0.319260001
0.686379969 0.939540029 0.313800007
0.730766594 0.938499987 0.313800007
0.773920000 0.940059960 0.322380006
0.821919978 0.950540006 0.325500011
0.865360022 0.952899992 0.325500011
0.921839893 0.960179985 0.347433299
0.964600027 0.968699992 0.352899998
0.000000000 0.001560001 0.049186669
0.000780001 0.021080002 0.049186669
0.009933341 0.042953335 0.062800005
0.093553349 0.066179998 0.082580000
0.170380026 0.072440006 0.074260011
0.241986677 0.071139999 0.064640000
0.313133359 0.070100002 0.053946655
0.383700013 0.054200005 0.031926673
0.449866652 0.033986676 0.016666673
0.513679981 0.042846680 0.012506670
0.579326630 0.057266667 0.007826677
0.645266712 0.049966667 0.005486671
0.721279979 0.020620003 0.004706671
0.781486690 0.025486683 0.004966672
0.854193270 0.002080034 0.009126666
0.921599984 0.004160000 0.026806669
0.000000000 0.066200003 0.061239999
0.003400002 0.074000008 0.069059998
0.052353345 0.074519999 0.079459995
0.133633330 0.078680009 0.065140001
0.200840026 0.083100013 0.063060008
0.263333350 0.084666677 0.046506658
0.331580013 0.076606676 0.022386661
0.392926663 0.076340005 0.015366671
0.451693326 0.080760010 0.015886672
0.515500009 0.085179999 0.009646669
0.577766597 0.095066667 0.007040003
0.644753337 0.097666666 0.010426670
0.712700009 0.102820002 0.004700002
0.783566773 0.078459978 0.004186670
0.853926599 0.057273362 0.007826665
0.924979985 0.062560000 0.019786671
0.002600002 0.116413340 0.081280001
0.011720003 0.117466666 0.076600015
0.076360010 0.121653341 0.056206670
0.140140012 0.128933340 0.017966667
0.208660021 0.128673345 0.004180004
0.265933335 0.129973352 0.011466670
0.326593369 0.133346662 0.008079998
0.382939965 0.136473358 0.003926670
0.444933325 0.140373334 0.002880003
0.509259999 0.147133321 0.003660003
0.576206684 0.153166652 0.002620003
0.641880035 0.156580001 0.002880002
0.711140037 0.148453340 0.002880002
0.782786787 0.127113312 0.002880002
0.850459933 0.132573307 0.007306665
0.928619981 0.138033330 0.004706671
0.023200007 0.170900002 0.095319994
0.029446673 0.174279988 0.077380009
0.078440003 0.175580025 0.046333339
0.125780016 0.184420019 0.043426666
0.191440001 0.188100025 0.021086670
0.260433346 0.185240030 0.002086668
0.332080007 0.184166700 0.000000000
0.393706679 0.184366673 0.000000000
0.452473372 0.193259999 0.000000000
0.511353433 0.202620015 0.001040001
0.572046697 0.206013337 0.002086668
0.637153387 0.212540016 0.001820001
0.704100013 0.215406671 0.002086668
0.776806712 0.203966677 0.002620002
0.848899961 0.194340035 0.001820002
0.921599984 0.200060025 0.004186670
0.037746668 0.225326687 0.092720002
0.051026676 0.227666706 0.079719998
0.072720014 0.234946683 0.059133332
0.125026688 0.236246690 0.038986664
0.174300015 0.247240022 0.028366668
0.233153343 0.251806676 0.020560002
0.306613386 0.251566678 0.001040001
0.375399977 0.251566678 0.000000000
0.458713323 0.246406674 0.000000000
0.531153381 0.245086685 0.000000000
0.597820044 0.246166691 0.000000000
0.656973362 0.252013355 0.000000000
0.716359973 0.259626687 0.000000000
0.776026785 0.263006687 0.000520001
0.845539868 0.263326645 0.003400003
0.922380030 0.261186659 0.002360002
0.044506673 0.284740031 0.093766667
0.078160003 0.289420009 0.081280008
0.093586676 0.293840021 0.064873330
0.132840022 0.298779994 0.027366662
0.184613347 0.303746700 0.026546666
0.228993356 0.311293364 0.021086669
0.285540044 0.319613338 0.019519992
0.357666671 0.317573339 0.001300001
0.429566622 0.321053356 0.000000001
0.508506715 0.318833351 0.000000000
0.587159932 0.314933360 0.000000000
0.660353303 0.308693379 0.000000000
0.736699998 0.298266679 0.000000000
0.807240069 0.296966702 0.000000000
0.870053291 0.308326632 0.000000000
0.941186726 0.304506660 0.000000000
0.083660036 0.352960050 0.097766675
0.106340021 0.349320054 0.096720010
0.119533353 0.354000032 0.074520007
0.146920025 0.361540020 0.047086664
0.194606692 0.365700036 0.013286671
0.249093354 0.372520030 0.019000003
0.286580026 0.378240019 0.016146665
0.344146639 0.388120055 0.024826691
0.411339968 0.385780066 0.001040013
0.481820017 0.387860060 0.000000000
0.562946618 0.388640046 0.000000000
0.645240009 0.383440048 0.000000000
0.732766628 0.372220039 0.000000000
0.814780116 0.366220057 0.000000000
0.889553189 0.356340080 0.000000000
0.967333376 0.341260046 0.000000000
0.140886664 0.413919985 0.115626663
0.143226683 0.413400024 0.110940002
0.152626678 0.414959967 0.093240000
0.179040000 0.421719998 0.067486659
0.204500020 0.425906688 0.023226665
0.262293369 0.430606693 0.019266671
0.305579990 0.433726668 0.027360013
0.347266674 0.443086654 0.026666671
0.406140000 0.449066669 0.046086662
0.471340001 0.451406687 0.011206670
0.550626636 0.454786658 0.001040008
0.627779961 0.455046654 0.000000000
0.714239955 0.448806643 0.000000000
0.802026749 0.441006660 0.000000000
0.882793248 0.433206648 0.000000000
0.963039994 0.422806680 0.000000000
0.170219988 0.472653300 0.139873326
0.182180002 0.476433307 0.137526661
0.188419998 0.475393295 0.117826663
0.213060021 0.481893301 0.105299979
0.234506667 0.485533327 0.069793314
0.271953344 0.491559982 0.042073321
0.327633321 0.494679987 0.042353328
0.373013318 0.498319954 0.054359991
0.414199978 0.510019958 0.064853325
0.478520006 0.513966620 0.076833300
0.550626636 0.516573310 0.049893316
0.630900025 0.521513343 0.020353323
0.702020049 0.517873347 0.002086667
0.778366685 0.516313314 0.001300001
0.869793236 0.507426679 0.000000000
0.948693335 0.502219975 0.000000000
0.220699996 0.540106654 0.178040013
0.235339999 0.539873362 0.177260026
0.232433334 0.539873362 0.163173333
0.252240032 0.542779982 0.148786664
0.273500025 0.550180078 0.112126663
0.308506638 0.554340005 0.090460010
0.355060041 0.558499992 0.085280016
0.400260061 0.562920034 0.090540014
0.449113309 0.567600012 0.098346666
0.493880033 0.578779995 0.108226679
0.559046626 0.582719982 0.118900016
0.625959992 0.586099982 0.106886685
0.702279985 0.587140024 0.062420018
0.769266725 0.586620033 0.037680015
0.857306540 0.579566717 0.011986692
0.930179954 0.577220023 0.002086668
0.275246650 0.607506633 0.220619977
0.285959989 0.604059935 0.219059974
0.287666619 0.606666684 0.209639966
0.304079950 0.609613299 0.190606654
0.320746660 0.614759982 0.168906629
0.349066675 0.616319954 0.140186623
0.387160003 0.619179964 0.123599969
0.433726639 0.623080015 0.128899977
0.476966619 0.628539920 0.134153306
0.524680018 0.633480012 0.138586640
0.572566628 0.643166661 0.155346632
0.634539962 0.647326589 0.165286630
0.696300030 0.648366630 0.149986625
0.771346748 0.650966644 0.131726578
0.846066594 0.651226580 0.099559970
0.917959988 0.650706589 0.075606592
0.333033353 0.667633355 0.255700022
0.335893333 0.663993299 0.255699992
0.342493355 0.670233369 0.254106671
0.358553320 0.672859967 0.233459994
0.370253325 0.677593291 0.214840010
0.392120034 0.677073300 0.197633341
0.424593329 0.679933310 0.169993326
0.464773357 0.684493303 0.165833339
0.506640017 0.686653316 0.166353315
0.554600000 0.692373335 0.178860009
0.606739998 0.703033328 0.189260006
0.653073311 0.711119950 0.200493351
0.712679923 0.709560037 0.206226647
0.779666781 0.716059983 0.205919996
0.850786626 0.717620015 0.183520034
0.919260025 0.719960034 0.171553344
0.386680007 0.726480007 0.298660040
0.390579998 0.725966692 0.293239981
0.394740045 0.730653346 0.295260012
0.403640002 0.733319998 0.285140008
0.416420043 0.735660017 0.268959999
0.431866676 0.736959994 0.243406653
0.460340023 0.742939949 0.224319980
0.500899971 0.750573337 0.208839998
0.540833294 0.751646638 0.209120005
0.588419974 0.755640030 0.215100005
0.639520049 0.757740021 0.221859992
0.682520032 0.765333354 0.235326663
0.730979979 0.773659945 0.235606670
0.792926788 0.773140013 0.251280010
0.856526613 0.777819932 0.249460027
0.917959988 0.784060001 0.240286648
0.443420082 0.791886747 0.351346701
0.444200039 0.791886747 0.333266675
0.448626697 0.792926729 0.333826691
0.456246704 0.796840072 0.327806681
0.459886700 0.799180090 0.315260023
0.473700047 0.801000059 0.286206722
0.500086725 0.805680037 0.270586699
0.532006741 0.809580088 0.252306700
0.576706707 0.816886723 0.247893333
0.619640052 0.816340029 0.251513392
0.667406678 0.819240093 0.252786666
0.716840029 0.825426698 0.266893387
0.763220012 0.830680072 0.274226725
0.806200087 0.835360110 0.277886719
0.872133315 0.838740110 0.289860010
0.924459994 0.840300083 0.302046716
0.490613252 0.851506591 0.393479973
0.497893274 0.854706585 0.389313221
0.499733299 0.854973257 0.387753248
0.503899872 0.856013238 0.369253308
0.511439919 0.859133244 0.357566595
0.528606653 0.860693216 0.335626632
0.546646595 0.864853203 0.318459928
0.577046633 0.872133195 0.301439941
0.608039916 0.876033306 0.286453247
0.651980042 0.875513315 0.281779945
0.699133217 0.879933238 0.284393281
0.738553345 0.882273257 0.293233275
0.791353345 0.889053285 0.304119974
0.839000046 0.893733203 0.318199992
0.885133266 0.898173273 0.323399961
0.946646631 0.905193269 0.328099966
0.545619965 0.917439997 0.431833327
0.538246691 0.917959988 0.424459994
0.538773298 0.917699993 0.423660010
0.547699988 0.915099978 0.422100008
0.561039984 0.923420012 0.408060014
0.576600015 0.928359985 0.389079988
0.591939986 0.927060008 0.376306653
0.615880013 0.932780027 0.355566651
0.644933283 0.935120046 0.329140007
0.686619997 0.940113306 0.322639972
0.734666586 0.945100009 0.327579975
0.778079987 0.945360005 0.330179989
0.819239974 0.951340020 0.342479974
0.864826679 0.952899992 0.339039981
0.918459892 0.956799984 0.341886669
0.960439980 0.964600027 0.362019986
0.000000000 0.024453335 0.081000000
0.001560001 0.033406671 0.085199997
0.019033339 0.046853334 0.082080007
0.073780008 0.076060012 0.098219998
0.114593342 0.103180006 0.106260002
0.177239999 0.117193341 0.109640002
0.253186703 0.124993347 0.110173337
0.322673321 0.132053345 0.108353339
0.392699987 0.135173321 0.101473346
0.470946699 0.130233347 0.089880005
0.549373329 0.123473346 0.086240008
0.626439989 0.114193350 0.088060006
0.700680017 0.078686677 0.081820011
0.773646712 0.053819995 0.082340010
0.849459946 0.027153384 0.093273327
0.918999970 0.021933347 0.084433340
0.000520001 0.073739998 0.093000002
0.003140002 0.074519999 0.089879997
0.034113340 0.083900012 0.090920001
0.082880013 0.100566670 0.098740004
0.132580012 0.116666675 0.109899998
0.200059995 0.127093345 0.113546669
0.270613372 0.136986673 0.108519994
0.339419961 0.141673356 0.105066672
0.405319989 0.143753350 0.099640004
0.479799986 0.141153365 0.085200012
0.556399941 0.143233329 0.083900012
0.632480025 0.127373338 0.076359995
0.712139964 0.093893349 0.074020006
0.783286750 0.092013352 0.078700013
0.851559937 0.066413380 0.085199997
0.916400015 0.055220012 0.084693350
0.005240004 0.119533338 0.097159997
0.027346671 0.121386662 0.101580001
0.057253335 0.128933340 0.105740003
0.112273350 0.134133339 0.113259993
0.180166677 0.137773335 0.102140009
0.231333345 0.147933349 0.105160013
0.299840063 0.155800015 0.097159997
0.366766632 0.152126700 0.087540001
0.431659967 0.151033342 0.081300005
0.501979947 0.150513351 0.076099999
0.572046638 0.155766666 0.064606681
0.640060008 0.157360002 0.065933339
0.708540022 0.148973331 0.059133336
0.784086704 0.136993319 0.068026677
0.846819937 0.133873343 0.073760003
0.919260025 0.121653341 0.087293349
0.024760006 0.167780027 0.111720003
0.046600010 0.171160027 0.114060000
0.059380010 0.179639995 0.109900005
0.117980018 0.184966683 0.090399995
0.184160024 0.188360021 0.066993333
0.251033336 0.189400002 0.054393329
0.310526639 0.195886686 0.067213319
0.377480000 0.196420029 0.056519993
0.441799968 0.198240012 0.054940000
0.506139994 0.204740018 0.054933336
0.567366660 0.211500004 0.051780015
0.632459998 0.214633346 0.049993340
0.703320026 0.215160012 0.052860007
0.777326763 0.206566676 0.052873343
0.846559942 0.201360017 0.066446632
0.925239980 0.210460007 0.080533348
0.053106677 0.225326687 0.126293331
0.067500003 0.227406695 0.125773340
0.079220004 0.231826678 0.112500004
0.117200010 0.237026691 0.083640002
0.167540014 0.248020023 0.081560008
0.230553344 0.252106696 0.064886667
0.301673412 0.252640009 0.030273326
0.384240001 0.251220047 0.005760005
0.452733338 0.255486697 0.006280006
0.510300040 0.260166675 0.012520007
0.567886651 0.269006699 0.028173326
0.637153387 0.268486679 0.032060005
0.703579962 0.273780018 0.033646669
0.770033419 0.275099993 0.041846678
0.842659950 0.267233342 0.043833360
0.919519961 0.263846636 0.068026669
0.082600005 0.283179998 0.137233332
0.089100018 0.289940029 0.132286668
0.090720020 0.294620007 0.116413333
0.128133342 0.301380008 0.094820000
0.177160010 0.306086689 0.078180000
0.228993356 0.314933360 0.070900001
0.286320001 0.316773355 0.057493318
0.358706653 0.322933346 0.023193344
0.433999985 0.324013352 0.006280012
0.511080027 0.319993347 0.001040000
0.584786594 0.317533344 0.000000000
0.659313381 0.315453351 0.001040000
0.724420011 0.316373348 0.000520001
0.782786727 0.326833338 0.011480014
0.849179983 0.331553340 0.044173289
0.917720079 0.325053334 0.039293341
0.107133351 0.350100040 0.151380002
0.107913345 0.353220046 0.140113369
0.122680023 0.356340021 0.123693347
0.158160001 0.361540020 0.105280012
0.184493363 0.365700036 0.074020006
0.234980017 0.370700032 0.070620000
0.289700001 0.381880015 0.066220000
0.342026681 0.387600064 0.064580031
0.414186656 0.389173388 0.025793368
0.489719987 0.388393402 0.009933341
0.571266651 0.386300057 0.002600006
0.653073311 0.385000050 0.000000000
0.733060002 0.376159996 0.000000000
0.805680096 0.371220022 0.000000000
0.879413247 0.372260034 0.000000000
0.954773366 0.366280049 0.000000000
0.138846681 0.413399994 0.159960017
0.136246681 0.413919985 0.149506658
0.146906659 0.414959967 0.138540000
0.178000003 0.421719998 0.122913331
0.205760002 0.425906688 0.093060002
0.252226710 0.430606663 0.072719999
0.304000020 0.437366694 0.070066676
0.349346668 0.445686638 0.076360010
0.407959968 0.451406687 0.082313329
0.472420067 0.451406658 0.046246670
0.555406630 0.454006672 0.017213361
0.637166679 0.455566674 0.008893342
0.719753325 0.448546648 0.002080004
0.802560091 0.445686668 0.000520001
0.881753325 0.437366664 0.000000000
0.965226710 0.422286659 0.000000000
0.180620000 0.474053323 0.177760005
0.175679982 0.474333316 0.167319998
0.181919992 0.475653291 0.161553338
0.207079992 0.482673317 0.147166669
0.239706680 0.485533327 0.124513313
0.269613326 0.491559982 0.097493328
0.325453371 0.495459974 0.098293334
0.369906694 0.503779948 0.104833327
0.414199978 0.510019958 0.105613321
0.475140005 0.512633324 0.112633318
0.549326658 0.518393338 0.096460007
0.628300071 0.520473361 0.055893309
0.705139995 0.520993292 0.026653331
0.786426783 0.519953310 0.017213330
0.871093273 0.509553313 0.006280002
0.954200029 0.499099970 0.001560000
0.216420010 0.539080024 0.201080009
0.226446688 0.541786671 0.198440000
0.239500001 0.542060018 0.193473339
0.255360037 0.546499968 0.179613337
0.276880026 0.550180078 0.164960012
0.305880010 0.554859996 0.137540013
