example_ofxGpuLutCube/bin/data/ofxGpuLutCube/LUT/Toaster.cube
TITLE "16x16x16 Adobe/IRIDAS cube 3D LUT exported with GrossGrade v0.1.027.1 (beta) 64 bit"
DOMAIN_MIN 0 0 0
DOMAIN_MAX 1 1 1
LUT_3D_SIZE 6
0.278400004 0.105899997 0.000000000
0.414080024 0.105899997 0.000780003
0.608660042 0.108239993 0.006239994
0.800800025 0.105899997 0.003900000
0.890200019 0.105899997 0.007800000
0.890200019 0.105899997 0.003900000
0.282400012 0.206300035 0.003900000
0.417280018 0.209420040 0.000000000
0.607060015 0.206300035 0.002339994
0.797680020 0.206300035 0.000780003
0.890980005 0.206300035 0.000000003
0.893320024 0.206300035 0.000000000
0.282400012 0.454100043 0.001560006
0.414080024 0.454100043 0.000780003
0.610220075 0.454100043 0.001560006
0.796840012 0.454100043 0.001560006
0.890200019 0.455700070 0.000000000
0.887860060 0.454100043 0.001560006
0.280800015 0.620400012 0.002340002
0.414080024 0.620400012 0.000780003
0.606280029 0.620400012 0.003900000
0.800800025 0.620400012 0.000000000
0.890200019 0.620400012 0.000000009
0.892540038 0.620400012 0.002340002
0.278400004 0.830580056 0.003120000
0.410960019 0.830580056 0.000780000
0.607060015 0.829800010 0.003119988
0.796840012 0.827460051 0.000000009
0.890200019 0.828240037 0.000000000
0.890200019 0.827460051 0.000000000
0.278400004 0.870599985 0.000000000
0.410960019 0.870599985 0.000780003
0.604720056 0.870599985 0.003900000
0.799239993 0.869040012 0.002340002
0.890200019 0.870599985 0.003120000
0.890200019 0.870599985 0.003900000
0.278400004 0.105899997 0.193700016
0.414080024 0.105899997 0.190580025
0.607860029 0.105899997 0.194480017
0.799239993 0.105899997 0.191360027
0.890200019 0.105899997 0.191360041
0.890200019 0.105899997 0.193700016
0.278400004 0.206300035 0.184340030
0.414080024 0.206300035 0.187460020
0.605520070 0.207080036 0.191360027
0.800800025 0.207860038 0.192140028
0.890200019 0.206300035 0.193700016
0.890200019 0.206300035 0.190580025
0.280800015 0.452540040 0.188240021
0.413300037 0.454880029 0.188240021
0.608660042 0.456500053 0.190580025
0.799239993 0.453360051 0.190580025
0.890200019 0.454100043 0.187460020
0.890200019 0.454100043 0.192920014
0.279200017 0.620400012 0.190580025
0.414080024 0.620400012 0.191360027
0.607100070 0.620400012 0.189800024
0.802360058 0.621960044 0.194480017
0.890200019 0.620400012 0.191360027
0.890200019 0.620400012 0.192140013
0.276079983 0.829800069 0.190580025
0.410960019 0.829800069 0.188240021
0.605520070 0.827460051 0.188240021
0.798439980 0.827460051 0.190580025
0.890200019 0.827460051 0.191360012
0.890200019 0.827460051 0.191360012
0.278400004 0.870599985 0.189800024
0.413300037 0.873719990 0.191360027
0.607860029 0.870599985 0.190580025
0.800000012 0.870599985 0.186680019
0.890200019 0.870599985 0.185900018
0.890200019 0.870599985 0.187460020
0.280000001 0.107460007 0.385900050
0.414080024 0.109020002 0.384280026
0.604720056 0.105899997 0.387460053
0.799239993 0.104340002 0.381940037
0.890200019 0.105899997 0.382720053
0.890200019 0.105899997 0.385060042
0.278400004 0.206300035 0.377260059
0.413300008 0.205500036 0.381160051
0.607860088 0.205500036 0.385120034
0.799239993 0.207080036 0.384300053
0.890980005 0.207080036 0.387460053
0.890200019 0.206300035 0.382720053
0.276840001 0.454100043 0.379600048
0.412520021 0.456500053 0.380380034
0.607060015 0.451760054 0.379600048
0.797639966 0.454100043 0.383500040
0.890200019 0.456500053 0.383500040
0.890200019 0.456500053 0.385900050
0.278400004 0.620400012 0.381160051
0.414080024 0.622740030 0.385080040
0.606320083 0.620400012 0.385060042
0.799239993 0.620400012 0.383500040
0.890200019 0.620400012 0.385060042
0.890200019 0.620400012 0.385060042
0.280799985 0.829020023 0.381180048
0.414080024 0.827460051 0.381960034
0.607060015 0.829800010 0.384300023
0.798460007 0.827460051 0.382720023
0.890200019 0.827460051 0.381940067
0.890200019 0.828240037 0.384300023
0.278400004 0.870599985 0.383500040
0.414080024 0.870599985 0.380380034
0.607060075 0.870599985 0.379600048
0.797639966 0.869040012 0.378040045
0.890200019 0.870599985 0.379600048
0.890200019 0.870599985 0.379600048
0.280800015 0.108240001 0.574079990
0.414080024 0.107460000 0.572520018
0.607060015 0.105899997 0.577239990
0.796840012 0.105899997 0.575680017
0.890200019 0.105899997 0.575680017
0.890200019 0.105899997 0.571740031
0.283160001 0.207860038 0.572560012
0.414080024 0.206300035 0.570180058
0.605520010 0.206300035 0.574900031
0.799239993 0.207860038 0.572520018
0.890200019 0.206300035 0.569400012
0.890200019 0.204740047 0.570959985
0.279200017 0.452540040 0.570179999
0.414080024 0.454100043 0.572520018
0.605500042 0.454900056 0.572519958
0.798440039 0.451760054 0.571740031
0.890200019 0.454100043 0.570960045
0.888640046 0.454100043 0.571740031
0.280800015 0.622740030 0.571740031
0.412520021 0.621960044 0.574880064
0.608660042 0.620400012 0.574080050
0.800800025 0.620400012 0.575680017
0.889420033 0.620400012 0.574880004
0.890200019 0.620400012 0.574080050
0.278400004 0.827460051 0.574880004
0.414080024 0.828240037 0.571740031
0.603920043 0.829020023 0.570200026
0.799239993 0.827460051 0.571740031
0.890200019 0.828240037 0.571740031
0.890200019 0.827460051 0.574079990
0.278400004 0.870599985 0.571740031
0.414080024 0.870599985 0.573339999
0.604720056 0.870599985 0.571780026
0.800800025 0.870599985 0.569400012
0.890200019 0.870599985 0.569400012
0.890200019 0.870599985 0.569400012
0.282400012 0.109020002 0.762340009
0.414860010 0.105899997 0.759220004
0.605500042 0.105899997 0.763119996
0.799239993 0.105899997 0.759220004
0.890200019 0.105899997 0.759220004
0.890200019 0.105899997 0.759220004
0.278400004 0.202380046 0.757640004
0.414080024 0.206300035 0.759199977
0.606299996 0.206300035 0.757660031
0.800019979 0.205520019 0.760779977
0.890200019 0.206300035 0.761560023
0.890200019 0.206300035 0.761560023
0.278400004 0.455660045 0.757660031
0.414080024 0.455660045 0.759999990
0.603120029 0.455700070 0.759220004
0.796079993 0.454900026 0.758440018
0.890980005 0.456500053 0.759980023
0.890200019 0.454100043 0.759999990
0.278400004 0.620400012 0.759220004
0.413300037 0.621179998 0.757640004
0.608660042 0.620400012 0.761560023
0.800019979 0.621179998 0.761560023
0.890200019 0.620400012 0.760760009
0.890200019 0.621179998 0.761560023
0.278400004 0.827460051 0.759220004
0.413300008 0.827460051 0.759220004
0.604720056 0.827460051 0.759999990
0.799239993 0.829800069 0.759220004
0.890200019 0.827460051 0.759999990
0.890200019 0.827460051 0.759999990
0.281600028 0.870599985 0.762340009
0.414080024 0.870599985 0.759199977
0.603160024 0.872160017 0.759980023
0.799239993 0.870599985 0.759199977
0.890200019 0.870599985 0.758419991
0.890200019 0.870599985 0.758419991
0.282400012 0.105899997 0.764699996
0.414080024 0.109020002 0.764699996
0.607060015 0.105899997 0.767040014
0.799239993 0.105899997 0.767040014
0.890200019 0.105899997 0.764699996
0.890200019 0.105899997 0.764699996
0.281599998 0.206300035 0.767820001
0.413300008 0.205500036 0.764699996
0.608660042 0.206300035 0.767820001
0.800000012 0.203940049 0.764699996
0.890200019 0.206300035 0.765479982
0.889420033 0.205500036 0.763920009
0.280800015 0.454100043 0.764699996
0.415700018 0.454100043 0.764699996
0.604719996 0.454100043 0.764699996
0.799199998 0.454100043 0.764699936
0.891759992 0.455660045 0.766260028
0.890200019 0.454100043 0.764699996
0.278400004 0.620400012 0.764699996
0.414080024 0.620400012 0.763140023
0.607100070 0.620400012 0.765479982
0.799239993 0.620400012 0.767040014
0.890200019 0.620400012 0.764699996
0.890200019 0.620400012 0.764699996
0.276079983 0.827460051 0.764699996
0.410960019 0.829800069 0.762359977
0.607880056 0.828240037 0.765479982
0.798460007 0.829020023 0.764699996
0.890200019 0.827460051 0.764699996
0.890200019 0.827460051 0.764699996
0.274500012 0.870599985 0.764699996
0.410180032 0.870599985 0.765479982
0.604720056 0.870599985 0.767040014
0.797680020 0.872159958 0.768599987
0.890200019 0.870599985 0.768599987
0.890200019 0.870599985 0.768599987
