example_ofxGpuLutCube/bin/data/ofxGpuLutCube/LUT/Toaster.cube
TITLE "16x16x16 Adobe/IRIDAS cube 3D LUT exported with GrossGrade v0.1.027.1 (beta) 64 bit"
DOMAIN_MIN 0 0 0
DOMAIN_MAX 1 1 1
LUT_3D_SIZE 16
0.278400004 0.105899997 0.000000000
0.319173336 0.105899997 0.000000000
0.367313325 0.105899997 0.003900000
0.414080024 0.105899997 0.000780003
0.471073359 0.105899997 0.003900000
0.533366680 0.105899997 0.003900000
0.608660042 0.108239993 0.006239994
0.673453331 0.105899997 0.005720002
0.738033295 0.105899997 0.003900000
0.800800025 0.105899997 0.003900000
0.866666615 0.107200004 0.005200005
0.893060029 0.105899997 0.003900000
0.890200019 0.105899997 0.007800000
0.890200019 0.105899997 0.003900000
0.890200019 0.105899997 0.000000000
0.890200019 0.105899997 0.003900000
0.278666675 0.105899997 0.000260001
0.319173336 0.106160000 0.000520001
0.367053330 0.105899997 0.000260001
0.410440028 0.105899997 0.000260001
0.471333355 0.106160000 0.000780002
0.534900010 0.106160000 0.003639999
0.604986727 0.106160000 0.003639999
0.669553339 0.105899997 0.001560001
0.738033295 0.104339994 0.000260001
0.799239993 0.105899997 0.000260001
0.866666615 0.105899997 0.001560004
0.892800033 0.105899997 0.000260001
0.890200019 0.105899997 0.003639999
0.890200019 0.105899997 0.003639999
0.890200019 0.105899997 0.003639999
0.890200019 0.105899997 0.003639999
0.281866670 0.112166680 0.000520001
0.319173336 0.112433352 0.000520001
0.366793334 0.112700015 0.000000000
0.417280018 0.115820020 0.000780003
0.474526674 0.112700015 0.001040003
0.534633338 0.112700015 0.000000000
0.605786681 0.112166680 0.001040005
0.669553339 0.112166680 0.001820002
0.738033295 0.113726676 0.000520001
0.799239993 0.112166680 0.001040003
0.865366638 0.112166680 0.000520003
0.889160037 0.112166680 0.001040003
0.890200019 0.112166680 0.000000000
0.893580019 0.112166680 0.003900000
0.893580019 0.112700015 0.003900000
0.890200019 0.112166680 0.003900000
0.282400012 0.206300035 0.003900000
0.319173336 0.206560031 0.000260001
0.366793334 0.206300035 0.000000000
0.417280018 0.209420040 0.000000000
0.475046664 0.206300035 0.001040003
0.539086699 0.209420040 0.002599997
0.607060015 0.206300035 0.002339994
0.669553339 0.206300035 0.000000000
0.738033295 0.209420040 0.000780000
0.797680020 0.206300035 0.000780003
0.862213254 0.206300035 0.000000003
0.889160037 0.206300035 0.000780003
0.890980005 0.206300035 0.000000003
0.890720010 0.205500036 0.003900000
0.893060029 0.206300035 0.003639990
0.893320024 0.206300035 0.000000000
0.279466689 0.301693350 0.000000000
0.319973350 0.301693350 0.001040003
0.367313325 0.301173359 0.000000000
0.414860010 0.301693350 0.000780003
0.472966671 0.299613357 0.000000000
0.536226690 0.302213371 0.000260000
0.604200006 0.300653368 0.000000000
0.670333385 0.305333346 0.000779999
0.736213326 0.302733362 0.000000004
0.797906697 0.305620015 0.001040003
0.862733305 0.304553360 0.000000004
0.891240001 0.302733332 0.000000000
0.891240001 0.303773373 0.003120000
0.888900042 0.301693350 0.000000000
0.890980005 0.301693350 0.001039999
0.891240001 0.301693350 0.000000000
0.278400004 0.380366683 0.000000000
0.319173336 0.380626678 0.000260001
0.367313325 0.380886674 0.001300002
0.414080024 0.380366683 0.000780003
0.472700030 0.380366683 0.000000000
0.534633338 0.382966667 0.002599997
0.607060015 0.381406695 0.002339994
0.671113312 0.382446676 0.003380000
0.734133303 0.380366683 0.000000005
0.797906637 0.384033352 0.001039999
0.862733305 0.384300023 0.001300000
0.890200019 0.380366683 0.001300002
0.890200019 0.381666690 0.000000000
0.890200019 0.380366683 0.000000000
0.892540038 0.380366683 0.002339992
0.890200019 0.380366683 0.003900000
0.282400012 0.454100043 0.001560006
0.319173336 0.456500053 0.000000000
0.364453346 0.454100043 0.000000000
0.414080024 0.454100043 0.000780003
0.471606702 0.458060056 0.000000000
0.533366680 0.455400050 0.000000000
0.610220075 0.454100043 0.001560006
0.669553339 0.454100043 0.001560006
0.738033295 0.456500053 0.002339994
0.796840012 0.454100043 0.001560006
0.864033282 0.454100043 0.000000000
0.890980005 0.454940021 0.002339994
0.890200019 0.455700070 0.000000000
0.890200019 0.456500053 0.001560006
0.890200019 0.457793385 0.003639990
0.887860060 0.454100043 0.001560006
0.278400004 0.510833323 0.002079998
0.315273315 0.508753359 0.000000000
0.365493327 0.510833323 0.002079998
0.414080024 0.512653351 0.003640004
0.473206669 0.510833323 0.002079998
0.534633338 0.510053337 0.000520000
0.607060015 0.509273350 0.002339994
0.667733312 0.510833323 0.003900000
0.734393358 0.510833323 0.002080005
0.797373295 0.510833323 0.002079998
0.864033282 0.510833323 0.002079998
0.891240001 0.512653351 0.003900000
0.890200019 0.510833323 0.003900000
0.890200019 0.512653351 0.003900000
0.889940023 0.512393355 0.001819995
0.888380051 0.510833323 0.002079998
0.278400004 0.567566633 0.000000000
0.318913341 0.567566633 0.000000000
0.363413334 0.564186633 0.000000000
0.414080024 0.567566633 0.000000003
0.474006683 0.567566633 0.001040003
0.534633338 0.567566633 0.001819997
0.606320024 0.565746665 0.000000006
0.669553339 0.567566633 0.000000000
0.736213326 0.567566633 0.001820002
0.800800025 0.567566633 0.000260004
0.864033282 0.567566633 0.001300005
0.890200019 0.567566633 0.003900000
0.890200019 0.567566633 0.001040002
0.890200019 0.567566633 0.000000000
0.890200019 0.567566633 0.001820002
0.890200019 0.567566633 0.001820002
0.280800015 0.620400012 0.002340002
0.319173336 0.620400012 0.000260001
0.365753323 0.618840039 0.002340002
0.414080024 0.620400012 0.000780003
0.476346701 0.620400012 0.003900000
0.534633338 0.620400012 0.001039999
0.606280029 0.620400012 0.003900000
0.667213321 0.620400012 0.001820002
0.738293290 0.620400012 0.002079997
0.800800025 0.620400012 0.000000000
0.864033282 0.620400012 0.001300005
0.890200019 0.620400012 0.003900000
0.890200019 0.620400012 0.000000009
0.890200019 0.620400012 0.001040006
0.890200019 0.620400012 0.000000000
0.892540038 0.620400012 0.002340002
0.278400004 0.687566638 0.000000000
0.316573322 0.687566638 0.000000001
0.364713311 0.685486615 0.001300003
0.414080024 0.687566638 0.000780003
0.476606697 0.688633323 0.002599999
0.532033384 0.687566638 0.000000000
0.604720056 0.687566638 0.001040001
0.667733371 0.688866615 0.000000007
0.736213326 0.687566638 0.000000000
0.798400044 0.688866615 0.000260002
0.861433268 0.688866615 0.001300005
0.890200019 0.688606620 0.003900000
0.890980005 0.688346624 0.000780000
0.890200019 0.687566638 0.002599995
0.890200019 0.687566638 0.000000000
0.890200019 0.688866615 0.001300005
0.275539994 0.752426684 0.001039999
0.317873329 0.755286694 0.000000000
0.363933325 0.751906693 0.000000000
0.413300008 0.752426684 0.000000000
0.474006683 0.752426684 0.003900000
0.530433357 0.753726661 0.000000000
0.604720056 0.753726661 0.002339994
0.669553339 0.752426684 0.001820002
0.736213326 0.752426684 0.001820002
0.797880054 0.755286694 0.003380001
0.861433268 0.753726661 0.002340003
0.890200019 0.752426684 0.003900000
0.890200019 0.755286694 0.003120000
0.890200019 0.752426684 0.001039999
0.890460014 0.755286694 0.003900000
0.890200019 0.755286694 0.003900000
0.278400004 0.830580056 0.003120000
0.316053301 0.830580056 0.003120000
0.363413334 0.827980042 0.003120000
0.410960019 0.830580056 0.000780000
0.474006683 0.828240037 0.000780000
0.533366680 0.828760028 0.000000005
0.607060015 0.829800010 0.003119988
0.669553339 0.827460051 0.001820009
0.736213326 0.827460051 0.000780000
0.796840012 0.827460051 0.000000009
0.864033282 0.828240037 0.000780000
0.890200019 0.827460051 0.000000011
0.890200019 0.828240037 0.000000000
0.890200019 0.827720046 0.003900000
0.890200019 0.827460051 0.003900000
0.890200019 0.827460051 0.000000000
0.281866699 0.870079994 0.000000000
0.319173336 0.870339990 0.000000000
0.366793334 0.870079994 0.000000000
0.414080024 0.870599985 0.000000000
0.471606672 0.870599985 0.000000000
0.532553375 0.870599985 0.000000000
0.605240047 0.872159958 0.000000000
0.670073330 0.870599985 0.000000000
0.734879971 0.870599985 0.000000000
0.796840012 0.870079994 0.000000000
0.861433268 0.871379972 0.000519992
0.889680028 0.870599985 0.000000000
0.890200019 0.870599985 0.000519992
0.890200019 0.870599985 0.000519992
0.890200019 0.870599985 0.000519992
0.890200019 0.870599985 0.000000000
0.278400004 0.870599985 0.003639990
0.318913341 0.870599985 0.003639990
0.367053330 0.870599985 0.003639990
0.413820028 0.870599985 0.004419993
0.474006683 0.870599985 0.000000004
0.535966694 0.870599985 0.000000000
0.608660042 0.870599985 0.003900000
0.669553339 0.870599985 0.001820002
0.736213326 0.870339990 0.003900000
0.799239993 0.870339990 0.002340002
0.864033282 0.871639967 0.001300005
0.890200019 0.870599985 0.002860001
0.890200019 0.870599985 0.003639990
0.890200019 0.870599985 0.003639990
0.890200019 0.870599985 0.003639990
0.890200019 0.870599985 0.003639990
0.278400004 0.870599985 0.000000000
0.315273315 0.870599985 0.000000000
0.363413334 0.870599985 0.003900000
0.410960019 0.870599985 0.000780003
0.471073359 0.870599985 0.001040003
0.532033384 0.870599985 0.000000000
0.604720056 0.870599985 0.003900000
0.669553339 0.868780017 0.001820002
0.738293290 0.870599985 0.003900000
0.799239993 0.869040012 0.002340002
0.864033282 0.870599985 0.001300005
0.890200019 0.870599985 0.002860001
0.890200019 0.870599985 0.003120000
0.890200019 0.870599985 0.000000000
0.890200019 0.870599985 0.000000000
0.890200019 0.870599985 0.003900000
0.282400012 0.109800003 0.061153341
0.319173366 0.105899997 0.061413340
0.367053330 0.105899997 0.064533338
0.414080024 0.105899997 0.062206674
0.477646708 0.105899997 0.064793341
0.535700023 0.106940001 0.061153341
0.607326686 0.108239993 0.065053344
0.669553339 0.105899997 0.065053344
0.739853323 0.106160000 0.062713347
0.801580012 0.105899997 0.063233346
0.863026619 0.105899997 0.062453344
0.889160037 0.105899997 0.064013340
0.890200019 0.105899997 0.064793341
0.890200019 0.105899997 0.064273350
0.890200019 0.105899997 0.064533331
0.890200019 0.105899997 0.065053344
0.278400004 0.105899997 0.053873338
0.318913341 0.105899997 0.057513341
0.367313325 0.105899997 0.057253338
0.414080024 0.105899997 0.055173345
0.477126688 0.105899997 0.061413340
0.533366680 0.105899997 0.058553346
0.607326686 0.105899997 0.059853334
0.669553339 0.105899997 0.059073344
0.738033295 0.107719995 0.061413340
0.799239993 0.105899997 0.059853341
0.865366638 0.105899997 0.058813345
0.890200019 0.105899997 0.061680008
0.890200019 0.105899997 0.057253342
0.890200019 0.105899997 0.060633350
0.890200019 0.105899997 0.061153341
0.890200019 0.105899997 0.061413340
0.278400004 0.115813352 0.058033343
0.318913341 0.112700015 0.061940011
0.363413334 0.112433344 0.058033343
0.413560033 0.115026683 0.061673343
0.473746687 0.109573357 0.061673343
0.532033384 0.112700015 0.060893338
0.605266690 0.112166680 0.064013340
0.667733371 0.112700015 0.061153341
0.737513304 0.114260018 0.058293343
0.798706651 0.113986678 0.058293346
0.864586651 0.115546681 0.059073348
0.892800033 0.115040019 0.061166678
0.892540038 0.115033358 0.057773340
0.890460014 0.112686671 0.057773344
0.893320024 0.112166680 0.060893331
0.889680028 0.112166680 0.061153341
0.278400004 0.205766708 0.057513341
0.318913311 0.206560031 0.061160006
0.363413334 0.202913374 0.057773344
0.413300008 0.205500036 0.061680008
0.474526644 0.206560045 0.060893338
0.534900010 0.209160030 0.062973335
0.605520010 0.206300035 0.064273335
0.668253362 0.205260038 0.061153341
0.736733317 0.209680021 0.060113344
0.798179984 0.207060039 0.057253342
0.864553273 0.207080036 0.058553346
0.890200019 0.205766708 0.058033343
0.889940023 0.206040055 0.057773348
0.890200019 0.206300035 0.058033343
0.893060029 0.209420025 0.060633332
0.889940023 0.206300035 0.057513341
0.281599998 0.304553360 0.061153341
0.320233345 0.301960021 0.061413340
0.363933325 0.297793388 0.057773344
0.414346695 0.300913364 0.061153341
0.477126688 0.300913364 0.061153341
0.534900010 0.301693350 0.060893342
0.604720056 0.300653368 0.058813348
0.669813335 0.301693350 0.060633343
0.736993313 0.302493364 0.063493341
0.798979998 0.301693350 0.060633346
0.861693263 0.299873352 0.057253353
0.890460014 0.301960021 0.058553346
0.890460014 0.300913364 0.060373340
0.890460014 0.304553360 0.061673332
0.890200019 0.301693350 0.058293339
0.890720010 0.301433355 0.058293346
0.278400004 0.380366683 0.060113337
0.321839988 0.382966697 0.063753337
0.363413334 0.376986682 0.061153341
0.410960019 0.380366683 0.058813348
0.474786669 0.382966697 0.064793341
0.532033384 0.383226693 0.063753337
0.606053412 0.380366683 0.061153341
0.669553339 0.379326701 0.061153341
0.733566642 0.381406695 0.061933335
0.795279980 0.381146699 0.061413340
0.861433268 0.380106688 0.062193345
0.887600005 0.379326701 0.062713340
0.892020047 0.382186711 0.061153337
0.890200019 0.380366683 0.061153341
0.890200019 0.380366683 0.061153337
0.889160037 0.379326701 0.061413340
0.278400004 0.457800061 0.060893338
0.317613333 0.454100043 0.060893338
0.363673329 0.450720042 0.061153341
0.412780017 0.456500053 0.061153341
0.476346701 0.454100043 0.063493334
0.534640074 0.454100043 0.059853334
0.611000061 0.454100043 0.061153341
0.672153354 0.452020049 0.059073344
0.734393299 0.452280045 0.057513349
0.799239993 0.455400050 0.059853341
0.862733245 0.452540040 0.060113344
0.890200019 0.452800065 0.061153341
0.890200019 0.456500053 0.061153337
0.889940023 0.455966741 0.061153341
0.890200019 0.456760049 0.063233331
0.890200019 0.454100043 0.061153341
0.278400004 0.510833323 0.061153341
0.319173336 0.512653351 0.062973343
0.367053330 0.511093318 0.063493341
0.413560003 0.511873305 0.061933346
0.474006683 0.510833323 0.061413340
0.534113407 0.510833323 0.062713340
0.607326686 0.510833323 0.064793341
0.667993367 0.510833323 0.066653341
0.735693336 0.510833323 0.064533345
0.797680020 0.511093318 0.065053344
0.864033282 0.510833323 0.062453348
0.892800033 0.510833323 0.064793341
0.890200019 0.510833323 0.064793333
0.890200019 0.510833323 0.063493341
0.893580019 0.512653351 0.063233331
0.890200019 0.510833323 0.063493341
0.278400004 0.567566633 0.057513341
0.319173336 0.567566633 0.059333343
0.367313325 0.567566633 0.059333343
0.414080024 0.567566633 0.058033343
0.476606667 0.565746665 0.060113341
0.535966694 0.567566633 0.060373336
0.606540024 0.567566633 0.062973335
0.669553339 0.567566633 0.061153345
0.739853323 0.567826629 0.061153337
0.795813322 0.565486670 0.057513345
0.862766623 0.569386661 0.061933346
0.890720010 0.564446688 0.061413344
0.890200019 0.566786647 0.060373340
0.891499996 0.567046642 0.062453356
0.890200019 0.567566633 0.059333343
0.890200019 0.565746665 0.061153341
0.280533344 0.620400012 0.061153341
0.319173336 0.620400012 0.061413340
0.367313325 0.618579984 0.061413340
0.416460037 0.620400012 0.062733345
0.475046664 0.620400012 0.058553346
0.534900010 0.620660007 0.061413340
0.606053352 0.620400012 0.063233346
0.669553339 0.620400012 0.063493341
0.736473322 0.620400012 0.065053344
0.797940016 0.622219980 0.065053344
0.859353244 0.620660007 0.061153345
0.890460014 0.620400012 0.063233346
0.890200019 0.620400012 0.061153337
0.892540038 0.622480035 0.063493341
0.890460014 0.620400012 0.061153341
0.890200019 0.620140016 0.061153341
0.278400004 0.687566638 0.057513341
0.317873329 0.687566638 0.059853338
0.363673329 0.684419990 0.057773340
0.414080024 0.689433277 0.060373344
0.471333355 0.687566638 0.058293346
0.532300055 0.687833309 0.061153337
0.604720056 0.687566638 0.061153341
0.669553339 0.687566638 0.061153341
0.736213326 0.687566638 0.061153337
0.797680020 0.689133346 0.061153341
0.861433268 0.689966679 0.058813345
0.890200019 0.687566638 0.059593335
0.890200019 0.687566638 0.061153341
0.890200019 0.687566638 0.061153341
0.889940023 0.687299967 0.060893331
0.890200019 0.687566638 0.061153341
0.278400004 0.752426684 0.061413340
0.316573352 0.752686679 0.062453344
0.366793334 0.752426684 0.064533338
0.414080024 0.752686679 0.061673343
0.474006683 0.752426684 0.059333347
0.534406662 0.752686679 0.061153341
0.605760038 0.752426684 0.062193342
0.670853317 0.752426684 0.064013347
0.739073277 0.754246712 0.064013340
0.797933340 0.754506707 0.061673339
0.862499952 0.756066680 0.064793341
0.890200019 0.751126707 0.063493334
0.890200019 0.752426684 0.061153341
0.890720010 0.752686679 0.062453341
0.890980005 0.752426684 0.061933331
0.890200019 0.751386702 0.061413340
0.278666675 0.828240037 0.061933339
0.318393350 0.827460051 0.061153341
0.363413334 0.827200055 0.060893338
0.414080024 0.828240037 0.060633343
0.471073359 0.828240037 0.059853345
0.535966694 0.827460051 0.060633339
0.607326686 0.827460051 0.059073340
0.672413349 0.827460051 0.058293343
0.736213326 0.827460051 0.056213338
0.798460007 0.827460051 0.058033343
0.864566624 0.827460051 0.061673343
0.890200019 0.827460051 0.059333343
0.890200019 0.827460051 0.058293343
0.890200019 0.827460051 0.062193342
0.890200019 0.827460051 0.058293343
0.890200019 0.827460051 0.061933342
0.278400004 0.870859981 0.054653324
0.318913341 0.873719990 0.058553331
0.363933325 0.870079994 0.058033332
0.411220014 0.870599985 0.058813334
0.471606672 0.872940004 0.061153341
0.536220014 0.870859981 0.061673332
0.605240047 0.870079994 0.061153341
0.669553339 0.870079994 0.060893349
0.736733317 0.872420013 0.061413340
0.795799971 0.870599985 0.061933331
0.861966610 0.873719990 0.064013332
0.889680028 0.873979986 0.062453341
0.890200019 0.870599985 0.063753352
0.890200019 0.870599985 0.064013354
0.890200019 0.870599985 0.060893349
0.890200019 0.870599985 0.064533353
0.278400004 0.870599985 0.060893331
0.318913341 0.870599985 0.064793333
0.367053330 0.870339990 0.064273335
0.414080024 0.870599985 0.065593340
0.474786669 0.870599985 0.064533323
0.538306713 0.872940004 0.064533323
0.607326686 0.870599985 0.064793333
0.670073330 0.870599985 0.064793333
0.738033295 0.870599985 0.062713325
0.799239993 0.870599985 0.060893331
0.865366638 0.870599985 0.062973328
0.890200019 0.870599985 0.064533331
0.890460014 0.870599985 0.067739971
0.890200019 0.870599985 0.067999981
0.890200019 0.870599985 0.064273313
0.890200019 0.870599985 0.068266645
0.282400012 0.870599985 0.061413340
0.319173336 0.870599985 0.061413340
0.367313325 0.870599985 0.060893338
0.414080024 0.870599985 0.061673343
0.474006683 0.870599985 0.057253342
0.535966694 0.870599985 0.056993339
0.604986727 0.870599985 0.059593335
0.667993367 0.870599985 0.057253342
0.740113318 0.868780017 0.059073340
0.799239993 0.870599985 0.057513341
0.865366638 0.870599985 0.059593339
0.893060029 0.870599985 0.061413340
0.890200019 0.870599985 0.060373340
0.890200019 0.870599985 0.060893338
0.890200019 0.870599985 0.057253342
0.890200019 0.870599985 0.057513341
0.281866670 0.109279998 0.129153341
0.318913341 0.105899997 0.129686669
0.367313325 0.105899997 0.129153341
0.414080024 0.109020002 0.132533342
0.474006683 0.105899997 0.129686669
0.535966694 0.106420003 0.130466685
0.608126700 0.109279998 0.135913342
0.669553339 0.105899997 0.130453333
0.736213326 0.106419995 0.128633335
0.797373354 0.105899997 0.129153341
0.864033282 0.105899997 0.127073348
0.890200019 0.105899997 0.129686669
0.890200019 0.105899997 0.129153341
0.890200019 0.105899997 0.129153341
0.890200019 0.105899997 0.129153341
0.890200019 0.105899997 0.129153341
0.278400004 0.105899997 0.125513345
0.319173336 0.105899997 0.126040012
0.363933325 0.105899997 0.128893346
0.410960019 0.105899997 0.126300022
0.474006683 0.108759999 0.129153341
0.534900010 0.105899997 0.128113344
0.604986727 0.105899997 0.129153341
0.667473376 0.105899997 0.126813352
0.736213326 0.106159993 0.125253335
0.797373354 0.105899997 0.125780016
0.861953259 0.105899997 0.127080008
0.890460014 0.105899997 0.129420012
0.890200019 0.105899997 0.121786676
0.890200019 0.105899997 0.125780016
0.890200019 0.105899997 0.125780016
0.890200019 0.105899997 0.129680008
0.277880013 0.112166680 0.122306675
0.318653345 0.112166680 0.126040012
0.362893343 0.108786680 0.122840017
0.413560033 0.111646682 0.127086684
0.473486692 0.108786680 0.129673347
0.535433352 0.112700015 0.131233335
0.605266690 0.112166680 0.128633335
0.669553339 0.112700015 0.130453333
0.735693336 0.112700015 0.132533342
0.800266683 0.112166680 0.132533342
0.863513291 0.112700015 0.133833349
0.889680028 0.112700015 0.132533342
0.893580019 0.112700015 0.129153341
0.893060029 0.112166680 0.129153341
0.893060029 0.112166680 0.129153341
0.893060029 0.115546681 0.132533342
0.281599998 0.209420040 0.126033351
0.318653345 0.206033364 0.126300022
0.366533339 0.206033364 0.126033351
0.414080024 0.205766708 0.127346680
0.474266648 0.206300035 0.129413351
0.534633338 0.205500036 0.128106669
0.606320024 0.207080036 0.129933342
0.669293344 0.204460040 0.132273346
0.736213326 0.206300035 0.130713329
0.800800025 0.206300035 0.130713344
0.864033282 0.206300035 0.129933327
0.890200019 0.204220042 0.131753340
0.890200019 0.206300035 0.129153341
0.890200019 0.206300035 0.129153341
0.890200019 0.206820041 0.128373340
0.890200019 0.206300035 0.128373340
0.281333327 0.301173359 0.128633335
0.316313326 0.298833370 0.126293346
0.367313325 0.298313349 0.129153341
0.414080024 0.301440030 0.129413337
0.474006683 0.304033339 0.126293346
0.535166681 0.304826677 0.126293346
0.608113348 0.301173359 0.126813352
0.668773353 0.300393343 0.129673347
0.735693336 0.303513348 0.127333343
0.800266683 0.301173359 0.127333343
0.862473249 0.301953346 0.127593338
0.890200019 0.304553360 0.130193338
0.889940023 0.300913364 0.128893346
0.890720010 0.301173359 0.129153341
0.890980005 0.301693350 0.126813337
0.890200019 0.301173359 0.132546663
0.279199988 0.382966697 0.129153341
0.318913341 0.382966697 0.129419997
0.364713341 0.380106688 0.129686669
0.414613336 0.386153370 0.132286668
0.475046664 0.380366683 0.130206689
0.535166681 0.380366683 0.128373340
0.608660042 0.382966667 0.131753340
0.669293344 0.380366713 0.129673332
0.735433340 0.381406695 0.128373340
0.798933387 0.378546685 0.128893346
0.862733245 0.378546715 0.129153341
0.890200019 0.380366683 0.129153341
0.888900042 0.380366683 0.128633335
0.892280042 0.380366683 0.132013351
0.892540038 0.382706702 0.131493330
0.887600005 0.377766669 0.133066684
0.280800015 0.454100043 0.128633335
0.318133324 0.453320026 0.128380001
0.367313325 0.454100043 0.129153341
0.416480035 0.454100043 0.129686669
0.476866692 0.453580052 0.129153341
0.532033384 0.451760054 0.125253350
0.607593358 0.456500053 0.130453333
0.669553339 0.454366714 0.127073348
0.735693336 0.454100043 0.126813352
0.798933387 0.454620034 0.127333343
0.862993240 0.454100043 0.129153341
0.890200019 0.456473410 0.129153341
0.890200019 0.454900026 0.127593338
0.890200019 0.457006752 0.129153341
0.889940023 0.454100043 0.128893346
0.890200019 0.454100043 0.129686669
0.277880013 0.510833323 0.130713344
0.320506662 0.511093318 0.129680008
0.366793334 0.510833323 0.131233349
0.417280018 0.514006674 0.132026687
0.474786669 0.511093318 0.132013336
0.534113348 0.513746679 0.131493345
0.607333422 0.511093318 0.131493345
0.671633363 0.511353314 0.129686669
0.736213326 0.510833323 0.129413337
0.797906637 0.512133360 0.131233349
0.861953259 0.510313332 0.131233335
0.891499996 0.512133360 0.131493330
0.890200019 0.512133360 0.128373355
0.888900042 0.510833323 0.131766677
0.890200019 0.511873364 0.130453333
0.890200019 0.510833323 0.131766677
0.280266672 0.567566633 0.130973339
0.318913341 0.567566633 0.128893331
0.366793334 0.567566633 0.128633335
0.414080024 0.567566633 0.126033351
0.474526674 0.567566633 0.129153341
0.532833338 0.567566633 0.126553342
0.607060015 0.567566633 0.128633335
0.670853376 0.567566633 0.127073348
0.736213326 0.567566633 0.127333343
0.794253290 0.566006660 0.126033351
0.861953259 0.567340016 0.129153341
0.886820018 0.567566633 0.126293346
0.890200019 0.567566633 0.126813352
0.890200019 0.567566633 0.129673332
0.891759992 0.567306638 0.128893346
0.889680028 0.567566633 0.130973339
0.278933346 0.620400012 0.131506681
0.319173336 0.620400012 0.129420012
0.367313325 0.620400012 0.131506681
0.414080024 0.620400012 0.131506681
0.475046664 0.620400012 0.129673347
0.533873379 0.620400012 0.129153341
