example_ofxGpuLutCube/bin/data/ofxGpuLutCube/LUT/U1 (blue brown fade).cube
LUT_3D_SIZE 16
0.125418 0.126512 0.128588
0.142021 0.130637 0.131969
0.164051 0.135204 0.136655
0.187203 0.136728 0.139020
0.212857 0.140449 0.141077
0.256022 0.141821 0.140804
0.309801 0.139243 0.139029
0.375781 0.132022 0.131526
0.469470 0.115330 0.116169
0.560436 0.098466 0.096435
0.651421 0.082125 0.079229
0.723231 0.072857 0.063923
0.787968 0.068416 0.054341
0.850108 0.066236 0.043205
0.885857 0.064897 0.041860
0.921676 0.059343 0.038356
0.135637 0.148620 0.137873
0.148241 0.148880 0.138509
0.167908 0.151253 0.139932
0.197004 0.153346 0.141923
0.222891 0.156002 0.142444
0.264398 0.156749 0.141312
0.332465 0.152199 0.135604
0.423387 0.144953 0.123088
0.509827 0.131469 0.106242
0.591925 0.119768 0.087863
0.670940 0.111898 0.072659
0.734441 0.109841 0.062419
0.796554 0.103800 0.051722
0.852268 0.105390 0.047265
0.885355 0.102137 0.042248
0.921524 0.102243 0.038034
0.138574 0.170146 0.142927
0.151174 0.174131 0.142735
0.166621 0.173348 0.142609
0.194347 0.174808 0.142902
0.228762 0.176045 0.142970
0.278579 0.178043 0.139431
0.356084 0.173859 0.130767
0.457444 0.165541 0.113116
0.549864 0.155994 0.094776
0.635537 0.151134 0.077950
0.702947 0.145157 0.069142
0.753328 0.145529 0.058386
0.806700 0.142313 0.049208
0.856645 0.139004 0.043107
0.888460 0.139616 0.041633
0.918453 0.139491 0.037565
0.137741 0.206042 0.142314
0.150072 0.205576 0.141001
0.165649 0.202567 0.140654
0.194047 0.201036 0.139903
0.226414 0.206474 0.138624
0.284544 0.207533 0.134015
0.373988 0.203999 0.122548
0.484195 0.199036 0.102710
0.578676 0.193813 0.085285
0.661649 0.187943 0.070902
0.725593 0.181770 0.062616
0.775354 0.182896 0.052656
0.815891 0.187008 0.049999
0.859117 0.185256 0.039226
0.888817 0.185603 0.041071
0.927802 0.189798 0.037929
0.130676 0.239198 0.138041
0.141770 0.241404 0.135522
0.159587 0.243592 0.133613
0.188164 0.234516 0.133420
0.222682 0.240548 0.130981
0.274658 0.247657 0.123949
0.378492 0.242357 0.113395
0.491147 0.238566 0.094056
0.590284 0.238549 0.077341
0.673989 0.243736 0.064297
0.743353 0.244795 0.055233
0.785347 0.249349 0.052774
0.825972 0.250235 0.042079
0.859952 0.249975 0.043877
0.892688 0.255802 0.039238
0.928757 0.260567 0.037160
0.115847 0.285516 0.126832
0.126255 0.290480 0.121272
0.145310 0.293728 0.117316
0.184327 0.287393 0.118121
0.218438 0.276605 0.120939
0.271906 0.292385 0.112728
0.368738 0.298089 0.099944
0.478080 0.299245 0.083292
0.585875 0.298636 0.068781
0.675072 0.307009 0.056011
0.747270 0.307422 0.049090
0.797282 0.318217 0.048258
0.831909 0.322688 0.035192
0.867579 0.325005 0.043274
0.896759 0.330403 0.038410
0.932232 0.336883 0.038197
0.095015 0.340073 0.112887
0.108592 0.345982 0.103612
0.132623 0.347993 0.097991
0.178450 0.348189 0.099520
0.217866 0.340739 0.097514
0.279854 0.341118 0.095602
0.370094 0.358858 0.080254
0.473619 0.363176 0.069861
0.576311 0.369159 0.059673
0.669534 0.377467 0.050144
0.743967 0.379035 0.045117
0.797417 0.392571 0.045853
0.836617 0.396794 0.031493
0.869016 0.400451 0.040230
0.896898 0.404823 0.040296
0.930502 0.404438 0.038115
0.072647 0.402740 0.101442
0.086189 0.408277 0.081409
0.120386 0.412296 0.077139
0.172523 0.412227 0.077402
0.226368 0.413009 0.074671
0.293447 0.406451 0.079519
0.380863 0.424064 0.064288
0.477450 0.438027 0.056245
0.573263 0.444725 0.049974
0.657132 0.451064 0.044459
0.738007 0.458735 0.039614
0.798980 0.469897 0.040844
0.839081 0.477678 0.041990
0.869608 0.479756 0.033585
0.895203 0.484126 0.042509
0.932907 0.488933 0.042612
0.053726 0.469650 0.100850
0.054685 0.480652 0.062048
0.111759 0.486584 0.058409
0.174599 0.482791 0.059270
0.243022 0.488510 0.058677
0.323047 0.490566 0.055413
0.398844 0.492157 0.051744
0.491418 0.513392 0.046690
0.576646 0.522335 0.045008
0.655961 0.530695 0.043253
0.733369 0.534921 0.048481
0.797274 0.542180 0.037438
0.839319 0.552039 0.041957
0.869736 0.554907 0.039180
0.901100 0.559398 0.046440
0.934782 0.561022 0.044956
0.040461 0.536999 0.100771
0.031636 0.546493 0.054908
0.113773 0.553621 0.050430
0.187139 0.550703 0.048343
0.257614 0.559590 0.056057
0.344796 0.558403 0.048554
0.432575 0.568575 0.047635
0.502322 0.575803 0.046431
0.586395 0.593031 0.047505
0.661621 0.603097 0.046728
0.733886 0.608485 0.042431
0.795557 0.616199 0.040507
0.838598 0.624225 0.052120
0.874908 0.626840 0.050174
0.899821 0.629592 0.049149
0.933215 0.634724 0.049093
0.034183 0.607530 0.118186
-0.017253 0.620426 0.063411
0.126216 0.620569 0.047746
0.192533 0.627382 0.050936
0.281808 0.630741 0.053338
0.364811 0.630377 0.053085
0.454132 0.637786 0.055954
0.526431 0.647918 0.053813
0.597971 0.658497 0.053982
0.672597 0.669952 0.052950
0.739002 0.675567 0.057390
0.797435 0.683226 0.054197
0.839587 0.691766 0.056096
0.877699 0.691882 0.047260
0.902922 0.696603 0.052775
0.938524 0.702917 0.052711
0.037291 0.673788 0.124079
-0.017547 0.686455 0.066709
0.142807 0.686697 0.058463
0.213899 0.692361 0.058361
0.307924 0.694335 0.057215
0.387414 0.697186 0.064624
0.473004 0.699481 0.060923
0.547346 0.714363 0.061498
0.614164 0.718933 0.060853
0.679532 0.727585 0.060608
0.744002 0.740700 0.054621
0.803406 0.746879 0.056730
0.839486 0.752485 0.059494
0.876558 0.753144 0.048688
0.905108 0.758244 0.058542
0.940668 0.761202 0.057670
0.039105 0.736991 0.139344
0.016363 0.747865 0.065355
0.146785 0.748647 0.062881
0.235756 0.751312 0.063045
0.327984 0.752733 0.062004
0.410159 0.756673 0.058523
0.489075 0.754887 0.066270
0.556539 0.764123 0.067133
0.626269 0.777013 0.067227
0.680897 0.776717 0.066226
0.749212 0.794842 0.061806
0.808151 0.802870 0.062407
0.844869 0.813572 0.057767
0.879004 0.812113 0.067699
0.908621 0.817652 0.061856
0.943473 0.818639 0.061589
0.042690 0.795844 0.151615
0.022633 0.806222 0.071314
0.161672 0.808895 0.064459
0.258623 0.810407 0.078165
0.354318 0.816769 0.066844
0.436674 0.816666 0.081038
0.512198 0.816333 0.078813
0.574639 0.822038 0.077056
0.638585 0.828729 0.075205
0.692494 0.832258 0.072765
0.747150 0.834433 0.071998
0.813135 0.852557 0.069060
0.848044 0.865528 0.075189
0.884118 0.868558 0.066868
0.909113 0.870755 0.069633
0.944975 0.875670 0.069014
0.045505 0.851562 0.165366
0.029072 0.863774 0.060725
0.184667 0.865481 0.078828
0.283351 0.865246 0.086589
0.372771 0.865754 0.083331
0.448393 0.868490 0.083851
0.526008 0.870715 0.084909
0.584971 0.868470 0.084960
0.643780 0.875951 0.087764
0.702347 0.885104 0.084246
0.751918 0.884498 0.080792
0.806052 0.893724 0.089397
0.843812 0.901544 0.085355
0.876568 0.906693 0.077302
0.906245 0.910237 0.082333
0.938793 0.913240 0.082132
-0.011207 0.963631 0.174937
0.051838 0.969215 0.057713
0.222218 0.973714 0.083354
0.326510 0.979455 0.086776
0.412214 0.977496 0.086745
0.495335 0.981044 0.082761
0.568247 0.977399 0.084682
0.620275 0.977728 0.091084
0.670404 0.980399 0.093289
0.723553 0.984722 0.093826
0.775295 0.989341 0.098895
0.816366 0.991035 0.094446
0.838789 0.993287 0.095485
0.863311 0.992209 0.099045
0.893677 0.994089 0.096843
0.926017 0.994117 0.094073
0.134068 -0.386582 0.142075
0.146648 -0.387349 0.152345
0.150396 -0.388847 0.155269
0.157971 -0.389653 0.158482
0.168140 -0.389314 0.160287
0.186334 -0.389364 0.160371
0.250760 -0.389816 0.157441
0.354104 -0.392377 0.146314
0.466179 -0.397328 0.129019
0.567132 -0.402157 0.108452
0.655790 -0.406072 0.096393
0.720594 -0.408280 0.082063
0.788439 -0.409884 0.066162
0.856478 -0.410888 0.055307
0.896430 -0.411513 0.049394
0.928500 -0.411914 0.045955
0.134980 0.148662 0.150412
0.147229 0.149279 0.152426
0.166478 0.151606 0.154454
0.192453 0.152582 0.155731
0.221838 0.154586 0.156291
0.257382 0.156575 0.156245
0.321160 0.152075 0.151140
0.413428 0.142644 0.138574
0.515324 0.125087 0.119728
0.609861 0.108845 0.098594
0.695135 0.093305 0.083152
0.754756 0.094837 0.070152
0.808202 0.095311 0.061455
0.864823 0.087335 0.052196
0.898027 0.083728 0.051321
0.928263 0.084692 0.047481
0.138936 0.171829 0.155442
0.151084 0.174414 0.157926
0.167132 0.175771 0.158136
0.194801 0.175257 0.158242
0.227008 0.178466 0.159416
0.270004 0.179701 0.154884
0.341164 0.174673 0.149719
0.438633 0.167543 0.131549
0.541901 0.151502 0.113681
0.625884 0.146269 0.093647
0.707296 0.135924 0.079609
0.768393 0.135217 0.066381
0.819817 0.134263 0.059548
0.867752 0.130677 0.051765
0.896551 0.131265 0.052496
0.929391 0.134280 0.048907
0.137083 0.202949 0.157695
0.148962 0.207206 0.159980
0.165392 0.207791 0.159043
0.191978 0.201091 0.156851
0.225415 0.206198 0.156071
0.278848 0.209756 0.149799
0.363750 0.205142 0.141499
0.467357 0.198057 0.123304
0.563496 0.190320 0.104950
0.646898 0.183205 0.088145
0.722283 0.180231 0.076745
0.777874 0.186629 0.066163
0.830242 0.190949 0.058756
0.872695 0.189160 0.051790
0.899026 0.192844 0.052901
0.933321 0.197306 0.050291
0.129031 0.241583 0.152898
0.141222 0.245400 0.156476
0.161976 0.246308 0.152377
0.187082 0.244125 0.151042
0.222445 0.241536 0.149491
0.274549 0.246052 0.144997
0.374134 0.247386 0.132267
0.484215 0.242014 0.113042
0.582878 0.240486 0.096296
0.659863 0.242963 0.080704
0.732734 0.244786 0.072802
0.793443 0.249323 0.062867
0.835132 0.257075 0.058912
0.873195 0.258068 0.050947
0.902588 0.261067 0.054490
0.938169 0.265982 0.052438
0.115694 0.283014 0.146327
0.126106 0.290739 0.150747
0.146796 0.297102 0.142031
0.178232 0.295486 0.138412
0.216411 0.288413 0.137766
0.268870 0.296191 0.132137
0.369967 0.302244 0.119244
0.482359 0.304190 0.102145
0.591280 0.307376 0.086925
0.672565 0.313048 0.074390
0.741926 0.315748 0.067347
0.793934 0.319754 0.061505
0.835506 0.331802 0.057215
0.872547 0.334874 0.052595
0.901472 0.337700 0.052858
0.936368 0.345844 0.053684
0.095462 0.337556 0.136066
0.103404 0.348585 0.141254
0.122153 0.356347 0.124986
0.165444 0.356314 0.118473
0.215020 0.354097 0.117995
0.270882 0.346071 0.120291
0.366761 0.363339 0.106166
0.473942 0.369359 0.089137
0.579153 0.374425 0.079413
0.667690 0.383138 0.068244
0.746381 0.389526 0.063392
0.799531 0.399789 0.057350
0.841873 0.407680 0.061377
0.876714 0.408392 0.054957
0.904943 0.414213 0.057117
0.942132 0.419178 0.057835
0.073680 0.395547 0.126344
0.080387 0.413500 0.135532
0.096816 0.421056 0.108775
0.155580 0.420901 0.096721
0.218823 0.423764 0.098351
0.287733 0.418226 0.094623
0.375281 0.428459 0.090435
0.473144 0.442459 0.076259
0.571475 0.450833 0.071101
0.661200 0.460286 0.065552
0.741298 0.463430 0.060241
0.800933 0.477217 0.064162
0.839857 0.484178 0.053948
0.875781 0.487710 0.058437
0.903040 0.492967 0.059363
0.938568 0.496360 0.059166
0.052060 0.466927 0.128799
0.063449 0.479201 0.140375
0.078773 0.489836 0.102288
0.142029 0.497303 0.094011
0.227949 0.495939 0.086182
0.312541 0.499786 0.081534
0.397660 0.503413 0.079640
0.484631 0.514441 0.071628
0.575705 0.529739 0.069298
0.657960 0.539154 0.066762
0.732378 0.543660 0.067566
0.802734 0.550862 0.068527
0.846778 0.555722 0.061120
0.874894 0.562024 0.062929
0.906868 0.565480 0.064956
0.941695 0.568263 0.063541
0.037061 0.535588 0.141530
0.051811 0.549971 0.152582
0.061514 0.558659 0.100255
0.149143 0.565874 0.083868
0.240919 0.568299 0.073986
0.332458 0.567673 0.081329
0.426578 0.576591 0.078289
0.504527 0.586020 0.077465
0.580854 0.597033 0.075601
0.661242 0.610681 0.071340
0.726874 0.614897 0.071752
0.796580 0.622248 0.066920
0.845746 0.628357 0.065443
0.876634 0.634943 0.072337
0.908375 0.636922 0.069062
0.940323 0.638540 0.067560
0.030139 0.601683 0.152176
0.050126 0.619043 0.164969
0.059755 0.626779 0.088245
0.161728 0.631895 0.082447
0.261171 0.634021 0.084063
0.353093 0.637203 0.085838
0.445652 0.640687 0.083222
0.528754 0.657851 0.085693
0.593072 0.657572 0.081538
0.665255 0.669716 0.076390
0.737437 0.677988 0.074824
0.797317 0.686367 0.072806
0.846563 0.696451 0.079666
0.881447 0.699113 0.078174
0.907527 0.701396 0.075510
0.946135 0.704696 0.074595
0.031844 0.668214 0.167373
0.052723 0.685741 0.177500
0.058163 0.694151 0.096775
0.174563 0.697590 0.087048
0.283730 0.698436 0.086600
0.374945 0.704681 0.093634
0.464901 0.703800 0.091957
0.539891 0.712542 0.093004
0.612039 0.723338 0.090905
0.674771 0.731121 0.090411
0.738607 0.740309 0.083376
0.799587 0.747669 0.086644
0.844514 0.754498 0.080347
0.881500 0.758028 0.082719
0.909272 0.761938 0.082660
0.944368 0.764842 0.083889
0.034575 0.732621 0.189498
0.060282 0.747076 0.182771
0.057301 0.755628 0.111880
0.201160 0.758541 0.095357
0.305697 0.763323 0.101215
0.395313 0.765636 0.099669
0.480237 0.762347 0.101692
0.551988 0.767534 0.101103
0.622219 0.780122 0.101410
0.680297 0.784320 0.098802
0.744870 0.796432 0.095416
0.806862 0.805309 0.084312
0.845176 0.812731 0.092007
0.883253 0.814529 0.090930
0.913403 0.818675 0.089720
0.949118 0.819278 0.089738
0.038800 0.793623 0.206925
0.063149 0.802611 0.192042
0.062855 0.814916 0.108743
0.224115 0.818789 0.105827
0.328651 0.820889 0.114983
0.414754 0.823356 0.111974
0.500513 0.822345 0.110516
0.562818 0.822505 0.113153
0.631061 0.830705 0.112942
0.690892 0.835100 0.106006
0.741694 0.835793 0.105373
0.807635 0.855954 0.111412
0.850963 0.866309 0.103734
0.884392 0.865968 0.097461
0.912865 0.871883 0.098019
0.948024 0.874170 0.098814
0.044049 0.848715 0.227518
0.066944 0.858111 0.197133
0.084031 0.869085 0.101193
0.244396 0.871784 0.117984
0.350475 0.872346 0.118454
0.434501 0.876805 0.118772
0.515204 0.876599 0.120750
0.578662 0.877950 0.122313
0.636518 0.879438 0.125182
0.698757 0.885302 0.122289
0.748880 0.888165 0.123000
0.801890 0.893740 0.116378
0.843944 0.905123 0.115378
0.879514 0.911291 0.112356
0.911618 0.913414 0.115724
0.947734 0.919137 0.114408
-0.028847 0.963109 0.251542
0.061267 0.968811 0.212007
0.133016 0.979637 0.114126
0.283496 0.981227 0.125589
0.391907 0.984594 0.134195
0.476486 0.982945 0.124250
0.553696 0.986815 0.129228
0.614265 0.987912 0.130056
0.665994 0.984682 0.136770
0.721592 0.988282 0.140976
0.768731 0.995769 0.134833
0.813211 0.991414 0.133886
0.843171 0.997509 0.136289
0.868592 0.995837 0.140879
0.898390 0.997659 0.137558
0.928493 1.000023 0.133585
0.136843 -0.385600 0.153906
0.149253 -0.387535 0.165133
0.160892 -0.390031 0.175597
0.172799 -0.391385 0.183255
0.180147 -0.391782 0.183555
0.193870 -0.392112 0.180961
0.255299 -0.393349 0.181934
0.348933 -0.396115 0.169043
0.456130 -0.399728 0.146920
0.567700 -0.404264 0.128722
0.661279 -0.407664 0.118053
0.732633 -0.409653 0.107319
0.795599 -0.411111 0.100685
0.857861 -0.412106 0.095358
0.903012 -0.413010 0.094599
0.938512 -0.413803 0.090294
0.135848 0.149101 0.174841
0.147924 0.149418 0.176703
0.166913 0.151585 0.178748
0.194637 0.153262 0.181449
0.220357 0.154683 0.183331
0.253121 0.155404 0.179152
0.319765 0.152229 0.178368
0.408724 0.140539 0.162653
0.514960 0.122114 0.144073
0.608225 0.101952 0.124299
0.689830 0.086532 0.112293
0.758177 0.074305 0.097213
0.816310 0.064126 0.079774
0.874110 0.054834 0.074566
0.906218 0.047029 0.069747
0.935540 0.042226 0.058519
0.138437 0.173397 0.180069
0.149658 0.174090 0.180244
0.166579 0.176190 0.183201
0.194511 0.177096 0.183934
0.222871 0.177286 0.182159
0.262966 0.179633 0.179882
0.334561 0.175309 0.177726
0.428148 0.163748 0.159182
0.531085 0.147399 0.137718
0.621806 0.133689 0.115262
0.701410 0.121642 0.099364
0.766211 0.117604 0.086977
0.822778 0.116816 0.077856
0.879438 0.117146 0.069396
0.908396 0.118728 0.068164
0.938369 0.120888 0.066272
0.136715 0.203870 0.182292
0.148191 0.206043 0.183878
0.166582 0.208368 0.188217
0.193224 0.206406 0.185263
0.225366 0.207433 0.184936
0.271752 0.209954 0.180549
0.352337 0.205246 0.173851
0.447855 0.198703 0.153703
0.550573 0.186316 0.133865
0.637099 0.178037 0.114745
0.712792 0.174763 0.100531
0.776759 0.177100 0.087263
0.831201 0.185273 0.080837
0.882972 0.187416 0.073747
0.908192 0.188122 0.069917
0.942859 0.193628 0.068924
0.128349 0.243088 0.182685
0.139298 0.245085 0.182678
0.159739 0.251627 0.188318
0.190267 0.249359 0.187359
0.219097 0.244370 0.180008
0.275982 0.247730 0.178666
0.367053 0.248783 0.162736
0.473736 0.246098 0.145232
0.568828 0.240409 0.124827
0.651715 0.244445 0.106829
0.723694 0.242684 0.092998
0.784800 0.247747 0.087431
0.838718 0.253807 0.077878
0.878946 0.262433 0.072794
0.912663 0.263704 0.072652
0.943823 0.268869 0.071385
0.112766 0.288127 0.174828
0.121999 0.292682 0.178064
0.140573 0.299778 0.184855
0.176135 0.302937 0.175078
0.217499 0.300744 0.170255
0.270912 0.299558 0.167807
0.368549 0.303972 0.154347
0.485619 0.307053 0.132773
0.582126 0.309775 0.117691
0.657970 0.313892 0.101089
0.732221 0.320553 0.091555
0.793262 0.326668 0.084565
0.845305 0.331330 0.078359
0.882836 0.342446 0.078238
0.914620 0.339726 0.076413
0.945866 0.346472 0.075634
0.093002 0.340198 0.168636
0.101786 0.348242 0.172859
0.119892 0.359216 0.180535
0.154833 0.363612 0.163757
0.206499 0.365982 0.154437
0.267953 0.357660 0.155861
0.359780 0.365327 0.141233
0.479274 0.376873 0.125064
0.583835 0.378669 0.109141
0.669544 0.389005 0.098783
0.742289 0.393267 0.093864
0.798797 0.401635 0.084701
0.843780 0.409181 0.084252
0.885167 0.417244 0.082645
0.912797 0.420355 0.082602
0.945884 0.425152 0.080384
0.070894 0.402767 0.166704
0.078844 0.409885 0.172985
0.097569 0.421847 0.179279
0.133000 0.430966 0.142128
0.200319 0.436128 0.135157
0.282585 0.434646 0.133672
0.365780 0.432532 0.131343
0.469627 0.446853 0.114911
0.573539 0.458342 0.105846
0.661269 0.463042 0.095625
0.744298 0.471681 0.094671
0.806613 0.480729 0.093356
0.846420 0.491024 0.091558
0.883880 0.494194 0.088804
0.913191 0.500069 0.090543
0.945197 0.501562 0.088635
0.051319 0.470073 0.172842
0.059061 0.477654 0.175479
0.083251 0.490875 0.187011
0.114979 0.503931 0.147611
0.206311 0.505824 0.124589
0.296466 0.508454 0.123172
0.392461 0.507557 0.122004
0.480810 0.519566 0.113366
0.573012 0.532216 0.106032
0.662335 0.541990 0.109351
0.736586 0.548217 0.103677
0.806214 0.557022 0.099071
0.848700 0.563242 0.096440
0.885858 0.568981 0.099089
0.912122 0.571321 0.097039
0.949752 0.574638 0.096161
0.036938 0.535701 0.175596
0.045774 0.545584 0.188226
0.073716 0.558129 0.199707
0.106842 0.569508 0.137019
0.213901 0.576348 0.121330
0.315193 0.578438 0.118141
0.418576 0.582204 0.120817
0.506168 0.594420 0.117458
0.582012 0.602147 0.113716
0.660562 0.611981 0.113572
0.730851 0.618228 0.106739
0.801588 0.623614 0.106454
0.849622 0.635098 0.104444
0.886407 0.635221 0.102703
0.912996 0.638770 0.104128
0.949119 0.643116 0.103504
0.029129 0.605003 0.200365
0.040685 0.615932 0.206691
0.076051 0.628554 0.206542
0.096974 0.639695 0.131349
0.228155 0.645417 0.127226
0.332912 0.649694 0.129774
0.436349 0.647215 0.134189
0.520485 0.658318 0.136570
0.593650 0.665223 0.124115
0.662299 0.673859 0.118140
0.735332 0.683610 0.113179
0.794955 0.688982 0.114622
0.857025 0.696819 0.116191
0.884325 0.701248 0.113725
0.918739 0.702481 0.114020
0.952852 0.708281 0.113268
0.030833 0.669174 0.211644
0.043423 0.682358 0.219688
0.082255 0.693201 0.219897
0.105608 0.705857 0.131018
0.255217 0.708316 0.134391
0.354796 0.712447 0.136650
0.455015 0.709912 0.139402
0.535612 0.719730 0.138993
0.610430 0.730389 0.136554
0.672267 0.735158 0.132024
0.735398 0.744569 0.123937
0.796645 0.750705 0.119580
0.854227 0.757114 0.123720
0.885290 0.762348 0.122700
0.915743 0.762113 0.121301
0.951330 0.768121 0.120611
0.034598 0.732767 0.220159
0.047695 0.739796 0.240295
0.087560 0.755709 0.230958
0.111833 0.766934 0.134556
0.271315 0.768020 0.147534
0.374120 0.771685 0.149177
0.470527 0.771080 0.147089
0.543208 0.772437 0.147765
0.613218 0.780081 0.146697
0.678706 0.788313 0.143921
0.739226 0.793404 0.141937
0.801395 0.807240 0.134348
0.853741 0.814757 0.132539
0.883977 0.818185 0.130327
0.918392 0.818609 0.130865
0.952261 0.821377 0.130292
0.036358 0.790389 0.238252
0.054403 0.805208 0.262335
0.095642 0.811108 0.236800
0.145509 0.825076 0.140299
0.298310 0.826876 0.160660
0.395267 0.829426 0.159706
0.488082 0.828247 0.158781
0.556371 0.828804 0.159588
0.623730 0.833029 0.159373
0.689619 0.841067 0.158401
0.742843 0.843196 0.157993
0.804563 0.856028 0.149947
0.853798 0.866810 0.147590
0.884227 0.871962 0.140413
0.918404 0.873165 0.140757
0.954648 0.873847 0.140915
0.037676 0.843599 0.261004
0.062613 0.856943 0.277578
0.098382 0.866481 0.237515
0.165291 0.877771 0.156133
0.318729 0.881718 0.170546
0.412000 0.882009 0.169998
0.499989 0.881764 0.169872
0.570392 0.883358 0.170824
0.628306 0.882015 0.171754
0.695543 0.887300 0.172953
0.745291 0.892324 0.169452
0.796945 0.893177 0.165698
0.843576 0.907733 0.167113
0.884391 0.912823 0.159701
0.916212 0.917656 0.161919
0.953523 0.921339 0.160958
-0.042917 0.954850 0.291223
0.051468 0.970362 0.302073
0.108877 0.975331 0.251504
0.199375 0.987921 0.171627
0.352104 0.990745 0.182032
0.451183 0.992867 0.184226
0.534606 0.989821 0.182769
0.604200 0.991752 0.184537
0.659490 0.991260 0.189717
0.716312 0.989120 0.190116
0.763162 0.997902 0.188322
0.813194 0.999531 0.189656
0.844484 1.000961 0.187066
0.874551 1.002003 0.181123
0.899706 1.001068 0.183043
0.936057 1.004269 0.183025
0.140169 -0.382796 0.181553
0.150119 -0.386453 0.184040
0.165893 -0.389827 0.196173
0.186695 -0.392907 0.212060
0.196271 -0.394780 0.218392
0.211753 -0.395153 0.212859
0.262255 -0.395910 0.209550
0.349035 -0.398261 0.196565
0.458255 -0.401933 0.177948
0.557157 -0.405434 0.153491
0.655596 -0.409285 0.142752
0.725557 -0.411712 0.129835
0.794301 -0.413301 0.124482
0.858503 -0.414199 0.122636
0.906245 -0.414815 0.117313
0.942914 -0.415487 0.121840
0.136784 0.149600 0.204226
0.148095 0.149808 0.205383
0.164887 0.151916 0.209389
0.193960 0.153132 0.215253
0.227081 0.154024 0.221526
0.257857 0.154691 0.215630
0.317170 0.150472 0.210212
0.399522 0.139485 0.194658
0.500878 0.119586 0.175469
0.596831 0.100099 0.153879
0.686946 0.082433 0.147110
0.750632 0.075807 0.134268
0.812430 0.068335 0.128380
0.873539 0.062143 0.123178
0.913642 0.054667 0.118617
0.944154 0.051900 0.118703
0.139149 0.173046 0.212191
0.150261 0.173430 0.212216
0.166448 0.174737 0.214677
0.193573 0.175421 0.218624
0.225963 0.177621 0.223936
0.261385 0.178946 0.214020
0.330987 0.174198 0.208598
0.423328 0.159043 0.192646
0.523750 0.141250 0.172091
0.620670 0.123324 0.150848
0.703147 0.107563 0.139916
0.769302 0.093744 0.118088
0.825728 0.080952 0.102822
0.885345 0.071943 0.088103
0.918199 0.071883 0.083657
0.950483 0.079189 0.078901
0.136324 0.204699 0.217493
0.147980 0.204709 0.215738
0.163611 0.206665 0.218546
0.191060 0.207702 0.220661
0.223873 0.210177 0.220293
0.268551 0.211695 0.212303
0.340226 0.205972 0.208085
0.438864 0.195493 0.189712
0.545508 0.179261 0.170760
0.635396 0.168628 0.146799
0.713555 0.161190 0.131948
0.781308 0.161777 0.117086
0.833871 0.170663 0.107831
0.888524 0.170386 0.098379
0.919088 0.175476 0.096408
0.952227 0.178594 0.092720
0.127318 0.240847 0.218480
0.137296 0.245582 0.217466
0.154751 0.249948 0.224973
0.186129 0.253165 0.227902
0.220075 0.251958 0.224110
0.276143 0.252460 0.221923
0.350087 0.249197 0.210036
0.453877 0.244658 0.190360
0.564183 0.239098 0.168304
0.646663 0.238523 0.145884
0.723351 0.237025 0.131920
0.786272 0.241257 0.119703
0.840576 0.247340 0.112984
0.890874 0.252588 0.106295
0.922244 0.257094 0.106457
0.957842 0.258882 0.105632
0.111362 0.288768 0.215240
0.120568 0.293706 0.218118
0.137304 0.301247 0.228151
0.169469 0.307753 0.230951
0.211620 0.310679 0.223965
0.270794 0.306657 0.218744
0.366786 0.309239 0.205775
0.476277 0.311038 0.182465
0.577978 0.311805 0.161335
0.657837 0.313052 0.144203
0.730927 0.317744 0.135234
0.794892 0.324387 0.125689
0.843569 0.330614 0.119653
0.895865 0.335850 0.117996
0.924104 0.342246 0.115482
0.956836 0.345283 0.112203
0.091093 0.343907 0.214446
0.099434 0.350881 0.217011
0.113749 0.358733 0.224079
0.151910 0.366366 0.228482
0.195864 0.372826 0.213860
0.263786 0.370402 0.206834
0.360091 0.371320 0.196771
0.478154 0.378161 0.174664
0.584816 0.382704 0.159584
0.669205 0.388028 0.146501
0.742224 0.395201 0.139142
0.803064 0.401114 0.129779
0.853471 0.412371 0.129132
0.898657 0.416438 0.124479
0.925737 0.423846 0.123526
0.959614 0.425146 0.125041
0.069141 0.404206 0.210270
0.077185 0.412627 0.217274
0.093477 0.420388 0.223782
0.133065 0.432253 0.226910
0.178015 0.443691 0.198054
0.267723 0.442266 0.189619
