example_ofxGpuLutCube/bin/data/ofxGpuLutCube/LUT/U1 (blue brown fade).cube
LUT_3D_SIZE 6
0.125418 0.126512 0.128588
0.187203 0.136728 0.139020
0.309801 0.139243 0.139029
0.560436 0.098466 0.096435
0.787968 0.068416 0.054341
0.921676 0.059343 0.038356
0.137741 0.206042 0.142314
0.194047 0.201036 0.139903
0.373988 0.203999 0.122548
0.661649 0.187943 0.070902
0.815891 0.187008 0.049999
0.927802 0.189798 0.037929
0.095015 0.340073 0.112887
0.178450 0.348189 0.099520
0.370094 0.358858 0.080254
0.669534 0.377467 0.050144
0.836617 0.396794 0.031493
0.930502 0.404438 0.038115
0.040461 0.536999 0.100771
0.187139 0.550703 0.048343
0.432575 0.568575 0.047635
0.661621 0.603097 0.046728
0.838598 0.624225 0.052120
0.933215 0.634724 0.049093
0.039105 0.736991 0.139344
0.235756 0.751312 0.063045
0.489075 0.754887 0.066270
0.680897 0.776717 0.066226
0.844869 0.813572 0.057767
0.943473 0.818639 0.061589
-0.011207 0.963631 0.174937
0.326510 0.979455 0.086776
0.568247 0.977399 0.084682
0.723553 0.984722 0.093826
0.838789 0.993287 0.095485
0.926017 0.994117 0.094073
0.140169 -0.382796 0.181553
0.186695 -0.392907 0.212060
0.262255 -0.395910 0.209550
0.557157 -0.405434 0.153491
0.794301 -0.413301 0.124482
0.942914 -0.415487 0.121840
0.136324 0.204699 0.217493
0.191060 0.207702 0.220661
0.340226 0.205972 0.208085
0.635396 0.168628 0.146799
0.833871 0.170663 0.107831
0.952227 0.178594 0.092720
0.091093 0.343907 0.214446
0.151910 0.366366 0.228482
0.360091 0.371320 0.196771
0.669205 0.388028 0.146501
0.853471 0.412371 0.129132
0.959614 0.425146 0.125041
0.034733 0.541023 0.222244
0.115012 0.573010 0.243664
0.405923 0.589242 0.181551
0.654472 0.615394 0.159669
0.855210 0.638314 0.158324
0.958315 0.645366 0.153897
0.034375 0.735020 0.272167
0.122240 0.768135 0.269530
0.456894 0.780531 0.208231
0.679044 0.792800 0.203224
0.855817 0.814676 0.187336
0.957449 0.823002 0.185857
-0.045519 0.956364 0.342434
0.163563 0.985765 0.292266
0.510043 1.000029 0.247032
0.706471 0.995599 0.254050
0.845782 1.004301 0.244628
0.943675 1.006168 0.243578
0.145504 -0.383917 0.298050
0.192906 -0.391594 0.320157
0.294565 -0.405344 0.370554
0.557189 -0.412995 0.292107
0.790602 -0.417547 0.251776
0.948504 -0.420428 0.230055
0.131981 0.201767 0.355590
0.182588 0.203337 0.369112
0.337207 0.208258 0.397753
0.622517 0.148750 0.334403
0.823887 0.107372 0.297925
0.969435 0.093390 0.280147
0.084818 0.346442 0.378943
0.132054 0.360602 0.396452
0.344204 0.386608 0.414213
0.653680 0.386936 0.370515
0.868125 0.396686 0.341314
0.982368 0.428692 0.354836
0.032261 0.551864 0.400311
0.079187 0.574997 0.421288
0.356661 0.610010 0.418158
0.655410 0.622541 0.395637
0.872367 0.641796 0.383946
0.979549 0.652670 0.396235
0.033820 0.744389 0.443841
0.083246 0.768046 0.468585
0.371019 0.798677 0.426490
0.662700 0.802196 0.430285
0.846972 0.818348 0.412809
0.980428 0.828403 0.408830
-0.049825 0.962885 0.504043
0.093899 0.985184 0.514829
0.402921 1.013622 0.437541
0.688627 1.014292 0.457123
0.844928 1.018218 0.455580
0.958905 1.018853 0.453103
0.141520 -0.387354 0.493167
0.185922 -0.394983 0.501595
0.252940 -0.407455 0.528527
0.535289 -0.418356 0.525408
0.768657 -0.422236 0.488919
0.952686 -0.425166 0.481115
0.120471 0.193374 0.553207
0.167445 0.191007 0.567609
0.262874 0.187063 0.591939
0.601309 0.158825 0.582765
0.819706 0.112312 0.551738
0.984143 0.088451 0.540547
0.077638 0.342543 0.569265
0.115655 0.356322 0.590193
0.246146 0.381120 0.627448
0.629701 0.384187 0.615395
0.861536 0.348233 0.602270
0.988259 0.380514 0.591604
0.030473 0.552423 0.588098
0.070833 0.571535 0.604273
0.260121 0.610408 0.630177
0.641927 0.629636 0.636259
0.851850 0.642105 0.623185
0.986663 0.658189 0.624027
0.034173 0.751564 0.628108
0.078340 0.770007 0.644461
0.290431 0.800174 0.650354
0.646232 0.810756 0.645757
0.845398 0.823423 0.645657
0.985765 0.830355 0.653257
-0.043275 0.975107 0.661243
0.060577 0.986788 0.677747
0.354825 1.013085 0.657306
0.659630 1.022661 0.652946
0.841890 1.023945 0.660372
0.971606 1.026896 0.649782
0.121209 -0.394600 0.707322
0.168109 -0.401132 0.706231
0.232627 -0.411947 0.720750
0.408695 -0.419168 0.721606
0.733409 -0.425261 0.692993
0.933635 -0.427962 0.701506
0.102257 0.179005 0.748134
0.143694 0.174503 0.764092
0.233398 0.171156 0.781168
0.506530 0.162533 0.778268
0.791774 0.129528 0.758426
0.972068 0.101891 0.756195
0.065677 0.342167 0.753043
0.102478 0.353674 0.771008
0.189271 0.370313 0.806182
0.547093 0.383271 0.817250
0.833835 0.377085 0.804788
0.991101 0.386271 0.789624
0.028369 0.557124 0.758820
0.069535 0.571878 0.770461
0.176816 0.605200 0.805959
0.574337 0.631096 0.823447
0.832929 0.631533 0.816696
0.992819 0.643515 0.805485
0.034633 0.750833 0.782312
0.066940 0.765514 0.793847
0.216416 0.795480 0.818785
0.602695 0.813421 0.820809
0.833560 0.825330 0.827304
0.989152 0.837221 0.826091
-0.027478 0.973835 0.811400
0.062411 0.989034 0.824487
0.269477 1.016633 0.830956
0.630371 1.026994 0.821839
0.838755 1.035503 0.837210
0.987390 1.037153 0.833793
0.096365 -0.396851 0.889372
0.158296 -0.400722 0.850426
0.222828 -0.413780 0.884766
0.303180 -0.421397 0.881367
0.667421 -0.427554 0.872794
0.901074 -0.430030 0.855134
0.082598 0.169582 0.916635
0.119617 0.156562 0.933001
0.205783 0.151852 0.946876
0.362422 0.138388 0.945884
0.757674 0.129650 0.930806
0.952863 0.124658 0.914982
0.054412 0.341501 0.917548
0.089329 0.350487 0.930725
0.159679 0.360598 0.963065
0.433969 0.382163 0.962282
0.793607 0.398663 0.967122
0.980867 0.402893 0.949967
0.028982 0.568496 0.918737
0.067158 0.579281 0.926570
0.141135 0.599982 0.954874
0.490834 0.627799 0.968388
0.811126 0.639025 0.973154
0.986595 0.643604 0.962149
0.036128 0.759383 0.932185
0.071801 0.768427 0.938324
0.148780 0.794190 0.959311
0.544653 0.815748 0.976414
0.811198 0.826735 0.981236
0.992784 0.825324 0.979551
0.042040 0.922369 0.937765
0.078247 0.931856 0.944438
0.205521 0.959533 0.971936
0.572591 0.972881 0.973911
0.822049 0.984553 0.980530
0.990338 0.987057 0.980660
