example_ofxGpuLutCube/bin/data/ofxGpuLutCube/LUT/U10 (desaturated foggy).cube
LUT_3D_SIZE 6
0.135510 0.135494 0.135506
0.240546 0.147443 0.149476
0.352710 0.161877 0.165241
0.476640 0.178148 0.182672
0.607221 0.196141 0.201874
0.748408 0.216189 0.223143
0.166480 0.242936 0.164750
0.274205 0.260408 0.182138
0.395457 0.280686 0.201185
0.525373 0.303540 0.222424
0.664523 0.328681 0.245876
0.806085 0.355433 0.270951
0.203380 0.375600 0.200520
0.318988 0.400541 0.221674
0.447752 0.427642 0.245043
0.582058 0.456298 0.270212
0.727006 0.485752 0.296676
0.862797 0.515591 0.324116
0.248265 0.531114 0.244205
0.372014 0.561381 0.269332
0.505256 0.593506 0.295855
0.644677 0.626774 0.323271
0.788475 0.660139 0.351070
0.913699 0.692711 0.378658
0.300055 0.710306 0.294926
0.429673 0.743386 0.322354
0.563798 0.775712 0.350159
0.707290 0.806113 0.377753
0.843447 0.834479 0.404584
0.954348 0.859919 0.429870
0.355061 0.880544 0.349163
0.486982 0.906996 0.376865
0.622188 0.930389 0.403578
0.762925 0.950988 0.429038
0.887963 0.968278 0.452316
0.983351 0.982250 0.472827
0.140860 0.139480 0.228731
0.245818 0.152513 0.241810
0.359744 0.167639 0.258199
0.485122 0.184537 0.277650
0.617181 0.203223 0.299890
0.758972 0.224047 0.324462
0.172825 0.248944 0.257613
0.281776 0.267489 0.276992
0.404636 0.288797 0.299122
0.535372 0.312518 0.323640
0.675951 0.338307 0.350208
0.816944 0.365684 0.378263
0.211110 0.384539 0.298348
0.328312 0.410268 0.322784
0.458219 0.437970 0.349272
0.593380 0.467019 0.377385
0.738821 0.496730 0.406444
0.872840 0.526588 0.435757
0.257463 0.541944 0.348358
0.382559 0.572966 0.376369
0.516115 0.605593 0.405442
0.656634 0.639068 0.434918
0.799338 0.672215 0.464086
0.922027 0.704211 0.492341
0.310135 0.722384 0.404425
0.440509 0.755478 0.433926
0.574840 0.787109 0.463135
0.718288 0.816934 0.491442
0.852566 0.844171 0.518236
0.960676 0.868504 0.543033
0.365338 0.890511 0.462080
0.497171 0.915755 0.490492
0.632616 0.938384 0.517270
0.772237 0.957662 0.542161
0.894891 0.973802 0.565193
0.987421 0.986696 0.585654
0.146358 0.143942 0.326221
0.251596 0.157859 0.342019
0.367261 0.173647 0.361234
0.493863 0.191195 0.383585
0.627552 0.210607 0.408479
0.769726 0.232272 0.435491
0.179437 0.255419 0.360594
0.289720 0.274978 0.382756
0.414039 0.297209 0.407599
0.545528 0.321746 0.434627
0.687638 0.348212 0.463172
0.827716 0.376047 0.492575
0.219121 0.393702 0.406733
0.337982 0.420284 0.433684
0.468852 0.448502 0.462155
0.604951 0.477857 0.491605
0.750392 0.507642 0.521374
0.882811 0.537746 0.551208
0.266967 0.553157 0.461248
0.393185 0.584775 0.490642
0.526999 0.617800 0.520337
0.668464 0.651298 0.550276
0.810041 0.684263 0.580552
0.930074 0.715482 0.610308
0.320389 0.734609 0.519391
0.451306 0.767249 0.549242
0.585885 0.798266 0.579529
0.729210 0.827313 0.609457
0.861355 0.853470 0.637996
0.966586 0.876613 0.664427
0.375610 0.900115 0.578425
0.507170 0.924328 0.608333
0.642879 0.945768 0.637046
0.781067 0.963912 0.663615
0.901488 0.978935 0.687192
0.991037 0.990617 0.707074
0.152125 0.148827 0.432957
0.257821 0.163434 0.450975
0.375212 0.179869 0.472264
0.502947 0.198056 0.496244
0.638200 0.218334 0.522322
0.780480 0.240714 0.550479
0.186248 0.262271 0.471480
0.298029 0.282866 0.495390
0.423767 0.305956 0.521475
0.556064 0.331232 0.549427
0.699358 0.358300 0.579766
0.838275 0.386552 0.611599
0.227489 0.403227 0.520588
0.347831 0.430437 0.548511
0.479569 0.459170 0.578704
0.616694 0.488748 0.610588
0.761941 0.518638 0.643279
0.892213 0.548832 0.675747
0.276562 0.564467 0.577688
0.404005 0.596787 0.609504
0.537922 0.630120 0.642179
0.680140 0.663473 0.674773
0.820290 0.695988 0.706414
0.937747 0.726508 0.736070
0.330717 0.746708 0.641103
0.462086 0.778863 0.673745
0.596832 0.809122 0.705342
0.739674 0.837190 0.735156
0.869784 0.862287 0.762362
0.971985 0.884066 0.786427
0.385728 0.909280 0.704270
0.517040 0.932623 0.733997
0.652777 0.952923 0.761374
0.789413 0.969857 0.785732
0.907393 0.983492 0.806569
0.994484 0.993899 0.823485
0.158006 0.153941 0.543535
0.264459 0.169259 0.563422
0.383562 0.186326 0.587099
0.512274 0.205232 0.613921
0.649217 0.226283 0.643440
0.791301 0.249436 0.674722
0.193342 0.269489 0.586219
0.306701 0.291063 0.613001
0.433815 0.315022 0.642378
0.566889 0.340995 0.673771
0.711010 0.368553 0.706083
0.848845 0.397104 0.738583
0.236110 0.413008 0.641400
0.358014 0.440873 0.672691
0.490372 0.469918 0.704968
0.628467 0.499690 0.737469
0.773329 0.529746 0.769215
0.901521 0.560146 0.799703
0.286450 0.576217 0.704000
0.414753 0.608868 0.736338
0.548794 0.642346 0.768263
0.691760 0.675585 0.798728
0.830257 0.707505 0.827222
0.945025 0.736974 0.853176
0.340996 0.758618 0.767183
0.472692 0.790270 0.797770
0.607697 0.819705 0.826391
0.749793 0.846686 0.852417
0.877880 0.870652 0.875510
0.977066 0.891258 0.895435
0.395777 0.918257 0.825345
0.526547 0.940339 0.851581
0.662403 0.959463 0.874767
0.797403 0.975210 0.894718
0.912939 0.987683 0.911288
0.997369 0.997179 0.924219
0.164149 0.159373 0.662890
0.271499 0.175292 0.685523
0.392191 0.193015 0.711265
0.521875 0.212701 0.739254
0.660380 0.234564 0.768555
0.802090 0.258346 0.798616
0.200623 0.277059 0.710399
0.315626 0.299531 0.738242
0.444013 0.324322 0.767618
0.577860 0.350896 0.797512
0.722758 0.378979 0.827491
0.859124 0.407794 0.856587
0.244972 0.422971 0.766678
0.368254 0.451394 0.796585
0.501262 0.480794 0.826545
0.640299 0.510587 0.855576
0.784401 0.540770 0.883319
0.910351 0.571380 0.908637
0.296360 0.588057 0.825626
0.425709 0.621180 0.854682
0.559756 0.654557 0.882346
0.703138 0.687367 0.907848
0.840030 0.718536 0.931029
0.951996 0.747374 0.951111
0.351432 0.770541 0.881662
0.483153 0.801261 0.907162
0.618431 0.829992 0.930173
0.759641 0.855857 0.950503
0.885314 0.878691 0.967505
0.981807 0.897962 0.981343
0.405559 0.926709 0.929382
0.535747 0.947796 0.949741
0.671585 0.965712 0.966928
0.804779 0.980181 0.980989
0.917938 0.991445 0.991975
0.999849 0.999831 0.999846
