example_ofxGpuLutCube/bin/data/ofxGpuLutCube/LUT/U10 (desaturated foggy).cube
LUT_3D_SIZE 16
0.135510 0.135494 0.135506
0.173363 0.139075 0.139897
0.206493 0.143115 0.144582
0.240546 0.147443 0.149476
0.276297 0.152055 0.154534
0.313711 0.156830 0.159787
0.352710 0.161877 0.165241
0.393034 0.167133 0.170913
0.434539 0.172537 0.176714
0.476640 0.178148 0.182672
0.519041 0.183933 0.188878
0.561977 0.189955 0.195299
0.607221 0.196141 0.201874
0.654137 0.202574 0.208688
0.701620 0.209246 0.215768
0.748408 0.216189 0.223143
0.145215 0.171129 0.144436
0.181570 0.175013 0.149268
0.215188 0.179220 0.154351
0.250340 0.183758 0.159682
0.287197 0.188513 0.165109
0.325653 0.193533 0.170707
0.365710 0.198857 0.176532
0.406944 0.204432 0.182486
0.449198 0.210365 0.188681
0.491971 0.216485 0.195029
0.534801 0.222983 0.201644
0.578981 0.229767 0.208507
0.625347 0.236784 0.215564
0.672981 0.244054 0.222905
0.720649 0.251566 0.230476
0.767466 0.259359 0.238319
0.155521 0.205608 0.154204
0.190925 0.210186 0.159437
0.225371 0.215028 0.164885
0.261613 0.220293 0.170525
0.299534 0.225852 0.176341
0.338979 0.231720 0.182306
0.379907 0.237875 0.188429
0.422096 0.244428 0.194836
0.465081 0.251212 0.201451
0.508312 0.258261 0.208246
0.551729 0.265610 0.215326
0.597119 0.273178 0.222635
0.644554 0.281094 0.230277
0.692701 0.289144 0.238058
0.740448 0.297415 0.246061
0.786744 0.305945 0.254296
0.166480 0.242936 0.164750
0.201501 0.248386 0.170343
0.236922 0.254198 0.176111
0.274205 0.260408 0.182138
0.313113 0.266838 0.188249
0.353594 0.273630 0.194609
0.395457 0.280686 0.201185
0.438390 0.288027 0.208032
0.481846 0.295672 0.215132
0.525373 0.303540 0.222424
0.569785 0.311662 0.229978
0.616385 0.320003 0.237781
0.664523 0.328681 0.245876
0.712834 0.337419 0.254039
0.760399 0.346388 0.262440
0.806085 0.355433 0.270951
0.178043 0.283873 0.175971
0.213224 0.290259 0.181899
0.249708 0.296936 0.188044
0.287951 0.303935 0.194372
0.327923 0.311311 0.200992
0.369371 0.318924 0.207790
0.411998 0.326810 0.214832
0.455568 0.334979 0.222195
0.499456 0.343405 0.229761
0.543375 0.351985 0.237556
0.588913 0.360829 0.245549
0.636539 0.369888 0.253757
0.685158 0.379136 0.262222
0.733394 0.388451 0.270771
0.780436 0.397939 0.279479
0.825326 0.407507 0.288225
0.190323 0.328190 0.187858
0.226122 0.335434 0.194182
0.263695 0.343007 0.200726
0.302986 0.350809 0.207529
0.343886 0.358965 0.214663
0.386166 0.367359 0.221952
0.429495 0.375956 0.229504
0.473504 0.384786 0.237262
0.517678 0.393866 0.245289
0.562265 0.403144 0.253530
0.608926 0.412545 0.261919
0.657317 0.422093 0.270465
0.706119 0.431780 0.279200
0.754079 0.441549 0.288083
0.800305 0.451358 0.297029
0.844306 0.461179 0.306032
0.203380 0.375600 0.200520
0.240173 0.383679 0.207365
0.278734 0.391991 0.214378
0.318988 0.400541 0.221674
0.360791 0.409447 0.229260
0.403769 0.418399 0.237029
0.447752 0.427642 0.245043
0.492081 0.437017 0.253222
0.536390 0.446589 0.261627
0.582058 0.456298 0.270212
0.629722 0.466052 0.278899
0.678496 0.475867 0.287749
0.727006 0.485752 0.296676
0.774487 0.495736 0.305827
0.819996 0.505664 0.314978
0.862797 0.515591 0.324116
0.217380 0.425724 0.214107
0.255239 0.434494 0.221475
0.294800 0.443396 0.228983
0.335935 0.452553 0.236739
0.378449 0.461825 0.244735
0.422181 0.471351 0.252964
0.466622 0.480973 0.261346
0.511077 0.490647 0.269873
0.555791 0.500501 0.278614
0.602482 0.510385 0.287466
0.650939 0.520402 0.296441
0.699804 0.530457 0.305497
0.747934 0.540711 0.314638
0.794631 0.551212 0.323894
0.839023 0.561673 0.333134
0.880613 0.572172 0.342355
0.232365 0.477734 0.228729
0.271218 0.486996 0.236523
0.311658 0.496349 0.244488
0.353649 0.505827 0.252666
0.396902 0.515490 0.261029
0.441164 0.525350 0.269629
0.485820 0.535425 0.278339
0.530359 0.545653 0.287152
0.575867 0.556156 0.296146
0.623459 0.566713 0.305223
0.672292 0.577517 0.314366
0.720974 0.588340 0.323554
0.768507 0.599241 0.332815
0.814264 0.610257 0.342185
0.857485 0.621156 0.351428
0.897650 0.631962 0.360593
0.248265 0.531114 0.244205
0.288036 0.540944 0.252444
0.329358 0.551046 0.260788
0.372014 0.561381 0.269332
0.415877 0.571865 0.278012
0.460531 0.582640 0.286908
0.505256 0.593506 0.295855
0.549884 0.604484 0.304905
0.596418 0.615580 0.314034
0.644677 0.626774 0.323271
0.693560 0.637952 0.332539
0.741726 0.649066 0.341810
0.788475 0.660139 0.351070
0.833033 0.671188 0.360347
0.875126 0.682081 0.369573
0.913699 0.692711 0.378658
0.264933 0.588214 0.260515
0.305455 0.598873 0.268988
0.347649 0.609823 0.277761
0.390949 0.620916 0.286579
0.435301 0.632001 0.295523
0.480090 0.643302 0.304601
0.524740 0.654465 0.313713
0.569955 0.665800 0.322981
0.617317 0.677025 0.332194
0.665968 0.688262 0.341485
0.714594 0.699402 0.350820
0.762075 0.710240 0.360032
0.807744 0.721011 0.369224
0.851077 0.731562 0.378393
0.891640 0.741954 0.387459
0.928456 0.751801 0.396314
0.282195 0.648693 0.277454
0.323543 0.659827 0.286251
0.366401 0.671198 0.295283
0.410260 0.682463 0.304292
0.454838 0.693712 0.313422
0.499559 0.704791 0.322615
0.544188 0.716052 0.331919
0.590305 0.727038 0.341230
0.638176 0.737930 0.350460
0.686890 0.748677 0.359756
0.734925 0.759160 0.368934
0.781581 0.769513 0.378102
0.826029 0.779548 0.387118
0.868123 0.789294 0.396044
0.907037 0.798763 0.404917
0.941983 0.807925 0.413473
0.300055 0.710306 0.294926
0.342061 0.721362 0.303969
0.385426 0.732514 0.313154
0.429673 0.743386 0.322354
0.474375 0.754332 0.331616
0.518959 0.765058 0.340868
0.563798 0.775712 0.350159
0.610711 0.786141 0.359474
0.658905 0.796309 0.368640
0.707290 0.806113 0.377753
0.754570 0.815920 0.386817
0.800141 0.825396 0.395827
0.843447 0.834479 0.404584
0.883901 0.843224 0.413225
0.921138 0.851758 0.421632
0.954348 0.859919 0.429870
0.318227 0.770445 0.312844
0.360823 0.781034 0.322017
0.404527 0.791545 0.331268
0.449061 0.802065 0.340568
0.493669 0.812262 0.349871
0.538056 0.822249 0.359112
0.583559 0.832194 0.368386
0.630941 0.841604 0.377457
0.679112 0.850884 0.386538
0.726968 0.859879 0.395453
0.773281 0.868513 0.404261
0.817667 0.877041 0.412992
0.859598 0.885055 0.421427
0.898484 0.892567 0.429641
0.934073 0.899894 0.437605
0.965338 0.906973 0.445382
0.336673 0.827681 0.330998
0.379704 0.837629 0.340221
0.423675 0.847379 0.349509
0.468260 0.856988 0.358849
0.512629 0.866353 0.368055
0.556938 0.875222 0.377162
0.603089 0.884138 0.386204
0.650721 0.892555 0.395175
0.698605 0.900782 0.404043
0.745525 0.908545 0.412618
0.790898 0.916039 0.421116
0.834026 0.923107 0.429366
0.874474 0.929902 0.437392
0.911816 0.936362 0.445115
0.945630 0.942349 0.452552
0.974917 0.947889 0.459789
0.355061 0.880544 0.349163
0.398412 0.889583 0.358396
0.442565 0.898307 0.367578
0.486982 0.906996 0.376865
0.530906 0.915041 0.385861
0.575604 0.922896 0.394786
0.622188 0.930389 0.403578
0.669733 0.937695 0.412306
0.717089 0.944580 0.420783
0.762925 0.950988 0.429038
0.807098 0.957204 0.437036
0.848931 0.962825 0.444774
0.887963 0.968278 0.452316
0.923787 0.973272 0.459454
0.955682 0.977839 0.466283
0.983351 0.982250 0.472827
0.137288 0.136752 0.169150
0.174829 0.140506 0.172847
0.208054 0.144719 0.176836
0.242224 0.149127 0.181138
0.278208 0.153783 0.185700
0.315817 0.158658 0.190565
0.354997 0.163785 0.195779
0.395553 0.169123 0.201292
0.437155 0.174601 0.207018
0.479454 0.180282 0.213128
0.521906 0.186118 0.219496
0.565010 0.192228 0.226178
0.610549 0.198483 0.233138
0.657550 0.204988 0.240373
0.705311 0.211816 0.247955
0.751922 0.218789 0.255640
0.147067 0.172537 0.176658
0.183225 0.176540 0.180974
0.217055 0.180882 0.185572
0.252336 0.185413 0.190411
0.289380 0.190284 0.195614
0.328035 0.195451 0.201096
0.368255 0.200871 0.206849
0.409677 0.206581 0.212946
0.452099 0.212580 0.219298
0.494927 0.218826 0.225926
0.537847 0.225405 0.232876
0.582286 0.232281 0.240164
0.628844 0.239407 0.247625
0.676581 0.246781 0.255390
0.724356 0.254370 0.263297
0.771007 0.262223 0.271506
0.157502 0.207222 0.185413
0.192824 0.211905 0.190270
0.227446 0.216908 0.195439
0.263853 0.222278 0.200935
0.301965 0.227980 0.206671
0.341639 0.233940 0.212704
0.382756 0.240264 0.219101
0.425058 0.246854 0.225726
0.468116 0.253754 0.232710
0.511393 0.260933 0.239903
0.554983 0.268359 0.247377
0.600714 0.276069 0.255141
0.648231 0.283998 0.263074
0.696425 0.292162 0.271278
0.744095 0.300501 0.279640
0.790279 0.309079 0.288251
0.168564 0.244864 0.195299
0.203577 0.250493 0.200700
0.239183 0.256400 0.206440
0.276686 0.262708 0.212529
0.315797 0.269296 0.218853
0.356424 0.276162 0.225517
0.398417 0.283307 0.232427
0.441466 0.290814 0.239652
0.485105 0.298529 0.247157
0.528725 0.306491 0.254869
0.573266 0.314721 0.262813
0.620090 0.323156 0.270965
0.668347 0.331868 0.279414
0.716651 0.340684 0.287992
0.764135 0.349711 0.296702
0.809704 0.358887 0.305682
0.180313 0.286176 0.206313
0.215533 0.292665 0.212338
0.252242 0.299458 0.218626
0.290718 0.306651 0.225284
0.330812 0.314048 0.232218
0.372440 0.321786 0.239426
0.415177 0.329756 0.246883
0.458856 0.338023 0.254610
0.502793 0.346556 0.262583
0.546804 0.355235 0.270719
0.592592 0.364102 0.279099
0.640335 0.373199 0.287687
0.689055 0.382530 0.296476
0.737272 0.391873 0.305382
0.784096 0.401419 0.314397
0.828950 0.411013 0.323519
0.192728 0.330825 0.218456
0.228669 0.338156 0.225066
0.266392 0.345830 0.231969
0.305830 0.353766 0.239156
0.346972 0.362022 0.246645
0.389336 0.370513 0.254357
0.432843 0.379185 0.262269
0.476980 0.388092 0.270461
0.521132 0.397238 0.278824
0.565847 0.406571 0.287427
0.612791 0.416018 0.296114
0.661237 0.425631 0.305074
0.710043 0.435377 0.314162
0.757911 0.445149 0.323324
0.804085 0.455019 0.332535
0.847864 0.464802 0.341864
0.205970 0.378574 0.231801
0.242880 0.386744 0.238939
0.281648 0.395143 0.246376
0.322062 0.403741 0.254047
0.364025 0.412694 0.262050
0.407177 0.421794 0.270215
0.451269 0.431086 0.278576
0.495601 0.440486 0.287111
0.539972 0.450103 0.295866
0.585774 0.459809 0.304817
0.633619 0.469607 0.313814
0.682509 0.479509 0.323011
0.731030 0.489365 0.332239
0.778218 0.499345 0.341672
0.823502 0.509281 0.351052
0.866269 0.519194 0.360500
0.220100 0.428852 0.246097
0.258140 0.437735 0.253853
0.297875 0.446732 0.261787
0.339160 0.455921 0.269908
0.381900 0.465353 0.278305
0.425714 0.474834 0.286829
0.470158 0.484517 0.295586
0.514658 0.494246 0.304437
0.559457 0.504065 0.313498
0.606412 0.514072 0.322702
0.654828 0.524070 0.331997
0.703791 0.534199 0.341319
0.751817 0.544518 0.350767
0.798198 0.555049 0.360315
0.842528 0.565524 0.369760
0.883822 0.576053 0.379186
0.235300 0.481121 0.261466
0.274295 0.490432 0.269683
0.314912 0.499826 0.278008
0.357022 0.509306 0.286551
0.400443 0.519089 0.295294
0.444747 0.529055 0.304191
0.489442 0.539165 0.313227
0.533922 0.549458 0.322370
0.579654 0.560038 0.331649
0.627463 0.570713 0.341063
0.676260 0.581483 0.350465
0.724809 0.592343 0.359913
0.772278 0.603247 0.369397
0.817788 0.614280 0.378966
0.860838 0.625130 0.388430
0.900615 0.635928 0.397765
0.251300 0.534703 0.277677
0.291249 0.544670 0.286298
0.332682 0.554887 0.294998
0.375572 0.565235 0.303856
0.419456 0.575781 0.312883
0.464164 0.586638 0.322070
0.508918 0.597530 0.331372
0.553561 0.608523 0.340697
0.600340 0.619692 0.350144
0.648677 0.630808 0.359608
0.697603 0.642008 0.369131
0.745684 0.653115 0.378639
0.792121 0.664193 0.388086
0.836503 0.675241 0.397572
0.878263 0.686021 0.406938
0.916418 0.696551 0.416149
0.268104 0.592109 0.294657
0.308869 0.602967 0.303612
0.351037 0.613903 0.312605
0.394525 0.624954 0.321789
0.438878 0.636110 0.331040
0.483705 0.647384 0.340436
0.528384 0.658705 0.349857
0.573743 0.669926 0.359314
0.621200 0.681170 0.368744
0.669872 0.692269 0.378319
0.718359 0.703274 0.387804
0.765787 0.714184 0.397213
0.811278 0.724794 0.406605
0.854280 0.735325 0.415827
0.894548 0.745682 0.425037
0.930980 0.755492 0.433991
0.285489 0.652758 0.312326
0.326957 0.663948 0.321415
0.369937 0.675333 0.330759
0.413844 0.686542 0.340086
0.458449 0.697741 0.349532
0.503244 0.709060 0.359048
0.547761 0.720119 0.368461
0.594109 0.731132 0.378038
0.642106 0.741934 0.387432
0.690661 0.752479 0.396906
0.738663 0.762936 0.406321
0.785069 0.773161 0.415566
0.829363 0.783106 0.424692
0.871054 0.792871 0.433704
0.909791 0.802188 0.442600
0.944585 0.811336 0.451193
0.303389 0.714334 0.330428
0.345519 0.725360 0.339745
0.388995 0.736583 0.349259
0.433290 0.747488 0.358696
0.477969 0.758364 0.368178
0.522480 0.768991 0.377676
0.567484 0.779586 0.387169
0.614528 0.789855 0.396631
0.662742 0.799966 0.405965
0.710966 0.809876 0.415288
0.758115 0.819446 0.424422
0.803480 0.828751 0.433482
0.846493 0.837868 0.442322
0.886729 0.846451 0.450974
0.923783 0.854887 0.459440
0.956579 0.862745 0.467618
0.321650 0.774296 0.348921
0.364320 0.784952 0.358335
0.408176 0.795471 0.367886
0.452649 0.805809 0.377386
0.497242 0.815972 0.386830
0.541567 0.825929 0.396261
0.587238 0.835715 0.405687
0.634668 0.845045 0.415012
0.682826 0.854191 0.424102
0.730436 0.863041 0.433131
0.776605 0.871655 0.441993
0.820807 0.879934 0.450743
0.862531 0.887813 0.459153
0.901096 0.895336 0.467333
0.936347 0.902516 0.475244
0.967351 0.909289 0.482936
0.340083 0.831344 0.367574
0.383253 0.841211 0.377093
0.427254 0.850846 0.386505
0.471777 0.860476 0.396016
0.516069 0.869733 0.405372
0.560476 0.878591 0.414683
0.606750 0.887287 0.423819
0.654318 0.895510 0.432834
0.702088 0.903592 0.441758
0.748897 0.911344 0.450409
0.794063 0.918699 0.458851
0.836969 0.925672 0.467090
0.877066 0.932186 0.475027
0.914147 0.938594 0.482692
0.947582 0.944603 0.490052
0.976685 0.950025 0.497164
0.358494 0.883871 0.386164
0.401915 0.892805 0.395537
0.446026 0.901371 0.404894
0.490381 0.909983 0.414266
0.534286 0.917780 0.423433
0.579074 0.925605 0.432466
0.625670 0.933089 0.441323
0.673238 0.940219 0.450050
0.720370 0.946992 0.458531
0.766088 0.953285 0.466731
0.809991 0.959287 0.474689
0.851591 0.964824 0.482387
0.890314 0.970252 0.489785
0.925821 0.975027 0.496836
0.957450 0.979735 0.503550
0.984685 0.984010 0.509905
0.139041 0.138059 0.198817
0.176268 0.141969 0.202489
0.209591 0.146281 0.206552
0.244001 0.150785 0.210936
0.280189 0.155547 0.215706
0.317984 0.160495 0.220807
0.357377 0.165711 0.226280
0.398075 0.171104 0.232128
0.439866 0.176641 0.238247
0.482224 0.182391 0.244720
0.524828 0.188348 0.251517
0.568148 0.194490 0.258542
0.613835 0.200852 0.265864
0.661039 0.207450 0.273463
0.708835 0.214348 0.281366
0.755522 0.221379 0.289460
0.148972 0.173951 0.206383
0.184911 0.178063 0.210777
0.218881 0.182510 0.215574
0.254361 0.187197 0.220655
0.291602 0.192154 0.226113
0.330473 0.197393 0.231909
0.370811 0.202916 0.238055
0.412485 0.208750 0.244511
0.454982 0.214841 0.251235
0.497977 0.221237 0.258309
0.540987 0.227901 0.265620
0.585609 0.234909 0.273241
0.632374 0.242089 0.281096
0.680226 0.249539 0.289159
0.728097 0.257302 0.297544
0.774616 0.265181 0.306033
0.159496 0.208929 0.215407
0.194753 0.213715 0.220475
0.229599 0.218885 0.225968
0.266138 0.224328 0.231726
0.304416 0.230124 0.237851
0.344303 0.236223 0.244278
0.385590 0.242656 0.251009
0.427998 0.249355 0.258044
0.471230 0.256366 0.265390
0.514571 0.263626 0.272970
0.558321 0.271144 0.280815
0.604230 0.278957 0.288918
0.651882 0.286976 0.297237
0.700145 0.295198 0.305780
0.747820 0.303645 0.314488
0.793972 0.312275 0.323439
0.170676 0.246900 0.225754
0.205720 0.252617 0.231553
0.241512 0.258647 0.237599
0.279200 0.265079 0.244080
0.318524 0.271768 0.250773
0.359355 0.278744 0.257803
0.401505 0.286061 0.265150
0.444652 0.293598 0.272722
0.488359 0.301422 0.280566
0.531980 0.309489 0.288672
0.576807 0.317822 0.296967
0.623894 0.326347 0.305522
0.672198 0.335084 0.314253
0.720545 0.343991 0.323160
0.767923 0.353032 0.332202
0.813371 0.362301 0.341475
0.182541 0.288504 0.237450
0.217866 0.295121 0.243862
0.254764 0.302035 0.250552
0.293472 0.309340 0.257611
0.333758 0.316860 0.264907
0.375483 0.324650 0.272466
0.418387 0.332718 0.280286
0.462173 0.341099 0.288371
0.506227 0.349700 0.296673
0.550319 0.358430 0.305193
0.596306 0.367408 0.313942
0.644246 0.376560 0.322808
0.692917 0.385960 0.331968
0.741033 0.395430 0.341134
0.787827 0.405005 0.350498
0.832565 0.414679 0.359969
0.195109 0.333487 0.250349
0.231218 0.340933 0.257348
0.269165 0.348717 0.264637
0.308833 0.356775 0.272226
0.350058 0.365074 0.280029
0.392633 0.373647 0.288090
0.436228 0.382409 0.296389
0.480402 0.391447 0.304969
0.524645 0.400663 0.313686
0.569552 0.409999 0.322535
0.616595 0.419531 0.331604
0.665174 0.429145 0.340821
0.713881 0.438954 0.350237
0.761701 0.448758 0.359690
0.807714 0.458608 0.369183
0.851254 0.468444 0.378753
0.208544 0.381533 0.264442
0.245649 0.389731 0.271966
0.284582 0.398242 0.279755
0.325150 0.407006 0.287796
0.367269 0.415978 0.296135
0.410587 0.425172 0.304661
0.454713 0.434491 0.313368
0.499190 0.444036 0.322238
0.543567 0.453661 0.331296
0.589592 0.463405 0.340554
0.637548 0.473212 0.349875
0.686370 0.483084 0.359322
0.734925 0.493075 0.368929
0.781976 0.502974 0.378542
0.827205 0.512918 0.388180
0.869567 0.522865 0.397753
0.222908 0.432122 0.279520
0.261056 0.441023 0.287586
0.300966 0.450093 0.295850
0.342424 0.459387 0.304320
0.385300 0.468835 0.313076
0.429222 0.478368 0.321966
0.473746 0.488041 0.331041
0.518209 0.497779 0.340206
0.563161 0.507744 0.349574
0.610290 0.517657 0.359057
0.658852 0.527748 0.368546
0.707727 0.538043 0.378193
0.755619 0.548326 0.387815
0.802035 0.558843 0.397548
0.846012 0.569393 0.407218
0.887076 0.579944 0.416809
0.238225 0.484531 0.295591
0.277388 0.493868 0.304069
0.318182 0.503293 0.312775
0.360413 0.512897 0.321641
0.404020 0.522730 0.330756
0.448387 0.532716 0.339902
0.493039 0.542956 0.349258
0.537590 0.553312 0.358706
0.583452 0.563890 0.368254
0.631377 0.574649 0.377906
0.680216 0.585426 0.387522
0.728801 0.596352 0.397213
0.776071 0.607240 0.406881
0.821356 0.618262 0.416599
0.864136 0.629128 0.426173
0.903646 0.639936 0.435677
0.254361 0.538288 0.312444
0.294461 0.548354 0.321380
0.336049 0.558576 0.330411
0.379035 0.569062 0.339592
0.423094 0.579747 0.348959
0.467809 0.590591 0.358404
0.512513 0.601563 0.367932
0.557388 0.612590 0.377563
0.604205 0.623750 0.387248
0.652668 0.634929 0.396972
0.701418 0.646093 0.406624
0.749394 0.657192 0.416257
0.795638 0.668222 0.425890
0.839915 0.679235 0.435464
0.881299 0.689923 0.444875
0.919166 0.700415 0.454134
0.271276 0.596009 0.330093
0.312222 0.606964 0.339331
0.354515 0.617938 0.348654
0.398092 0.629034 0.358085
0.442560 0.640161 0.367597
0.487378 0.651553 0.377263
0.531971 0.662828 0.386915
0.577496 0.674012 0.396586
0.625143 0.685245 0.406297
0.673799 0.696383 0.415925
0.722287 0.707375 0.425592
0.769361 0.718199 0.435088
0.814635 0.728744 0.444531
0.857475 0.739198 0.453940
0.897478 0.749308 0.463073
0.933615 0.759125 0.472048
0.288800 0.656854 0.348339
0.330404 0.668115 0.357754
0.373442 0.679451 0.367314
0.417436 0.690666 0.376949
0.462123 0.701879 0.386546
0.506894 0.713136 0.396307
0.551508 0.724126 0.405936
0.597913 0.735089 0.415638
0.645988 0.745823 0.425219
0.694596 0.756384 0.434771
0.742427 0.766708 0.444271
0.788515 0.776796 0.453582
0.832790 0.786739 0.462769
0.874074 0.796211 0.471745
0.912355 0.805524 0.480607
0.946713 0.814452 0.489120
0.306774 0.718338 0.366989
0.348999 0.729511 0.376559
0.392522 0.740528 0.386293
0.436906 0.751465 0.395968
0.481581 0.762262 0.405620
0.526029 0.772923 0.415268
0.571151 0.783334 0.424931
0.618312 0.793577 0.434477
0.666488 0.803667 0.443918
0.714707 0.813381 0.453280
0.761717 0.822940 0.462514
0.806809 0.832127 0.471473
0.849540 0.840989 0.480329
0.889520 0.849589 0.488894
0.926119 0.857809 0.497308
0.958579 0.865603 0.505300
0.325052 0.778186 0.385988
0.367851 0.788817 0.395617
0.411764 0.799330 0.405361
0.456222 0.809582 0.415016
0.500801 0.819757 0.424630
0.545089 0.829413 0.434154
0.590885 0.839096 0.443627
0.638403 0.848502 0.453003
0.686486 0.857489 0.462150
0.733905 0.866358 0.471211
0.779889 0.874713 0.479970
0.823914 0.882901 0.488658
0.865273 0.890611 0.497003
0.903687 0.898038 0.505063
0.938619 0.905108 0.512915
0.969057 0.911708 0.520389
0.343519 0.834960 0.404996
0.386776 0.844810 0.414684
0.430908 0.854459 0.424345
0.475304 0.863897 0.433865
0.519583 0.872957 0.443338
0.563969 0.881791 0.452644
0.610354 0.890388 0.461888
0.657963 0.898545 0.470917
0.705680 0.906572 0.479737
0.752185 0.914158 0.488329
0.797038 0.921218 0.496751
0.839784 0.928076 0.504855
0.879751 0.934714 0.512675
0.916476 0.940675 0.520208
0.949644 0.946581 0.527447
0.978339 0.951812 0.534298
0.361930 0.887163 0.423875
0.405431 0.895979 0.433448
0.449501 0.904606 0.442882
0.493771 0.912824 0.452268
0.537592 0.920834 0.461484
0.582528 0.928519 0.470507
0.629211 0.935727 0.479351
0.676593 0.942718 0.487973
0.723539 0.949163 0.496370
0.769208 0.955631 0.504509
0.812943 0.961429 0.512299
0.854205 0.967032 0.519906
0.892600 0.971959 0.527156
0.927801 0.976836 0.534020
0.959104 0.981241 0.540701
0.986126 0.985151 0.546951
0.140860 0.139480 0.228731
0.177770 0.143511 0.232701
0.211198 0.147907 0.237069
0.245818 0.152513 0.241810
0.282174 0.157322 0.246914
0.320220 0.162428 0.252419
0.359744 0.167639 0.258199
0.400662 0.173120 0.264383
0.442565 0.178750 0.270850
0.485122 0.184537 0.277650
0.527750 0.190586 0.284810
0.571334 0.196782 0.292184
0.617181 0.203223 0.299890
0.664554 0.209909 0.307818
0.712287 0.216917 0.316078
0.758972 0.224047 0.324462
0.150859 0.175442 0.236927
0.186636 0.179661 0.241641
0.220744 0.184195 0.246765
0.256437 0.189001 0.252200
0.293893 0.194020 0.258025
0.332968 0.199372 0.264138
0.373511 0.205014 0.270645
0.415255 0.210941 0.277421
0.457940 0.217140 0.284548
0.500950 0.223637 0.291944
0.544065 0.230425 0.299600
0.588986 0.237523 0.307590
0.635943 0.244804 0.315766
0.683976 0.252347 0.324225
0.731716 0.260192 0.332946
0.778051 0.268092 0.341718
0.161531 0.210614 0.246562
0.196712 0.215541 0.252004
0.231701 0.220844 0.257848
0.268482 0.226408 0.263954
0.306949 0.232342 0.270421
0.346992 0.238540 0.277195
0.388468 0.245073 0.284301
0.431063 0.251915 0.291685
0.474350 0.258989 0.299373
0.517748 0.266374 0.307317
0.561664 0.273974 0.315488
0.607836 0.281857 0.323953
0.655639 0.289968 0.332585
0.703942 0.298259 0.341452
0.751509 0.306768 0.350481
0.797487 0.315460 0.359730
0.172825 0.248944 0.257613
0.207906 0.254821 0.263732
0.243902 0.260978 0.270180
0.281776 0.267489 0.276992
0.321288 0.274306 0.284086
0.362289 0.281376 0.291449
0.404636 0.288797 0.299122
0.447832 0.296410 0.307030
0.491605 0.304353 0.315226
0.535372 0.312518 0.323640
0.580355 0.320889 0.332296
0.627593 0.329525 0.341185
0.675951 0.338307 0.350208
0.724337 0.347292 0.359429
0.771558 0.356416 0.368733
0.816944 0.365684 0.378263
0.184820 0.290890 0.269999
0.220289 0.297631 0.276755
0.257350 0.304650 0.283806
0.296244 0.312075 0.291221
0.336707 0.319689 0.298871
0.378628 0.327599 0.306757
0.421663 0.335769 0.314908
0.465515 0.344196 0.323366
0.509609 0.352888 0.332018
0.553743 0.361745 0.340876
0.600049 0.370815 0.349898
0.648090 0.380029 0.359146
0.696833 0.389387 0.368461
0.744989 0.398904 0.377985
0.791603 0.408510 0.387579
0.836187 0.418244 0.397281
0.197536 0.336170 0.283602
0.233857 0.343788 0.290947
0.271966 0.351610 0.298569
0.311826 0.359785 0.306510
0.353164 0.368167 0.314676
0.395937 0.376860 0.323101
0.439634 0.385687 0.331727
0.483878 0.394820 0.340583
0.528091 0.404088 0.349618
0.573176 0.413445 0.358828
0.620512 0.423032 0.368157
0.669099 0.432733 0.377624
0.717818 0.442573 0.387301
0.765515 0.452369 0.396970
0.811342 0.462241 0.406714
0.854813 0.472150 0.416494
0.211110 0.384539 0.298348
0.248434 0.392862 0.306241
0.287569 0.401397 0.314402
0.328312 0.410268 0.322784
0.370592 0.419296 0.331449
0.414025 0.428592 0.340261
0.458219 0.437970 0.349272
0.502702 0.447570 0.358512
0.547183 0.457217 0.367834
0.593380 0.467019 0.377385
0.641494 0.476814 0.386947
0.690418 0.486728 0.396625
0.738821 0.496730 0.406444
0.785692 0.506647 0.416208
0.830656 0.516645 0.426052
0.872840 0.526588 0.435757
0.225726 0.435354 0.314157
0.264028 0.444331 0.322519
0.304097 0.453444 0.331136
0.345719 0.462773 0.339920
0.388735 0.472338 0.348994
0.432752 0.481931 0.358181
0.477298 0.491626 0.367544
0.521825 0.501402 0.376996
