example_ofxGpuLutCube/bin/data/ofxGpuLutCube/LUT/U11 (very golden varm look).cube
LUT_3D_SIZE 6
0.045936 0.026675 0.014451
0.167292 0.032984 0.019599
0.329245 0.042581 0.026548
0.483177 0.054777 0.036103
0.629956 0.070005 0.049211
0.778309 0.091108 0.066678
0.072972 0.123811 0.026308
0.218618 0.146593 0.035737
0.384454 0.173452 0.048536
0.539524 0.202803 0.066022
0.691682 0.234758 0.089707
0.836306 0.268008 0.117579
0.114465 0.292894 0.048046
0.284049 0.324302 0.064772
0.448810 0.356251 0.088833
0.602855 0.390639 0.116754
0.756718 0.426137 0.146202
0.892097 0.460923 0.177669
0.179196 0.479132 0.087908
0.354522 0.514559 0.115457
0.516493 0.551707 0.145568
0.670539 0.590001 0.176722
0.819430 0.627572 0.208520
0.940784 0.665217 0.240459
0.257021 0.685129 0.144518
0.426086 0.722926 0.175856
0.582672 0.758672 0.207535
0.736241 0.792671 0.239410
0.872738 0.824990 0.271140
0.974351 0.852388 0.300223
0.332350 0.875224 0.206384
0.495677 0.904596 0.238486
0.646520 0.929893 0.269451
0.793032 0.951958 0.299240
0.916840 0.969767 0.326971
0.993305 0.984129 0.350847
0.050114 0.028786 0.071930
0.175807 0.036890 0.084956
0.338514 0.046685 0.103380
0.493112 0.060091 0.125078
0.640416 0.077454 0.150761
0.788998 0.100083 0.178054
0.079372 0.131831 0.102723
0.231057 0.156317 0.124800
0.395950 0.183929 0.149260
0.550826 0.214212 0.177130
0.704459 0.247337 0.207528
0.847047 0.280687 0.240004
0.124475 0.303889 0.148380
0.296748 0.335444 0.176223
0.461357 0.368696 0.206491
0.615266 0.403426 0.238983
0.768537 0.439151 0.272879
0.901849 0.473824 0.307146
0.193697 0.491818 0.205449
0.368223 0.527509 0.237552
0.528961 0.565625 0.271624
0.683241 0.604071 0.306150
0.829609 0.642027 0.341012
0.948166 0.678215 0.373971
0.271290 0.698758 0.270445
0.439955 0.736657 0.304780
0.594929 0.771463 0.339381
0.747548 0.804770 0.372892
0.881832 0.834993 0.405013
0.978921 0.861903 0.434399
0.345830 0.886224 0.338134
0.506659 0.914040 0.372657
0.657680 0.938570 0.403642
0.802410 0.958953 0.433358
0.923590 0.974721 0.461365
0.995471 0.988500 0.485556
0.054619 0.031271 0.180072
0.185114 0.040017 0.199084
0.348344 0.051210 0.220305
0.503323 0.065963 0.246179
0.652090 0.084583 0.275506
0.799918 0.110031 0.306823
0.086370 0.140410 0.219567
0.242384 0.166436 0.244659
0.407679 0.194706 0.274155
0.562272 0.225881 0.305815
0.715107 0.258917 0.339522
0.857703 0.293445 0.374263
0.135358 0.315080 0.273139
0.309795 0.348113 0.304002
0.473985 0.381309 0.338238
0.627851 0.416329 0.373117
0.780376 0.450958 0.407717
0.911574 0.486896 0.444182
0.208319 0.504898 0.337168
0.382059 0.541768 0.371729
0.541349 0.579696 0.407299
0.695683 0.618083 0.443067
0.840531 0.655157 0.479944
0.955038 0.691017 0.515261
0.285577 0.712527 0.406166
0.453909 0.749273 0.442604
0.607048 0.783882 0.478183
0.758704 0.816272 0.514243
0.890651 0.845395 0.549233
0.983039 0.870871 0.580823
0.359170 0.896812 0.476847
0.518577 0.923161 0.512445
0.668662 0.946415 0.547631
0.811311 0.965444 0.579825
0.928901 0.981131 0.608627
0.997074 0.992198 0.632718
0.059578 0.034138 0.303841
0.193181 0.043506 0.325362
0.358588 0.056177 0.350188
0.513810 0.072370 0.378623
0.663745 0.093600 0.409647
0.810735 0.120858 0.443330
0.093907 0.149436 0.349257
0.254138 0.175794 0.378108
0.419656 0.205873 0.408642
0.574081 0.237817 0.442061
0.727788 0.270626 0.478025
0.868094 0.306356 0.516817
0.147257 0.326689 0.407602
0.322997 0.359817 0.440573
0.486605 0.394078 0.477189
0.640599 0.429245 0.515620
0.792883 0.464088 0.555493
0.920635 0.499864 0.594572
0.222779 0.518072 0.475955
0.394802 0.555261 0.513292
0.553721 0.593826 0.553828
0.707966 0.631958 0.593376
0.850162 0.669012 0.632520
0.961452 0.703433 0.668182
0.299724 0.726181 0.552520
0.466475 0.762447 0.591804
0.619022 0.796035 0.630653
0.769415 0.827245 0.667042
0.898772 0.854474 0.700274
0.986565 0.879074 0.729899
0.372090 0.906928 0.629340
0.530258 0.931802 0.665668
0.679129 0.953981 0.699193
0.819701 0.971547 0.729160
0.934786 0.984928 0.754922
0.998546 0.995284 0.775575
0.064882 0.037312 0.434989
0.204796 0.048138 0.458827
0.369307 0.061637 0.487273
0.524551 0.079468 0.519621
0.675571 0.102321 0.555636
0.821565 0.132481 0.593315
0.102145 0.158893 0.486226
0.266155 0.186800 0.518938
0.431958 0.217380 0.554082
0.586093 0.250039 0.592168
0.739285 0.284815 0.630619
0.878471 0.319235 0.671284
0.160105 0.338579 0.552882
0.336422 0.371925 0.590229
0.499245 0.406884 0.630174
0.653236 0.442199 0.669920
0.803067 0.478259 0.708750
0.929517 0.513037 0.746285
0.237372 0.531702 0.628995
0.408656 0.570060 0.668634
0.565947 0.607832 0.707674
0.720096 0.645743 0.745117
0.859340 0.682509 0.780278
0.967268 0.715170 0.812242
0.313627 0.739573 0.706290
0.477938 0.775625 0.743200
0.630866 0.807802 0.779194
0.779748 0.837764 0.811349
0.906702 0.864842 0.840015
0.989767 0.887073 0.864625
0.384833 0.916696 0.777926
0.541608 0.940922 0.809555
0.689246 0.960871 0.838995
0.827642 0.977091 0.863746
0.939998 0.990183 0.883417
0.999620 0.998250 0.900392
0.070696 0.040869 0.578948
0.215220 0.052433 0.606705
0.380305 0.067627 0.637838
0.535494 0.087296 0.672067
0.687373 0.113002 0.707387
0.832280 0.144279 0.744977
0.111009 0.168759 0.636813
0.279955 0.196956 0.670585
0.444310 0.229129 0.706877
0.598239 0.262380 0.743579
0.751550 0.296589 0.780609
0.888496 0.332247 0.816469
0.173939 0.350623 0.705718
0.348663 0.385318 0.742936
0.511862 0.419835 0.779356
0.665896 0.455047 0.815217
0.814838 0.490184 0.850345
0.937698 0.526065 0.881043
0.251737 0.545357 0.778214
0.421439 0.582695 0.813171
0.578204 0.621800 0.848353
0.731866 0.659115 0.880034
0.868976 0.694411 0.908772
0.972596 0.726953 0.933824
0.327563 0.752945 0.847535
0.490177 0.787573 0.878790
0.642413 0.819213 0.907776
0.789657 0.847942 0.933024
0.914165 0.872730 0.953989
0.992428 0.894408 0.971517
0.397114 0.925933 0.906776
0.551668 0.948479 0.932787
0.698996 0.967271 0.953576
0.835022 0.982046 0.971080
0.944721 0.992416 0.984390
1.000032 1.000023 0.993823
