example_ofxGpuLutCube/bin/data/ofxGpuLutCube/LUT/U11 (very golden varm look).cube
LUT_3D_SIZE 16
0.045936 0.026675 0.014451
0.079932 0.028568 0.015935
0.118863 0.030912 0.017889
0.167292 0.032984 0.019599
0.221252 0.036155 0.021604
0.276568 0.038889 0.024127
0.329245 0.042581 0.026548
0.381382 0.046313 0.029441
0.432824 0.050356 0.032614
0.483177 0.054777 0.036103
0.532828 0.059855 0.040341
0.581354 0.064767 0.043687
0.629956 0.070005 0.049211
0.680073 0.076729 0.054143
0.730327 0.083616 0.060149
0.778309 0.091108 0.066678
0.053666 0.049281 0.017573
0.088696 0.052276 0.019440
0.130440 0.055418 0.021896
0.183430 0.059465 0.024055
0.239001 0.063203 0.026818
0.293106 0.068248 0.029364
0.346333 0.073140 0.032511
0.398827 0.078651 0.035990
0.450560 0.084795 0.039866
0.501093 0.091450 0.044128
0.550571 0.098934 0.048678
0.599379 0.107418 0.054315
0.650424 0.115905 0.060196
0.700154 0.124878 0.067157
0.749983 0.135307 0.073625
0.797584 0.145612 0.081580
0.062614 0.079851 0.021477
0.099301 0.084612 0.023791
0.143477 0.090219 0.026405
0.199559 0.095343 0.029058
0.256671 0.102570 0.032609
0.311036 0.109353 0.035781
0.364632 0.117149 0.039703
0.417637 0.125808 0.043995
0.469522 0.134841 0.048734
0.520003 0.144163 0.053952
0.568476 0.152871 0.059603
0.619415 0.163355 0.065566
0.669578 0.173604 0.073579
0.721286 0.184619 0.080921
0.770246 0.194991 0.089956
0.816949 0.205864 0.099046
0.072972 0.123811 0.026308
0.112100 0.131085 0.029144
0.161177 0.139407 0.032477
0.218618 0.146593 0.035737
0.275884 0.155650 0.039742
0.330181 0.165226 0.044334
0.384454 0.173452 0.048536
0.437512 0.182912 0.053774
0.489287 0.192754 0.059609
0.539524 0.202803 0.066022
0.589284 0.213909 0.072948
0.641098 0.223863 0.081299
0.691682 0.234758 0.089707
0.741372 0.246111 0.099107
0.790478 0.256759 0.108096
0.836306 0.268008 0.117579
0.084871 0.177573 0.032195
0.127303 0.185804 0.035638
0.180920 0.193890 0.039233
0.238850 0.203303 0.043156
0.296029 0.212525 0.048511
0.351388 0.222858 0.053400
0.405111 0.232265 0.059353
0.458190 0.242514 0.065814
0.509770 0.253050 0.072929
0.559844 0.263722 0.080784
0.609758 0.274881 0.089220
0.661477 0.285483 0.097823
0.713769 0.297546 0.107483
0.763103 0.308080 0.117236
0.810680 0.320238 0.127125
0.855343 0.331905 0.136958
0.098602 0.233985 0.039337
0.145279 0.243085 0.043543
0.203149 0.253566 0.048069
0.261637 0.262577 0.053639
0.318356 0.272849 0.059368
0.373178 0.283765 0.066191
0.426688 0.293347 0.072675
0.479482 0.304163 0.080474
0.530728 0.315290 0.089101
0.580975 0.326585 0.098211
0.632821 0.337866 0.107485
0.683602 0.350254 0.116673
0.734422 0.361270 0.125988
0.783439 0.373109 0.136114
0.830535 0.384722 0.146888
0.873994 0.396497 0.157090
0.114465 0.292894 0.048046
0.166356 0.302813 0.053254
0.225792 0.313242 0.058817
0.284049 0.324302 0.064772
0.339913 0.334979 0.072587
0.395373 0.345151 0.079808
0.448810 0.356251 0.088833
0.501225 0.367543 0.097868
0.551958 0.379022 0.107184
0.602855 0.390639 0.116754
0.653987 0.402386 0.126831
0.706478 0.413946 0.136470
0.756718 0.426137 0.146202
0.804155 0.437898 0.157656
0.850071 0.449227 0.167250
0.892097 0.460923 0.177669
0.132951 0.353938 0.058741
0.190223 0.364512 0.065162
0.249126 0.375067 0.071962
0.306018 0.386786 0.080309
0.363142 0.396763 0.088510
0.417722 0.408284 0.096836
0.471343 0.420024 0.106878
0.523175 0.431499 0.116378
0.573783 0.443148 0.126160
0.625194 0.454786 0.136106
0.677826 0.466145 0.145945
0.728729 0.478881 0.155977
0.778049 0.489759 0.166782
0.824898 0.503145 0.177310
0.868830 0.514799 0.187966
0.909427 0.527008 0.198544
0.154446 0.416189 0.071934
0.214752 0.427191 0.079708
0.274561 0.438172 0.088081
0.331280 0.449113 0.096685
0.386281 0.460119 0.107304
0.441237 0.472136 0.117126
0.493924 0.484197 0.125844
0.545149 0.496137 0.135749
0.596029 0.508367 0.145897
0.647842 0.520648 0.156167
0.700025 0.533337 0.165826
0.750456 0.545556 0.177292
0.798777 0.558837 0.187666
0.844733 0.571271 0.198188
0.886914 0.583533 0.208982
0.925826 0.595952 0.219566
0.179196 0.479132 0.087908
0.239688 0.490629 0.097003
0.297873 0.503097 0.105188
0.354522 0.514559 0.115457
0.409345 0.526809 0.125774
0.464664 0.539515 0.134844
0.516493 0.551707 0.145568
0.567159 0.564358 0.155809
0.618578 0.577142 0.166173
0.670539 0.590001 0.176722
0.722448 0.602895 0.187348
0.772200 0.615690 0.197945
0.819430 0.627572 0.208520
0.862554 0.640802 0.218995
0.904112 0.653145 0.229936
0.940784 0.665217 0.240459
0.205218 0.545574 0.105953
0.264694 0.557901 0.115389
0.321659 0.570389 0.125583
0.379307 0.582624 0.135096
0.433232 0.595994 0.144773
0.487228 0.608970 0.155268
0.538809 0.621715 0.165806
0.589506 0.634597 0.176381
0.641273 0.647383 0.186918
0.693069 0.660173 0.197554
0.744097 0.672904 0.208222
0.792802 0.685572 0.218922
0.837838 0.697717 0.229158
0.880870 0.708752 0.240545
0.920107 0.720752 0.250684
0.953754 0.731881 0.260982
0.231122 0.615119 0.124863
0.289919 0.627798 0.134735
0.348229 0.640728 0.144641
0.403257 0.653399 0.154592
0.456713 0.666164 0.165407
0.509780 0.678621 0.176011
0.560778 0.691646 0.186601
0.611884 0.704026 0.197252
0.663647 0.716299 0.207885
0.714879 0.728353 0.218591
0.764542 0.740494 0.229296
0.811879 0.751373 0.240062
0.855927 0.763727 0.250537
0.896895 0.773977 0.260492
0.934679 0.784444 0.271025
0.964857 0.794715 0.281015
0.257021 0.685129 0.144518
0.315068 0.697614 0.154740
0.371231 0.709362 0.165555
0.426086 0.722926 0.175856
0.479980 0.734600 0.186219
0.532116 0.747453 0.195788
0.582672 0.758672 0.207535
0.634118 0.770421 0.218253
0.685592 0.781739 0.228869
0.736241 0.792671 0.239410
0.784629 0.803483 0.250379
0.830300 0.813338 0.260980
0.872738 0.824990 0.271140
0.911816 0.834052 0.280767
0.947408 0.843407 0.290562
0.974351 0.852388 0.300223
0.282587 0.752819 0.164815
0.339922 0.764693 0.175269
0.396621 0.776821 0.186008
0.449984 0.788664 0.196508
0.503102 0.799997 0.207141
0.553958 0.810422 0.217609
0.604507 0.821703 0.228559
0.655856 0.832168 0.239068
0.706900 0.842384 0.249613
0.756440 0.852383 0.259978
0.803071 0.861850 0.270074
0.847929 0.870740 0.280507
0.889156 0.880432 0.290964
0.926137 0.888259 0.300085
0.958448 0.896581 0.309309
0.982214 0.904369 0.318452
0.307823 0.816667 0.185537
0.364386 0.827744 0.196110
0.419475 0.838352 0.206846
0.473668 0.849402 0.217470
0.524509 0.858703 0.227693
0.575060 0.870137 0.239224
0.625829 0.879179 0.249223
0.676980 0.888504 0.259656
0.727196 0.897579 0.270002
0.775423 0.906075 0.280006
0.820656 0.913667 0.290552
0.863298 0.922155 0.299459
0.903313 0.929130 0.308517
0.938698 0.936110 0.318179
0.967723 0.942825 0.326900
0.988426 0.948673 0.335440
0.332350 0.875224 0.206384
0.388151 0.885161 0.217014
0.443047 0.894597 0.227795
0.495677 0.904596 0.238486
0.546293 0.912914 0.248982
0.596153 0.921924 0.259129
0.646520 0.929893 0.269451
0.697056 0.937794 0.279655
0.746278 0.945158 0.289580
0.793032 0.951958 0.299240
0.837185 0.957545 0.309062
0.878520 0.964225 0.317608
0.916840 0.969767 0.326971
0.949674 0.975256 0.334706
0.975386 0.979691 0.343117
0.993305 0.984129 0.350847
0.047301 0.027328 0.028520
0.081460 0.029344 0.030472
0.119898 0.032192 0.032755
0.169579 0.034423 0.035480
0.224653 0.037359 0.038166
0.280072 0.040204 0.041089
0.332271 0.043916 0.044651
0.384564 0.047775 0.048616
0.436017 0.051952 0.052979
0.486477 0.056518 0.057922
0.535823 0.061633 0.063586
0.584478 0.066696 0.069165
0.633948 0.073394 0.076430
0.684804 0.079345 0.084418
0.734123 0.086340 0.092040
0.781864 0.094012 0.100540
0.055216 0.050355 0.032582
0.090518 0.053485 0.035086
0.132972 0.057385 0.037813
0.186033 0.060774 0.040577
0.241288 0.064996 0.044876
0.295516 0.070253 0.047843
0.349641 0.075107 0.052850
0.402262 0.080846 0.057769
0.454032 0.087161 0.063219
0.504528 0.094062 0.069261
0.553878 0.101529 0.076098
0.603712 0.109100 0.082935
0.653383 0.119551 0.091737
0.703910 0.128692 0.100802
0.753737 0.139025 0.109046
0.801183 0.149371 0.118203
0.064421 0.081507 0.037789
0.101534 0.086442 0.040905
0.146333 0.092002 0.044913
0.203985 0.098447 0.048413
0.260727 0.105444 0.052502
0.313712 0.112388 0.057028
0.368311 0.120268 0.063044
0.421245 0.129044 0.069071
0.473117 0.138212 0.075836
0.523529 0.147676 0.083254
0.572952 0.157487 0.091388
0.622773 0.166836 0.100424
0.674467 0.177608 0.108750
0.724020 0.188646 0.117261
0.773925 0.198914 0.127310
0.820509 0.209839 0.136985
0.075045 0.126390 0.044312
0.114717 0.133884 0.048180
0.164376 0.141950 0.052982
0.223190 0.149366 0.057338
0.279998 0.157805 0.063598
0.334229 0.167582 0.068394
0.388163 0.176841 0.075549
0.441231 0.186511 0.082988
0.493087 0.196410 0.091160
0.543344 0.206563 0.099692
0.592889 0.217528 0.108472
0.643690 0.227585 0.118166
0.695617 0.237714 0.127824
0.746049 0.249206 0.136815
0.794212 0.260896 0.146517
0.839891 0.272292 0.156692
0.087320 0.180543 0.052428
0.130417 0.188884 0.057267
0.186070 0.198084 0.062109
0.243631 0.206366 0.068427
0.299030 0.216240 0.075357
0.355635 0.225458 0.083312
0.409096 0.235967 0.090870
0.462118 0.246324 0.099401
0.513648 0.256974 0.108251
0.563717 0.267763 0.117318
0.614474 0.278792 0.126799
0.666142 0.290682 0.135942
0.717590 0.301824 0.146654
0.766810 0.313581 0.155861
0.814290 0.324491 0.166587
0.858892 0.336148 0.176986
0.101425 0.237306 0.062479
0.148980 0.246489 0.068455
0.206834 0.256843 0.075260
0.265239 0.265961 0.082022
0.321508 0.275659 0.090592
0.376353 0.286639 0.099647
0.430766 0.297311 0.107905
0.483573 0.308216 0.117029
0.534678 0.319397 0.126395
0.584949 0.330760 0.136058
0.636516 0.341958 0.146187
0.687363 0.353223 0.155923
0.738297 0.365695 0.166123
0.787037 0.377430 0.177862
0.834348 0.389123 0.187297
0.877536 0.400806 0.197984
0.117766 0.296542 0.074931
0.170624 0.306565 0.082231
0.231070 0.316893 0.090391
0.287788 0.328025 0.099359
0.344518 0.337975 0.107565
0.398552 0.349352 0.117083
0.453055 0.360398 0.126111
0.505303 0.371685 0.135700
0.556046 0.383261 0.145573
0.606944 0.394815 0.155705
0.658868 0.406548 0.166624
0.710467 0.418123 0.175706
0.760297 0.429270 0.187244
0.808607 0.442157 0.196951
0.853570 0.453513 0.208563
0.895459 0.465147 0.219445
0.136718 0.357720 0.089999
0.194741 0.368430 0.098566
0.253040 0.378868 0.108377
0.311237 0.389471 0.117026
0.366361 0.401022 0.125470
0.422131 0.413760 0.135415
0.475517 0.424240 0.145264
0.527282 0.435747 0.155281
0.577852 0.447339 0.165561
0.629433 0.459132 0.176068
0.681733 0.470310 0.186753
0.732868 0.482060 0.197299
0.781655 0.495396 0.208738
0.829046 0.507678 0.218451
0.872247 0.519274 0.230160
0.912488 0.531475 0.241076
0.158881 0.420202 0.107009
0.219382 0.431251 0.116159
0.278642 0.442187 0.125553
0.335320 0.453147 0.134776
0.389654 0.465673 0.145331
0.445548 0.476601 0.154574
0.498156 0.488546 0.165255
0.549203 0.500578 0.175680
0.600205 0.512910 0.186286
0.652117 0.525291 0.197080
0.703984 0.537835 0.207583
0.754566 0.550215 0.218430
0.802174 0.563378 0.230283
0.847695 0.574707 0.239963
0.890157 0.588111 0.251813
0.928686 0.600486 0.262680
0.184020 0.483345 0.125104
0.244361 0.494979 0.134787
0.301986 0.507301 0.144892
0.358664 0.518886 0.154649
0.413884 0.531456 0.164783
0.469025 0.544194 0.175408
0.520703 0.556332 0.185963
0.571291 0.569028 0.196643
0.622837 0.581873 0.207512
0.674783 0.594638 0.218423
0.726541 0.607609 0.228931
0.775260 0.620296 0.239890
0.821598 0.632054 0.251749
0.866212 0.645139 0.262467
0.907140 0.657658 0.273382
0.943214 0.669540 0.284138
0.210047 0.550066 0.144214
0.269516 0.562614 0.154348
0.327159 0.574871 0.165258
0.382369 0.587348 0.175440
0.438845 0.600859 0.184759
0.491669 0.613706 0.196720
0.542918 0.626522 0.207188
0.593685 0.639340 0.218079
0.645391 0.652105 0.228967
0.697158 0.664703 0.240067
0.748153 0.676452 0.251638
0.795706 0.690159 0.261639
0.841654 0.701930 0.272845
0.883350 0.712942 0.283296
0.922875 0.725013 0.294562
0.955849 0.735998 0.305072
0.235969 0.619714 0.164243
0.294604 0.632495 0.174586
0.351246 0.645345 0.185417
0.407478 0.658065 0.195809
0.462140 0.670788 0.206110
0.514210 0.683260 0.217133
0.564792 0.696229 0.228658
0.616064 0.708667 0.239742
0.667804 0.720793 0.250651
0.718937 0.732665 0.261676
0.768503 0.744950 0.272276
0.814678 0.755653 0.283343
0.859629 0.766498 0.293383
0.899413 0.777801 0.305754
0.937245 0.788329 0.315189
0.966881 0.798481 0.325313
0.261770 0.689704 0.184884
0.319695 0.702132 0.195565
0.376698 0.714919 0.206173
0.431484 0.727439 0.218039
0.485459 0.738964 0.227695
0.535387 0.751571 0.238648
0.586791 0.762999 0.250341
0.638187 0.774535 0.261356
0.689696 0.785776 0.272240
0.739916 0.796827 0.283147
0.788519 0.807552 0.293956
0.833985 0.817529 0.303736
0.876297 0.827330 0.314317
0.914869 0.837199 0.325092
0.949694 0.846833 0.335038
0.975988 0.855552 0.344703
0.287320 0.757124 0.206103
0.344502 0.769069 0.216955
0.399685 0.781169 0.227507
0.455363 0.791933 0.239551
0.507386 0.803912 0.250297
0.558180 0.814304 0.261146
0.608530 0.825609 0.271905
0.659867 0.835924 0.282806
0.710730 0.846064 0.293451
0.759977 0.855919 0.304053
0.806843 0.865494 0.314093
0.851393 0.874221 0.324730
0.892377 0.883305 0.335235
0.928918 0.891826 0.344319
0.960271 0.899400 0.353728
0.983485 0.906941 0.362847
0.312386 0.820743 0.227615
0.368941 0.831701 0.238645
0.423636 0.842378 0.249140
0.476714 0.852291 0.260220
0.528728 0.863291 0.271428
0.579080 0.873459 0.281956
0.629788 0.882679 0.293119
0.680790 0.891725 0.303695
0.730814 0.900617 0.314210
0.778774 0.909165 0.324379
0.824152 0.916678 0.333763
0.866679 0.925134 0.343991
0.905204 0.931540 0.353876
0.941229 0.938448 0.363458
0.969240 0.945193 0.371262
0.989482 0.950904 0.379688
0.336873 0.878887 0.249179
0.392561 0.888718 0.260076
0.446033 0.898255 0.270797
0.499741 0.907032 0.282892
0.549143 0.915826 0.293026
0.598926 0.924694 0.303256
0.650236 0.932813 0.313701
0.700670 0.940516 0.323954
0.749648 0.947711 0.333951
0.796196 0.954378 0.343632
0.840401 0.961102 0.352439
0.880633 0.966605 0.362133
0.918500 0.971710 0.371050
0.950854 0.977006 0.378599
0.976615 0.981603 0.387311
0.994039 0.985793 0.394838
0.048669 0.028023 0.046805
0.082981 0.030156 0.049510
0.122184 0.032386 0.052679
0.171855 0.035316 0.055605
0.228187 0.038598 0.059952
0.282232 0.041539 0.065080
0.335407 0.045287 0.069596
0.387750 0.049264 0.075257
0.439298 0.053562 0.081503
0.489736 0.058271 0.088476
0.538930 0.063423 0.096426
0.587542 0.069551 0.103594
0.637750 0.074907 0.111765
0.687596 0.082008 0.119704
0.737717 0.089078 0.129249
0.785561 0.096979 0.138350
0.056838 0.051449 0.052484
0.092406 0.054703 0.055986
0.135609 0.057747 0.059644
0.188697 0.062097 0.064328
0.244998 0.066852 0.069647
0.299350 0.072323 0.074941
0.352936 0.077132 0.081298
0.405731 0.083095 0.088254
0.457486 0.089628 0.095670
0.508086 0.096812 0.103506
0.557113 0.105411 0.110835
0.607053 0.113351 0.119829
0.657431 0.122128 0.128764
0.707700 0.132635 0.138311
0.757602 0.142899 0.147475
0.804771 0.153260 0.157092
0.066272 0.083286 0.059843
0.103837 0.088392 0.064265
0.150683 0.095027 0.069474
0.206936 0.100565 0.075323
0.263378 0.107172 0.081571
0.317643 0.114321 0.088094
0.371941 0.123441 0.095417
0.424857 0.132377 0.103208
0.476806 0.141662 0.111377
0.527189 0.151223 0.119835
0.576421 0.160896 0.128860
0.627294 0.171606 0.137377
0.678383 0.181654 0.147861
0.728792 0.192750 0.156892
0.777723 0.202919 0.166696
0.824232 0.213905 0.176909
0.077175 0.129104 0.069097
0.117448 0.136701 0.074683
0.169208 0.144638 0.080696
0.226362 0.153440 0.086890
0.282941 0.162670 0.094851
0.337143 0.171194 0.102149
0.392039 0.180402 0.111112
0.445087 0.190099 0.119559
0.496881 0.200102 0.128349
0.547020 0.210367 0.137463
0.597569 0.221186 0.147057
0.648225 0.232592 0.156232
0.699663 0.243106 0.165724
0.749894 0.254688 0.176290
0.798122 0.265022 0.186900
0.843526 0.276505 0.197549
0.089765 0.183537 0.080668
0.133617 0.192035 0.087534
0.189570 0.201065 0.094466
0.247010 0.209478 0.102639
0.303394 0.219996 0.111646
0.358634 0.229352 0.118486
0.413038 0.239681 0.128028
0.466068 0.250166 0.137120
0.517608 0.260891 0.146488
0.567651 0.271727 0.156139
0.618240 0.282661 0.166440
0.669893 0.294613 0.176143
0.721470 0.306214 0.186595
0.770494 0.316836 0.197463
0.818099 0.328857 0.207915
0.862517 0.340586 0.218824
0.104265 0.240648 0.094689
0.152739 0.249963 0.102438
0.211930 0.258944 0.109857
0.270210 0.269407 0.118753
0.326011 0.279632 0.127469
0.380680 0.290768 0.136015
0.434892 0.301263 0.146167
0.487585 0.312336 0.155872
0.538644 0.323557 0.165780
0.589070 0.334919 0.175866
0.640306 0.346076 0.185854
0.691340 0.358543 0.195979
0.742977 0.369982 0.208066
0.791507 0.381781 0.219105
0.837868 0.393403 0.229490
0.880826 0.405125 0.240572
0.121103 0.300205 0.110322
0.175020 0.310242 0.118713
0.234866 0.320503 0.127793
0.291590 0.331644 0.136250
0.347722 0.342104 0.146588
0.403034 0.353653 0.155522
0.457168 0.364507 0.165419
0.509486 0.375959 0.175514
0.560090 0.387504 0.185860
0.611126 0.399123 0.196484
0.662759 0.410822 0.207186
0.714400 0.422366 0.217859
0.765039 0.433569 0.228852
0.811897 0.445319 0.239951
0.857224 0.457787 0.251520
0.898724 0.469456 0.262664
0.140673 0.361661 0.127167
0.199258 0.372325 0.136241
0.258449 0.382769 0.144767
0.315167 0.394568 0.154998
0.372263 0.405198 0.165530
0.426485 0.416815 0.174859
0.479771 0.428398 0.185579
0.531358 0.439924 0.196089
0.581972 0.451678 0.206837
0.633640 0.463349 0.217784
0.685571 0.475788 0.229397
0.736917 0.487399 0.240387
0.785152 0.499893 0.252077
0.832286 0.512191 0.262102
0.875683 0.523764 0.273708
0.915704 0.536020 0.284934
0.163342 0.424258 0.145270
0.224003 0.435316 0.154858
0.282707 0.446190 0.165202
0.339384 0.458341 0.174850
0.395374 0.470119 0.185191
0.449958 0.481094 0.194897
0.502353 0.492984 0.206486
0.553366 0.505053 0.217381
0.604365 0.517379 0.228400
0.656335 0.529854 0.239591
0.707924 0.542264 0.249930
0.758629 0.554741 0.262304
0.806407 0.566882 0.273026
0.850706 0.579323 0.284127
0.893410 0.592687 0.295891
0.931491 0.605102 0.307038
0.188847 0.487542 0.164372
0.249000 0.499299 0.174551
0.307474 0.510305 0.185544
0.364045 0.523149 0.194669
0.419506 0.536131 0.206622
0.472411 0.547781 0.216584
0.524827 0.561021 0.228033
0.575557 0.573712 0.239190
0.627062 0.586536 0.250434
0.679038 0.599355 0.261750
0.730543 0.612261 0.273191
0.779268 0.623934 0.284558
0.825593 0.637640 0.296038
0.869855 0.649549 0.306923
0.910081 0.662014 0.317874
0.945684 0.673963 0.328772
0.214839 0.554588 0.184504
0.274214 0.567208 0.195083
0.331345 0.579348 0.205802
0.387855 0.591913 0.216429
0.443196 0.605577 0.227399
0.494904 0.618347 0.238594
0.547005 0.631247 0.250050
0.597826 0.643973 0.261307
0.649665 0.656704 0.272626
0.701321 0.669412 0.283886
0.752170 0.682190 0.295499
0.799695 0.694764 0.306802
0.844564 0.706019 0.317432
0.886836 0.717117 0.328012
0.925703 0.729136 0.339311
0.958101 0.740065 0.349922
0.240801 0.624424 0.205438
0.299323 0.637217 0.216276
0.356788 0.650000 0.227956
0.411751 0.663917 0.237741
0.466594 0.675375 0.249447
0.517444 0.688820 0.260735
0.569000 0.700785 0.272218
0.620192 0.713074 0.283547
0.671937 0.725199 0.294777
0.722995 0.737021 0.305966
0.772494 0.748276 0.316581
0.818627 0.760023 0.327827
0.862183 0.771272 0.338106
0.902498 0.782385 0.349323
0.939555 0.792014 0.360053
0.968652 0.801982 0.370169
0.266553 0.694255 0.226937
0.324333 0.706827 0.238027
0.379736 0.719498 0.249597
0.435729 0.732129 0.260725
0.489791 0.744225 0.271578
0.540786 0.755748 0.283876
0.590838 0.767267 0.294448
0.642312 0.778625 0.305626
0.693588 0.789933 0.316744
0.743804 0.800812 0.327761
0.791349 0.811658 0.338619
0.836690 0.821386 0.348530
0.878539 0.830622 0.359027
0.917766 0.840347 0.369637
0.951708 0.850084 0.379877
0.977500 0.858738 0.389352
0.291991 0.761480 0.248973
0.349112 0.773373 0.260174
0.405090 0.785498 0.270583
0.459584 0.796228 0.281833
0.511610 0.807632 0.293456
0.562355 0.819179 0.305602
0.612513 0.829353 0.316406
0.663872 0.839809 0.327421
0.714569 0.849746 0.338232
0.763504 0.859549 0.348947
0.810491 0.869213 0.359037
0.853795 0.877872 0.369776
0.894583 0.886145 0.378676
0.931445 0.894459 0.389932
0.962186 0.902264 0.398418
0.984676 0.909521 0.407353
0.317013 0.824760 0.271116
0.373448 0.835707 0.282432
0.429057 0.846446 0.293968
0.482024 0.857324 0.305342
0.532815 0.866696 0.316031
0.583117 0.876784 0.326680
0.633712 0.886044 0.337919
0.684661 0.895080 0.348581
0.734555 0.903858 0.359044
0.782165 0.912265 0.369215
0.826731 0.919959 0.378734
0.868955 0.928224 0.388965
0.908129 0.933648 0.398314
0.943538 0.941426 0.407624
0.970847 0.947254 0.415773
0.990456 0.952841 0.423967
0.341372 0.882499 0.293181
0.396948 0.892241 0.304405
0.451334 0.901879 0.316133
0.502685 0.910489 0.327400
0.553145 0.919834 0.337783
0.603691 0.927381 0.347990
0.654016 0.935710 0.358598
0.704245 0.943154 0.368761
0.752948 0.950049 0.378743
0.799395 0.956813 0.388435
0.843568 0.963331 0.397353
0.883645 0.968018 0.407089
0.921060 0.974257 0.415241
0.952893 0.979161 0.423908
0.977839 0.983128 0.431621
0.994771 0.986969 0.439098
0.050114 0.028786 0.071930
0.084568 0.031024 0.075827
0.124589 0.033804 0.079731
0.175807 0.036890 0.084956
0.230256 0.039865 0.090422
0.284467 0.042927 0.097250
0.338514 0.046685 0.103380
0.390966 0.050805 0.110256
0.442567 0.055259 0.117468
0.493112 0.060091 0.125078
0.541975 0.066189 0.132796
0.590740 0.071579 0.141558
0.640416 0.077454 0.150761
0.692251 0.083777 0.159167
0.741329 0.091915 0.168507
0.788998 0.100083 0.178054
0.058470 0.052615 0.080130
0.094361 0.056004 0.085119
0.136880 0.059834 0.090649
0.191382 0.064369 0.096931
0.247490 0.068786 0.103098
0.301791 0.074442 0.109544
0.356410 0.079243 0.117239
0.409167 0.085409 0.124822
0.461026 0.092171 0.132821
0.511506 0.099602 0.141153
0.560439 0.107024 0.149347
0.610324 0.117679 0.158825
0.661238 0.125990 0.168798
0.712242 0.136501 0.177697
0.761272 0.146708 0.187770
0.808257 0.157062 0.197822
0.068184 0.085061 0.090509
0.106199 0.090390 0.096526
0.153707 0.096952 0.102387
0.209916 0.102725 0.110608
0.267443 0.110158 0.116120
0.321746 0.118894 0.124390
0.375591 0.126668 0.132543
0.428598 0.135770 0.140854
0.480472 0.145123 0.149548
0.530833 0.154822 0.158543
0.580971 0.164298 0.167283
0.630741 0.175144 0.177461
0.682295 0.184406 0.187710
0.732453 0.196815 0.197197
0.781441 0.206904 0.207889
0.827747 0.217937 0.218566
0.079372 0.131831 0.102723
0.120270 0.139618 0.109525
0.172602 0.148616 0.116869
0.231057 0.156317 0.124800
0.285909 0.164965 0.131632
0.341313 0.174841 0.140538
0.395950 0.183929 0.149260
0.448907 0.193700 0.158223
0.500666 0.203836 0.167536
0.550826 0.214212 0.177130
0.601151 0.224896 0.187604
0.651869 0.236395 0.197241
0.704459 0.247337 0.207528
0.753564 0.257685 0.217399
0.801717 0.269221 0.228959
0.847047 0.280687 0.240004
0.092303 0.186593 0.116516
0.136983 0.195262 0.124073
0.193124 0.204105 0.131834
0.251910 0.213918 0.140542
0.307809 0.223854 0.148326
0.362923 0.233256 0.157906
0.417092 0.243506 0.167169
0.470023 0.254032 0.176809
0.521481 0.264858 0.186703
0.571498 0.275815 0.196864
0.622966 0.286607 0.208010
0.674600 0.298698 0.218228
0.725359 0.309301 0.229297
0.774174 0.321182 0.239401
0.821829 0.333113 0.250821
0.866041 0.344903 0.262118
0.107198 0.244006 0.131749
0.156695 0.253524 0.140023
0.215607 0.262282 0.148269
0.273909 0.274155 0.157699
0.329232 0.283677 0.167410
0.385084 0.293733 0.176393
0.439024 0.305302 0.186371
0.491669 0.316453 0.196518
0.542591 0.327734 0.206905
0.593062 0.339093 0.217511
0.645060 0.351410 0.228321
0.696167 0.362681 0.238985
0.746778 0.374376 0.250352
0.795046 0.386242 0.261731
0.841476 0.397773 0.273113
0.884330 0.409559 0.284562
0.124475 0.303889 0.148380
0.179466 0.314057 0.157322
0.238615 0.324158 0.166124
0.296748 0.335444 0.176223
0.352292 0.346334 0.186323
0.407406 0.356712 0.195786
0.461357 0.368696 0.206491
0.513557 0.380237 0.217149
0.564149 0.391741 0.227920
0.615266 0.403426 0.238983
0.666580 0.415023 0.250581
0.718406 0.426655 0.261695
0.768537 0.439151 0.272879
0.816173 0.449713 0.284240
0.860587 0.462168 0.295745
0.901849 0.473824 0.307146
0.144706 0.365531 0.166312
0.203824 0.376319 0.175843
0.262458 0.387804 0.186389
0.319153 0.398540 0.194839
0.375518 0.409483 0.206169
0.430887 0.421074 0.217064
0.483937 0.432663 0.227587
0.535484 0.444202 0.238531
