example_ofxGpuLutCube/bin/data/ofxGpuLutCube/LUT/U12 (soft reddish tint).cube
LUT_3D_SIZE 16
0.051761 0.038377 0.033046
0.087664 0.040726 0.035642
0.127844 0.043604 0.038975
0.176928 0.046125 0.041827
0.230163 0.049940 0.045104
0.284179 0.053199 0.049126
0.335297 0.057546 0.052902
0.385580 0.061891 0.057304
0.435036 0.066544 0.062028
0.483221 0.071578 0.067101
0.530552 0.077291 0.073122
0.576648 0.082752 0.077765
0.622677 0.088529 0.085271
0.670044 0.095830 0.091819
0.717311 0.103252 0.099589
0.762435 0.111207 0.107553
0.060017 0.065314 0.038447
0.096774 0.068739 0.041566
0.139661 0.072310 0.045579
0.192980 0.076857 0.049014
0.247536 0.081015 0.053313
0.300296 0.086595 0.057190
0.351782 0.091947 0.061875
0.402409 0.097924 0.066938
0.452011 0.104515 0.072456
0.500326 0.111547 0.078372
0.547414 0.119126 0.084558
0.593737 0.127256 0.092037
0.642067 0.134965 0.099646
0.688949 0.142705 0.108121
0.735792 0.151568 0.115467
0.780601 0.160335 0.123900
0.069496 0.099212 0.044896
0.107750 0.104311 0.048597
0.152904 0.110262 0.052680
0.208864 0.115548 0.056728
0.264792 0.122672 0.062021
0.317656 0.129057 0.066640
0.369490 0.136058 0.072227
0.420451 0.143500 0.078189
0.470154 0.151162 0.084630
0.518315 0.159106 0.091554
0.564402 0.166534 0.098883
0.612710 0.175504 0.106243
0.660101 0.184290 0.115413
0.708891 0.193742 0.123229
0.754901 0.202675 0.132207
0.798740 0.212067 0.141029
0.080386 0.141804 0.052527
0.120915 0.147971 0.056855
0.170775 0.155053 0.061827
0.227567 0.161180 0.066573
0.283508 0.168902 0.072278
0.336188 0.177107 0.078661
0.388571 0.184160 0.084361
0.439515 0.192282 0.091331
0.489051 0.200740 0.098893
0.536896 0.209427 0.106785
0.584174 0.219006 0.114722
0.633217 0.227619 0.123620
0.681040 0.237074 0.131970
0.727684 0.246914 0.141080
0.773863 0.256169 0.149726
0.816788 0.265952 0.158794
0.092799 0.187688 0.061410
0.136460 0.194763 0.066429
0.190521 0.201728 0.071560
0.247389 0.209842 0.077035
0.303087 0.217824 0.084337
0.356669 0.226751 0.090831
0.408478 0.234915 0.098569
0.459326 0.243791 0.106534
0.508619 0.252942 0.114691
0.556254 0.262222 0.123087
0.603559 0.271947 0.131482
0.652451 0.281176 0.139840
0.701745 0.291715 0.149148
0.748269 0.300912 0.158470
0.792810 0.311539 0.167875
0.834620 0.321754 0.177173
0.107024 0.236402 0.071706
0.154725 0.244290 0.077568
0.212388 0.253391 0.083741
0.269627 0.261228 0.091152
0.324758 0.270178 0.098592
0.377720 0.279701 0.106986
0.429138 0.288043 0.114420
0.479671 0.297525 0.122762
0.528540 0.307219 0.131378
0.576298 0.317110 0.140208
0.625357 0.326984 0.149146
0.673381 0.337878 0.157927
0.721193 0.347543 0.166791
0.767249 0.357931 0.176370
0.811420 0.368172 0.186487
0.852135 0.378481 0.196013
0.123346 0.287657 0.083704
0.176018 0.296329 0.090647
0.234609 0.305443 0.097888
0.291456 0.315117 0.105284
0.345634 0.324476 0.114324
0.399090 0.333383 0.122068
0.450347 0.343128 0.131117
0.500438 0.353047 0.139877
0.548763 0.363161 0.148860
0.597037 0.373337 0.158006
0.645377 0.383664 0.167596
0.694917 0.393863 0.176707
0.742112 0.404657 0.185860
0.786629 0.415031 0.196558
0.829688 0.425034 0.205458
0.868964 0.435352 0.215098
0.142217 0.341089 0.097787
0.199676 0.350388 0.105756
0.257433 0.359683 0.113616
0.312793 0.369919 0.122599
0.368028 0.378741 0.130794
0.420554 0.388918 0.138883
0.471929 0.399251 0.148559
0.521376 0.409371 0.157659
0.569453 0.419642 0.166957
0.618152 0.429918 0.176361
0.667890 0.439957 0.185611
0.715964 0.451217 0.194971
0.762292 0.460833 0.205055
0.806185 0.472710 0.214774
0.847224 0.483047 0.224595
0.885154 0.493857 0.234294
0.164002 0.395818 0.113580
0.223793 0.405505 0.121973
0.282216 0.415252 0.130385
0.337257 0.424908 0.138735
0.390339 0.434626 0.148971
0.443100 0.445261 0.158375
0.493499 0.455908 0.166669
0.542287 0.466494 0.176015
0.590573 0.477350 0.185567
0.639607 0.488240 0.195158
0.688786 0.499477 0.204151
0.736336 0.510313 0.214754
0.781635 0.522099 0.224338
0.824723 0.533163 0.233961
0.864126 0.544099 0.243829
0.900517 0.555108 0.253438
0.188812 0.451461 0.130220
0.248204 0.461620 0.139043
0.304902 0.472670 0.146941
0.359767 0.482805 0.156777
0.412507 0.493698 0.166588
0.465525 0.504971 0.175163
0.514964 0.515761 0.185258
0.563181 0.526999 0.194817
0.611899 0.538364 0.204473
0.661036 0.549794 0.214219
0.709962 0.561286 0.224026
0.756726 0.572711 0.233734
0.800978 0.583232 0.243392
0.841410 0.595035 0.252921
0.880188 0.606043 0.262840
0.914899 0.616788 0.272346
0.214410 0.510327 0.147674
0.272615 0.521258 0.156715
0.327933 0.532341 0.166412
0.383624 0.543245 0.175402
0.435433 0.555103 0.184515
0.487079 0.566676 0.194323
0.536226 0.578016 0.204130
0.584364 0.589526 0.213913
0.633349 0.600928 0.223602
0.682246 0.612273 0.233390
0.730386 0.623654 0.243117
0.776049 0.634972 0.252866
0.818271 0.645765 0.262132
0.858449 0.655736 0.272418
0.895126 0.666461 0.281533
0.928059 0.676371 0.290773
0.239825 0.572151 0.165722
0.297185 0.583454 0.175064
0.353636 0.594989 0.184370
0.406643 0.606266 0.193705
0.457920 0.617704 0.203753
0.508628 0.628768 0.213589
0.557097 0.640367 0.223333
0.605585 0.651439 0.233105
0.654482 0.662417 0.242815
0.702940 0.673262 0.252559
0.749478 0.684012 0.262261
0.793937 0.693796 0.271994
0.835206 0.704799 0.281401
0.873495 0.713996 0.290323
0.908923 0.723385 0.299728
0.940030 0.732563 0.308661
0.265141 0.634557 0.184258
0.321555 0.645716 0.193848
0.375832 0.656248 0.203900
0.428563 0.668346 0.213435
0.480161 0.678747 0.222982
0.529858 0.690227 0.231767
0.577917 0.700282 0.242495
0.626600 0.710766 0.252260
0.675237 0.720954 0.261870
0.722897 0.730713 0.271393
0.768420 0.740496 0.281270
0.811197 0.749276 0.290771
0.850864 0.759695 0.299873
0.887356 0.767850 0.308419
0.921510 0.776159 0.317135
0.950948 0.784310 0.325698
0.290017 0.695061 0.203234
0.345642 0.705680 0.212900
0.400274 0.716612 0.222781
0.451508 0.727142 0.232422
0.502233 0.737325 0.242148
0.550663 0.746650 0.251659
0.598581 0.756790 0.261598
0.647198 0.766072 0.271088
0.695270 0.775366 0.280570
0.741918 0.784283 0.289883
0.785734 0.792799 0.298895
0.827696 0.800784 0.308206
0.866239 0.809462 0.317485
0.900769 0.816396 0.325573
0.933014 0.823899 0.333735
0.960645 0.830855 0.341801
0.314528 0.752239 0.222364
0.369271 0.762181 0.232054
0.422217 0.771659 0.241864
0.474134 0.781562 0.251540
0.522621 0.789913 0.260817
0.570688 0.800184 0.271227
0.618769 0.808323 0.280235
0.667061 0.816651 0.289602
0.714359 0.824810 0.298838
0.759724 0.832485 0.307752
0.802138 0.839319 0.317129
0.842154 0.846949 0.325018
0.879465 0.853323 0.333024
0.912852 0.859737 0.341539
0.943217 0.865819 0.349227
0.968998 0.871297 0.356712
0.338299 0.804790 0.241450
0.392140 0.813707 0.251131
0.444847 0.822149 0.260902
0.495117 0.831094 0.270565
0.543381 0.838635 0.279998
0.590668 0.846756 0.289116
0.638336 0.854038 0.298363
0.686076 0.861241 0.307439
0.732355 0.867999 0.316253
0.776225 0.874365 0.324832
0.817605 0.879567 0.333502
0.856295 0.885869 0.341054
0.892064 0.891127 0.349287
0.923890 0.896431 0.356100
0.952141 0.900736 0.363479
0.976453 0.905026 0.370226
0.053225 0.039191 0.055913
0.089250 0.041685 0.058856
0.128907 0.045163 0.062235
0.179252 0.047864 0.066203
0.233498 0.051379 0.070049
0.287608 0.054753 0.074164
0.338229 0.059104 0.079086
0.388686 0.063583 0.084471
0.438081 0.068367 0.090281
0.486370 0.073543 0.096722
0.533404 0.079275 0.103850
0.579615 0.084889 0.110452
0.626442 0.092215 0.118509
0.674509 0.098661 0.126773
0.720950 0.106168 0.134238
0.765839 0.114201 0.142464
0.061664 0.066543 0.061980
0.098671 0.070111 0.065632
0.142237 0.074519 0.069544
0.195558 0.078317 0.073448
0.249771 0.083011 0.079399
0.302599 0.088801 0.083436
0.354975 0.094086 0.090106
0.405702 0.100280 0.096544
0.455351 0.107041 0.103408
0.503576 0.114251 0.110561
0.550562 0.121672 0.118153
0.597832 0.128821 0.125278
0.644807 0.138152 0.133933
0.692439 0.145949 0.142715
0.739396 0.154726 0.150635
0.783877 0.163541 0.159386
0.071402 0.100995 0.069514
0.110058 0.106262 0.073913
0.155790 0.112129 0.079453
0.213217 0.118646 0.084199
0.268751 0.125411 0.089654
0.320246 0.131826 0.095572
0.373022 0.138773 0.103190
0.423948 0.146238 0.110347
0.473609 0.154031 0.117872
0.521698 0.162103 0.125606
0.568667 0.170461 0.133603
0.615897 0.178466 0.142350
0.664699 0.187719 0.150365
0.711449 0.197225 0.158494
0.758358 0.206081 0.168051
0.802057 0.215495 0.177207
0.082555 0.143995 0.078627
0.123598 0.150353 0.083878
0.174014 0.157215 0.090285
0.232039 0.163530 0.095972
0.287516 0.170745 0.103863
0.340103 0.179126 0.109563
0.392151 0.187052 0.117565
0.443095 0.195382 0.125333
0.492673 0.203907 0.133381
0.540502 0.212673 0.141635
0.587582 0.222154 0.150100
0.635642 0.230861 0.159356
0.684703 0.239627 0.168526
0.732223 0.249605 0.177035
0.777368 0.259770 0.186160
0.820179 0.269687 0.195641
0.095354 0.190252 0.089555
0.139641 0.197423 0.095885
0.195586 0.205352 0.102041
0.252060 0.212507 0.109599
0.306023 0.221045 0.117356
0.360829 0.229001 0.125661
0.412276 0.238108 0.133090
0.463086 0.247101 0.141361
0.512263 0.256352 0.149872
0.559901 0.265743 0.158551
0.608006 0.275350 0.167561
0.656863 0.285736 0.176195
0.705357 0.295443 0.186274
0.751690 0.305693 0.194883
0.796212 0.315283 0.204862
0.837962 0.325491 0.214483
0.109939 0.239274 0.102491
0.158473 0.247244 0.109632
0.216008 0.256239 0.117249
0.273146 0.264174 0.124358
0.327821 0.272613 0.132830
0.380781 0.282184 0.141599
0.433075 0.291515 0.149548
0.483595 0.301041 0.158285
0.532329 0.310805 0.167175
0.580059 0.320756 0.176324
0.628877 0.330563 0.185843
0.676958 0.340459 0.194950
0.724820 0.351422 0.204413
0.770660 0.361773 0.215268
0.814967 0.372000 0.223967
0.855355 0.382325 0.233788
0.126725 0.290849 0.116894
0.180291 0.299585 0.124563
0.239777 0.308603 0.132628
0.295100 0.318374 0.141319
0.350065 0.327079 0.149224
0.402134 0.337066 0.158330
0.454402 0.346769 0.166920
0.504350 0.356675 0.175993
0.552591 0.366846 0.185252
0.600906 0.377084 0.194735
0.650018 0.387391 0.204886
0.698623 0.397524 0.213297
0.745473 0.407418 0.223922
0.790874 0.418739 0.232835
0.832931 0.428766 0.243435
0.872193 0.439091 0.253339
0.146044 0.344398 0.132241
0.204112 0.353825 0.140549
0.261246 0.362947 0.150011
0.317874 0.372308 0.158282
0.371191 0.382483 0.166309
0.424773 0.393707 0.175705
0.475910 0.402957 0.184954
0.525241 0.413103 0.194345
0.573331 0.423337 0.203899
0.622194 0.433769 0.213619
0.671551 0.443674 0.223465
0.719719 0.454031 0.233156
0.765582 0.465839 0.243588
0.810055 0.476701 0.252446
0.850465 0.486996 0.263041
0.888045 0.497825 0.272891
0.168460 0.399418 0.148693
0.228330 0.409141 0.157439
0.286204 0.418778 0.166390
0.341172 0.428469 0.175109
0.393532 0.439522 0.185026
0.447208 0.449192 0.193683
0.497517 0.459781 0.203624
0.546106 0.470434 0.213267
0.594534 0.481349 0.223028
0.643689 0.492355 0.232950
0.692509 0.503464 0.242550
0.740124 0.514438 0.252424
0.784825 0.526130 0.263154
0.827475 0.536217 0.271895
0.867207 0.548121 0.282566
0.903181 0.559136 0.292287
0.193553 0.455166 0.165967
0.252774 0.465479 0.175106
0.308889 0.476391 0.184624
0.363758 0.486653 0.193745
0.416818 0.497848 0.203190
0.469707 0.509142 0.213027
0.518998 0.519899 0.222751
0.567083 0.531166 0.232569
0.615936 0.542558 0.242479
0.665029 0.553943 0.252407
0.713790 0.565486 0.261932
0.759562 0.576816 0.271820
0.803003 0.587256 0.282486
0.844742 0.598923 0.292099
0.882992 0.610043 0.301837
0.917343 0.620690 0.311416
0.219161 0.514314 0.183973
0.277315 0.525467 0.193459
0.333287 0.536362 0.203609
0.386597 0.547411 0.213062
0.440809 0.559461 0.221645
0.491298 0.570890 0.232637
0.540126 0.582323 0.242182
0.588357 0.593689 0.252094
0.637271 0.605138 0.261969
0.686173 0.616349 0.271987
0.734074 0.626859 0.282401
0.778763 0.639059 0.291367
0.821829 0.649564 0.301382
0.860777 0.659473 0.310700
0.897735 0.670218 0.320682
0.930329 0.680060 0.329977
0.244568 0.576287 0.202674
0.301710 0.587663 0.212266
0.356556 0.599091 0.222245
0.410703 0.610433 0.231800
0.463107 0.621803 0.241201
0.512775 0.632932 0.251245
0.560922 0.644455 0.261677
0.609531 0.655608 0.271697
0.658430 0.666439 0.281523
0.706582 0.677030 0.291384
0.753263 0.688039 0.300856
0.796577 0.697653 0.310716
0.838629 0.707323 0.319650
0.875889 0.717423 0.330586
0.911377 0.726866 0.338923
0.942376 0.735936 0.347817
0.269776 0.638655 0.221760
0.326043 0.649731 0.231557
0.381146 0.661235 0.241267
0.433759 0.672365 0.252064
0.485408 0.682679 0.260803
0.532935 0.693926 0.270718
0.581777 0.704226 0.281231
0.630545 0.714501 0.291096
0.679093 0.724635 0.300821
0.726387 0.734515 0.310546
0.772063 0.744125 0.320145
0.814626 0.753038 0.328825
0.854205 0.761806 0.338130
0.890226 0.770604 0.347638
0.923912 0.779277 0.356318
0.952913 0.787100 0.364857
0.294638 0.698969 0.241196
0.350048 0.709624 0.251071
0.403212 0.720439 0.260650
0.456631 0.730034 0.271514
0.506298 0.740769 0.281202
0.554662 0.750022 0.290914
0.602420 0.760271 0.300572
0.650974 0.769518 0.310243
0.698993 0.778646 0.319706
0.745216 0.787437 0.329082
0.789158 0.796095 0.337959
0.830862 0.803906 0.347330
0.869212 0.812013 0.356550
0.903417 0.819733 0.364514
0.935013 0.826532 0.372722
0.962344 0.833216 0.380649
0.318993 0.755920 0.260745
0.373646 0.765724 0.270714
0.426241 0.775361 0.280162
0.477043 0.784153 0.290092
0.526644 0.794042 0.300098
0.574478 0.803114 0.309482
0.622522 0.811459 0.319413
0.670644 0.819605 0.328779
0.717759 0.827564 0.338041
0.762871 0.835227 0.347000
0.805466 0.842081 0.355241
0.845200 0.849709 0.364218
0.881278 0.855531 0.372900
0.915281 0.861804 0.381218
0.945012 0.868029 0.388018
0.970554 0.873434 0.395373
0.342683 0.808118 0.280186
0.396396 0.816924 0.289963
0.447670 0.825442 0.299541
0.499038 0.833325 0.310325
0.546052 0.841303 0.319340
0.593291 0.849333 0.328389
0.641822 0.856692 0.337593
0.689476 0.863764 0.346633
0.735583 0.870431 0.355439
0.779285 0.876641 0.363897
0.820636 0.882905 0.371600
0.858246 0.888155 0.380074
0.893668 0.893013 0.387803
0.925061 0.898204 0.394401
0.953727 0.902600 0.401943
0.977551 0.906820 0.408480
0.054695 0.040050 0.082032
0.090833 0.042681 0.085670
0.131239 0.045399 0.089884
0.181535 0.048940 0.093712
0.236957 0.052855 0.099336
0.289695 0.056326 0.105656
0.341269 0.060699 0.110938
0.391715 0.065292 0.117248
0.441243 0.070206 0.123825
0.489477 0.075517 0.130776
0.536340 0.081262 0.138488
0.582521 0.088030 0.145408
0.630072 0.093870 0.153244
0.677157 0.101525 0.160830
0.724330 0.109077 0.169873
0.769187 0.117184 0.178456
0.063386 0.067790 0.089633
0.100622 0.071499 0.094213
0.144915 0.074926 0.098947
0.198172 0.079794 0.104749
0.253400 0.085053 0.111002
0.306339 0.091056 0.116904
0.358184 0.096280 0.123622
0.409050 0.102698 0.130550
0.458669 0.109645 0.137749
0.506969 0.117030 0.145313
0.553608 0.125381 0.152365
0.601025 0.132686 0.160947
0.648637 0.140375 0.169426
0.696054 0.149288 0.178447
0.742989 0.158021 0.187050
0.787331 0.166863 0.196014
0.073350 0.102900 0.099196
0.112423 0.108347 0.104675
0.160200 0.115223 0.110810
0.216106 0.120728 0.117314
0.271325 0.127022 0.123887
0.324059 0.133561 0.130388
0.376530 0.141486 0.137505
0.427396 0.149068 0.145030
0.477104 0.156976 0.152872
0.525161 0.165123 0.160944
0.571963 0.173382 0.169513
0.620155 0.182566 0.177561
0.668469 0.191188 0.187393
0.716023 0.200737 0.195828
0.761893 0.209538 0.204946
0.805455 0.219002 0.214378
0.084780 0.146292 0.110374
0.126391 0.152748 0.116625
0.178865 0.159504 0.122988
0.235169 0.167021 0.129226
0.290375 0.174918 0.136960
0.342945 0.182212 0.144016
0.395859 0.190106 0.152613
0.446799 0.198464 0.160685
0.496315 0.207082 0.169025
0.544040 0.215955 0.177632
0.592008 0.225317 0.186637
0.639937 0.235189 0.195223
0.688426 0.244308 0.204064
0.735671 0.254360 0.213832
0.781003 0.263368 0.223613
0.823546 0.273360 0.233374
0.097890 0.192823 0.122961
0.142896 0.200142 0.129853
0.199030 0.207921 0.136585
0.255362 0.215193 0.144491
0.310267 0.224294 0.153125
0.363728 0.232382 0.159669
0.416066 0.241333 0.168718
0.466866 0.250437 0.177327
0.516037 0.259757 0.186126
0.563649 0.269189 0.195141
0.611571 0.278709 0.204711
0.660443 0.289158 0.213699
0.708991 0.299285 0.223364
0.755121 0.308579 0.233296
0.799754 0.319080 0.242849
0.841340 0.329378 0.252787
0.112864 0.242173 0.136804
0.162275 0.250257 0.144293
0.221006 0.258067 0.151420
0.277991 0.267172 0.159914
0.332171 0.276079 0.168189
0.384939 0.285810 0.176272
0.437007 0.294955 0.185820
0.487421 0.304605 0.194895
0.536115 0.314476 0.204105
0.583953 0.324399 0.213445
0.632468 0.334201 0.222642
0.680680 0.345118 0.231945
0.729280 0.355225 0.242984
0.774858 0.365558 0.253020
0.818362 0.375772 0.262435
0.858465 0.386142 0.272455
0.130144 0.294022 0.151857
0.184670 0.302780 0.159877
0.243483 0.311774 0.168505
0.298806 0.321539 0.176486
0.353166 0.330720 0.186205
0.406432 0.340821 0.194566
0.458345 0.350341 0.203765
0.508317 0.360431 0.213125
0.556427 0.370575 0.222673
0.604867 0.380829 0.232412
0.653653 0.391111 0.242180
0.702360 0.401289 0.251888
0.750043 0.411186 0.261875
0.793954 0.421555 0.271880
0.836412 0.432558 0.282299
0.875121 0.442899 0.292271
0.150056 0.347857 0.167915
0.208576 0.357254 0.176483
0.266527 0.366382 0.184509
0.321670 0.376832 0.194065
0.376827 0.386143 0.203878
0.428945 0.396417 0.212522
0.479971 0.406617 0.222411
0.529115 0.416822 0.232031
0.577236 0.427196 0.241882
0.626178 0.437488 0.251825
0.675217 0.448485 0.262361
0.723481 0.458751 0.272279
0.768912 0.469843 0.282774
0.813062 0.480723 0.291768
0.853717 0.490997 0.302123
0.890995 0.501858 0.312142
0.172984 0.402979 0.184961
0.232846 0.412719 0.193940
0.290166 0.422328 0.203563
0.345108 0.433076 0.212529
0.399094 0.443473 0.222058
0.451462 0.453198 0.230948
0.501500 0.463702 0.241549
0.550030 0.474407 0.251462
0.598484 0.485340 0.261466
0.647629 0.496403 0.271555
0.696314 0.507409 0.280854
0.743951 0.518466 0.291958
0.788848 0.529223 0.301533
0.830260 0.540304 0.311436
0.870213 0.552258 0.321862
0.905887 0.563226 0.331746
0.198320 0.458871 0.202797
0.257309 0.469285 0.212227
0.314215 0.479077 0.222372
0.368929 0.490460 0.230738
0.422237 0.501984 0.241672
0.472920 0.512298 0.250752
0.522916 0.524007 0.261125
0.571143 0.535319 0.271192
0.619916 0.546705 0.281316
0.669015 0.558171 0.291449
0.717592 0.569633 0.301693
0.763388 0.579999 0.311820
0.806798 0.592195 0.322011
0.848160 0.602841 0.331616
0.885807 0.613988 0.341283
0.919784 0.624606 0.350866
0.223860 0.518323 0.221411
0.281885 0.529552 0.231123
0.337337 0.540346 0.240912
0.391878 0.551549 0.250602
0.444957 0.563667 0.260549
0.494424 0.575045 0.270663
0.544027 0.586524 0.280981
0.592273 0.597874 0.291046
0.641315 0.609228 0.301178
0.690004 0.620516 0.311197
0.737861 0.631952 0.321500
0.782475 0.643155 0.331495
0.824599 0.653225 0.340905
0.864056 0.663088 0.350205
0.900393 0.673831 0.360119
0.932592 0.683694 0.369384
0.249294 0.580450 0.240587
0.306275 0.591870 0.250463
0.361889 0.603253 0.261058
0.414813 0.615629 0.269896
0.467354 0.625839 0.280436
0.515893 0.637877 0.290549
0.564902 0.648552 0.300807
0.613466 0.659564 0.310924
0.662348 0.670324 0.320868
0.710464 0.680960 0.330794
0.756988 0.690974 0.340116
0.800231 0.701527 0.350035
0.841026 0.711550 0.359067
0.878661 0.721497 0.368857
0.913638 0.730136 0.378284
0.944229 0.739039 0.387052
0.274432 0.642680 0.260138
0.330539 0.653964 0.270153
0.384038 0.665280 0.280554
0.437805 0.676514 0.290539
0.489495 0.687371 0.300244
0.538104 0.697691 0.311187
0.585628 0.707932 0.320568
0.634393 0.718292 0.330468
0.682816 0.728288 0.340264
0.730079 0.737991 0.349976
0.774703 0.747691 0.359497
0.817187 0.756497 0.368167
0.856375 0.764776 0.377368
0.892903 0.773482 0.386607
0.925974 0.782229 0.395487
0.954660 0.789943 0.403739
0.299167 0.702803 0.280003
0.354489 0.713437 0.290038
0.408457 0.724309 0.299355
0.460665 0.734013 0.309391
0.510305 0.744130 0.319696
0.558642 0.754487 0.330443
0.606181 0.763579 0.339987
0.654681 0.772924 0.349700
0.702531 0.781868 0.359192
0.748575 0.790724 0.368545
0.792630 0.799355 0.377377
0.833202 0.807161 0.386731
0.871336 0.814593 0.394492
0.905845 0.822068 0.404172
0.937061 0.829050 0.411588
0.963924 0.835639 0.419296
0.323465 0.759471 0.299832
0.377969 0.769252 0.309927
0.431409 0.778897 0.320153
0.482111 0.788706 0.330222
0.530539 0.797088 0.339673
0.578321 0.806165 0.349022
0.626219 0.814508 0.358883
0.674338 0.822553 0.368249
0.721312 0.830523 0.377384
0.766021 0.837970 0.386225
0.807896 0.844988 0.394498
0.847289 0.852462 0.403391
0.883963 0.857419 0.411481
0.917649 0.864573 0.419524
0.946775 0.869999 0.426549
0.971974 0.875133 0.433599
0.347008 0.811338 0.319480
0.400618 0.820037 0.329405
0.452751 0.828752 0.339743
0.501855 0.836491 0.349694
0.549842 0.844849 0.358777
0.597812 0.851741 0.367697
0.645404 0.859292 0.376978
0.692817 0.866231 0.385872
0.738650 0.872550 0.394506
0.782231 0.878910 0.402926
0.823584 0.885056 0.410633
0.861106 0.889459 0.419028
0.896028 0.895415 0.426143
0.927207 0.900253 0.433548
0.955129 0.904104 0.440193
0.978823 0.907906 0.446613
0.056232 0.040995 0.113583
0.092491 0.043742 0.117859
0.133693 0.047118 0.121996
0.185462 0.050820 0.127310
0.238965 0.054360 0.132653
0.291867 0.057951 0.139280
0.344253 0.062320 0.145197
0.394839 0.067057 0.151804
0.444378 0.072125 0.158696
0.492697 0.077557 0.165923
0.539262 0.084328 0.173236
0.585544 0.090244 0.181477
0.632571 0.096620 0.190101
0.681535 0.103417 0.197942
0.727644 0.112042 0.206636
0.772505 0.120260 0.215467
0.065117 0.069125 0.122403
0.102635 0.072962 0.127468
0.146204 0.077266 0.132887
0.200830 0.082314 0.138987
0.255827 0.087191 0.144927
0.308692 0.093368 0.151120
0.361569 0.098558 0.158473
0.412340 0.105169 0.165670
0.462030 0.112303 0.173262
0.510249 0.119786 0.181110
0.556808 0.126894 0.188787
0.604082 0.136528 0.197652
0.652294 0.143653 0.206902
0.700317 0.152579 0.215128
0.746445 0.161260 0.224406
0.790552 0.170118 0.233640
0.075361 0.104800 0.132746
0.114854 0.110455 0.138570
0.163247 0.117164 0.144243
0.219039 0.122825 0.152136
0.275276 0.129784 0.157409
0.328040 0.137582 0.165271
0.380053 0.144229 0.172998
0.430976 0.151958 0.180837
0.480643 0.159916 0.188988
0.528641 0.168191 0.197384
0.576294 0.176324 0.205492
0.623419 0.185618 0.214895
0.672171 0.193573 0.224365
0.719388 0.204249 0.233061
0.765384 0.212960 0.242838
0.808828 0.222501 0.252530
0.087077 0.148607 0.144574
0.129283 0.155229 0.151098
0.182272 0.162898 0.158122
0.239754 0.169489 0.165670
0.293271 0.176888 0.172133
0.346954 0.185348 0.180534
0.399648 0.193153 0.188724
0.450440 0.201548 0.197087
0.499911 0.210316 0.205739
0.547677 0.219274 0.214610
0.595391 0.228511 0.224266
0.643387 0.238485 0.233093
0.693038 0.247980 0.242511
0.739175 0.256970 0.251480
0.784397 0.267012 0.261967
0.826879 0.277005 0.271930
0.100523 0.195455 0.157779
0.146313 0.202901 0.164973
0.202540 0.210540 0.172340
0.260135 0.219014 0.180539
0.314542 0.227611 0.187836
0.367828 0.235748 0.196790
0.419917 0.244652 0.205408
0.470655 0.253798 0.214323
0.519740 0.263210 0.223425
0.567264 0.272771 0.232746
0.616080 0.282150 0.242932
0.664873 0.292707 0.252226
0.712628 0.301979 0.262262
0.758551 0.312379 0.271384
0.803285 0.322814 0.281646
0.844634 0.333167 0.291790
0.115891 0.245087 0.172253
0.166261 0.253355 0.180044
0.224600 0.260975 0.187805
0.281586 0.271303 0.196583
0.335284 0.279618 0.205616
0.389172 0.288363 0.213944
0.440983 0.298473 0.223128
0.491299 0.308228 0.232426
0.539838 0.318116 0.241928
0.587756 0.328061 0.251585
0.637000 0.338861 0.261387
0.685159 0.348788 0.271020
0.732809 0.359035 0.281243
0.778158 0.369488 0.291450
0.821700 0.379580 0.301624
0.861746 0.390010 0.311799
0.133585 0.297236 0.187889
0.189076 0.306139 0.196254
0.247157 0.315000 0.204415
0.303792 0.324873 0.213782
0.357542 0.334395 0.223090
0.410597 0.343522 0.231790
0.462359 0.354062 0.241564
0.512168 0.364169 0.251256
0.560321 0.374330 0.261021
0.608774 0.384612 0.271019
0.657298 0.394785 0.281430
0.706094 0.405111 0.291403
0.753294 0.416130 0.301408
0.797952 0.425434 0.311499
0.839550 0.436452 0.321733
0.878095 0.446770 0.331815
0.154137 0.351280 0.204597
0.213074 0.360760 0.213437
0.270431 0.370825 0.223147
0.325514 0.380276 0.230900
0.379946 0.389963 0.241265
0.433168 0.400188 0.251178
0.483938 0.410372 0.260725
0.533069 0.420574 0.270604
