example_ofxGpuLutCube/bin/data/ofxGpuLutCube/LUT/U12 (soft reddish tint).cube
LUT_3D_SIZE 6
0.051761 0.038377 0.033046
0.176928 0.046125 0.041827
0.335297 0.057546 0.052902
0.483221 0.071578 0.067101
0.622677 0.088529 0.085271
0.762435 0.111207 0.107553
0.080386 0.141804 0.052527
0.227567 0.161180 0.066573
0.388571 0.184160 0.084361
0.536896 0.209427 0.106785
0.681040 0.237074 0.131970
0.816788 0.265952 0.158794
0.123346 0.287657 0.083704
0.291456 0.315117 0.105284
0.450347 0.343128 0.131117
0.597037 0.373337 0.158006
0.742112 0.404657 0.185860
0.868964 0.435352 0.215098
0.188812 0.451461 0.130220
0.359767 0.482805 0.156777
0.514964 0.515761 0.185258
0.661036 0.549794 0.214219
0.800978 0.583232 0.243392
0.914899 0.616788 0.272346
0.265141 0.634557 0.184258
0.428563 0.668346 0.213435
0.577917 0.700282 0.242495
0.722897 0.730713 0.271393
0.850864 0.759695 0.299873
0.950948 0.784310 0.325698
0.338299 0.804790 0.241450
0.495117 0.831094 0.270565
0.638336 0.854038 0.298363
0.776225 0.874365 0.324832
0.892064 0.891127 0.349287
0.976453 0.905026 0.370226
0.056232 0.040995 0.113583
0.185462 0.050820 0.127310
0.344253 0.062320 0.145197
0.492697 0.077557 0.165923
0.632571 0.096620 0.190101
0.772505 0.120260 0.215467
0.087077 0.148607 0.144574
0.239754 0.169489 0.165670
0.399648 0.193153 0.188724
0.547677 0.219274 0.214610
0.693038 0.247980 0.242511
0.826879 0.277005 0.271930
0.133585 0.297236 0.187889
0.303792 0.324873 0.213782
0.462359 0.354062 0.241564
0.608774 0.384612 0.271019
0.753294 0.416130 0.301408
0.878095 0.446770 0.331815
0.203086 0.462664 0.240608
0.372940 0.494296 0.269723
0.526857 0.528142 0.300293
0.672968 0.562330 0.330947
0.810573 0.596155 0.361626
0.922336 0.628414 0.390384
0.279050 0.646741 0.299240
0.441869 0.680560 0.329735
0.589492 0.711718 0.360210
0.733478 0.741570 0.389426
0.859400 0.768607 0.417254
0.956569 0.792844 0.442568
0.351354 0.814628 0.359114
0.505613 0.839618 0.389240
0.648899 0.861908 0.416099
0.785036 0.880931 0.441690
0.898379 0.895949 0.465680
0.979968 0.909428 0.486303
0.061029 0.044043 0.217326
0.194634 0.054535 0.234789
0.353783 0.067521 0.254107
0.502401 0.084075 0.277505
0.643627 0.104292 0.303745
0.782687 0.129667 0.331543
0.094358 0.155908 0.253440
0.250843 0.178152 0.276122
0.410889 0.202448 0.302534
0.558523 0.229368 0.330624
0.703136 0.258043 0.360343
0.836837 0.288153 0.390590
0.144662 0.307032 0.301650
0.316461 0.335981 0.329057
0.474435 0.365153 0.359200
0.620734 0.395982 0.389650
0.764363 0.426531 0.419607
0.887130 0.458325 0.450988
0.217476 0.474241 0.358238
0.386258 0.506961 0.388455
0.538655 0.540620 0.419260
0.684765 0.574791 0.450016
0.820755 0.607831 0.481513
0.929452 0.639786 0.511543
0.292946 0.659083 0.418251
0.455212 0.691826 0.449629
0.601020 0.722952 0.480043
0.744081 0.751814 0.510690
0.867642 0.778052 0.540225
0.961752 0.800852 0.566793
0.364183 0.824136 0.478909
0.517000 0.847870 0.509147
0.659201 0.869241 0.538852
0.793423 0.887022 0.565951
0.903401 0.902166 0.590083
0.983140 0.913284 0.610169
0.066288 0.047523 0.328902
0.202576 0.058627 0.347862
0.363712 0.073159 0.369614
0.512431 0.091096 0.394422
0.654610 0.113776 0.421260
0.792861 0.139288 0.450242
0.102187 0.163602 0.368804
0.262315 0.186166 0.393972
0.422421 0.212064 0.420390
0.569742 0.239716 0.449169
0.714938 0.268238 0.479912
0.846511 0.299395 0.512863
0.156726 0.317203 0.419518
0.329240 0.346246 0.447880
0.486496 0.376361 0.479188
0.632683 0.407385 0.511834
0.776043 0.438133 0.545525
0.895641 0.469784 0.578311
0.231630 0.485910 0.478144
0.398531 0.518956 0.509894
0.550413 0.553223 0.544082
0.696253 0.587175 0.577316
0.829818 0.620198 0.610004
0.936304 0.650936 0.639624
0.306703 0.671259 0.543007
0.467242 0.703664 0.576004
0.612344 0.733747 0.608420
0.754151 0.761679 0.638703
0.875241 0.786098 0.666219
0.966486 0.808235 0.690627
0.376661 0.833206 0.607323
0.528120 0.855759 0.637512
0.669134 0.876242 0.665243
0.801235 0.892868 0.689929
0.909024 0.905990 0.711038
0.986086 0.916491 0.728121
0.071889 0.051318 0.443099
0.213998 0.063993 0.463503
0.374028 0.079278 0.487796
0.522661 0.098793 0.515217
0.665773 0.122429 0.545639
0.802973 0.149157 0.577266
0.110689 0.171671 0.486888
0.274031 0.195623 0.514635
0.434211 0.222024 0.544309
0.581157 0.250329 0.576303
0.725859 0.280600 0.608392
0.856249 0.310675 0.642160
0.169700 0.327600 0.543299
0.342243 0.356911 0.574665
0.498545 0.387675 0.608010
0.644669 0.418794 0.641061
0.785730 0.450672 0.673217
0.903968 0.481464 0.704077
0.245944 0.498010 0.607039
0.411863 0.532104 0.639953
0.562026 0.565698 0.672239
0.707646 0.599445 0.703106
0.838371 0.632213 0.731941
0.942768 0.661498 0.758037
0.320179 0.683216 0.671167
0.478210 0.715499 0.701530
0.623482 0.744287 0.731089
0.763783 0.771122 0.757333
0.882593 0.795505 0.780591
0.970944 0.815389 0.800670
0.388969 0.842096 0.729929
0.538917 0.864091 0.755834
0.678691 0.882706 0.779872
0.808731 0.898192 0.799955
0.914145 0.911198 0.815912
0.988616 0.919722 0.829562
0.077999 0.055541 0.565223
0.224240 0.068919 0.588443
0.384558 0.085910 0.614434
0.533099 0.107173 0.642820
0.676930 0.132380 0.672030
0.813057 0.159201 0.703021
0.119798 0.180132 0.613543
0.287491 0.204383 0.641634
0.446048 0.232182 0.671609
0.592643 0.261054 0.701812
0.737325 0.290879 0.732176
0.865634 0.322056 0.761514
0.183617 0.338161 0.670604
0.354094 0.368670 0.701360
0.510583 0.399080 0.731146
0.656631 0.430147 0.760441
0.796724 0.461248 0.789024
0.911855 0.493045 0.813934
0.259969 0.510163 0.730243
0.424101 0.543355 0.758780
0.573641 0.578107 0.787488
0.718844 0.611383 0.813136
0.847308 0.642828 0.836471
0.948903 0.671908 0.856676
0.333683 0.695127 0.786784
0.489925 0.726137 0.812176
0.634489 0.754544 0.835628
0.773132 0.780269 0.855981
0.889547 0.802537 0.872870
0.975037 0.821981 0.886984
0.400736 0.850393 0.834823
0.548440 0.871196 0.855792
0.687880 0.888829 0.872505
0.815613 0.903049 0.886609
0.918924 0.913431 0.897322
0.990235 0.921732 0.904922
