example_ofxGpuLutCube/bin/data/ofxGpuLutCube/LUT/U13 (soft violet tint).cube
LUT_3D_SIZE 16
0.037908 0.034223 0.057883
0.067161 0.036393 0.061642
0.101159 0.039059 0.066407
0.143956 0.041401 0.070425
0.193238 0.044949 0.074985
0.244073 0.047986 0.080513
0.292458 0.052054 0.085625
0.340405 0.056120 0.091523
0.387732 0.060492 0.097752
0.434047 0.065231 0.104368
0.479789 0.070629 0.112106
0.524475 0.075802 0.117996
0.569265 0.081274 0.127395
0.615495 0.088241 0.135487
0.661830 0.095311 0.144979
0.706138 0.102931 0.154896
0.044510 0.059335 0.065654
0.074772 0.062556 0.070057
0.111345 0.065919 0.075643
0.158454 0.070216 0.080360
0.209532 0.074161 0.086189
0.259273 0.079444 0.091371
0.308147 0.084529 0.097565
0.356452 0.090216 0.104159
0.404032 0.096528 0.111254
0.450560 0.103264 0.118765
0.496139 0.110797 0.126509
0.541057 0.118959 0.135759
0.588172 0.126682 0.145053
0.633999 0.134434 0.155602
0.679980 0.143302 0.164689
0.723968 0.152068 0.175009
0.052194 0.091456 0.074704
0.084023 0.096322 0.079793
0.122850 0.102026 0.085326
0.173293 0.107205 0.090751
0.225773 0.114358 0.097739
0.275737 0.120759 0.103771
0.325016 0.127770 0.110957
0.373735 0.135224 0.118529
0.421463 0.142900 0.126601
0.467967 0.150840 0.135169
0.512587 0.158279 0.144130
0.559544 0.167233 0.153246
0.605789 0.176023 0.164638
0.653572 0.185453 0.174178
0.698635 0.194354 0.184983
0.741813 0.203735 0.195449
0.061131 0.133529 0.085122
0.095222 0.139707 0.090920
0.138526 0.146792 0.097492
0.190806 0.152909 0.103679
0.243423 0.160651 0.111027
0.293324 0.168838 0.119127
0.343217 0.175868 0.126276
0.392013 0.184005 0.134895
0.439668 0.192450 0.144138
0.485917 0.201084 0.153917
0.531785 0.210665 0.163779
0.579534 0.219244 0.174646
0.626221 0.228654 0.184690
0.672046 0.238460 0.195505
0.717349 0.247678 0.205629
0.759683 0.257419 0.216120
0.071444 0.179414 0.096940
0.108581 0.186462 0.103502
0.156159 0.193421 0.110105
0.209406 0.201529 0.117076
0.261942 0.209468 0.126240
0.312821 0.218381 0.134272
0.362255 0.226483 0.143738
0.411058 0.235345 0.153609
0.458542 0.244461 0.163754
0.504649 0.253707 0.174015
0.550652 0.263379 0.184129
0.598307 0.272569 0.194038
0.646545 0.283048 0.204951
0.692112 0.292181 0.215747
0.736039 0.302784 0.226482
0.777331 0.312926 0.236961
0.083411 0.227988 0.110295
0.124448 0.235846 0.117746
0.176577 0.244908 0.125501
0.230343 0.252713 0.134670
0.282463 0.261631 0.143765
0.332854 0.271086 0.154179
0.382088 0.279408 0.163413
0.430642 0.288798 0.173629
0.477840 0.298458 0.183997
0.524133 0.308280 0.194494
0.571881 0.318107 0.204948
0.618741 0.328915 0.215115
0.665638 0.338551 0.225264
0.710944 0.348836 0.236063
0.754327 0.359003 0.247376
0.794539 0.369268 0.257890
0.097297 0.279022 0.125451
0.143137 0.287635 0.134046
0.197391 0.296680 0.142899
0.250949 0.306289 0.152048
0.302273 0.315614 0.163293
0.353270 0.324477 0.172775
0.402420 0.334153 0.183677
0.450682 0.343990 0.194089
0.497440 0.354020 0.204621
0.544289 0.364155 0.215224
0.591434 0.374426 0.226160
0.639851 0.384522 0.236446
0.686187 0.395163 0.246659
0.729887 0.405444 0.258473
0.772400 0.415413 0.268225
0.811247 0.425656 0.278645
0.113556 0.332129 0.142784
0.164694 0.341345 0.152646
0.218839 0.350585 0.162414
0.271122 0.360783 0.173412
0.323618 0.369513 0.183298
0.373807 0.379622 0.192916
0.423167 0.389852 0.204270
0.470887 0.399898 0.214798
0.517485 0.410083 0.225429
0.564858 0.420262 0.236055
0.613397 0.430210 0.246399
0.660442 0.441402 0.256754
0.705939 0.450920 0.267760
0.749170 0.462683 0.278292
0.789702 0.472927 0.288840
0.827265 0.483642 0.299134
0.132565 0.386455 0.162368
0.187258 0.396119 0.172647
0.242210 0.405706 0.182802
0.294345 0.415279 0.192749
0.344919 0.424959 0.204773
0.395448 0.435470 0.215625
0.443963 0.446047 0.225114
0.491148 0.456534 0.235668
0.538007 0.467282 0.246335
0.585755 0.478064 0.256952
0.633882 0.489218 0.266786
0.680411 0.499954 0.278274
0.725007 0.511605 0.288538
0.767503 0.522543 0.298761
0.806436 0.533354 0.309174
0.842443 0.544276 0.319223
0.154579 0.441609 0.182621
0.210173 0.451701 0.193112
0.263626 0.462644 0.202383
0.315709 0.472699 0.213793
0.366080 0.483488 0.225018
0.416983 0.494648 0.234711
0.464706 0.505325 0.245993
0.511389 0.516484 0.256589
0.558788 0.527723 0.267134
0.606686 0.539048 0.277688
0.654626 0.550416 0.288214
0.700469 0.561683 0.298566
0.744120 0.572136 0.308719
0.783904 0.583776 0.318679
0.822346 0.594689 0.328959
0.856668 0.605322 0.338753
0.178469 0.499968 0.203233
0.233158 0.510792 0.213723
0.285493 0.521745 0.224800
0.338508 0.532556 0.234990
0.388092 0.544327 0.245167
0.437771 0.555723 0.256018
0.485261 0.566953 0.266767
0.531969 0.578345 0.277353
0.579672 0.589601 0.287789
0.627475 0.600877 0.298159
0.674553 0.612090 0.308416
0.719430 0.623306 0.318611
0.761041 0.633986 0.328231
0.800845 0.643812 0.338828
0.837131 0.654408 0.348127
0.869774 0.664194 0.357493
0.202300 0.561110 0.224018
0.256330 0.572354 0.234604
0.309931 0.583715 0.245031
0.360519 0.594887 0.255335
0.409677 0.606178 0.266364
0.458550 0.617174 0.277012
0.505515 0.628632 0.287473
0.552607 0.639554 0.297880
0.600316 0.650404 0.308106
0.647685 0.661072 0.318298
0.693421 0.671756 0.328363
0.737173 0.681456 0.338394
0.777892 0.692346 0.348028
0.815651 0.701392 0.357068
0.850798 0.710687 0.366562
0.881727 0.719668 0.375481
0.226108 0.622865 0.244898
0.279441 0.633933 0.255491
0.331067 0.644308 0.266505
0.381495 0.656294 0.276840
0.431113 0.666608 0.287113
0.479113 0.677912 0.296453
0.525696 0.687944 0.307770
0.573087 0.698235 0.317993
0.620605 0.708259 0.327965
0.667268 0.717906 0.337779
0.712030 0.727491 0.347858
0.754204 0.736224 0.357490
0.793373 0.746534 0.366697
0.829445 0.754548 0.375297
0.863261 0.762873 0.383979
0.892587 0.770866 0.392440
0.249589 0.682691 0.265763
0.302284 0.693178 0.276277
0.354381 0.703981 0.286897
0.403500 0.714344 0.297173
0.452396 0.724366 0.307431
0.499245 0.733696 0.317369
0.545808 0.743622 0.327691
0.593167 0.752892 0.337438
0.640175 0.761990 0.347161
0.685958 0.770819 0.356614
0.728987 0.779239 0.365733
0.770374 0.787053 0.375008
0.808608 0.795593 0.384278
0.842723 0.802549 0.392291
0.874694 0.809975 0.400364
0.902168 0.816874 0.408229
0.272772 0.739160 0.286435
0.324789 0.748972 0.296751
0.375425 0.758405 0.307112
0.425323 0.768141 0.317239
0.472116 0.776377 0.326877
0.518673 0.786524 0.337607
0.565462 0.794561 0.346793
0.612588 0.802829 0.356337
0.658912 0.810835 0.365646
0.703449 0.818357 0.374606
0.745223 0.825134 0.383968
0.784671 0.832705 0.391757
0.821643 0.838965 0.399641
0.854694 0.845270 0.408003
0.884864 0.851357 0.415515
0.910469 0.856695 0.422796
0.295331 0.791027 0.306697
0.346627 0.799904 0.316817
0.397134 0.808206 0.326966
0.445553 0.816995 0.336916
0.492166 0.824500 0.346581
0.538087 0.832517 0.355826
0.584505 0.839689 0.365157
0.631109 0.846758 0.374251
0.676564 0.853497 0.383066
0.719673 0.859707 0.391549
0.760426 0.864856 0.400097
0.798692 0.871111 0.407503
0.834114 0.876312 0.415555
0.865628 0.881503 0.422164
0.893719 0.885803 0.429298
0.917791 0.890036 0.435818
0.039076 0.034974 0.089664
0.068484 0.037282 0.093579
0.102067 0.040505 0.098031
0.145995 0.043015 0.103206
0.196363 0.046285 0.108171
0.247300 0.049434 0.113434
0.295244 0.053505 0.119666
0.343314 0.057707 0.126402
0.390631 0.062209 0.133601
0.437094 0.067090 0.141495
0.482518 0.072506 0.150259
0.527361 0.077827 0.158500
0.572944 0.084790 0.168434
0.619868 0.090935 0.178442
0.665340 0.098098 0.187403
0.709381 0.105874 0.197136
0.045840 0.060491 0.097693
0.076365 0.063852 0.102466
0.113581 0.068011 0.107521
0.160858 0.071599 0.112514
0.211630 0.076041 0.120057
0.261475 0.081538 0.125114
0.311199 0.086560 0.133386
0.359587 0.092486 0.141254
0.407249 0.098936 0.149694
0.453717 0.105912 0.158633
0.499158 0.113349 0.167997
0.545068 0.120515 0.176666
0.590887 0.129871 0.187057
0.637428 0.137680 0.197423
0.683425 0.146459 0.206688
0.727232 0.155292 0.216787
0.053747 0.093155 0.107481
0.085974 0.098195 0.113108
0.125383 0.103834 0.120120
0.177349 0.110319 0.126061
0.229509 0.117095 0.132820
0.278191 0.123531 0.140090
0.328374 0.130492 0.149427
0.377109 0.137975 0.158375
0.424789 0.145766 0.167649
0.471211 0.153835 0.177046
0.516729 0.162201 0.186649
0.562652 0.170206 0.197004
0.610310 0.179444 0.206370
0.655994 0.188918 0.215769
0.702093 0.197743 0.226674
0.745160 0.207164 0.236993
0.062922 0.135719 0.119080
0.097521 0.142085 0.125669
0.141372 0.148963 0.133605
0.194997 0.155281 0.140571
0.247211 0.162489 0.150276
0.297053 0.170842 0.157398
0.346634 0.178773 0.167279
0.395441 0.187075 0.176739
0.443194 0.195593 0.186400
0.489429 0.204325 0.196170
0.535109 0.213793 0.206066
0.581911 0.222457 0.216747
0.629821 0.231197 0.227219
0.676425 0.241139 0.236813
0.720807 0.251260 0.246991
0.762950 0.261133 0.257486
0.073580 0.181955 0.132706
0.111328 0.189130 0.140466
0.160875 0.197049 0.148001
0.213801 0.204163 0.157434
0.264699 0.212697 0.167015
0.316742 0.220631 0.177132
0.365850 0.229700 0.186039
0.414653 0.238647 0.195841
0.462100 0.247859 0.205793
0.508206 0.257201 0.215827
0.555011 0.266756 0.226145
0.602676 0.277090 0.235882
0.650067 0.286771 0.247120
0.695567 0.296967 0.256650
0.739412 0.306479 0.267550
0.780532 0.316621 0.277974
0.085873 0.230842 0.148564
0.127717 0.238790 0.157495
0.179969 0.247749 0.166891
0.233640 0.255642 0.175542
0.285378 0.264030 0.185725
0.335786 0.273577 0.196121
0.385836 0.282853 0.205424
0.434417 0.292311 0.215518
0.481479 0.302042 0.225687
0.527778 0.311936 0.236007
0.575321 0.321675 0.246643
0.622246 0.331489 0.256704
0.669150 0.342383 0.267063
0.714199 0.352653 0.278847
0.757883 0.362853 0.288160
0.797763 0.373030 0.298590
0.100193 0.282179 0.166450
0.146912 0.290878 0.175796
0.202251 0.299869 0.185491
0.254381 0.309534 0.195782
0.306508 0.318219 0.205059
0.356190 0.328132 0.215579
0.406324 0.337764 0.225380
0.454421 0.347626 0.235621
0.501140 0.357688 0.246005
0.548055 0.367850 0.256483
0.595941 0.378080 0.267593
0.643455 0.388151 0.276707
0.689474 0.397938 0.288121
0.734038 0.409217 0.297572
0.775600 0.419152 0.308761
0.814335 0.429365 0.319101
0.116885 0.335412 0.185035
0.168860 0.344750 0.194888
0.222446 0.353837 0.205965
0.275930 0.363161 0.215514
0.326639 0.373188 0.224688
0.377853 0.384336 0.235328
0.427018 0.393492 0.245675
0.474668 0.403596 0.256039
0.521223 0.413759 0.266521
0.568801 0.424070 0.277040
0.616933 0.433880 0.287627
0.664187 0.444170 0.297935
0.709246 0.455880 0.308934
0.753057 0.466636 0.318196
0.792908 0.476839 0.329172
0.830170 0.487574 0.339304
0.136485 0.390005 0.204425
0.191502 0.399656 0.214551
0.245973 0.409209 0.224788
0.298089 0.418825 0.234659
0.347999 0.429788 0.245746
0.399399 0.439390 0.255307
0.447847 0.449882 0.266210
0.494834 0.460418 0.276668
0.541841 0.471248 0.287173
0.589731 0.482145 0.297701
0.637530 0.493162 0.307814
0.684212 0.504006 0.318154
0.728095 0.515604 0.329277
0.770242 0.525567 0.338277
0.809513 0.537368 0.349169
0.845062 0.548270 0.359042
0.158995 0.445290 0.224302
0.214462 0.455513 0.234678
0.267434 0.466321 0.245292
0.319533 0.476514 0.255387
0.370248 0.487558 0.265735
0.421042 0.498772 0.276412
0.468591 0.509415 0.286853
0.515187 0.520590 0.297298
0.562707 0.531869 0.307749
0.610622 0.543136 0.318139
0.658369 0.554549 0.328028
0.703295 0.565763 0.338223
0.746119 0.576089 0.349130
0.787303 0.587651 0.358873
0.825168 0.598610 0.368676
0.859132 0.609142 0.378254
0.182912 0.503915 0.244581
0.237581 0.514945 0.255076
0.290549 0.525720 0.266196
0.341351 0.536710 0.276445
0.393234 0.548570 0.285661
0.441856 0.559895 0.297368
0.489086 0.571227 0.307447
0.535843 0.582490 0.317821
0.583511 0.593755 0.328064
0.631280 0.604888 0.338398
0.678266 0.615268 0.349018
0.722258 0.627313 0.358087
0.764690 0.637717 0.368176
0.803119 0.647445 0.377504
0.839710 0.658134 0.387437
0.872008 0.667871 0.396663
0.206751 0.565241 0.265179
0.260633 0.576476 0.275569
0.312669 0.587802 0.286315
0.364396 0.598993 0.296482
0.414681 0.610282 0.306424
0.462613 0.621269 0.316936
0.509211 0.632654 0.327762
0.556428 0.643682 0.338080
0.604156 0.654387 0.348112
0.651348 0.664896 0.358129
0.697091 0.675755 0.367676
0.739765 0.685182 0.377555
0.781214 0.694748 0.386453
0.818059 0.704775 0.397242
0.853258 0.714027 0.405449
0.883965 0.723025 0.414143
0.230460 0.626923 0.285800
0.283697 0.637884 0.296226
0.336108 0.649316 0.306499
0.386453 0.660235 0.317789
0.436157 0.670438 0.326865
0.482098 0.681587 0.337067
0.529463 0.691713 0.347826
0.576899 0.701900 0.357857
0.624342 0.711929 0.367636
0.670762 0.721657 0.377375
0.715514 0.731135 0.386922
0.757538 0.739918 0.395480
0.796670 0.748686 0.404674
0.832258 0.757358 0.413982
0.865647 0.765956 0.422447
0.894446 0.773560 0.430623
0.253933 0.686529 0.306417
0.306487 0.697065 0.316759
0.357190 0.707704 0.326704
0.408464 0.717227 0.337902
0.456315 0.727798 0.347795
0.503108 0.737032 0.357652
0.549537 0.747028 0.367339
0.596850 0.756225 0.377097
0.643785 0.765236 0.386467
0.689203 0.773890 0.395785
0.732404 0.782509 0.404478
0.773530 0.790187 0.413673
0.811540 0.798157 0.422606
0.845369 0.805773 0.430317
0.876750 0.812517 0.438224
0.903862 0.819103 0.445855
0.276999 0.742833 0.326811
0.328957 0.752445 0.337064
0.379293 0.761985 0.346732
0.428111 0.770692 0.356826
0.475966 0.780464 0.366927
0.522378 0.789446 0.376312
0.569138 0.797612 0.386168
0.616112 0.805648 0.395459
0.662279 0.813601 0.404556
0.706595 0.821077 0.413344
0.748423 0.827861 0.421366
0.787704 0.835396 0.430032
0.823337 0.841150 0.438373
0.857151 0.847349 0.446407
0.886599 0.853526 0.452874
0.912052 0.858768 0.459856
0.299480 0.794265 0.346763
0.350682 0.803016 0.356671
0.399863 0.811502 0.366381
0.449309 0.819216 0.377135
0.494778 0.827105 0.386143
0.540650 0.835026 0.395117
0.587972 0.842293 0.404107
0.634529 0.849289 0.412986
0.679699 0.855859 0.421516
0.722656 0.861938 0.429752
0.763509 0.868179 0.437154
0.800690 0.873348 0.445267
0.835710 0.878128 0.452705
0.866820 0.883216 0.458938
0.895209 0.887580 0.466087
0.918991 0.891756 0.472293
0.040245 0.035769 0.123352
0.069800 0.038202 0.127893
0.104084 0.040726 0.133110
0.148015 0.044016 0.137822
0.199606 0.047663 0.144671
0.249266 0.050906 0.152514
0.298150 0.055002 0.159116
0.346221 0.059314 0.166886
0.393683 0.063938 0.174894
0.440084 0.068949 0.183269
0.485369 0.074391 0.192445
0.530171 0.080804 0.200595
0.576452 0.086364 0.209701
0.622418 0.093671 0.218443
0.668718 0.100877 0.228759
0.712748 0.108846 0.238429
0.047232 0.061665 0.132796
0.078007 0.065156 0.138430
0.115901 0.068394 0.144197
0.163292 0.072994 0.151383
0.215048 0.077987 0.159183
0.265005 0.083682 0.166477
0.314253 0.088656 0.174649
0.362816 0.094775 0.183005
0.410421 0.101427 0.191578
0.456977 0.108686 0.200487
0.502127 0.117066 0.208692
0.548164 0.124390 0.218571
0.594571 0.132099 0.228234
0.640950 0.141029 0.238389
0.687011 0.149764 0.247981
0.730583 0.158606 0.257892
0.055338 0.094970 0.144501
0.087986 0.100182 0.151288
0.129234 0.106890 0.158946
0.180065 0.112403 0.166990
0.231945 0.118724 0.174983
0.281812 0.125266 0.182816
0.331688 0.133213 0.191296
0.380374 0.140801 0.200161
0.428189 0.148711 0.209294
0.474557 0.156861 0.218586
0.519932 0.165126 0.228344
0.566829 0.174288 0.237406
0.613960 0.182899 0.248374
0.660479 0.192447 0.257692
0.705598 0.201211 0.267661
0.748529 0.210661 0.277873
0.064768 0.138024 0.158410
0.099918 0.144487 0.166125
0.145650 0.151245 0.173901
0.197918 0.158744 0.181421
0.249905 0.166653 0.190646
0.299730 0.173939 0.198957
0.350208 0.181837 0.208984
0.398982 0.190155 0.218282
0.446684 0.198766 0.227789
0.492811 0.207600 0.237491
0.539380 0.216937 0.247544
0.586081 0.226775 0.257013
0.633522 0.235872 0.266688
0.679861 0.245878 0.277286
0.724358 0.254835 0.287799
0.766360 0.264783 0.298146
0.075701 0.184525 0.173863
0.114148 0.191832 0.182181
0.164101 0.199595 0.190205
0.216899 0.206850 0.199523
0.268718 0.215920 0.209592
0.319515 0.223966 0.217111
0.369504 0.232913 0.227438
0.418310 0.241974 0.237135
0.465734 0.251247 0.246954
0.511858 0.260640 0.256922
0.558446 0.270115 0.267393
0.606117 0.280502 0.277118
0.653655 0.290573 0.287500
0.699001 0.299795 0.298088
0.742835 0.310258 0.308133
0.783839 0.320496 0.318539
0.088364 0.233740 0.190456
0.131047 0.241791 0.199282
0.184667 0.249567 0.207601
0.238218 0.258624 0.217401
0.289517 0.267498 0.226834
0.339751 0.277158 0.235967
0.389639 0.286273 0.246622
0.438108 0.295894 0.256661
0.485167 0.305668 0.266731
0.531574 0.315541 0.276849
0.578827 0.325289 0.286745
0.625845 0.336135 0.296638
0.673621 0.346139 0.308272
0.718350 0.356424 0.318773
0.761125 0.366581 0.328551
0.800807 0.376848 0.338842
0.103133 0.285351 0.208118
0.150825 0.294075 0.217357
0.205741 0.303006 0.227194
0.257879 0.312700 0.236207
0.309458 0.321815 0.247061
0.360346 0.331863 0.256294
0.410101 0.341342 0.266375
0.458262 0.351362 0.276514
0.504874 0.361409 0.286758
0.551882 0.371569 0.297130
0.599465 0.381756 0.307444
0.647105 0.391872 0.317595
0.693902 0.401708 0.327969
0.737103 0.411969 0.338265
0.778989 0.422870 0.348928
0.817317 0.433124 0.359049
0.120376 0.338841 0.226534
0.173012 0.348193 0.236197
0.227400 0.357261 0.245161
0.279529 0.367570 0.255751
0.331995 0.376867 0.266484
0.381864 0.387022 0.275853
0.430893 0.397156 0.286477
0.478383 0.407250 0.296752
0.525031 0.417543 0.307136
0.572678 0.427779 0.317540
0.620587 0.438689 0.328484
0.667907 0.448860 0.338676
0.712514 0.459836 0.349397
0.756053 0.470618 0.358533
0.796115 0.480809 0.368975
0.832993 0.491559 0.378995
0.140449 0.393514 0.245681
0.195766 0.403206 0.255614
0.249712 0.412722 0.266154
0.301802 0.423385 0.275860
0.353250 0.433707 0.286102
0.403440 0.443342 0.295593
0.451695 0.453774 0.306779
0.498657 0.464385 0.317151
0.545683 0.475187 0.327548
0.593587 0.486164 0.337938
0.641244 0.497079 0.347464
0.687965 0.508004 0.358703
0.732153 0.518693 0.368385
0.772952 0.529601 0.378281
0.812440 0.541423 0.388639
0.847832 0.552352 0.398386
0.163427 0.448987 0.265306
0.218724 0.459305 0.275534
0.272469 0.469005 0.286442
0.324485 0.480246 0.295344
0.375451 0.491686 0.306903
0.424140 0.501889 0.316426
0.472392 0.513526 0.327189
0.519110 0.524673 0.337578
0.566579 0.535983 0.347895
0.614515 0.547276 0.358203
0.662099 0.558670 0.368496
0.707057 0.568919 0.378661
0.749794 0.580981 0.388750
0.790699 0.591513 0.398262
0.827871 0.602518 0.407752
0.861565 0.613019 0.417107
0.187349 0.507878 0.285416
0.241903 0.518994 0.295775
0.294425 0.529656 0.306100
0.346371 0.540696 0.316261
0.397229 0.552730 0.326608
0.444856 0.563995 0.337021
0.492799 0.575375 0.347557
0.539627 0.586595 0.357789
0.587442 0.597834 0.367995
0.635068 0.608991 0.378068
0.682009 0.620275 0.388283
0.725851 0.631417 0.398155
0.767328 0.641336 0.407384
0.806397 0.651092 0.416470
0.842295 0.661759 0.426102
0.874350 0.671517 0.435042
0.211195 0.569363 0.305758
0.264964 0.580658 0.316114
0.317787 0.591898 0.327132
0.368341 0.604157 0.336220
0.418793 0.614284 0.347004
0.465602 0.626192 0.357292
0.513067 0.636678 0.367623
0.560276 0.647595 0.377756
0.607968 0.658243 0.387643
0.655102 0.668747 0.397414
0.700829 0.678593 0.406602
0.743370 0.689074 0.416309
0.783613 0.699056 0.425048
0.820817 0.708757 0.434549
0.855531 0.717328 0.443547
0.885832 0.726162 0.451948
0.234863 0.630913 0.326164
0.287950 0.642030 0.336489
0.338917 0.653289 0.347148
0.390379 0.664354 0.357280
0.440131 0.675153 0.367041
0.487098 0.685263 0.378058
0.533191 0.695411 0.387353
0.580646 0.705565 0.397103
0.628004 0.715533 0.406783
0.674334 0.725159 0.416226
0.718191 0.734793 0.425486
0.760077 0.743402 0.433881
0.798768 0.751505 0.442672
0.834979 0.760138 0.451544
0.867716 0.768762 0.459988
0.896248 0.776406 0.467807
0.258241 0.690321 0.346573
0.310712 0.700883 0.356790
0.362238 0.711614 0.366166
0.412339 0.721154 0.376223
0.460209 0.731147 0.386450
0.506984 0.741447 0.397106
0.553199 0.750400 0.406444
0.600518 0.759648 0.415983
0.647298 0.768506 0.425161
0.692478 0.777178 0.434229
0.735848 0.785739 0.442679
0.775875 0.793445 0.451636
0.813587 0.800779 0.459011
0.847792 0.808177 0.468233
0.878748 0.815024 0.475219
0.905399 0.821485 0.482443
0.281234 0.746369 0.366652
0.333103 0.756068 0.376758
0.384270 0.765513 0.386934
0.432997 0.775191 0.396872
0.479778 0.783459 0.406130
0.526088 0.792386 0.415307
0.572734 0.800697 0.424905
0.619677 0.808652 0.433914
0.665722 0.816453 0.442684
0.709718 0.823889 0.451174
0.750874 0.830766 0.459049
0.789808 0.838132 0.467446
0.826072 0.843067 0.475104
0.859512 0.850127 0.482648
0.888438 0.855454 0.489238
0.913446 0.860473 0.495812
0.303617 0.797487 0.386256
0.354724 0.806184 0.396114
0.404741 0.814698 0.406264
0.452011 0.822356 0.415950
0.498465 0.830637 0.424776
0.545041 0.837417 0.433404
0.591459 0.844887 0.442297
0.637769 0.851650 0.450818
0.682702 0.857971 0.459080
0.725642 0.864228 0.467032
0.766396 0.870260 0.474321
0.803453 0.874592 0.482208
0.837992 0.880547 0.488834
0.868980 0.885279 0.495797
0.896728 0.889034 0.501946
0.920238 0.892845 0.507908
0.041476 0.036642 0.162380
0.071188 0.039190 0.167634
0.106190 0.042322 0.172669
0.151536 0.045763 0.179112
0.201503 0.049069 0.185530
0.251318 0.052425 0.193396
0.300986 0.056523 0.200363
0.349228 0.060973 0.208055
0.396704 0.065752 0.215998
0.443203 0.070878 0.224274
0.488199 0.077295 0.232544
0.533126 0.082911 0.241798
0.578911 0.088992 0.251389
0.626759 0.095470 0.260007
0.672020 0.103751 0.269481
0.716073 0.111928 0.279047
0.048629 0.062919 0.173186
0.079704 0.066542 0.179288
0.117027 0.070606 0.185808
0.165760 0.075386 0.193052
0.217333 0.080006 0.200046
0.267239 0.085875 0.207252
0.317454 0.090834 0.215750
0.365958 0.097143 0.223989
0.413690 0.104008 0.232587
0.460140 0.111457 0.241374
0.505210 0.118585 0.249923
0.551186 0.128251 0.259684
0.598125 0.135377 0.269779
0.645201 0.144312 0.278672
0.690456 0.153010 0.288626
0.733850 0.161854 0.298419
0.056994 0.096785 0.185635
0.090052 0.102211 0.192560
0.131891 0.108831 0.199225
0.182804 0.114506 0.208434
0.235678 0.121487 0.214530
0.285595 0.129304 0.223519
0.335079 0.135952 0.232282
0.383848 0.143692 0.241071
0.431571 0.151662 0.250128
0.477916 0.159935 0.259376
0.524128 0.168053 0.268256
0.569999 0.177331 0.278427
0.617545 0.185280 0.288580
0.663848 0.195935 0.297819
0.709077 0.204629 0.308137
0.751795 0.214135 0.318274
0.066673 0.140341 0.199618
0.102395 0.146969 0.207228
0.148676 0.154638 0.215327
0.202220 0.161219 0.223984
0.252644 0.168604 0.231307
0.303541 0.177060 0.240731
0.353844 0.184859 0.249831
0.402519 0.193243 0.259047
0.450160 0.201981 0.268500
0.496354 0.210910 0.278103
0.542676 0.220132 0.288465
0.589470 0.230052 0.297870
0.637987 0.239524 0.307791
0.683261 0.248473 0.317171
0.727726 0.258470 0.328053
0.769638 0.268409 0.338312
0.077914 0.187173 0.214947
0.117121 0.194600 0.223196
0.167369 0.202213 0.231529
0.221406 0.210673 0.240738
0.272784 0.219237 0.248872
0.323465 0.227350 0.258739
0.373208 0.236206 0.268147
0.421949 0.245314 0.277809
0.469330 0.254684 0.287574
0.515361 0.264197 0.297505
0.562813 0.273541 0.308233
0.610433 0.284045 0.317955
0.657243 0.293266 0.328363
0.702362 0.303604 0.337771
0.746366 0.313959 0.348261
0.787157 0.324244 0.358546
0.090932 0.236639 0.231448
0.134548 0.244873 0.240196
0.188019 0.252453 0.248816
0.241620 0.262742 0.258528
0.292442 0.271009 0.268392
0.343811 0.279717 0.277380
0.393403 0.289764 0.287253
0.441856 0.299465 0.297183
0.488771 0.309288 0.307172
0.535295 0.319193 0.317285
0.583208 0.329916 0.327471
0.630324 0.339739 0.337376
0.677026 0.349940 0.347835
0.721678 0.360335 0.358181
0.764498 0.370354 0.368421
0.804082 0.380669 0.378638
0.106098 0.288549 0.248922
0.154829 0.297393 0.258133
0.209189 0.306155 0.267064
0.262625 0.316008 0.277207
0.313645 0.325484 0.287202
0.364347 0.334546 0.296473
0.413956 0.344983 0.306812
0.462006 0.355035 0.316946
0.508585 0.365126 0.327073
0.555687 0.375326 0.337374
0.603036 0.385482 0.348048
0.650787 0.395656 0.358151
0.697122 0.406552 0.368233
0.741011 0.415819 0.378364
0.782147 0.426740 0.388481
0.820279 0.436951 0.398431
0.123940 0.342243 0.267280
0.177198 0.351645 0.276828
0.231100 0.361689 0.287279
0.283185 0.371030 0.295550
0.334995 0.380603 0.306496
0.385915 0.390742 0.316857
0.434761 0.400906 0.326782
0.482210 0.410979 0.336977
