example_ofxGpuLutCube/bin/data/ofxGpuLutCube/LUT/U13 (soft violet tint).cube
LUT_3D_SIZE 6
0.037908 0.034223 0.057883
0.143956 0.041401 0.070425
0.292458 0.052054 0.085625
0.434047 0.065231 0.104368
0.569265 0.081274 0.127395
0.706138 0.102931 0.154896
0.061131 0.133529 0.085122
0.190806 0.152909 0.103679
0.343217 0.175868 0.126276
0.485917 0.201084 0.153917
0.626221 0.228654 0.184690
0.759683 0.257419 0.216120
0.097297 0.279022 0.125451
0.250949 0.306289 0.152048
0.402420 0.334153 0.183677
0.544289 0.364155 0.215224
0.686187 0.395163 0.246659
0.811247 0.425656 0.278645
0.154579 0.441609 0.182621
0.315709 0.472699 0.213793
0.464706 0.505325 0.245993
0.606686 0.539048 0.277688
0.744120 0.572136 0.308719
0.856668 0.605322 0.338753
0.226108 0.622865 0.244898
0.381495 0.656294 0.276840
0.525696 0.687944 0.307770
0.667268 0.717906 0.337779
0.793373 0.746534 0.366697
0.892587 0.770866 0.392440
0.295331 0.791027 0.306697
0.445553 0.816995 0.336916
0.584505 0.839689 0.365157
0.719673 0.859707 0.391549
0.834114 0.876312 0.415555
0.917791 0.890036 0.435818
0.041476 0.036642 0.162380
0.151536 0.045763 0.179112
0.300986 0.056523 0.200363
0.443203 0.070878 0.224274
0.578911 0.088992 0.251389
0.716073 0.111928 0.279047
0.066673 0.140341 0.199618
0.202220 0.161219 0.223984
0.353844 0.184859 0.249831
0.496354 0.210910 0.278103
0.637987 0.239524 0.307791
0.769638 0.268409 0.338312
0.106098 0.288549 0.248922
0.262625 0.316008 0.277207
0.413956 0.344983 0.306812
0.555687 0.375326 0.337374
0.697122 0.406552 0.368233
0.820279 0.436951 0.398431
0.167891 0.452725 0.305785
0.328303 0.484068 0.336045
0.476194 0.517607 0.367111
0.618378 0.551438 0.397610
0.753557 0.584880 0.427556
0.864065 0.616802 0.455110
0.239214 0.634940 0.366052
0.394262 0.668390 0.396397
0.536975 0.699173 0.426139
0.677687 0.728685 0.454251
0.801731 0.755398 0.480542
0.898079 0.779282 0.504162
0.307718 0.800843 0.425083
0.455666 0.825440 0.454013
0.594820 0.847450 0.479416
0.728382 0.866235 0.503325
0.840352 0.881029 0.525495
0.921387 0.894361 0.544325
0.045326 0.039465 0.281042
0.159996 0.049231 0.299653
0.310005 0.061412 0.319910
0.452587 0.077054 0.344017
0.589686 0.096308 0.370575
0.726083 0.121371 0.398167
0.072748 0.147645 0.319224
0.212656 0.169868 0.342603
0.364576 0.194132 0.369347
0.506911 0.220986 0.397305
0.647860 0.249544 0.426255
0.779450 0.279488 0.455362
0.115682 0.298271 0.368450
0.274593 0.327038 0.395780
0.425598 0.356052 0.425167
0.567347 0.386603 0.454396
0.708031 0.416931 0.482706
0.829226 0.448411 0.511955
0.181332 0.464218 0.424261
0.341001 0.496630 0.453287
0.487623 0.529979 0.482383
0.629936 0.563760 0.511067
0.763550 0.596453 0.539995
0.871190 0.628066 0.567178
0.252339 0.647092 0.481483
0.407128 0.679521 0.510678
0.548158 0.710212 0.538615
0.688088 0.738813 0.566409
0.809896 0.764651 0.592874
0.903214 0.787187 0.616412
0.319939 0.810212 0.537574
0.466650 0.833620 0.565026
0.604936 0.854644 0.591643
0.736604 0.872228 0.615682
0.845354 0.887152 0.636860
0.924497 0.898168 0.654389
0.049587 0.042695 0.395582
0.167425 0.053060 0.414169
0.319488 0.066728 0.435276
0.462267 0.083734 0.458953
0.600417 0.105446 0.484299
0.736021 0.131003 0.511254
0.079319 0.155348 0.434493
0.223454 0.177887 0.458555
0.375626 0.203732 0.483512
0.517762 0.231296 0.510264
0.659573 0.259690 0.538501
0.789041 0.290684 0.568362
0.126190 0.308379 0.482637
0.286729 0.337253 0.509072
0.437227 0.367162 0.537854
0.579059 0.397906 0.567453
0.719484 0.428407 0.597584
0.837621 0.459779 0.626560
0.194632 0.475766 0.536905
0.352734 0.508491 0.565705
0.499022 0.542387 0.596318
0.641195 0.576017 0.625676
0.772511 0.608689 0.654259
0.877972 0.639064 0.679834
0.265356 0.659117 0.595357
0.418649 0.691241 0.624543
0.559198 0.720888 0.652885
0.697957 0.748542 0.679081
0.817429 0.772624 0.702665
0.907937 0.794476 0.723437
0.331867 0.819092 0.651914
0.477403 0.841379 0.678021
0.614622 0.861599 0.701815
0.744323 0.878056 0.722838
0.850858 0.890906 0.740670
0.927498 0.901286 0.754957
0.054148 0.046239 0.504671
0.178101 0.058097 0.523504
0.329330 0.072510 0.545678
0.472151 0.091063 0.570517
0.611345 0.114112 0.597689
0.746077 0.140895 0.625630
0.086506 0.163423 0.544869
0.234485 0.187346 0.569977
0.386899 0.213657 0.596503
0.528871 0.241858 0.624822
0.670084 0.271989 0.652825
0.798681 0.301897 0.681993
0.137577 0.318719 0.595616
0.299057 0.347795 0.623340
0.448840 0.378389 0.652575
0.590722 0.409224 0.681106
0.728981 0.440836 0.708668
0.845894 0.471355 0.734805
0.208059 0.487746 0.651688
0.365546 0.521479 0.680132
0.510290 0.554756 0.707731
0.652361 0.588164 0.734018
0.780978 0.620560 0.758206
0.884404 0.649462 0.779979
0.278122 0.670964 0.706900
0.429218 0.702887 0.732638
0.570092 0.731303 0.757442
0.707516 0.757911 0.779365
0.824710 0.781838 0.798744
0.912348 0.801473 0.815204
0.343583 0.827876 0.756600
0.487863 0.849613 0.778122
0.624024 0.867954 0.798106
0.751705 0.883204 0.814623
0.855952 0.896114 0.827733
0.929985 0.904510 0.838947
0.059160 0.050174 0.615028
0.187679 0.062726 0.635479
0.339390 0.078795 0.658108
0.482245 0.099062 0.682639
0.622220 0.124085 0.707717
0.756048 0.150933 0.733857
0.094266 0.171844 0.657352
0.247182 0.196071 0.681560
0.398287 0.223794 0.707262
0.540002 0.252533 0.732852
0.681448 0.282209 0.758436
0.807967 0.313219 0.782878
0.149862 0.329223 0.706472
0.310318 0.359472 0.732509
0.460471 0.389634 0.757595
0.602395 0.420480 0.782012
0.739882 0.451324 0.805654
0.853727 0.482815 0.826130
0.221244 0.499808 0.756766
0.377231 0.532599 0.780580
0.521558 0.567042 0.804366
0.663243 0.599997 0.825466
0.789826 0.631091 0.844495
0.890491 0.659828 0.860964
0.290914 0.682760 0.803816
0.440510 0.713346 0.824671
0.580780 0.741530 0.843813
0.716686 0.766835 0.860439
0.831583 0.788854 0.874046
0.916472 0.808092 0.885450
0.354885 0.836118 0.843149
0.497152 0.856615 0.860249
0.632931 0.873977 0.873764
0.758512 0.888029 0.885144
0.860716 0.898289 0.893704
0.931629 0.906471 0.899883
