example_ofxGpuLutCube/bin/data/ofxGpuLutCube/LUT/U14 (magenta sunset tint).cube
LUT_3D_SIZE 6
0.000000 0.000000 0.000000
0.099796 0.001459 0.000000
0.328982 0.036482 0.001946
0.805758 0.187760 0.000486
0.924038 0.240294 0.000000
1.000000 0.260238 0.002432
0.001459 0.089581 0.000000
0.101937 0.094348 0.000584
0.387839 0.172857 0.003794
0.790484 0.295339 0.002238
0.922579 0.339020 0.000584
1.000000 0.353696 0.000973
0.012161 0.348439 0.000000
0.226267 0.386380 0.000000
0.430158 0.371398 0.001946
0.798462 0.451075 0.000097
0.924038 0.469267 0.003113
0.998054 0.466645 0.000000
0.050102 0.650589 0.001946
0.277341 0.675882 0.001168
0.517423 0.664987 0.000000
0.761007 0.661192 0.001557
0.922384 0.641833 0.000778
1.000000 0.597611 0.002408
0.081719 0.900204 0.000000
0.280941 0.903511 0.001362
0.525595 0.899231 0.001459
0.769373 0.889697 0.001654
0.924038 0.854966 0.000000
1.000000 0.778631 0.000000
0.092421 1.000000 0.004816
0.261815 1.000000 0.000000
0.480260 0.999981 0.000000
0.695398 0.997592 0.000005
0.919651 1.000000 0.000973
0.997616 0.961061 0.000025
0.001459 0.001459 0.099796
0.096197 0.000000 0.097462
0.339002 0.000195 0.104758
0.747971 0.103122 0.076253
0.924038 0.205758 0.075962
1.000000 0.242692 0.079829
0.000000 0.099213 0.098824
0.099621 0.100400 0.100186
0.365366 0.140189 0.078997
0.743009 0.243934 0.075962
0.923805 0.311566 0.076467
0.999412 0.336761 0.077228
0.000195 0.361378 0.076156
0.117210 0.386828 0.077752
0.416208 0.361864 0.076195
0.775638 0.423815 0.077012
0.923280 0.455180 0.076273
0.998844 0.458472 0.075962
0.003016 0.666932 0.076740
0.137173 0.699386 0.077596
0.494483 0.676816 0.076156
0.757310 0.657009 0.078160
0.922793 0.632416 0.076156
1.000000 0.595348 0.078582
0.000000 0.908765 0.075962
0.162351 0.910127 0.078082
0.496234 0.906585 0.077596
0.759061 0.894639 0.075962
0.924038 0.856542 0.077596
0.999028 0.773587 0.075975
0.001469 1.000000 0.077431
0.167905 0.998732 0.077129
0.445600 0.998064 0.078081
0.684783 0.999998 0.075976
0.913111 0.999615 0.077412
0.997616 0.961038 0.076010
0.000486 0.075396 0.386866
0.077907 0.000000 0.404281
0.380543 0.000389 0.396887
0.717618 0.000097 0.430839
0.921120 0.000973 0.219925
0.999494 0.032805 0.160591
0.001459 0.219165 0.417706
0.078238 0.180796 0.441424
0.361242 0.076117 0.377761
0.728767 0.075962 0.386964
0.921606 0.076078 0.156515
0.998258 0.271555 0.151923
0.000000 0.387353 0.382975
0.076740 0.410273 0.407452
0.356630 0.360405 0.358129
0.750150 0.377157 0.271175
0.923883 0.419496 0.164123
0.996906 0.427707 0.151923
0.000097 0.689113 0.320129
0.078686 0.716197 0.276253
0.318709 0.688413 0.160990
0.750033 0.659363 0.152935
0.923357 0.603502 0.151981
0.998836 0.583482 0.153668
0.000195 0.920633 0.154452
0.076429 0.922560 0.152585
0.322795 0.915477 0.151923
0.715730 0.900651 0.152935
0.923766 0.857282 0.152507
0.998636 0.761917 0.154237
0.000019 0.998074 0.152429
0.075962 1.000000 0.153861
0.263289 0.998442 0.151946
0.630415 0.999903 0.152332
0.894911 0.998074 0.152886
0.999995 0.959097 0.153354
0.000000 0.215487 0.792624
0.076253 0.146511 0.791554
0.256796 0.001654 0.769860
0.704679 0.000389 0.734156
0.923357 0.000000 0.709835
1.000000 0.000019 0.574375
0.001070 0.324233 0.766844
0.076798 0.285222 0.773965
0.156320 0.076896 0.752815
0.698452 0.075962 0.730128
0.924038 0.075962 0.691604
1.000000 0.076735 0.548671
0.002043 0.505846 0.754489
0.075962 0.494250 0.765287
0.152001 0.390271 0.746083
0.694950 0.295749 0.722988
0.923338 0.160659 0.663294
0.998046 0.180265 0.508195
0.000000 0.707500 0.698939
0.077246 0.716450 0.707267
0.152157 0.704484 0.695943
0.683685 0.687031 0.681973
0.922851 0.690281 0.653254
0.999991 0.673062 0.612458
0.002530 0.922384 0.613815
0.076429 0.923163 0.618776
0.162255 0.918357 0.636385
0.681836 0.902889 0.653915
0.923396 0.876836 0.636852
0.998166 0.795789 0.588368
0.000000 1.000000 0.529590
0.078091 1.000000 0.566619
0.292541 0.999999 0.558615
0.597216 1.000000 0.524424
0.854784 0.998072 0.418730
0.999961 0.963513 0.228606
0.000000 0.241753 0.924038
0.075962 0.208190 0.924038
0.152896 0.005156 0.920828
0.528398 0.000000 0.922871
0.884054 0.001849 0.922093
0.998541 0.000973 0.891482
0.000000 0.345344 0.923455
0.076117 0.320166 0.923104
0.153071 0.180699 0.922540
0.508085 0.076390 0.923805
0.884619 0.076545 0.923688
0.999127 0.077126 0.881979
0.000000 0.495048 0.924038
0.076331 0.477536 0.923338
0.152779 0.418367 0.920770
0.506178 0.404631 0.924000
0.889872 0.395895 0.920478
0.999997 0.410635 0.876406
0.000000 0.683665 0.917326
0.076273 0.677342 0.919544
0.153013 0.659480 0.920342
0.568694 0.683159 0.910827
0.891545 0.709835 0.905924
0.998832 0.719320 0.875372
0.002335 0.914115 0.901079
0.075962 0.914699 0.902889
0.153129 0.910380 0.901215
0.662496 0.903317 0.898958
0.895573 0.895145 0.895943
0.998166 0.896407 0.889623
0.000988 0.999990 0.788909
0.077517 0.999133 0.795248
0.391516 0.999518 0.831099
0.740671 0.998072 0.870183
0.890393 0.999615 0.884665
0.999971 0.996075 0.872060
0.000000 0.252941 1.000000
0.075976 0.234433 1.000000
0.151923 0.187196 0.999995
0.364147 0.232609 0.994182
0.745044 0.259785 0.999985
0.990296 0.301146 1.000000
0.000015 0.347387 1.000000
0.075962 0.328316 1.000000
0.153368 0.293788 0.999997
0.436426 0.368071 0.999612
0.758630 0.390430 0.999994
0.992189 0.426285 0.999985
0.000005 0.471047 1.000000
0.076761 0.458102 0.998844
0.152330 0.428612 0.998459
0.597404 0.589585 0.997303
0.810068 0.601796 0.999988
0.995126 0.618245 0.999995
0.000000 0.623879 0.998054
0.075962 0.615619 0.999222
0.152308 0.585456 0.998423
0.509055 0.678907 0.999996
0.858038 0.772519 0.997584
0.995617 0.778917 0.998093
0.000973 0.807841 0.999985
0.075962 0.803103 0.998166
0.151923 0.790189 0.998818
0.253866 0.816398 0.996807
0.876280 0.895543 0.999991
0.998526 0.905530 0.999976
0.002432 1.000000 1.000000
0.075962 0.999976 0.999952
0.151966 1.000000 1.000000
0.543661 0.999995 0.997577
0.883251 0.999037 0.997606
0.997616 1.000000 1.000000
