example_ofxGpuLutCube/bin/data/ofxGpuLutCube/LUT/U14 (magenta sunset tint).cube
LUT_3D_SIZE 16
0.000000 0.000000 0.000000
0.025321 0.000000 0.000000
0.052587 0.000973 0.000000
0.099796 0.001459 0.000000
0.153330 0.002432 0.000000
0.221455 0.009728 0.000000
0.328982 0.036482 0.001946
0.512877 0.090961 0.000000
0.684612 0.148360 0.002432
0.805758 0.187760 0.000486
0.873397 0.209163 0.000000
0.898232 0.226674 0.000000
0.924038 0.240294 0.000000
0.949359 0.248077 0.000000
0.972734 0.257319 0.000000
1.000000 0.260238 0.002432
0.000000 0.025807 0.000000
0.027656 0.025321 0.000000
0.051322 0.025807 0.000000
0.096294 0.028628 0.000486
0.150411 0.028726 0.000778
0.214645 0.037968 0.000486
0.328593 0.069293 0.001557
0.492642 0.123287 0.001168
0.658831 0.177085 0.000389
0.789317 0.211232 0.000097
0.872911 0.237888 0.000000
0.898329 0.256081 0.001751
0.923260 0.266393 0.001362
0.949359 0.277970 0.002919
0.972636 0.282737 0.000000
1.000000 0.288958 0.000482
0.002432 0.053073 0.000973
0.027266 0.055505 0.001946
0.057451 0.056478 0.000973
0.100769 0.059786 0.000000
0.160334 0.062510 0.003989
0.241885 0.085664 0.000000
0.378306 0.129150 0.003502
0.540895 0.181976 0.001459
0.691324 0.227700 0.001167
0.805661 0.256107 0.002627
0.872424 0.277802 0.000000
0.898718 0.289476 0.002335
0.923455 0.301247 0.000973
0.949359 0.307960 0.003891
0.974679 0.315743 0.000000
1.000000 0.320126 0.000000
0.001459 0.089581 0.000000
0.028628 0.090846 0.001168
0.063385 0.090360 0.002043
0.101937 0.094348 0.000584
0.173467 0.108260 0.000000
0.259397 0.133846 0.001459
0.387839 0.172857 0.003794
0.536517 0.220916 0.000876
0.681109 0.265667 0.002821
0.790484 0.295339 0.002238
0.873397 0.314796 0.000000
0.895799 0.330070 0.000778
0.922579 0.339020 0.000584
0.948483 0.347387 0.000000
0.972442 0.348360 0.000000
1.000000 0.353696 0.000973
0.000000 0.159167 0.000486
0.040497 0.176289 0.000584
0.090333 0.173079 0.003113
0.139975 0.167436 0.000000
0.201875 0.179597 0.001167
0.307066 0.211214 0.000000
0.431034 0.241470 0.000000
0.568621 0.287972 0.001168
0.700469 0.322800 0.000389
0.805077 0.350235 0.000389
0.871451 0.362492 0.000000
0.896675 0.373291 0.000000
0.922579 0.379809 0.000778
0.947413 0.387592 0.000000
0.974679 0.385257 0.000389
0.999995 0.389737 0.000019
0.002432 0.228752 0.000000
0.058884 0.274962 0.001946
0.116795 0.264261 0.000973
0.170328 0.256478 0.000000
0.222888 0.246263 0.000000
0.301716 0.260369 0.002432
0.426753 0.306580 0.000000
0.564924 0.343548 0.001459
0.688503 0.369329 0.000973
0.795543 0.395596 0.000000
0.873397 0.406297 0.000000
0.898232 0.421376 0.000000
0.924038 0.425754 0.000000
0.949359 0.423322 0.002432
0.974679 0.428187 0.000000
1.000000 0.428187 0.000000
0.012161 0.348439 0.000000
0.100522 0.421305 0.000584
0.162811 0.404767 0.001070
0.226267 0.386380 0.000000
0.280968 0.367020 0.001167
0.332847 0.352330 0.000000
0.430158 0.371398 0.001946
0.566384 0.418873 0.000292
0.694535 0.444265 0.001946
0.798462 0.451075 0.000097
0.873397 0.461290 0.000000
0.898718 0.468197 0.002627
0.924038 0.469267 0.003113
0.948873 0.475688 0.000000
0.974679 0.469559 0.001946
0.998054 0.466645 0.000000
0.020430 0.450615 0.001459
0.107040 0.520952 0.001459
0.181587 0.507624 0.001557
0.250977 0.490015 0.001265
0.317741 0.476882 0.000973
0.384408 0.465207 0.000000
0.448740 0.455284 0.000195
0.553834 0.480870 0.000876
0.679067 0.509958 0.000000
0.782604 0.519784 0.001265
0.866101 0.519201 0.001459
0.898718 0.517255 0.000000
0.924038 0.518228 0.000973
0.949359 0.519493 0.000000
0.973220 0.515017 0.001459
1.000000 0.511427 0.001459
0.033564 0.555223 0.000000
0.117547 0.610189 0.000292
0.190634 0.603281 0.000000
0.268002 0.590148 0.001459
0.338658 0.581976 0.001168
0.415053 0.571275 0.001946
0.489697 0.565145 0.000000
0.563271 0.556682 0.000973
0.672062 0.582949 0.004086
0.783090 0.598806 0.000292
0.869506 0.597541 0.001946
0.896772 0.587132 0.000292
0.923163 0.570788 0.000389
0.949359 0.568745 0.000389
0.974679 0.563297 0.001168
1.000000 0.555719 0.001469
0.050102 0.650589 0.001946
0.127178 0.689308 0.000000
0.198028 0.682692 0.000000
0.277341 0.675882 0.001168
0.352180 0.675883 0.001070
0.435483 0.670045 0.000973
0.517423 0.664987 0.000000
0.591094 0.659052 0.004670
0.665252 0.650880 0.000195
0.761007 0.661192 0.001557
0.857345 0.661776 0.000000
0.898718 0.654091 0.002432
0.922384 0.641833 0.000778
0.949359 0.621889 0.003600
0.974582 0.606810 0.000389
1.000000 0.597611 0.002408
0.068100 0.751791 0.002432
0.129416 0.769303 0.000486
0.203378 0.767843 0.001459
0.281233 0.763951 0.000973
0.363952 0.762006 0.001946
0.442779 0.759087 0.000000
0.531335 0.757142 0.000000
0.616486 0.761520 0.001459
0.701150 0.753250 0.000000
0.779978 0.754710 0.000000
0.863669 0.744495 0.002432
0.898232 0.731848 0.000000
0.924038 0.716769 0.000000
0.949359 0.692933 0.000000
0.974679 0.670558 0.000973
0.999976 0.649691 0.000000
0.075396 0.830619 0.000486
0.137101 0.834607 0.000778
0.205713 0.832856 0.001070
0.281233 0.831591 0.002432
0.362492 0.830813 0.000778
0.444238 0.830619 0.000000
0.528416 0.831299 0.000389
0.610259 0.825754 0.000195
0.691324 0.822836 0.001849
0.774530 0.820793 0.000000
0.857832 0.818458 0.000000
0.898232 0.805714 0.000000
0.923844 0.783241 0.000000
0.946635 0.763005 0.001459
0.974193 0.738295 0.000000
0.997568 0.714903 0.000000
0.081719 0.900204 0.000000
0.139436 0.905360 0.001070
0.208146 0.903219 0.000389
0.280941 0.903511 0.001362
0.362784 0.899717 0.000973
0.443752 0.900204 0.000000
0.525595 0.899231 0.001459
0.605784 0.898161 0.000000
0.688503 0.895631 0.000000
0.769373 0.889697 0.001654
0.854427 0.887070 0.000973
0.898718 0.878704 0.001168
0.924038 0.854966 0.000000
0.948386 0.830158 0.000584
0.974679 0.804378 0.000000
1.000000 0.778631 0.000000
0.085124 0.949359 0.000000
0.140409 0.947413 0.000000
0.204643 0.949359 0.000000
0.278022 0.949359 0.000000
0.351694 0.948386 0.002919
0.432564 0.948386 0.000000
0.510516 0.947413 0.001557
0.589246 0.945370 0.000584
0.667295 0.942257 0.000000
0.746609 0.939630 0.000000
0.827673 0.936226 0.001459
0.897550 0.932334 0.000778
0.924038 0.921049 0.000876
0.948386 0.895755 0.000000
0.973609 0.865499 0.000000
0.999037 0.839490 0.000019
0.087070 0.974679 0.000486
0.138074 0.974290 0.000000
0.200460 0.974679 0.000778
0.270921 0.974679 0.000292
0.348192 0.972734 0.001557
0.423322 0.974679 0.003891
0.493686 0.974679 0.000000
0.574167 0.973512 0.001070
0.648032 0.974193 0.001168
0.723066 0.974290 0.000000
0.801893 0.974193 0.001946
0.874591 0.974193 0.000876
0.922871 0.969718 0.000000
0.947413 0.960281 0.000000
0.974679 0.928858 0.002043
1.000000 0.900325 0.003877
0.092421 1.000000 0.004816
0.136756 0.999981 0.000000
0.195134 0.997592 0.000015
0.261815 1.000000 0.000000
0.335223 0.998074 0.000000
0.403914 1.000000 0.002432
0.480260 0.999981 0.000000
0.551815 0.999985 0.000000
0.628225 0.998531 0.000988
0.695398 0.997592 0.000005
0.771370 1.000000 0.000024
0.844321 1.000000 0.001926
0.919651 1.000000 0.000973
0.949359 0.999985 0.002432
0.974679 0.989226 0.000963
0.997616 0.961061 0.000025
0.001946 0.000000 0.025321
0.025710 0.000000 0.025321
0.052587 0.000000 0.026293
0.096489 0.000000 0.025321
0.147979 0.003113 0.028823
0.211727 0.009728 0.027753
0.328106 0.035995 0.027266
0.489821 0.084444 0.025612
0.642098 0.131627 0.026099
0.768303 0.168692 0.025321
0.863669 0.189706 0.025807
0.898718 0.212470 0.025321
0.922190 0.229398 0.026099
0.949067 0.242532 0.025321
0.974679 0.250801 0.027266
1.000000 0.259707 0.027767
0.000097 0.025321 0.025321
0.025788 0.025398 0.029445
0.053521 0.026255 0.027228
0.094154 0.027208 0.025379
0.143426 0.031761 0.025321
0.209392 0.037579 0.025904
0.322075 0.066706 0.027811
0.472348 0.110426 0.026021
0.626708 0.158796 0.026488
0.751590 0.195414 0.025321
0.852967 0.219890 0.027266
0.898407 0.244115 0.025710
0.923824 0.259778 0.027578
0.947958 0.268767 0.025321
0.974602 0.277522 0.027033
0.999996 0.284768 0.027263
0.000973 0.056089 0.028045
0.026722 0.054357 0.027461
0.057568 0.054805 0.026138
0.101042 0.056031 0.025632
0.157513 0.061907 0.026566
0.244901 0.082745 0.026780
0.372410 0.122788 0.028278
0.517313 0.166546 0.027383
0.660076 0.208087 0.025515
0.776300 0.239374 0.028103
0.865906 0.261555 0.025321
0.896947 0.280467 0.026449
0.924038 0.294515 0.025496
0.949359 0.304711 0.027675
0.973570 0.310548 0.026332
0.998832 0.316887 0.026091
0.000000 0.091041 0.028628
0.025593 0.094271 0.025321
0.061089 0.090360 0.026157
0.106081 0.095302 0.025788
0.173079 0.104096 0.027364
0.255797 0.129663 0.025321
0.379570 0.164335 0.028317
0.512780 0.206421 0.026371
0.646398 0.245529 0.027033
0.760054 0.276719 0.027091
0.860167 0.298452 0.026488
0.898562 0.319116 0.025379
0.922287 0.331996 0.026955
0.947900 0.337600 0.027266
0.974524 0.343145 0.027403
0.997754 0.348350 0.025321
0.000778 0.164517 0.026099
0.027656 0.182262 0.025418
0.084944 0.174421 0.025321
0.138730 0.170276 0.025321
0.199054 0.174635 0.026877
0.295392 0.202945 0.025321
0.417453 0.227986 0.027189
0.546927 0.271044 0.025554
0.675778 0.307624 0.025943
0.782001 0.335389 0.025885
0.868144 0.350235 0.026099
0.896986 0.364263 0.025321
0.922248 0.372708 0.025690
0.949125 0.379517 0.026138
0.974679 0.384012 0.025321
0.998054 0.387396 0.025321
0.000000 0.238967 0.025321
0.034757 0.275352 0.025321
0.109012 0.267471 0.026099
0.164686 0.255311 0.025515
0.219678 0.248403 0.025321
0.296365 0.255505 0.027753
0.413523 0.295003 0.025321
0.540603 0.324869 0.026877
0.663695 0.351817 0.026099
0.773168 0.376917 0.025321
0.859778 0.396569 0.025321
0.894729 0.411745 0.025807
0.924038 0.420306 0.025321
0.949359 0.418944 0.026196
0.974679 0.423322 0.027753
1.000000 0.425754 0.025321
0.001946 0.358556 0.025321
0.053455 0.422123 0.028278
0.146914 0.406051 0.028881
0.216597 0.387042 0.026021
0.280637 0.368927 0.026566
0.332555 0.353206 0.026585
0.424535 0.370270 0.026508
0.560158 0.412063 0.025321
0.685837 0.433719 0.028064
0.787313 0.442008 0.027072
0.867949 0.452923 0.025710
0.898718 0.461679 0.025710
0.923182 0.467321 0.026741
0.947277 0.471213 0.025321
0.972734 0.466737 0.026099
0.998054 0.466251 0.026099
0.002530 0.455090 0.025321
0.063417 0.526205 0.025710
0.160534 0.513889 0.025865
0.240315 0.497467 0.027208
0.312040 0.481259 0.027013
0.380030 0.468126 0.025321
0.444790 0.451626 0.026488
0.542257 0.470325 0.027364
0.665096 0.501008 0.026332
0.770016 0.509025 0.026177
0.863474 0.509667 0.026099
0.898484 0.510931 0.025321
0.923143 0.516710 0.026177
0.948191 0.515309 0.025321
0.974446 0.513558 0.025612
0.998830 0.509966 0.026861
0.000195 0.567870 0.025321
0.073632 0.626727 0.026099
0.175574 0.619236 0.025515
0.261251 0.606842 0.026216
0.341343 0.595635 0.025379
0.420598 0.583922 0.026780
0.496507 0.577306 0.026410
0.570314 0.564270 0.026916
0.671011 0.582949 0.025904
0.779880 0.595051 0.025515
0.865420 0.592677 0.026877
0.897901 0.581781 0.025554
0.923455 0.570204 0.026177
0.949184 0.565515 0.026040
0.973356 0.561351 0.025943
1.000000 0.554681 0.029877
0.001265 0.658760 0.025807
0.088069 0.704971 0.025632
0.182151 0.699133 0.026877
0.269034 0.690611 0.026488
0.351966 0.689113 0.026955
0.435385 0.680163 0.027656
0.516314 0.673548 0.026566
0.590783 0.661504 0.025476
0.664532 0.650316 0.027189
0.758458 0.658293 0.028200
0.850341 0.660511 0.025321
0.898212 0.652651 0.026099
0.923533 0.638544 0.025943
0.949125 0.620761 0.025359
0.974504 0.607511 0.025398
1.000000 0.601075 0.026580
0.003891 0.763951 0.025807
0.096047 0.785063 0.028434
0.186062 0.783020 0.026099
0.275104 0.778545 0.025807
0.362395 0.775723 0.027266
0.445211 0.773680 0.025321
0.536588 0.771151 0.026099
0.619210 0.768622 0.025612
0.703680 0.761520 0.026975
0.783480 0.752764 0.025321
0.859291 0.744008 0.025321
0.897745 0.731848 0.027753
0.922871 0.714823 0.026099
0.949359 0.692933 0.026488
0.974679 0.668515 0.025807
0.998030 0.647745 0.025321
0.007102 0.834705 0.025418
0.101612 0.845756 0.025593
0.187502 0.842545 0.027928
0.271271 0.840250 0.026741
0.357862 0.839919 0.026021
0.442779 0.838888 0.025321
0.525789 0.836066 0.026274
0.608956 0.830852 0.028395
0.690604 0.823925 0.027189
0.773751 0.820987 0.025418
0.857054 0.816512 0.028434
0.898407 0.802056 0.025321
0.921412 0.784505 0.025321
0.949359 0.761001 0.027733
0.973862 0.736174 0.028122
0.996525 0.713829 0.025337
0.025391 0.906722 0.025321
0.108032 0.910419 0.025612
0.189253 0.908181 0.026196
0.269345 0.906527 0.025632
0.351499 0.904912 0.026644
0.437915 0.904387 0.025515
0.523630 0.904329 0.025593
0.605687 0.901955 0.025788
0.689106 0.897927 0.025321
0.767992 0.893452 0.028531
0.849563 0.888043 0.026099
0.898484 0.879248 0.025554
0.924038 0.855063 0.025671
0.948308 0.830548 0.025321
0.973454 0.802802 0.025321
0.997785 0.777859 0.025332
0.035023 0.949359 0.027558
0.108830 0.949203 0.025321
0.185634 0.948775 0.025496
0.264967 0.949281 0.025321
0.342160 0.949359 0.026780
0.427700 0.949359 0.026293
0.508551 0.948464 0.025321
0.587650 0.947335 0.026313
0.666886 0.944339 0.026799
0.745577 0.939494 0.026527
0.826020 0.936226 0.026780
0.895469 0.931536 0.025321
0.924038 0.920271 0.026858
0.947569 0.895988 0.025321
0.974524 0.866180 0.025904
0.999037 0.839479 0.025354
0.051658 0.972734 0.026488
0.114589 0.973434 0.027656
0.183105 0.973901 0.026410
0.260453 0.973823 0.025787
0.333930 0.974349 0.025710
0.413983 0.974290 0.027753
0.490884 0.974271 0.025749
0.568699 0.974679 0.025943
0.645659 0.973609 0.027091
0.722677 0.974679 0.025321
0.801115 0.974290 0.027072
0.875914 0.973843 0.027811
0.924038 0.971664 0.026585
0.948328 0.959756 0.025943
0.974193 0.930590 0.028531
0.999517 0.899185 0.025360
0.061742 0.998069 0.025321
0.116085 0.998362 0.027764
0.183830 0.998553 0.025334
0.250619 0.998940 0.025330
0.321586 1.000000 0.025831
0.398014 1.000000 0.027247
0.474460 0.999980 0.025321
0.546016 1.000000 0.025321
0.624727 0.999985 0.026091
0.692983 1.000000 0.025336
0.770815 1.000000 0.025325
0.844408 1.000000 0.025418
0.914943 0.999518 0.025332
0.948107 0.999958 0.027733
0.974679 0.989129 0.025321
0.999523 0.960561 0.028191
0.000000 0.000000 0.052587
0.025321 0.000000 0.055505
0.053949 0.000584 0.054143
0.096975 0.000000 0.057743
0.148173 0.000195 0.053268
0.217564 0.000000 0.050641
0.336084 0.011771 0.050641
0.483400 0.062165 0.051225
0.632272 0.112948 0.052198
0.756629 0.151278 0.051225
0.859291 0.178032 0.050641
0.898718 0.201088 0.051030
0.924038 0.221810 0.052100
0.948483 0.235138 0.050641
0.974679 0.244380 0.051809
1.000000 0.252922 0.053064
0.000778 0.025321 0.054922
0.025710 0.025710 0.053443
0.054046 0.026313 0.056303
0.095224 0.025437 0.055038
0.145878 0.026683 0.052431
0.216007 0.028725 0.050933
0.326044 0.053572 0.050641
0.467698 0.095521 0.050816
0.613924 0.139942 0.051886
0.741667 0.179264 0.050641
0.847520 0.205979 0.051419
0.898562 0.231565 0.051089
0.923377 0.249640 0.051770
0.949359 0.262385 0.051458
0.973570 0.271316 0.050797
0.998459 0.281828 0.050641
0.002724 0.057256 0.056867
0.027111 0.056692 0.056128
0.056128 0.056089 0.054260
0.099213 0.055389 0.054396
0.161385 0.060545 0.055797
0.246166 0.077784 0.050641
0.364102 0.107903 0.053851
0.504258 0.149969 0.050641
0.648616 0.192035 0.052042
0.767583 0.224606 0.050952
0.860750 0.249103 0.052100
0.898718 0.269338 0.052023
0.924038 0.286674 0.051342
0.949009 0.296636 0.052606
0.972928 0.306734 0.050875
0.998155 0.313295 0.051812
0.000000 0.094348 0.055992
0.025943 0.096586 0.054708
0.055272 0.097481 0.053346
0.105750 0.097462 0.055661
0.171425 0.102598 0.052198
0.256381 0.124993 0.051517
0.368227 0.154626 0.051108
0.499491 0.192606 0.050991
0.633187 0.232688 0.051341
0.753672 0.264597 0.053637
0.855011 0.288627 0.052392
0.898407 0.308959 0.050641
0.923416 0.324194 0.050991
0.947666 0.331296 0.053949
0.974679 0.339176 0.052431
1.000000 0.344939 0.051610
0.000000 0.168895 0.052781
0.025554 0.185842 0.051069
0.062996 0.181562 0.053171
0.134702 0.174460 0.052100
0.195065 0.174460 0.050797
0.288193 0.192925 0.050641
0.406187 0.217051 0.053287
0.535525 0.257600 0.052042
0.664941 0.295249 0.051497
0.774316 0.323715 0.051089
0.864934 0.340895 0.050641
0.896869 0.358406 0.051419
0.923221 0.367396 0.051069
0.948016 0.373992 0.051186
0.974427 0.378583 0.051030
0.999804 0.383887 0.051412
0.004378 0.238480 0.050641
0.026391 0.278270 0.050836
0.069320 0.267958 0.052003
0.153206 0.258910 0.052100
0.216662 0.249668 0.051419
0.293446 0.254532 0.052100
0.405545 0.284983 0.051419
0.531361 0.311055 0.051809
0.652118 0.342478 0.051614
0.765385 0.370107 0.050836
0.859291 0.389759 0.053073
0.898232 0.405032 0.050641
0.922190 0.414177 0.051225
0.949359 0.414177 0.050641
0.974679 0.420695 0.051030
0.999012 0.422334 0.052086
0.000000 0.358654 0.050641
0.026799 0.421850 0.050952
0.080780 0.405818 0.051731
0.191886 0.386925 0.051342
0.265927 0.370425 0.051906
0.329150 0.354373 0.050836
0.420800 0.366145 0.052100
0.553892 0.404436 0.051342
0.678210 0.424886 0.052159
0.781203 0.434225 0.052295
0.864836 0.448351 0.051419
0.898718 0.455200 0.050641
0.923669 0.461893 0.050875
0.948775 0.467107 0.050641
0.974679 0.464753 0.051283
0.999805 0.464403 0.050933
0.001751 0.454506 0.051225
0.027403 0.524532 0.051342
0.090119 0.513714 0.051108
0.213250 0.497798 0.051847
0.301008 0.482699 0.053501
0.374485 0.467542 0.052976
0.440899 0.452444 0.051303
0.536770 0.467912 0.051614
0.661049 0.493050 0.050875
0.765229 0.502954 0.051808
0.859778 0.502759 0.051614
0.898718 0.508402 0.053132
0.924038 0.512391 0.051400
0.948250 0.511924 0.050641
0.974679 0.511418 0.051517
0.998739 0.508017 0.051229
0.000000 0.568745 0.050641
0.026721 0.626377 0.050641
0.100159 0.618944 0.050797
0.230334 0.605538 0.051458
0.323851 0.596724 0.052431
0.412134 0.587327 0.052490
0.494075 0.579583 0.051575
0.568271 0.568940 0.053151
0.669649 0.581120 0.051380
0.775191 0.592385 0.050758
0.864155 0.587813 0.052100
0.898718 0.577695 0.051342
0.923805 0.567481 0.050641
0.948775 0.563900 0.052139
0.974388 0.558394 0.051225
1.000000 0.552310 0.054235
0.001362 0.663430 0.053463
0.026177 0.706080 0.051166
0.109031 0.703686 0.051419
0.237260 0.696293 0.050641
0.333657 0.689892 0.051264
0.424489 0.682401 0.052198
0.509309 0.672789 0.050952
0.587436 0.662438 0.050836
0.662178 0.649693 0.051108
0.757524 0.657748 0.050641
0.852092 0.658857 0.050933
0.898270 0.651445 0.051108
0.924038 0.636910 0.051108
0.948658 0.617492 0.053774
0.974679 0.606032 0.051264
1.000000 0.597396 0.051711
0.000973 0.764924 0.052587
0.026099 0.787495 0.051809
0.119422 0.784868 0.051030
0.241541 0.778836 0.050641
0.342841 0.779517 0.051419
0.434996 0.773680 0.052100
0.525206 0.772513 0.052782
0.615026 0.768816 0.052100
0.699594 0.760936 0.051517
0.780172 0.754904 0.050836
0.859778 0.743522 0.050641
0.898232 0.731848 0.053852
0.924038 0.712391 0.050641
0.949359 0.691474 0.051517
0.974679 0.666180 0.052782
0.997592 0.647234 0.050641
0.001070 0.835483 0.051614
0.026410 0.848577 0.054727
0.127963 0.845503 0.053443
0.239575 0.842993 0.051225
0.338171 0.841650 0.050641
0.429743 0.838985 0.050641
0.516898 0.836864 0.050641
0.601971 0.831299 0.052100
0.688094 0.827466 0.050641
0.771358 0.823264 0.050680
0.854232 0.818750 0.052976
0.898426 0.804449 0.051575
0.923396 0.782949 0.050641
0.948892 0.760126 0.052275
0.973843 0.735960 0.052781
0.996126 0.713416 0.050641
0.000000 0.907403 0.052100
0.026430 0.911275 0.052742
0.134715 0.910672 0.050797
0.241483 0.908376 0.050641
0.333171 0.907403 0.052470
0.423614 0.906333 0.050641
0.512870 0.905982 0.052042
0.599811 0.903511 0.050641
0.682335 0.899192 0.051517
0.766241 0.894075 0.052567
0.849563 0.888043 0.050641
0.898017 0.880961 0.051342
0.924038 0.855238 0.052451
0.948834 0.828038 0.052100
0.974368 0.801771 0.051458
1.000000 0.776416 0.051219
0.000973 0.949359 0.051030
0.027072 0.948970 0.052392
0.139015 0.949125 0.051886
0.237066 0.948775 0.052100
0.324376 0.949359 0.053346
0.412913 0.947510 0.052100
0.496137 0.948970 0.051925
0.577786 0.948386 0.051458
0.661438 0.945506 0.051750
0.741472 0.941187 0.050933
0.825533 0.935642 0.052100
0.895449 0.933151 0.050952
0.924038 0.921827 0.050991
0.947569 0.896280 0.050875
0.973025 0.866083 0.050933
0.999994 0.839081 0.050662
0.000973 0.974679 0.053463
0.032033 0.973668 0.051439
0.142011 0.974679 0.050913
0.233486 0.974135 0.051828
0.319434 0.973512 0.052412
0.400363 0.973512 0.050836
0.480708 0.973512 0.050972
0.559477 0.974368 0.050933
0.641767 0.972578 0.051011
0.717501 0.974524 0.050699
0.795180 0.974485 0.050641
0.874261 0.974485 0.052859
0.922560 0.971741 0.051595
0.949359 0.959503 0.051108
0.973531 0.929695 0.052529
0.999708 0.900510 0.051434
0.000000 1.000000 0.052086
0.039209 0.998844 0.050641
0.141895 0.999422 0.050641
0.224745 1.000000 0.050647
0.307263 0.998074 0.050653
0.384919 0.998555 0.050651
0.465396 0.998827 0.052953
0.541129 1.000000 0.050641
0.619562 0.998447 0.054494
0.690830 1.000000 0.050660
0.768860 0.999985 0.050641
0.844003 1.000000 0.051416
0.914940 1.000000 0.052778
0.947914 0.999983 0.053055
0.972849 0.990659 0.050641
0.998541 0.960036 0.050665
0.001459 0.001459 0.099796
0.026488 0.001168 0.099505
0.053852 0.000584 0.097364
0.096197 0.000000 0.097462
0.146519 0.000000 0.099796
0.220969 0.000000 0.111471
0.339002 0.000195 0.104758
0.486124 0.000876 0.076545
0.624392 0.015371 0.076545
0.747971 0.103122 0.076253
0.850049 0.151278 0.075962
0.898718 0.181729 0.077032
0.924038 0.205758 0.075962
0.948775 0.220253 0.076935
0.973025 0.232511 0.077129
1.000000 0.242692 0.079829
0.000000 0.029212 0.091235
0.026722 0.027597 0.095185
0.052373 0.025612 0.099797
0.093259 0.025321 0.093356
0.145119 0.025865 0.097948
0.222137 0.026488 0.104661
0.332173 0.025632 0.086819
0.468534 0.026683 0.075962
0.605908 0.077660 0.077868
0.729331 0.149320 0.076234
0.842169 0.182728 0.075962
0.898484 0.213333 0.077382
0.923961 0.235631 0.075962
0.948191 0.248726 0.076370
0.973998 0.260809 0.076409
0.999997 0.270750 0.076251
0.000584 0.062218 0.100380
0.026216 0.061323 0.103104
0.050875 0.058404 0.100049
0.098123 0.055564 0.099894
0.161307 0.052490 0.103182
0.251225 0.051614 0.094738
0.363966 0.059669 0.082305
0.494802 0.108584 0.076351
0.635541 0.160807 0.078160
0.754722 0.198981 0.075962
0.855789 0.229646 0.075962
0.897259 0.252683 0.076117
0.924038 0.272101 0.076662
0.949359 0.284748 0.078763
0.972422 0.295118 0.075962
0.999601 0.304333 0.076828
0.000000 0.099213 0.098824
0.026488 0.103513 0.101839
0.052626 0.103396 0.101898
0.099621 0.100400 0.100186
0.172534 0.103902 0.099505
0.253462 0.118183 0.088998
0.365366 0.140189 0.078997
0.487427 0.172799 0.076779
0.620404 0.209826 0.077051
0.743009 0.243934 0.075962
0.851508 0.270921 0.078102
0.898251 0.296001 0.076682
0.923805 0.311566 0.076467
0.949203 0.319875 0.078063
0.974096 0.329078 0.077927
0.999412 0.336761 0.077228
0.000000 0.173273 0.118280
0.026488 0.189812 0.120713
0.053171 0.183838 0.111023
0.106801 0.177670 0.098473
0.190609 0.172475 0.094504
0.279632 0.180764 0.080048
0.392412 0.207498 0.078180
0.522975 0.242112 0.076078
0.654667 0.277854 0.077129
0.765852 0.305308 0.076934
0.862696 0.327956 0.075962
0.896655 0.344320 0.076195
0.921781 0.358543 0.076195
0.949242 0.367045 0.076565
0.974679 0.370392 0.076234
0.999807 0.377550 0.075981
0.001459 0.244804 0.092986
0.027461 0.281286 0.087636
0.051517 0.273600 0.076935
0.106412 0.264747 0.076351
0.204599 0.252392 0.076253
0.284691 0.253073 0.075962
0.396595 0.273795 0.076156
0.519298 0.298311 0.076837
0.642195 0.331387 0.076545
0.757602 0.358336 0.078296
0.854913 0.380517 0.076935
0.898718 0.394526 0.076740
0.921995 0.404254 0.076545
0.948386 0.411551 0.075962
0.972247 0.413302 0.076253
0.997577 0.416026 0.078394
0.000195 0.361378 0.076156
0.025359 0.420527 0.076273
0.052587 0.405798 0.077752
0.117210 0.386828 0.077752
0.243805 0.370717 0.076195
0.321367 0.354763 0.077907
0.416208 0.361864 0.076195
0.545351 0.393618 0.076137
0.669493 0.410371 0.077401
0.775638 0.423815 0.077012
0.864155 0.440860 0.075962
0.898718 0.448390 0.078725
0.923280 0.455180 0.076273
0.949359 0.459539 0.075962
0.974679 0.458332 0.079036
0.998844 0.458472 0.075962
0.000389 0.458884 0.075962
0.027052 0.525738 0.076390
0.051497 0.515329 0.077557
0.124701 0.500347 0.078121
0.267776 0.485170 0.075962
0.359892 0.470558 0.078394
0.437844 0.454156 0.078647
0.531536 0.461569 0.077421
