example_ofxGpuLutCube/bin/data/ofxGpuLutCube/LUT/U15 (gray fade tint).cube
LUT_3D_SIZE 16
0.031899 0.039969 0.036588
0.058357 0.042420 0.039390
0.089936 0.045431 0.042978
0.129623 0.048062 0.046042
0.170926 0.052051 0.049552
0.215682 0.055451 0.053856
0.260238 0.059994 0.057885
0.305944 0.064529 0.062580
0.352497 0.069399 0.067602
0.399263 0.074654 0.072987
0.446449 0.080629 0.079366
0.493494 0.086339 0.084273
0.541522 0.092376 0.092189
0.591919 0.100031 0.099092
0.643302 0.107786 0.107262
0.693069 0.116121 0.115729
0.037793 0.068112 0.042406
0.065363 0.071692 0.045761
0.099535 0.075417 0.050057
0.141772 0.080175 0.053735
0.185043 0.084528 0.058327
0.229490 0.090359 0.062457
0.275032 0.095958 0.067444
0.321629 0.102207 0.072818
0.368808 0.109109 0.078660
0.416163 0.116490 0.084918
0.463575 0.124671 0.091445
0.511225 0.133469 0.099322
0.562065 0.141782 0.107331
0.612372 0.150125 0.116332
0.663589 0.159648 0.124110
0.713218 0.169064 0.133019
0.044714 0.103559 0.049333
0.073930 0.108895 0.053291
0.110434 0.115133 0.057647
0.154056 0.120789 0.061965
0.199334 0.128507 0.067598
0.244644 0.135404 0.072495
0.291134 0.142967 0.078421
0.338604 0.150973 0.084718
0.386448 0.159218 0.091522
0.434163 0.167732 0.098816
0.480918 0.175697 0.106536
0.531075 0.185291 0.114333
0.581271 0.194674 0.124063
0.634021 0.204773 0.132305
0.684650 0.214268 0.141776
0.733727 0.224240 0.151046
0.052839 0.149152 0.057488
0.084383 0.155783 0.062101
0.124861 0.163391 0.067391
0.168874 0.169957 0.072432
0.215097 0.178240 0.078473
0.261040 0.187011 0.085224
0.308687 0.194527 0.091230
0.356795 0.203233 0.098586
0.404988 0.212218 0.106536
0.452870 0.221438 0.114912
0.501305 0.231623 0.123325
0.552679 0.240757 0.132720
0.603730 0.250770 0.141518
0.654680 0.261174 0.151093
0.705824 0.270963 0.160171
0.754135 0.281282 0.169661
0.062294 0.198314 0.066946
0.096938 0.205846 0.072279
0.139894 0.213274 0.077713
0.184929 0.221884 0.083506
0.231935 0.230365 0.091219
0.279475 0.239834 0.098050
0.327288 0.248462 0.106192
0.375920 0.257869 0.114653
0.424413 0.267536 0.123291
0.472552 0.277335 0.132158
0.521488 0.287591 0.141022
0.573145 0.297326 0.149792
0.626233 0.308414 0.159552
0.677262 0.318080 0.169327
0.726976 0.329251 0.179142
0.774373 0.339937 0.188817
0.073365 0.250058 0.077870
0.111939 0.258394 0.084064
0.156818 0.268009 0.090589
0.203379 0.276292 0.098387
0.250877 0.285747 0.106215
0.298676 0.295752 0.115122
0.346879 0.304544 0.122996
0.395764 0.314498 0.131826
0.444451 0.324687 0.140905
0.493144 0.335082 0.150188
0.544347 0.345448 0.159550
0.595547 0.356837 0.168756
0.647433 0.366979 0.178034
0.698442 0.377788 0.187976
0.748026 0.388474 0.198538
0.794320 0.399263 0.208425
0.086320 0.304143 0.090548
0.128908 0.313237 0.097850
0.174540 0.322822 0.105465
0.221891 0.332976 0.113320
0.269475 0.342779 0.122902
0.318502 0.352137 0.131092
0.367251 0.362346 0.140630
0.416310 0.372690 0.149835
0.464913 0.383271 0.159258
0.514659 0.393916 0.168842
0.565592 0.404705 0.178841
0.618854 0.415289 0.188338
0.670531 0.426512 0.197862
0.720057 0.437291 0.208963
0.768750 0.447717 0.218215
0.813758 0.458443 0.228169
0.101626 0.360225 0.105361
0.146920 0.369922 0.113827
0.193200 0.379620 0.122158
0.240364 0.390355 0.131644
0.289785 0.399544 0.140285
0.338702 0.410149 0.148789
0.388164 0.420903 0.158953
0.437197 0.431428 0.168461
0.486096 0.442134 0.178161
0.536778 0.452823 0.187967
0.589645 0.463232 0.197608
0.641723 0.474953 0.207340
0.692856 0.484903 0.217763
0.742039 0.497210 0.227828
0.788814 0.507929 0.237986
0.832433 0.519095 0.247987
0.119501 0.417362 0.122120
0.165831 0.427473 0.130985
0.214015 0.437575 0.139853
0.261990 0.447615 0.148638
0.310347 0.457720 0.159371
0.360237 0.468747 0.169226
0.409382 0.479824 0.177882
0.458332 0.490775 0.187635
0.507951 0.502014 0.197561
0.559421 0.513307 0.207537
0.612208 0.524932 0.216849
0.664073 0.536127 0.227807
0.714474 0.548310 0.237696
0.763069 0.559746 0.247639
0.808150 0.571013 0.257793
0.850252 0.582367 0.267680
0.138603 0.475181 0.139683
0.185590 0.485740 0.148970
0.233467 0.497167 0.157252
0.282225 0.507707 0.167550
0.331092 0.518934 0.177795
0.381927 0.530599 0.186747
0.430798 0.541775 0.197246
0.479657 0.553383 0.207189
0.530225 0.565138 0.217168
0.582278 0.576921 0.227248
0.635222 0.588794 0.237402
0.686636 0.600517 0.247416
0.736252 0.611376 0.257352
0.782049 0.623480 0.267140
0.826633 0.634830 0.277335
0.866980 0.645931 0.287070
0.158416 0.536143 0.158010
0.205882 0.547442 0.167482
0.253701 0.558935 0.177618
0.304133 0.570178 0.186994
0.352889 0.582404 0.196451
0.403052 0.594352 0.206658
0.452170 0.605997 0.216826
0.501505 0.617854 0.226955
0.552837 0.629565 0.236967
0.605158 0.641278 0.247041
0.657542 0.652968 0.257069
0.708243 0.664599 0.267087
0.755740 0.675726 0.276599
0.801667 0.685891 0.287156
0.843944 0.696896 0.296482
0.882443 0.707046 0.305939
0.178734 0.599976 0.176906
0.226792 0.611601 0.186625
0.276714 0.623439 0.196326
0.325577 0.635062 0.205996
0.374520 0.646796 0.216435
0.424421 0.658199 0.226595
0.473441 0.670126 0.236666
0.523597 0.681510 0.246766
0.575288 0.692755 0.256753
0.627543 0.703842 0.266773
0.678688 0.714886 0.276728
0.728263 0.724931 0.286709
0.775030 0.736218 0.296348
0.818963 0.745637 0.305501
0.860053 0.755209 0.315113
0.896543 0.764591 0.324194
0.199611 0.664162 0.196211
0.248072 0.675596 0.206152
0.296938 0.686427 0.216559
0.346334 0.698775 0.226438
0.396251 0.709533 0.236322
0.445755 0.721244 0.245368
0.494823 0.731573 0.256420
0.545652 0.742279 0.266477
0.597567 0.752703 0.276331
0.649345 0.762739 0.286112
0.699680 0.772675 0.296199
0.747770 0.781659 0.305937
0.792951 0.792275 0.315218
0.835006 0.800628 0.323966
0.874776 0.809176 0.332853
0.909404 0.817468 0.341558
0.220674 0.726243 0.215868
0.269484 0.737072 0.225894
0.319608 0.748215 0.236108
0.368321 0.759081 0.246058
0.418071 0.769388 0.256066
0.466840 0.778993 0.265848
0.516273 0.789306 0.276047
0.567501 0.798836 0.285795
0.619221 0.808291 0.295494
0.670255 0.817418 0.305016
0.718999 0.826112 0.314255
0.766486 0.834265 0.323717
0.810664 0.843062 0.333202
0.850587 0.850210 0.341450
0.888259 0.857871 0.349737
0.920773 0.865015 0.357955
0.241899 0.784724 0.235673
0.290898 0.794869 0.245672
0.340276 0.804595 0.255773
0.390338 0.814670 0.265723
0.438467 0.823164 0.275261
0.487353 0.833667 0.285938
0.537450 0.841967 0.295143
0.588793 0.850461 0.304725
0.640053 0.858742 0.314176
0.689975 0.866575 0.323293
0.737536 0.873531 0.332846
0.782924 0.881334 0.340888
0.825880 0.887796 0.349022
0.864686 0.894362 0.357674
0.900349 0.900572 0.365515
0.930735 0.906114 0.373105
0.262925 0.838324 0.255349
0.312006 0.847449 0.265307
0.361883 0.856066 0.275340
0.411007 0.865207 0.285251
0.459415 0.872871 0.294927
0.508032 0.881201 0.304233
0.558051 0.888535 0.313692
0.609157 0.895858 0.322964
0.659788 0.902785 0.331951
0.708457 0.909239 0.340690
0.754980 0.914529 0.349518
0.799150 0.920930 0.357205
0.840469 0.926301 0.365537
0.877520 0.931646 0.372430
0.910793 0.936058 0.379896
0.939536 0.940469 0.386791
0.032936 0.040819 0.061098
0.059571 0.043423 0.064231
0.090796 0.047060 0.067821
0.131375 0.049877 0.072041
0.173637 0.053549 0.076109
0.218604 0.057073 0.080470
0.262854 0.061621 0.085672
0.308828 0.066301 0.091362
0.355432 0.071306 0.097484
0.402397 0.076714 0.104257
0.449328 0.082705 0.111805
0.496574 0.088575 0.118802
0.545482 0.096248 0.127325
0.596756 0.102985 0.136043
0.647229 0.110835 0.143907
0.696788 0.119334 0.152560
0.038986 0.069398 0.067552
0.066831 0.073127 0.071431
0.101646 0.077731 0.075578
0.143750 0.081704 0.079709
0.186883 0.086609 0.086004
0.231499 0.092662 0.090259
0.277930 0.098199 0.097288
0.324679 0.104679 0.104049
0.372021 0.111747 0.111321
0.419409 0.119382 0.118919
0.466749 0.127425 0.126953
0.515472 0.135150 0.134474
0.564996 0.145222 0.143590
0.616149 0.153616 0.152820
0.667521 0.163048 0.161132
0.717059 0.172500 0.170276
0.046122 0.105422 0.075545
0.075750 0.110937 0.080202
0.112829 0.117110 0.086055
0.157477 0.124147 0.091062
0.202629 0.131463 0.096813
0.246920 0.138393 0.103043
0.294368 0.145887 0.111100
0.341901 0.153921 0.118689
0.389811 0.162298 0.126658
0.437545 0.170947 0.134819
0.485298 0.179906 0.143243
0.534410 0.188475 0.152430
0.586244 0.198348 0.160838
0.636773 0.208465 0.169350
0.688473 0.217869 0.179302
0.737482 0.227910 0.188854
0.054473 0.151507 0.085187
0.086531 0.158345 0.090731
0.127364 0.165719 0.097478
0.172458 0.172512 0.103460
0.218512 0.180207 0.111815
0.264541 0.189175 0.117859
0.312015 0.197638 0.126334
0.360231 0.206490 0.134530
0.408566 0.215574 0.143013
0.456541 0.224886 0.151684
0.504834 0.234953 0.160557
0.555237 0.244172 0.170236
0.607765 0.253473 0.179831
0.659586 0.264016 0.188683
0.709824 0.274742 0.198173
0.757977 0.285218 0.208041
0.064261 0.201040 0.096699
0.099520 0.208690 0.103365
0.143773 0.217115 0.109875
0.188752 0.224703 0.117898
0.234468 0.233773 0.126102
0.283206 0.242229 0.134879
0.330864 0.251860 0.142702
0.379560 0.261377 0.151400
0.428085 0.271141 0.160327
0.476294 0.281058 0.169402
0.526114 0.291175 0.178814
0.577863 0.302115 0.187811
0.630159 0.312338 0.198297
0.681116 0.323120 0.207236
0.730909 0.333153 0.217573
0.778174 0.343864 0.227531
0.075657 0.253095 0.110358
0.115029 0.261525 0.117937
0.159669 0.271038 0.125988
0.206328 0.279411 0.133500
0.253588 0.288303 0.142430
0.301500 0.298391 0.151649
0.350616 0.308196 0.159982
0.399651 0.318217 0.169118
0.448228 0.328488 0.178418
0.497034 0.338913 0.187940
0.548123 0.349177 0.197844
0.599366 0.359544 0.207298
0.651533 0.371009 0.217118
0.702155 0.381793 0.228358
0.751944 0.392549 0.237336
0.798128 0.403254 0.247454
0.089041 0.307492 0.125612
0.132157 0.316694 0.133724
0.178718 0.326160 0.142218
0.225023 0.336378 0.151354
0.273461 0.345547 0.159641
0.321348 0.356014 0.169164
0.371103 0.366119 0.178142
0.420189 0.376548 0.187584
0.468853 0.387113 0.197238
0.518691 0.397767 0.207075
0.570520 0.408507 0.217601
0.622807 0.419135 0.226316
0.674279 0.429396 0.237290
0.724782 0.441211 0.246479
0.772439 0.451638 0.257389
0.817392 0.462337 0.267573
0.104773 0.363682 0.141813
0.150372 0.373501 0.150550
0.196372 0.383087 0.160456
0.244813 0.392850 0.169115
0.292671 0.403420 0.177494
0.342712 0.415127 0.187310
0.392098 0.424762 0.196937
0.441105 0.435354 0.206663
0.490088 0.446000 0.216579
0.541019 0.456804 0.226624
0.593557 0.467079 0.236815
0.645940 0.477857 0.246802
0.696546 0.490095 0.257548
0.746404 0.501350 0.266658
0.792465 0.512004 0.277532
0.835769 0.523269 0.287646
0.123043 0.421080 0.159088
0.169475 0.431209 0.168250
0.217400 0.441238 0.177584
0.265506 0.451323 0.186673
0.313314 0.462798 0.196999
0.364203 0.472841 0.205979
0.413363 0.483818 0.216299
0.462220 0.494843 0.226289
0.512029 0.506164 0.236378
0.563747 0.517549 0.246585
0.616258 0.529069 0.256479
0.668345 0.540382 0.266638
0.718056 0.552509 0.277638
0.766217 0.562873 0.286630
0.811668 0.575196 0.297514
0.853385 0.586560 0.307501
0.142225 0.479036 0.177147
0.189340 0.489738 0.186687
0.236965 0.501025 0.196581
0.285879 0.511663 0.206056
0.335204 0.523251 0.215835
0.386002 0.534896 0.226032
0.434818 0.546054 0.236073
0.483653 0.557706 0.246190
0.534450 0.569463 0.256411
0.586588 0.581165 0.266619
0.639429 0.593073 0.276404
0.689843 0.604761 0.286558
0.738598 0.615520 0.297479
0.785940 0.627526 0.307298
0.829980 0.638969 0.317250
0.869891 0.649886 0.327027
0.162164 0.540294 0.195920
0.209833 0.551792 0.205759
0.258442 0.563041 0.216282
0.306896 0.574483 0.226065
0.358057 0.586891 0.234928
0.407226 0.598644 0.246252
0.456158 0.610438 0.256096
0.505618 0.622157 0.266296
0.556962 0.633895 0.276442
0.609340 0.645415 0.286714
0.661669 0.656211 0.297378
0.711285 0.668761 0.306546
0.759792 0.679588 0.316766
0.804318 0.689721 0.326287
0.847041 0.700784 0.336448
0.885081 0.710867 0.345906
0.182621 0.604200 0.215303
0.230738 0.615894 0.225228
0.279341 0.627704 0.235531
0.329403 0.639346 0.245405
0.379586 0.651030 0.255089
0.428609 0.662479 0.265431
0.477342 0.674360 0.276136
0.527721 0.685748 0.286398
0.579513 0.696873 0.296468
0.631573 0.707690 0.306557
0.682908 0.718962 0.316242
0.731225 0.728763 0.326320
0.778964 0.738651 0.335397
0.821690 0.749097 0.346560
0.862963 0.758683 0.354986
0.899177 0.768038 0.364036
0.203486 0.668347 0.235055
0.252026 0.679771 0.245158
0.301807 0.691594 0.255158
0.351266 0.702953 0.266257
0.401379 0.713543 0.275246
0.448869 0.725111 0.285400
0.498811 0.735564 0.296180
0.549778 0.746054 0.306271
0.601665 0.756450 0.316202
0.653252 0.766599 0.326116
0.703799 0.776369 0.335922
0.751659 0.785492 0.344747
0.796807 0.794496 0.354223
0.838323 0.803452 0.363853
0.877543 0.812353 0.372742
0.911753 0.820335 0.381337
0.224617 0.730152 0.255084
0.273460 0.741025 0.265247
0.322356 0.752156 0.275091
0.373265 0.762086 0.286233
0.422131 0.772965 0.296113
0.470900 0.782467 0.306091
0.520260 0.792861 0.315922
0.571524 0.802345 0.325827
0.623170 0.811607 0.335450
0.674008 0.820596 0.344996
0.722953 0.829425 0.354056
0.770125 0.837421 0.363549
0.814093 0.845757 0.372896
0.853700 0.853575 0.381000
0.890600 0.860463 0.389324
0.922923 0.867311 0.397362
0.245806 0.788421 0.275191
0.294924 0.798468 0.285396
0.344092 0.808285 0.295080
0.393174 0.817314 0.305224
0.442500 0.827343 0.315469
0.491282 0.836687 0.325031
0.541393 0.845112 0.335154
0.592640 0.853440 0.344710
0.643771 0.861595 0.354099
0.693554 0.869405 0.363227
0.741215 0.876370 0.371605
0.786420 0.884173 0.380674
0.827901 0.890072 0.389459
0.867517 0.896498 0.397945
0.902346 0.902817 0.404786
0.932577 0.908248 0.412221
0.266835 0.841670 0.295100
0.315961 0.850731 0.305118
0.364639 0.859462 0.314888
0.414872 0.867469 0.325881
0.462153 0.875542 0.335084
0.510782 0.883650 0.344318
0.561800 0.891277 0.353656
0.612898 0.898406 0.362867
0.663266 0.905199 0.371747
0.711839 0.911528 0.380380
0.758517 0.917907 0.388176
0.801472 0.923254 0.396794
0.842292 0.928202 0.404616
0.878935 0.933488 0.411247
0.912630 0.937944 0.418876
0.940926 0.942204 0.425487
0.033976 0.041718 0.088779
0.060783 0.044465 0.092616
0.092697 0.047304 0.097059
0.133100 0.051001 0.101093
0.176421 0.055088 0.106999
0.220374 0.058717 0.113718
0.265563 0.063286 0.119324
0.311627 0.068085 0.125993
0.358435 0.073219 0.132940
0.405439 0.078778 0.140261
0.452293 0.084785 0.148372
0.499602 0.091853 0.155640
0.549304 0.097968 0.163856
0.599553 0.105984 0.171787
0.650996 0.113880 0.181226
0.700606 0.122573 0.190179
0.040236 0.070695 0.096784
0.068354 0.074573 0.101613
0.103847 0.078158 0.106586
0.145761 0.083245 0.112755
0.189855 0.088746 0.119382
0.234727 0.095025 0.125630
0.280841 0.100490 0.132722
0.327837 0.107202 0.140024
0.375277 0.114480 0.147603
0.422791 0.122395 0.155544
0.469879 0.131431 0.162933
0.518817 0.139325 0.171905
0.569048 0.147614 0.180749
0.620010 0.157202 0.190141
0.671539 0.166589 0.199087
0.720796 0.176066 0.208409
0.047563 0.107412 0.106854
0.077620 0.113113 0.112679
0.116429 0.120442 0.119177
0.159752 0.126400 0.126070
0.204793 0.133219 0.133009
0.250284 0.140268 0.139865
0.297561 0.148818 0.147353
0.345210 0.156971 0.155246
0.393249 0.165450 0.163458
0.441040 0.174190 0.171917
0.488666 0.183041 0.180854
0.538898 0.192837 0.189226
0.590260 0.202044 0.199460
0.641764 0.212214 0.208238
0.692420 0.221557 0.217674
0.741331 0.231619 0.227444
0.056163 0.153982 0.118722
0.088779 0.160926 0.125336
0.131076 0.168170 0.132061
0.174974 0.176218 0.138630
0.220948 0.184678 0.146779
0.267053 0.192470 0.154176
0.315502 0.200900 0.163200
0.363742 0.209781 0.171642
0.412226 0.218959 0.180342
0.460093 0.228378 0.189315
0.509426 0.238300 0.198688
0.559812 0.248764 0.207589
0.611814 0.258414 0.216746
0.663502 0.269047 0.226872
0.713803 0.278549 0.236976
0.761764 0.289103 0.247030
0.066224 0.203777 0.132029
0.102184 0.211567 0.139296
0.146419 0.219835 0.146374
0.191496 0.227562 0.154679
0.238147 0.237218 0.163748
0.285848 0.245787 0.170565
0.334438 0.255276 0.180027
0.383249 0.264904 0.188991
0.431866 0.274727 0.198130
0.480119 0.284695 0.207492
0.529886 0.294732 0.217424
0.581656 0.305698 0.226721
0.634170 0.316349 0.236688
0.684970 0.326121 0.246961
0.734782 0.337159 0.256787
0.781974 0.347914 0.267001
0.077966 0.256154 0.146599
0.118114 0.264707 0.154467
0.163637 0.272950 0.161933
0.210412 0.282547 0.170830
0.257455 0.291957 0.179471
0.305363 0.302178 0.187890
0.354363 0.311803 0.197819
0.403412 0.321985 0.207249
0.452064 0.332301 0.216784
0.501049 0.342727 0.226449
0.551860 0.352983 0.235966
0.603339 0.364391 0.245563
0.656408 0.374989 0.256930
0.706862 0.385805 0.267242
0.755833 0.396457 0.276914
0.801623 0.407245 0.287185
0.091799 0.310846 0.162407
0.135475 0.320046 0.170796
0.181742 0.329483 0.179796
0.228202 0.339732 0.188114
0.276275 0.349327 0.198223
0.325381 0.359922 0.206909
0.374980 0.369917 0.216448
0.424115 0.380430 0.226130
0.472779 0.391029 0.235988
0.522818 0.401733 0.246036
0.574392 0.412423 0.256094
0.626906 0.423044 0.266079
0.679281 0.433348 0.276335
0.728289 0.444133 0.286614
0.776335 0.455559 0.297255
0.820852 0.466296 0.307484
0.108085 0.367254 0.179176
0.153827 0.377141 0.188121
0.200769 0.386672 0.196443
0.248152 0.397500 0.206390
0.297841 0.407307 0.216555
0.346692 0.417919 0.225487
0.396051 0.428602 0.235718
0.445012 0.439170 0.245660
0.494128 0.449952 0.255792
0.545213 0.460678 0.266016
0.597525 0.472098 0.276822
0.650050 0.482756 0.287002
0.700245 0.494237 0.297777
0.749911 0.505529 0.306956
0.796175 0.516138 0.317545
0.839215 0.527408 0.327732
0.126569 0.424779 0.196934
0.173100 0.434945 0.206270
0.220785 0.444928 0.216240
0.269019 0.456092 0.225495
0.318468 0.466905 0.235344
0.368265 0.476980 0.244536
0.417372 0.487896 0.255453
0.466222 0.498984 0.265646
0.516158 0.510303 0.275914
0.567977 0.521721 0.286261
0.620300 0.533173 0.295788
0.672532 0.544552 0.307150
0.722525 0.555726 0.316932
0.769404 0.567112 0.327020
0.815127 0.579403 0.337674
0.856547 0.590745 0.347689
0.145870 0.482890 0.215431
0.193091 0.493679 0.225192
0.241599 0.503815 0.235681
0.290600 0.515596 0.244308
0.340293 0.527489 0.255572
0.389151 0.538235 0.264917
0.438753 0.550330 0.275566
0.487849 0.561974 0.285900
0.538634 0.573750 0.296265
0.590871 0.585487 0.306649
0.643577 0.597349 0.317088
0.694130 0.608018 0.327399
0.742789 0.620608 0.337798
0.789841 0.631554 0.347597
0.833142 0.642985 0.357424
0.872737 0.653931 0.367155
0.165920 0.544464 0.234682
0.213743 0.556031 0.244709
0.262054 0.567139 0.254792
0.311739 0.578685 0.264768
0.362028 0.591203 0.274964
0.410306 0.602939 0.285357
0.460081 0.614730 0.295914
0.509691 0.626417 0.306208
0.561233 0.638121 0.316578
0.613519 0.649690 0.326802
0.665891 0.661486 0.337301
0.715500 0.673001 0.347470
0.762863 0.683299 0.357002
0.808156 0.693452 0.366460
0.850074 0.704518 0.376527
0.887796 0.714566 0.385966
0.186478 0.608485 0.254457
0.234708 0.620258 0.264616
0.284190 0.631955 0.275494
0.333282 0.644694 0.284575
0.383732 0.655206 0.295341
0.431702 0.667559 0.305714
0.481421 0.678497 0.316174
0.531854 0.689789 0.326497
0.583681 0.700904 0.336654
0.635790 0.711735 0.346745
0.686999 0.721941 0.356243
0.735415 0.732793 0.366310
0.781684 0.743152 0.375481
0.824938 0.753258 0.385423
0.865613 0.762152 0.394897
0.901462 0.771216 0.403830
0.207411 0.672513 0.274561
0.256001 0.684062 0.284828
0.304514 0.695692 0.295498
0.355163 0.707217 0.305690
0.405422 0.718358 0.315614
0.454099 0.728888 0.326795
0.502794 0.739454 0.336334
0.553882 0.749939 0.346437
0.605712 0.760252 0.356361
0.657244 0.770157 0.366265
0.706635 0.780146 0.375941
0.754567 0.789018 0.384726
0.799214 0.797524 0.394005
0.841471 0.806372 0.403363
0.880002 0.815323 0.412381
0.913787 0.823159 0.420707
0.228552 0.734150 0.294917
0.277484 0.745030 0.305203
0.327277 0.756107 0.314702
0.377196 0.766065 0.324939
0.426125 0.776440 0.335439
0.474982 0.786988 0.346403
0.524234 0.796320 0.356065
0.575536 0.805875 0.365965
0.627121 0.814965 0.375578
0.677683 0.823978 0.385094
0.726870 0.832816 0.394015
0.772760 0.840758 0.403444
0.816418 0.848311 0.411341
0.856500 0.855944 0.421137
0.893027 0.863126 0.428624
0.924686 0.869757 0.436399
0.249740 0.792150 0.315189
0.298881 0.802172 0.325486
0.349025 0.811949 0.335922
0.398153 0.821902 0.346160
0.446438 0.830504 0.355802
0.495252 0.839763 0.365271
0.545258 0.848272 0.375308
0.596549 0.856518 0.384768
0.647608 0.864607 0.394022
0.697108 0.872239 0.403029
0.744054 0.879310 0.411350
0.788920 0.886971 0.420321
0.831046 0.892114 0.428489
0.870252 0.899217 0.436628
0.904521 0.904787 0.443725
0.934372 0.910021 0.450808
0.270743 0.845019 0.335220
0.319909 0.853933 0.345328
0.369544 0.862712 0.355857
0.417706 0.870685 0.365937
0.466033 0.879183 0.375162
0.515505 0.886225 0.384247
0.565617 0.893904 0.393587
0.616499 0.900888 0.402648
0.666644 0.907413 0.411395
0.715090 0.913867 0.419865
0.761798 0.920127 0.427663
0.804777 0.924639 0.436114
0.845008 0.930666 0.443286
0.881453 0.935543 0.450755
0.914372 0.939502 0.457460
0.942399 0.943345 0.463918
0.035074 0.042704 0.122124
0.062058 0.045574 0.126643
0.094671 0.049098 0.131009
0.136066 0.052962 0.136616
0.178042 0.056659 0.142250
0.222248 0.060415 0.149206
0.268250 0.064981 0.155427
0.314544 0.069930 0.162338
0.361466 0.075230 0.169560
0.408598 0.080906 0.177111
0.455242 0.087991 0.184720
0.502726 0.094178 0.193315
0.552006 0.100848 0.202280
0.604305 0.107962 0.210409
0.654652 0.117021 0.219411
0.704296 0.125895 0.228566
0.041500 0.072091 0.131443
0.069928 0.076107 0.136785
0.104909 0.080601 0.142493
0.147811 0.085884 0.148901
0.191874 0.090976 0.155138
0.236797 0.097435 0.161637
0.283899 0.102874 0.169330
0.330945 0.109787 0.176862
0.378553 0.117295 0.184752
0.426071 0.125383 0.192922
0.473127 0.133072 0.200910
0.522026 0.143473 0.210110
0.572945 0.151135 0.219696
0.624741 0.160742 0.228201
0.675367 0.170050 0.237783
0.724526 0.179547 0.247299
0.049065 0.109406 0.142344
0.079549 0.115333 0.148463
0.118897 0.122549 0.154426
0.162072 0.128668 0.162690
0.208135 0.136199 0.168217
0.253788 0.144607 0.176426
0.300816 0.151755 0.184480
0.348611 0.160075 0.192631
0.396737 0.168612 0.201102
0.444493 0.177470 0.209822
0.493139 0.186149 0.218253
0.542313 0.196101 0.227955
0.594214 0.204588 0.237730
0.645517 0.215951 0.246703
0.696376 0.225205 0.256767
0.745004 0.235321 0.266742
0.057910 0.156464 0.154760
0.091102 0.163582 0.161610
0.133654 0.171804 0.168948
0.178695 0.178857 0.176843
0.223445 0.186755 0.183589
0.270684 0.195800 0.192317
0.319017 0.204117 0.200836
0.367288 0.213075 0.209505
0.415766 0.222387 0.218470
0.463817 0.231902 0.227652
0.512949 0.241701 0.237636
0.563440 0.252262 0.246757
0.616739 0.262304 0.256438
0.667310 0.271800 0.265672
0.717602 0.282402 0.276428
0.765540 0.292915 0.286649
0.068265 0.206594 0.168599
0.104997 0.214519 0.176112
0.149135 0.222631 0.183774
0.195449 0.231632 0.192325
0.241909 0.240751 0.199931
0.289633 0.249363 0.209208
0.338113 0.258788 0.218139
0.386942 0.268448 0.227359
0.435583 0.278375 0.236776
0.483864 0.288447 0.246386
0.534568 0.298358 0.256875
0.586365 0.309463 0.266430
0.638174 0.319210 0.276728
0.688742 0.330110 0.286102
0.738798 0.341062 0.296601
0.785771 0.351910 0.306968
0.080366 0.259243 0.183699
0.121307 0.267979 0.191818
0.166502 0.276026 0.199873
0.213466 0.286916 0.209015
0.260225 0.295655 0.218366
0.309281 0.304885 0.226957
0.358162 0.315509 0.236459
0.407227 0.325768 0.246066
0.455847 0.336136 0.255836
0.505009 0.346572 0.265768
0.556632 0.357862 0.275823
0.608262 0.368238 0.285712
0.660264 0.378985 0.296192
0.710561 0.389896 0.306602
0.759649 0.400436 0.317006
0.805397 0.411267 0.327385
0.094596 0.314209 0.199985
0.138803 0.323558 0.208638
0.184725 0.332849 0.217110
0.232551 0.343228 0.226782
0.280255 0.353211 0.236417
0.329327 0.362759 0.245385
0.378871 0.373773 0.255469
0.427979 0.384324 0.265430
0.476699 0.394909 0.275461
0.526914 0.405666 0.285710
0.578281 0.416329 0.296395
0.630956 0.426984 0.306578
0.682941 0.438440 0.316801
0.732728 0.448164 0.327111
0.779945 0.459583 0.337541
0.824286 0.470307 0.347792
0.111459 0.370836 0.217305
0.157349 0.380764 0.226424
0.204057 0.391290 0.236473
0.251555 0.401149 0.244487
0.300755 0.411224 0.255155
0.350704 0.421865 0.265352
0.399998 0.432493 0.275154
0.448987 0.443103 0.285304
