example_ofxGpuLutCube/bin/data/ofxGpuLutCube/LUT/U15 (gray fade tint).cube
LUT_3D_SIZE 6
0.031899 0.039969 0.036588
0.129623 0.048062 0.046042
0.260238 0.059994 0.057885
0.399263 0.074654 0.072987
0.541522 0.092376 0.092189
0.693069 0.116121 0.115729
0.052839 0.149152 0.057488
0.168874 0.169957 0.072432
0.308687 0.194527 0.091230
0.452870 0.221438 0.114912
0.603730 0.250770 0.141518
0.754135 0.281282 0.169661
0.086320 0.304143 0.090548
0.221891 0.332976 0.113320
0.367251 0.362346 0.140630
0.514659 0.393916 0.168842
0.670531 0.426512 0.197862
0.813758 0.458443 0.228169
0.138603 0.475181 0.139683
0.282225 0.507707 0.167550
0.430798 0.541775 0.197246
0.582278 0.576921 0.227248
0.736252 0.611376 0.257352
0.866980 0.645931 0.287070
0.199611 0.664162 0.196211
0.346334 0.698775 0.226438
0.494823 0.731573 0.256420
0.649345 0.762739 0.286112
0.792951 0.792275 0.315218
0.909404 0.817468 0.341558
0.262925 0.838324 0.255349
0.411007 0.865207 0.285251
0.558051 0.888535 0.313692
0.708457 0.909239 0.340690
0.840469 0.926301 0.365537
0.939536 0.940469 0.386791
0.035074 0.042704 0.122124
0.136066 0.052962 0.136616
0.268250 0.064981 0.155427
0.408598 0.080906 0.177111
0.552006 0.100848 0.202280
0.704296 0.125895 0.228566
0.057910 0.156464 0.154760
0.178695 0.178857 0.176843
0.319017 0.204117 0.200836
0.463817 0.231902 0.227652
0.616739 0.262304 0.256438
0.765540 0.292915 0.286649
0.094596 0.314209 0.199985
0.232551 0.343228 0.226782
0.378871 0.373773 0.255469
0.526914 0.405666 0.285710
0.682941 0.438440 0.316801
0.824286 0.470307 0.347792
0.149560 0.486806 0.254480
0.294298 0.519583 0.284396
0.442713 0.554572 0.315658
0.595126 0.589849 0.346905
0.747062 0.624653 0.378083
0.875718 0.657828 0.407172
0.211306 0.676642 0.314576
0.359045 0.711414 0.345670
0.506807 0.743361 0.376586
0.661058 0.773742 0.406257
0.802737 0.801498 0.434348
0.915926 0.826122 0.459863
0.274625 0.848381 0.375506
0.421427 0.873861 0.406002
0.569313 0.896608 0.433137
0.718413 0.915868 0.458960
0.847828 0.931228 0.483074
0.943753 0.944883 0.503812
0.038527 0.045886 0.230468
0.143042 0.056846 0.248490
0.276806 0.070414 0.268368
0.418241 0.087721 0.292338
0.563689 0.108870 0.319203
0.715617 0.136074 0.347502
0.063497 0.164305 0.267681
0.187761 0.188110 0.290953
0.329567 0.214015 0.317954
0.474905 0.242611 0.346588
0.627738 0.272924 0.376728
0.776879 0.304650 0.407432
0.103635 0.324511 0.317039
0.243572 0.354855 0.344981
0.390614 0.385346 0.375586
0.539438 0.417531 0.406442
0.695223 0.449307 0.436686
0.834745 0.482301 0.468308
0.160828 0.498803 0.374653
0.306545 0.532685 0.405232
0.454650 0.567472 0.436339
0.607824 0.602692 0.467351
0.758639 0.636688 0.499009
0.884146 0.669564 0.529105
0.223166 0.689244 0.435364
0.371939 0.722942 0.466940
0.518811 0.754730 0.497508
0.672661 0.784353 0.528242
0.812186 0.811013 0.557811
0.922161 0.834387 0.584299
0.286268 0.858103 0.496365
0.432800 0.882229 0.526719
0.580345 0.903957 0.556383
0.727652 0.922189 0.583466
0.853735 0.937445 0.607532
0.947499 0.948790 0.627541
0.042356 0.049517 0.344824
0.149178 0.061122 0.364104
0.285814 0.076310 0.386150
0.428268 0.095072 0.411231
0.575429 0.118876 0.438390
0.727057 0.146437 0.467555
0.069571 0.172566 0.385364
0.197249 0.196687 0.410825
0.340464 0.224260 0.437520
0.486401 0.253565 0.466481
0.640752 0.283683 0.497383
0.788000 0.316487 0.530405
0.113596 0.335161 0.436595
0.254856 0.365606 0.465180
0.402475 0.397091 0.496646
0.552124 0.429377 0.529352
0.708227 0.461359 0.563070
0.844545 0.494174 0.595821
0.172129 0.510903 0.495614
0.317964 0.545071 0.527430
0.466595 0.580450 0.561647
0.620283 0.615433 0.594811
0.768890 0.649400 0.627381
0.892112 0.680946 0.656784
0.235046 0.701793 0.560524
0.383614 0.735103 0.593493
0.530669 0.765824 0.625801
0.683755 0.794376 0.655863
0.820983 0.819274 0.683220
0.927727 0.841875 0.707467
0.297724 0.867300 0.624695
0.443988 0.890293 0.654693
0.590974 0.911096 0.682238
0.736527 0.928077 0.706677
0.860165 0.941379 0.727663
0.951124 0.952062 0.744518
0.046486 0.053493 0.460362
0.158090 0.066730 0.480909
0.295277 0.082708 0.505305
0.438502 0.103126 0.532800
0.587407 0.128244 0.563183
0.738549 0.157059 0.594760
0.076248 0.181202 0.504404
0.207078 0.206773 0.532214
0.351696 0.234798 0.561869
0.498174 0.264774 0.593786
0.652459 0.296696 0.625773
0.799100 0.328317 0.659358
0.124019 0.346067 0.560892
0.266445 0.376706 0.592151
0.414382 0.408833 0.625404
0.564831 0.441250 0.658191
0.718992 0.474370 0.690133
0.854326 0.506280 0.720640
0.183735 0.523401 0.624435
0.330483 0.558649 0.657155
0.478462 0.593273 0.689166
0.632713 0.628070 0.719685
0.778675 0.661772 0.748186
0.899655 0.691734 0.774112
0.246850 0.714009 0.688075
0.394346 0.747129 0.718263
0.542389 0.776600 0.747412
0.694576 0.804072 0.773338
0.829434 0.828808 0.796361
0.932984 0.849168 0.816094
0.309059 0.876386 0.746370
0.454893 0.898799 0.771869
0.601314 0.917692 0.795535
0.744947 0.933475 0.815388
0.866194 0.946709 0.831107
0.954085 0.955330 0.844576
0.051038 0.057896 0.582746
0.166205 0.071879 0.605908
0.305031 0.089649 0.631757
0.449033 0.111895 0.660019
0.599358 0.138995 0.688947
0.749906 0.167838 0.719576
0.083481 0.190233 0.630900
0.218485 0.216089 0.658758
0.363050 0.245588 0.688531
0.510090 0.276119 0.718519
0.665237 0.307526 0.748500
0.809912 0.340251 0.777458
0.134661 0.357153 0.687600
0.277108 0.388984 0.718096
0.426414 0.420724 0.747579
0.577564 0.453062 0.776482
0.731371 0.485319 0.804699
0.863505 0.518267 0.829170
0.195299 0.536008 0.746601
0.342077 0.570242 0.774867
0.490415 0.606095 0.803095
0.644893 0.640333 0.828379
0.788940 0.672658 0.851371
0.906927 0.702464 0.871208
0.258789 0.726327 0.802401
0.405836 0.757992 0.827424
0.554006 0.787049 0.850490
0.704971 0.813356 0.870585
0.837501 0.836057 0.887076
0.937916 0.855907 0.900964
0.320051 0.884879 0.849706
0.464617 0.905999 0.870345
0.611165 0.923960 0.886771
0.752721 0.938383 0.900619
0.871695 0.948931 0.911112
0.956028 0.957473 0.918580
