example_ofxGpuLutCube/bin/data/ofxGpuLutCube/LUT/U16 (hard blue fade tint).cube
LUT_3D_SIZE 16
0.021700 0.069972 0.093936
0.039238 0.073221 0.098659
0.058985 0.077152 0.104547
0.080361 0.080541 0.109439
0.103269 0.085589 0.114917
0.129547 0.089816 0.121454
0.157025 0.095373 0.127426
0.186461 0.100841 0.134205
0.217537 0.106583 0.141265
0.249830 0.112687 0.148650
0.283445 0.119507 0.157166
0.317878 0.125912 0.163561
0.353870 0.132569 0.173629
0.392614 0.140873 0.182060
0.432986 0.149032 0.191468
0.472949 0.157311 0.200745
0.025626 0.105074 0.103617
0.043853 0.109260 0.108995
0.064375 0.113568 0.115700
0.086954 0.118989 0.121277
0.111400 0.123887 0.128072
0.137926 0.130356 0.134024
0.166429 0.136467 0.141046
0.196773 0.143199 0.148415
0.228711 0.150371 0.156233
0.261766 0.157658 0.164379
0.295856 0.165376 0.172678
0.331073 0.173554 0.182337
0.369574 0.181218 0.191525
0.408539 0.188865 0.201396
0.449167 0.197513 0.209777
0.489391 0.205997 0.219212
0.030219 0.144632 0.114580
0.049373 0.150161 0.120609
0.070216 0.156342 0.127077
0.093750 0.161739 0.133325
0.119776 0.168953 0.141257
0.147268 0.175335 0.147983
0.176769 0.182315 0.155907
0.208135 0.189652 0.164136
0.240890 0.197121 0.172772
0.274588 0.204819 0.181733
0.308562 0.211967 0.190641
0.345976 0.220505 0.199221
0.384346 0.228806 0.209716
0.425670 0.237658 0.218457
0.466108 0.245944 0.228357
0.506102 0.254596 0.237850
0.035597 0.187963 0.126845
0.055739 0.194026 0.133517
0.077815 0.200901 0.140970
0.102091 0.206818 0.147895
0.129191 0.214229 0.155992
0.157525 0.222021 0.164770
0.188248 0.228667 0.172409
0.220467 0.236300 0.181453
0.253874 0.244161 0.190651
0.288084 0.252167 0.199865
0.323650 0.260961 0.208940
0.362358 0.268792 0.218896
0.401816 0.277334 0.228073
0.442073 0.286166 0.237903
0.483287 0.294412 0.247063
0.523003 0.303068 0.256508
0.041836 0.231984 0.140357
0.062936 0.238603 0.147686
0.085924 0.245079 0.154972
0.111324 0.252564 0.162564
0.139420 0.259862 0.172378
0.169252 0.268004 0.180829
0.200541 0.275372 0.190251
0.233580 0.283361 0.199568
0.267626 0.291541 0.208920
0.302425 0.299762 0.218306
0.338748 0.308348 0.227555
0.378085 0.316439 0.236581
0.419529 0.325612 0.246453
0.460166 0.333548 0.256169
0.500658 0.342725 0.265804
0.539874 0.351442 0.275174
0.049013 0.276735 0.155190
0.071010 0.283809 0.163289
0.095285 0.291919 0.171609
0.122176 0.298887 0.181232
0.151146 0.306794 0.190276
0.181679 0.315135 0.200087
0.213727 0.322401 0.208585
0.247399 0.330604 0.217966
0.281966 0.338983 0.227446
0.317591 0.347471 0.236975
0.356075 0.355899 0.246451
0.395450 0.365121 0.255618
0.436326 0.373255 0.264712
0.477303 0.382005 0.274374
0.517933 0.390529 0.284431
0.556594 0.399068 0.293747
0.056883 0.322072 0.171555
0.079978 0.329583 0.180572
0.105326 0.337444 0.189460
0.133305 0.345771 0.198121
0.162871 0.353785 0.208484
0.194699 0.361322 0.217184
0.227595 0.369558 0.227151
0.261850 0.377883 0.236617
0.296831 0.386348 0.246151
0.333643 0.394816 0.255701
0.372300 0.403394 0.265509
0.413663 0.411766 0.274715
0.454752 0.420626 0.283799
0.494989 0.429064 0.294276
0.535182 0.437234 0.302862
0.572971 0.445579 0.312032
0.065518 0.367873 0.189347
0.089787 0.375633 0.198674
0.116161 0.383446 0.207684
0.144619 0.391990 0.217768
0.175897 0.399341 0.226789
0.208213 0.407712 0.235544
0.242082 0.416216 0.245838
0.276764 0.424484 0.255324
0.312380 0.432844 0.264871
0.350281 0.441197 0.274366
0.390840 0.449308 0.283567
0.431738 0.458359 0.292751
0.472774 0.466066 0.302450
0.513020 0.475529 0.311718
0.551917 0.483723 0.320963
0.588832 0.492263 0.329948
0.074975 0.413423 0.207651
0.100369 0.421369 0.217080
0.128533 0.429284 0.226348
0.158129 0.437130 0.235379
0.189338 0.445003 0.246271
0.222806 0.453560 0.256068
0.256967 0.462126 0.264578
0.292026 0.470584 0.274025
0.328599 0.479208 0.283518
0.367553 0.487846 0.292915
0.408474 0.496712 0.301599
0.449577 0.505238 0.311699
0.490369 0.514444 0.320699
0.530474 0.523059 0.329617
0.568243 0.531538 0.338674
0.604020 0.540072 0.347368
0.085223 0.458552 0.226179
0.111718 0.466685 0.235740
0.140370 0.475496 0.244132
0.171031 0.483538 0.254418
0.203098 0.492142 0.264505
0.237745 0.501047 0.273159
0.272177 0.509511 0.283216
0.307632 0.518295 0.292598
0.345324 0.527135 0.301898
0.385146 0.535994 0.311190
0.426610 0.544859 0.320426
0.467748 0.553596 0.329428
0.508222 0.561710 0.338270
0.546286 0.570730 0.346903
0.583924 0.579105 0.355788
0.618426 0.587272 0.364201
0.096180 0.505250 0.244901
0.123672 0.513820 0.254352
0.152911 0.522457 0.264305
0.185254 0.530922 0.273401
0.217795 0.540111 0.282482
0.252510 0.549024 0.292109
0.287568 0.557703 0.301579
0.323805 0.566521 0.310898
0.362477 0.575210 0.320030
0.402910 0.583843 0.329100
0.444358 0.592439 0.338031
0.485259 0.601032 0.346865
0.524358 0.609134 0.355169
0.562757 0.616570 0.364297
0.598648 0.624634 0.372287
0.631698 0.631991 0.380289
0.107754 0.553202 0.263620
0.136287 0.561897 0.273075
0.167480 0.570689 0.282350
0.199411 0.579263 0.291485
0.232631 0.587955 0.301243
0.267632 0.596328 0.310595
0.303060 0.605086 0.319758
0.340351 0.613392 0.328865
0.379732 0.621588 0.337754
0.420514 0.629659 0.346583
0.461337 0.637683 0.355259
0.501684 0.644964 0.363875
0.540417 0.653133 0.372156
0.577369 0.659897 0.379896
0.612453 0.666807 0.388010
0.643941 0.673568 0.395606
0.119948 0.600704 0.282234
0.149400 0.609073 0.291619
0.180550 0.616991 0.301369
0.213352 0.626022 0.310451
0.247734 0.633809 0.319444
0.282933 0.642314 0.327600
0.318834 0.649776 0.337441
0.357033 0.657517 0.346339
0.397028 0.664997 0.354964
0.437790 0.672244 0.363380
0.478314 0.679344 0.372034
0.517746 0.685798 0.380286
0.555457 0.693425 0.388077
0.590971 0.699359 0.395438
0.625138 0.705419 0.402770
0.655136 0.711247 0.409943
0.132559 0.645920 0.300696
0.162886 0.653756 0.309942
0.195450 0.661828 0.319258
0.228360 0.669560 0.328216
0.263122 0.676989 0.337147
0.298241 0.683919 0.345788
0.334862 0.691249 0.354675
0.373756 0.698054 0.363115
0.413949 0.704767 0.371398
0.454572 0.711200 0.379533
0.494091 0.717431 0.387313
0.533271 0.723154 0.395198
0.570337 0.729446 0.403079
0.604287 0.734562 0.409865
0.636790 0.739913 0.416667
0.665087 0.744836 0.423292
0.145566 0.687966 0.318854
0.176632 0.695198 0.327878
0.209277 0.702121 0.336883
0.243601 0.709303 0.345671
0.277685 0.715310 0.353995
0.313290 0.722754 0.363225
0.350802 0.728736 0.371103
0.390186 0.734548 0.379282
0.430430 0.740441 0.387239
0.470461 0.745951 0.394820
0.509316 0.750856 0.402760
0.547009 0.756333 0.409394
0.583206 0.760909 0.416058
0.616386 0.765447 0.423096
0.647253 0.769772 0.429412
0.673819 0.773648 0.435513
0.158714 0.726091 0.336494
0.190419 0.732515 0.345295
0.223946 0.738637 0.354096
0.258117 0.745073 0.362618
0.292812 0.750377 0.370922
0.328682 0.756207 0.378864
0.366497 0.761400 0.386800
0.406060 0.766581 0.394566
0.446129 0.771363 0.402050
0.485458 0.775866 0.409225
0.523778 0.779577 0.416473
0.560636 0.784010 0.422690
0.595658 0.787745 0.429434
0.627494 0.791554 0.434990
0.656336 0.794559 0.440970
0.681518 0.797585 0.446430
0.022390 0.071110 0.132081
0.040039 0.074542 0.136546
0.059475 0.079254 0.141581
0.081301 0.082852 0.147362
0.104811 0.087466 0.152848
0.131301 0.091814 0.158620
0.158666 0.097346 0.165365
0.188304 0.102936 0.172568
0.219535 0.108813 0.180146
0.252012 0.115049 0.188081
0.285519 0.121850 0.196453
0.320138 0.128382 0.204067
0.356884 0.136782 0.213209
0.396398 0.144030 0.222387
0.436108 0.152113 0.230558
0.475966 0.160366 0.239380
0.026419 0.106583 0.141198
0.044824 0.110927 0.146530
0.065532 0.116215 0.152137
0.088038 0.120722 0.157610
0.112467 0.126211 0.165778
0.139160 0.132881 0.171188
0.168260 0.138889 0.179904
0.198822 0.145808 0.187840
0.230918 0.153025 0.195949
0.264074 0.160411 0.204202
0.298165 0.167936 0.212805
0.334255 0.175112 0.220732
0.371815 0.184362 0.230210
0.411580 0.192036 0.239651
0.452322 0.200581 0.248021
0.492458 0.209098 0.257120
0.031154 0.146584 0.152097
0.050510 0.152211 0.158257
0.071473 0.158249 0.165837
0.095656 0.164886 0.172189
0.121740 0.171698 0.179311
0.148686 0.178102 0.186690
0.178876 0.184982 0.195690
0.210361 0.192320 0.203944
0.243234 0.199911 0.212498
0.277018 0.207710 0.221106
0.311790 0.215708 0.229845
0.348474 0.223318 0.239259
0.388188 0.232019 0.247731
0.427832 0.240884 0.256201
0.469255 0.249087 0.265982
0.509201 0.257754 0.275189
0.036678 0.190109 0.164729
0.057002 0.196336 0.171793
0.079156 0.202993 0.180151
0.104140 0.209097 0.187175
0.131259 0.215974 0.196473
0.159752 0.223914 0.203061
0.190424 0.231403 0.212150
0.222801 0.239174 0.220801
0.256414 0.247076 0.229615
0.290748 0.255143 0.238504
0.326302 0.263805 0.247452
0.364359 0.271716 0.257093
0.404974 0.279640 0.266480
0.445989 0.288563 0.275025
0.486522 0.297577 0.284092
0.526132 0.306360 0.293390
0.043129 0.234377 0.179201
0.064367 0.241079 0.187050
0.088051 0.248422 0.194352
0.113566 0.254993 0.203106
0.140971 0.262800 0.211906
0.171649 0.270047 0.221155
0.202920 0.278258 0.229307
0.236102 0.286336 0.238208
0.270255 0.294572 0.247223
0.305168 0.302864 0.256254
0.342260 0.311318 0.265497
0.381734 0.320396 0.274209
0.422580 0.328842 0.284217
0.463255 0.337699 0.292658
0.503832 0.345887 0.302269
0.543056 0.354638 0.311428
0.050448 0.279318 0.194875
0.072619 0.286458 0.203143
0.096887 0.294460 0.211801
0.123938 0.301499 0.219734
0.152845 0.308927 0.229008
0.183505 0.317306 0.238461
0.216236 0.325433 0.246871
0.250094 0.333690 0.255977
0.284712 0.342081 0.265096
0.320499 0.350596 0.274329
0.358911 0.358906 0.283783
0.398422 0.367291 0.292701
0.439521 0.376559 0.301846
0.480385 0.385202 0.312220
0.521219 0.393739 0.320376
0.559750 0.402264 0.329458
0.058465 0.324847 0.211392
0.081724 0.332431 0.219949
0.107730 0.340192 0.228809
0.135204 0.348552 0.238159
0.165420 0.356005 0.246537
0.196594 0.364419 0.256019
0.230287 0.372621 0.264837
0.264604 0.380954 0.273981
0.299700 0.389420 0.283229
0.336657 0.397903 0.292506
0.376052 0.406436 0.302305
0.416822 0.414794 0.310311
0.457774 0.422888 0.320338
0.498825 0.432136 0.328600
0.538280 0.440289 0.338305
0.576051 0.448599 0.347294
0.067220 0.370623 0.228387
0.091691 0.378532 0.237342
0.118028 0.386174 0.247358
0.147371 0.393988 0.255974
0.177768 0.402427 0.264204
0.210901 0.411655 0.273700
0.244814 0.419267 0.282941
0.279600 0.427563 0.292110
0.315338 0.435870 0.301361
0.353526 0.444302 0.310636
0.393880 0.452283 0.319895
0.435075 0.460620 0.328893
0.475774 0.470039 0.338469
0.516653 0.478702 0.346498
0.554994 0.486854 0.355988
0.591681 0.495415 0.364689
0.076847 0.416324 0.245969
0.102435 0.424305 0.255116
0.130587 0.432157 0.264274
0.160351 0.440024 0.273104
0.191295 0.448966 0.282991
0.225509 0.456721 0.291457
0.259797 0.465224 0.301108
0.294867 0.473704 0.310302
0.331654 0.482374 0.319505
0.370835 0.491088 0.328703
0.411630 0.499872 0.337525
0.453017 0.508462 0.346451
0.493271 0.517624 0.356043
0.533082 0.525432 0.363780
0.571239 0.534686 0.373159
0.606689 0.543211 0.381602
0.087202 0.461535 0.263860
0.113907 0.469764 0.273117
0.142513 0.478427 0.282592
0.173376 0.486574 0.291536
0.205838 0.495402 0.300679
0.240578 0.504289 0.310056
0.275072 0.512737 0.319230
0.310584 0.521503 0.328336
0.348542 0.530366 0.337428
0.388482 0.539136 0.346449
0.429923 0.548121 0.354957
0.470337 0.556778 0.363789
0.510109 0.564784 0.373126
0.549508 0.573705 0.381460
0.586716 0.582125 0.389830
0.620893 0.590198 0.397991
0.098299 0.508362 0.281957
0.126037 0.517075 0.291262
0.155892 0.525537 0.301094
0.187061 0.534174 0.310100
0.221297 0.543468 0.318196
0.255457 0.552248 0.328388
0.290461 0.560988 0.337175
0.326872 0.569725 0.346166
0.365676 0.578400 0.355010
0.406176 0.586930 0.363881
0.447649 0.594874 0.373017
0.487784 0.604050 0.380829
0.527765 0.611956 0.389383
0.564989 0.619356 0.397323
0.601259 0.627415 0.405758
0.633974 0.634773 0.413497
0.109987 0.556387 0.300192
0.138687 0.565073 0.309339
0.169189 0.573826 0.318739
0.201982 0.582441 0.327650
0.236115 0.591041 0.336277
0.270619 0.599440 0.345422
0.305936 0.608152 0.354751
0.343441 0.616472 0.363646
0.383021 0.624619 0.372252
0.423693 0.632493 0.380826
0.464695 0.640711 0.388967
0.504132 0.647773 0.397369
0.543724 0.654963 0.404885
0.579680 0.662413 0.414038
0.614915 0.669370 0.420927
0.646316 0.676060 0.428266
0.122241 0.603742 0.318290
0.151872 0.612108 0.327402
0.183718 0.620756 0.336334
0.216697 0.629020 0.346136
0.251349 0.636700 0.353979
0.285196 0.645048 0.362776
0.321819 0.652673 0.371993
0.360203 0.660237 0.380553
0.400213 0.667720 0.388964
0.440932 0.675001 0.397199
0.481631 0.681986 0.405301
0.520980 0.688487 0.412590
0.558647 0.694929 0.420283
0.593835 0.701318 0.428100
0.627509 0.707689 0.435228
0.657169 0.713270 0.442078
0.134957 0.648766 0.336273
0.165408 0.656643 0.345240
0.197266 0.664616 0.353822
0.231776 0.671726 0.363456
0.265985 0.679602 0.371977
0.301230 0.686349 0.380435
0.337850 0.693784 0.388667
0.376850 0.700525 0.396960
0.417113 0.707106 0.404928
0.457522 0.713551 0.412776
0.497302 0.719780 0.420145
0.536307 0.725457 0.427857
0.573230 0.731320 0.435358
0.606980 0.736883 0.441805
0.638830 0.741672 0.448411
0.666947 0.746508 0.454768
0.147985 0.690607 0.353924
0.179236 0.697839 0.362772
0.211849 0.704763 0.371070
0.245589 0.711142 0.379679
0.280576 0.718373 0.388313
0.316198 0.724890 0.396303
0.353821 0.730913 0.404704
0.393188 0.736757 0.412541
0.433382 0.742490 0.420196
0.473363 0.747967 0.427605
0.512374 0.752866 0.434312
0.549971 0.758326 0.441573
0.584940 0.762451 0.448547
0.618868 0.766964 0.455225
0.648995 0.771383 0.460624
0.675458 0.775190 0.466417
0.161187 0.728454 0.371111
0.193042 0.734765 0.379619
0.225829 0.740985 0.387810
0.260853 0.746559 0.397043
0.294806 0.752297 0.404637
0.330734 0.757977 0.412257
0.369363 0.763302 0.419856
0.409058 0.768343 0.427276
0.448931 0.773026 0.434462
0.488209 0.777429 0.441339
0.526640 0.781918 0.447526
0.562574 0.785679 0.454313
0.597232 0.789067 0.460471
0.628695 0.792760 0.465664
0.657976 0.795857 0.471598
0.682726 0.798788 0.476706
0.023083 0.072299 0.169322
0.040837 0.075901 0.174140
0.060554 0.079570 0.179616
0.082235 0.084267 0.184421
0.106417 0.089366 0.191173
0.132377 0.093833 0.198545
0.160396 0.099354 0.204642
0.190176 0.105045 0.211795
0.221573 0.111034 0.219137
0.254171 0.117406 0.226774
0.287655 0.124180 0.235131
0.322370 0.132006 0.242508
0.359798 0.138646 0.250748
0.398575 0.147167 0.258602
0.439119 0.155133 0.267848
0.479095 0.163406 0.276487
0.027249 0.108103 0.179312
0.045809 0.112594 0.185045
0.066721 0.116707 0.190711
0.089141 0.122456 0.197499
0.114208 0.128586 0.204705
0.141137 0.135458 0.211399
0.170116 0.141355 0.218899
0.200916 0.148433 0.226540
0.233115 0.155707 0.234336
0.266475 0.163241 0.242410
0.300496 0.171665 0.249823
0.336735 0.178963 0.258717
0.374926 0.186575 0.267380
0.414589 0.195293 0.276447
0.455523 0.203768 0.284975
0.495585 0.212275 0.293748
0.032110 0.148646 0.191007
0.051663 0.154376 0.197409
0.073360 0.161403 0.204479
0.096931 0.166976 0.211861
0.123026 0.173313 0.219197
0.150774 0.179838 0.226357
0.180950 0.187656 0.234081
0.212580 0.195089 0.242111
0.245642 0.202747 0.250357
0.279525 0.210604 0.258728
0.314278 0.218485 0.267464
0.351905 0.227164 0.275564
0.391311 0.235278 0.285327
0.431772 0.244159 0.293583
0.472453 0.252267 0.302387
0.512396 0.260958 0.311351
0.037790 0.192374 0.203992
0.058313 0.198671 0.211077
0.081148 0.205208 0.218224
0.105582 0.212412 0.225085
0.132733 0.219952 0.233486
0.161338 0.226838 0.241034
0.192737 0.234267 0.250091
0.225217 0.242035 0.258449
0.258952 0.250019 0.266972
0.293329 0.258161 0.275655
0.329728 0.266693 0.284578
0.367856 0.275635 0.292975
0.408143 0.283827 0.301512
0.449116 0.292797 0.310843
0.489781 0.300763 0.320037
0.529383 0.309591 0.329091
0.044420 0.236795 0.218197
0.065823 0.243594 0.225778
0.089502 0.250784 0.233079
0.115159 0.257464 0.241536
0.143246 0.265750 0.250629
0.173361 0.273081 0.257409
0.205336 0.281148 0.266677
0.238652 0.289314 0.275332
0.272938 0.297585 0.284055
0.307976 0.305904 0.292877
0.345068 0.314260 0.302122
0.384627 0.323371 0.310717
0.425766 0.332151 0.319775
0.466361 0.340159 0.329033
0.507050 0.349163 0.337780
0.546214 0.357936 0.346787
0.051875 0.281902 0.233309
0.074241 0.289144 0.241321
0.099118 0.296074 0.248835
0.126377 0.304132 0.257666
0.155275 0.311965 0.266139
0.186040 0.320469 0.274280
0.218817 0.328406 0.283762
0.252752 0.336758 0.292670
0.287493 0.345220 0.301568
0.323484 0.353708 0.310460
0.361762 0.362016 0.319107
0.401515 0.371233 0.327791
0.443453 0.379693 0.337905
0.484150 0.388373 0.346991
0.524410 0.396841 0.355450
0.562728 0.405418 0.364326
0.060045 0.327599 0.249301
0.083522 0.335196 0.257624
0.109479 0.342917 0.266448
0.137152 0.351262 0.274489
0.167206 0.359052 0.284152
0.199282 0.367616 0.292330
0.232914 0.375629 0.301230
0.267424 0.384093 0.310159
0.302585 0.392540 0.319164
0.339746 0.401055 0.328196
0.379035 0.409535 0.337173
0.420016 0.417894 0.345984
0.461769 0.425986 0.354969
0.501701 0.434423 0.363764
0.541512 0.443350 0.372920
0.578974 0.451660 0.381585
0.068983 0.373547 0.265849
0.093612 0.381443 0.274478
0.120629 0.389050 0.282476
0.149446 0.397716 0.291865
0.181142 0.405418 0.301335
0.213586 0.413880 0.309586
0.247586 0.422245 0.318893
0.282408 0.430529 0.327865
0.318312 0.438980 0.336898
0.356676 0.447297 0.345912
0.397005 0.456160 0.355376
0.438388 0.464415 0.364144
0.478782 0.473220 0.373347
0.519508 0.481887 0.381133
0.558130 0.490019 0.390046
0.594573 0.498575 0.398539
0.078723 0.419235 0.282924
0.104510 0.427242 0.291738
0.132624 0.435038 0.301039
0.162578 0.443735 0.309592
0.194682 0.452122 0.318560
0.228320 0.459944 0.326854
0.262608 0.468358 0.336619
0.297795 0.476873 0.345604
0.334760 0.485532 0.354570
0.374111 0.494291 0.363501
0.414801 0.502958 0.371708
0.456344 0.511598 0.381332
0.496987 0.520034 0.389535
0.535733 0.528633 0.397981
0.574156 0.537840 0.406749
0.609426 0.546324 0.415002
0.089211 0.464491 0.300309
0.116106 0.472791 0.309306
0.145378 0.480570 0.318859
0.176442 0.489588 0.326660
0.209294 0.498666 0.336715
0.242777 0.506762 0.344950
0.277893 0.515965 0.354282
0.313682 0.524761 0.363186
0.351707 0.533589 0.372065
0.391813 0.542387 0.380879
0.433198 0.551306 0.389654
0.473792 0.559260 0.398285
0.513603 0.568571 0.406885
0.552812 0.576677 0.414883
0.589437 0.585125 0.422885
0.623334 0.593162 0.430742
0.100413 0.511497 0.317964
0.128366 0.520257 0.327010
0.158165 0.528623 0.336017
0.190266 0.537332 0.344818
0.224016 0.546704 0.353779
0.257613 0.555461 0.362743
0.293320 0.564220 0.371750
0.329920 0.572894 0.380544
0.368938 0.581527 0.389268
0.409502 0.590083 0.397758
0.451037 0.598714 0.406449
0.491167 0.607203 0.414773
0.530317 0.614714 0.422548
0.568196 0.622099 0.430185
0.603888 0.630125 0.438276
0.636388 0.637453 0.445762
0.112242 0.559560 0.335731
0.141119 0.568306 0.344705
0.172292 0.576974 0.354207
0.204569 0.586369 0.362024
0.238995 0.594133 0.371330
0.272845 0.603189 0.380126
0.308928 0.611190 0.388925
0.346562 0.619469 0.397486
0.386215 0.627524 0.405884
0.427038 0.635442 0.414197
0.468045 0.642812 0.421928
0.507547 0.650686 0.430065
0.545996 0.658134 0.437414
0.582441 0.665408 0.445340
0.617224 0.671813 0.452861
0.648224 0.678304 0.459860
0.124586 0.606780 0.353411
0.154362 0.615254 0.362302
0.185500 0.623731 0.371415
0.219335 0.632130 0.380116
0.254198 0.640196 0.388432
0.288966 0.647793 0.397748
0.324779 0.655432 0.405654
0.363299 0.662971 0.413968
0.403371 0.670434 0.422058
0.444125 0.677531 0.430023
0.484012 0.684700 0.437767
0.523408 0.691038 0.444781
0.560661 0.697088 0.452123
0.596501 0.703412 0.459510
0.629608 0.709837 0.466522
0.658981 0.715341 0.473010
0.137345 0.651632 0.370911
0.167984 0.659494 0.379632
0.200531 0.667496 0.387700
0.234467 0.674527 0.396204
0.268858 0.682074 0.404912
0.304216 0.689613 0.413922
0.340803 0.696305 0.421787
0.379908 0.703070 0.429797
0.420204 0.709528 0.437503
0.460507 0.715932 0.445078
0.500493 0.722141 0.452128
0.538484 0.727774 0.459583
0.575243 0.733152 0.465726
0.609395 0.738614 0.473368
0.640878 0.743504 0.479126
0.668487 0.748207 0.485101
0.150444 0.693224 0.388067
0.181829 0.700374 0.396704
0.215177 0.707399 0.405312
0.249078 0.714449 0.413708
0.283437 0.720545 0.421541
0.319164 0.726990 0.429234
0.356749 0.733069 0.437263
0.396194 0.738848 0.444833
0.436445 0.744603 0.452133
0.476203 0.749994 0.459202
0.514643 0.754902 0.465737
0.551981 0.760333 0.472718
0.587670 0.763881 0.479038
0.621227 0.768910 0.485302
0.650889 0.772799 0.490723
0.676980 0.776426 0.496123
0.163675 0.730807 0.404740
0.195640 0.737073 0.413061
0.229188 0.743365 0.421619
0.262838 0.748841 0.429779
0.297651 0.754892 0.437186
0.334241 0.759794 0.444402
0.372330 0.765159 0.451824
0.411856 0.770079 0.458913
0.451642 0.774602 0.465764
0.490891 0.779095 0.472355
0.529380 0.783432 0.478405
0.565335 0.786560 0.484887
0.599563 0.790843 0.490374
0.630900 0.794158 0.496079
0.659454 0.796897 0.501158
0.684083 0.799614 0.506043
0.023817 0.073594 0.207655
0.041677 0.077340 0.212482
0.061676 0.081865 0.217119
0.083843 0.086733 0.222989
0.107356 0.091304 0.228828
0.133509 0.095892 0.235974
0.162099 0.101367 0.242286
0.192105 0.107208 0.249239
0.223631 0.113356 0.256403
0.256420 0.119818 0.263822
0.289820 0.127733 0.271225
0.324713 0.134535 0.279472
0.361848 0.141751 0.288008
0.402304 0.149208 0.295636
0.442049 0.158156 0.303973
0.482061 0.166503 0.312381
0.028087 0.109724 0.217554
0.046830 0.114361 0.223157
0.067289 0.119477 0.229080
0.090281 0.125404 0.235666
0.115389 0.131031 0.242001
0.142410 0.138076 0.248526
0.172099 0.143905 0.256172
0.202990 0.151059 0.263572
0.235389 0.158429 0.271254
0.268801 0.166040 0.279103
0.302851 0.173186 0.286689
0.339159 0.182760 0.295336
0.377927 0.189794 0.304236
0.418285 0.198507 0.312058
0.458634 0.206906 0.320784
0.498574 0.215373 0.329334
0.033105 0.150674 0.228929
0.052838 0.156542 0.235219
0.074651 0.163370 0.241277
0.098239 0.169106 0.249594
0.125013 0.176079 0.255075
0.152967 0.183809 0.263158
0.183067 0.190353 0.270990
0.214890 0.197887 0.278835
0.248055 0.205608 0.286882
0.282032 0.213553 0.295082
0.317588 0.221261 0.302892
0.354502 0.230046 0.311839
0.394410 0.237495 0.320726
0.434760 0.247406 0.328811
0.475627 0.255423 0.337773
0.515507 0.264131 0.346571
0.038945 0.194637 0.241624
0.059652 0.201076 0.248510
0.082535 0.208462 0.255810
0.107723 0.214767 0.263555
0.134242 0.221792 0.270115
0.163642 0.229788 0.278536
0.195059 0.237095 0.286633
0.227641 0.244915 0.294787
0.261477 0.252984 0.303132
0.296039 0.261201 0.311542
0.332347 0.269596 0.320648
0.370622 0.278602 0.328858
0.412029 0.287111 0.337493
0.452151 0.295120 0.345623
0.492925 0.303992 0.354995
0.532484 0.312776 0.363825
0.045759 0.239253 0.255467
0.067342 0.246161 0.262861
0.091011 0.253204 0.270321
0.117487 0.260967 0.278543
0.145572 0.268787 0.285766
0.175799 0.276138 0.294504
0.207808 0.284121 0.302783
0.241229 0.292291 0.311315
0.275615 0.300623 0.319860
0.310732 0.309060 0.328528
0.348618 0.317273 0.337871
0.388314 0.326475 0.346261
0.428944 0.334494 0.355260
0.469476 0.343423 0.363398
0.510342 0.352337 0.372366
0.549399 0.361156 0.381144
0.053338 0.284528 0.270248
0.075925 0.291882 0.278051
0.100746 0.298662 0.285713
0.128221 0.307767 0.294310
0.157024 0.315056 0.303009
0.188611 0.322685 0.310926
0.221412 0.331445 0.319572
0.255457 0.339868 0.328223
0.290250 0.348344 0.336957
0.326416 0.356817 0.345704
0.365445 0.365966 0.354491
0.405378 0.374304 0.363042
0.446537 0.382928 0.372005
0.487218 0.391585 0.380859
0.527588 0.400033 0.389639
0.565887 0.408584 0.398265
0.061626 0.330388 0.285824
0.085332 0.338067 0.293973
0.111219 0.345658 0.301848
0.139801 0.354119 0.310781
0.169762 0.362198 0.319540
0.201916 0.369918 0.327630
0.235617 0.378740 0.336631
0.270173 0.387196 0.345432
0.305482 0.395675 0.354175
0.342863 0.404175 0.363040
0.382057 0.412579 0.372203
0.423226 0.420991 0.380846
0.464723 0.429975 0.389434
0.505393 0.437581 0.398033
0.544580 0.446459 0.406624
0.581899 0.454764 0.415064
0.070755 0.376416 0.302044
0.095589 0.384329 0.310469
0.122573 0.392759 0.319584
0.151576 0.400594 0.326819
0.183034 0.408544 0.336331
0.216320 0.416967 0.345321
0.250338 0.425328 0.353885
0.285269 0.433615 0.362672
