example_ofxGpuLutCube/bin/data/ofxGpuLutCube/LUT/U16 (hard blue fade tint).cube
LUT_3D_SIZE 6
0.021700 0.069972 0.093936
0.080361 0.080541 0.109439
0.157025 0.095373 0.127426
0.249830 0.112687 0.148650
0.353870 0.132569 0.173629
0.472949 0.157311 0.200745
0.035597 0.187963 0.126845
0.102091 0.206818 0.147895
0.188248 0.228667 0.172409
0.288084 0.252167 0.199865
0.401816 0.277334 0.228073
0.523003 0.303068 0.256508
0.056883 0.322072 0.171555
0.133305 0.345771 0.198121
0.227595 0.369558 0.227151
0.333643 0.394816 0.255701
0.454752 0.420626 0.283799
0.572971 0.445579 0.312032
0.085223 0.458552 0.226179
0.171031 0.483538 0.254418
0.272177 0.509511 0.283216
0.385146 0.535994 0.311190
0.508222 0.561710 0.338270
0.618426 0.587272 0.364201
0.119948 0.600704 0.282234
0.213352 0.626022 0.310451
0.318834 0.649776 0.337441
0.437790 0.672244 0.363380
0.555457 0.693425 0.388077
0.655136 0.711247 0.409943
0.158714 0.726091 0.336494
0.258117 0.745073 0.362618
0.366497 0.761400 0.386800
0.485458 0.775866 0.409225
0.595658 0.787745 0.429434
0.681518 0.797585 0.446430
0.023817 0.073594 0.207655
0.083843 0.086733 0.222989
0.162099 0.101367 0.242286
0.256420 0.119818 0.263822
0.361848 0.141751 0.288008
0.482061 0.166503 0.312381
0.038945 0.194637 0.241624
0.107723 0.214767 0.263555
0.195059 0.237095 0.286633
0.296039 0.261201 0.311542
0.412029 0.287111 0.337493
0.532484 0.312776 0.363825
0.061626 0.330388 0.285824
0.139801 0.354119 0.310781
0.235617 0.378740 0.336631
0.342863 0.404175 0.363040
0.464723 0.429975 0.389434
0.581899 0.454764 0.415064
0.091237 0.467507 0.335749
0.178820 0.492624 0.361904
0.280751 0.519177 0.388495
0.395113 0.545645 0.414331
0.517149 0.571582 0.439505
0.625919 0.596045 0.462477
0.126915 0.609850 0.387567
0.222010 0.635123 0.413336
0.327762 0.658206 0.438335
0.447162 0.680130 0.461748
0.563640 0.699902 0.483538
0.660888 0.717400 0.502985
0.166157 0.733217 0.437437
0.265508 0.751147 0.461575
0.375108 0.767032 0.482625
0.493520 0.780566 0.502292
0.601924 0.791159 0.520441
0.685229 0.800729 0.535773
0.026115 0.077748 0.314127
0.087651 0.091538 0.330398
0.167550 0.107777 0.348001
0.263247 0.127448 0.368767
0.370846 0.150141 0.391429
0.491346 0.175971 0.414816
0.042624 0.201723 0.347369
0.112986 0.222995 0.367535
0.202084 0.245731 0.390368
0.304148 0.270372 0.414045
0.420674 0.296051 0.438403
0.541952 0.322492 0.462683
0.066607 0.338832 0.389617
0.146601 0.363502 0.412738
0.243803 0.388026 0.437508
0.352322 0.413501 0.461885
0.474676 0.438448 0.485317
0.590759 0.464041 0.509361
0.097542 0.476747 0.436755
0.186842 0.502592 0.460976
0.289378 0.528872 0.485051
0.405005 0.555249 0.508615
0.526734 0.580475 0.532249
0.633199 0.604618 0.554316
0.134072 0.619089 0.484321
0.230832 0.643515 0.508356
0.336732 0.666447 0.531133
0.456480 0.687701 0.553656
0.571632 0.706672 0.575030
0.666266 0.723230 0.593904
0.173645 0.739974 0.530293
0.273632 0.756992 0.552596
0.383631 0.772248 0.574056
0.501197 0.784895 0.593311
0.606968 0.795514 0.610283
0.688587 0.803418 0.624227
0.028657 0.082395 0.412628
0.091029 0.096741 0.428308
0.173353 0.114586 0.445956
0.270362 0.135514 0.465677
0.379856 0.159933 0.486623
0.500665 0.185493 0.508785
0.046602 0.209132 0.445286
0.118553 0.230567 0.465322
0.209393 0.254609 0.485976
0.312594 0.279698 0.507954
0.430961 0.305082 0.531047
0.551300 0.332261 0.555234
0.071874 0.347544 0.485268
0.153642 0.372217 0.507016
0.252103 0.397351 0.530493
0.361978 0.422870 0.554520
0.485340 0.447837 0.578817
0.599157 0.473198 0.602046
0.103954 0.486014 0.529761
0.194347 0.512017 0.553108
0.298084 0.538616 0.577795
0.414828 0.564724 0.601330
0.535268 0.589851 0.624068
0.640105 0.612980 0.644370
0.141341 0.628162 0.577011
0.238915 0.652303 0.600416
0.345676 0.674410 0.622982
0.465440 0.694899 0.643740
0.579080 0.712563 0.662361
0.671181 0.728650 0.678658
0.181049 0.746498 0.622229
0.281662 0.762635 0.642929
0.391870 0.777242 0.661755
0.508453 0.788974 0.678223
0.612502 0.798210 0.692155
0.691684 0.805649 0.703318
0.031393 0.087392 0.503370
0.096005 0.103446 0.518808
0.179453 0.121856 0.536877
0.277725 0.144174 0.556964
0.389094 0.168697 0.578891
0.510080 0.195170 0.601294
0.050815 0.216868 0.536232
0.124385 0.239404 0.556552
0.216985 0.263703 0.577954
0.321326 0.289199 0.600618
0.440317 0.315923 0.622963
0.560588 0.341973 0.646113
0.077368 0.356391 0.577233
0.160940 0.381136 0.599450
0.260520 0.406692 0.622708
0.371712 0.432166 0.645341
0.494087 0.457929 0.667031
0.607505 0.482481 0.687627
0.110642 0.495540 0.622058
0.202702 0.522268 0.644629
0.306755 0.548218 0.666400
0.424650 0.574100 0.686906
0.543441 0.598910 0.705864
0.646701 0.620890 0.722840
0.148644 0.637077 0.665679
0.246389 0.660974 0.685899
0.354577 0.682136 0.705354
0.474140 0.701725 0.722375
0.586283 0.719414 0.737358
0.675796 0.733695 0.750039
0.188473 0.752876 0.704610
0.289555 0.768556 0.721369
0.399929 0.781792 0.736820
0.515405 0.792753 0.749618
0.617710 0.801975 0.759778
0.694358 0.807970 0.768412
0.034407 0.092834 0.592796
0.100582 0.109483 0.609107
0.185827 0.129566 0.627152
0.285293 0.153169 0.646575
0.398433 0.178649 0.666263
0.519502 0.204912 0.686861
0.055203 0.224866 0.626526
0.131247 0.247522 0.645711
0.224751 0.272919 0.665962
0.330219 0.298730 0.686123
0.450500 0.324867 0.706041
0.569711 0.351700 0.725074
0.083081 0.365376 0.665307
0.167734 0.390926 0.685828
0.269046 0.416078 0.705401
0.381487 0.441379 0.724373
0.504233 0.466375 0.742719
0.615437 0.491625 0.758555
0.117409 0.505116 0.704777
0.210479 0.530989 0.723314
0.315568 0.557805 0.741657
0.434262 0.583163 0.757971
0.552000 0.606936 0.772697
0.653026 0.628685 0.785257
0.156108 0.645960 0.741249
0.254477 0.668840 0.757370
0.363411 0.689695 0.772168
0.482638 0.708337 0.784911
0.593154 0.724475 0.795325
0.680129 0.738527 0.804073
0.195754 0.758802 0.771670
0.296613 0.773541 0.784756
0.407629 0.786137 0.795099
0.521865 0.796144 0.803840
0.622468 0.803493 0.810344
0.696119 0.809408 0.815037
