example_ofxGpuLutCube/bin/data/ofxGpuLutCube/LUT/U17 (soft violet sunset fade tint).cube
LUT_3D_SIZE 16
0.147007 0.127797 0.138147
0.188549 0.131451 0.142075
0.223466 0.135733 0.146862
0.257619 0.139338 0.150744
0.291524 0.144560 0.154994
0.327847 0.148816 0.159950
0.363609 0.154223 0.164373
0.399907 0.159382 0.169285
0.436491 0.164664 0.174272
0.472819 0.170092 0.179350
0.509160 0.175980 0.185095
0.545046 0.181328 0.189307
0.581366 0.186762 0.195784
0.619152 0.193309 0.201130
0.657329 0.199640 0.207184
0.694113 0.206113 0.213271
0.157900 0.163287 0.146119
0.197238 0.167046 0.150395
0.232372 0.170846 0.155597
0.267628 0.175523 0.159831
0.303004 0.179652 0.164854
0.338960 0.184954 0.169139
0.375395 0.189857 0.174110
0.412290 0.195128 0.179194
0.449204 0.200680 0.184466
0.485882 0.206388 0.189823
0.522236 0.212485 0.195172
0.558460 0.219018 0.201309
0.596807 0.225191 0.207211
0.634350 0.231425 0.213708
0.672308 0.238522 0.219308
0.708842 0.245547 0.225722
0.169279 0.196229 0.154742
0.207049 0.200519 0.159318
0.241781 0.205347 0.164113
0.277727 0.209604 0.168636
0.314588 0.215324 0.174265
0.351154 0.220472 0.178895
0.388204 0.226086 0.184243
0.425604 0.232051 0.189666
0.462906 0.238205 0.195240
0.499720 0.244562 0.200919
0.535502 0.250508 0.206650
0.573494 0.257670 0.212269
0.611199 0.264685 0.219257
0.650425 0.272220 0.225196
0.687818 0.279314 0.232006
0.723759 0.286773 0.238666
0.181147 0.230711 0.163941
0.218026 0.235645 0.168788
0.253703 0.241318 0.174050
0.289820 0.246218 0.178842
0.327359 0.252405 0.184304
0.364256 0.258953 0.190107
0.402070 0.264569 0.195004
0.439847 0.271050 0.200731
0.477261 0.277781 0.206656
0.514057 0.284663 0.212697
0.550944 0.292261 0.218724
0.589752 0.299090 0.225497
0.627989 0.306564 0.231827
0.665766 0.314326 0.238708
0.703381 0.321626 0.245217
0.738668 0.329290 0.252021
0.193518 0.267390 0.173636
0.229994 0.273018 0.178706
0.266083 0.278563 0.183642
0.302914 0.285014 0.188653
0.340922 0.291325 0.194983
0.378967 0.298402 0.200344
0.416743 0.304844 0.206393
0.454716 0.311851 0.212498
0.492262 0.319056 0.218715
0.529135 0.326378 0.225097
0.566254 0.334017 0.231460
0.605115 0.341263 0.237769
0.644686 0.349512 0.244778
0.682342 0.356661 0.251777
0.718913 0.364977 0.258808
0.753433 0.372927 0.265735
0.206431 0.305998 0.183777
0.243036 0.312261 0.189121
0.279970 0.319420 0.194498
0.317896 0.325602 0.200597
0.356125 0.332616 0.206414
0.394142 0.340078 0.212839
0.432064 0.346622 0.218502
0.470151 0.354038 0.224858
0.507622 0.361597 0.231393
0.544797 0.369342 0.238049
0.583490 0.377013 0.244777
0.621846 0.385474 0.251376
0.660427 0.392953 0.258011
0.697965 0.401034 0.265143
0.734217 0.408929 0.272670
0.767876 0.416877 0.279719
0.219946 0.346347 0.194459
0.257040 0.353095 0.200190
0.294431 0.360232 0.205863
0.332860 0.367752 0.211534
0.370981 0.375033 0.218441
0.409826 0.382006 0.224333
0.447964 0.389526 0.231185
0.485996 0.397218 0.237798
0.523296 0.405033 0.244565
0.561093 0.412938 0.251433
0.599446 0.420883 0.258597
0.639180 0.428706 0.265398
0.677485 0.436995 0.272195
0.713761 0.444946 0.280102
0.749400 0.452632 0.286692
0.781946 0.460523 0.293793
0.234236 0.387967 0.205790
0.271846 0.395152 0.211899
0.309638 0.402390 0.217884
0.347695 0.410279 0.224723
0.387117 0.417092 0.230945
0.425693 0.424925 0.237046
0.464250 0.432852 0.244338
0.502063 0.440646 0.251162
0.539409 0.448512 0.258119
0.577787 0.456389 0.265137
0.617443 0.464062 0.272015
0.656131 0.472660 0.278948
0.693867 0.479988 0.286396
0.729864 0.489022 0.293546
0.763903 0.496885 0.300747
0.795461 0.505065 0.307837
0.249279 0.430243 0.217873
0.287344 0.437693 0.224242
0.326496 0.445149 0.230619
0.365001 0.452546 0.236935
0.403377 0.459987 0.244648
0.442522 0.468102 0.251701
0.480674 0.476244 0.257903
0.518249 0.484309 0.264888
0.555997 0.492542 0.271980
0.594827 0.500809 0.279103
0.634259 0.509345 0.285740
0.672688 0.517547 0.293532
0.709813 0.526442 0.300534
0.745197 0.534782 0.307612
0.777969 0.543021 0.314785
0.808253 0.551330 0.321793
0.265014 0.472829 0.230511
0.303466 0.480591 0.237173
0.342179 0.488990 0.243120
0.381158 0.496701 0.250509
0.419674 0.504940 0.257858
0.459408 0.513516 0.264247
0.497168 0.521656 0.271756
0.534539 0.530163 0.278850
0.572860 0.538731 0.285961
0.611925 0.547328 0.293130
0.651351 0.555983 0.300359
0.689250 0.564534 0.307450
0.725689 0.572467 0.314475
0.759021 0.581269 0.321394
0.791303 0.589513 0.328598
0.820322 0.597536 0.335454
0.281289 0.517558 0.243669
0.319916 0.525837 0.250456
0.358387 0.534190 0.257710
0.398468 0.542388 0.264429
0.436777 0.551370 0.271202
0.475771 0.560029 0.278464
0.513567 0.568543 0.285717
0.551115 0.577170 0.292901
0.589851 0.585680 0.300038
0.628996 0.594196 0.307174
0.667873 0.602683 0.314258
0.705107 0.611135 0.321356
0.739834 0.619173 0.328078
0.773221 0.626541 0.335506
0.803749 0.634521 0.342092
0.831358 0.641834 0.348749
0.297883 0.564140 0.257198
0.336818 0.572635 0.264175
0.376744 0.581233 0.271104
0.415367 0.589681 0.278008
0.453648 0.598215 0.285459
0.492269 0.606492 0.292683
0.529791 0.615129 0.299803
0.567829 0.623352 0.306988
0.606708 0.631512 0.314055
0.645635 0.639532 0.321146
0.683426 0.647519 0.328180
0.719871 0.654746 0.335216
0.753926 0.662902 0.342012
0.785744 0.669743 0.348414
0.815320 0.676598 0.355184
0.841460 0.683385 0.361521
0.314847 0.610827 0.271020
0.353860 0.619107 0.278100
0.392792 0.626931 0.285535
0.431624 0.635906 0.292555
0.470501 0.643683 0.299584
0.508623 0.652099 0.305983
0.546066 0.659624 0.313812
0.584490 0.667354 0.320921
0.623339 0.674826 0.327889
0.661832 0.681989 0.334782
0.698938 0.689180 0.341884
0.734018 0.695661 0.348748
0.766898 0.703306 0.355232
0.797298 0.709337 0.361369
0.825931 0.715527 0.367574
0.850630 0.721433 0.373682
0.331866 0.655712 0.285047
0.370991 0.663577 0.292173
0.410686 0.671617 0.299427
0.448808 0.679435 0.306498
0.487354 0.686883 0.313567
0.524773 0.693760 0.320500
0.562305 0.701188 0.327699
0.600887 0.708096 0.334551
0.639474 0.714820 0.341410
0.677297 0.721384 0.348089
0.713032 0.727586 0.354574
0.747612 0.733436 0.361180
0.779731 0.739829 0.367879
0.808492 0.744925 0.373592
0.835571 0.750391 0.379381
0.858780 0.755550 0.385134
0.348944 0.697896 0.299099
0.388009 0.705129 0.306212
0.426919 0.712136 0.313387
0.465932 0.719435 0.320405
0.503069 0.725563 0.327136
0.540365 0.733027 0.334678
0.578288 0.738943 0.341132
0.616783 0.745122 0.347873
0.654958 0.751062 0.354515
0.691778 0.756679 0.360873
0.726627 0.761624 0.367566
0.759630 0.767214 0.373232
0.790706 0.771829 0.378904
0.818620 0.776498 0.384908
0.844173 0.780934 0.390371
0.865884 0.784931 0.395658
0.365778 0.736357 0.313050
0.404719 0.742900 0.320096
0.443820 0.749144 0.327190
0.481926 0.755635 0.334180
0.519053 0.761068 0.340981
0.556074 0.767095 0.347538
0.593791 0.772331 0.354163
0.631997 0.777596 0.360660
0.669539 0.782505 0.366990
0.705353 0.787098 0.373066
0.739329 0.790881 0.379251
0.771392 0.795545 0.384555
0.801223 0.799340 0.390383
0.827851 0.803151 0.395164
0.851636 0.806256 0.400419
0.872149 0.809476 0.405157
0.149011 0.129088 0.167738
0.190110 0.132897 0.170933
0.224289 0.137983 0.174488
0.259070 0.141750 0.178461
0.293723 0.146454 0.182188
0.330201 0.150776 0.186048
0.365694 0.156106 0.190470
0.402166 0.161327 0.195111
0.438769 0.166664 0.199890
0.475246 0.172153 0.204987
0.511344 0.177946 0.210448
0.547383 0.183360 0.215479
0.584351 0.190121 0.221620
0.622733 0.195771 0.227887
0.660211 0.202049 0.233552
0.696767 0.208518 0.239750
0.159947 0.164664 0.174216
0.198988 0.168531 0.177903
0.234235 0.173165 0.181736
0.269251 0.176997 0.185399
0.304490 0.181586 0.190727
0.340589 0.187007 0.194227
0.377717 0.191771 0.199744
0.414661 0.197131 0.204828
0.451724 0.202745 0.210101
0.488391 0.208566 0.215564
0.524664 0.214533 0.221344
0.561716 0.220276 0.226754
0.598985 0.227760 0.233296
0.637195 0.234027 0.239941
0.675253 0.241058 0.245903
0.711569 0.248117 0.252464
0.171444 0.197730 0.181702
0.209026 0.202117 0.185818
0.243769 0.206837 0.190784
0.280509 0.212097 0.194871
0.317288 0.217533 0.199376
0.352958 0.222677 0.204080
0.390748 0.228256 0.209944
0.428206 0.234261 0.215400
0.465525 0.240500 0.221128
0.502329 0.246958 0.226992
0.538792 0.253654 0.233067
0.576009 0.260046 0.239661
0.614920 0.267412 0.245690
0.652460 0.274958 0.251800
0.690631 0.281996 0.258937
0.726518 0.289487 0.265746
0.183407 0.232446 0.190070
0.220151 0.237555 0.194612
0.255771 0.243053 0.199894
0.292740 0.248108 0.204406
0.330126 0.253872 0.210449
0.367026 0.260553 0.214800
0.404728 0.266884 0.220908
0.442517 0.273509 0.226785
0.480052 0.280277 0.232900
0.516890 0.287231 0.239127
0.553623 0.294749 0.245492
0.591680 0.301649 0.252436
0.630950 0.308570 0.259296
0.669414 0.316446 0.265637
0.706295 0.324449 0.272407
0.741542 0.332241 0.279451
0.195925 0.269426 0.199312
0.232354 0.275136 0.204327
0.269273 0.281421 0.209053
0.306023 0.287106 0.214841
0.342965 0.293885 0.220741
0.381904 0.300196 0.227036
0.419503 0.307368 0.232659
0.457550 0.314474 0.238922
0.495075 0.321753 0.245329
0.531947 0.329146 0.251835
0.569773 0.336681 0.258579
0.608614 0.344808 0.265016
0.647603 0.352405 0.272503
0.685210 0.360409 0.278880
0.721820 0.367860 0.286254
0.756169 0.375842 0.293329
0.208938 0.308275 0.209405
0.245586 0.314579 0.214854
0.282316 0.321677 0.220653
0.320298 0.327902 0.226060
0.358303 0.334524 0.232456
0.396414 0.342048 0.239099
0.434985 0.349334 0.245077
0.473117 0.356787 0.251633
0.510527 0.364407 0.258288
0.547772 0.372156 0.265102
0.586295 0.379783 0.272172
0.624700 0.387465 0.278925
0.663377 0.395952 0.285923
0.700801 0.403955 0.293922
0.737119 0.411884 0.300302
0.770611 0.419830 0.307483
0.222607 0.348825 0.220379
0.259722 0.355672 0.226224
0.297864 0.362702 0.232334
0.335378 0.370288 0.238886
0.374130 0.377100 0.244838
0.412030 0.384833 0.251666
0.451014 0.392378 0.258095
0.488965 0.400076 0.264852
0.526267 0.407870 0.271748
0.564143 0.415776 0.278782
0.603124 0.423718 0.286263
0.642143 0.431555 0.292442
0.680182 0.439134 0.300285
0.717241 0.447840 0.306776
0.751999 0.455519 0.314515
0.784570 0.463383 0.321712
0.236978 0.390534 0.232017
0.274681 0.397779 0.238305
0.312197 0.404919 0.245424
0.351272 0.412131 0.251632
0.389401 0.419962 0.257637
0.428809 0.428608 0.264655
0.467277 0.435725 0.271529
0.505067 0.443505 0.278479
0.542450 0.451353 0.285547
0.580984 0.459321 0.292693
0.620339 0.466898 0.299939
0.659253 0.474823 0.307020
0.696601 0.483781 0.314604
0.733107 0.492067 0.321056
0.766590 0.499872 0.328742
0.797852 0.508090 0.335860
0.252203 0.432985 0.244432
0.290302 0.440462 0.251012
0.329227 0.447860 0.257687
0.367829 0.455282 0.264196
0.405726 0.463735 0.271581
0.445609 0.471112 0.277988
0.483750 0.479185 0.285342
0.521204 0.487275 0.292443
0.559088 0.495587 0.299597
0.598058 0.503940 0.306862
0.637247 0.512383 0.313877
0.675843 0.520650 0.321040
0.712361 0.529495 0.328831
0.747525 0.537121 0.335135
0.780511 0.546109 0.342806
0.810501 0.554365 0.349827
0.268000 0.475682 0.257378
0.306508 0.483516 0.264205
0.344975 0.491828 0.271271
0.384006 0.499606 0.278039
0.422910 0.508077 0.285009
0.462566 0.516634 0.292249
0.500253 0.524776 0.299396
0.537597 0.533308 0.306564
0.576047 0.541911 0.313813
0.615157 0.550458 0.321029
0.654462 0.559123 0.327927
0.691713 0.567624 0.335091
0.727351 0.575466 0.342769
0.761809 0.584198 0.349704
0.793628 0.592481 0.356657
0.822371 0.600447 0.363506
0.284353 0.520611 0.270793
0.323135 0.529020 0.277831
0.362187 0.537233 0.285332
0.400646 0.545553 0.292282
0.440800 0.554614 0.298586
0.479002 0.563189 0.306650
0.516608 0.571782 0.313598
0.554234 0.580302 0.320813
0.592991 0.588831 0.327973
0.632084 0.597214 0.335218
0.670915 0.605077 0.342711
0.707473 0.614129 0.349154
0.742844 0.621979 0.356354
0.775140 0.629318 0.362970
0.805941 0.637262 0.370106
0.833251 0.644621 0.376732
0.301026 0.567221 0.284648
0.339981 0.575766 0.291693
0.378839 0.584307 0.299023
0.418353 0.592785 0.306033
0.457566 0.601282 0.312886
0.495473 0.609604 0.320183
0.532763 0.618170 0.327752
0.570968 0.626420 0.334987
0.609859 0.634505 0.342073
0.648652 0.642364 0.349174
0.686583 0.650450 0.355980
0.721973 0.657639 0.363006
0.756718 0.664719 0.369362
0.787647 0.672213 0.377162
0.817374 0.679155 0.383068
0.843393 0.685899 0.389341
0.317980 0.613838 0.298680
0.357041 0.622101 0.305832
0.396644 0.630686 0.312919
0.435510 0.638887 0.320793
0.474496 0.646542 0.327128
0.511016 0.654840 0.334273
0.549100 0.662488 0.341862
0.587581 0.670097 0.348977
0.626412 0.677528 0.355952
0.664690 0.684837 0.362907
0.701889 0.691887 0.369724
0.736944 0.698441 0.375912
0.769689 0.704948 0.382509
0.799686 0.711415 0.389268
0.827867 0.717766 0.395417
0.852271 0.723520 0.401360
0.335057 0.658529 0.312881
0.374137 0.666445 0.320054
0.412830 0.674446 0.327008
0.452691 0.681564 0.334879
0.490460 0.689481 0.341833
0.527876 0.696253 0.348838
0.565336 0.703821 0.355751
0.603888 0.710619 0.362670
0.642400 0.717223 0.369395
0.679982 0.723677 0.376077
0.715998 0.730031 0.382375
0.750319 0.735681 0.388999
0.782191 0.741651 0.395533
0.810763 0.747372 0.401143
0.837186 0.752294 0.406922
0.860285 0.757190 0.412499
0.352085 0.700544 0.327073
0.391213 0.707761 0.334271
0.429899 0.714815 0.341090
0.468138 0.721253 0.348243
0.506112 0.728569 0.355430
0.543403 0.735188 0.362121
0.581261 0.741279 0.369205
0.619674 0.747238 0.375872
0.657695 0.753123 0.382428
0.694398 0.758615 0.388789
0.729264 0.763602 0.394637
0.762243 0.769146 0.400932
0.792192 0.773472 0.407059
0.820649 0.777989 0.412919
0.845603 0.782510 0.417648
0.867186 0.786388 0.422786
0.368875 0.738795 0.341113
0.407820 0.745263 0.348160
0.445953 0.751515 0.355004
0.484914 0.757293 0.362734
0.521164 0.763023 0.369153
0.558152 0.768905 0.375617
0.596613 0.774276 0.382101
0.634786 0.779389 0.388535
0.672077 0.784281 0.394738
0.707720 0.788787 0.400725
0.741848 0.793366 0.406117
0.773022 0.797147 0.412076
0.802562 0.800710 0.417550
0.828799 0.804433 0.422118
0.852960 0.807629 0.427384
0.873093 0.810701 0.431959
0.150990 0.130419 0.193035
0.191641 0.134379 0.196099
0.226079 0.138314 0.199562
0.260492 0.143216 0.202626
0.295988 0.148365 0.206985
0.331626 0.152732 0.211814
0.367880 0.157987 0.215854
0.404414 0.163258 0.220649
0.441112 0.168634 0.225657
0.477595 0.174174 0.230919
0.513641 0.179885 0.236751
0.549657 0.186307 0.241968
0.587235 0.191583 0.247855
0.624874 0.198191 0.253542
0.662985 0.204403 0.260301
0.699578 0.210912 0.266713
0.162070 0.166035 0.199377
0.200757 0.170008 0.203037
0.236172 0.173567 0.206669
0.270900 0.178468 0.211114
0.306929 0.183517 0.215899
0.343173 0.189050 0.220393
0.380018 0.193700 0.225499
0.417182 0.199175 0.230759
0.454224 0.204856 0.236192
0.490996 0.210780 0.241898
0.527087 0.217499 0.247197
0.564231 0.223380 0.253628
0.602048 0.229570 0.259975
0.640072 0.236703 0.266684
0.678169 0.243698 0.273079
0.714366 0.250771 0.279720
0.173619 0.199338 0.206868
0.211038 0.203808 0.211070
0.246748 0.209338 0.215757
0.282376 0.213781 0.220712
0.319035 0.218824 0.225712
0.355658 0.224072 0.230633
0.393270 0.230455 0.236009
0.430768 0.236527 0.241685
0.468191 0.242852 0.247577
0.505003 0.249374 0.253636
0.541393 0.255985 0.260032
0.579386 0.263295 0.266025
0.617925 0.270182 0.273334
0.656162 0.277778 0.279591
0.693546 0.284766 0.286331
0.729348 0.292258 0.293272
0.185680 0.234292 0.215433
0.222352 0.239476 0.220179
0.258829 0.244882 0.225022
0.294799 0.250887 0.229756
0.332106 0.257195 0.235596
0.369045 0.263030 0.240917
0.407456 0.269316 0.247390
0.445281 0.275964 0.253436
0.482816 0.282801 0.259669
0.519590 0.289842 0.266085
0.557127 0.297249 0.272774
0.595105 0.305069 0.279140
0.633976 0.312279 0.285675
0.672243 0.320181 0.292858
0.709252 0.327250 0.300046
0.744254 0.335115 0.307164
0.198269 0.271477 0.225011
0.234708 0.277290 0.230220
0.271445 0.283471 0.235309
0.308245 0.289240 0.241277
0.345913 0.296446 0.247773
0.383984 0.302848 0.252676
0.422337 0.309934 0.259454
0.460402 0.317097 0.265848
0.497955 0.324440 0.272380
0.534908 0.331844 0.279075
0.572592 0.339317 0.286137
0.611489 0.347492 0.292733
0.650583 0.355427 0.299847
0.688083 0.362658 0.307127
0.724679 0.370843 0.314062
0.758967 0.378868 0.321305
0.211404 0.310596 0.235485
0.248137 0.316955 0.241123
0.285550 0.323114 0.246487
0.323594 0.330255 0.252863
0.361386 0.337244 0.259048
0.399431 0.344885 0.265079
0.437957 0.352032 0.272157
0.476040 0.359586 0.278888
0.513464 0.367279 0.285691
0.550817 0.375016 0.292562
0.589164 0.382604 0.299306
0.627679 0.391093 0.306122
0.667039 0.398872 0.314189
0.704146 0.406924 0.321474
0.739846 0.414784 0.328300
0.773190 0.422764 0.335560
0.225235 0.351326 0.246821
0.262450 0.358153 0.252834
0.300324 0.365167 0.259283
0.337942 0.372774 0.265239
0.376388 0.379907 0.272456
0.415211 0.387737 0.278640
0.453970 0.395149 0.285433
0.492006 0.402957 0.292326
0.529255 0.410804 0.299333
0.567247 0.418678 0.306476
0.606039 0.426597 0.313596
0.645195 0.434448 0.320663
0.683918 0.442039 0.327892
0.719813 0.449974 0.335126
0.754919 0.458393 0.342619
0.787068 0.466306 0.349797
0.239804 0.393197 0.258845
0.277520 0.400480 0.265231
0.315783 0.407569 0.271198
0.353949 0.415601 0.278286
0.393502 0.422818 0.285527
0.431928 0.430660 0.291886
0.470334 0.438541 0.299141
0.508072 0.446350 0.306197
0.545498 0.454295 0.313373
0.584127 0.462161 0.320625
0.623324 0.470580 0.328237
0.662334 0.478387 0.335415
0.699329 0.486844 0.342991
0.735618 0.495136 0.349477
0.769156 0.502920 0.356911
0.800303 0.511125 0.364013
0.255109 0.435738 0.271533
0.293296 0.443209 0.278179
0.331962 0.450575 0.285308
0.370600 0.458794 0.291891
0.409799 0.466749 0.298875
0.448773 0.474163 0.305418
0.486800 0.482186 0.313117
0.524287 0.490333 0.320354
0.562222 0.498620 0.327594
0.601242 0.507025 0.334903
0.640291 0.515346 0.341609
0.678911 0.523712 0.349587
0.715588 0.531837 0.356431
0.749843 0.540174 0.363498
0.782993 0.549181 0.370940
0.812795 0.557464 0.377976
0.270998 0.478500 0.284727
0.309546 0.486440 0.291678
0.348671 0.493863 0.299104
0.387764 0.502499 0.305238
0.426934 0.511227 0.313233
0.465000 0.519066 0.319830
0.503282 0.527898 0.327344
0.540718 0.536424 0.334620
0.579194 0.545043 0.341909
0.618348 0.553607 0.349222
0.657529 0.562231 0.356562
0.694778 0.570029 0.363769
0.730423 0.579167 0.371061
0.764699 0.587135 0.377891
0.795951 0.595440 0.384713
0.824434 0.603354 0.391531
0.287422 0.523619 0.298420
0.326280 0.532105 0.305525
0.365049 0.540205 0.312656
0.404478 0.548632 0.319721
0.443913 0.557777 0.326942
0.481372 0.566318 0.334247
0.519580 0.574916 0.341682
0.557326 0.583401 0.348944
0.596199 0.591901 0.356188
0.635224 0.600341 0.363377
0.674004 0.608833 0.370722
0.710428 0.617227 0.377804
0.745139 0.624674 0.384467
0.777915 0.632015 0.391040
0.808178 0.639992 0.398081
0.835182 0.647289 0.404596
0.304185 0.570372 0.312430
0.343161 0.578922 0.319614
0.382693 0.587436 0.327309
0.421433 0.596690 0.333701
0.460800 0.604296 0.341304
0.497841 0.613320 0.348577
0.535886 0.621188 0.355922
0.574070 0.629375 0.363170
0.612992 0.637404 0.370211
0.651729 0.645261 0.377298
0.689590 0.652701 0.383964
0.725057 0.660496 0.390928
0.758697 0.667986 0.397324
0.790016 0.675224 0.404217
0.819295 0.681614 0.410801
0.844990 0.688160 0.416975
0.321161 0.616833 0.326645
0.360243 0.625233 0.333887
0.398784 0.633651 0.341380
0.438548 0.642005 0.348572
0.477634 0.650052 0.355483
0.515011 0.657655 0.363369
0.552101 0.665221 0.370015
0.590659 0.672785 0.377097
0.629402 0.680236 0.384037
0.667655 0.687385 0.390905
0.704036 0.694603 0.397618
0.738978 0.700999 0.403720
0.771453 0.707071 0.410196
0.801947 0.713454 0.416661
0.829563 0.719859 0.422867
0.853752 0.725593 0.428648
0.338210 0.661488 0.340976
0.377362 0.669264 0.348218
0.416728 0.677340 0.354910
0.455733 0.684441 0.362034
0.493567 0.691936 0.369384
0.530994 0.699526 0.377099
0.568308 0.706242 0.383840
0.606899 0.713086 0.390678
0.645333 0.719624 0.397403
0.682716 0.726067 0.404009
0.718760 0.732369 0.410203
0.752237 0.738103 0.416778
0.783863 0.743546 0.422147
0.812763 0.749028 0.428958
0.838925 0.754208 0.434116
0.861532 0.758918 0.439477
0.355242 0.703190 0.355245
0.394356 0.710495 0.362411
0.433774 0.717444 0.369732
0.471990 0.724708 0.376881
0.509151 0.730796 0.383603
0.546359 0.737479 0.390235
0.584198 0.743458 0.397180
0.622605 0.749483 0.403754
0.660534 0.755211 0.410185
0.696958 0.760670 0.416392
0.731297 0.765794 0.422173
0.763990 0.771202 0.428366
0.794453 0.774828 0.434020
0.822616 0.779982 0.439633
0.847151 0.783948 0.444494
0.868434 0.787675 0.449402
0.372004 0.741122 0.369265
0.410891 0.747634 0.376322
0.449774 0.753904 0.383660
0.487055 0.759541 0.390657
0.524138 0.765667 0.397101
0.561702 0.770683 0.403384
0.599466 0.776150 0.409897
0.637454 0.781236 0.416122
0.674545 0.785784 0.422194
0.710252 0.790438 0.428071
0.744297 0.794852 0.433465
0.775470 0.798143 0.439285
0.804538 0.802441 0.444207
0.830630 0.805937 0.449366
0.854199 0.808742 0.453959
0.874130 0.811520 0.458396
0.153035 0.131863 0.217865
0.193237 0.135935 0.221117
0.227944 0.140719 0.224269
0.262939 0.145719 0.228297
0.297322 0.150287 0.232339
0.333138 0.154721 0.237346
0.369978 0.159878 0.241808
0.406717 0.165215 0.246771
0.443463 0.170665 0.251942
0.480069 0.176243 0.257354
0.515893 0.182838 0.262804
0.552048 0.188323 0.268952
0.589241 0.194007 0.275351
0.628373 0.199766 0.281136
0.665745 0.206796 0.287570
0.702314 0.213402 0.294065
0.164146 0.167476 0.224583
0.202568 0.171553 0.228414
0.237089 0.175957 0.232523
0.272586 0.180902 0.237125
0.308559 0.185524 0.241605
0.344858 0.191132 0.246262
0.382427 0.195659 0.251779
0.419616 0.201204 0.257178
0.456754 0.206999 0.262824
0.493494 0.213023 0.268666
0.529539 0.218715 0.274377
0.566654 0.226464 0.280932
0.604960 0.232200 0.287766
0.643601 0.239337 0.293792
0.681043 0.246298 0.300622
0.717130 0.253372 0.307352
0.175811 0.200906 0.232417
0.213074 0.205503 0.236813
0.248778 0.210903 0.241092
0.284262 0.215443 0.247031
0.321742 0.221067 0.250983
0.358459 0.227307 0.256866
0.395813 0.232639 0.262640
0.433456 0.238840 0.268465
0.470868 0.245217 0.274499
0.507697 0.251831 0.280730
0.544793 0.258317 0.286724
0.581965 0.265737 0.293648
0.620868 0.272069 0.300576
0.658974 0.280558 0.306956
0.696443 0.287481 0.314076
0.732096 0.295027 0.321128
0.187976 0.236155 0.241336
0.224588 0.241461 0.246250
0.260953 0.247596 0.251513
0.297844 0.252861 0.257166
0.334099 0.258768 0.261989
0.371962 0.265513 0.268244
0.410206 0.271741 0.274318
0.448022 0.278416 0.280507
0.485593 0.285382 0.286901
0.522446 0.292460 0.293426
0.559816 0.299785 0.300511
0.597858 0.307671 0.306980
0.637634 0.315166 0.313842
0.675072 0.322232 0.320368
0.712134 0.330128 0.327966
0.746990 0.337973 0.335159
0.200663 0.273575 0.251264
0.237168 0.279489 0.256649
0.273669 0.285557 0.262142
0.311470 0.292266 0.268250
0.348951 0.299085 0.273665
0.387005 0.305503 0.280292
0.425222 0.312520 0.286643
0.463279 0.319738 0.293202
0.500822 0.327143 0.299900
0.537727 0.334630 0.306716
0.576135 0.342027 0.314157
0.615000 0.350263 0.320897
0.653574 0.357506 0.328174
0.690916 0.365636 0.334777
0.727543 0.373776 0.342186
0.761697 0.381813 0.349483
0.213926 0.312882 0.262074
0.250772 0.319397 0.267881
0.287891 0.325384 0.273638
0.326049 0.333502 0.280157
0.363595 0.340017 0.286810
0.402537 0.346889 0.292920
0.440925 0.354782 0.299650
0.479002 0.362389 0.306506
0.516370 0.370114 0.313417
0.553750 0.377857 0.320436
0.592734 0.386223 0.327546
0.631333 0.393907 0.334502
0.669911 0.401862 0.341869
0.706947 0.409906 0.349212
0.742722 0.417755 0.356489
0.775919 0.425774 0.363754
0.227846 0.353860 0.273706
0.265183 0.360780 0.279888
0.302756 0.367642 0.285924
0.341438 0.375367 0.292812
0.379567 0.382773 0.299637
0.418289 0.389869 0.305998
0.457017 0.397986 0.313130
0.494981 0.405796 0.320190
0.532298 0.413672 0.327280
0.570376 0.421606 0.334510
0.608922 0.429449 0.342038
0.648229 0.437337 0.349185
0.686548 0.445797 0.356371
0.723114 0.452962 0.363582
0.757498 0.461374 0.370843
0.789592 0.469264 0.378063
0.242639 0.395826 0.286061
0.280405 0.403172 0.292546
0.318430 0.410957 0.299674
0.356657 0.418262 0.305360
0.395786 0.425720 0.312917
0.435076 0.433572 0.320140
0.473378 0.441424 0.327053
0.511084 0.449224 0.334209
