example_ofxGpuLutCube/bin/data/ofxGpuLutCube/LUT/U17 (soft violet sunset fade tint).cube
LUT_3D_SIZE 6
0.147007 0.127797 0.138147
0.257619 0.139338 0.150744
0.363609 0.154223 0.164373
0.472819 0.170092 0.179350
0.581366 0.186762 0.195784
0.694113 0.206113 0.213271
0.181147 0.230711 0.163941
0.289820 0.246218 0.178842
0.402070 0.264569 0.195004
0.514057 0.284663 0.212697
0.627989 0.306564 0.231827
0.738668 0.329290 0.252021
0.219946 0.346347 0.194459
0.332860 0.367752 0.211534
0.447964 0.389526 0.231185
0.561093 0.412938 0.251433
0.677485 0.436995 0.272195
0.781946 0.460523 0.293793
0.265014 0.472829 0.230511
0.381158 0.496701 0.250509
0.497168 0.521656 0.271756
0.611925 0.547328 0.293130
0.725689 0.572467 0.314475
0.820322 0.597536 0.335454
0.314847 0.610827 0.271020
0.431624 0.635906 0.292555
0.546066 0.659624 0.313812
0.661832 0.681989 0.334782
0.766898 0.703306 0.355232
0.850630 0.721433 0.373682
0.365778 0.736357 0.313050
0.481926 0.755635 0.334180
0.593791 0.772331 0.354163
0.705353 0.787098 0.373066
0.801223 0.799340 0.390383
0.872149 0.809476 0.405157
0.153035 0.131863 0.217865
0.262939 0.145719 0.228297
0.369978 0.159878 0.241808
0.480069 0.176243 0.257354
0.589241 0.194007 0.275351
0.702314 0.213402 0.294065
0.187976 0.236155 0.241336
0.297844 0.252861 0.257166
0.410206 0.271741 0.274318
0.522446 0.292460 0.293426
0.637634 0.315166 0.313842
0.746990 0.337973 0.335159
0.227846 0.353860 0.273706
0.341438 0.375367 0.292812
0.457017 0.397986 0.313130
0.570376 0.421606 0.334510
0.686548 0.445797 0.356371
0.789592 0.469264 0.378063
0.274018 0.481383 0.312449
0.390660 0.505412 0.333556
0.506305 0.531025 0.355532
0.621528 0.556763 0.377433
0.733513 0.582110 0.399093
0.826575 0.606211 0.419314
0.324317 0.619883 0.354804
0.441592 0.644997 0.376529
0.555126 0.668055 0.398084
0.670446 0.689968 0.418624
0.773970 0.709850 0.438050
0.855325 0.727631 0.455616
0.375036 0.743613 0.397324
0.489950 0.761846 0.418499
0.602230 0.778058 0.437245
0.712549 0.791902 0.455001
0.806485 0.802773 0.471540
0.875154 0.812611 0.485707
0.159166 0.136373 0.295432
0.268670 0.150502 0.308221
0.376831 0.165723 0.322275
0.487504 0.182606 0.339165
0.598012 0.200493 0.358066
0.710577 0.220949 0.377838
0.194983 0.242002 0.321794
0.305232 0.259779 0.338195
0.418537 0.279128 0.357174
0.530907 0.300486 0.377180
0.645745 0.323098 0.398169
0.755259 0.346705 0.419478
0.235984 0.361455 0.356509
0.350270 0.383973 0.376049
0.466156 0.406590 0.397409
0.579796 0.430353 0.418764
0.695579 0.453810 0.439672
0.797087 0.478075 0.461426
0.283244 0.490183 0.396749
0.400408 0.515000 0.417961
0.515447 0.540444 0.439436
0.630996 0.566108 0.460764
0.741894 0.590866 0.482425
0.832554 0.614704 0.502944
0.333884 0.629028 0.438762
0.451626 0.653365 0.460484
0.564227 0.676274 0.481395
0.679045 0.697655 0.502363
0.780807 0.716761 0.522449
0.859704 0.733507 0.540386
0.384333 0.750578 0.480636
0.498694 0.767923 0.501338
0.610482 0.783381 0.521512
0.719413 0.796359 0.539846
0.810751 0.807305 0.556084
0.877799 0.815395 0.569572
0.165543 0.141285 0.375950
0.273708 0.155534 0.389391
0.383950 0.171750 0.404761
0.495199 0.189110 0.422129
0.606790 0.208178 0.440836
0.718884 0.228680 0.460898
0.202167 0.248162 0.404193
0.312928 0.266176 0.421803
0.427068 0.286759 0.440255
0.539621 0.308633 0.460154
0.655432 0.331095 0.481315
0.763316 0.355529 0.503869
0.244403 0.369382 0.439605
0.359302 0.391968 0.459272
0.475325 0.415266 0.480816
0.589358 0.439116 0.503147
0.705181 0.462673 0.525993
0.804158 0.486798 0.548174
0.292482 0.499038 0.480096
0.409373 0.524079 0.501822
0.524574 0.549887 0.525064
0.640300 0.575407 0.547515
0.749500 0.600107 0.569439
0.838261 0.622965 0.589219
0.343445 0.638043 0.524326
0.460705 0.662114 0.546601
0.573191 0.684307 0.568364
0.687231 0.704806 0.588608
0.787143 0.722754 0.606896
0.863737 0.738946 0.623054
0.393424 0.757183 0.567645
0.507289 0.773551 0.587821
0.618437 0.788499 0.606276
0.725803 0.800638 0.622596
0.815397 0.810094 0.636548
0.880324 0.817681 0.647714
0.171988 0.146375 0.455954
0.281020 0.161805 0.470042
0.391471 0.177951 0.486734
0.503055 0.195872 0.505457
0.615762 0.215141 0.526100
0.727318 0.236602 0.547444
0.209573 0.254613 0.486107
0.320885 0.273708 0.505036
0.435843 0.294658 0.525220
0.548587 0.317002 0.546832
0.664174 0.340787 0.568346
0.771357 0.364328 0.590916
0.253008 0.377449 0.524518
0.368567 0.400171 0.545701
0.484526 0.423964 0.568124
0.598874 0.447869 0.590152
0.713027 0.472232 0.611498
0.811161 0.495667 0.631906
0.301952 0.508222 0.567471
0.419265 0.533980 0.589455
0.533620 0.559327 0.610889
0.649474 0.584586 0.631283
0.756547 0.609046 0.650254
0.843648 0.630792 0.667396
0.352906 0.646928 0.610162
0.469007 0.670799 0.630269
0.582032 0.692015 0.649658
0.695088 0.711771 0.666899
0.793331 0.729577 0.682081
0.867492 0.744138 0.695086
0.402397 0.763612 0.648950
0.515618 0.779708 0.665914
0.626155 0.793189 0.681562
0.731987 0.804425 0.694657
0.819744 0.813869 0.705020
0.882469 0.820026 0.713827
0.178646 0.151757 0.539343
0.287646 0.167249 0.555008
0.399174 0.184331 0.572416
0.511138 0.202868 0.591358
0.624679 0.223136 0.610728
0.735612 0.244636 0.631206
0.217126 0.261354 0.571831
0.330103 0.280674 0.590540
0.444721 0.302696 0.610464
0.557660 0.325459 0.630463
0.673570 0.348844 0.650384
0.779182 0.373181 0.669601
0.261779 0.385708 0.609831
0.377084 0.409277 0.630137
0.493758 0.432726 0.649729
0.608425 0.456560 0.668916
0.722061 0.480291 0.687579
0.817798 0.504454 0.703800
0.311365 0.517434 0.649124
0.428341 0.542454 0.667849
0.542690 0.568611 0.686583
0.658509 0.593506 0.703211
0.764005 0.616989 0.718409
0.848879 0.638565 0.731350
0.362433 0.655789 0.686114
0.477935 0.678647 0.702650
0.590739 0.699568 0.717794
0.702820 0.718426 0.731062
0.799089 0.734773 0.741732
0.870948 0.748940 0.750891
0.411026 0.769742 0.717238
0.523063 0.784842 0.730843
0.633487 0.797619 0.741669
0.737644 0.807991 0.750626
0.823680 0.815500 0.757502
0.883827 0.821522 0.762385
