example_ofxGpuLutCube/bin/data/ofxGpuLutCube/LUT/U18 (soft green shadow fade tint).cube
LUT_3D_SIZE 6
0.000000 0.000000 0.000000
0.141627 0.000000 0.000000
0.367909 0.000000 0.000000
0.625061 0.000000 0.000000
0.901779 0.000000 0.000000
1.000000 0.000000 0.000000
0.000000 0.247752 0.000000
0.141627 0.247752 0.000000
0.367909 0.247752 0.000000
0.625061 0.247752 0.000000
0.901779 0.247752 0.000000
1.000000 0.247752 0.000000
0.000000 0.502941 0.000000
0.141627 0.502941 0.000000
0.367909 0.502941 0.000000
0.625061 0.502941 0.000000
0.901779 0.502941 0.000000
1.000000 0.502941 0.000000
0.000000 0.758870 0.000000
0.141627 0.758870 0.000000
0.367909 0.758870 0.000000
0.625061 0.758870 0.000000
0.901779 0.758870 0.000000
1.000000 0.758870 0.000000
0.000000 0.974741 0.000000
0.141627 0.974741 0.000000
0.367909 0.974741 0.000000
0.625061 0.974741 0.000000
0.901779 0.974741 0.000000
1.000000 0.974741 0.000000
0.000000 1.000000 0.000000
0.141627 1.000000 0.000000
0.367909 1.000000 0.000000
0.625061 1.000000 0.000000
0.901779 1.000000 0.000000
1.000000 1.000000 0.000000
0.000000 0.000000 0.270216
0.141627 0.000000 0.270216
0.367909 0.000000 0.270216
0.625061 0.000000 0.270216
0.901779 0.000000 0.270216
1.000000 0.000000 0.270216
0.000000 0.247752 0.270216
0.141627 0.247752 0.270216
0.367909 0.247752 0.270216
0.625061 0.247752 0.270216
0.901779 0.247752 0.270216
1.000000 0.247752 0.270216
0.000000 0.502941 0.270216
0.141627 0.502941 0.270216
0.367909 0.502941 0.270216
0.625061 0.502941 0.270216
0.901779 0.502941 0.270216
1.000000 0.502941 0.270216
0.000000 0.758870 0.270216
0.141627 0.758870 0.270216
0.367909 0.758870 0.270216
0.625061 0.758870 0.270216
0.901779 0.758870 0.270216
1.000000 0.758870 0.270216
0.000000 0.974741 0.270216
0.141627 0.974741 0.270216
0.367909 0.974741 0.270216
0.625061 0.974741 0.270216
0.901779 0.974741 0.270216
1.000000 0.974741 0.270216
0.000000 1.000000 0.270216
0.141627 1.000000 0.270216
0.367909 1.000000 0.270216
0.625061 1.000000 0.270216
0.901779 1.000000 0.270216
1.000000 1.000000 0.270216
0.000000 0.000000 0.536980
0.141627 0.000000 0.536980
0.367909 0.000000 0.536980
0.625061 0.000000 0.536980
0.901779 0.000000 0.536980
1.000000 0.000000 0.536980
0.000000 0.247752 0.536980
0.141627 0.247752 0.536980
0.367909 0.247752 0.536980
0.625061 0.247752 0.536980
0.901779 0.247752 0.536980
1.000000 0.247752 0.536980
0.000000 0.502941 0.536980
0.141627 0.502941 0.536980
0.367909 0.502941 0.536980
0.625061 0.502941 0.536980
0.901779 0.502941 0.536980
1.000000 0.502941 0.536980
0.000000 0.758870 0.536980
0.141627 0.758870 0.536980
0.367909 0.758870 0.536980
0.625061 0.758870 0.536980
0.901779 0.758870 0.536980
1.000000 0.758870 0.536980
0.000000 0.974741 0.536980
0.141627 0.974741 0.536980
0.367909 0.974741 0.536980
0.625061 0.974741 0.536980
0.901779 0.974741 0.536980
1.000000 0.974741 0.536980
0.000000 1.000000 0.536980
0.141627 1.000000 0.536980
0.367909 1.000000 0.536980
0.625061 1.000000 0.536980
0.901779 1.000000 0.536980
1.000000 1.000000 0.536980
0.000000 0.000000 0.798143
0.141627 0.000000 0.798143
0.367909 0.000000 0.798143
0.625061 0.000000 0.798143
0.901779 0.000000 0.798143
1.000000 0.000000 0.798143
0.000000 0.247752 0.798143
0.141627 0.247752 0.798143
0.367909 0.247752 0.798143
0.625061 0.247752 0.798143
0.901779 0.247752 0.798143
1.000000 0.247752 0.798143
0.000000 0.502941 0.798143
0.141627 0.502941 0.798143
0.367909 0.502941 0.798143
0.625061 0.502941 0.798143
0.901779 0.502941 0.798143
1.000000 0.502941 0.798143
0.000000 0.758870 0.798143
0.141627 0.758870 0.798143
0.367909 0.758870 0.798143
0.625061 0.758870 0.798143
0.901779 0.758870 0.798143
1.000000 0.758870 0.798143
0.000000 0.974741 0.798143
0.141627 0.974741 0.798143
0.367909 0.974741 0.798143
0.625061 0.974741 0.798143
0.901779 0.974741 0.798143
1.000000 0.974741 0.798143
0.000000 1.000000 0.798143
0.141627 1.000000 0.798143
0.367909 1.000000 0.798143
0.625061 1.000000 0.798143
0.901779 1.000000 0.798143
1.000000 1.000000 0.798143
0.000000 0.000000 0.986641
0.141627 0.000000 0.986641
0.367909 0.000000 0.986641
0.625061 0.000000 0.986641
0.901779 0.000000 0.986641
1.000000 0.000000 0.986641
0.000000 0.247752 0.986641
0.141627 0.247752 0.986641
0.367909 0.247752 0.986641
0.625061 0.247752 0.986641
0.901779 0.247752 0.986641
1.000000 0.247752 0.986641
0.000000 0.502941 0.986641
0.141627 0.502941 0.986641
0.367909 0.502941 0.986641
0.625061 0.502941 0.986641
0.901779 0.502941 0.986641
1.000000 0.502941 0.986641
0.000000 0.758870 0.986641
0.141627 0.758870 0.986641
0.367909 0.758870 0.986641
0.625061 0.758870 0.986641
0.901779 0.758870 0.986641
1.000000 0.758870 0.986641
0.000000 0.974741 0.986641
0.141627 0.974741 0.986641
0.367909 0.974741 0.986641
0.625061 0.974741 0.986641
0.901779 0.974741 0.986641
1.000000 0.974741 0.986641
0.000000 1.000000 0.986641
0.141627 1.000000 0.986641
0.367909 1.000000 0.986641
0.625061 1.000000 0.986641
0.901779 1.000000 0.986641
1.000000 1.000000 0.986641
0.000000 0.000000 1.000000
0.141627 0.000000 1.000000
0.367909 0.000000 1.000000
0.625061 0.000000 1.000000
0.901779 0.000000 1.000000
1.000000 0.000000 1.000000
0.000000 0.247752 1.000000
0.141627 0.247752 1.000000
0.367909 0.247752 1.000000
0.625061 0.247752 1.000000
0.901779 0.247752 1.000000
1.000000 0.247752 1.000000
0.000000 0.502941 1.000000
0.141627 0.502941 1.000000
0.367909 0.502941 1.000000
0.625061 0.502941 1.000000
0.901779 0.502941 1.000000
1.000000 0.502941 1.000000
0.000000 0.758870 1.000000
0.141627 0.758870 1.000000
0.367909 0.758870 1.000000
0.625061 0.758870 1.000000
0.901779 0.758870 1.000000
1.000000 0.758870 1.000000
0.000000 0.974741 1.000000
0.141627 0.974741 1.000000
0.367909 0.974741 1.000000
0.625061 0.974741 1.000000
0.901779 0.974741 1.000000
1.000000 0.974741 1.000000
0.000000 1.000000 1.000000
0.141627 1.000000 1.000000
0.367909 1.000000 1.000000
0.625061 1.000000 1.000000
0.901779 1.000000 1.000000
1.000000 1.000000 1.000000
