example_ofxGpuLutCube/bin/data/ofxGpuLutCube/LUT/U18 (soft green shadow fade tint).cube
LUT_3D_SIZE 16
0.000000 0.000000 0.000000
0.025749 0.000000 0.000000
0.077105 0.000000 0.000000
0.141627 0.000000 0.000000
0.212357 0.000000 0.000000
0.288959 0.000000 0.000000
0.367909 0.000000 0.000000
0.450728 0.000000 0.000000
0.536551 0.000000 0.000000
0.625061 0.000000 0.000000
0.716643 0.000000 0.000000
0.808369 0.000000 0.000000
0.901779 0.000000 0.000000
0.966377 0.000000 0.000000
0.994429 0.000000 0.000000
1.000000 0.000000 0.000000
0.000000 0.078839 0.000000
0.025749 0.078839 0.000000
0.077105 0.078839 0.000000
0.141627 0.078839 0.000000
0.212357 0.078839 0.000000
0.288959 0.078839 0.000000
0.367909 0.078839 0.000000
0.450728 0.078839 0.000000
0.536551 0.078839 0.000000
0.625061 0.078839 0.000000
0.716643 0.078839 0.000000
0.808369 0.078839 0.000000
0.901779 0.078839 0.000000
0.966377 0.078839 0.000000
0.994429 0.078839 0.000000
1.000000 0.078839 0.000000
0.000000 0.162952 0.000000
0.025749 0.162952 0.000000
0.077105 0.162952 0.000000
0.141627 0.162952 0.000000
0.212357 0.162952 0.000000
0.288959 0.162952 0.000000
0.367909 0.162952 0.000000
0.450728 0.162952 0.000000
0.536551 0.162952 0.000000
0.625061 0.162952 0.000000
0.716643 0.162952 0.000000
0.808369 0.162952 0.000000
0.901779 0.162952 0.000000
0.966377 0.162952 0.000000
0.994429 0.162952 0.000000
1.000000 0.162952 0.000000
0.000000 0.247752 0.000000
0.025749 0.247752 0.000000
0.077105 0.247752 0.000000
0.141627 0.247752 0.000000
0.212357 0.247752 0.000000
0.288959 0.247752 0.000000
0.367909 0.247752 0.000000
0.450728 0.247752 0.000000
0.536551 0.247752 0.000000
0.625061 0.247752 0.000000
0.716643 0.247752 0.000000
0.808369 0.247752 0.000000
0.901779 0.247752 0.000000
0.966377 0.247752 0.000000
0.994429 0.247752 0.000000
1.000000 0.247752 0.000000
0.000000 0.332685 0.000000
0.025749 0.332685 0.000000
0.077105 0.332685 0.000000
0.141627 0.332685 0.000000
0.212357 0.332685 0.000000
0.288959 0.332685 0.000000
0.367909 0.332685 0.000000
0.450728 0.332685 0.000000
0.536551 0.332685 0.000000
0.625061 0.332685 0.000000
0.716643 0.332685 0.000000
0.808369 0.332685 0.000000
0.901779 0.332685 0.000000
0.966377 0.332685 0.000000
0.994429 0.332685 0.000000
1.000000 0.332685 0.000000
0.000000 0.417775 0.000000
0.025749 0.417775 0.000000
0.077105 0.417775 0.000000
0.141627 0.417775 0.000000
0.212357 0.417775 0.000000
0.288959 0.417775 0.000000
0.367909 0.417775 0.000000
0.450728 0.417775 0.000000
0.536551 0.417775 0.000000
0.625061 0.417775 0.000000
0.716643 0.417775 0.000000
0.808369 0.417775 0.000000
0.901779 0.417775 0.000000
0.966377 0.417775 0.000000
0.994429 0.417775 0.000000
1.000000 0.417775 0.000000
0.000000 0.502941 0.000000
0.025749 0.502941 0.000000
0.077105 0.502941 0.000000
0.141627 0.502941 0.000000
0.212357 0.502941 0.000000
0.288959 0.502941 0.000000
0.367909 0.502941 0.000000
0.450728 0.502941 0.000000
0.536551 0.502941 0.000000
0.625061 0.502941 0.000000
0.716643 0.502941 0.000000
0.808369 0.502941 0.000000
0.901779 0.502941 0.000000
0.966377 0.502941 0.000000
0.994429 0.502941 0.000000
1.000000 0.502941 0.000000
0.000000 0.588132 0.000000
0.025749 0.588132 0.000000
0.077105 0.588132 0.000000
0.141627 0.588132 0.000000
0.212357 0.588132 0.000000
0.288959 0.588132 0.000000
0.367909 0.588132 0.000000
0.450728 0.588132 0.000000
0.536551 0.588132 0.000000
0.625061 0.588132 0.000000
0.716643 0.588132 0.000000
0.808369 0.588132 0.000000
0.901779 0.588132 0.000000
0.966377 0.588132 0.000000
0.994429 0.588132 0.000000
1.000000 0.588132 0.000000
0.000000 0.673454 0.000000
0.025749 0.673454 0.000000
0.077105 0.673454 0.000000
0.141627 0.673454 0.000000
0.212357 0.673454 0.000000
0.288959 0.673454 0.000000
0.367909 0.673454 0.000000
0.450728 0.673454 0.000000
0.536551 0.673454 0.000000
0.625061 0.673454 0.000000
0.716643 0.673454 0.000000
0.808369 0.673454 0.000000
0.901779 0.673454 0.000000
0.966377 0.673454 0.000000
0.994429 0.673454 0.000000
1.000000 0.673454 0.000000
0.000000 0.758870 0.000000
0.025749 0.758870 0.000000
0.077105 0.758870 0.000000
0.141627 0.758870 0.000000
0.212357 0.758870 0.000000
0.288959 0.758870 0.000000
0.367909 0.758870 0.000000
0.450728 0.758870 0.000000
0.536551 0.758870 0.000000
0.625061 0.758870 0.000000
0.716643 0.758870 0.000000
0.808369 0.758870 0.000000
0.901779 0.758870 0.000000
0.966377 0.758870 0.000000
0.994429 0.758870 0.000000
1.000000 0.758870 0.000000
0.000000 0.844266 0.000000
0.025749 0.844266 0.000000
0.077105 0.844266 0.000000
0.141627 0.844266 0.000000
0.212357 0.844266 0.000000
0.288959 0.844266 0.000000
0.367909 0.844266 0.000000
0.450728 0.844266 0.000000
0.536551 0.844266 0.000000
0.625061 0.844266 0.000000
0.716643 0.844266 0.000000
0.808369 0.844266 0.000000
0.901779 0.844266 0.000000
0.966377 0.844266 0.000000
0.994429 0.844266 0.000000
1.000000 0.844266 0.000000
0.000000 0.926623 0.000000
0.025749 0.926623 0.000000
0.077105 0.926623 0.000000
0.141627 0.926623 0.000000
0.212357 0.926623 0.000000
0.288959 0.926623 0.000000
0.367909 0.926623 0.000000
0.450728 0.926623 0.000000
0.536551 0.926623 0.000000
0.625061 0.926623 0.000000
0.716643 0.926623 0.000000
0.808369 0.926623 0.000000
0.901779 0.926623 0.000000
0.966377 0.926623 0.000000
0.994429 0.926623 0.000000
1.000000 0.926623 0.000000
0.000000 0.974741 0.000000
0.025749 0.974741 0.000000
0.077105 0.974741 0.000000
0.141627 0.974741 0.000000
0.212357 0.974741 0.000000
0.288959 0.974741 0.000000
0.367909 0.974741 0.000000
0.450728 0.974741 0.000000
0.536551 0.974741 0.000000
0.625061 0.974741 0.000000
0.716643 0.974741 0.000000
0.808369 0.974741 0.000000
0.901779 0.974741 0.000000
0.966377 0.974741 0.000000
0.994429 0.974741 0.000000
1.000000 0.974741 0.000000
0.000000 0.994426 0.000000
0.025749 0.994426 0.000000
0.077105 0.994426 0.000000
0.141627 0.994426 0.000000
0.212357 0.994426 0.000000
0.288959 0.994426 0.000000
0.367909 0.994426 0.000000
0.450728 0.994426 0.000000
0.536551 0.994426 0.000000
0.625061 0.994426 0.000000
0.716643 0.994426 0.000000
0.808369 0.994426 0.000000
0.901779 0.994426 0.000000
0.966377 0.994426 0.000000
0.994429 0.994426 0.000000
1.000000 0.994426 0.000000
0.000000 0.999623 0.000000
0.025749 0.999623 0.000000
0.077105 0.999623 0.000000
0.141627 0.999623 0.000000
0.212357 0.999623 0.000000
0.288959 0.999623 0.000000
0.367909 0.999623 0.000000
0.450728 0.999623 0.000000
0.536551 0.999623 0.000000
0.625061 0.999623 0.000000
0.716643 0.999623 0.000000
0.808369 0.999623 0.000000
0.901779 0.999623 0.000000
0.966377 0.999623 0.000000
0.994429 0.999623 0.000000
1.000000 0.999623 0.000000
0.000000 1.000000 0.000000
0.025749 1.000000 0.000000
0.077105 1.000000 0.000000
0.141627 1.000000 0.000000
0.212357 1.000000 0.000000
0.288959 1.000000 0.000000
0.367909 1.000000 0.000000
0.450728 1.000000 0.000000
0.536551 1.000000 0.000000
0.625061 1.000000 0.000000
0.716643 1.000000 0.000000
0.808369 1.000000 0.000000
0.901779 1.000000 0.000000
0.966377 1.000000 0.000000
0.994429 1.000000 0.000000
1.000000 1.000000 0.000000
0.000000 0.000000 0.087146
0.025749 0.000000 0.087146
0.077105 0.000000 0.087146
0.141627 0.000000 0.087146
0.212357 0.000000 0.087146
0.288959 0.000000 0.087146
0.367909 0.000000 0.087146
0.450728 0.000000 0.087146
0.536551 0.000000 0.087146
0.625061 0.000000 0.087146
0.716643 0.000000 0.087146
0.808369 0.000000 0.087146
0.901779 0.000000 0.087146
0.966377 0.000000 0.087146
0.994429 0.000000 0.087146
1.000000 0.000000 0.087146
0.000000 0.078839 0.087146
0.025749 0.078839 0.087146
0.077105 0.078839 0.087146
0.141627 0.078839 0.087146
0.212357 0.078839 0.087146
0.288959 0.078839 0.087146
0.367909 0.078839 0.087146
0.450728 0.078839 0.087146
0.536551 0.078839 0.087146
0.625061 0.078839 0.087146
0.716643 0.078839 0.087146
0.808369 0.078839 0.087146
0.901779 0.078839 0.087146
0.966377 0.078839 0.087146
0.994429 0.078839 0.087146
1.000000 0.078839 0.087146
0.000000 0.162952 0.087146
0.025749 0.162952 0.087146
0.077105 0.162952 0.087146
0.141627 0.162952 0.087146
0.212357 0.162952 0.087146
0.288959 0.162952 0.087146
0.367909 0.162952 0.087146
0.450728 0.162952 0.087146
0.536551 0.162952 0.087146
0.625061 0.162952 0.087146
0.716643 0.162952 0.087146
0.808369 0.162952 0.087146
0.901779 0.162952 0.087146
0.966377 0.162952 0.087146
0.994429 0.162952 0.087146
1.000000 0.162952 0.087146
0.000000 0.247752 0.087146
0.025749 0.247752 0.087146
0.077105 0.247752 0.087146
0.141627 0.247752 0.087146
0.212357 0.247752 0.087146
0.288959 0.247752 0.087146
0.367909 0.247752 0.087146
0.450728 0.247752 0.087146
0.536551 0.247752 0.087146
0.625061 0.247752 0.087146
0.716643 0.247752 0.087146
0.808369 0.247752 0.087146
0.901779 0.247752 0.087146
0.966377 0.247752 0.087146
0.994429 0.247752 0.087146
1.000000 0.247752 0.087146
0.000000 0.332685 0.087146
0.025749 0.332685 0.087146
0.077105 0.332685 0.087146
0.141627 0.332685 0.087146
0.212357 0.332685 0.087146
0.288959 0.332685 0.087146
0.367909 0.332685 0.087146
0.450728 0.332685 0.087146
0.536551 0.332685 0.087146
0.625061 0.332685 0.087146
0.716643 0.332685 0.087146
0.808369 0.332685 0.087146
0.901779 0.332685 0.087146
0.966377 0.332685 0.087146
0.994429 0.332685 0.087146
1.000000 0.332685 0.087146
0.000000 0.417775 0.087146
0.025749 0.417775 0.087146
0.077105 0.417775 0.087146
0.141627 0.417775 0.087146
0.212357 0.417775 0.087146
0.288959 0.417775 0.087146
0.367909 0.417775 0.087146
0.450728 0.417775 0.087146
0.536551 0.417775 0.087146
0.625061 0.417775 0.087146
0.716643 0.417775 0.087146
0.808369 0.417775 0.087146
0.901779 0.417775 0.087146
0.966377 0.417775 0.087146
0.994429 0.417775 0.087146
1.000000 0.417775 0.087146
0.000000 0.502941 0.087146
0.025749 0.502941 0.087146
0.077105 0.502941 0.087146
0.141627 0.502941 0.087146
0.212357 0.502941 0.087146
0.288959 0.502941 0.087146
0.367909 0.502941 0.087146
0.450728 0.502941 0.087146
0.536551 0.502941 0.087146
0.625061 0.502941 0.087146
0.716643 0.502941 0.087146
0.808369 0.502941 0.087146
0.901779 0.502941 0.087146
0.966377 0.502941 0.087146
0.994429 0.502941 0.087146
1.000000 0.502941 0.087146
0.000000 0.588132 0.087146
0.025749 0.588132 0.087146
0.077105 0.588132 0.087146
0.141627 0.588132 0.087146
0.212357 0.588132 0.087146
0.288959 0.588132 0.087146
0.367909 0.588132 0.087146
0.450728 0.588132 0.087146
0.536551 0.588132 0.087146
0.625061 0.588132 0.087146
0.716643 0.588132 0.087146
0.808369 0.588132 0.087146
0.901779 0.588132 0.087146
0.966377 0.588132 0.087146
0.994429 0.588132 0.087146
1.000000 0.588132 0.087146
0.000000 0.673454 0.087146
0.025749 0.673454 0.087146
0.077105 0.673454 0.087146
0.141627 0.673454 0.087146
0.212357 0.673454 0.087146
0.288959 0.673454 0.087146
0.367909 0.673454 0.087146
0.450728 0.673454 0.087146
0.536551 0.673454 0.087146
0.625061 0.673454 0.087146
0.716643 0.673454 0.087146
0.808369 0.673454 0.087146
0.901779 0.673454 0.087146
0.966377 0.673454 0.087146
0.994429 0.673454 0.087146
1.000000 0.673454 0.087146
0.000000 0.758870 0.087146
0.025749 0.758870 0.087146
0.077105 0.758870 0.087146
0.141627 0.758870 0.087146
0.212357 0.758870 0.087146
0.288959 0.758870 0.087146
0.367909 0.758870 0.087146
0.450728 0.758870 0.087146
0.536551 0.758870 0.087146
0.625061 0.758870 0.087146
0.716643 0.758870 0.087146
0.808369 0.758870 0.087146
0.901779 0.758870 0.087146
0.966377 0.758870 0.087146
0.994429 0.758870 0.087146
1.000000 0.758870 0.087146
0.000000 0.844266 0.087146
0.025749 0.844266 0.087146
0.077105 0.844266 0.087146
0.141627 0.844266 0.087146
0.212357 0.844266 0.087146
0.288959 0.844266 0.087146
0.367909 0.844266 0.087146
0.450728 0.844266 0.087146
0.536551 0.844266 0.087146
0.625061 0.844266 0.087146
0.716643 0.844266 0.087146
0.808369 0.844266 0.087146
0.901779 0.844266 0.087146
0.966377 0.844266 0.087146
0.994429 0.844266 0.087146
1.000000 0.844266 0.087146
0.000000 0.926623 0.087146
0.025749 0.926623 0.087146
0.077105 0.926623 0.087146
0.141627 0.926623 0.087146
0.212357 0.926623 0.087146
0.288959 0.926623 0.087146
0.367909 0.926623 0.087146
0.450728 0.926623 0.087146
0.536551 0.926623 0.087146
0.625061 0.926623 0.087146
0.716643 0.926623 0.087146
0.808369 0.926623 0.087146
0.901779 0.926623 0.087146
0.966377 0.926623 0.087146
0.994429 0.926623 0.087146
1.000000 0.926623 0.087146
0.000000 0.974741 0.087146
0.025749 0.974741 0.087146
0.077105 0.974741 0.087146
0.141627 0.974741 0.087146
0.212357 0.974741 0.087146
0.288959 0.974741 0.087146
0.367909 0.974741 0.087146
0.450728 0.974741 0.087146
0.536551 0.974741 0.087146
0.625061 0.974741 0.087146
0.716643 0.974741 0.087146
0.808369 0.974741 0.087146
0.901779 0.974741 0.087146
0.966377 0.974741 0.087146
0.994429 0.974741 0.087146
1.000000 0.974741 0.087146
0.000000 0.994426 0.087146
0.025749 0.994426 0.087146
0.077105 0.994426 0.087146
0.141627 0.994426 0.087146
0.212357 0.994426 0.087146
0.288959 0.994426 0.087146
0.367909 0.994426 0.087146
0.450728 0.994426 0.087146
0.536551 0.994426 0.087146
0.625061 0.994426 0.087146
0.716643 0.994426 0.087146
0.808369 0.994426 0.087146
0.901779 0.994426 0.087146
0.966377 0.994426 0.087146
0.994429 0.994426 0.087146
1.000000 0.994426 0.087146
0.000000 0.999623 0.087146
0.025749 0.999623 0.087146
0.077105 0.999623 0.087146
0.141627 0.999623 0.087146
0.212357 0.999623 0.087146
0.288959 0.999623 0.087146
0.367909 0.999623 0.087146
0.450728 0.999623 0.087146
0.536551 0.999623 0.087146
0.625061 0.999623 0.087146
0.716643 0.999623 0.087146
0.808369 0.999623 0.087146
0.901779 0.999623 0.087146
0.966377 0.999623 0.087146
0.994429 0.999623 0.087146
1.000000 0.999623 0.087146
0.000000 1.000000 0.087146
0.025749 1.000000 0.087146
0.077105 1.000000 0.087146
0.141627 1.000000 0.087146
0.212357 1.000000 0.087146
0.288959 1.000000 0.087146
0.367909 1.000000 0.087146
0.450728 1.000000 0.087146
0.536551 1.000000 0.087146
0.625061 1.000000 0.087146
0.716643 1.000000 0.087146
0.808369 1.000000 0.087146
0.901779 1.000000 0.087146
0.966377 1.000000 0.087146
0.994429 1.000000 0.087146
1.000000 1.000000 0.087146
0.000000 0.000000 0.179151
0.025749 0.000000 0.179151
0.077105 0.000000 0.179151
0.141627 0.000000 0.179151
0.212357 0.000000 0.179151
0.288959 0.000000 0.179151
0.367909 0.000000 0.179151
0.450728 0.000000 0.179151
0.536551 0.000000 0.179151
0.625061 0.000000 0.179151
0.716643 0.000000 0.179151
0.808369 0.000000 0.179151
0.901779 0.000000 0.179151
0.966377 0.000000 0.179151
0.994429 0.000000 0.179151
1.000000 0.000000 0.179151
0.000000 0.078839 0.179151
0.025749 0.078839 0.179151
0.077105 0.078839 0.179151
0.141627 0.078839 0.179151
0.212357 0.078839 0.179151
0.288959 0.078839 0.179151
0.367909 0.078839 0.179151
0.450728 0.078839 0.179151
0.536551 0.078839 0.179151
0.625061 0.078839 0.179151
0.716643 0.078839 0.179151
0.808369 0.078839 0.179151
0.901779 0.078839 0.179151
0.966377 0.078839 0.179151
0.994429 0.078839 0.179151
1.000000 0.078839 0.179151
0.000000 0.162952 0.179151
0.025749 0.162952 0.179151
0.077105 0.162952 0.179151
0.141627 0.162952 0.179151
0.212357 0.162952 0.179151
0.288959 0.162952 0.179151
0.367909 0.162952 0.179151
0.450728 0.162952 0.179151
0.536551 0.162952 0.179151
0.625061 0.162952 0.179151
0.716643 0.162952 0.179151
0.808369 0.162952 0.179151
0.901779 0.162952 0.179151
0.966377 0.162952 0.179151
0.994429 0.162952 0.179151
1.000000 0.162952 0.179151
0.000000 0.247752 0.179151
0.025749 0.247752 0.179151
0.077105 0.247752 0.179151
0.141627 0.247752 0.179151
0.212357 0.247752 0.179151
0.288959 0.247752 0.179151
0.367909 0.247752 0.179151
0.450728 0.247752 0.179151
0.536551 0.247752 0.179151
0.625061 0.247752 0.179151
0.716643 0.247752 0.179151
0.808369 0.247752 0.179151
0.901779 0.247752 0.179151
0.966377 0.247752 0.179151
0.994429 0.247752 0.179151
1.000000 0.247752 0.179151
0.000000 0.332685 0.179151
0.025749 0.332685 0.179151
0.077105 0.332685 0.179151
0.141627 0.332685 0.179151
0.212357 0.332685 0.179151
0.288959 0.332685 0.179151
0.367909 0.332685 0.179151
0.450728 0.332685 0.179151
0.536551 0.332685 0.179151
0.625061 0.332685 0.179151
0.716643 0.332685 0.179151
0.808369 0.332685 0.179151
0.901779 0.332685 0.179151
0.966377 0.332685 0.179151
0.994429 0.332685 0.179151
1.000000 0.332685 0.179151
0.000000 0.417775 0.179151
0.025749 0.417775 0.179151
0.077105 0.417775 0.179151
0.141627 0.417775 0.179151
0.212357 0.417775 0.179151
0.288959 0.417775 0.179151
0.367909 0.417775 0.179151
0.450728 0.417775 0.179151
0.536551 0.417775 0.179151
0.625061 0.417775 0.179151
0.716643 0.417775 0.179151
0.808369 0.417775 0.179151
0.901779 0.417775 0.179151
0.966377 0.417775 0.179151
0.994429 0.417775 0.179151
1.000000 0.417775 0.179151
0.000000 0.502941 0.179151
0.025749 0.502941 0.179151
0.077105 0.502941 0.179151
0.141627 0.502941 0.179151
0.212357 0.502941 0.179151
0.288959 0.502941 0.179151
0.367909 0.502941 0.179151
0.450728 0.502941 0.179151
0.536551 0.502941 0.179151
0.625061 0.502941 0.179151
0.716643 0.502941 0.179151
0.808369 0.502941 0.179151
0.901779 0.502941 0.179151
0.966377 0.502941 0.179151
0.994429 0.502941 0.179151
1.000000 0.502941 0.179151
0.000000 0.588132 0.179151
0.025749 0.588132 0.179151
0.077105 0.588132 0.179151
0.141627 0.588132 0.179151
0.212357 0.588132 0.179151
0.288959 0.588132 0.179151
0.367909 0.588132 0.179151
0.450728 0.588132 0.179151
0.536551 0.588132 0.179151
0.625061 0.588132 0.179151
0.716643 0.588132 0.179151
0.808369 0.588132 0.179151
0.901779 0.588132 0.179151
0.966377 0.588132 0.179151
0.994429 0.588132 0.179151
1.000000 0.588132 0.179151
0.000000 0.673454 0.179151
0.025749 0.673454 0.179151
0.077105 0.673454 0.179151
0.141627 0.673454 0.179151
0.212357 0.673454 0.179151
0.288959 0.673454 0.179151
0.367909 0.673454 0.179151
0.450728 0.673454 0.179151
0.536551 0.673454 0.179151
0.625061 0.673454 0.179151
0.716643 0.673454 0.179151
0.808369 0.673454 0.179151
0.901779 0.673454 0.179151
0.966377 0.673454 0.179151
0.994429 0.673454 0.179151
1.000000 0.673454 0.179151
0.000000 0.758870 0.179151
0.025749 0.758870 0.179151
0.077105 0.758870 0.179151
0.141627 0.758870 0.179151
0.212357 0.758870 0.179151
0.288959 0.758870 0.179151
0.367909 0.758870 0.179151
0.450728 0.758870 0.179151
0.536551 0.758870 0.179151
0.625061 0.758870 0.179151
0.716643 0.758870 0.179151
0.808369 0.758870 0.179151
0.901779 0.758870 0.179151
0.966377 0.758870 0.179151
0.994429 0.758870 0.179151
1.000000 0.758870 0.179151
0.000000 0.844266 0.179151
0.025749 0.844266 0.179151
0.077105 0.844266 0.179151
0.141627 0.844266 0.179151
0.212357 0.844266 0.179151
0.288959 0.844266 0.179151
0.367909 0.844266 0.179151
0.450728 0.844266 0.179151
0.536551 0.844266 0.179151
0.625061 0.844266 0.179151
0.716643 0.844266 0.179151
0.808369 0.844266 0.179151
0.901779 0.844266 0.179151
0.966377 0.844266 0.179151
0.994429 0.844266 0.179151
1.000000 0.844266 0.179151
0.000000 0.926623 0.179151
0.025749 0.926623 0.179151
0.077105 0.926623 0.179151
0.141627 0.926623 0.179151
0.212357 0.926623 0.179151
0.288959 0.926623 0.179151
0.367909 0.926623 0.179151
0.450728 0.926623 0.179151
0.536551 0.926623 0.179151
0.625061 0.926623 0.179151
0.716643 0.926623 0.179151
0.808369 0.926623 0.179151
0.901779 0.926623 0.179151
0.966377 0.926623 0.179151
0.994429 0.926623 0.179151
1.000000 0.926623 0.179151
0.000000 0.974741 0.179151
0.025749 0.974741 0.179151
0.077105 0.974741 0.179151
0.141627 0.974741 0.179151
0.212357 0.974741 0.179151
0.288959 0.974741 0.179151
0.367909 0.974741 0.179151
0.450728 0.974741 0.179151
0.536551 0.974741 0.179151
0.625061 0.974741 0.179151
0.716643 0.974741 0.179151
0.808369 0.974741 0.179151
0.901779 0.974741 0.179151
0.966377 0.974741 0.179151
0.994429 0.974741 0.179151
1.000000 0.974741 0.179151
0.000000 0.994426 0.179151
0.025749 0.994426 0.179151
0.077105 0.994426 0.179151
0.141627 0.994426 0.179151
0.212357 0.994426 0.179151
0.288959 0.994426 0.179151
0.367909 0.994426 0.179151
0.450728 0.994426 0.179151
0.536551 0.994426 0.179151
0.625061 0.994426 0.179151
0.716643 0.994426 0.179151
0.808369 0.994426 0.179151
0.901779 0.994426 0.179151
0.966377 0.994426 0.179151
0.994429 0.994426 0.179151
1.000000 0.994426 0.179151
0.000000 0.999623 0.179151
0.025749 0.999623 0.179151
0.077105 0.999623 0.179151
0.141627 0.999623 0.179151
0.212357 0.999623 0.179151
0.288959 0.999623 0.179151
0.367909 0.999623 0.179151
0.450728 0.999623 0.179151
0.536551 0.999623 0.179151
0.625061 0.999623 0.179151
0.716643 0.999623 0.179151
0.808369 0.999623 0.179151
0.901779 0.999623 0.179151
0.966377 0.999623 0.179151
0.994429 0.999623 0.179151
1.000000 0.999623 0.179151
0.000000 1.000000 0.179151
0.025749 1.000000 0.179151
0.077105 1.000000 0.179151
0.141627 1.000000 0.179151
0.212357 1.000000 0.179151
0.288959 1.000000 0.179151
0.367909 1.000000 0.179151
0.450728 1.000000 0.179151
0.536551 1.000000 0.179151
0.625061 1.000000 0.179151
0.716643 1.000000 0.179151
0.808369 1.000000 0.179151
0.901779 1.000000 0.179151
0.966377 1.000000 0.179151
0.994429 1.000000 0.179151
1.000000 1.000000 0.179151
0.000000 0.000000 0.270216
0.025749 0.000000 0.270216
0.077105 0.000000 0.270216
0.141627 0.000000 0.270216
0.212357 0.000000 0.270216
0.288959 0.000000 0.270216
0.367909 0.000000 0.270216
0.450728 0.000000 0.270216
0.536551 0.000000 0.270216
0.625061 0.000000 0.270216
0.716643 0.000000 0.270216
0.808369 0.000000 0.270216
0.901779 0.000000 0.270216
0.966377 0.000000 0.270216
0.994429 0.000000 0.270216
1.000000 0.000000 0.270216
0.000000 0.078839 0.270216
0.025749 0.078839 0.270216
0.077105 0.078839 0.270216
0.141627 0.078839 0.270216
0.212357 0.078839 0.270216
0.288959 0.078839 0.270216
0.367909 0.078839 0.270216
0.450728 0.078839 0.270216
0.536551 0.078839 0.270216
0.625061 0.078839 0.270216
0.716643 0.078839 0.270216
0.808369 0.078839 0.270216
0.901779 0.078839 0.270216
0.966377 0.078839 0.270216
0.994429 0.078839 0.270216
1.000000 0.078839 0.270216
0.000000 0.162952 0.270216
0.025749 0.162952 0.270216
0.077105 0.162952 0.270216
0.141627 0.162952 0.270216
0.212357 0.162952 0.270216
0.288959 0.162952 0.270216
0.367909 0.162952 0.270216
0.450728 0.162952 0.270216
0.536551 0.162952 0.270216
0.625061 0.162952 0.270216
0.716643 0.162952 0.270216
0.808369 0.162952 0.270216
0.901779 0.162952 0.270216
0.966377 0.162952 0.270216
0.994429 0.162952 0.270216
1.000000 0.162952 0.270216
0.000000 0.247752 0.270216
0.025749 0.247752 0.270216
0.077105 0.247752 0.270216
0.141627 0.247752 0.270216
0.212357 0.247752 0.270216
0.288959 0.247752 0.270216
0.367909 0.247752 0.270216
0.450728 0.247752 0.270216
0.536551 0.247752 0.270216
0.625061 0.247752 0.270216
0.716643 0.247752 0.270216
0.808369 0.247752 0.270216
0.901779 0.247752 0.270216
0.966377 0.247752 0.270216
0.994429 0.247752 0.270216
1.000000 0.247752 0.270216
0.000000 0.332685 0.270216
0.025749 0.332685 0.270216
0.077105 0.332685 0.270216
0.141627 0.332685 0.270216
0.212357 0.332685 0.270216
0.288959 0.332685 0.270216
0.367909 0.332685 0.270216
0.450728 0.332685 0.270216
0.536551 0.332685 0.270216
0.625061 0.332685 0.270216
0.716643 0.332685 0.270216
0.808369 0.332685 0.270216
0.901779 0.332685 0.270216
0.966377 0.332685 0.270216
0.994429 0.332685 0.270216
1.000000 0.332685 0.270216
0.000000 0.417775 0.270216
0.025749 0.417775 0.270216
0.077105 0.417775 0.270216
0.141627 0.417775 0.270216
0.212357 0.417775 0.270216
0.288959 0.417775 0.270216
0.367909 0.417775 0.270216
0.450728 0.417775 0.270216
0.536551 0.417775 0.270216
0.625061 0.417775 0.270216
0.716643 0.417775 0.270216
0.808369 0.417775 0.270216
0.901779 0.417775 0.270216
0.966377 0.417775 0.270216
0.994429 0.417775 0.270216
1.000000 0.417775 0.270216
0.000000 0.502941 0.270216
0.025749 0.502941 0.270216
0.077105 0.502941 0.270216
0.141627 0.502941 0.270216
0.212357 0.502941 0.270216
0.288959 0.502941 0.270216
0.367909 0.502941 0.270216
0.450728 0.502941 0.270216
0.536551 0.502941 0.270216
0.625061 0.502941 0.270216
0.716643 0.502941 0.270216
0.808369 0.502941 0.270216
0.901779 0.502941 0.270216
0.966377 0.502941 0.270216
0.994429 0.502941 0.270216
1.000000 0.502941 0.270216
0.000000 0.588132 0.270216
0.025749 0.588132 0.270216
0.077105 0.588132 0.270216
0.141627 0.588132 0.270216
0.212357 0.588132 0.270216
0.288959 0.588132 0.270216
0.367909 0.588132 0.270216
0.450728 0.588132 0.270216
