example_ofxGpuLutCube/bin/data/ofxGpuLutCube/LUT/U19 (soft teal fade tint).cube
LUT_3D_SIZE 6
0.000000 0.004483 0.012606
0.149191 0.004483 0.012606
0.374047 0.004483 0.012606
0.633777 0.004483 0.012606
0.913525 0.004483 0.012606
1.000000 0.004483 0.012606
0.000000 0.271533 0.012606
0.149191 0.271533 0.012606
0.374047 0.271533 0.012606
0.633777 0.271533 0.012606
0.913525 0.271533 0.012606
1.000000 0.271533 0.012606
0.000000 0.515226 0.012606
0.149191 0.515226 0.012606
0.374047 0.515226 0.012606
0.633777 0.515226 0.012606
0.913525 0.515226 0.012606
1.000000 0.515226 0.012606
0.000000 0.750469 0.012606
0.149191 0.750469 0.012606
0.374047 0.750469 0.012606
0.633777 0.750469 0.012606
0.913525 0.750469 0.012606
1.000000 0.750469 0.012606
0.000000 0.962222 0.012606
0.149191 0.962222 0.012606
0.374047 0.962222 0.012606
0.633777 0.962222 0.012606
0.913525 0.962222 0.012606
1.000000 0.962222 0.012606
0.000000 1.000000 0.012606
0.149191 1.000000 0.012606
0.374047 1.000000 0.012606
0.633777 1.000000 0.012606
0.913525 1.000000 0.012606
1.000000 1.000000 0.012606
0.000000 0.004483 0.311958
0.149191 0.004483 0.311958
0.374047 0.004483 0.311958
0.633777 0.004483 0.311958
0.913525 0.004483 0.311958
1.000000 0.004483 0.311958
0.000000 0.271533 0.311958
0.149191 0.271533 0.311958
0.374047 0.271533 0.311958
0.633777 0.271533 0.311958
0.913525 0.271533 0.311958
1.000000 0.271533 0.311958
0.000000 0.515226 0.311958
0.149191 0.515226 0.311958
0.374047 0.515226 0.311958
0.633777 0.515226 0.311958
0.913525 0.515226 0.311958
1.000000 0.515226 0.311958
0.000000 0.750469 0.311958
0.149191 0.750469 0.311958
0.374047 0.750469 0.311958
0.633777 0.750469 0.311958
0.913525 0.750469 0.311958
1.000000 0.750469 0.311958
0.000000 0.962222 0.311958
0.149191 0.962222 0.311958
0.374047 0.962222 0.311958
0.633777 0.962222 0.311958
0.913525 0.962222 0.311958
1.000000 0.962222 0.311958
0.000000 1.000000 0.311958
0.149191 1.000000 0.311958
0.374047 1.000000 0.311958
0.633777 1.000000 0.311958
0.913525 1.000000 0.311958
1.000000 1.000000 0.311958
0.000000 0.004483 0.561739
0.149191 0.004483 0.561739
0.374047 0.004483 0.561739
0.633777 0.004483 0.561739
0.913525 0.004483 0.561739
1.000000 0.004483 0.561739
0.000000 0.271533 0.561739
0.149191 0.271533 0.561739
0.374047 0.271533 0.561739
0.633777 0.271533 0.561739
0.913525 0.271533 0.561739
1.000000 0.271533 0.561739
0.000000 0.515226 0.561739
0.149191 0.515226 0.561739
0.374047 0.515226 0.561739
0.633777 0.515226 0.561739
0.913525 0.515226 0.561739
1.000000 0.515226 0.561739
0.000000 0.750469 0.561739
0.149191 0.750469 0.561739
0.374047 0.750469 0.561739
0.633777 0.750469 0.561739
0.913525 0.750469 0.561739
1.000000 0.750469 0.561739
0.000000 0.962222 0.561739
0.149191 0.962222 0.561739
0.374047 0.962222 0.561739
0.633777 0.962222 0.561739
0.913525 0.962222 0.561739
1.000000 0.962222 0.561739
0.000000 1.000000 0.561739
0.149191 1.000000 0.561739
0.374047 1.000000 0.561739
0.633777 1.000000 0.561739
0.913525 1.000000 0.561739
1.000000 1.000000 0.561739
0.000000 0.004483 0.794588
0.149191 0.004483 0.794588
0.374047 0.004483 0.794588
0.633777 0.004483 0.794588
0.913525 0.004483 0.794588
1.000000 0.004483 0.794588
0.000000 0.271533 0.794588
0.149191 0.271533 0.794588
0.374047 0.271533 0.794588
0.633777 0.271533 0.794588
0.913525 0.271533 0.794588
1.000000 0.271533 0.794588
0.000000 0.515226 0.794588
0.149191 0.515226 0.794588
0.374047 0.515226 0.794588
0.633777 0.515226 0.794588
0.913525 0.515226 0.794588
1.000000 0.515226 0.794588
0.000000 0.750469 0.794588
0.149191 0.750469 0.794588
0.374047 0.750469 0.794588
0.633777 0.750469 0.794588
0.913525 0.750469 0.794588
1.000000 0.750469 0.794588
0.000000 0.962222 0.794588
0.149191 0.962222 0.794588
0.374047 0.962222 0.794588
0.633777 0.962222 0.794588
0.913525 0.962222 0.794588
1.000000 0.962222 0.794588
0.000000 1.000000 0.794588
0.149191 1.000000 0.794588
0.374047 1.000000 0.794588
0.633777 1.000000 0.794588
0.913525 1.000000 0.794588
1.000000 1.000000 0.794588
0.000000 0.004483 0.979595
0.149191 0.004483 0.979595
0.374047 0.004483 0.979595
0.633777 0.004483 0.979595
0.913525 0.004483 0.979595
1.000000 0.004483 0.979595
0.000000 0.271533 0.979595
0.149191 0.271533 0.979595
0.374047 0.271533 0.979595
0.633777 0.271533 0.979595
0.913525 0.271533 0.979595
1.000000 0.271533 0.979595
0.000000 0.515226 0.979595
0.149191 0.515226 0.979595
0.374047 0.515226 0.979595
0.633777 0.515226 0.979595
0.913525 0.515226 0.979595
1.000000 0.515226 0.979595
0.000000 0.750469 0.979595
0.149191 0.750469 0.979595
0.374047 0.750469 0.979595
0.633777 0.750469 0.979595
0.913525 0.750469 0.979595
1.000000 0.750469 0.979595
0.000000 0.962222 0.979595
0.149191 0.962222 0.979595
0.374047 0.962222 0.979595
0.633777 0.962222 0.979595
0.913525 0.962222 0.979595
1.000000 0.962222 0.979595
0.000000 1.000000 0.979595
0.149191 1.000000 0.979595
0.374047 1.000000 0.979595
0.633777 1.000000 0.979595
0.913525 1.000000 0.979595
1.000000 1.000000 0.979595
0.000000 0.004483 1.000000
0.149191 0.004483 1.000000
0.374047 0.004483 1.000000
0.633777 0.004483 1.000000
0.913525 0.004483 1.000000
1.000000 0.004483 1.000000
0.000000 0.271533 1.000000
0.149191 0.271533 1.000000
0.374047 0.271533 1.000000
0.633777 0.271533 1.000000
0.913525 0.271533 1.000000
1.000000 0.271533 1.000000
0.000000 0.515226 1.000000
0.149191 0.515226 1.000000
0.374047 0.515226 1.000000
0.633777 0.515226 1.000000
0.913525 0.515226 1.000000
1.000000 0.515226 1.000000
0.000000 0.750469 1.000000
0.149191 0.750469 1.000000
0.374047 0.750469 1.000000
0.633777 0.750469 1.000000
0.913525 0.750469 1.000000
1.000000 0.750469 1.000000
0.000000 0.962222 1.000000
0.149191 0.962222 1.000000
0.374047 0.962222 1.000000
0.633777 0.962222 1.000000
0.913525 0.962222 1.000000
1.000000 0.962222 1.000000
0.000000 1.000000 1.000000
0.149191 1.000000 1.000000
0.374047 1.000000 1.000000
0.633777 1.000000 1.000000
0.913525 1.000000 1.000000
1.000000 1.000000 1.000000
