example_ofxGpuLutCube/bin/data/ofxGpuLutCube/LUT/U19 (soft teal fade tint).cube
LUT_3D_SIZE 16
0.000000 0.004483 0.012606
0.032768 0.004483 0.012606
0.085900 0.004483 0.012606
0.149191 0.004483 0.012606
0.219003 0.004483 0.012606
0.295097 0.004483 0.012606
0.374047 0.004483 0.012606
0.457234 0.004483 0.012606
0.543970 0.004483 0.012606
0.633777 0.004483 0.012606
0.726915 0.004483 0.012606
0.820818 0.004483 0.012606
0.913525 0.004483 0.012606
0.971894 0.004483 0.012606
0.995769 0.004483 0.012606
1.000000 0.004483 0.012606
0.000000 0.099730 0.012606
0.032768 0.099730 0.012606
0.085900 0.099730 0.012606
0.149191 0.099730 0.012606
0.219003 0.099730 0.012606
0.295097 0.099730 0.012606
0.374047 0.099730 0.012606
0.457234 0.099730 0.012606
0.543970 0.099730 0.012606
0.633777 0.099730 0.012606
0.726915 0.099730 0.012606
0.820818 0.099730 0.012606
0.913525 0.099730 0.012606
0.971894 0.099730 0.012606
0.995769 0.099730 0.012606
1.000000 0.099730 0.012606
0.000000 0.187120 0.012606
0.032768 0.187120 0.012606
0.085900 0.187120 0.012606
0.149191 0.187120 0.012606
0.219003 0.187120 0.012606
0.295097 0.187120 0.012606
0.374047 0.187120 0.012606
0.457234 0.187120 0.012606
0.543970 0.187120 0.012606
0.633777 0.187120 0.012606
0.726915 0.187120 0.012606
0.820818 0.187120 0.012606
0.913525 0.187120 0.012606
0.971894 0.187120 0.012606
0.995769 0.187120 0.012606
1.000000 0.187120 0.012606
0.000000 0.271533 0.012606
0.032768 0.271533 0.012606
0.085900 0.271533 0.012606
0.149191 0.271533 0.012606
0.219003 0.271533 0.012606
0.295097 0.271533 0.012606
0.374047 0.271533 0.012606
0.457234 0.271533 0.012606
0.543970 0.271533 0.012606
0.633777 0.271533 0.012606
0.726915 0.271533 0.012606
0.820818 0.271533 0.012606
0.913525 0.271533 0.012606
0.971894 0.271533 0.012606
0.995769 0.271533 0.012606
1.000000 0.271533 0.012606
0.000000 0.354056 0.012606
0.032768 0.354056 0.012606
0.085900 0.354056 0.012606
0.149191 0.354056 0.012606
0.219003 0.354056 0.012606
0.295097 0.354056 0.012606
0.374047 0.354056 0.012606
0.457234 0.354056 0.012606
0.543970 0.354056 0.012606
0.633777 0.354056 0.012606
0.726915 0.354056 0.012606
0.820818 0.354056 0.012606
0.913525 0.354056 0.012606
0.971894 0.354056 0.012606
0.995769 0.354056 0.012606
1.000000 0.354056 0.012606
0.000000 0.435157 0.012606
0.032768 0.435157 0.012606
0.085900 0.435157 0.012606
0.149191 0.435157 0.012606
0.219003 0.435157 0.012606
0.295097 0.435157 0.012606
0.374047 0.435157 0.012606
0.457234 0.435157 0.012606
0.543970 0.435157 0.012606
0.633777 0.435157 0.012606
0.726915 0.435157 0.012606
0.820818 0.435157 0.012606
0.913525 0.435157 0.012606
0.971894 0.435157 0.012606
0.995769 0.435157 0.012606
1.000000 0.435157 0.012606
0.000000 0.515226 0.012606
0.032768 0.515226 0.012606
0.085900 0.515226 0.012606
0.149191 0.515226 0.012606
0.219003 0.515226 0.012606
0.295097 0.515226 0.012606
0.374047 0.515226 0.012606
0.457234 0.515226 0.012606
0.543970 0.515226 0.012606
0.633777 0.515226 0.012606
0.726915 0.515226 0.012606
0.820818 0.515226 0.012606
0.913525 0.515226 0.012606
0.971894 0.515226 0.012606
0.995769 0.515226 0.012606
1.000000 0.515226 0.012606
0.000000 0.594304 0.012606
0.032768 0.594304 0.012606
0.085900 0.594304 0.012606
0.149191 0.594304 0.012606
0.219003 0.594304 0.012606
0.295097 0.594304 0.012606
0.374047 0.594304 0.012606
0.457234 0.594304 0.012606
0.543970 0.594304 0.012606
0.633777 0.594304 0.012606
0.726915 0.594304 0.012606
0.820818 0.594304 0.012606
0.913525 0.594304 0.012606
0.971894 0.594304 0.012606
0.995769 0.594304 0.012606
1.000000 0.594304 0.012606
0.000000 0.672699 0.012606
0.032768 0.672699 0.012606
0.085900 0.672699 0.012606
0.149191 0.672699 0.012606
0.219003 0.672699 0.012606
0.295097 0.672699 0.012606
0.374047 0.672699 0.012606
0.457234 0.672699 0.012606
0.543970 0.672699 0.012606
0.633777 0.672699 0.012606
0.726915 0.672699 0.012606
0.820818 0.672699 0.012606
0.913525 0.672699 0.012606
0.971894 0.672699 0.012606
0.995769 0.672699 0.012606
1.000000 0.672699 0.012606
0.000000 0.750469 0.012606
0.032768 0.750469 0.012606
0.085900 0.750469 0.012606
0.149191 0.750469 0.012606
0.219003 0.750469 0.012606
0.295097 0.750469 0.012606
0.374047 0.750469 0.012606
0.457234 0.750469 0.012606
0.543970 0.750469 0.012606
0.633777 0.750469 0.012606
0.726915 0.750469 0.012606
0.820818 0.750469 0.012606
0.913525 0.750469 0.012606
0.971894 0.750469 0.012606
0.995769 0.750469 0.012606
1.000000 0.750469 0.012606
0.000000 0.827556 0.012606
0.032768 0.827556 0.012606
0.085900 0.827556 0.012606
0.149191 0.827556 0.012606
0.219003 0.827556 0.012606
0.295097 0.827556 0.012606
0.374047 0.827556 0.012606
0.457234 0.827556 0.012606
0.543970 0.827556 0.012606
0.633777 0.827556 0.012606
0.726915 0.827556 0.012606
0.820818 0.827556 0.012606
0.913525 0.827556 0.012606
0.971894 0.827556 0.012606
0.995769 0.827556 0.012606
1.000000 0.827556 0.012606
0.000000 0.904236 0.012606
0.032768 0.904236 0.012606
0.085900 0.904236 0.012606
0.149191 0.904236 0.012606
0.219003 0.904236 0.012606
0.295097 0.904236 0.012606
0.374047 0.904236 0.012606
0.457234 0.904236 0.012606
0.543970 0.904236 0.012606
0.633777 0.904236 0.012606
0.726915 0.904236 0.012606
0.820818 0.904236 0.012606
0.913525 0.904236 0.012606
0.971894 0.904236 0.012606
0.995769 0.904236 0.012606
1.000000 0.904236 0.012606
0.000000 0.962222 0.012606
0.032768 0.962222 0.012606
0.085900 0.962222 0.012606
0.149191 0.962222 0.012606
0.219003 0.962222 0.012606
0.295097 0.962222 0.012606
0.374047 0.962222 0.012606
0.457234 0.962222 0.012606
0.543970 0.962222 0.012606
0.633777 0.962222 0.012606
0.726915 0.962222 0.012606
0.820818 0.962222 0.012606
0.913525 0.962222 0.012606
0.971894 0.962222 0.012606
0.995769 0.962222 0.012606
1.000000 0.962222 0.012606
0.000000 0.989881 0.012606
0.032768 0.989881 0.012606
0.085900 0.989881 0.012606
0.149191 0.989881 0.012606
0.219003 0.989881 0.012606
0.295097 0.989881 0.012606
0.374047 0.989881 0.012606
0.457234 0.989881 0.012606
0.543970 0.989881 0.012606
0.633777 0.989881 0.012606
0.726915 0.989881 0.012606
0.820818 0.989881 0.012606
0.913525 0.989881 0.012606
0.971894 0.989881 0.012606
0.995769 0.989881 0.012606
1.000000 0.989881 0.012606
0.000000 0.998939 0.012606
0.032768 0.998939 0.012606
0.085900 0.998939 0.012606
0.149191 0.998939 0.012606
0.219003 0.998939 0.012606
0.295097 0.998939 0.012606
0.374047 0.998939 0.012606
0.457234 0.998939 0.012606
0.543970 0.998939 0.012606
0.633777 0.998939 0.012606
0.726915 0.998939 0.012606
0.820818 0.998939 0.012606
0.913525 0.998939 0.012606
0.971894 0.998939 0.012606
0.995769 0.998939 0.012606
1.000000 0.998939 0.012606
0.000000 1.000000 0.012606
0.032768 1.000000 0.012606
0.085900 1.000000 0.012606
0.149191 1.000000 0.012606
0.219003 1.000000 0.012606
0.295097 1.000000 0.012606
0.374047 1.000000 0.012606
0.457234 1.000000 0.012606
0.543970 1.000000 0.012606
0.633777 1.000000 0.012606
0.726915 1.000000 0.012606
0.820818 1.000000 0.012606
0.913525 1.000000 0.012606
0.971894 1.000000 0.012606
0.995769 1.000000 0.012606
1.000000 1.000000 0.012606
0.000000 0.004483 0.125816
0.032768 0.004483 0.125816
0.085900 0.004483 0.125816
0.149191 0.004483 0.125816
0.219003 0.004483 0.125816
0.295097 0.004483 0.125816
0.374047 0.004483 0.125816
0.457234 0.004483 0.125816
0.543970 0.004483 0.125816
0.633777 0.004483 0.125816
0.726915 0.004483 0.125816
0.820818 0.004483 0.125816
0.913525 0.004483 0.125816
0.971894 0.004483 0.125816
0.995769 0.004483 0.125816
1.000000 0.004483 0.125816
0.000000 0.099730 0.125816
0.032768 0.099730 0.125816
0.085900 0.099730 0.125816
0.149191 0.099730 0.125816
0.219003 0.099730 0.125816
0.295097 0.099730 0.125816
0.374047 0.099730 0.125816
0.457234 0.099730 0.125816
0.543970 0.099730 0.125816
0.633777 0.099730 0.125816
0.726915 0.099730 0.125816
0.820818 0.099730 0.125816
0.913525 0.099730 0.125816
0.971894 0.099730 0.125816
0.995769 0.099730 0.125816
1.000000 0.099730 0.125816
0.000000 0.187120 0.125816
0.032768 0.187120 0.125816
0.085900 0.187120 0.125816
0.149191 0.187120 0.125816
0.219003 0.187120 0.125816
0.295097 0.187120 0.125816
0.374047 0.187120 0.125816
0.457234 0.187120 0.125816
0.543970 0.187120 0.125816
0.633777 0.187120 0.125816
0.726915 0.187120 0.125816
0.820818 0.187120 0.125816
0.913525 0.187120 0.125816
0.971894 0.187120 0.125816
0.995769 0.187120 0.125816
1.000000 0.187120 0.125816
0.000000 0.271533 0.125816
0.032768 0.271533 0.125816
0.085900 0.271533 0.125816
0.149191 0.271533 0.125816
0.219003 0.271533 0.125816
0.295097 0.271533 0.125816
0.374047 0.271533 0.125816
0.457234 0.271533 0.125816
0.543970 0.271533 0.125816
0.633777 0.271533 0.125816
0.726915 0.271533 0.125816
0.820818 0.271533 0.125816
0.913525 0.271533 0.125816
0.971894 0.271533 0.125816
0.995769 0.271533 0.125816
1.000000 0.271533 0.125816
0.000000 0.354056 0.125816
0.032768 0.354056 0.125816
0.085900 0.354056 0.125816
0.149191 0.354056 0.125816
0.219003 0.354056 0.125816
0.295097 0.354056 0.125816
0.374047 0.354056 0.125816
0.457234 0.354056 0.125816
0.543970 0.354056 0.125816
0.633777 0.354056 0.125816
0.726915 0.354056 0.125816
0.820818 0.354056 0.125816
0.913525 0.354056 0.125816
0.971894 0.354056 0.125816
0.995769 0.354056 0.125816
1.000000 0.354056 0.125816
0.000000 0.435157 0.125816
0.032768 0.435157 0.125816
0.085900 0.435157 0.125816
0.149191 0.435157 0.125816
0.219003 0.435157 0.125816
0.295097 0.435157 0.125816
0.374047 0.435157 0.125816
0.457234 0.435157 0.125816
0.543970 0.435157 0.125816
0.633777 0.435157 0.125816
0.726915 0.435157 0.125816
0.820818 0.435157 0.125816
0.913525 0.435157 0.125816
0.971894 0.435157 0.125816
0.995769 0.435157 0.125816
1.000000 0.435157 0.125816
0.000000 0.515226 0.125816
0.032768 0.515226 0.125816
0.085900 0.515226 0.125816
0.149191 0.515226 0.125816
0.219003 0.515226 0.125816
0.295097 0.515226 0.125816
0.374047 0.515226 0.125816
0.457234 0.515226 0.125816
0.543970 0.515226 0.125816
0.633777 0.515226 0.125816
0.726915 0.515226 0.125816
0.820818 0.515226 0.125816
0.913525 0.515226 0.125816
0.971894 0.515226 0.125816
0.995769 0.515226 0.125816
1.000000 0.515226 0.125816
0.000000 0.594304 0.125816
0.032768 0.594304 0.125816
0.085900 0.594304 0.125816
0.149191 0.594304 0.125816
0.219003 0.594304 0.125816
0.295097 0.594304 0.125816
0.374047 0.594304 0.125816
0.457234 0.594304 0.125816
0.543970 0.594304 0.125816
0.633777 0.594304 0.125816
0.726915 0.594304 0.125816
0.820818 0.594304 0.125816
0.913525 0.594304 0.125816
0.971894 0.594304 0.125816
0.995769 0.594304 0.125816
1.000000 0.594304 0.125816
0.000000 0.672699 0.125816
0.032768 0.672699 0.125816
0.085900 0.672699 0.125816
0.149191 0.672699 0.125816
0.219003 0.672699 0.125816
0.295097 0.672699 0.125816
0.374047 0.672699 0.125816
0.457234 0.672699 0.125816
0.543970 0.672699 0.125816
0.633777 0.672699 0.125816
0.726915 0.672699 0.125816
0.820818 0.672699 0.125816
0.913525 0.672699 0.125816
0.971894 0.672699 0.125816
0.995769 0.672699 0.125816
1.000000 0.672699 0.125816
0.000000 0.750469 0.125816
0.032768 0.750469 0.125816
0.085900 0.750469 0.125816
0.149191 0.750469 0.125816
0.219003 0.750469 0.125816
0.295097 0.750469 0.125816
0.374047 0.750469 0.125816
0.457234 0.750469 0.125816
0.543970 0.750469 0.125816
0.633777 0.750469 0.125816
0.726915 0.750469 0.125816
0.820818 0.750469 0.125816
0.913525 0.750469 0.125816
0.971894 0.750469 0.125816
0.995769 0.750469 0.125816
1.000000 0.750469 0.125816
0.000000 0.827556 0.125816
0.032768 0.827556 0.125816
0.085900 0.827556 0.125816
0.149191 0.827556 0.125816
0.219003 0.827556 0.125816
0.295097 0.827556 0.125816
0.374047 0.827556 0.125816
0.457234 0.827556 0.125816
0.543970 0.827556 0.125816
0.633777 0.827556 0.125816
0.726915 0.827556 0.125816
0.820818 0.827556 0.125816
0.913525 0.827556 0.125816
0.971894 0.827556 0.125816
0.995769 0.827556 0.125816
1.000000 0.827556 0.125816
0.000000 0.904236 0.125816
0.032768 0.904236 0.125816
0.085900 0.904236 0.125816
0.149191 0.904236 0.125816
0.219003 0.904236 0.125816
0.295097 0.904236 0.125816
0.374047 0.904236 0.125816
0.457234 0.904236 0.125816
0.543970 0.904236 0.125816
0.633777 0.904236 0.125816
0.726915 0.904236 0.125816
0.820818 0.904236 0.125816
0.913525 0.904236 0.125816
0.971894 0.904236 0.125816
0.995769 0.904236 0.125816
1.000000 0.904236 0.125816
0.000000 0.962222 0.125816
0.032768 0.962222 0.125816
0.085900 0.962222 0.125816
0.149191 0.962222 0.125816
0.219003 0.962222 0.125816
0.295097 0.962222 0.125816
0.374047 0.962222 0.125816
0.457234 0.962222 0.125816
0.543970 0.962222 0.125816
0.633777 0.962222 0.125816
0.726915 0.962222 0.125816
0.820818 0.962222 0.125816
0.913525 0.962222 0.125816
0.971894 0.962222 0.125816
0.995769 0.962222 0.125816
1.000000 0.962222 0.125816
0.000000 0.989881 0.125816
0.032768 0.989881 0.125816
0.085900 0.989881 0.125816
0.149191 0.989881 0.125816
0.219003 0.989881 0.125816
0.295097 0.989881 0.125816
0.374047 0.989881 0.125816
0.457234 0.989881 0.125816
0.543970 0.989881 0.125816
0.633777 0.989881 0.125816
0.726915 0.989881 0.125816
0.820818 0.989881 0.125816
0.913525 0.989881 0.125816
0.971894 0.989881 0.125816
0.995769 0.989881 0.125816
1.000000 0.989881 0.125816
0.000000 0.998939 0.125816
0.032768 0.998939 0.125816
0.085900 0.998939 0.125816
0.149191 0.998939 0.125816
0.219003 0.998939 0.125816
0.295097 0.998939 0.125816
0.374047 0.998939 0.125816
0.457234 0.998939 0.125816
0.543970 0.998939 0.125816
0.633777 0.998939 0.125816
0.726915 0.998939 0.125816
0.820818 0.998939 0.125816
0.913525 0.998939 0.125816
0.971894 0.998939 0.125816
0.995769 0.998939 0.125816
1.000000 0.998939 0.125816
0.000000 1.000000 0.125816
0.032768 1.000000 0.125816
0.085900 1.000000 0.125816
0.149191 1.000000 0.125816
0.219003 1.000000 0.125816
0.295097 1.000000 0.125816
0.374047 1.000000 0.125816
0.457234 1.000000 0.125816
0.543970 1.000000 0.125816
0.633777 1.000000 0.125816
0.726915 1.000000 0.125816
0.820818 1.000000 0.125816
0.913525 1.000000 0.125816
0.971894 1.000000 0.125816
0.995769 1.000000 0.125816
1.000000 1.000000 0.125816
0.000000 0.004483 0.222064
0.032768 0.004483 0.222064
0.085900 0.004483 0.222064
0.149191 0.004483 0.222064
0.219003 0.004483 0.222064
0.295097 0.004483 0.222064
0.374047 0.004483 0.222064
0.457234 0.004483 0.222064
0.543970 0.004483 0.222064
0.633777 0.004483 0.222064
0.726915 0.004483 0.222064
0.820818 0.004483 0.222064
0.913525 0.004483 0.222064
0.971894 0.004483 0.222064
0.995769 0.004483 0.222064
1.000000 0.004483 0.222064
0.000000 0.099730 0.222064
0.032768 0.099730 0.222064
0.085900 0.099730 0.222064
0.149191 0.099730 0.222064
0.219003 0.099730 0.222064
0.295097 0.099730 0.222064
0.374047 0.099730 0.222064
0.457234 0.099730 0.222064
0.543970 0.099730 0.222064
0.633777 0.099730 0.222064
0.726915 0.099730 0.222064
0.820818 0.099730 0.222064
0.913525 0.099730 0.222064
0.971894 0.099730 0.222064
0.995769 0.099730 0.222064
1.000000 0.099730 0.222064
0.000000 0.187120 0.222064
0.032768 0.187120 0.222064
0.085900 0.187120 0.222064
0.149191 0.187120 0.222064
0.219003 0.187120 0.222064
0.295097 0.187120 0.222064
0.374047 0.187120 0.222064
0.457234 0.187120 0.222064
0.543970 0.187120 0.222064
0.633777 0.187120 0.222064
0.726915 0.187120 0.222064
0.820818 0.187120 0.222064
0.913525 0.187120 0.222064
0.971894 0.187120 0.222064
0.995769 0.187120 0.222064
1.000000 0.187120 0.222064
0.000000 0.271533 0.222064
0.032768 0.271533 0.222064
0.085900 0.271533 0.222064
0.149191 0.271533 0.222064
0.219003 0.271533 0.222064
0.295097 0.271533 0.222064
0.374047 0.271533 0.222064
0.457234 0.271533 0.222064
0.543970 0.271533 0.222064
0.633777 0.271533 0.222064
0.726915 0.271533 0.222064
0.820818 0.271533 0.222064
0.913525 0.271533 0.222064
0.971894 0.271533 0.222064
0.995769 0.271533 0.222064
1.000000 0.271533 0.222064
0.000000 0.354056 0.222064
0.032768 0.354056 0.222064
0.085900 0.354056 0.222064
0.149191 0.354056 0.222064
0.219003 0.354056 0.222064
0.295097 0.354056 0.222064
0.374047 0.354056 0.222064
0.457234 0.354056 0.222064
0.543970 0.354056 0.222064
0.633777 0.354056 0.222064
0.726915 0.354056 0.222064
0.820818 0.354056 0.222064
0.913525 0.354056 0.222064
0.971894 0.354056 0.222064
0.995769 0.354056 0.222064
1.000000 0.354056 0.222064
0.000000 0.435157 0.222064
0.032768 0.435157 0.222064
0.085900 0.435157 0.222064
0.149191 0.435157 0.222064
0.219003 0.435157 0.222064
0.295097 0.435157 0.222064
0.374047 0.435157 0.222064
0.457234 0.435157 0.222064
0.543970 0.435157 0.222064
0.633777 0.435157 0.222064
0.726915 0.435157 0.222064
0.820818 0.435157 0.222064
0.913525 0.435157 0.222064
0.971894 0.435157 0.222064
0.995769 0.435157 0.222064
1.000000 0.435157 0.222064
0.000000 0.515226 0.222064
0.032768 0.515226 0.222064
0.085900 0.515226 0.222064
0.149191 0.515226 0.222064
0.219003 0.515226 0.222064
0.295097 0.515226 0.222064
0.374047 0.515226 0.222064
0.457234 0.515226 0.222064
0.543970 0.515226 0.222064
0.633777 0.515226 0.222064
0.726915 0.515226 0.222064
0.820818 0.515226 0.222064
0.913525 0.515226 0.222064
0.971894 0.515226 0.222064
0.995769 0.515226 0.222064
1.000000 0.515226 0.222064
0.000000 0.594304 0.222064
0.032768 0.594304 0.222064
0.085900 0.594304 0.222064
0.149191 0.594304 0.222064
0.219003 0.594304 0.222064
0.295097 0.594304 0.222064
0.374047 0.594304 0.222064
0.457234 0.594304 0.222064
0.543970 0.594304 0.222064
0.633777 0.594304 0.222064
0.726915 0.594304 0.222064
0.820818 0.594304 0.222064
0.913525 0.594304 0.222064
0.971894 0.594304 0.222064
0.995769 0.594304 0.222064
1.000000 0.594304 0.222064
0.000000 0.672699 0.222064
0.032768 0.672699 0.222064
0.085900 0.672699 0.222064
0.149191 0.672699 0.222064
0.219003 0.672699 0.222064
0.295097 0.672699 0.222064
0.374047 0.672699 0.222064
0.457234 0.672699 0.222064
0.543970 0.672699 0.222064
0.633777 0.672699 0.222064
0.726915 0.672699 0.222064
0.820818 0.672699 0.222064
0.913525 0.672699 0.222064
0.971894 0.672699 0.222064
0.995769 0.672699 0.222064
1.000000 0.672699 0.222064
0.000000 0.750469 0.222064
0.032768 0.750469 0.222064
0.085900 0.750469 0.222064
0.149191 0.750469 0.222064
0.219003 0.750469 0.222064
0.295097 0.750469 0.222064
0.374047 0.750469 0.222064
0.457234 0.750469 0.222064
0.543970 0.750469 0.222064
0.633777 0.750469 0.222064
0.726915 0.750469 0.222064
0.820818 0.750469 0.222064
0.913525 0.750469 0.222064
0.971894 0.750469 0.222064
0.995769 0.750469 0.222064
1.000000 0.750469 0.222064
0.000000 0.827556 0.222064
0.032768 0.827556 0.222064
0.085900 0.827556 0.222064
0.149191 0.827556 0.222064
0.219003 0.827556 0.222064
0.295097 0.827556 0.222064
0.374047 0.827556 0.222064
0.457234 0.827556 0.222064
0.543970 0.827556 0.222064
0.633777 0.827556 0.222064
0.726915 0.827556 0.222064
0.820818 0.827556 0.222064
0.913525 0.827556 0.222064
0.971894 0.827556 0.222064
0.995769 0.827556 0.222064
1.000000 0.827556 0.222064
0.000000 0.904236 0.222064
0.032768 0.904236 0.222064
0.085900 0.904236 0.222064
0.149191 0.904236 0.222064
0.219003 0.904236 0.222064
0.295097 0.904236 0.222064
0.374047 0.904236 0.222064
0.457234 0.904236 0.222064
0.543970 0.904236 0.222064
0.633777 0.904236 0.222064
0.726915 0.904236 0.222064
0.820818 0.904236 0.222064
0.913525 0.904236 0.222064
0.971894 0.904236 0.222064
0.995769 0.904236 0.222064
1.000000 0.904236 0.222064
0.000000 0.962222 0.222064
0.032768 0.962222 0.222064
0.085900 0.962222 0.222064
0.149191 0.962222 0.222064
0.219003 0.962222 0.222064
0.295097 0.962222 0.222064
0.374047 0.962222 0.222064
0.457234 0.962222 0.222064
0.543970 0.962222 0.222064
0.633777 0.962222 0.222064
0.726915 0.962222 0.222064
0.820818 0.962222 0.222064
0.913525 0.962222 0.222064
0.971894 0.962222 0.222064
0.995769 0.962222 0.222064
1.000000 0.962222 0.222064
0.000000 0.989881 0.222064
0.032768 0.989881 0.222064
0.085900 0.989881 0.222064
0.149191 0.989881 0.222064
0.219003 0.989881 0.222064
0.295097 0.989881 0.222064
0.374047 0.989881 0.222064
0.457234 0.989881 0.222064
0.543970 0.989881 0.222064
0.633777 0.989881 0.222064
0.726915 0.989881 0.222064
0.820818 0.989881 0.222064
0.913525 0.989881 0.222064
0.971894 0.989881 0.222064
0.995769 0.989881 0.222064
1.000000 0.989881 0.222064
0.000000 0.998939 0.222064
0.032768 0.998939 0.222064
0.085900 0.998939 0.222064
0.149191 0.998939 0.222064
0.219003 0.998939 0.222064
0.295097 0.998939 0.222064
0.374047 0.998939 0.222064
0.457234 0.998939 0.222064
0.543970 0.998939 0.222064
0.633777 0.998939 0.222064
0.726915 0.998939 0.222064
0.820818 0.998939 0.222064
0.913525 0.998939 0.222064
0.971894 0.998939 0.222064
0.995769 0.998939 0.222064
1.000000 0.998939 0.222064
0.000000 1.000000 0.222064
0.032768 1.000000 0.222064
0.085900 1.000000 0.222064
0.149191 1.000000 0.222064
0.219003 1.000000 0.222064
0.295097 1.000000 0.222064
0.374047 1.000000 0.222064
0.457234 1.000000 0.222064
0.543970 1.000000 0.222064
0.633777 1.000000 0.222064
0.726915 1.000000 0.222064
0.820818 1.000000 0.222064
0.913525 1.000000 0.222064
0.971894 1.000000 0.222064
0.995769 1.000000 0.222064
1.000000 1.000000 0.222064
0.000000 0.004483 0.311958
0.032768 0.004483 0.311958
0.085900 0.004483 0.311958
0.149191 0.004483 0.311958
0.219003 0.004483 0.311958
0.295097 0.004483 0.311958
0.374047 0.004483 0.311958
0.457234 0.004483 0.311958
0.543970 0.004483 0.311958
0.633777 0.004483 0.311958
0.726915 0.004483 0.311958
0.820818 0.004483 0.311958
0.913525 0.004483 0.311958
0.971894 0.004483 0.311958
0.995769 0.004483 0.311958
1.000000 0.004483 0.311958
0.000000 0.099730 0.311958
0.032768 0.099730 0.311958
0.085900 0.099730 0.311958
0.149191 0.099730 0.311958
0.219003 0.099730 0.311958
0.295097 0.099730 0.311958
0.374047 0.099730 0.311958
0.457234 0.099730 0.311958
0.543970 0.099730 0.311958
0.633777 0.099730 0.311958
0.726915 0.099730 0.311958
0.820818 0.099730 0.311958
0.913525 0.099730 0.311958
0.971894 0.099730 0.311958
0.995769 0.099730 0.311958
1.000000 0.099730 0.311958
0.000000 0.187120 0.311958
0.032768 0.187120 0.311958
0.085900 0.187120 0.311958
0.149191 0.187120 0.311958
0.219003 0.187120 0.311958
0.295097 0.187120 0.311958
0.374047 0.187120 0.311958
0.457234 0.187120 0.311958
0.543970 0.187120 0.311958
0.633777 0.187120 0.311958
0.726915 0.187120 0.311958
0.820818 0.187120 0.311958
0.913525 0.187120 0.311958
0.971894 0.187120 0.311958
0.995769 0.187120 0.311958
1.000000 0.187120 0.311958
0.000000 0.271533 0.311958
0.032768 0.271533 0.311958
0.085900 0.271533 0.311958
0.149191 0.271533 0.311958
0.219003 0.271533 0.311958
0.295097 0.271533 0.311958
0.374047 0.271533 0.311958
0.457234 0.271533 0.311958
0.543970 0.271533 0.311958
0.633777 0.271533 0.311958
0.726915 0.271533 0.311958
0.820818 0.271533 0.311958
0.913525 0.271533 0.311958
0.971894 0.271533 0.311958
0.995769 0.271533 0.311958
1.000000 0.271533 0.311958
0.000000 0.354056 0.311958
0.032768 0.354056 0.311958
0.085900 0.354056 0.311958
0.149191 0.354056 0.311958
0.219003 0.354056 0.311958
0.295097 0.354056 0.311958
0.374047 0.354056 0.311958
0.457234 0.354056 0.311958
0.543970 0.354056 0.311958
0.633777 0.354056 0.311958
0.726915 0.354056 0.311958
0.820818 0.354056 0.311958
0.913525 0.354056 0.311958
0.971894 0.354056 0.311958
0.995769 0.354056 0.311958
1.000000 0.354056 0.311958
0.000000 0.435157 0.311958
0.032768 0.435157 0.311958
0.085900 0.435157 0.311958
0.149191 0.435157 0.311958
0.219003 0.435157 0.311958
0.295097 0.435157 0.311958
0.374047 0.435157 0.311958
0.457234 0.435157 0.311958
0.543970 0.435157 0.311958
0.633777 0.435157 0.311958
0.726915 0.435157 0.311958
0.820818 0.435157 0.311958
0.913525 0.435157 0.311958
0.971894 0.435157 0.311958
0.995769 0.435157 0.311958
1.000000 0.435157 0.311958
0.000000 0.515226 0.311958
0.032768 0.515226 0.311958
0.085900 0.515226 0.311958
0.149191 0.515226 0.311958
0.219003 0.515226 0.311958
0.295097 0.515226 0.311958
0.374047 0.515226 0.311958
0.457234 0.515226 0.311958
0.543970 0.515226 0.311958
0.633777 0.515226 0.311958
0.726915 0.515226 0.311958
0.820818 0.515226 0.311958
0.913525 0.515226 0.311958
0.971894 0.515226 0.311958
0.995769 0.515226 0.311958
1.000000 0.515226 0.311958
0.000000 0.594304 0.311958
0.032768 0.594304 0.311958
0.085900 0.594304 0.311958
0.149191 0.594304 0.311958
0.219003 0.594304 0.311958
0.295097 0.594304 0.311958
0.374047 0.594304 0.311958
0.457234 0.594304 0.311958
