example_ofxGpuLutCube/bin/data/ofxGpuLutCube/LUT/U2 (golden warm).cube
LUT_3D_SIZE 16
0.137506 0.136719 0.135767
0.148435 0.137809 0.138158
0.163407 0.141229 0.141455
0.194051 0.141802 0.142362
0.226189 0.146099 0.145312
0.283127 0.144516 0.142701
0.356054 0.139451 0.136985
0.448373 0.123172 0.123072
0.543729 0.102886 0.105417
0.624859 0.089728 0.089462
0.694657 0.073028 0.077805
0.729603 0.072453 0.072668
0.762320 0.072243 0.067488
0.800116 0.065089 0.064417
0.827733 0.063310 0.058626
0.859057 0.064010 0.054808
0.142010 0.148900 0.140396
0.154040 0.147473 0.140705
0.166973 0.152288 0.142220
0.203777 0.153613 0.145028
0.238712 0.155625 0.144629
0.299655 0.154662 0.141783
0.376009 0.149300 0.133395
0.470857 0.134999 0.117318
0.562327 0.122162 0.099601
0.643654 0.115541 0.083844
0.716637 0.110384 0.069749
0.756598 0.111291 0.067253
0.783907 0.110881 0.062939
0.819777 0.107951 0.060010
0.846963 0.113791 0.056470
0.875238 0.117916 0.053513
0.147085 0.167254 0.145260
0.153182 0.166638 0.144732
0.169629 0.164701 0.143389
0.200028 0.168161 0.143335
0.244989 0.172556 0.144146
0.310693 0.169062 0.139726
0.396675 0.162778 0.127674
0.491680 0.152721 0.110147
0.578093 0.144528 0.093030
0.656065 0.144706 0.078175
0.729257 0.143835 0.067702
0.769657 0.145452 0.063019
0.798154 0.152815 0.057240
0.826643 0.154843 0.058174
0.857275 0.159588 0.054095
0.890403 0.159657 0.052632
0.146722 0.195695 0.145553
0.154480 0.192964 0.145632
0.171628 0.189689 0.144699
0.194493 0.187400 0.143664
0.242524 0.192911 0.139939
0.312771 0.193560 0.134319
0.405163 0.190738 0.121306
0.501146 0.180350 0.104667
0.594779 0.179519 0.086854
0.663819 0.179234 0.072901
0.739326 0.183768 0.063185
0.781985 0.192917 0.057540
0.811688 0.197727 0.056273
0.839823 0.202598 0.051885
0.868953 0.210768 0.051885
0.897474 0.211563 0.049388
0.135538 0.240583 0.136448
0.149540 0.231959 0.139283
0.168987 0.225382 0.140592
0.193388 0.221145 0.138892
0.230557 0.224155 0.135134
0.297569 0.230085 0.128148
0.398226 0.228586 0.112602
0.503131 0.224393 0.096411
0.600627 0.224344 0.079400
0.675895 0.222667 0.067348
0.737452 0.233307 0.062065
0.793464 0.246004 0.056610
0.821638 0.257273 0.051129
0.850148 0.260262 0.047111
0.880220 0.265295 0.048942
0.904599 0.271145 0.048823
0.116364 0.301107 0.117252
0.134438 0.292037 0.119793
0.160014 0.278038 0.124352
0.191413 0.272710 0.125956
0.226460 0.265841 0.123992
0.280145 0.267899 0.118993
0.377873 0.276726 0.104599
0.496319 0.282761 0.085745
0.596000 0.284996 0.069497
0.678548 0.292346 0.058502
0.745242 0.296228 0.053357
0.804429 0.311783 0.045569
0.828164 0.315884 0.047917
0.862813 0.327351 0.045039
0.886833 0.332524 0.044297
0.913417 0.335501 0.045682
0.088211 0.378355 0.087275
0.116096 0.367015 0.089881
0.140890 0.360198 0.093526
0.186279 0.338483 0.098239
0.230776 0.329067 0.102300
0.273530 0.328891 0.099919
0.355880 0.322784 0.092882
0.468887 0.337501 0.074220
0.581069 0.350544 0.060396
0.673636 0.364438 0.049315
0.740642 0.370283 0.041838
0.800871 0.381333 0.040243
0.837810 0.396684 0.043764
0.868969 0.401196 0.048522
0.892120 0.403023 0.045011
0.922037 0.409728 0.045414
0.070324 0.463597 0.060723
0.101602 0.453587 0.062186
0.131355 0.446454 0.063763
0.180542 0.422582 0.070557
0.231703 0.408305 0.074418
0.281323 0.403533 0.074558
0.352739 0.393367 0.072831
0.446096 0.399936 0.062530
0.559805 0.416757 0.051624
0.659474 0.437104 0.042283
0.738718 0.454185 0.038692
0.797319 0.462780 0.032174
0.840657 0.477567 0.043053
0.871499 0.482643 0.045807
0.897028 0.487296 0.046279
0.926935 0.490048 0.046268
0.049823 0.556139 0.046475
0.098055 0.545624 0.047625
0.129657 0.538023 0.051857
0.176526 0.518049 0.052455
0.239989 0.501760 0.057910
0.303907 0.491162 0.057331
0.368984 0.480410 0.054883
0.445669 0.472378 0.051553
0.541226 0.481114 0.045215
0.643816 0.501905 0.038049
0.731942 0.523878 0.040252
0.793640 0.539017 0.036692
0.847490 0.557365 0.048588
0.883844 0.559185 0.046718
0.906457 0.563064 0.047104
0.930716 0.568493 0.049068
0.055076 0.639147 0.045618
0.108445 0.628935 0.043543
0.138856 0.623449 0.051627
0.181678 0.611068 0.046004
0.252428 0.591409 0.046241
0.315480 0.577622 0.040218
0.392101 0.567671 0.047447
0.467194 0.559380 0.044692
0.540500 0.554695 0.042845
0.629124 0.565679 0.039949
0.717939 0.588896 0.047182
0.786555 0.607546 0.045262
0.840329 0.622865 0.051952
0.879472 0.627865 0.056318
0.906207 0.634825 0.047553
0.932393 0.637523 0.050234
0.059160 0.712103 0.051559
0.111257 0.705647 0.051631
0.150844 0.697511 0.046403
0.191939 0.693991 0.052766
0.261772 0.675505 0.046502
0.331417 0.664160 0.054499
0.414715 0.653768 0.053263
0.486626 0.641994 0.049338
0.559065 0.635955 0.050091
0.625287 0.628428 0.047190
0.702151 0.640937 0.043389
0.775845 0.661650 0.052715
0.832435 0.680444 0.053970
0.883776 0.691606 0.059774
0.909190 0.696319 0.052669
0.935004 0.698985 0.053504
0.069618 0.774793 0.054096
0.121832 0.768798 0.056360
0.169547 0.765439 0.051323
0.206032 0.761183 0.055950
0.276005 0.751051 0.059289
0.352768 0.737126 0.064711
0.435411 0.724836 0.059575
0.508514 0.718551 0.056760
0.578413 0.709314 0.054521
0.644071 0.702108 0.053034
0.705883 0.701414 0.055574
0.772115 0.710147 0.053277
0.825364 0.730277 0.058640
0.883611 0.742311 0.044692
0.909916 0.746925 0.056208
0.930541 0.753272 0.055088
0.065947 0.831965 0.060728
0.131489 0.821358 0.061517
0.178882 0.821614 0.052993
0.222467 0.816746 0.061090
0.288825 0.811037 0.053494
0.372089 0.803215 0.070641
0.458804 0.791559 0.065346
0.529543 0.782192 0.062725
0.595643 0.771481 0.060586
0.659744 0.767709 0.059800
0.716835 0.759722 0.053350
0.762733 0.761028 0.054468
0.819062 0.772074 0.053373
0.878171 0.785469 0.057040
0.905772 0.792775 0.059535
0.932725 0.795436 0.058856
0.089282 0.873605 0.071994
0.160617 0.864432 0.071736
0.211442 0.864307 0.069572
0.253870 0.864295 0.074632
0.303634 0.861677 0.061550
0.389354 0.849891 0.061186
0.474376 0.842595 0.067957
0.546205 0.833251 0.068499
0.613191 0.829707 0.066500
0.673285 0.824809 0.065069
0.729092 0.820453 0.062333
0.774810 0.813469 0.058820
0.813254 0.815604 0.057664
0.868841 0.823217 0.061664
0.905909 0.833307 0.062172
0.934197 0.831990 0.061008
0.137158 0.903173 0.098087
0.208424 0.907637 0.102643
0.267761 0.900486 0.100578
0.312148 0.899207 0.100124
0.367056 0.899502 0.102649
0.440025 0.895463 0.099439
0.524317 0.890311 0.101442
0.586479 0.881346 0.095556
0.644288 0.878568 0.082319
0.693224 0.873301 0.068642
0.741423 0.868488 0.062396
0.779372 0.865505 0.048687
0.816690 0.860281 0.053124
0.858442 0.861122 0.058044
0.907315 0.864570 0.063114
0.923337 0.875617 0.063873
0.226364 0.997935 0.143678
0.294871 0.994681 0.143989
0.357964 0.994351 0.148246
0.403879 0.993377 0.152683
0.453589 0.994280 0.151809
0.522121 0.991668 0.155252
0.591735 0.983411 0.161271
0.652085 0.981647 0.164355
0.701909 0.974098 0.163740
0.747240 0.976051 0.158296
0.786807 0.975261 0.148703
0.824855 0.967656 0.140306
0.857676 0.967800 0.127425
0.884786 0.963628 0.108031
0.922853 0.959195 0.087448
0.934713 0.962329 0.075458
0.114408 -0.399342 0.148319
0.110935 -0.398617 0.145241
0.102533 -0.397097 0.149526
0.122146 -0.396594 0.150832
0.143787 -0.395133 0.153879
0.194670 -0.393766 0.152213
0.269514 -0.392597 0.149624
0.358742 -0.393407 0.136425
0.466197 -0.395721 0.121789
0.563444 -0.398015 0.103423
0.649774 -0.399253 0.095265
0.689845 -0.398270 0.091016
0.721287 -0.397622 0.087396
0.761122 -0.397178 0.085866
0.794882 -0.396648 0.086022
0.823894 -0.397221 0.085000
0.141380 0.149049 0.148442
0.153171 0.149453 0.149438
0.168162 0.152773 0.152222
0.203300 0.152278 0.153924
0.252226 0.155659 0.153550
0.322501 0.154638 0.152825
0.417097 0.141644 0.140161
0.514351 0.123602 0.119953
0.601366 0.108680 0.104967
0.675397 0.100099 0.089788
0.745939 0.087203 0.082186
0.780978 0.091793 0.076802
0.810516 0.088583 0.074801
0.843244 0.085448 0.071387
0.870106 0.091812 0.069311
0.901480 0.092251 0.070033
0.142593 0.166159 0.153746
0.154613 0.167543 0.153524
0.169403 0.166572 0.154138
0.203012 0.170888 0.154150
0.248601 0.170621 0.152647
0.318555 0.169795 0.148300
0.417195 0.160120 0.137026
0.516790 0.146846 0.117401
0.606041 0.138362 0.102212
0.679615 0.134949 0.088725
0.749304 0.138863 0.080950
0.790654 0.140959 0.075485
0.818351 0.147280 0.074669
0.848175 0.149215 0.073455
0.872106 0.153407 0.068259
0.907419 0.155716 0.070138
0.144195 0.196341 0.155286
0.157534 0.196276 0.154885
0.172162 0.191669 0.155234
0.198612 0.192288 0.153217
0.248730 0.194452 0.150945
0.319806 0.196883 0.142264
0.420696 0.187346 0.128916
0.522245 0.180222 0.110132
0.611599 0.176089 0.096102
0.687570 0.176981 0.083385
0.753125 0.181757 0.076721
0.801640 0.193643 0.071996
0.826701 0.197261 0.069131
0.858832 0.203518 0.070173
0.882933 0.208596 0.068233
0.917606 0.209340 0.068201
0.137854 0.237243 0.150734
0.149596 0.237728 0.149357
0.168420 0.233227 0.152223
0.198980 0.223257 0.150600
0.233928 0.227950 0.146029
0.305998 0.230988 0.136580
0.414530 0.230353 0.120864
0.526363 0.220951 0.104154
0.616821 0.219151 0.087074
0.691328 0.226284 0.078682
0.759163 0.232420 0.075642
0.808127 0.247649 0.069032
0.835075 0.255342 0.067050
0.863288 0.260091 0.061530
0.888469 0.269717 0.064284
0.921852 0.272068 0.065820
0.117909 0.297298 0.133654
0.127991 0.301222 0.127320
0.152270 0.293040 0.134940
0.197266 0.274081 0.139505
0.233315 0.273391 0.134530
0.287926 0.272382 0.128097
0.390604 0.278864 0.114979
0.504693 0.281010 0.094137
0.613497 0.284236 0.081037
0.689708 0.288289 0.070778
0.760070 0.295315 0.068620
0.808607 0.312222 0.064160
0.841258 0.323621 0.062764
0.869963 0.326970 0.060918
0.895860 0.335579 0.061075
0.925589 0.341615 0.062429
0.087858 0.376341 0.111445
0.098312 0.378275 0.101087
0.128724 0.373595 0.104951
0.184720 0.349376 0.112798
0.231316 0.343053 0.112679
0.285228 0.336677 0.110537
0.363842 0.332714 0.103609
0.483902 0.345798 0.083982
0.595627 0.355433 0.069739
0.682246 0.363916 0.058024
0.757354 0.371422 0.058873
0.810815 0.385128 0.057878
0.846606 0.394878 0.055945
0.879246 0.400545 0.057826
0.904624 0.409548 0.062939
0.932131 0.414014 0.063792
0.060691 0.469061 0.098370
0.066402 0.467195 0.073558
0.108417 0.462374 0.078163
0.172949 0.440136 0.084393
0.231632 0.423285 0.088049
0.289239 0.412093 0.086330
0.360123 0.402292 0.083800
0.459140 0.411648 0.074970
0.572034 0.423928 0.062933
0.667652 0.441230 0.054515
0.749859 0.451449 0.047772
0.805454 0.468722 0.058416
0.850314 0.477683 0.063337
0.881782 0.481520 0.062349
0.910059 0.489526 0.063958
0.933643 0.490175 0.061425
0.045733 0.552941 0.091533
0.047869 0.561031 0.068438
0.115537 0.551040 0.067237
0.167880 0.534693 0.069633
0.237998 0.518124 0.072752
0.303055 0.502749 0.073576
0.376853 0.490199 0.072220
0.457845 0.482364 0.066124
0.554762 0.489063 0.060545
0.653403 0.509622 0.053130
0.738650 0.527655 0.058782
0.803529 0.541733 0.058515
0.850708 0.556366 0.054831
0.888976 0.561136 0.064387
0.908839 0.565853 0.062147
0.937690 0.567920 0.062384
0.044262 0.640414 0.099092
0.044021 0.644129 0.065841
0.120327 0.634991 0.063557
0.166996 0.627747 0.064788
0.242314 0.606428 0.068419
0.318387 0.594251 0.070176
0.397207 0.576919 0.066858
0.473722 0.572645 0.064649
0.548767 0.562836 0.062098
0.639180 0.571982 0.059226
0.724548 0.594635 0.060713
0.796299 0.612039 0.060752
0.845516 0.626233 0.065959
0.891344 0.631653 0.061699
0.909705 0.635418 0.062256
0.940035 0.640920 0.064348
0.050978 0.713230 0.107082
0.054637 0.718835 0.067986
0.123978 0.711444 0.070220
0.178038 0.704542 0.068027
0.253463 0.689397 0.073496
0.338819 0.678029 0.075164
0.417955 0.662740 0.074736
0.497497 0.654657 0.071341
0.569618 0.643934 0.070026
0.637333 0.637998 0.064586
0.712251 0.650418 0.063295
0.784708 0.667638 0.067206
0.836083 0.683214 0.058893
0.885548 0.693298 0.071849
0.909496 0.699595 0.067077
0.942366 0.702776 0.069032
0.054734 0.777396 0.118334
0.059443 0.776781 0.072542
0.142754 0.774371 0.081360
0.186402 0.771168 0.076106
0.270260 0.758921 0.080265
0.351472 0.750662 0.082894
0.445275 0.732091 0.083042
0.516762 0.726390 0.081219
0.588973 0.718639 0.077790
0.652367 0.713421 0.076941
0.709415 0.707157 0.069245
0.773310 0.716268 0.073749
0.830153 0.738807 0.078436
0.883657 0.746566 0.075124
0.909437 0.753104 0.070703
0.937567 0.749328 0.068945
0.055722 0.828152 0.130447
0.070139 0.830023 0.074158
0.153187 0.829375 0.081601
0.207264 0.825363 0.092487
0.276578 0.817700 0.085381
0.367446 0.807799 0.087859
0.461765 0.798373 0.094670
0.536646 0.788488 0.092406
0.607272 0.781391 0.088408
0.662236 0.777626 0.085724
0.718992 0.770050 0.077878
0.769174 0.764481 0.072478
0.827020 0.777740 0.076204
0.875320 0.789429 0.066754
0.915830 0.796801 0.078579
0.935466 0.800907 0.076094
0.067818 0.873681 0.149118
0.091357 0.874379 0.091026
0.175256 0.873041 0.094888
0.225393 0.869274 0.096588
0.289255 0.868968 0.094652
0.382079 0.863006 0.102573
0.476721 0.850661 0.099084
0.556894 0.842132 0.098508
0.621550 0.836484 0.097894
0.677707 0.830664 0.092384
0.731022 0.825110 0.091990
0.775533 0.820597 0.085292
0.818593 0.819831 0.079184
0.869961 0.830105 0.078902
0.916185 0.837223 0.084620
0.935238 0.839687 0.081211
0.093208 0.906254 0.177660
0.151778 0.909256 0.129979
0.228306 0.906829 0.134961
0.295131 0.905753 0.137616
0.348907 0.906007 0.135313
0.431180 0.903438 0.135004
0.520003 0.890892 0.131855
0.588892 0.888070 0.132361
0.644289 0.881951 0.117798
0.700125 0.876935 0.102642
0.744252 0.871954 0.094642
0.787382 0.871477 0.094041
0.823870 0.865874 0.084770
0.865883 0.864465 0.088731
0.913321 0.875672 0.085760
0.930958 0.877131 0.087304
0.165892 0.999075 0.202221
0.245873 1.001288 0.191683
0.319358 1.003211 0.195810
0.381217 0.997575 0.195832
0.436601 0.999799 0.201036
0.508571 0.996757 0.202540
0.586623 0.989518 0.209981
0.651433 0.986531 0.209944
0.702670 0.982807 0.213504
0.749586 0.980489 0.206220
0.784744 0.975806 0.189892
0.828718 0.971954 0.181165
0.853926 0.971659 0.161108
0.890780 0.965267 0.134260
0.921516 0.962163 0.107894
0.949347 0.965438 0.101723
0.130753 -0.400181 0.156084
0.131188 -0.400529 0.154789
0.123791 -0.400002 0.157547
0.139590 -0.398956 0.159338
0.162171 -0.397712 0.160807
0.201187 -0.396196 0.161021
0.273197 -0.395423 0.157023
0.361301 -0.396144 0.147926
0.467082 -0.398257 0.135473
0.555742 -0.399625 0.122188
0.641038 -0.400184 0.116523
0.682853 -0.399466 0.112514
0.713128 -0.398762 0.114386
0.748521 -0.397922 0.119772
0.784048 -0.397553 0.118231
0.815835 -0.398187 0.115668
0.142819 0.151573 0.165588
0.153126 0.150920 0.164493
0.165254 0.152034 0.166323
0.198421 0.152445 0.166626
0.242780 0.154441 0.167728
0.303403 0.153415 0.167053
0.396435 0.142546 0.159532
0.485182 0.124449 0.144564
0.573647 0.107020 0.131075
0.649343 0.091625 0.116375
0.722927 0.078952 0.113556
0.759196 0.073901 0.107141
0.793068 0.065528 0.111600
0.826630 0.063994 0.103751
0.854191 0.058889 0.101933
0.884861 0.055143 0.108192
0.143697 0.163903 0.164694
0.157356 0.166039 0.167987
0.171937 0.169349 0.171658
0.206453 0.169636 0.171273
0.254855 0.173160 0.170991
0.319827 0.173818 0.169450
0.419356 0.161692 0.157398
0.525532 0.146328 0.138938
0.623065 0.127342 0.123758
0.699713 0.119753 0.110759
0.774475 0.108959 0.103423
0.814898 0.118690 0.096700
0.842585 0.125725 0.094438
0.874644 0.124386 0.094685
0.898065 0.130287 0.093691
0.930419 0.128867 0.092967
0.144256 0.191515 0.170668
0.156302 0.192066 0.171820
0.171072 0.194688 0.172412
0.204776 0.190568 0.171723
0.249214 0.195748 0.166314
0.321743 0.197684 0.164368
0.423499 0.190646 0.151676
0.529121 0.182078 0.133949
0.624087 0.173082 0.120648
0.699005 0.174329 0.109644
0.773691 0.174566 0.102879
0.817236 0.188734 0.099428
0.848032 0.191226 0.098464
0.876662 0.192983 0.097184
0.901316 0.201036 0.095526
0.933451 0.205965 0.095678
0.138742 0.233938 0.169189
0.150860 0.235087 0.168765
0.166594 0.237827 0.171784
0.202617 0.229869 0.171550
0.243526 0.228356 0.163856
0.313305 0.232965 0.159774
0.425489 0.229331 0.144958
0.525511 0.222150 0.127052
0.627685 0.220479 0.111432
0.700980 0.228600 0.102733
0.766570 0.234343 0.094380
0.821215 0.246041 0.094966
0.851591 0.259157 0.093916
0.879234 0.258097 0.089022
0.907922 0.265699 0.092408
0.938050 0.272037 0.092561
0.118953 0.293814 0.157992
0.129224 0.293386 0.154270
0.146639 0.299041 0.154020
0.196668 0.286413 0.157008
0.238761 0.277275 0.159501
0.293955 0.279936 0.151874
0.403043 0.282642 0.133373
0.518568 0.283886 0.116382
0.621172 0.285733 0.101687
0.698711 0.289558 0.093180
0.767486 0.296234 0.086389
0.821820 0.311513 0.087446
0.853938 0.326056 0.086739
0.882832 0.333018 0.088124
0.906485 0.339978 0.088851
0.940506 0.343813 0.090320
0.090460 0.367132 0.146542
0.098330 0.373979 0.138029
0.115406 0.376340 0.126367
0.169606 0.366389 0.133064
0.232808 0.350780 0.140743
0.291259 0.340234 0.134570
0.376879 0.343601 0.126451
0.495803 0.350638 0.104133
0.607696 0.358321 0.093312
0.692820 0.366856 0.083008
0.766040 0.371251 0.079952
0.821589 0.385601 0.080994
0.860270 0.398648 0.087190
0.891457 0.400925 0.085049
0.914239 0.409957 0.086637
0.944771 0.416981 0.086614
0.061890 0.456015 0.137386
0.070415 0.463251 0.130910
0.082987 0.465036 0.107677
0.151120 0.460052 0.106801
0.230292 0.438785 0.115228
0.294686 0.422264 0.113683
0.373967 0.414969 0.113504
0.467456 0.418239 0.096537
0.584327 0.433327 0.086557
0.679977 0.448004 0.076794
0.759342 0.456081 0.076296
0.814265 0.467864 0.081630
0.858103 0.478547 0.081002
0.895625 0.483095 0.084981
0.918509 0.488709 0.086179
0.945354 0.492161 0.086653
0.045466 0.547541 0.138651
0.057391 0.554311 0.129080
0.067204 0.559054 0.102869
0.136025 0.557283 0.090647
0.229169 0.530266 0.100771
0.305299 0.516347 0.101782
0.385286 0.501154 0.100816
0.469701 0.493381 0.093971
0.561574 0.497095 0.084689
0.665084 0.521474 0.079763
0.743985 0.536722 0.079498
0.810489 0.546239 0.085997
0.858329 0.560238 0.085598
0.891354 0.564501 0.084422
0.920560 0.568775 0.087860
0.945464 0.569755 0.086094
0.042198 0.632564 0.148462
0.056527 0.639875 0.139751
0.071928 0.640134 0.113780
0.126452 0.641350 0.090176
0.232634 0.623969 0.098588
0.317946 0.606016 0.100237
0.405957 0.590540 0.103250
0.485881 0.583134 0.097312
0.561865 0.573832 0.091593
0.648627 0.582067 0.084657
0.731530 0.602451 0.085821
0.802404 0.618458 0.087194
0.852995 0.631066 0.085191
0.893210 0.638046 0.086901
0.920971 0.640830 0.088916
0.950328 0.644064 0.088678
0.049361 0.707703 0.160690
0.062240 0.714713 0.146217
0.080428 0.715901 0.120525
0.134940 0.716799 0.098078
0.241060 0.706628 0.106904
0.331870 0.691369 0.110065
0.428718 0.671142 0.113115
0.507070 0.663750 0.105723
0.578288 0.652090 0.104311
0.643919 0.648946 0.096595
0.718636 0.659681 0.089702
0.790854 0.676247 0.090189
0.844334 0.690590 0.095524
0.895216 0.698644 0.091286
0.920920 0.703195 0.093797
0.944532 0.704791 0.093753
0.054761 0.771669 0.175214
0.070130 0.777654 0.161270
0.086612 0.777391 0.128925
0.142182 0.779934 0.107032
0.247451 0.771532 0.115408
0.345790 0.760324 0.120381
0.443508 0.742106 0.120106
0.525135 0.734725 0.118368
0.599917 0.727890 0.114888
0.653999 0.717542 0.106323
0.713227 0.714489 0.102499
0.779416 0.724267 0.101849
0.833632 0.739713 0.097307
0.889313 0.749210 0.097698
0.919605 0.758103 0.101089
0.944823 0.757704 0.100546
0.057963 0.829301 0.189957
0.075851 0.830670 0.175103
0.093960 0.834575 0.142888
0.158871 0.831177 0.116376
0.253466 0.828748 0.120225
0.357316 0.821709 0.124885
0.463871 0.806267 0.132511
0.540534 0.796181 0.131429
0.611286 0.788939 0.127419
0.671320 0.783792 0.120532
0.729840 0.775197 0.112284
0.777132 0.773807 0.108172
0.825334 0.782964 0.104775
0.884571 0.796120 0.108097
0.917332 0.801487 0.107192
0.944343 0.807512 0.107613
0.063408 0.872223 0.211116
0.087623 0.874847 0.192754
0.109974 0.875497 0.150913
0.175198 0.876440 0.131345
0.257365 0.877399 0.131512
0.366082 0.872087 0.133284
0.475054 0.858440 0.138631
0.556244 0.849608 0.142064
0.628177 0.840628 0.142947
0.682823 0.836232 0.132261
0.739845 0.832744 0.132045
0.784533 0.826130 0.122066
0.824464 0.825873 0.115422
0.875236 0.831721 0.108747
0.917949 0.844252 0.117678
0.942195 0.843648 0.114172
0.092660 0.904635 0.244941
0.126523 0.911564 0.222285
0.154527 0.912750 0.174379
0.251005 0.916301 0.178687
0.324649 0.910757 0.177063
0.415381 0.909507 0.184527
0.512700 0.902711 0.180407
0.581197 0.894462 0.173231
0.646368 0.889193 0.164548
0.699880 0.882439 0.141819
0.748985 0.877296 0.133378
0.792281 0.873736 0.132840
0.826145 0.872822 0.128605
0.870786 0.868014 0.122551
0.914654 0.877527 0.121876
0.940214 0.879306 0.123747
0.153181 0.997948 0.298686
0.202436 1.002770 0.267670
0.262024 1.006401 0.238426
0.352310 1.009368 0.250071
0.406880 1.004827 0.251856
0.494484 1.002298 0.256417
0.580302 0.995268 0.260756
0.646347 0.993628 0.270075
0.703257 0.986411 0.271874
0.750119 0.983352 0.263685
0.787863 0.980195 0.247551
0.829462 0.978325 0.233028
0.857229 0.975622 0.208734
0.893441 0.966911 0.174572
0.922066 0.964526 0.144605
0.952161 0.971983 0.141631
0.140415 -0.399407 0.163966
0.142471 -0.400604 0.165932
0.147222 -0.402100 0.169459
0.155914 -0.402442 0.167731
0.168781 -0.400718 0.168833
0.206514 -0.399065 0.169593
0.273696 -0.398180 0.169287
0.363582 -0.399001 0.157852
0.459082 -0.400144 0.146790
0.553145 -0.401160 0.138661
0.640517 -0.402018 0.141290
0.682163 -0.401529 0.141371
0.715733 -0.400601 0.146367
0.751046 -0.399071 0.151981
0.783262 -0.398897 0.150871
0.819144 -0.400215 0.152683
0.146135 0.152540 0.185391
0.154916 0.153209 0.187799
0.170058 0.149956 0.186326
0.198229 0.151808 0.186840
0.239377 0.153962 0.185678
0.301324 0.152682 0.186473
0.380127 0.142532 0.181088
0.469564 0.127570 0.168675
0.558393 0.108402 0.162778
0.638143 0.093203 0.153569
0.711696 0.079513 0.152071
0.749974 0.077010 0.145789
0.782052 0.073530 0.147868
0.813385 0.068404 0.145908
0.841181 0.065926 0.145854
0.871670 0.063623 0.148252
0.144512 0.167952 0.186595
0.155945 0.167790 0.187762
0.172367 0.170501 0.193692
0.199602 0.168187 0.190645
0.246593 0.169985 0.192817
0.307794 0.169525 0.190131
0.403368 0.159941 0.184069
0.507311 0.138930 0.170891
0.605533 0.119473 0.158481
0.684317 0.104285 0.142115
0.758982 0.090621 0.138506
0.806362 0.087708 0.135406
0.836456 0.085499 0.133518
0.866278 0.082040 0.131539
0.893366 0.080058 0.128309
0.923765 0.078397 0.126084
0.145062 0.187037 0.187101
0.155265 0.189832 0.190536
0.169919 0.193955 0.194557
0.203963 0.196235 0.196971
0.250227 0.199918 0.197571
0.322217 0.200595 0.198187
0.422464 0.193515 0.192298
0.533420 0.182022 0.174022
0.629009 0.170579 0.157489
0.706049 0.166147 0.148627
0.776120 0.161971 0.141770
0.828160 0.172480 0.141760
0.860164 0.177340 0.141652
0.890010 0.179205 0.141583
0.916984 0.186087 0.142716
0.946690 0.189315 0.140235
0.140688 0.225304 0.190752
0.148917 0.230742 0.196979
0.166421 0.232465 0.198541
0.198442 0.235130 0.200036
0.245377 0.231923 0.196360
0.320876 0.236998 0.194023
0.426777 0.232514 0.181885
0.537100 0.229244 0.168489
0.631669 0.224241 0.151992
0.709783 0.228920 0.147911
0.780054 0.232229 0.142456
0.832233 0.248855 0.141131
0.863283 0.256041 0.140754
0.893496 0.261023 0.140848
0.917042 0.269929 0.140234
0.950213 0.275715 0.145740
0.122554 0.283346 0.192170
0.127455 0.292178 0.190916
0.145742 0.293623 0.186961
0.189533 0.297469 0.190455
0.242698 0.285547 0.194026
0.303994 0.285384 0.181524
0.415614 0.286170 0.170007
0.530807 0.284616 0.149915
0.627832 0.286274 0.140087
0.708771 0.292878 0.133937
0.776125 0.303146 0.129479
0.827046 0.320755 0.132200
0.867381 0.331162 0.135845
0.895867 0.336835 0.133820
0.919395 0.341617 0.134288
0.953822 0.349219 0.141168
0.092114 0.361711 0.183395
0.100603 0.364664 0.182224
0.118010 0.369284 0.177526
0.147795 0.379308 0.172347
0.231095 0.363056 0.175903
0.300734 0.349692 0.177178
0.387248 0.347486 0.161104
0.512508 0.356125 0.141716
0.618694 0.359637 0.130250
0.705166 0.368433 0.119903
0.772710 0.375367 0.122479
0.828321 0.390266 0.124989
0.868435 0.405889 0.132112
0.899134 0.410409 0.131954
0.926311 0.419694 0.134922
0.955449 0.423960 0.138082
0.064951 0.445339 0.180046
0.072924 0.453519 0.180704
0.090287 0.458152 0.169777
0.113323 0.467845 0.149869
0.218034 0.458045 0.149771
0.296251 0.435683 0.157023
