example_ofxGpuLutCube/bin/data/ofxGpuLutCube/LUT/U2 (golden warm).cube
LUT_3D_SIZE 6
0.137506 0.136719 0.135767
0.194051 0.141802 0.142362
0.356054 0.139451 0.136985
0.624859 0.089728 0.089462
0.762320 0.072243 0.067488
0.859057 0.064010 0.054808
0.146722 0.195695 0.145553
0.194493 0.187400 0.143664
0.405163 0.190738 0.121306
0.663819 0.179234 0.072901
0.811688 0.197727 0.056273
0.897474 0.211563 0.049388
0.088211 0.378355 0.087275
0.186279 0.338483 0.098239
0.355880 0.322784 0.092882
0.673636 0.364438 0.049315
0.837810 0.396684 0.043764
0.922037 0.409728 0.045414
0.055076 0.639147 0.045618
0.181678 0.611068 0.046004
0.392101 0.567671 0.047447
0.629124 0.565679 0.039949
0.840329 0.622865 0.051952
0.932393 0.637523 0.050234
0.065947 0.831965 0.060728
0.222467 0.816746 0.061090
0.458804 0.791559 0.065346
0.659744 0.767709 0.059800
0.819062 0.772074 0.053373
0.932725 0.795436 0.058856
0.226364 0.997935 0.143678
0.403879 0.993377 0.152683
0.591735 0.983411 0.161271
0.747240 0.976051 0.158296
0.857676 0.967800 0.127425
0.934713 0.962329 0.075458
0.140415 -0.399407 0.163966
0.155914 -0.402442 0.167731
0.273696 -0.398180 0.169287
0.553145 -0.401160 0.138661
0.715733 -0.400601 0.146367
0.819144 -0.400215 0.152683
0.145062 0.187037 0.187101
0.203963 0.196235 0.196971
0.422464 0.193515 0.192298
0.706049 0.166147 0.148627
0.860164 0.177340 0.141652
0.946690 0.189315 0.140235
0.092114 0.361711 0.183395
0.147795 0.379308 0.172347
0.387248 0.347486 0.161104
0.705166 0.368433 0.119903
0.868435 0.405889 0.132112
0.955449 0.423960 0.138082
0.041169 0.626337 0.198947
0.085426 0.642765 0.158951
0.413074 0.601652 0.149962
0.655726 0.590855 0.122274
0.855011 0.635066 0.125604
0.953998 0.646560 0.128164
0.058055 0.824586 0.249708
0.119703 0.833365 0.200570
0.456611 0.816705 0.180237
0.679622 0.789779 0.173842
0.831475 0.788991 0.150102
0.949805 0.809461 0.150205
0.147390 0.997809 0.369638
0.288936 1.009820 0.304815
0.565455 1.004181 0.323438
0.749712 0.984701 0.330183
0.858181 0.977491 0.262293
0.957301 0.974628 0.191387
0.149121 -0.395318 0.262126
0.184213 -0.401177 0.251651
0.278099 -0.405770 0.227300
0.540981 -0.407647 0.217542
0.715430 -0.405429 0.239544
0.814523 -0.404172 0.256325
0.146287 0.198189 0.305788
0.209028 0.203309 0.333707
0.391025 0.180885 0.316175
0.684129 0.135949 0.305110
0.842497 0.127051 0.305639
0.934000 0.122320 0.305793
0.106374 0.318228 0.304549
0.161985 0.340098 0.329161
0.413172 0.369239 0.358652
0.719842 0.382488 0.352035
0.897344 0.428426 0.375947
0.972489 0.460256 0.404005
0.042166 0.603629 0.371464
0.091773 0.616882 0.371983
0.399535 0.641638 0.362399
0.686442 0.615693 0.337553
0.878617 0.645776 0.340084
0.975900 0.657815 0.374105
0.053909 0.813092 0.433580
0.111175 0.821766 0.427809
0.388963 0.843808 0.383373
0.693217 0.809047 0.400493
0.850642 0.803644 0.363773
0.971847 0.819766 0.360614
0.131067 0.990965 0.545364
0.265166 1.003783 0.529617
0.498908 1.017132 0.500372
0.744864 1.001976 0.513650
0.861501 0.991173 0.459477
0.969025 0.986582 0.407033
0.150029 -0.391885 0.470320
0.194019 -0.398726 0.464719
0.308826 -0.407463 0.402984
0.535932 -0.413418 0.350755
0.718495 -0.409666 0.361895
0.817230 -0.409487 0.378276
0.134965 0.212148 0.497119
0.219097 0.213863 0.534414
0.395155 0.164804 0.538293
0.659463 0.123463 0.476681
0.831595 0.112604 0.483537
0.920885 0.106053 0.486061
0.096144 0.352702 0.495633
0.160129 0.371191 0.525767
0.430972 0.391580 0.573931
0.699458 0.347926 0.551970
0.886516 0.382263 0.564622
0.966092 0.406730 0.570818
0.048608 0.540412 0.496151
0.094412 0.564929 0.517856
0.376244 0.619477 0.576835
0.701963 0.633398 0.596590
0.879993 0.664695 0.611385
0.978769 0.688531 0.636100
0.055144 0.788294 0.588405
0.111220 0.804830 0.602822
0.343139 0.832556 0.615265
0.701522 0.826420 0.621917
0.859838 0.815956 0.607565
0.981464 0.824999 0.617682
0.110494 0.986261 0.680305
0.228958 0.996870 0.684667
0.455225 1.012279 0.672835
0.726919 1.015490 0.681090
0.867253 1.002071 0.670614
0.986672 0.994787 0.640339
0.144720 -0.389232 0.694402
0.201702 -0.397232 0.680684
0.339663 -0.408649 0.636770
0.546456 -0.414788 0.560428
0.720586 -0.414526 0.530895
0.813606 -0.412727 0.532638
0.124384 0.227856 0.699642
0.221373 0.222701 0.738396
0.399891 0.165149 0.732775
0.666353 0.099746 0.696841
0.823213 0.092254 0.654771
0.914016 0.094875 0.647635
0.083329 0.394852 0.685073
0.156411 0.412943 0.717223
0.459387 0.432723 0.762650
0.714414 0.320758 0.773208
0.875431 0.341722 0.735143
0.965645 0.373741 0.729005
0.060614 0.585559 0.683535
0.122368 0.601241 0.702425
0.422735 0.643773 0.759555
0.709412 0.652259 0.779534
0.872768 0.642774 0.768911
0.973712 0.663251 0.769547
0.060111 0.752338 0.695552
0.124086 0.762391 0.711018
0.345540 0.799112 0.747062
0.690662 0.817005 0.780239
0.868100 0.822472 0.788300
0.982893 0.837892 0.801800
0.091970 0.972676 0.774606
0.183012 0.984920 0.786314
0.389238 1.005136 0.802547
0.686424 1.011083 0.809299
0.874874 1.009306 0.823083
0.994655 1.002776 0.816566
0.136856 -0.377618 0.867885
0.212559 -0.390752 0.858741
0.386266 -0.404227 0.841761
0.573718 -0.412158 0.766105
0.726278 -0.415872 0.720072
0.825256 -0.415244 0.711862
0.117819 0.255259 0.862835
0.233294 0.244830 0.897051
0.420152 0.176481 0.882709
0.662001 0.096136 0.855180
0.811754 0.083741 0.813617
0.901632 0.082050 0.798124
0.090083 0.442739 0.845927
0.169378 0.451430 0.866355
0.495905 0.472294 0.906826
0.705399 0.377986 0.912713
0.878175 0.283947 0.899439
0.961261 0.319162 0.875122
0.080741 0.631212 0.844325
0.151493 0.645185 0.855419
0.463325 0.676240 0.898766
0.724842 0.679439 0.915938
0.880053 0.615514 0.916105
0.974950 0.643107 0.895621
0.080924 0.776491 0.840165
0.156956 0.790018 0.853462
0.395151 0.816442 0.890320
0.709019 0.825884 0.908598
0.868921 0.831792 0.918830
0.980637 0.830564 0.912139
0.084705 0.899578 0.851106
0.158609 0.914263 0.867222
0.339988 0.927197 0.886410
0.670231 0.939720 0.902418
0.851906 0.952600 0.918465
0.979549 0.951370 0.921884
