example_ofxGpuLutCube/bin/data/ofxGpuLutCube/LUT/U20 (soft teal fade tint_1).cube
LUT_3D_SIZE 16
0.019860 0.036639 0.049056
0.039646 0.038958 0.052515
0.065056 0.041805 0.056930
0.099665 0.044304 0.060673
0.144195 0.048098 0.064941
0.193411 0.051342 0.070146
0.241603 0.055682 0.074989
0.290408 0.060029 0.080601
0.339573 0.064699 0.086566
0.388527 0.069756 0.092926
0.437599 0.075513 0.100429
0.486171 0.081038 0.106163
0.535502 0.086876 0.115363
0.586968 0.094306 0.123320
0.639164 0.101853 0.132708
0.689534 0.109976 0.142608
0.024115 0.063461 0.056229
0.045146 0.066903 0.060330
0.073056 0.070489 0.065559
0.111917 0.075078 0.070004
0.159827 0.079282 0.075521
0.208410 0.084924 0.080455
0.257463 0.090348 0.086382
0.307005 0.096420 0.092731
0.356699 0.103139 0.099604
0.406160 0.110335 0.106902
0.455311 0.118385 0.114486
0.504402 0.127433 0.123590
0.556522 0.136407 0.132779
0.607781 0.145817 0.143321
0.659712 0.157004 0.152816
0.709896 0.168000 0.164155
0.029232 0.097728 0.064680
0.051980 0.102926 0.069466
0.082280 0.109014 0.074705
0.125331 0.114538 0.079872
0.175525 0.122274 0.086559
0.224805 0.129487 0.092352
0.274638 0.137716 0.099313
0.324939 0.146805 0.106683
0.375154 0.156494 0.114581
0.424844 0.166471 0.123005
0.473216 0.175698 0.131873
0.524751 0.186704 0.140939
0.576110 0.197375 0.152751
0.629756 0.208749 0.163237
0.681041 0.219348 0.175660
0.730421 0.230399 0.187653
0.035385 0.144709 0.074516
0.060470 0.152455 0.080032
0.095137 0.161392 0.086315
0.141887 0.169048 0.092277
0.192771 0.178612 0.099374
0.242459 0.188656 0.107265
0.293324 0.197214 0.114258
0.344088 0.207005 0.122732
0.394529 0.217066 0.131869
0.444234 0.227294 0.141623
0.494190 0.238533 0.151835
0.546894 0.248531 0.163774
0.598979 0.259408 0.175314
0.650714 0.270653 0.187719
0.702380 0.281143 0.199265
0.751019 0.292174 0.211162
0.042726 0.201475 0.085795
0.070871 0.209947 0.092106
0.109967 0.218250 0.098478
0.159687 0.227803 0.105263
0.211063 0.237134 0.114221
0.262201 0.247523 0.122125
0.312977 0.256919 0.131481
0.364114 0.267102 0.141313
0.414715 0.277491 0.151809
0.464567 0.287994 0.163033
0.514934 0.298871 0.174655
0.567784 0.309164 0.186040
0.621882 0.320830 0.198499
0.673570 0.330948 0.210720
0.723692 0.342581 0.222860
0.771358 0.353655 0.234653
0.051522 0.258639 0.098670
0.083572 0.267666 0.105911
0.128427 0.278010 0.113488
0.179971 0.286862 0.122510
0.231545 0.296895 0.131503
0.282659 0.307503 0.141874
0.333669 0.316773 0.151444
0.384910 0.327197 0.162602
0.435497 0.337850 0.174509
0.485815 0.348608 0.186543
0.538391 0.359308 0.198496
0.590640 0.371036 0.210030
0.643406 0.381440 0.221484
0.694931 0.392482 0.233654
0.744833 0.403338 0.246309
0.791397 0.414215 0.258047
0.062068 0.316335 0.113453
0.098974 0.325889 0.121895
0.148175 0.335915 0.130644
0.200190 0.346443 0.139743
0.251509 0.356599 0.151310
0.303685 0.366223 0.161660
0.355020 0.376662 0.174141
0.406272 0.387275 0.186100
0.456715 0.398009 0.198105
0.507947 0.408842 0.210144
0.560080 0.419665 0.222495
0.614349 0.430373 0.234072
0.666740 0.441604 0.245508
0.716740 0.452374 0.258700
0.765747 0.462754 0.269528
0.810844 0.473368 0.281102
0.074817 0.374491 0.130529
0.117412 0.384447 0.140335
0.168799 0.394355 0.150391
0.220195 0.405211 0.162362
0.273195 0.414519 0.173706
0.325034 0.425193 0.184747
0.376969 0.435998 0.197728
0.427985 0.446511 0.209657
0.478535 0.457185 0.221691
0.530603 0.467813 0.233640
0.584615 0.478114 0.245220
0.637561 0.489665 0.256771
0.689359 0.499469 0.269020
0.738813 0.511530 0.280696
0.785787 0.521976 0.292351
0.829476 0.532905 0.303711
0.090220 0.432443 0.150346
0.138516 0.442560 0.161518
0.191588 0.452638 0.173116
0.243484 0.462616 0.184540
0.295079 0.472650 0.198263
0.347681 0.483553 0.210604
0.399062 0.494444 0.221309
0.449883 0.505235 0.233206
0.501036 0.516250 0.245148
0.553782 0.527257 0.257006
0.607614 0.538532 0.267935
0.660205 0.549429 0.280698
0.711063 0.561191 0.292032
0.760040 0.572222 0.303331
0.805274 0.583059 0.314751
0.847260 0.593950 0.325781
0.108628 0.489908 0.172909
0.160424 0.500272 0.184960
0.212736 0.511486 0.195580
0.265149 0.521745 0.208520
0.317008 0.532732 0.221211
0.370429 0.544068 0.232139
0.421359 0.554930 0.244767
0.471906 0.566108 0.256588
0.523897 0.577415 0.268321
0.577137 0.588738 0.280033
0.631007 0.600101 0.291678
0.683056 0.611303 0.303061
0.733073 0.621689 0.314258
0.779080 0.633212 0.325174
0.823749 0.643931 0.336449
0.863999 0.654375 0.347138
0.130221 0.549445 0.196542
0.182730 0.560407 0.208439
0.234556 0.571436 0.220979
0.288467 0.582258 0.232423
0.339977 0.593986 0.243845
0.392530 0.605407 0.255966
0.443512 0.616508 0.267927
0.494439 0.627804 0.279681
0.547055 0.638959 0.291180
0.600410 0.650014 0.302656
0.653607 0.661052 0.313949
0.704800 0.672038 0.325118
0.752633 0.682490 0.335661
0.798754 0.692022 0.347242
0.841042 0.702317 0.357389
0.879389 0.711795 0.367571
0.152868 0.610755 0.220112
0.205508 0.621882 0.232002
0.259247 0.633148 0.243689
0.311186 0.644118 0.255202
0.362677 0.655251 0.267470
0.414728 0.666013 0.279275
0.465497 0.677232 0.290845
0.517118 0.687930 0.302319
0.570004 0.698432 0.313587
0.623160 0.708846 0.324777
0.675056 0.719068 0.335807
0.725038 0.728471 0.346736
0.772066 0.738952 0.357211
0.816018 0.747692 0.367104
0.857104 0.756589 0.377441
0.893455 0.765226 0.387096
0.175845 0.671629 0.243542
0.228507 0.682359 0.255381
0.280825 0.692477 0.267630
0.333063 0.704184 0.279103
0.385423 0.714116 0.290460
0.436865 0.725067 0.300766
0.487540 0.734620 0.313228
0.539748 0.744619 0.324445
0.592694 0.754301 0.335333
0.645276 0.763539 0.346067
0.696208 0.772701 0.357082
0.744573 0.780973 0.367568
0.789994 0.790834 0.377532
0.832062 0.798387 0.386835
0.871793 0.806240 0.396268
0.906222 0.813844 0.405437
0.198848 0.729667 0.266803
0.251518 0.739821 0.278459
0.304901 0.750040 0.290206
0.356167 0.760124 0.301537
0.408165 0.769699 0.312817
0.458697 0.778539 0.323735
0.509614 0.788021 0.335053
0.562048 0.796862 0.345724
0.614715 0.805501 0.356334
0.666547 0.813798 0.366622
0.715665 0.821824 0.376529
0.763437 0.829203 0.386602
0.807729 0.837232 0.396669
0.847596 0.843760 0.405316
0.885214 0.850773 0.414011
0.917584 0.857214 0.422523
0.221847 0.783736 0.289707
0.274411 0.793092 0.301089
0.326717 0.802070 0.312492
0.379259 0.811317 0.323610
0.429325 0.819084 0.334171
0.479843 0.828734 0.345887
0.531295 0.836274 0.355926
0.583744 0.843987 0.366304
0.635906 0.851553 0.376425
0.686463 0.858689 0.386176
0.734408 0.864985 0.396255
0.779894 0.872079 0.404721
0.822932 0.877934 0.413278
0.861709 0.883860 0.422263
0.897242 0.889451 0.430365
0.927518 0.894446 0.438216
0.244483 0.832998 0.312028
0.296824 0.841295 0.323153
0.349476 0.849132 0.334257
0.400799 0.857381 0.345132
0.451006 0.864342 0.355699
0.501124 0.871960 0.365789
0.552422 0.878584 0.375901
0.604521 0.885238 0.385814
0.655836 0.891497 0.395314
0.705064 0.897349 0.404520
0.751869 0.902104 0.413768
0.796172 0.907857 0.421767
0.837508 0.912727 0.430427
0.874488 0.917592 0.437529
0.907661 0.921515 0.445222
0.936183 0.925494 0.452237
0.020599 0.037443 0.078836
0.040596 0.039908 0.082567
0.065767 0.043353 0.086832
0.101368 0.046031 0.091816
0.147177 0.049529 0.096612
0.196600 0.052891 0.101715
0.244400 0.057240 0.107787
0.293426 0.061723 0.114386
0.342627 0.066534 0.121452
0.391775 0.071734 0.129256
0.440573 0.077519 0.137959
0.489352 0.083198 0.146294
0.539556 0.090627 0.156855
0.591868 0.097176 0.168123
0.643095 0.104818 0.178438
0.693281 0.113114 0.189580
0.024987 0.064698 0.086508
0.046310 0.068283 0.091091
0.074832 0.072720 0.095990
0.114003 0.076552 0.100828
0.161844 0.081293 0.108171
0.210613 0.087155 0.113118
0.260561 0.092523 0.121246
0.310259 0.098829 0.129023
0.360102 0.105710 0.137400
0.409548 0.113157 0.146430
0.458582 0.121170 0.156378
0.508799 0.129223 0.166056
0.559522 0.140238 0.178026
0.611618 0.149879 0.189921
0.663686 0.160988 0.200480
0.713694 0.172004 0.211933
0.030289 0.099546 0.095947
0.053442 0.104914 0.101400
0.084334 0.110939 0.108235
0.129151 0.117868 0.114049
0.179153 0.125338 0.120690
0.227262 0.132702 0.127861
0.278083 0.140985 0.137130
0.328414 0.150256 0.146153
0.378667 0.160109 0.156002
0.428335 0.170204 0.166508
0.477717 0.180542 0.177564
0.528198 0.190324 0.189433
0.581174 0.201502 0.200104
0.632543 0.212876 0.210771
0.684898 0.223357 0.223082
0.734187 0.234437 0.234680
0.036644 0.147425 0.107222
0.062236 0.155471 0.113668
0.097503 0.164104 0.121457
0.145882 0.171989 0.128347
0.196502 0.180865 0.137975
0.246219 0.191112 0.145152
0.296832 0.200710 0.155596
0.347689 0.210679 0.166133
0.398275 0.220792 0.177257
0.448023 0.231106 0.188468
0.497824 0.242179 0.199750
0.549526 0.252255 0.211885
0.603078 0.262336 0.223705
0.655666 0.273697 0.234471
0.706384 0.285223 0.245882
0.754883 0.296335 0.257599
0.044272 0.204544 0.120571
0.073046 0.213126 0.128240
0.114025 0.222529 0.135711
0.163923 0.230919 0.145204
0.213803 0.240890 0.155314
0.266179 0.250138 0.166592
0.316767 0.260600 0.176865
0.367923 0.270866 0.188105
0.418576 0.281366 0.199462
0.468446 0.291917 0.210835
0.519707 0.302650 0.222473
0.572647 0.314220 0.233449
0.625841 0.324935 0.246031
0.677459 0.336182 0.256665
0.727604 0.346617 0.268797
0.775203 0.357694 0.280346
0.053372 0.261934 0.136272
0.086238 0.271039 0.145243
0.131620 0.281231 0.155186
0.183190 0.290175 0.164776
0.234457 0.299603 0.176507
0.285675 0.310291 0.188428
0.337589 0.320593 0.199032
0.388930 0.331085 0.210490
0.439430 0.341771 0.221971
0.489821 0.352559 0.233585
0.542192 0.363198 0.245493
0.594545 0.373811 0.256727
0.647451 0.385523 0.268251
0.698738 0.396522 0.281305
0.748827 0.407443 0.291597
0.795117 0.418252 0.303113
0.064311 0.319870 0.154712
0.102136 0.329505 0.165070
0.152818 0.339360 0.176231
0.203580 0.349978 0.188034
0.255791 0.359457 0.198591
0.306728 0.370209 0.210539
0.359158 0.380549 0.221645
0.410319 0.391190 0.233162
0.460754 0.401935 0.244781
0.512062 0.412726 0.256478
0.565144 0.423581 0.268822
0.618382 0.434226 0.278946
0.670524 0.444492 0.291562
0.721546 0.456268 0.302010
0.769427 0.466628 0.314289
0.814459 0.477233 0.325666
0.077475 0.378096 0.175693
0.121190 0.388068 0.187010
0.172279 0.397834 0.199640
0.225000 0.407755 0.210486
0.276283 0.418436 0.220844
0.329257 0.430199 0.232823
0.381044 0.439868 0.244411
0.432054 0.450408 0.255989
0.482643 0.461023 0.267649
0.534986 0.471769 0.279336
0.588636 0.481925 0.291028
0.641798 0.492525 0.302392
0.693078 0.504550 0.314481
0.743404 0.515600 0.324647
0.789536 0.526022 0.336682
0.832895 0.536922 0.347741
0.093451 0.436146 0.197893
0.142555 0.446293 0.209407
0.195297 0.456295 0.220946
0.247246 0.466316 0.232047
0.298220 0.477682 0.244488
0.351837 0.487589 0.255171
0.403276 0.498391 0.267297
0.453927 0.509237 0.278902
0.505259 0.520283 0.290527
0.558241 0.531372 0.302118
0.611735 0.542555 0.313277
0.664524 0.553541 0.324621
0.714704 0.565266 0.336814
0.763166 0.575260 0.346629
0.808818 0.587098 0.358500
0.850393 0.597957 0.369266
0.112390 0.493696 0.220409
0.164573 0.504199 0.232067
0.216529 0.515240 0.243981
0.269031 0.525624 0.255262
0.321340 0.536905 0.266771
0.374717 0.548226 0.278618
0.425532 0.559009 0.290177
0.476046 0.570243 0.301689
0.528283 0.581585 0.313204
0.581505 0.592798 0.324605
0.635231 0.604213 0.335422
0.686286 0.615328 0.346570
0.735319 0.625588 0.358441
0.782993 0.637006 0.369039
0.827047 0.647834 0.379698
0.866903 0.658172 0.390101
0.134411 0.553461 0.243190
0.187060 0.564585 0.254914
0.239669 0.575408 0.267281
0.291396 0.586383 0.278648
0.345405 0.598277 0.288874
0.396844 0.609533 0.301768
0.447631 0.620770 0.312881
0.498640 0.631897 0.324244
0.551318 0.643009 0.335460
0.604656 0.653941 0.346741
0.657809 0.664177 0.358303
0.707928 0.675910 0.368241
0.756708 0.686089 0.379190
0.801434 0.695609 0.389328
0.844075 0.705909 0.400058
0.882041 0.715294 0.409983
0.157131 0.614840 0.266154
0.209772 0.625970 0.277711
0.262052 0.637144 0.289571
0.315239 0.648241 0.300799
0.367949 0.659221 0.311722
0.419057 0.669998 0.323282
0.469526 0.681204 0.335130
0.521351 0.691892 0.346414
0.574320 0.702342 0.357346
0.627268 0.712453 0.368256
0.679275 0.722939 0.378659
0.728048 0.732115 0.389304
0.775997 0.741279 0.398966
0.818752 0.750896 0.410665
0.859990 0.759828 0.419512
0.896103 0.768472 0.428880
0.180101 0.675559 0.289002
0.232759 0.686258 0.300524
0.285999 0.697294 0.311806
0.338267 0.707934 0.324208
0.390759 0.717813 0.334157
0.440110 0.728676 0.345300
0.491660 0.738425 0.357031
0.543989 0.748141 0.367923
0.596882 0.757724 0.378615
0.649269 0.767067 0.389160
0.700311 0.776061 0.399489
0.748555 0.784479 0.408750
0.793822 0.792812 0.418662
0.835393 0.801036 0.428700
0.874511 0.809178 0.437834
0.908616 0.816464 0.446656
0.203143 0.733383 0.311715
0.255774 0.743453 0.323070
0.307785 0.753723 0.333984
0.361381 0.762940 0.346211
0.412343 0.772959 0.356988
0.462893 0.781769 0.367739
0.513685 0.791333 0.378292
0.566133 0.800077 0.388850
0.618751 0.808560 0.399033
0.670248 0.816772 0.409073
0.719639 0.824831 0.418487
0.767105 0.832150 0.428348
0.811108 0.839697 0.438014
0.850761 0.846789 0.446323
0.887562 0.853172 0.454809
0.919678 0.859359 0.463007
0.226076 0.787219 0.334082
0.278673 0.796445 0.345297
0.330746 0.805496 0.355833
0.382197 0.813714 0.366830
0.433503 0.822946 0.377796
0.483891 0.831458 0.388007
0.535369 0.839167 0.398718
0.587701 0.846716 0.408731
0.639664 0.854164 0.418570
0.690069 0.861230 0.428029
0.738054 0.867544 0.436674
0.783480 0.874600 0.446013
0.824981 0.879999 0.454987
0.864535 0.885847 0.463591
0.899187 0.891526 0.470529
0.929347 0.896413 0.478009
0.248675 0.836006 0.355883
0.301027 0.844230 0.366690
0.352324 0.852186 0.377179
0.404782 0.859501 0.388907
0.453834 0.866832 0.398621
0.503956 0.874207 0.408301
0.556252 0.881065 0.418106
0.608318 0.887494 0.427634
0.659422 0.893682 0.436868
0.708421 0.899368 0.445691
0.755426 0.905146 0.453662
0.798504 0.910013 0.462396
0.839330 0.914394 0.470329
0.875900 0.919167 0.477029
0.909451 0.923221 0.484713
0.937570 0.927057 0.491316
0.021347 0.038293 0.111399
0.041542 0.040894 0.115843
0.067336 0.043591 0.120975
0.103070 0.047104 0.125615
0.150276 0.051000 0.132406
0.198550 0.054462 0.140208
0.247311 0.058835 0.146931
0.296438 0.063439 0.155174
0.345818 0.068375 0.164051
0.394959 0.073725 0.173673
0.443652 0.079531 0.184229
0.492429 0.086377 0.193529
0.543495 0.092305 0.203907
0.594757 0.100098 0.213795
0.646952 0.107789 0.225410
0.697124 0.116289 0.236295
0.025907 0.065947 0.120660
0.047516 0.069678 0.126224
0.076690 0.073136 0.131924
0.116158 0.078042 0.139073
0.165126 0.083368 0.147001
0.214116 0.089439 0.154720
0.263653 0.094745 0.163777
0.313571 0.101278 0.173358
0.363483 0.108375 0.183207
0.413031 0.116115 0.193388
0.461845 0.125302 0.202737
0.512198 0.133713 0.213951
0.563625 0.142949 0.224848
0.615545 0.154126 0.236251
0.667745 0.165117 0.246989
0.717570 0.176086 0.258049
0.031376 0.101485 0.132238
0.054961 0.107042 0.138977
0.087473 0.114189 0.146746
0.131711 0.120135 0.155270
0.181526 0.127166 0.164131
0.230906 0.134742 0.173136
0.281495 0.144313 0.182896
0.331907 0.153838 0.193029
0.382309 0.163800 0.203402
0.431977 0.173932 0.213968
0.481223 0.184113 0.224966
0.532801 0.195291 0.235158
0.585239 0.205687 0.247432
0.637634 0.217062 0.257824
0.688876 0.227442 0.268909
0.738095 0.238529 0.280240
0.037949 0.150325 0.146194
0.064091 0.158499 0.154353
0.101089 0.166972 0.162921
0.148685 0.176269 0.171538
0.199165 0.185988 0.182154
0.248918 0.194868 0.191648
0.300535 0.204392 0.203073
0.351418 0.214348 0.213621
0.402016 0.224560 0.224334
0.451715 0.234955 0.235255
0.502560 0.245853 0.246497
0.554195 0.257243 0.257079
0.607219 0.267688 0.267839
0.659669 0.279109 0.279598
0.710490 0.289256 0.291192
0.758691 0.300472 0.302641
0.045823 0.207629 0.162886
0.075285 0.216353 0.172391
0.116869 0.225546 0.181635
0.166926 0.234079 0.192283
0.217806 0.244661 0.203752
0.269008 0.254005 0.212303
0.320559 0.264282 0.223960
0.371784 0.274656 0.234840
0.422469 0.285207 0.245846
0.472396 0.295782 0.256963
0.523524 0.306421 0.268615
0.576502 0.317992 0.279410
0.629936 0.329156 0.290875
0.681306 0.339319 0.302564
0.731580 0.350783 0.313618
0.779005 0.361881 0.325019
0.055239 0.265250 0.181918
0.088968 0.274456 0.192031
0.136051 0.283295 0.201506
0.187662 0.293532 0.212619
0.238612 0.303484 0.223277
0.289757 0.314267 0.233530
0.341551 0.324396 0.245472
0.392835 0.335022 0.256669
0.443403 0.345760 0.267887
0.493966 0.356524 0.279113
0.546123 0.367097 0.290027
0.598586 0.378835 0.300962
0.652447 0.389600 0.313772
0.703434 0.400617 0.325309
0.752730 0.411401 0.335992
0.798710 0.422246 0.347255
0.066593 0.323366 0.202084
0.105445 0.333007 0.212574
0.156163 0.342800 0.223653
0.207033 0.353447 0.233805
0.258797 0.363348 0.245959
0.310968 0.374212 0.256265
0.363162 0.384442 0.267482
0.414404 0.395156 0.278726
0.464803 0.405861 0.290070
0.516319 0.416713 0.301502
0.569090 0.427492 0.312878
0.622513 0.438135 0.323998
0.675577 0.448416 0.335337
0.725064 0.459164 0.346615
0.773359 0.470516 0.358209
0.817924 0.481128 0.369246
0.080281 0.381767 0.222914
0.125064 0.391783 0.233800
0.177123 0.401465 0.243838
0.228604 0.412500 0.255665
0.281784 0.422318 0.267606
0.333445 0.433017 0.277996
0.385225 0.443702 0.289754
0.436123 0.454258 0.301091
0.486818 0.464975 0.312519
0.539291 0.475583 0.323937
0.592675 0.486857 0.335917
0.646015 0.497356 0.347076
0.696800 0.508598 0.358767
0.746758 0.519650 0.368698
0.793189 0.530010 0.380040
0.836284 0.540948 0.390874
0.096740 0.439884 0.244418
0.146599 0.450002 0.255505
0.198960 0.459961 0.267229
0.251022 0.471031 0.278003
0.303658 0.481727 0.289324
0.356133 0.491687 0.299789
0.407402 0.502372 0.312150
0.458058 0.513267 0.323516
0.509492 0.524297 0.334897
0.562533 0.535476 0.346234
0.615863 0.546562 0.356603
0.668752 0.557592 0.368855
0.719252 0.568326 0.379351
0.766401 0.579330 0.390088
0.812201 0.591127 0.401342
0.853605 0.601985 0.411860
0.116281 0.497473 0.266298
0.168685 0.508076 0.277645
0.221531 0.517981 0.289715
0.274092 0.529477 0.299558
0.326734 0.541082 0.312288
0.378017 0.551407 0.322693
0.429624 0.563139 0.334506
0.480348 0.574378 0.345854
0.532528 0.585678 0.357137
0.585882 0.596946 0.368365
0.639434 0.608267 0.379559
0.690544 0.618474 0.390523
0.739666 0.630434 0.401470
0.786906 0.640825 0.411771
0.830187 0.651649 0.421983
0.869722 0.661954 0.432073
0.138595 0.557434 0.288590
0.191286 0.568650 0.300005
0.243556 0.579359 0.311389
0.296542 0.590429 0.322533
0.349587 0.602425 0.333862
0.400078 0.613634 0.345249
0.451703 0.624863 0.356745
0.502839 0.635947 0.367878
0.555669 0.647054 0.379006
0.608923 0.657993 0.389879
0.662013 0.669071 0.400969
0.712188 0.679957 0.411614
0.759830 0.689602 0.421585
0.805197 0.699119 0.431373
0.847146 0.709378 0.441760
0.884754 0.718836 0.451402
0.161406 0.618905 0.311021
0.214065 0.630132 0.322370
0.267249 0.641202 0.334432
0.319330 0.653267 0.344383
0.372295 0.663159 0.356133
0.422303 0.674822 0.367312
0.473737 0.685057 0.378566
0.525550 0.695665 0.389536
0.578574 0.706063 0.400259
0.631543 0.716129 0.410897
0.683404 0.725800 0.420771
0.732216 0.735777 0.431215
0.778629 0.745351 0.440663
0.821978 0.754805 0.450851
0.862633 0.762901 0.460517
0.898351 0.771359 0.469555
0.184376 0.679413 0.333384
0.237050 0.690289 0.344690
0.288869 0.701205 0.356313
0.342363 0.712004 0.367300
0.394992 0.722288 0.377986
0.445505 0.732148 0.389868
0.495770 0.741956 0.399957
0.548124 0.751665 0.410554
0.600994 0.761161 0.420938
0.653303 0.770413 0.431161
0.703249 0.779605 0.441110
0.751453 0.787757 0.450122
0.796259 0.795488 0.459586
0.838510 0.803702 0.469102
0.876962 0.811873 0.478165
0.910639 0.819112 0.486540
0.207384 0.737011 0.355687
0.260060 0.747130 0.366792
0.312991 0.757406 0.377003
0.365524 0.766581 0.387901
0.416489 0.776127 0.399015
0.467088 0.785897 0.410541
0.517753 0.794457 0.420623
0.570254 0.803245 0.430865
0.622730 0.811577 0.440764
0.673996 0.819802 0.450500
0.723455 0.827908 0.459594
0.769751 0.835149 0.469204
0.813573 0.842109 0.477103
0.853558 0.849072 0.487006
0.889913 0.855522 0.494443
0.921506 0.861565 0.502183
0.230304 0.790617 0.377481
0.282919 0.799809 0.388482
0.335931 0.808880 0.399503
0.387394 0.817966 0.410281
0.437588 0.825824 0.420282
0.487985 0.834268 0.430165
0.539339 0.842029 0.440477
0.591679 0.849509 0.450189
0.643558 0.856851 0.459599
0.693539 0.863804 0.468705
0.740900 0.870242 0.477144
0.785911 0.877160 0.486158
0.828113 0.881779 0.494325
0.867243 0.888294 0.502417
0.901365 0.893281 0.509459
0.931021 0.898034 0.516486
0.252870 0.839023 0.398771
0.305208 0.847168 0.409416
0.357489 0.855203 0.420380
0.407740 0.862371 0.430842
0.457836 0.870107 0.440343
0.508772 0.876503 0.449617
0.560118 0.883452 0.459183
0.611975 0.889775 0.468338
0.662813 0.895599 0.477179
0.711770 0.901485 0.485705
0.758732 0.907125 0.493489
0.801775 0.911161 0.501925
0.842172 0.916640 0.509012
0.878409 0.921026 0.516418
0.911127 0.924581 0.522993
0.939024 0.928060 0.529373
0.022140 0.039227 0.150350
0.042542 0.041947 0.155998
0.068991 0.045288 0.161556
0.106040 0.048974 0.168876
0.152084 0.052496 0.176259
0.200542 0.056087 0.185279
0.250201 0.060459 0.193228
0.299505 0.065208 0.202005
0.348980 0.070310 0.211016
0.398306 0.075784 0.220374
0.446701 0.082628 0.229692
0.495671 0.088619 0.240072
0.546219 0.095108 0.250790
0.599548 0.102024 0.260405
0.650686 0.110847 0.270942
0.700858 0.119613 0.281531
0.026839 0.067287 0.162118
0.048769 0.071159 0.169100
0.077585 0.075491 0.176575
0.118376 0.080592 0.184890
0.167353 0.085520 0.192886
0.216339 0.091783 0.201101
0.266924 0.097070 0.210724
0.316850 0.103797 0.220047
0.366917 0.111122 0.229716
0.416443 0.119098 0.239595
0.465168 0.127023 0.249161
0.515478 0.138276 0.260042
0.567594 0.146998 0.271274
0.620313 0.158285 0.281132
0.671626 0.169161 0.292121
0.721242 0.180117 0.302923
0.032513 0.103419 0.176380
0.056524 0.109208 0.184336
0.089654 0.116266 0.191981
0.134302 0.122449 0.202452
0.185174 0.130334 0.209355
0.234684 0.139548 0.219527
0.284936 0.147721 0.229376
0.335482 0.157500 0.239255
0.385901 0.167487 0.249386
0.435585 0.177760 0.259717
0.485810 0.187686 0.269563
0.536309 0.198969 0.280849
0.589283 0.208530 0.292059
0.641425 0.221214 0.302250
0.692883 0.231470 0.313622
0.741870 0.242589 0.324735
0.039301 0.153256 0.192411
0.066021 0.161617 0.201075
0.103622 0.171185 0.210266
0.152794 0.179305 0.220045
0.201863 0.188382 0.228299
0.252795 0.198652 0.238879
0.304247 0.208024 0.249060
0.355129 0.218027 0.259340
0.405731 0.228366 0.269843
0.455543 0.238841 0.280507
0.506185 0.249556 0.291959
0.557879 0.261030 0.302306
0.612219 0.271863 0.313252
0.663488 0.282056 0.323535
0.714318 0.293363 0.335447
0.762486 0.304514 0.346689
0.047451 0.210768 0.209830
0.077662 0.219631 0.219155
0.119825 0.228630 0.228552
0.171280 0.238539 0.238887
0.221862 0.248525 0.247984
0.273049 0.257891 0.258991
0.324436 0.268080 0.269456
0.375642 0.278469 0.280154
0.426324 0.289096 0.290968
0.476256 0.299786 0.301922
0.528407 0.310260 0.313729
0.581316 0.321916 0.324389
0.633997 0.332124 0.335808
0.685172 0.343472 0.346058
0.735642 0.354828 0.357497
0.782844 0.365992 0.368712
0.057190 0.268562 0.228452
0.091847 0.277951 0.238276
0.139243 0.286572 0.247922
0.191015 0.298149 0.258756
0.241589 0.307441 0.269720
0.293919 0.317128 0.279711
0.345551 0.328251 0.290598
0.396845 0.338948 0.301548
0.447301 0.349713 0.312574
0.498020 0.360490 0.323658
0.550949 0.372113 0.334799
0.603611 0.382706 0.345656
0.656369 0.393673 0.357046
0.707227 0.404731 0.368341
0.756601 0.415422 0.379441
0.802431 0.426339 0.390497
0.068917 0.326904 0.248042
0.108839 0.336677 0.258321
0.159469 0.346323 0.268253
0.211729 0.357026 0.279502
0.263048 0.367296 0.290559
0.315155 0.377153 0.300764
0.367242 0.388361 0.312141
0.418433 0.399081 0.323293
0.468872 0.409854 0.334386
0.520533 0.420698 0.345655
0.573053 0.431368 0.357268
0.626620 0.442075 0.368281
0.679272 0.453522 0.379253
0.729615 0.463200 0.390223
0.777000 0.474507 0.401169
0.821337 0.485088 0.411928
0.083160 0.385416 0.268495
0.129019 0.395459 0.279104
0.180710 0.406152 0.290617
0.232261 0.416146 0.299742
0.284867 0.426266 0.311802
0.337701 0.436954 0.323194
0.389294 0.447594 0.334049
0.440218 0.458147 0.345178
