example_ofxGpuLutCube/bin/data/ofxGpuLutCube/LUT/U20 (soft teal fade tint_1).cube
LUT_3D_SIZE 6
0.019860 0.036639 0.049056
0.099665 0.044304 0.060673
0.241603 0.055682 0.074989
0.388527 0.069756 0.092926
0.535502 0.086876 0.115363
0.689534 0.109976 0.142608
0.035385 0.144709 0.074516
0.141887 0.169048 0.092277
0.293324 0.197214 0.114258
0.444234 0.227294 0.141623
0.598979 0.259408 0.175314
0.751019 0.292174 0.211162
0.062068 0.316335 0.113453
0.200190 0.346443 0.139743
0.355020 0.376662 0.174141
0.507947 0.408842 0.210144
0.666740 0.441604 0.245508
0.810844 0.473368 0.281102
0.108628 0.489908 0.172909
0.265149 0.521745 0.208520
0.421359 0.554930 0.244767
0.577137 0.588738 0.280033
0.733073 0.621689 0.314258
0.863999 0.654375 0.347138
0.175845 0.671629 0.243542
0.333063 0.704184 0.279103
0.487540 0.734620 0.313228
0.645276 0.763539 0.346067
0.789994 0.790834 0.377532
0.906222 0.813844 0.405437
0.244483 0.832998 0.312028
0.400799 0.857381 0.345132
0.552422 0.878584 0.375901
0.705064 0.897349 0.404520
0.837508 0.912727 0.430427
0.936183 0.925494 0.452237
0.022140 0.039227 0.150350
0.106040 0.048974 0.168876
0.250201 0.060459 0.193228
0.398306 0.075784 0.220374
0.546219 0.095108 0.250790
0.700858 0.119613 0.281531
0.039301 0.153256 0.192411
0.152794 0.179305 0.220045
0.304247 0.208024 0.249060
0.455543 0.238841 0.280507
0.612219 0.271863 0.313252
0.762486 0.304514 0.346689
0.068917 0.326904 0.248042
0.211729 0.357026 0.279502
0.367242 0.388361 0.312141
0.520533 0.420698 0.345655
0.679272 0.453522 0.379253
0.821337 0.485088 0.411928
0.120302 0.501307 0.311052
0.278005 0.533330 0.344203
0.433727 0.567236 0.378039
0.590234 0.601110 0.411029
0.743957 0.634272 0.443336
0.872711 0.665666 0.472936
0.188655 0.683372 0.376860
0.346458 0.715821 0.409724
0.499866 0.745492 0.441811
0.657160 0.773665 0.471998
0.799791 0.799204 0.500162
0.912765 0.821790 0.525398
0.257008 0.842172 0.440678
0.411629 0.865283 0.471778
0.563880 0.885871 0.498965
0.714898 0.903341 0.524517
0.844860 0.917169 0.548118
0.940376 0.929421 0.568134
0.024651 0.042243 0.283755
0.113259 0.052678 0.304267
0.259350 0.065676 0.326544
0.408303 0.082374 0.352882
0.558153 0.102900 0.381787
0.712336 0.130197 0.411669
0.043670 0.162464 0.325782
0.162820 0.189922 0.351364
0.315409 0.219079 0.380468
0.467005 0.250551 0.410689
0.623358 0.283266 0.441931
0.773875 0.316885 0.473207
0.076512 0.337668 0.379474
0.223667 0.369020 0.409027
0.379557 0.400146 0.440770
0.533360 0.432588 0.472179
0.691716 0.464316 0.502481
0.831800 0.496890 0.533707
0.132913 0.513104 0.439797
0.291030 0.546097 0.470978
0.446064 0.579668 0.502115
0.603122 0.613377 0.532720
0.755554 0.645660 0.563517
0.881085 0.676621 0.592369
0.201555 0.695242 0.501162
0.359969 0.726600 0.532316
0.512192 0.756155 0.562061
0.668884 0.783432 0.591538
0.809255 0.808009 0.619559
0.918929 0.829352 0.644430
0.269456 0.850936 0.560977
0.423444 0.872973 0.590093
0.575166 0.892552 0.618297
0.724420 0.908981 0.643688
0.850743 0.922820 0.666017
0.944083 0.933005 0.684500
0.027474 0.045690 0.408855
0.119873 0.056763 0.428935
0.268973 0.071351 0.451634
0.418726 0.089499 0.477047
0.570146 0.112665 0.504155
0.723772 0.141613 0.532952
0.048483 0.172066 0.450780
0.173275 0.199646 0.476614
0.326901 0.230421 0.503332
0.478850 0.262442 0.531862
0.636575 0.294719 0.561941
0.785083 0.329267 0.593617
0.084999 0.348731 0.502414
0.235824 0.380036 0.530623
0.391865 0.412014 0.561226
0.546320 0.444468 0.592644
0.704899 0.476246 0.624549
0.841597 0.508581 0.655139
0.145524 0.524884 0.560183
0.303150 0.558108 0.590766
0.458421 0.592109 0.623186
0.615846 0.625505 0.654234
0.765887 0.657711 0.684351
0.889008 0.687364 0.711190
0.214451 0.706924 0.622171
0.372202 0.737895 0.653014
0.524374 0.766349 0.682888
0.680136 0.792702 0.710488
0.818055 0.815557 0.735124
0.924461 0.836191 0.756928
0.281654 0.859348 0.681871
0.435026 0.880196 0.709302
0.585998 0.899068 0.734327
0.733342 0.914353 0.756313
0.857216 0.926280 0.775043
0.947644 0.935851 0.789982
0.030559 0.049474 0.525885
0.129864 0.062139 0.546005
0.279051 0.077523 0.569580
0.429361 0.097310 0.595898
0.582347 0.122009 0.624665
0.735272 0.153961 0.654148
0.053846 0.182032 0.568711
0.184024 0.210975 0.595327
0.338733 0.242032 0.623387
0.490997 0.274536 0.653286
0.648533 0.308530 0.682860
0.796182 0.341614 0.713517
0.094356 0.360005 0.622460
0.248256 0.391350 0.651721
0.404332 0.423882 0.682552
0.559330 0.456307 0.712589
0.715658 0.489074 0.741439
0.851403 0.520404 0.768843
0.158375 0.537105 0.681605
0.316403 0.571158 0.711544
0.470677 0.604385 0.740504
0.628458 0.637497 0.767945
0.775613 0.669363 0.793373
0.896634 0.697529 0.816159
0.227179 0.718291 0.739654
0.383370 0.749081 0.766636
0.536388 0.776277 0.792550
0.690996 0.801515 0.815479
0.826575 0.824317 0.835678
0.929715 0.842838 0.852897
0.293698 0.867558 0.791613
0.446350 0.887919 0.814217
0.596523 0.904956 0.835001
0.741713 0.919155 0.852271
0.863215 0.931090 0.865929
0.950652 0.938822 0.877569
0.034012 0.053677 0.642953
0.138923 0.067081 0.664545
0.289400 0.084230 0.688365
0.440282 0.105848 0.714188
0.594534 0.133347 0.740451
0.746750 0.166587 0.767930
0.059735 0.192318 0.687614
0.196469 0.221374 0.713052
0.350671 0.253794 0.739938
0.503253 0.286657 0.766864
0.661421 0.319895 0.793537
0.806930 0.353985 0.819100
0.104631 0.371400 0.739176
0.259667 0.403846 0.766491
0.416815 0.435788 0.792715
0.572343 0.468027 0.818269
0.728114 0.499871 0.842896
0.860531 0.532097 0.864230
0.171126 0.549274 0.791895
0.328601 0.582320 0.816761
0.483000 0.616603 0.841527
0.640803 0.649135 0.863526
0.785931 0.679639 0.883420
0.903846 0.707595 0.900434
0.240036 0.729825 0.840935
0.395433 0.759197 0.862728
0.548251 0.785953 0.882672
0.701565 0.810109 0.899922
0.834612 0.830824 0.914118
0.934612 0.848989 0.925925
0.305365 0.875223 0.881988
0.456390 0.894401 0.899709
0.606559 0.910598 0.913803
0.749597 0.923605 0.925618
0.868744 0.933100 0.934585
0.952586 0.940699 0.940922
