example_ofxGpuLutCube/bin/data/ofxGpuLutCube/LUT/U21 (hard teal fade tint).cube
LUT_3D_SIZE 16
0.062745 0.050980 0.078431
0.065098 0.053333 0.080784
0.074510 0.050980 0.076079
0.096470 0.047843 0.076079
0.105882 0.054902 0.082353
0.129412 0.050980 0.086275
0.162353 0.051765 0.074510
0.192941 0.050980 0.076079
0.230588 0.057255 0.085491
0.275294 0.054902 0.080000
0.333333 0.062745 0.074510
0.409412 0.069020 0.076078
0.495686 0.077647 0.060392
0.611765 0.112157 0.035294
0.760785 0.153725 0.000000
0.908902 0.195843 0.000000
0.064314 0.052549 0.084706
0.067922 0.054274 0.082667
0.078902 0.055373 0.074196
0.093334 0.054118 0.085491
0.105098 0.052863 0.083765
0.127059 0.059608 0.076078
0.157647 0.054902 0.076078
0.188863 0.054902 0.083137
0.224628 0.056785 0.088785
0.276549 0.061333 0.082353
0.328627 0.059608 0.085490
0.405177 0.069804 0.072628
0.494588 0.089882 0.065725
0.615059 0.114980 0.041883
0.752784 0.154510 0.007059
0.904925 0.198957 0.003106
0.069804 0.061176 0.082353
0.067137 0.059451 0.084863
0.069961 0.057098 0.084863
0.087529 0.062118 0.088627
0.108863 0.063059 0.090039
0.131764 0.060393 0.078432
0.156863 0.065726 0.084235
0.184784 0.061177 0.079843
0.221176 0.064314 0.079843
0.276863 0.068863 0.085334
0.329412 0.072157 0.079215
0.399372 0.080157 0.078431
0.485804 0.101176 0.070902
0.597490 0.123137 0.044549
0.736784 0.164706 0.013176
0.893137 0.205247 0.001553
0.069804 0.058040 0.085491
0.074667 0.061961 0.088000
0.073726 0.069647 0.091137
0.086275 0.069647 0.092392
0.107608 0.074353 0.095059
0.125490 0.076078 0.087844
0.157490 0.079529 0.093647
0.194824 0.076863 0.093020
0.238745 0.080000 0.090510
0.286274 0.087686 0.088471
0.351373 0.087843 0.091765
0.418196 0.099608 0.081569
0.504627 0.118745 0.078431
0.623843 0.153255 0.049568
0.766902 0.187922 0.001882
0.924478 0.233451 0.004659
0.080000 0.075294 0.090196
0.079059 0.075137 0.100079
0.080314 0.073569 0.101961
0.085334 0.084863 0.100706
0.100549 0.084706 0.099765
0.123922 0.088627 0.101176
0.153882 0.088941 0.096784
0.190902 0.093961 0.098667
0.235451 0.094588 0.094275
0.285333 0.103372 0.101333
0.345882 0.106667 0.099608
0.417255 0.124549 0.091922
0.515765 0.147451 0.077490
0.633098 0.180079 0.044863
0.780235 0.224000 0.000941
0.933929 0.264118 0.000000
0.086275 0.078431 0.129412
0.093333 0.080000 0.101961
0.091765 0.090196 0.100392
0.094902 0.093334 0.103530
0.103529 0.103529 0.108235
0.113725 0.109804 0.101961
0.150588 0.108235 0.109804
0.185882 0.110588 0.109020
0.236078 0.120000 0.112156
0.283137 0.126275 0.109804
0.345098 0.129412 0.101961
0.421176 0.152157 0.099608
0.513725 0.169412 0.079216
0.636078 0.207059 0.063529
0.779608 0.251765 0.009412
0.909020 0.297764 0.003883
0.100392 0.101176 0.120784
0.098667 0.099137 0.122039
0.100863 0.103059 0.122039
0.097726 0.109960 0.123922
0.105412 0.118431 0.124862
0.122353 0.127059 0.121569
0.152314 0.136157 0.115451
0.188549 0.137882 0.116392
0.231216 0.142902 0.123921
0.287529 0.155137 0.116706
0.353726 0.170196 0.116078
0.435765 0.187451 0.102902
0.539451 0.218353 0.092078
0.658039 0.256628 0.058196
0.799686 0.301176 0.007059
0.950416 0.339435 0.000024
0.105883 0.119216 0.132549
0.112470 0.116706 0.134745
0.117019 0.121255 0.137098
0.110117 0.124392 0.137725
0.116235 0.135059 0.141176
0.122353 0.148235 0.139608
0.144784 0.160470 0.132549
0.179137 0.172549 0.125647
0.224314 0.174431 0.121255
0.281883 0.186196 0.123921
0.362353 0.203922 0.115294
0.449725 0.237647 0.113412
0.562980 0.270589 0.097882
0.690980 0.316392 0.050824
0.828549 0.363922 0.001412
0.966996 0.402910 0.006212
0.127843 0.131764 0.151372
0.128785 0.135529 0.149804
0.126431 0.140706 0.153412
0.129568 0.146353 0.159059
0.130039 0.154510 0.159372
0.128628 0.170196 0.155294
0.137255 0.185569 0.154510
0.163451 0.198902 0.143843
0.218667 0.210823 0.139451
0.264941 0.219451 0.135843
0.346667 0.235294 0.130980
0.439059 0.270902 0.124706
0.555451 0.318274 0.106039
0.688470 0.371608 0.069020
0.838588 0.416627 0.008941
0.979483 0.456275 0.000000
0.141176 0.162353 0.172549
0.143059 0.167529 0.169726
0.145882 0.171922 0.176000
0.144000 0.181961 0.177255
0.139608 0.188863 0.175216
0.140392 0.200000 0.176470
0.143059 0.220078 0.178980
0.152157 0.241412 0.175530
0.199843 0.265882 0.153568
0.270588 0.277020 0.148863
0.336470 0.284706 0.139608
0.426196 0.311059 0.139922
0.545411 0.363921 0.113569
0.691608 0.434823 0.084078
0.850981 0.490510 0.031529
0.982745 0.517522 0.017247
0.152941 0.200000 0.192157
0.160784 0.204706 0.201569
0.163137 0.212549 0.203922
0.163137 0.221960 0.203922
0.156863 0.236863 0.201569
0.156863 0.247059 0.207843
0.144314 0.271373 0.212549
0.150589 0.300392 0.205490
0.185098 0.328627 0.186667
0.251765 0.360784 0.180392
0.352941 0.372549 0.152941
0.425098 0.382745 0.148235
0.532548 0.428235 0.132549
0.701961 0.503529 0.091765
0.863529 0.567059 0.068235
0.999176 0.599882 0.097764
0.185098 0.253333 0.229020
0.172549 0.266667 0.232627
0.168784 0.272314 0.235451
0.171921 0.277961 0.234824
0.159686 0.293333 0.243765
0.159216 0.310588 0.245490
0.146823 0.335059 0.251451
0.133176 0.364706 0.244079
0.138824 0.399843 0.234039
0.225725 0.440627 0.207059
0.332549 0.472941 0.173333
0.433255 0.488313 0.155294
0.529255 0.506039 0.144942
0.650981 0.551843 0.105412
0.827765 0.622431 0.073725
0.981859 0.674172 0.141420
0.180392 0.344314 0.294118
0.170353 0.356078 0.281882
0.178196 0.354824 0.286745
0.168157 0.372392 0.293647
0.164706 0.384000 0.300079
0.152157 0.409411 0.305098
0.114510 0.438117 0.303216
0.083765 0.465412 0.305568
0.036078 0.510588 0.286117
0.143059 0.547608 0.273412
0.273725 0.594510 0.220392
0.418039 0.623216 0.173961
0.543529 0.634980 0.153255
0.658980 0.651922 0.136941
0.798118 0.696470 0.119215
0.952776 0.741741 0.154957
0.152157 0.488628 0.366274
0.156549 0.497882 0.377255
0.133020 0.517961 0.385882
0.117961 0.530510 0.387765
0.091922 0.538980 0.387921
0.045490 0.563137 0.399216
0.012235 0.594353 0.402981
0.001569 0.625412 0.399686
0.001569 0.668078 0.387764
0.043294 0.708862 0.374431
0.217255 0.748235 0.345882
0.386666 0.782588 0.275608
0.544157 0.801255 0.234196
0.682196 0.810667 0.230431
0.817569 0.821961 0.237176
0.943521 0.832878 0.274142
0.105098 0.661961 0.487843
0.103530 0.668863 0.494431
0.096470 0.690823 0.499294
0.085804 0.698980 0.507451
0.055843 0.715137 0.505569
0.058824 0.729412 0.505882
0.067451 0.752000 0.512313
0.076549 0.781490 0.518274
0.097255 0.805960 0.518902
0.152157 0.834353 0.511843
0.334118 0.862745 0.509020
0.428078 0.880157 0.464941
0.546353 0.899922 0.414745
0.676863 0.903686 0.395921
0.811451 0.902274 0.415372
0.920910 0.903569 0.436737
0.319569 0.842078 0.634314
0.344494 0.845216 0.649890
0.367082 0.854683 0.650776
0.373357 0.860957 0.657051
0.379537 0.867326 0.660204
0.393529 0.877529 0.665530
0.419404 0.886282 0.671867
0.454596 0.899702 0.685922
0.489231 0.909208 0.685891
0.536392 0.924236 0.683585
0.617647 0.936863 0.704666
0.649278 0.943192 0.693412
0.681906 0.955004 0.665004
0.745216 0.967427 0.639875
0.834933 0.962816 0.643937
0.928743 0.956628 0.680355
0.062745 0.054118 0.084706
0.068549 0.054902 0.087059
0.075765 0.054588 0.082824
0.090196 0.053333 0.084706
0.106667 0.050980 0.087843
0.130980 0.052549 0.087843
0.157804 0.055373 0.088471
0.182902 0.052863 0.085804
0.231216 0.049725 0.090824
0.273725 0.054902 0.088157
0.330980 0.058039 0.089412
0.400941 0.058824 0.081569
0.490666 0.070902 0.078431
0.602980 0.095373 0.062118
0.749647 0.135373 0.010824
0.910329 0.180102 0.001553
0.062118 0.056000 0.085490
0.066321 0.059137 0.080910
0.076643 0.057412 0.090981
0.091577 0.054400 0.086212
0.108235 0.058541 0.092769
0.124392 0.060549 0.090510
0.154949 0.058729 0.086808
0.186949 0.059232 0.085898
0.232502 0.060361 0.088910
0.271718 0.060988 0.086589
0.332392 0.059765 0.090196
0.402667 0.068455 0.086588
0.489726 0.080282 0.079310
0.603670 0.103247 0.058604
0.744282 0.140831 0.019859
0.899393 0.187292 0.003751
0.065412 0.059608 0.081255
0.074478 0.060581 0.093114
0.075608 0.065475 0.093585
0.087153 0.065726 0.092330
0.105757 0.064753 0.096596
0.126588 0.066196 0.092392
0.152941 0.065381 0.093929
0.189710 0.067482 0.093428
0.224345 0.066604 0.094055
0.273255 0.067106 0.096533
0.325961 0.072157 0.091765
0.395388 0.076204 0.086902
0.480220 0.089318 0.081130
0.592031 0.113914 0.061051
0.730949 0.150870 0.021114
0.884173 0.193454 0.005311
0.072941 0.066510 0.095059
0.077490 0.068361 0.095247
0.081506 0.070620 0.096722
0.090039 0.074886 0.099482
0.105255 0.075169 0.103247
0.122196 0.076862 0.101177
0.157082 0.078808 0.097067
0.194102 0.079279 0.097443
0.229239 0.080910 0.100580
0.279404 0.082667 0.097663
0.329098 0.085961 0.096157
0.407561 0.098039 0.091796
0.499670 0.112157 0.083012
0.613992 0.139263 0.061929
0.754918 0.181114 0.014212
0.911153 0.219876 0.001553
0.077647 0.077490 0.093333
0.088565 0.073035 0.099012
0.093083 0.075357 0.104439
0.092455 0.085522 0.106071
0.102902 0.089631 0.109427
0.125804 0.093177 0.112627
0.153412 0.094055 0.106635
0.187859 0.095969 0.106855
0.234165 0.095718 0.107482
0.280533 0.100486 0.105725
0.339451 0.110118 0.103843
0.414086 0.121475 0.095624
0.507577 0.139451 0.081067
0.626165 0.169318 0.063498
0.766463 0.210227 0.017318
0.917775 0.249014 0.001878
0.084706 0.085490 0.109804
0.092706 0.083922 0.105412
0.101019 0.082196 0.116706
0.098510 0.094118 0.117333
0.101020 0.101176 0.115137
0.117647 0.109804 0.113725
0.152000 0.112470 0.115922
0.189804 0.116863 0.111372
0.230588 0.122510 0.112000
0.277333 0.122353 0.105882
0.338039 0.134902 0.109804
0.411765 0.144941 0.105569
0.504627 0.165804 0.090824
0.617569 0.198431 0.070117
0.763294 0.243765 0.022588
0.905035 0.286024 0.001600
0.110745 0.097255 0.121255
0.105443 0.099608 0.122165
0.106447 0.103655 0.124957
0.109584 0.108423 0.127467
0.114322 0.117867 0.130604
0.120471 0.130823 0.129882
0.144533 0.133835 0.123984
0.182620 0.139671 0.120031
0.226667 0.147702 0.124675
0.283734 0.154447 0.126619
0.351529 0.167059 0.120471
0.429804 0.185066 0.111749
0.525804 0.208910 0.102180
0.648282 0.246055 0.069930
0.787326 0.289757 0.017600
0.937556 0.332162 0.002532
0.115608 0.108235 0.132078
0.119686 0.115137 0.141553
0.118525 0.117992 0.139545
0.120282 0.125020 0.143310
0.124674 0.131106 0.140455
0.124863 0.145568 0.139294
0.140110 0.159686 0.136533
0.178039 0.168502 0.135247
0.222588 0.174149 0.131733
0.277114 0.186071 0.130698
0.355294 0.205334 0.134275
0.443514 0.229145 0.130071
0.550713 0.261302 0.107639
0.678965 0.310620 0.071372
0.819231 0.351624 0.016941
0.957269 0.391746 0.006367
0.131922 0.127686 0.142118
0.132863 0.135090 0.150086
0.129945 0.138824 0.153726
0.133208 0.146855 0.156988
0.134839 0.150682 0.158902
0.132392 0.166274 0.158745
0.137976 0.180894 0.157365
0.165490 0.200000 0.154698
0.217067 0.214682 0.147671
0.265192 0.215184 0.141992
0.336470 0.227294 0.139921
0.432847 0.263404 0.131827
0.548455 0.311749 0.119561
0.678212 0.360063 0.086306
0.823373 0.406965 0.021835
0.964121 0.444471 0.001398
0.146196 0.160784 0.171451
0.150776 0.167247 0.170384
0.149459 0.165114 0.173522
0.149208 0.173271 0.175278
0.146918 0.184376 0.180047
0.150745 0.197333 0.179765
0.148957 0.213616 0.177945
0.159153 0.236580 0.179012
0.203576 0.258290 0.166086
0.266165 0.276643 0.148455
0.326745 0.280314 0.155137
0.420329 0.306792 0.141961
0.539482 0.359780 0.125647
0.683670 0.424533 0.101302
0.842478 0.481506 0.051106
0.975683 0.513266 0.028264
0.154510 0.201569 0.191372
0.163765 0.200941 0.191058
0.168000 0.205491 0.198745
0.164235 0.213020 0.198118
0.155294 0.226824 0.206902
0.160784 0.243137 0.207843
0.159529 0.267765 0.211137
0.154039 0.293020 0.207687
0.187294 0.323137 0.196392
0.255216 0.349647 0.180549
0.346667 0.363921 0.156078
0.420392 0.377255 0.160000
0.526274 0.420549 0.137568
0.681882 0.494588 0.100549
0.850510 0.560784 0.082196
0.999074 0.598243 0.117325
0.176627 0.254274 0.234039
0.178416 0.257820 0.229584
0.172612 0.265663 0.233192
0.179388 0.272690 0.231435
0.173271 0.287655 0.242478
0.163137 0.305725 0.249255
0.158714 0.327153 0.252173
0.147200 0.358714 0.245804
0.148455 0.392721 0.236392
0.222369 0.428612 0.214902
0.319059 0.463059 0.179608
0.421584 0.483670 0.162792
0.519153 0.494494 0.152879
0.645898 0.542557 0.123765
0.820486 0.621521 0.089537
0.974180 0.664896 0.143523
0.184941 0.330196 0.275921
0.185161 0.341459 0.287121
0.187733 0.348549 0.288094
0.177569 0.362353 0.284204
0.171545 0.376690 0.290070
0.166118 0.392470 0.299294
0.140612 0.419420 0.305537
0.110526 0.455686 0.307482
0.068236 0.495717 0.293553
0.139294 0.541615 0.273569
0.266667 0.584000 0.230745
0.410008 0.616031 0.182337
0.531545 0.630745 0.161569
0.644361 0.644298 0.155043
0.791686 0.690447 0.132172
0.951023 0.733610 0.171970
0.169255 0.478902 0.370039
0.166463 0.487780 0.379733
0.163012 0.494368 0.382839
0.149835 0.507671 0.384470
0.126620 0.529663 0.386572
0.091451 0.550588 0.400314
0.036706 0.581051 0.401035
0.008126 0.616188 0.403106
0.000471 0.659733 0.391184
0.027608 0.701114 0.377349
0.213334 0.742745 0.351216
0.373741 0.772768 0.281223
0.539827 0.798274 0.241380
0.673726 0.803294 0.235357
0.814024 0.813302 0.248251
0.937407 0.822224 0.275023
0.125020 0.652706 0.481098
0.129004 0.658322 0.494275
0.126525 0.667106 0.497255
0.110337 0.683043 0.502149
0.089412 0.698635 0.507106
0.063686 0.718431 0.507137
0.062055 0.745349 0.512878
0.073569 0.770949 0.514196
0.089004 0.799184 0.512564
0.137161 0.828988 0.506573
0.328941 0.854589 0.513568
0.422494 0.878400 0.467576
0.533960 0.893992 0.408816
0.670620 0.898635 0.397396
0.802510 0.902055 0.415122
0.914599 0.902248 0.431724
0.313490 0.827977 0.640486
0.329851 0.836411 0.640914
0.345283 0.841600 0.651429
0.353302 0.851099 0.656982
0.365045 0.856475 0.656424
0.381145 0.868926 0.661702
0.400789 0.879222 0.664690
0.433992 0.897937 0.673105
0.471639 0.913090 0.676838
0.526808 0.921214 0.682272
0.600447 0.932894 0.700698
0.644612 0.940047 0.688800
0.681071 0.952632 0.664472
0.742549 0.963205 0.626342
0.823286 0.963716 0.648764
0.918501 0.958156 0.673513
0.066667 0.055686 0.094118
0.064941 0.057255 0.092235
0.074353 0.058040 0.096471
0.095686 0.058040 0.097726
0.113255 0.057098 0.100863
0.135686 0.055686 0.093333
0.159843 0.056941 0.097726
0.194823 0.055530 0.095530
0.221176 0.055530 0.094275
0.274981 0.055686 0.094118
0.329412 0.054118 0.102745
0.398902 0.052863 0.099608
0.491294 0.058196 0.090823
0.602353 0.079530 0.077020
0.744941 0.112000 0.035137
0.899412 0.156564 0.000173
0.065569 0.059608 0.104000
0.064000 0.059483 0.097537
0.074792 0.058918 0.098196
0.088220 0.058541 0.101459
0.109616 0.062024 0.097663
0.125490 0.062118 0.101961
0.153349 0.061365 0.103561
0.186541 0.059294 0.105914
0.223812 0.061678 0.102777
0.273067 0.058918 0.101302
0.325177 0.058824 0.101334
0.400533 0.059451 0.096000
0.483827 0.069616 0.093051
0.603420 0.087435 0.077365
0.738447 0.123043 0.037961
0.893017 0.169401 0.003876
0.067608 0.065726 0.106980
0.068675 0.070870 0.099043
0.074071 0.066227 0.106227
0.087875 0.067734 0.105600
0.104784 0.071153 0.104000
0.122196 0.071372 0.106823
0.152188 0.064879 0.102369
0.183843 0.067357 0.103341
0.215843 0.070368 0.103216
0.266071 0.068016 0.106384
0.319843 0.070902 0.106039
0.389553 0.070431 0.099953
0.477773 0.080031 0.097004
0.586071 0.099357 0.076173
0.718870 0.134839 0.045584
0.875981 0.168138 0.001617
0.069490 0.074510 0.098196
0.074071 0.076016 0.103184
0.077710 0.076643 0.107231
0.093522 0.078149 0.107608
0.107545 0.076675 0.110400
0.124706 0.080784 0.103059
0.155074 0.080565 0.110526
0.187734 0.083294 0.108737
0.232785 0.080282 0.112627
0.276737 0.084204 0.106886
0.336157 0.081569 0.102274
0.405365 0.091263 0.098071
0.497098 0.102871 0.093992
0.608408 0.125208 0.081192
0.754134 0.164078 0.036549
0.900590 0.204455 0.004648
0.075922 0.084706 0.099451
0.081882 0.081286 0.109553
0.088314 0.082572 0.111937
0.098353 0.084455 0.118337
0.104188 0.092549 0.115419
0.122039 0.095843 0.119529
0.155419 0.095341 0.118619
0.189490 0.098416 0.115388
0.229020 0.101302 0.113757
0.274447 0.101051 0.108800
0.337882 0.106196 0.115608
0.412926 0.113757 0.111278
0.503090 0.130541 0.101992
0.622557 0.159781 0.078902
0.761663 0.200282 0.039247
0.916947 0.237887 0.001059
0.093334 0.083922 0.118431
0.088471 0.091451 0.111216
0.107137 0.091137 0.120784
0.100863 0.094902 0.118275
0.111372 0.099294 0.124235
0.124706 0.107451 0.123922
0.146353 0.113882 0.126745
0.183373 0.115921 0.121882
0.232941 0.120314 0.125020
0.277333 0.123608 0.126118
0.331765 0.129412 0.120000
0.408784 0.138823 0.116862
0.498980 0.159059 0.104000
0.615686 0.187294 0.088314
0.758588 0.232000 0.044863
0.914259 0.271106 0.009475
0.108392 0.101961 0.124706
0.110274 0.102463 0.128157
0.114133 0.105192 0.128972
0.115890 0.107702 0.133114
0.121412 0.116674 0.137851
0.125804 0.123608 0.140392
0.143373 0.137882 0.135310
0.186980 0.144471 0.134055
0.229020 0.146102 0.133929
0.287655 0.157239 0.138259
0.342432 0.165961 0.133333
0.429396 0.182463 0.132361
0.529035 0.203608 0.115169
0.645490 0.243137 0.093082
0.783059 0.283357 0.042667
0.927567 0.323380 0.010111
0.128941 0.113412 0.137882
0.123514 0.116863 0.134400
0.128126 0.120408 0.145161
0.127122 0.127059 0.139263
0.133804 0.133898 0.150871
0.133490 0.148078 0.153412
0.140831 0.162604 0.148361
0.176345 0.172392 0.151090
0.222777 0.176784 0.142808
0.282447 0.187074 0.143561
0.353098 0.201412 0.139922
0.449443 0.231341 0.137820
0.550431 0.256973 0.120063
0.674792 0.301270 0.094965
0.820769 0.344972 0.050886
0.957013 0.383161 0.000971
0.138353 0.132235 0.159216
0.141835 0.137317 0.157867
0.140298 0.135718 0.157459
0.143812 0.145882 0.154573
0.145725 0.150337 0.166180
0.144784 0.164392 0.167216
0.147608 0.179922 0.165804
0.167812 0.199498 0.164141
0.214745 0.212423 0.156361
0.271153 0.221584 0.155106
0.339294 0.226510 0.145569
0.430620 0.266227 0.143090
0.546667 0.311059 0.131231
0.681067 0.357866 0.112157
0.821898 0.403827 0.060800
0.959442 0.440924 0.006706
0.158431 0.156549 0.174902
0.163137 0.163639 0.180298
0.161161 0.166400 0.176909
0.157772 0.172925 0.181553
0.162729 0.181961 0.184345
0.165019 0.193882 0.188549
0.162102 0.214400 0.188486
0.166620 0.235451 0.187420
0.202761 0.261302 0.181019
0.261459 0.279467 0.162228
0.330824 0.285020 0.158431
0.423624 0.308172 0.152533
0.539482 0.361066 0.142431
0.686306 0.421804 0.120973
0.842792 0.479247 0.090730
0.978962 0.509515 0.054729
0.166275 0.201569 0.196078
0.179137 0.203608 0.206588
0.175529 0.208941 0.207530
0.183059 0.218980 0.208784
0.182745 0.226353 0.215372
0.180392 0.243137 0.214902
0.173804 0.266980 0.218353
0.167373 0.296785 0.225725
0.192470 0.323137 0.216314
0.255530 0.355294 0.200000
0.353726 0.374118 0.178040
0.417569 0.387608 0.167215
0.534902 0.420863 0.152470
0.688627 0.500549 0.129883
0.860078 0.564078 0.126118
0.999137 0.598337 0.154212
0.193255 0.253961 0.237804
0.193349 0.256910 0.237553
0.194259 0.267263 0.246682
0.195262 0.271028 0.244047
0.192376 0.283137 0.245678
0.186980 0.304784 0.255373
0.180078 0.325678 0.259263
0.166463 0.359467 0.256283
0.155294 0.396486 0.253020
0.219482 0.430870 0.233224
0.314667 0.470902 0.192314
0.423498 0.489820 0.180141
0.520219 0.500078 0.169349
0.647216 0.549647 0.143875
0.826510 0.619765 0.128126
0.976340 0.662998 0.180728
0.198588 0.336470 0.287686
0.206431 0.339607 0.291168
0.204738 0.346886 0.295780
0.199341 0.359561 0.297286
0.194823 0.372769 0.302118
0.181647 0.391059 0.307765
0.163420 0.422682 0.314384
0.144345 0.453678 0.318839
0.107702 0.496721 0.311812
0.135247 0.540612 0.293773
0.266353 0.582745 0.253961
0.399592 0.620706 0.204894
0.532047 0.636110 0.181929
0.647749 0.649035 0.178165
0.793161 0.693396 0.156486
0.949010 0.736281 0.201366
0.204863 0.477020 0.378667
0.197396 0.490447 0.388423
0.193819 0.499482 0.388768
0.177882 0.514164 0.392784
0.166338 0.533647 0.401380
0.142118 0.552941 0.408157
0.094651 0.586322 0.418416
0.042823 0.619200 0.420110
0.008690 0.663749 0.412580
0.026447 0.705757 0.393161
0.226196 0.744000 0.378196
0.375121 0.779200 0.308172
0.527404 0.802635 0.271027
0.678243 0.812047 0.266259
0.811232 0.817506 0.266416
0.944718 0.828014 0.309432
0.171137 0.650196 0.496000
0.178980 0.661710 0.497600
0.175435 0.670557 0.503906
0.165396 0.684235 0.511937
0.154039 0.698824 0.520126
0.131608 0.717961 0.520941
0.109647 0.739765 0.526055
0.102714 0.768439 0.529161
0.119027 0.796674 0.528032
0.179859 0.830212 0.528125
0.344784 0.858353 0.534588
0.435231 0.877616 0.497788
0.540392 0.895027 0.434573
0.669020 0.902431 0.416376
0.799435 0.903310 0.430682
0.919261 0.904453 0.457275
0.341160 0.831067 0.626658
0.348114 0.837362 0.645332
0.367351 0.840538 0.656310
0.372935 0.849378 0.650864
0.384416 0.859770 0.660234
0.402572 0.869702 0.671082
0.424466 0.878866 0.674765
0.451669 0.896181 0.680601
0.491795 0.905724 0.683688
0.537101 0.920278 0.696803
0.599749 0.932870 0.703247
0.651773 0.942524 0.698984
0.686971 0.952924 0.674803
0.744464 0.956168 0.638461
0.822950 0.961230 0.648075
0.916933 0.963530 0.684424
0.066667 0.061961 0.116078
0.065569 0.058510 0.111058
0.077490 0.058667 0.112157
0.093804 0.061176 0.118432
0.115137 0.061490 0.123451
0.145098 0.055686 0.115294
0.161098 0.061961 0.114666
0.194196 0.063687 0.114353
0.235608 0.053647 0.120627
0.276236 0.050667 0.121098
0.332549 0.047843 0.121569
0.403294 0.034667 0.113412
0.501961 0.028078 0.108392
0.613020 0.039372 0.104628
0.755608 0.072471 0.067765
0.915066 0.112705 0.019153
0.061177 0.064000 0.111529
0.061490 0.068769 0.117239
0.073914 0.066196 0.118149
0.088345 0.066824 0.113882
0.112627 0.066039 0.118243
0.130510 0.068392 0.118902
0.160502 0.067012 0.122635
0.194698 0.067200 0.124110
0.224439 0.062557 0.119969
0.272565 0.060173 0.116863
0.333333 0.050039 0.122666
0.401537 0.044518 0.115451
0.489349 0.043388 0.113255
0.610447 0.051169 0.098071
0.754008 0.085396 0.077867
0.908652 0.131773 0.020554
0.056314 0.072627 0.115137
0.067796 0.072627 0.121757
0.072565 0.074133 0.120282
0.087373 0.071623 0.121663
0.106416 0.075294 0.122949
0.130353 0.073882 0.120628
0.155953 0.074290 0.123953
0.190620 0.072753 0.124926
0.228643 0.070243 0.122290
0.266698 0.068267 0.120314
0.319843 0.067765 0.124235
0.398212 0.060016 0.118776
0.485176 0.061710 0.112941
0.597992 0.076016 0.098133
0.738447 0.104345 0.079592
0.891096 0.142990 0.031239
0.058196 0.086431 0.113882
0.067670 0.085302 0.119875
0.076706 0.087561 0.122792
0.087498 0.087059 0.125177
0.101647 0.088847 0.125333
0.125333 0.085804 0.126902
0.157333 0.086965 0.128596
0.183969 0.085679 0.129820
0.233035 0.085177 0.123169
0.278871 0.084957 0.125835
0.338666 0.080941 0.120471
0.410510 0.083357 0.119906
0.505004 0.088565 0.121474
0.618824 0.107890 0.106667
0.762667 0.137600 0.071059
0.910610 0.176847 0.021821
0.080314 0.094118 0.135216
0.073851 0.095467 0.119341
0.081914 0.094745 0.125741
0.094463 0.096628 0.130133
0.107325 0.098071 0.133867
0.127059 0.100235 0.133961
0.153286 0.101992 0.131420
0.188988 0.104941 0.133584
0.228518 0.102808 0.132455
0.278965 0.102180 0.132894
0.339137 0.101804 0.125020
0.414682 0.109741 0.123577
0.507106 0.121129 0.119310
0.632596 0.145349 0.107263
0.773082 0.181584 0.077271
0.924508 0.213485 0.015779
0.087059 0.102745 0.127843
0.079686 0.101490 0.126275
0.090824 0.103686 0.132079
0.099608 0.107451 0.134588
0.118275 0.106196 0.131765
0.130980 0.113725 0.139607
0.148863 0.124549 0.143686
0.189020 0.124706 0.142588
0.223529 0.119059 0.143216
0.279843 0.125490 0.138039
0.338039 0.123138 0.132549
0.415686 0.138823 0.136313
0.514039 0.150274 0.129098
0.633255 0.176000 0.110902
0.771765 0.219451 0.086274
0.920659 0.255451 0.019357
0.100235 0.115137 0.141019
0.104502 0.115514 0.141710
0.109239 0.115859 0.139263
0.117522 0.119874 0.140894
0.133459 0.122447 0.147890
0.142118 0.124863 0.147294
0.152157 0.141772 0.153506
0.180957 0.149239 0.149992
0.231028 0.150369 0.146353
0.290792 0.162635 0.149678
0.349961 0.167843 0.152157
0.432282 0.179577 0.148925
0.532298 0.201349 0.137632
0.652769 0.234855 0.117051
0.795734 0.274196 0.081318
0.940768 0.308365 0.028000
0.112627 0.123451 0.141019
0.124267 0.130415 0.149459
0.129506 0.133208 0.150432
0.135529 0.135341 0.152063
0.143090 0.138917 0.151623
0.152313 0.146823 0.165333
0.160533 0.160596 0.167561
0.179483 0.177537 0.165773
