example_ofxGpuLutCube/bin/data/ofxGpuLutCube/LUT/U21 (hard teal fade tint).cube
LUT_3D_SIZE 6
0.062745 0.050980 0.078431
0.096470 0.047843 0.076079
0.162353 0.051765 0.074510
0.275294 0.054902 0.080000
0.495686 0.077647 0.060392
0.908902 0.195843 0.000000
0.069804 0.058040 0.085491
0.086275 0.069647 0.092392
0.157490 0.079529 0.093647
0.286274 0.087686 0.088471
0.504627 0.118745 0.078431
0.924478 0.233451 0.004659
0.100392 0.101176 0.120784
0.097726 0.109960 0.123922
0.152314 0.136157 0.115451
0.287529 0.155137 0.116706
0.539451 0.218353 0.092078
0.950416 0.339435 0.000024
0.141176 0.162353 0.172549
0.144000 0.181961 0.177255
0.143059 0.220078 0.178980
0.270588 0.277020 0.148863
0.545411 0.363921 0.113569
0.982745 0.517522 0.017247
0.180392 0.344314 0.294118
0.168157 0.372392 0.293647
0.114510 0.438117 0.303216
0.143059 0.547608 0.273412
0.543529 0.634980 0.153255
0.952776 0.741741 0.154957
0.319569 0.842078 0.634314
0.373357 0.860957 0.657051
0.419404 0.886282 0.671867
0.536392 0.924236 0.683585
0.681906 0.955004 0.665004
0.928743 0.956628 0.680355
0.066667 0.061961 0.116078
0.093804 0.061176 0.118432
0.161098 0.061961 0.114666
0.276236 0.050667 0.121098
0.501961 0.028078 0.108392
0.915066 0.112705 0.019153
0.058196 0.086431 0.113882
0.087498 0.087059 0.125177
0.157333 0.086965 0.128596
0.278871 0.084957 0.125835
0.505004 0.088565 0.121474
0.910610 0.176847 0.021821
0.100235 0.115137 0.141019
0.117522 0.119874 0.140894
0.152157 0.141772 0.153506
0.290792 0.162635 0.149678
0.532298 0.201349 0.137632
0.940768 0.308365 0.028000
0.168470 0.160314 0.183686
0.179482 0.175937 0.191341
0.182557 0.213145 0.203670
0.263843 0.289255 0.189835
0.552282 0.365584 0.168157
0.977142 0.512609 0.121716
0.236235 0.338980 0.298980
0.230588 0.360815 0.308204
0.204204 0.425318 0.331451
0.160972 0.541490 0.321255
0.533427 0.648031 0.222588
0.961572 0.741307 0.257328
0.372816 0.831004 0.654706
0.416455 0.849975 0.672693
0.456089 0.877065 0.684265
0.556125 0.920271 0.700655
0.708831 0.947980 0.695635
0.920195 0.960486 0.715579
0.009412 0.093333 0.200000
0.064627 0.085647 0.202824
0.181804 0.079843 0.202510
0.300706 0.070118 0.216471
0.510275 0.000941 0.221961
0.915812 0.000024 0.182070
0.010196 0.124235 0.204392
0.035859 0.121255 0.206965
0.165773 0.110149 0.216534
0.301678 0.099326 0.217004
0.510118 0.012643 0.221929
0.921108 0.001864 0.179102
0.011922 0.179608 0.225726
0.032722 0.186573 0.227702
0.127216 0.186980 0.242227
0.289067 0.177474 0.250541
0.520878 0.156832 0.243388
0.948596 0.191966 0.214797
0.056314 0.243765 0.257569
0.088784 0.251514 0.258479
0.172926 0.264220 0.268925
0.297914 0.293427 0.300141
0.562447 0.387545 0.309019
0.984012 0.485016 0.309776
0.222118 0.377725 0.340863
0.252486 0.388204 0.358682
0.333019 0.410949 0.384000
0.347263 0.525961 0.436424
0.499859 0.682102 0.390933
0.969244 0.756894 0.454229
0.531663 0.802815 0.689200
0.543026 0.823573 0.703752
0.572135 0.860314 0.727017
0.638336 0.907666 0.756907
0.764263 0.946532 0.766225
0.926305 0.964314 0.755034
0.000000 0.174902 0.400784
0.001882 0.164235 0.408471
0.114824 0.118902 0.411765
0.365804 0.086745 0.415059
0.578666 0.002824 0.435922
0.963121 0.000000 0.508266
0.003765 0.221804 0.417725
0.000628 0.209381 0.424220
0.026165 0.160282 0.423624
0.351655 0.127247 0.430745
0.582808 0.070965 0.453585
0.958891 0.003119 0.510050
0.000941 0.306980 0.436078
0.005522 0.306510 0.447718
0.002698 0.286024 0.465004
0.261741 0.229270 0.475326
0.582431 0.211137 0.485992
0.972660 0.105699 0.494869
0.001412 0.423059 0.479216
0.001757 0.424628 0.486996
0.000941 0.432502 0.499890
0.087937 0.432533 0.523043
0.573459 0.412894 0.539608
0.982146 0.436949 0.510362
0.001726 0.593412 0.551059
0.002729 0.597114 0.559655
0.002573 0.596424 0.559561
0.261835 0.619106 0.569976
0.597804 0.689506 0.639843
0.948736 0.818307 0.709167
0.491804 0.837867 0.728824
0.548359 0.838025 0.740553
0.670643 0.843371 0.762217
0.762195 0.884091 0.796271
0.831313 0.937717 0.830712
0.936611 0.960580 0.817757
0.000000 0.350588 0.775686
0.005647 0.327059 0.790274
0.004079 0.242980 0.781490
0.353412 0.196235 0.783059
0.677490 0.164706 0.781647
0.999239 0.201075 0.806133
0.000628 0.392471 0.785255
0.002667 0.372800 0.785883
0.001255 0.312784 0.790933
0.304784 0.244643 0.789584
0.660047 0.225914 0.786667
0.990862 0.268915 0.803363
0.000000 0.495059 0.794667
0.000000 0.483231 0.799655
0.001883 0.439843 0.809851
0.073977 0.365804 0.806306
0.628204 0.359937 0.810165
0.990618 0.431612 0.817755
0.001883 0.627294 0.808157
0.000000 0.626886 0.810008
0.003388 0.610886 0.813270
0.001004 0.567592 0.826792
0.562196 0.564926 0.833537
0.976146 0.641100 0.828781
0.001255 0.787137 0.827451
0.000502 0.784219 0.825694
0.001977 0.790902 0.828549
0.032345 0.795451 0.838400
0.595953 0.816785 0.845741
0.944085 0.847454 0.835253
0.446235 0.948761 0.864314
0.486403 0.952210 0.872161
0.566074 0.948024 0.868372
0.700174 0.932165 0.857020
0.894563 0.929764 0.870513
0.956487 0.968399 0.887874
0.000039 0.536588 0.952745
0.003891 0.546683 0.952047
0.263224 0.589467 0.946533
0.565663 0.656565 0.942659
0.760141 0.698949 0.929357
0.933134 0.767136 0.917686
0.000777 0.560918 0.951129
0.000025 0.567325 0.947483
0.249303 0.607390 0.944061
0.584365 0.681007 0.932166
0.766339 0.723827 0.935073
0.943857 0.776061 0.923851
0.002353 0.622251 0.952024
0.000635 0.625631 0.953635
0.153755 0.647632 0.952576
0.594444 0.737568 0.938403
0.793780 0.780353 0.932621
0.945357 0.815591 0.932974
0.002330 0.733835 0.938682
0.000944 0.733184 0.933966
0.099233 0.731186 0.935332
0.540951 0.770739 0.934187
0.826431 0.854395 0.914210
0.951693 0.879427 0.917623
0.256941 0.859616 0.914502
0.310207 0.862245 0.921362
0.428897 0.863823 0.919810
0.600323 0.870968 0.921097
0.826124 0.909338 0.918654
0.957473 0.936934 0.908150
0.424469 0.952745 0.898273
0.453450 0.949679 0.902668
0.521784 0.955859 0.893513
0.659426 0.953639 0.895780
0.873599 0.959890 0.904298
0.980312 0.968627 0.909803
