example_ofxGpuLutCube/bin/data/ofxGpuLutCube/LUT/U23 (hard warm fade).cube
LUT_3D_SIZE 6
0.058824 0.054902 0.047059
0.184314 0.031373 0.060392
0.363137 0.000000 0.043137
0.635294 0.001569 0.010196
0.958432 0.000000 0.000000
0.999961 0.003883 0.003961
0.003922 0.118432 0.086274
0.137568 0.109804 0.045019
0.328628 0.090981 0.045647
0.612706 0.001255 0.008471
0.953726 0.000628 0.001255
0.996086 0.006220 0.001576
0.001569 0.243137 0.188235
0.000314 0.238745 0.088941
0.293961 0.231529 0.004863
0.514667 0.239059 0.005333
0.895530 0.234510 0.004706
0.993749 0.000000 0.000031
0.003137 0.466667 0.336470
0.005647 0.461961 0.291137
0.141804 0.456157 0.000941
0.508392 0.451294 0.003451
0.796235 0.458980 0.000000
0.995341 0.391726 0.001592
0.000000 0.825098 0.565490
0.005020 0.818196 0.542902
0.000000 0.826353 0.290980
0.488628 0.804863 0.000314
0.856784 0.772392 0.000628
1.000000 0.659733 0.000031
0.000000 1.000000 0.651255
0.003122 0.999992 0.629867
0.003145 0.999961 0.545145
0.000000 0.996847 0.002377
0.729333 0.991208 0.009334
0.992313 0.913452 0.000001
0.076079 0.068235 0.127843
0.175529 0.069020 0.112941
0.372235 0.001882 0.056471
0.621961 0.000000 0.000000
0.961725 0.003294 0.000157
0.999192 0.000008 0.012431
0.037961 0.098824 0.139451
0.147232 0.128157 0.117773
0.342494 0.111153 0.083200
0.597082 0.119561 0.001506
0.942337 0.000000 0.006243
0.996103 0.000025 0.000000
0.003765 0.210666 0.224314
0.000000 0.264878 0.211106
0.311498 0.251953 0.086243
0.523451 0.258698 0.018447
0.893616 0.272784 0.001004
0.997826 0.002270 0.004215
0.002196 0.465882 0.376941
0.004079 0.493082 0.355859
0.066353 0.492424 0.055216
0.531326 0.471059 0.005490
0.792784 0.467984 0.000251
0.994695 0.402027 0.000038
0.002667 0.841412 0.640941
0.000533 0.837302 0.615028
0.001224 0.848471 0.413365
0.424000 0.819577 0.001129
0.858102 0.774588 0.006682
0.993627 0.664458 0.006262
0.000000 0.999992 0.720808
0.002485 0.994999 0.688805
0.003762 0.995943 0.602943
0.000329 1.000000 0.007181
0.710137 0.997238 0.001562
0.993011 0.912870 0.000769
0.061961 0.072157 0.319216
0.225882 0.095059 0.296000
0.403608 0.053961 0.249882
0.687843 0.000000 0.193726
0.981961 0.004706 0.002196
0.996078 0.000000 0.003153
0.002980 0.108549 0.331922
0.108298 0.123482 0.320188
0.390024 0.150149 0.257663
0.675545 0.001318 0.172800
0.970510 0.000722 0.009537
0.997785 0.002333 0.005600
0.000000 0.225568 0.358275
0.001129 0.226510 0.342055
0.297161 0.298761 0.282227
0.596267 0.281067 0.201286
0.931043 0.275671 0.022965
0.994673 0.007054 0.003125
0.000000 0.377255 0.448314
0.002071 0.398243 0.445459
0.001977 0.540737 0.406996
0.535906 0.516016 0.195545
0.820361 0.488220 0.066980
1.000000 0.412180 0.000052
0.000000 0.730510 0.707451
0.001883 0.760125 0.718714
0.004267 0.868423 0.661302
0.142212 0.850604 0.047529
0.864753 0.788737 0.004361
0.997821 0.671467 0.002515
0.006988 0.993788 0.871247
0.004356 0.999689 0.849895
0.002330 0.997019 0.772806
0.002805 0.995156 0.419393
0.658252 0.997429 0.000367
0.990776 0.916675 0.000070
0.003137 0.075294 0.669020
0.266353 0.120470 0.634353
0.482823 0.155922 0.536314
0.727843 0.024471 0.473412
1.000000 0.001726 0.399216
0.999984 0.000000 0.170000
0.002667 0.120000 0.675451
0.029365 0.153506 0.662306
0.469208 0.229867 0.554510
0.719310 0.160596 0.470400
0.996361 0.001004 0.381898
0.994715 0.000005 0.155980
0.000628 0.268235 0.680314
0.001631 0.261271 0.679843
0.216439 0.316612 0.631122
0.660016 0.368533 0.476424
0.991028 0.136439 0.359875
0.999981 0.000932 0.097519
0.001882 0.418510 0.682039
0.000000 0.429114 0.681883
0.002730 0.443106 0.642447
0.494212 0.585412 0.519749
0.932016 0.504784 0.351655
0.998136 0.348022 0.069130
0.003138 0.588863 0.802667
0.000784 0.606212 0.817192
0.001443 0.634980 0.797459
0.000376 0.870870 0.705223
0.850510 0.821898 0.330478
0.993002 0.681642 0.229522
0.002330 0.890800 0.886321
0.000014 0.911945 0.879576
0.003309 0.975070 0.874598
0.000941 0.999355 0.836569
0.398124 0.999881 0.253354
0.998330 0.939163 0.002353
0.000000 0.200000 0.927843
0.141490 0.267451 0.924863
0.512627 0.391686 0.919215
0.748235 0.338666 0.848000
0.999372 0.144941 0.722509
0.999192 0.013482 0.540761
0.000628 0.212549 0.927530
0.006212 0.275294 0.926494
0.483043 0.449161 0.912973
0.730227 0.404737 0.842510
0.999372 0.258573 0.726431
0.996583 0.039540 0.538141
0.004235 0.241412 0.921725
0.003137 0.273851 0.926463
0.243012 0.452643 0.913474
0.688659 0.562102 0.867576
0.996486 0.451859 0.740329
0.999529 0.325615 0.548284
0.002039 0.383843 0.931137
0.000345 0.388329 0.919059
0.002385 0.431310 0.924518
0.543749 0.683012 0.897129
0.936816 0.681380 0.761380
0.999051 0.590607 0.598883
0.000628 0.517961 0.913098
0.000502 0.519467 0.913976
0.000910 0.535215 0.914980
0.003639 0.642196 0.899137
0.808784 0.881851 0.830996
1.000000 0.785540 0.654748
0.000000 0.639906 0.901239
0.001305 0.646137 0.904731
0.001890 0.666058 0.904582
0.000025 0.723090 0.903818
0.133513 0.987395 0.856823
0.993445 0.961436 0.758735
0.383059 0.516588 0.909961
0.508039 0.599726 0.902141
0.760643 0.799027 0.890251
0.831631 0.793404 0.881765
0.939059 0.742902 0.887169
0.999961 0.704665 0.885651
0.306337 0.475984 0.908431
0.441355 0.575477 0.908121
0.732693 0.780963 0.882158
0.838501 0.815655 0.875327
0.942558 0.773578 0.882268
0.996909 0.724415 0.891095
0.000047 0.352376 0.924722
0.079567 0.453219 0.917435
0.613344 0.721070 0.894369
0.868529 0.871756 0.869903
0.938286 0.832075 0.873858
0.999961 0.797545 0.875054
0.007012 0.331451 0.926964
0.002076 0.335200 0.918006
0.000642 0.440231 0.917208
0.797688 0.865221 0.872999
0.936939 0.903257 0.861301
0.997600 0.876455 0.862086
0.000063 0.520643 0.920039
0.003112 0.524475 0.915663
0.003889 0.511506 0.913274
0.003200 0.576388 0.911164
0.922367 0.949073 0.863230
0.996862 0.942580 0.857334
0.003883 0.603998 0.902233
0.000769 0.607065 0.909773
0.000016 0.611850 0.909004
0.000039 0.630532 0.912840
0.806608 0.921687 0.865984
0.972705 0.968859 0.851133
