example_ofxGpuLutCube/bin/data/ofxGpuLutCube/LUT/U23 (hard warm fade).cube
LUT_3D_SIZE 16
0.058824 0.054902 0.047059
0.088627 0.052549 0.047843
0.130980 0.037647 0.047843
0.184314 0.031373 0.060392
0.230589 0.011765 0.041569
0.282353 0.000000 0.043137
0.363137 0.000000 0.043137
0.455686 0.000000 0.028236
0.540392 0.006274 0.031372
0.635294 0.001569 0.010196
0.729412 0.003922 0.000000
0.851765 0.000000 0.000000
0.958432 0.000000 0.000000
0.996078 0.000000 0.000000
0.996078 0.000000 0.003137
0.999961 0.003883 0.003961
0.051765 0.069020 0.059608
0.087686 0.064941 0.045177
0.122510 0.061647 0.053333
0.168941 0.052235 0.052706
0.222118 0.028863 0.045961
0.300392 0.004706 0.033726
0.372549 0.000000 0.040784
0.458980 0.000784 0.028079
0.544314 0.000784 0.016157
0.639372 0.002353 0.005020
0.740392 0.003137 0.000000
0.854902 0.000000 0.002353
0.965804 0.000627 0.001412
0.997176 0.003765 0.001412
0.996549 0.002353 0.003294
0.999937 0.003906 0.002330
0.032157 0.090196 0.070588
0.066510 0.087843 0.055059
0.116235 0.085333 0.041883
0.150118 0.082196 0.046274
0.209725 0.073569 0.052235
0.278431 0.054118 0.054902
0.357490 0.019451 0.036863
0.452078 0.005804 0.026196
0.540549 0.002039 0.021176
0.641569 0.001255 0.003451
0.748236 0.006274 0.001569
0.863372 0.001255 0.001883
0.975686 0.000000 0.001882
0.996392 0.000628 0.001255
0.997020 0.003451 0.002824
0.999161 0.000039 0.014000
0.003922 0.118432 0.086274
0.022588 0.113568 0.070118
0.093647 0.110431 0.050667
0.137568 0.109804 0.045019
0.185882 0.098666 0.049098
0.250196 0.098039 0.048628
0.328628 0.090981 0.045647
0.421334 0.069177 0.034980
0.512314 0.037804 0.022431
0.612706 0.001255 0.008471
0.723137 0.000000 0.001569
0.835765 0.001255 0.001883
0.953726 0.000628 0.001255
0.997019 0.001255 0.000628
0.996392 0.000314 0.000941
0.996086 0.006220 0.001576
0.007059 0.152156 0.121568
0.003765 0.150431 0.102588
0.032941 0.146980 0.073412
0.130196 0.138824 0.044549
0.183686 0.137882 0.037804
0.232157 0.139608 0.047843
0.296785 0.131765 0.042196
0.385255 0.138510 0.032628
0.485020 0.129098 0.015686
0.585098 0.109804 0.001255
0.693333 0.066667 0.000000
0.817882 0.025883 0.000941
0.942431 0.000314 0.001412
0.998274 0.002196 0.007059
0.994666 0.001412 0.001255
0.996078 0.000000 0.000031
0.000000 0.196078 0.152941
0.003922 0.192157 0.137255
0.000000 0.182745 0.119216
0.069020 0.185883 0.062745
0.187451 0.181961 0.039216
0.239216 0.180392 0.019608
0.301176 0.177255 0.029020
0.353725 0.176471 0.027451
0.447844 0.189020 0.005490
0.564706 0.192941 0.001569
0.674510 0.184314 0.003922
0.802353 0.164706 0.001569
0.936471 0.084706 0.000000
0.996078 0.000000 0.000000
0.995294 0.001569 0.000000
0.992235 0.003922 0.000000
0.001569 0.243137 0.188235
0.001883 0.242667 0.177098
0.000314 0.238118 0.153569
0.000314 0.238745 0.088941
0.111686 0.239216 0.038902
0.235294 0.228236 0.015686
0.293961 0.231529 0.004863
0.352314 0.224941 0.005490
0.421333 0.223687 0.012392
0.514667 0.239059 0.005333
0.623529 0.250196 0.008628
0.762353 0.253020 0.002039
0.895530 0.234510 0.004706
0.991529 0.166118 0.001569
0.996078 0.049882 0.002196
0.993749 0.000000 0.000031
0.000000 0.312157 0.237647
0.004079 0.311529 0.220078
0.000628 0.304784 0.196863
0.008785 0.301647 0.169255
0.023529 0.301647 0.055529
0.214902 0.293333 0.009412
0.291764 0.292863 0.000471
0.361725 0.288313 0.005804
0.423844 0.285177 0.003294
0.486432 0.282353 0.004392
0.586667 0.300392 0.000000
0.713882 0.316549 0.002196
0.864000 0.325020 0.001882
0.985725 0.294275 0.001255
0.995921 0.227137 0.000627
0.999121 0.086620 0.000016
0.003138 0.384313 0.287843
0.002824 0.387451 0.278431
0.000000 0.383843 0.260235
0.000628 0.385725 0.232628
0.004079 0.386980 0.136471
0.029804 0.378039 0.000000
0.272941 0.370667 0.003608
0.359843 0.366118 0.007686
0.437019 0.368000 0.000157
0.509647 0.358275 0.004392
0.574118 0.360000 0.000000
0.681882 0.374902 0.005961
0.845803 0.399059 0.007529
0.985098 0.388392 0.004392
0.996549 0.347608 0.003137
0.999184 0.271091 0.000078
0.003137 0.466667 0.336470
0.008314 0.457726 0.324706
0.000000 0.460706 0.312470
0.005647 0.461961 0.291137
0.000000 0.463216 0.227451
0.000000 0.469020 0.058039
0.141804 0.456157 0.000941
0.352314 0.450823 0.001255
0.440784 0.442039 0.003765
0.508392 0.451294 0.003451
0.599216 0.448628 0.003922
0.678431 0.447843 0.001569
0.796235 0.458980 0.000000
0.938039 0.467765 0.003138
0.999059 0.441255 0.003451
0.995341 0.391726 0.001592
0.000000 0.564706 0.396078
0.000000 0.553726 0.394510
0.006274 0.563137 0.374118
0.000000 0.560000 0.352157
0.003137 0.563137 0.309020
0.000000 0.560784 0.215686
0.000000 0.565490 0.000000
0.272157 0.554510 0.003138
0.429019 0.548236 0.000000
0.520000 0.544314 0.001569
0.603922 0.552941 0.003922
0.696471 0.542745 0.000000
0.792941 0.538039 0.000000
0.915294 0.541176 0.000000
1.000000 0.523921 0.000000
1.000000 0.482628 0.007765
0.006275 0.698823 0.486274
0.004706 0.687529 0.481569
0.000000 0.694901 0.470745
0.002510 0.688627 0.449411
0.000628 0.691451 0.400000
0.003137 0.698823 0.330980
0.002824 0.705255 0.105255
0.028392 0.692235 0.000000
0.362824 0.682823 0.001883
0.520157 0.682039 0.001882
0.634510 0.665098 0.000000
0.738510 0.668392 0.001412
0.833725 0.658039 0.002824
0.934745 0.629176 0.000314
0.997177 0.606588 0.005020
0.995341 0.580541 0.000055
0.000000 0.825098 0.565490
0.000471 0.819451 0.555294
0.000628 0.819451 0.554196
0.005020 0.818196 0.542902
0.002353 0.824471 0.504157
0.003922 0.821177 0.431373
0.000000 0.826353 0.290980
0.000157 0.832000 0.015373
0.106196 0.816941 0.000941
0.488628 0.804863 0.000314
0.643137 0.800784 0.000000
0.751059 0.787294 0.001726
0.856784 0.772392 0.000628
0.944000 0.725961 0.001255
0.998117 0.684863 0.003138
1.000000 0.659733 0.000031
0.003138 0.909804 0.618824
0.000471 0.916706 0.621176
0.004392 0.911059 0.611294
0.008784 0.907294 0.602510
0.001098 0.914823 0.576314
0.000784 0.921569 0.534902
0.005020 0.922353 0.413333
0.000157 0.921725 0.180392
0.000784 0.921725 0.000314
0.223216 0.908392 0.003451
0.580392 0.898039 0.000000
0.742902 0.883922 0.000471
0.874353 0.877177 0.005020
0.979137 0.845804 0.005647
0.998117 0.785255 0.001883
1.000000 0.738291 0.000000
0.000000 0.983529 0.661960
0.002824 0.989020 0.656000
0.001098 0.982431 0.651451
0.001098 0.989333 0.633255
0.002353 0.988549 0.611137
0.000000 0.985883 0.585882
0.002510 0.987137 0.518745
0.007529 0.992000 0.355764
0.000000 0.992000 0.042667
0.003765 0.978353 0.005647
0.430588 0.968627 0.000000
0.675451 0.959530 0.008941
0.823686 0.952314 0.000627
0.962353 0.939765 0.002510
0.997176 0.888628 0.004549
0.999929 0.814651 0.000031
0.000000 1.000000 0.651255
0.003129 0.998431 0.654918
0.000016 0.999961 0.639404
0.003122 0.999992 0.629867
0.000024 0.998431 0.612549
0.000000 1.000000 0.580470
0.003145 0.999961 0.545145
0.001647 0.998447 0.471576
0.001553 0.998447 0.204031
0.000000 0.996847 0.002377
0.002824 0.999922 0.003883
0.511898 0.997459 0.003129
0.729333 0.991208 0.009334
0.882871 0.984871 0.000016
0.993012 0.964321 0.000078
0.992313 0.913452 0.000001
0.069804 0.054902 0.070588
0.096941 0.057725 0.061647
0.136784 0.050039 0.054117
0.180079 0.038745 0.050980
0.225882 0.027765 0.045490
0.292549 0.010980 0.034510
0.367529 0.000000 0.035608
0.445804 0.002039 0.025255
0.539922 0.003922 0.017725
0.637333 0.000000 0.007529
0.734118 0.002353 0.000000
0.854275 0.001882 0.004706
0.967686 0.000471 0.004392
0.996549 0.000471 0.000627
0.996078 0.000000 0.001255
0.996078 0.000000 0.003137
0.054118 0.062118 0.077647
0.086431 0.074415 0.070996
0.123545 0.069396 0.064188
0.170479 0.064753 0.051514
0.224941 0.055969 0.053396
0.283137 0.039687 0.048785
0.363859 0.010918 0.032910
0.448565 0.003984 0.022933
0.545569 0.001726 0.014776
0.637396 0.003859 0.003890
0.744941 0.002981 0.002667
0.859482 0.002353 0.003012
0.970917 0.000188 0.000565
0.997521 0.001443 0.002824
0.996078 0.000565 0.002447
0.996078 0.000932 0.005609
0.046745 0.080314 0.083294
0.071655 0.092737 0.078431
0.116361 0.095059 0.064847
0.155388 0.086400 0.058698
0.208627 0.084079 0.052424
0.271373 0.078745 0.044549
0.357804 0.055216 0.035545
0.441631 0.023467 0.029177
0.536502 0.004769 0.011984
0.637082 0.000188 0.001757
0.748079 0.003138 0.001883
0.856282 0.001632 0.001255
0.960722 0.002102 0.002134
0.997615 0.004737 0.003138
0.996486 0.000910 0.001035
0.995926 0.000326 0.001882
0.012863 0.106667 0.098980
0.037145 0.117710 0.101271
0.087122 0.118275 0.083169
0.149741 0.114133 0.066980
0.187169 0.110682 0.057569
0.249412 0.107608 0.055216
0.326055 0.106039 0.038055
0.417788 0.095122 0.024157
0.514667 0.067389 0.013992
0.609726 0.031310 0.002510
0.716706 0.002510 0.005647
0.835827 0.000878 0.000000
0.957835 0.002228 0.000753
0.994729 0.000345 0.002259
0.997615 0.003043 0.003922
0.995926 0.001594 0.005653
0.000941 0.150118 0.130039
0.002290 0.159530 0.123451
0.034322 0.156204 0.097129
0.127436 0.148423 0.070776
0.188047 0.146886 0.058886
0.236706 0.137412 0.057255
0.303561 0.139859 0.048941
0.387608 0.146071 0.031435
0.488000 0.142557 0.009977
0.586698 0.129380 0.005365
0.704000 0.102275 0.003765
0.823749 0.043608 0.000377
0.951843 0.000941 0.002635
0.996266 0.000690 0.000878
0.996706 0.000628 0.003671
0.998423 0.002345 0.004221
0.000000 0.193725 0.155294
0.003294 0.200157 0.166431
0.000000 0.205490 0.137725
0.033255 0.201098 0.080000
0.184000 0.191529 0.058353
0.250196 0.189020 0.044706
0.302274 0.182118 0.039373
0.353882 0.185569 0.033883
0.459294 0.197490 0.013177
0.564549 0.201883 0.000941
0.670588 0.196863 0.002353
0.799373 0.178039 0.000000
0.926274 0.111530 0.000471
0.992156 0.008628 0.004235
0.997647 0.002510 0.005647
0.994541 0.000039 0.000118
0.000941 0.253177 0.212863
0.001318 0.252329 0.191059
0.002384 0.256439 0.172988
0.000878 0.250918 0.125679
0.104784 0.247090 0.055341
0.240941 0.239216 0.031059
0.303561 0.236298 0.011294
0.364894 0.231373 0.005647
0.429522 0.230243 0.010039
0.517020 0.242071 0.003576
0.631059 0.255373 0.000941
0.760125 0.259639 0.003012
0.892737 0.244455 0.002071
0.991749 0.180204 0.004831
0.997866 0.050918 0.004361
0.999029 0.002965 0.006709
0.003765 0.318902 0.242510
0.004643 0.317459 0.243137
0.003012 0.316580 0.217851
0.002886 0.314573 0.184345
0.004706 0.314227 0.089349
0.209569 0.304941 0.015059
0.301019 0.297318 0.000408
0.364486 0.297380 0.000251
0.431749 0.290227 0.001632
0.497945 0.292424 0.002071
0.590274 0.305255 0.002353
0.724486 0.326965 0.002635
0.881035 0.328815 0.000063
0.989208 0.302337 0.002949
0.998745 0.234761 0.000816
0.993446 0.100008 0.004510
0.003765 0.399843 0.304000
0.002385 0.397396 0.292957
0.002008 0.397145 0.272565
0.002886 0.396141 0.244078
0.000941 0.394165 0.170541
0.029490 0.393412 0.003765
0.278180 0.380141 0.003169
0.370133 0.372800 0.000251
0.448439 0.372675 0.005145
0.513757 0.370604 0.001067
0.586510 0.366118 0.002353
0.682949 0.380675 0.001882
0.828204 0.398337 0.001569
0.969004 0.386918 0.003953
1.000000 0.346070 0.001569
0.995962 0.281398 0.004510
0.000628 0.474667 0.341961
0.003200 0.476831 0.345286
0.001130 0.476330 0.329443
0.000377 0.479467 0.305349
0.001412 0.477145 0.252988
0.006588 0.478745 0.102274
0.119153 0.473726 0.005302
0.360816 0.462620 0.002573
0.439749 0.453585 0.004078
0.518055 0.456941 0.001757
0.593882 0.446275 0.004236
0.674290 0.444988 0.001412
0.781051 0.456220 0.002008
0.930384 0.462243 0.004016
0.998337 0.441004 0.000847
0.996252 0.391423 0.002174
0.000000 0.582745 0.418039
0.000000 0.579137 0.414118
0.000471 0.574588 0.398118
0.003608 0.573333 0.377412
0.000941 0.575059 0.327529
0.001569 0.575686 0.241568
0.002824 0.577255 0.041883
0.244863 0.568627 0.001255
0.434980 0.563608 0.003765
0.523922 0.552941 0.001569
0.626667 0.567843 0.002353
0.710745 0.554353 0.001412
0.809882 0.548549 0.001726
0.927215 0.543529 0.006745
1.000000 0.528627 0.002196
0.998447 0.486534 0.010126
0.000941 0.710745 0.496941
0.004518 0.709427 0.497851
0.002008 0.705443 0.486368
0.000879 0.704439 0.462651
0.000753 0.709427 0.424376
0.000000 0.710274 0.344314
0.001130 0.716925 0.150337
0.028173 0.708800 0.001945
0.358212 0.701019 0.002196
0.525647 0.690416 0.001694
0.632784 0.677804 0.002823
0.736972 0.673631 0.001694
0.824941 0.643231 0.001129
0.918431 0.622400 0.001129
0.994259 0.605616 0.001380
0.998988 0.576881 0.002364
0.000000 0.822588 0.583686
0.001255 0.834071 0.582620
0.002133 0.831875 0.578384
0.000753 0.830996 0.567090
0.002165 0.836423 0.525992
0.001726 0.841255 0.452235
0.001757 0.840878 0.317176
0.002196 0.838839 0.025506
0.058918 0.823404 0.001286
0.473757 0.809882 0.000847
0.622588 0.791686 0.000314
0.738102 0.775874 0.002384
0.846776 0.761506 0.002447
0.930227 0.718714 0.000690
0.991404 0.681129 0.000126
0.998270 0.653167 0.000003
0.001255 0.925490 0.640784
0.004392 0.921913 0.637584
0.002008 0.921600 0.636988
0.002134 0.922227 0.621679
0.003671 0.924894 0.600659
0.002980 0.925333 0.543843
0.002384 0.927843 0.439153
0.003326 0.928816 0.216125
0.000314 0.927937 0.002667
0.212989 0.915671 0.002353
0.583686 0.902118 0.000314
0.737600 0.891576 0.001882
0.871749 0.886745 0.000439
0.984314 0.840941 0.000188
0.997553 0.787169 0.000879
0.993313 0.735507 0.000003
0.002824 0.988235 0.679686
0.002635 0.988706 0.675765
0.001757 0.988706 0.663090
0.004518 0.986071 0.651043
0.002039 0.988141 0.632439
0.003294 0.991372 0.603137
0.001569 0.992690 0.532612
0.001380 0.989804 0.374933
0.001129 0.993945 0.050039
0.001569 0.984565 0.001694
0.412706 0.972549 0.001882
0.672219 0.962886 0.002510
0.817600 0.952659 0.004204
0.961663 0.937475 0.002698
0.997365 0.888471 0.003765
0.997647 0.816583 0.000042
0.003129 0.998447 0.662957
0.003416 0.997661 0.664748
0.001894 0.999981 0.652822
0.000024 0.999981 0.637764
0.004689 0.998122 0.622863
0.001577 0.998431 0.582973
0.000025 0.999062 0.555134
0.001559 0.999997 0.490195
0.002814 0.998754 0.240594
0.002505 0.997661 0.003431
0.004894 0.998361 0.002377
0.503457 0.999211 0.004665
0.717807 0.995346 0.002882
0.877098 0.983437 0.002825
0.994381 0.963529 0.003610
0.999953 0.906565 0.000031
0.072941 0.058824 0.090196
0.099921 0.067608 0.093177
0.132863 0.060236 0.084078
0.189333 0.048314 0.079686
0.237804 0.037020 0.060079
0.286275 0.025882 0.042353
0.359686 0.011922 0.045177
0.445020 0.001412 0.019294
0.533490 0.000784 0.008000
0.633255 0.000000 0.002510
0.749019 0.000784 0.009412
0.857255 0.000000 0.004706
0.966745 0.000784 0.000157
0.995608 0.000157 0.000784
0.995921 0.000784 0.002824
0.996086 0.000008 0.000071
0.063686 0.071215 0.096000
0.091012 0.075482 0.096784
0.131388 0.079498 0.085051
0.176690 0.071090 0.079404
0.226447 0.064188 0.066573
0.285334 0.054902 0.060392
0.361286 0.047247 0.041914
0.446431 0.017004 0.027545
0.538039 0.001820 0.006212
0.638557 0.000000 0.002008
0.746824 0.002039 0.001726
0.857882 0.000753 0.000251
0.969819 0.001098 0.001475
0.996172 0.001349 0.001475
0.995451 0.000126 0.001757
0.997926 0.000003 0.009983
0.053019 0.083137 0.100549
0.082384 0.086933 0.094243
0.115608 0.099169 0.101459
0.159655 0.099169 0.085898
0.221083 0.091294 0.076737
0.276392 0.088000 0.069647
0.350149 0.082039 0.040282
0.444173 0.064063 0.029365
0.533772 0.029051 0.002635
0.628455 0.006118 0.002133
0.725019 0.000000 0.000157
0.835890 0.000000 0.002824
0.946102 0.001129 0.000345
0.996298 0.001255 0.004737
0.996204 0.000628 0.005898
0.996693 0.000628 0.000684
0.041098 0.093177 0.107451
0.060298 0.105004 0.112188
0.081098 0.123388 0.107608
0.148235 0.119874 0.089035
0.197867 0.117020 0.088910
0.252549 0.111843 0.075294
0.327812 0.115420 0.048565
0.412423 0.113882 0.035514
0.504533 0.102965 0.009286
0.600847 0.074008 0.002887
0.704941 0.014431 0.000157
0.827357 0.003263 0.001192
0.945976 0.001004 0.003357
0.996674 0.001130 0.002228
0.996329 0.001757 0.004267
0.996668 0.000628 0.000671
0.006118 0.129883 0.141020
0.008973 0.140581 0.136314
0.030996 0.161286 0.132486
0.115451 0.157898 0.089067
0.190118 0.153474 0.080627
0.238902 0.141333 0.078118
0.310996 0.145914 0.066290
0.391435 0.155451 0.037334
0.481412 0.158588 0.006965
0.585851 0.152596 0.002447
0.693020 0.133961 0.000000
0.822996 0.073475 0.001820
0.948894 0.012926 0.001067
0.996580 0.000628 0.003576
0.995074 0.001129 0.003137
0.994218 0.001892 0.003118
0.003922 0.180392 0.181961
0.004392 0.191686 0.167843
0.000000 0.210980 0.167372
0.010667 0.208471 0.112784
0.176314 0.200784 0.086745
0.247843 0.196078 0.065098
0.307451 0.190275 0.068863
0.363765 0.192784 0.054118
0.459137 0.204706 0.009569
0.561726 0.211765 0.001098
0.665883 0.210196 0.000000
0.781176 0.194980 0.000314
0.902902 0.144471 0.000000
0.990118 0.022745 0.000000
0.996078 0.000000 0.000000
0.995302 0.000777 0.000000
0.001255 0.240784 0.211137
0.001098 0.249600 0.211263
0.000753 0.258604 0.196800
0.000000 0.261114 0.163670
0.071969 0.260423 0.088596
0.245804 0.247059 0.059294
0.307106 0.241412 0.041945
0.368910 0.236549 0.028894
0.430275 0.239435 0.013459
0.510400 0.250792 0.005647
0.626824 0.259451 0.000000
0.750463 0.267765 0.002761
0.888094 0.254212 0.004016
0.990243 0.201255 0.002008
0.997490 0.067984 0.000878
0.997801 0.001900 0.001730
0.000628 0.316706 0.263373
0.002416 0.320627 0.260957
0.001129 0.319968 0.245647
0.002134 0.323231 0.218165
0.000596 0.322854 0.132329
0.173804 0.318902 0.043294
0.297537 0.305820 0.021647
0.371922 0.306792 0.003514
0.438432 0.301271 0.002259
0.496596 0.296565 0.002133
0.591686 0.314824 0.007529
0.723545 0.335404 0.004016
0.875012 0.342212 0.002573
0.985945 0.314980 0.001067
0.999592 0.244612 0.000973
0.999992 0.122132 0.003119
0.003138 0.398275 0.317334
0.000659 0.403953 0.309647
0.000628 0.400659 0.296973
0.002636 0.402416 0.270494
0.002980 0.403922 0.211639
0.005020 0.401726 0.026980
0.262274 0.391278 0.006589
0.374055 0.381835 0.007153
0.445584 0.383843 0.001882
0.520565 0.378510 0.004141
0.590431 0.370667 0.011294
0.679247 0.381584 0.000251
0.824188 0.401067 0.004455
0.962729 0.388392 0.006463
0.997333 0.355670 0.003231
0.994383 0.286744 0.006883
0.004706 0.473412 0.363765
0.002541 0.482447 0.365647
0.000063 0.486808 0.347576
0.002071 0.484172 0.323106
0.003075 0.486933 0.282604
0.000000 0.489725 0.174745
0.091953 0.482886 0.004016
0.349082 0.467137 0.002384
0.438933 0.456973 0.007655
0.517522 0.457130 0.001726
0.596392 0.451138 0.003765
0.674855 0.447153 0.005145
0.775215 0.457318 0.000251
0.927059 0.463843 0.003514
0.998180 0.440910 0.007655
0.999056 0.388336 0.000069
0.000000 0.582745 0.429020
0.002510 0.577569 0.428863
0.000314 0.582118 0.413804
0.002824 0.579608 0.384314
0.008157 0.579608 0.355294
0.000784 0.581176 0.267451
0.000000 0.588235 0.071373
0.182745 0.571137 0.003138
0.428706 0.568000 0.001255
0.526588 0.563608 0.002510
0.618039 0.571765 0.007059
0.712470 0.557961 0.000000
0.808000 0.548863 0.001255
0.926588 0.550745 0.003765
0.999529 0.531451 0.001412
1.000000 0.492063 0.003106
0.000000 0.714980 0.528941
0.001475 0.716329 0.518745
0.001882 0.711968 0.512251
0.000753 0.710463 0.481631
0.000690 0.715075 0.442133
0.000471 0.719059 0.379294
0.001443 0.721129 0.204957
0.024502 0.718494 0.000753
0.338604 0.701678 0.003388
0.524486 0.696345 0.001820
0.632314 0.679373 0.001569
0.741082 0.676392 0.002071
0.824816 0.652267 0.004235
0.920439 0.625161 0.003357
0.995482 0.606243 0.001506
0.996894 0.581947 0.004513
0.000784 0.827608 0.602039
0.003074 0.834949 0.603890
0.000157 0.839686 0.602102
0.004173 0.837177 0.588549
0.001067 0.840533 0.549866
0.000628 0.843137 0.482353
0.005867 0.845710 0.360659
0.000753 0.840659 0.052298
0.002761 0.828612 0.001098
0.461898 0.809035 0.000251
0.619765 0.798118 0.000784
0.737474 0.776533 0.002761
0.847561 0.763169 0.002667
0.931388 0.718494 0.006180
0.992627 0.679372 0.000251
0.992980 0.661226 0.003112
0.003294 0.925490 0.666039
0.001569 0.925176 0.663373
0.003169 0.921255 0.651169
0.000157 0.921255 0.638620
0.002824 0.924360 0.621773
0.003138 0.928470 0.567059
0.003231 0.926526 0.467451
0.001631 0.928502 0.255090
0.001129 0.931012 0.005616
0.193726 0.913443 0.000628
0.581491 0.902274 0.005176
0.739231 0.893239 0.001882
0.871153 0.884643 0.001161
0.981082 0.850008 0.000157
0.994635 0.787796 0.001506
0.998527 0.736125 0.005628
0.003608 0.989804 0.699294
0.000565 0.989333 0.694682
0.003514 0.988894 0.680753
0.003514 0.988894 0.676235
0.001192 0.987106 0.650447
0.007687 0.989647 0.623215
0.000376 0.993882 0.561788
0.003702 0.990212 0.409161
0.003326 0.993725 0.073726
0.001035 0.986729 0.000000
0.362980 0.975529 0.000784
0.667545 0.965114 0.004518
0.818949 0.953506 0.006745
0.960000 0.938698 0.004235
0.998117 0.888157 0.003671
0.995962 0.814307 0.000056
0.000031 0.999992 0.689530
0.002485 0.997804 0.682664
0.000634 0.999379 0.676155
0.003119 0.999379 0.656202
0.003752 0.999981 0.639294
0.003145 0.999223 0.613475
0.000009 0.999068 0.569713
0.000648 1.000000 0.512822
0.001269 0.996248 0.293772
0.000311 0.998757 0.002174
0.002228 1.000000 0.000008
0.493549 0.999871 0.000348
0.720671 0.994753 0.004675
0.868744 0.985931 0.003483
0.992527 0.967075 0.002485
0.999223 0.906596 0.003906
0.076079 0.068235 0.127843
0.105569 0.068863 0.123922
0.134118 0.075921 0.112314
0.175529 0.069020 0.112941
0.239059 0.050196 0.100235
0.305098 0.016470 0.092549
0.372235 0.001882 0.056471
0.442510 0.001412 0.042510
0.525961 0.003294 0.021177
0.621961 0.000000 0.000000
0.733333 0.000784 0.003137
0.837804 0.006274 0.001569
0.961725 0.003294 0.000157
0.995608 0.000157 0.000784
0.997804 0.002667 0.002196
0.999192 0.000008 0.012431
0.062431 0.072470 0.131765
0.092016 0.081381 0.135184
0.129004 0.086525 0.120314
0.179325 0.084141 0.115670
0.233976 0.066196 0.106604
0.305412 0.040471 0.089255
0.374965 0.023278 0.067263
0.449945 0.020769 0.049130
0.526996 0.018133 0.016251
0.623749 0.007906 0.005145
0.734902 0.000784 0.007373
0.849725 0.001130 0.006023
0.965678 0.000471 0.001098
0.998055 0.003232 0.001600
0.997835 0.001757 0.001130
0.993609 0.000016 0.004969
0.052392 0.083765 0.135059
0.076110 0.090698 0.137663
0.112596 0.098416 0.126682
0.171200 0.107451 0.119153
0.226604 0.093428 0.103843
0.295216 0.078588 0.090981
0.367341 0.070243 0.076424
0.441286 0.069835 0.049945
0.523357 0.071467 0.018698
0.619169 0.049663 0.003765
0.725647 0.006902 0.000157
0.852455 0.000000 0.002698
0.956016 0.000125 0.000220
0.996674 0.001255 0.006620
0.996831 0.000753 0.001255
0.996078 0.000000 0.000013
0.037961 0.098824 0.139451
0.062055 0.101239 0.136533
0.091639 0.110588 0.128313
0.147232 0.128157 0.117773
0.203388 0.124172 0.115514
0.263843 0.117491 0.099137
0.342494 0.111153 0.083200
0.414557 0.119655 0.062118
0.499137 0.117270 0.027357
0.597082 0.119561 0.001506
0.700549 0.084078 0.000157
0.824847 0.017318 0.002573
0.942337 0.000000 0.006243
0.995545 0.003138 0.003106
0.995953 0.001381 0.001129
0.996103 0.000025 0.000000
0.013647 0.119216 0.157333
0.023529 0.124894 0.150243
0.054714 0.139953 0.146039
0.092988 0.162667 0.134745
0.190871 0.162008 0.114133
0.248941 0.154510 0.109490
0.318525 0.156706 0.096533
0.403106 0.157710 0.072722
0.483043 0.161851 0.037333
0.570918 0.173302 0.000188
0.681726 0.164706 0.000000
0.817851 0.129820 0.000314
0.937098 0.041286 0.003827
0.993819 0.000879 0.002322
0.996204 0.000125 0.004141
0.996081 0.003730 0.002485
0.000784 0.164706 0.194510
0.001255 0.164706 0.183529
0.000000 0.178353 0.178039
0.000628 0.213490 0.176157
0.151843 0.211451 0.128784
0.244706 0.199216 0.109019
0.309961 0.198431 0.104000
0.374432 0.200314 0.089883
0.462275 0.209726 0.042824
0.558588 0.222431 0.006745
0.672157 0.229020 0.009412
0.795608 0.222588 0.000314
0.927372 0.177725 0.003138
0.997019 0.050980 0.000628
0.997961 0.001883 0.001883
0.998408 0.000777 0.012423
0.003765 0.210666 0.224314
0.001349 0.223624 0.220926
0.001757 0.243796 0.220643
0.000000 0.264878 0.211106
0.031310 0.268706 0.148204
0.242667 0.258353 0.101961
0.311498 0.251953 0.086243
0.372800 0.244455 0.073318
0.436675 0.243827 0.061898
0.523451 0.258698 0.018447
0.626824 0.273882 0.002510
0.752847 0.285208 0.002887
0.893616 0.272784 0.001004
0.987231 0.222839 0.000000
0.999247 0.105757 0.003890
0.997826 0.002270 0.004215
0.000628 0.287216 0.269647
0.004424 0.296031 0.274510
0.002008 0.313066 0.264095
0.000000 0.332392 0.250667
0.001600 0.336408 0.199843
0.106667 0.329569 0.091608
0.295906 0.315984 0.076863
0.378949 0.311184 0.042918
