example_ofxGpuLutCube/bin/data/ofxGpuLutCube/LUT/U24 (soft B&W).cube
LUT_3D_SIZE 16
0.000000 0.000000 0.000000
0.009528 0.009528 0.009528
0.021608 0.021608 0.021608
0.039508 0.039508 0.039508
0.061464 0.061464 0.061464
0.084900 0.084900 0.084900
0.110150 0.110150 0.110150
0.137608 0.137608 0.137608
0.167828 0.167822 0.167812
0.202118 0.201514 0.200842
0.241628 0.239176 0.236674
0.285557 0.280105 0.274516
0.332147 0.322730 0.313141
0.379521 0.365655 0.351638
0.425924 0.407576 0.389168
0.469677 0.447357 0.424974
0.007774 0.007774 0.007774
0.018850 0.018850 0.018850
0.035377 0.035377 0.035377
0.056840 0.056840 0.056840
0.080169 0.080169 0.080169
0.105028 0.105028 0.105028
0.132007 0.132007 0.132007
0.161669 0.161669 0.161665
0.194947 0.194582 0.194066
0.233438 0.231483 0.229391
0.276632 0.271764 0.266920
0.322767 0.314158 0.305430
0.370041 0.357067 0.343963
0.416681 0.399236 0.381636
0.461215 0.439716 0.418027
0.502331 0.477470 0.452444
0.016172 0.016172 0.016172
0.031765 0.031765 0.031765
0.052517 0.052517 0.052517
0.075317 0.075317 0.075317
0.099907 0.099907 0.099907
0.126499 0.126499 0.126499
0.155530 0.155530 0.155524
0.187949 0.187720 0.187412
0.225310 0.223786 0.222139
0.267671 0.263502 0.259254
0.313332 0.305545 0.297646
0.360582 0.348485 0.336283
0.407476 0.390882 0.374196
0.452444 0.431712 0.410833
0.494427 0.470187 0.445782
0.533890 0.506908 0.479006
0.027796 0.027796 0.027796
0.048041 0.048041 0.048041
0.070613 0.070613 0.070613
0.094864 0.094864 0.094864
0.121002 0.121002 0.121002
0.149555 0.149555 0.149555
0.181245 0.181106 0.180888
0.217535 0.216351 0.215038
0.258933 0.255363 0.251724
0.304060 0.297073 0.289977
0.351115 0.339909 0.328601
0.398184 0.382519 0.366698
0.443631 0.423695 0.403607
0.486274 0.462671 0.438913
0.526210 0.499722 0.472570
0.567059 0.538049 0.504558
0.043636 0.043636 0.043636
0.066051 0.066051 0.066051
0.089845 0.089845 0.089845
0.115622 0.115622 0.115622
0.143699 0.143699 0.143699
0.174653 0.174562 0.174429
0.209985 0.209052 0.208040
0.250387 0.247381 0.244263
0.294856 0.288599 0.282251
0.341653 0.331302 0.320881
0.388840 0.374038 0.359141
0.434698 0.415584 0.396333
0.477921 0.455019 0.431947
0.518292 0.492362 0.465963
0.558928 0.530381 0.498359
0.601044 0.570158 0.529198
0.061513 0.061513 0.061513
0.084949 0.084949 0.084949
0.110256 0.110256 0.110256
0.137840 0.137840 0.137840
0.168138 0.168106 0.168046
0.202599 0.201918 0.201172
0.242023 0.239508 0.236881
0.285787 0.280247 0.274616
0.332195 0.322734 0.313146
0.379431 0.365556 0.351536
0.425689 0.407400 0.388997
0.469524 0.447323 0.424958
0.510357 0.484975 0.459257
0.550687 0.522661 0.491988
0.592763 0.562320 0.523242
0.635015 0.602665 0.553306
0.080084 0.080084 0.080084
0.105084 0.105084 0.105084
0.132068 0.132068 0.132068
0.161790 0.161780 0.161758
0.195239 0.194787 0.194267
0.233742 0.231700 0.229551
0.276731 0.271918 0.266958
0.322839 0.314183 0.305440
0.370000 0.357035 0.343931
0.416568 0.399159 0.381603
0.460966 0.439504 0.417871
0.502384 0.477567 0.452520
0.542494 0.514964 0.485545
0.584283 0.554294 0.517074
0.626743 0.594731 0.547464
0.668294 0.635058 0.577210
0.099890 0.099890 0.099890
0.126500 0.126500 0.126500
0.155564 0.155564 0.155564
0.188096 0.187810 0.187501
0.225598 0.223964 0.222267
0.267870 0.263672 0.259362
0.313504 0.305669 0.297722
0.360620 0.348515 0.336303
0.407430 0.390870 0.374179
0.452335 0.431634 0.410751
0.494317 0.470116 0.445733
0.534435 0.507428 0.479095
0.575816 0.546315 0.510870
0.618295 0.586658 0.541459
0.660243 0.627197 0.571396
0.700652 0.667149 0.601364
0.121082 0.121082 0.121082
0.149588 0.149588 0.149587
0.181155 0.181028 0.180838
0.217616 0.216374 0.215080
0.259031 0.255442 0.251781
0.304213 0.297148 0.290027
0.351129 0.339945 0.328615
0.398164 0.382502 0.366694
0.443552 0.423598 0.403541
0.486099 0.462564 0.438827
0.526400 0.499928 0.472495
0.567429 0.538372 0.504621
0.609786 0.578518 0.535382
0.651937 0.619117 0.565434
0.692807 0.659350 0.595438
0.731749 0.698567 0.625875
0.143738 0.143738 0.143738
0.174670 0.174623 0.174561
0.209952 0.209042 0.208054
0.250449 0.247455 0.244337
0.294971 0.288695 0.282319
0.341722 0.331382 0.320925
0.388834 0.374081 0.359153
0.434712 0.415590 0.396341
0.477867 0.454965 0.431936
0.518411 0.492473 0.465882
0.559092 0.530562 0.498291
0.601273 0.570446 0.529299
0.643526 0.611004 0.559467
0.684748 0.651357 0.589456
0.724218 0.690947 0.619911
0.761424 0.729119 0.650837
0.168193 0.168172 0.168162
0.202611 0.202053 0.201356
0.241944 0.239514 0.236954
0.285879 0.280347 0.274691
0.332331 0.322851 0.313236
0.379547 0.365628 0.351607
0.425753 0.407450 0.389024
0.469575 0.447343 0.424987
0.510415 0.485050 0.459259
0.550816 0.522762 0.491951
0.592811 0.562415 0.523200
0.635142 0.602922 0.553471
0.676577 0.643303 0.583448
0.716435 0.683095 0.613772
0.754243 0.721721 0.644757
0.789511 0.758516 0.676121
0.195335 0.194934 0.194566
0.233855 0.231893 0.229853
0.276903 0.272056 0.267158
0.322999 0.314330 0.305593
0.370197 0.357182 0.344069
0.416735 0.399293 0.381723
0.461072 0.439594 0.417940
0.502447 0.477647 0.452597
0.542575 0.515033 0.485580
0.584336 0.554360 0.517074
0.626714 0.594795 0.547470
0.668410 0.635282 0.577465
0.708583 0.675199 0.607684
0.746826 0.714117 0.638530
0.782747 0.751418 0.669977
0.816005 0.786639 0.701643
0.225744 0.224164 0.222589
0.268291 0.264104 0.259853
0.313763 0.305937 0.298029
0.360861 0.348761 0.336499
0.407633 0.391058 0.374342
0.452504 0.431771 0.410885
0.494416 0.470204 0.445799
0.534465 0.507431 0.479167
0.575873 0.546359 0.510894
0.618308 0.586704 0.541462
0.660195 0.627240 0.571464
0.700693 0.667291 0.601606
0.739313 0.706409 0.632313
0.775735 0.744067 0.663664
0.809643 0.779864 0.695448
0.840860 0.813370 0.727358
0.259662 0.256101 0.252519
0.304998 0.298002 0.290831
0.351555 0.340330 0.328970
0.398508 0.382797 0.366983
0.443851 0.423911 0.403787
0.486360 0.462776 0.439023
0.526393 0.499913 0.472643
0.567493 0.538439 0.504722
0.609881 0.578614 0.535465
0.651956 0.619167 0.565489
0.692793 0.659372 0.595535
0.731839 0.698736 0.626136
0.768667 0.736712 0.657358
0.803037 0.772864 0.689088
0.834908 0.806958 0.721099
0.864151 0.838672 0.753044
0.295992 0.289709 0.283313
0.342720 0.332337 0.321809
0.389440 0.374572 0.359647
0.435132 0.415957 0.396633
0.478298 0.455314 0.432197
0.518490 0.492511 0.466132
0.559088 0.530527 0.498464
0.601431 0.570538 0.529437
0.643664 0.611083 0.559522
0.684851 0.651420 0.589478
0.724245 0.691000 0.619955
0.761505 0.729279 0.651067
0.796403 0.765828 0.682695
0.828766 0.800321 0.714692
0.858573 0.832593 0.746791
0.886038 0.862646 0.778790
0.333955 0.324298 0.314640
0.380730 0.366798 0.352679
0.426340 0.407974 0.389473
0.469986 0.447704 0.425299
0.510519 0.485097 0.459441
0.550678 0.522633 0.492097
0.592779 0.562331 0.523254
0.635209 0.602916 0.553484
0.676645 0.643340 0.583379
0.716460 0.683091 0.613704
0.754225 0.721679 0.644689
0.789576 0.758610 0.676234
0.822414 0.793517 0.708156
0.852742 0.826253 0.740282
0.880760 0.856789 0.772409
0.906645 0.885442 0.804567
0.002029 0.002029 0.002029
0.011694 0.011694 0.011694
0.024678 0.024678 0.024678
0.043686 0.043686 0.043686
0.066001 0.066001 0.066001
0.089771 0.089771 0.089771
0.115470 0.115470 0.115470
0.143476 0.143476 0.143476
0.174278 0.174237 0.174187
0.209604 0.208740 0.207830
0.250113 0.247199 0.244152
0.294734 0.288538 0.282243
0.341665 0.331343 0.320915
0.388983 0.374173 0.359243
0.434949 0.415783 0.396485
0.478105 0.455125 0.431969
0.009572 0.009572 0.009572
0.021744 0.021744 0.021744
0.039618 0.039618 0.039618
0.061472 0.061472 0.061472
0.084969 0.084969 0.084969
0.110245 0.110245 0.110245
0.137730 0.137730 0.137730
0.167954 0.167946 0.167906
0.202216 0.201678 0.200952
0.241721 0.239271 0.236753
0.285689 0.280187 0.274587
0.332272 0.322786 0.313215
0.379499 0.365632 0.351622
0.425820 0.407495 0.389062
0.469773 0.447479 0.425086
0.510201 0.484792 0.459191
0.018725 0.018725 0.018725
0.035402 0.035402 0.035402
0.056876 0.056876 0.056876
0.080060 0.080060 0.080060
0.105061 0.105061 0.105061
0.132103 0.132103 0.132103
0.161715 0.161708 0.161691
0.195064 0.194650 0.194167
0.233468 0.231505 0.229425
0.276655 0.271785 0.266893
0.322765 0.314136 0.305419
0.370000 0.357056 0.343945
0.416656 0.399235 0.381654
0.461108 0.439579 0.417946
0.502434 0.477600 0.452574
0.542071 0.514565 0.485479
0.031403 0.031403 0.031403
0.052526 0.052526 0.052526
0.075366 0.075366 0.075366
0.099955 0.099955 0.099955
0.126549 0.126549 0.126549
0.155648 0.155639 0.155638
0.188128 0.187847 0.187504
0.225505 0.223921 0.222215
0.267754 0.263574 0.259293
0.313429 0.305620 0.297703
0.360625 0.348504 0.336301
0.407472 0.390899 0.374217
0.452425 0.431681 0.410799
0.494382 0.470170 0.445767
0.534258 0.507261 0.479136
0.575551 0.546005 0.510781
0.047978 0.047978 0.047978
0.070758 0.070758 0.070758
0.094847 0.094847 0.094847
0.121048 0.121048 0.121048
0.149623 0.149623 0.149623
0.181363 0.181203 0.180955
0.217699 0.216460 0.215099
0.259047 0.255447 0.251776
0.304133 0.297103 0.289984
0.351129 0.339931 0.328594
0.398155 0.382482 0.366678
0.443595 0.423660 0.403574
0.486197 0.462612 0.438875
0.526289 0.499803 0.472572
0.567334 0.538299 0.504654
0.609576 0.578290 0.535276
0.065961 0.065961 0.065961
0.089861 0.089861 0.089861
0.115610 0.115610 0.115610
0.143699 0.143699 0.143699
0.174714 0.174608 0.174463
0.210117 0.209184 0.208116
0.250507 0.247475 0.244319
0.294944 0.288682 0.282295
0.341686 0.331343 0.320899
0.388842 0.374063 0.359157
0.434680 0.415567 0.396308
0.477908 0.455002 0.431946
0.518349 0.492397 0.465934
0.559016 0.530464 0.498369
0.601275 0.570413 0.529340
0.643378 0.610817 0.559306
0.084935 0.084935 0.084935
0.110260 0.110260 0.110260
0.137824 0.137824 0.137824
0.168172 0.168119 0.168075
0.202540 0.201877 0.201152
0.242080 0.239561 0.236932
0.285870 0.280285 0.274614
0.332286 0.322767 0.313177
0.379464 0.365565 0.351573
0.425671 0.407391 0.389004
0.469469 0.447293 0.424932
0.510376 0.485002 0.459262
0.550732 0.522692 0.491975
0.592795 0.562363 0.523233
0.635188 0.602887 0.553471
0.676521 0.643135 0.583245
0.105071 0.105071 0.105071
0.132158 0.132158 0.132158
0.161776 0.161765 0.161750
0.195225 0.194789 0.194267
0.233716 0.231691 0.229560
0.276824 0.271951 0.267015
0.322852 0.314217 0.305468
0.370064 0.357099 0.343963
0.416628 0.399190 0.381654
0.460975 0.439530 0.417890
0.502386 0.477587 0.452545
0.542559 0.515047 0.485566
0.584301 0.554330 0.517076
0.626768 0.594812 0.547493
0.668496 0.635299 0.577409
0.708571 0.675065 0.607452
0.126486 0.126486 0.126486
0.155720 0.155719 0.155718
0.188074 0.187814 0.187515
0.225607 0.224002 0.222312
0.267864 0.263660 0.259387
0.313485 0.305654 0.297727
0.360640 0.348526 0.336299
0.407459 0.390893 0.374206
0.452304 0.431602 0.410742
0.494284 0.470107 0.445712
0.534469 0.507467 0.479063
0.575850 0.546348 0.510867
0.618275 0.586658 0.541440
0.660225 0.627216 0.571432
0.700793 0.667304 0.601522
0.739318 0.706355 0.632094
0.149543 0.149543 0.149543
0.181270 0.181167 0.181008
0.217681 0.216447 0.215138
0.259113 0.255535 0.251867
0.304209 0.297194 0.290056
0.351228 0.339994 0.328642
0.398191 0.382512 0.366727
0.443617 0.423689 0.403614
0.486154 0.462598 0.438859
0.526472 0.499999 0.472493
0.567462 0.538436 0.504602
0.609795 0.578581 0.535392
0.651901 0.619123 0.565464
0.692778 0.659346 0.595510
0.731859 0.698752 0.626089
0.768608 0.736605 0.657153
0.174631 0.174594 0.174528
0.210153 0.209309 0.208379
0.250470 0.247476 0.244388
0.295031 0.288745 0.282418
0.341785 0.331437 0.320992
0.388915 0.374134 0.359218
0.434729 0.415611 0.396346
0.477961 0.455060 0.431983
0.518417 0.492490 0.465946
0.559132 0.530596 0.498300
0.601294 0.570457 0.529291
0.643542 0.611024 0.559480
0.684706 0.651330 0.589481
0.724180 0.690950 0.619945
0.761528 0.729265 0.651041
0.796307 0.765683 0.682506
0.202685 0.202091 0.201426
0.242210 0.239807 0.237253
0.285921 0.280377 0.274770
0.332417 0.322924 0.313334
0.379609 0.365700 0.351687
0.425814 0.407529 0.389102
0.469604 0.447378 0.425014
0.510451 0.485085 0.459316
0.550814 0.522757 0.491998
0.592828 0.562426 0.523226
0.635174 0.602922 0.553495
0.676577 0.643336 0.583490
0.716396 0.683088 0.613823
0.754204 0.721716 0.644794
0.789641 0.758669 0.676318
0.822384 0.793461 0.708073
0.234015 0.232010 0.229999
0.277156 0.272363 0.267446
0.323118 0.314465 0.305714
0.370300 0.357299 0.344164
0.416798 0.399341 0.381757
0.461151 0.439660 0.418003
0.502463 0.477650 0.452612
0.542600 0.515073 0.485636
0.584359 0.554377 0.517089
0.626765 0.594830 0.547498
0.668445 0.635299 0.577470
0.708615 0.675226 0.607712
0.746797 0.714074 0.638563
0.782708 0.751408 0.670005
0.816122 0.786761 0.701862
0.846814 0.819821 0.733771
0.268546 0.264386 0.260134
0.314140 0.306267 0.298369
0.361049 0.348924 0.336688
0.407797 0.391196 0.374472
0.452623 0.431883 0.410978
0.494508 0.470274 0.445879
0.534468 0.507455 0.479210
0.575950 0.546417 0.510986
0.618359 0.586733 0.541500
0.660269 0.627274 0.571502
0.700759 0.667330 0.601609
0.739380 0.706455 0.632335
0.775741 0.744096 0.663679
0.809608 0.779826 0.695472
0.840961 0.813480 0.727519
0.869758 0.844753 0.759489
0.305424 0.298334 0.291157
0.352128 0.340846 0.329464
0.398795 0.383043 0.367178
0.444035 0.424049 0.403898
0.486506 0.462877 0.439104
0.526458 0.499972 0.472737
0.567503 0.538449 0.504754
0.609952 0.578664 0.535507
0.652034 0.619213 0.565515
0.692873 0.659409 0.595529
0.731874 0.698777 0.626130
0.768703 0.736762 0.657382
0.803083 0.772881 0.689082
0.834921 0.806950 0.721129
0.864244 0.838776 0.753246
0.891275 0.868428 0.785284
0.342761 0.332393 0.321850
0.390118 0.375191 0.360144
0.435349 0.416182 0.396800
0.478297 0.455334 0.432193
0.518398 0.492445 0.466091
0.559032 0.530493 0.498441
0.601301 0.570416 0.529350
0.643635 0.611021 0.559472
0.684767 0.651342 0.589404
0.724206 0.690925 0.619861
0.761492 0.729227 0.650968
0.796363 0.765773 0.682600
0.828712 0.800255 0.714597
0.858520 0.832526 0.746727
0.886062 0.862689 0.778900
0.911696 0.891009 0.811047
0.003772 0.003772 0.003772
0.013855 0.013855 0.013855
0.027889 0.027889 0.027889
0.048023 0.048023 0.048023
0.070560 0.070560 0.070560
0.094762 0.094762 0.094762
0.120898 0.120898 0.120898
0.149349 0.149349 0.149349
0.180909 0.180820 0.180659
0.217295 0.216146 0.214910
0.258793 0.255259 0.251664
0.304007 0.297031 0.289960
0.351131 0.339933 0.328638
0.398265 0.382605 0.366787
0.443810 0.423846 0.403741
0.486356 0.462649 0.438871
0.011646 0.011646 0.011646
0.024843 0.024843 0.024843
0.043797 0.043797 0.043797
0.066063 0.066063 0.066063
0.089875 0.089875 0.089875
0.115549 0.115549 0.115549
0.143565 0.143565 0.143565
0.174471 0.174381 0.174322
0.209737 0.208859 0.207892
0.250249 0.247283 0.244207
0.294838 0.288592 0.282272
0.341640 0.331348 0.320894
0.388907 0.374126 0.359202
0.434804 0.415670 0.396386
0.478130 0.455166 0.432032
0.518013 0.492067 0.465851
0.021594 0.021594 0.021594
0.039603 0.039603 0.039603
0.061499 0.061499 0.061499
0.084999 0.084999 0.084999
0.110283 0.110283 0.110283
0.137801 0.137801 0.137801
0.168046 0.168006 0.167964
0.202326 0.201718 0.201001
0.241774 0.239317 0.236765
0.285675 0.280145 0.274541
0.332179 0.322711 0.313136
0.379452 0.365543 0.351553
0.425710 0.407423 0.389002
0.469621 0.447359 0.424989
0.510341 0.484924 0.459277
0.550282 0.522243 0.491851
0.035287 0.035287 0.035287
0.056984 0.056984 0.056984
0.080155 0.080155 0.080155
0.105106 0.105106 0.105106
0.132171 0.132171 0.132171
0.161830 0.161813 0.161791
0.195220 0.194748 0.194234
0.233634 0.231603 0.229492
0.276677 0.271830 0.266934
0.322777 0.314154 0.305431
0.370013 0.357050 0.343936
0.416626 0.399189 0.381625
0.461028 0.439559 0.417911
0.502389 0.477569 0.452555
0.542386 0.514851 0.485596
0.584014 0.554025 0.516949
0.052465 0.052465 0.052465
0.075332 0.075332 0.075332
0.099929 0.099929 0.099929
0.126559 0.126559 0.126559
0.155684 0.155673 0.155664
0.188271 0.187941 0.187573
0.225624 0.223996 0.222279
0.267803 0.263619 0.259331
0.313408 0.305587 0.297674
0.360564 0.348462 0.336265
0.407404 0.390841 0.374149
0.452339 0.431615 0.410752
0.494310 0.470105 0.445715
0.534317 0.507331 0.479090
0.575770 0.546235 0.510883
0.618054 0.586393 0.541286
0.070656 0.070656 0.070656
0.094844 0.094844 0.094844
0.120993 0.120993 0.120993
0.149625 0.149619 0.149619
0.181386 0.181207 0.180983
0.217849 0.216552 0.215180
0.259128 0.255524 0.251804
0.304168 0.297118 0.289995
0.351127 0.339914 0.328600
0.398132 0.382473 0.366669
0.443541 0.423605 0.403536
0.486137 0.462579 0.438848
0.526335 0.499857 0.472519
0.567379 0.538345 0.504637
0.609777 0.578503 0.535388
0.651737 0.618894 0.565283
0.089786 0.089786 0.089786
0.115596 0.115596 0.115596
0.143632 0.143632 0.143632
0.174642 0.174559 0.174424
0.210053 0.209142 0.208080
0.250521 0.247466 0.244329
0.294962 0.288668 0.282299
0.341677 0.331353 0.320891
0.388813 0.374033 0.359132
0.434622 0.415535 0.396284
0.477821 0.454941 0.431905
0.518349 0.492424 0.465901
0.559018 0.530481 0.498310
0.601277 0.570415 0.529308
0.643558 0.610995 0.559438
0.684572 0.651154 0.589239
0.110246 0.110246 0.110246
0.137853 0.137853 0.137853
0.168077 0.168044 0.167998
0.202502 0.201849 0.201102
0.242010 0.239507 0.236893
0.285847 0.280280 0.274643
0.332270 0.322789 0.313194
0.379471 0.365571 0.351578
0.425691 0.407407 0.388999
0.469451 0.447275 0.424924
0.510395 0.485014 0.459247
0.550785 0.522738 0.491953
0.592776 0.562364 0.523205
0.635166 0.602900 0.553474
0.676663 0.643323 0.583404
0.716355 0.682948 0.613566
0.132162 0.132162 0.132162
0.161835 0.161823 0.161817
0.195087 0.194710 0.194213
0.233669 0.231638 0.229534
0.276766 0.271906 0.266981
0.322861 0.314222 0.305470
0.370075 0.357063 0.343946
0.416624 0.399164 0.381623
0.460919 0.439447 0.417848
0.502329 0.477556 0.452493
0.542577 0.515071 0.485496
0.584288 0.554332 0.517042
0.626710 0.594761 0.547439
0.668430 0.635262 0.577414
0.708688 0.675214 0.607630
0.746756 0.713969 0.638320
0.155674 0.155674 0.155674
0.188155 0.187938 0.187625
0.225539 0.224007 0.222318
0.267904 0.263723 0.259436
0.313517 0.305685 0.297772
0.360653 0.348528 0.336323
0.407425 0.390872 0.374181
0.452347 0.431642 0.410768
0.494266 0.470086 0.445690
0.534502 0.507518 0.479031
0.575853 0.546354 0.510829
0.618252 0.586658 0.541422
0.660170 0.627191 0.571435
0.700720 0.667282 0.601564
0.739388 0.706452 0.632282
0.775664 0.743961 0.663447
0.181348 0.181235 0.181107
0.217807 0.216632 0.215363
0.259167 0.255581 0.251916
0.304283 0.297259 0.290124
0.351230 0.339996 0.328666
0.398211 0.382537 0.366731
0.443584 0.423654 0.403590
0.486176 0.462614 0.438879
0.526417 0.499955 0.472505
0.567453 0.538430 0.504584
0.609768 0.578558 0.535373
0.651848 0.619105 0.565460
0.692710 0.659309 0.595514
0.731785 0.698704 0.626102
0.768678 0.736701 0.657310
0.802944 0.772730 0.688866
0.209976 0.209228 0.208234
0.250766 0.247749 0.244668
0.295148 0.288856 0.282495
0.341864 0.331515 0.321059
0.388960 0.374185 0.359247
0.434780 0.415645 0.396389
0.477948 0.455025 0.431976
0.518414 0.492481 0.465974
0.559098 0.530561 0.498333
0.601309 0.570464 0.529315
0.643514 0.611005 0.559472
0.684663 0.651319 0.589496
0.724100 0.690894 0.619952
0.761452 0.729214 0.651052
0.796391 0.765794 0.682662
0.828610 0.800151 0.714494
0.242263 0.239840 0.237259
0.286330 0.280821 0.275177
0.332595 0.323055 0.313473
0.379680 0.365789 0.351758
0.425862 0.407571 0.389119
0.469630 0.447402 0.425034
0.510417 0.485041 0.459302
0.550799 0.522758 0.492018
0.592816 0.562393 0.523229
0.635174 0.602922 0.553493
0.676586 0.643315 0.583467
0.716382 0.683073 0.613824
0.754125 0.721646 0.644788
0.789557 0.758603 0.676344
0.822452 0.793552 0.708229
0.852655 0.826141 0.740183
0.277502 0.272721 0.267757
0.323475 0.314812 0.306064
0.370493 0.357484 0.344344
0.416946 0.399485 0.381889
0.461224 0.439706 0.418056
0.502493 0.477686 0.452651
0.542600 0.515050 0.485646
0.584393 0.554397 0.517121
0.626794 0.594835 0.547503
0.668474 0.635297 0.577464
0.708624 0.675224 0.607691
0.746825 0.714107 0.638564
0.782674 0.751385 0.669984
0.816065 0.786717 0.701858
0.846928 0.819916 0.733932
0.875204 0.850771 0.765902
0.314554 0.306693 0.298747
0.361711 0.349571 0.337221
0.408047 0.391415 0.374635
0.452772 0.432027 0.411100
0.494563 0.470344 0.445951
0.534468 0.507454 0.479240
0.575914 0.546391 0.510961
0.618395 0.586736 0.541533
0.660301 0.627280 0.571476
0.700814 0.667352 0.601590
0.739419 0.706485 0.632325
0.775755 0.744109 0.663657
0.809632 0.779838 0.695449
0.840966 0.813467 0.727522
0.869836 0.844854 0.759640
0.896493 0.874165 0.791684
0.352387 0.341035 0.329654
0.399254 0.383443 0.367507
0.444242 0.424222 0.404037
0.486538 0.462924 0.439133
0.526355 0.499870 0.472694
0.567403 0.538352 0.504701
0.609805 0.578502 0.535400
0.651922 0.619103 0.565435
0.692783 0.659310 0.595405
0.731819 0.698656 0.626006
0.768625 0.736662 0.657246
0.803024 0.772818 0.688976
0.834837 0.806858 0.721004
0.864169 0.838686 0.753129
0.891324 0.868472 0.785321
0.916668 0.896537 0.817565
0.005725 0.005725 0.005725
0.016183 0.016183 0.016183
0.031614 0.031614 0.031614
0.052476 0.052476 0.052476
0.075297 0.075297 0.075297
0.099831 0.099831 0.099831
0.126366 0.126366 0.126366
0.155428 0.155428 0.155428
0.187788 0.187571 0.187303
0.225225 0.223697 0.222102
0.267590 0.263454 0.259239
0.313336 0.305572 0.297692
0.360608 0.348520 0.336291
0.407559 0.391001 0.374284
0.452618 0.431857 0.410938
0.494443 0.470166 0.445737
0.013887 0.013887 0.013887
0.028008 0.028008 0.028008
0.048079 0.048079 0.048079
0.070632 0.070632 0.070632
0.094859 0.094859 0.094859
0.120986 0.120986 0.120986
0.149506 0.149506 0.149506
0.181100 0.180976 0.180822
0.217452 0.216253 0.215006
0.258870 0.255341 0.251716
0.304089 0.297100 0.289997
0.351147 0.339932 0.328623
0.398221 0.382553 0.366731
0.443731 0.423745 0.403649
0.486350 0.462734 0.438935
0.525861 0.499412 0.472471
0.024593 0.024593 0.024593
0.043756 0.043756 0.043756
0.066038 0.066038 0.066038
0.089889 0.089889 0.089889
0.115594 0.115594 0.115594
0.143653 0.143653 0.143653
0.174540 0.174454 0.174362
0.209837 0.208943 0.207958
0.250281 0.247284 0.244217
0.294832 0.288574 0.282234
0.341627 0.331313 0.320857
0.388844 0.374052 0.359148
0.434739 0.415611 0.396326
0.477991 0.455060 0.431958
0.518210 0.492294 0.465959
0.558646 0.530095 0.498226
0.039471 0.039471 0.039471
0.061513 0.061513 0.061513
0.084991 0.084991 0.084991
0.110357 0.110357 0.110357
0.137898 0.137898 0.137898
0.168171 0.168143 0.168074
0.202518 0.201837 0.201090
0.241951 0.239437 0.236847
0.285746 0.280195 0.274574
0.332215 0.322738 0.313167
0.379447 0.365568 0.351562
0.425703 0.407418 0.389002
0.469538 0.447327 0.424960
0.510359 0.484968 0.459283
0.550623 0.522592 0.492023
0.592524 0.562081 0.523087
0.056852 0.056852 0.056852
0.080157 0.080157 0.080157
0.105066 0.105066 0.105066
0.132177 0.132177 0.132177
0.161926 0.161888 0.161854
0.195365 0.194861 0.194314
0.233739 0.231711 0.229545
0.276765 0.271911 0.266958
0.322799 0.314172 0.305429
0.370024 0.357041 0.343927
0.416571 0.399144 0.381586
0.460963 0.439506 0.417875
0.502353 0.477556 0.452510
0.542474 0.514939 0.485564
0.584240 0.554255 0.517073
0.626523 0.594542 0.547293
0.075356 0.075356 0.075356
0.099932 0.099932 0.099932
0.126503 0.126503 0.126503
0.155692 0.155684 0.155673
0.188290 0.187973 0.187601
0.225777 0.224108 0.222357
0.267936 0.263694 0.259371
0.313488 0.305647 0.297715
0.360592 0.348479 0.336274
0.407386 0.390853 0.374156
0.452289 0.431589 0.410735
0.494285 0.470095 0.445714
0.534386 0.507385 0.479067
0.575812 0.546293 0.510862
0.618256 0.586617 0.541441
0.660036 0.627001 0.571251
0.094832 0.094832 0.094832
0.121021 0.121021 0.121021
0.149553 0.149553 0.149553
0.181315 0.181162 0.180959
0.217775 0.216503 0.215159
0.259180 0.255567 0.251854
0.304209 0.297153 0.290013
0.351138 0.339940 0.328587
0.398140 0.382462 0.366668
0.443530 0.423594 0.403515
0.486101 0.462536 0.438826
0.526367 0.499900 0.472510
0.567392 0.538362 0.504595
0.609777 0.578507 0.535384
0.651906 0.619107 0.565427
0.692647 0.659142 0.595288
0.115570 0.115570 0.115570
0.143654 0.143654 0.143654
0.174552 0.174496 0.174382
0.210018 0.209104 0.208059
0.250505 0.247471 0.244342
0.294984 0.288728 0.282346
0.341716 0.331353 0.320891
0.388830 0.374062 0.359145
