example_ofxGpuLutCube/bin/data/ofxGpuLutCube/LUT/U24 (soft B&W).cube
LUT_3D_SIZE 6
0.000000 0.000000 0.000000
0.039508 0.039508 0.039508
0.110150 0.110150 0.110150
0.202118 0.201514 0.200842
0.332147 0.322730 0.313141
0.469677 0.447357 0.424974
0.027796 0.027796 0.027796
0.094864 0.094864 0.094864
0.181245 0.181106 0.180888
0.304060 0.297073 0.289977
0.443631 0.423695 0.403607
0.567059 0.538049 0.504558
0.080084 0.080084 0.080084
0.161790 0.161780 0.161758
0.276731 0.271918 0.266958
0.416568 0.399159 0.381603
0.542494 0.514964 0.485545
0.668294 0.635058 0.577210
0.143738 0.143738 0.143738
0.250449 0.247455 0.244337
0.388834 0.374081 0.359153
0.518411 0.492473 0.465882
0.643526 0.611004 0.559467
0.761424 0.729119 0.650837
0.225744 0.224164 0.222589
0.360861 0.348761 0.336499
0.494416 0.470204 0.445799
0.618308 0.586704 0.541462
0.739313 0.706409 0.632313
0.840860 0.813370 0.727358
0.333955 0.324298 0.314640
0.469986 0.447704 0.425299
0.592779 0.562331 0.523254
0.716460 0.683091 0.613704
0.822414 0.793517 0.708156
0.906645 0.885442 0.804567
0.005725 0.005725 0.005725
0.052476 0.052476 0.052476
0.126366 0.126366 0.126366
0.225225 0.223697 0.222102
0.360608 0.348520 0.336291
0.494443 0.470166 0.445737
0.039471 0.039471 0.039471
0.110357 0.110357 0.110357
0.202518 0.201837 0.201090
0.332215 0.322738 0.313167
0.469538 0.447327 0.424960
0.592524 0.562081 0.523087
0.094832 0.094832 0.094832
0.181315 0.181162 0.180959
0.304209 0.297153 0.290013
0.443530 0.423594 0.403515
0.567392 0.538362 0.504595
0.692647 0.659142 0.595288
0.161776 0.161770 0.161764
0.276826 0.271977 0.267052
0.416593 0.399174 0.381621
0.542637 0.515125 0.485490
0.668390 0.635252 0.577435
0.782622 0.751279 0.669768
0.250853 0.247883 0.244835
0.389082 0.374266 0.359345
0.518398 0.492467 0.465980
0.643562 0.611018 0.559483
0.761403 0.729173 0.651058
0.858434 0.832412 0.746603
0.361924 0.349728 0.337409
0.494611 0.470370 0.445941
0.618267 0.586636 0.541450
0.739364 0.706402 0.632199
0.840893 0.813380 0.727411
0.921617 0.902038 0.824109
0.011627 0.011627 0.011627
0.065945 0.065945 0.065945
0.143500 0.143500 0.143500
0.250163 0.247183 0.244163
0.388924 0.374119 0.359205
0.518005 0.492072 0.465931
0.052426 0.052426 0.052426
0.126572 0.126572 0.126572
0.225608 0.224015 0.222271
0.360580 0.348481 0.336270
0.494325 0.470119 0.445728
0.618065 0.586405 0.541300
0.110215 0.110215 0.110215
0.202597 0.201893 0.201139
0.332269 0.322753 0.313124
0.469389 0.447224 0.424879
0.592764 0.562356 0.523176
0.716315 0.682924 0.613566
0.181216 0.181116 0.180948
0.304262 0.297197 0.290086
0.443515 0.423605 0.403524
0.567465 0.538456 0.504557
0.692688 0.659290 0.595502
0.802945 0.772719 0.688845
0.277301 0.272472 0.267581
0.416858 0.399407 0.381815
0.542627 0.515092 0.485581
0.668409 0.635263 0.577447
0.782596 0.751303 0.669987
0.875170 0.850729 0.765878
0.390000 0.375112 0.360077
0.518484 0.492542 0.466169
0.643555 0.610955 0.559426
0.761445 0.729176 0.650951
0.858453 0.832440 0.746675
0.936233 0.918248 0.843827
0.018652 0.018652 0.018652
0.080047 0.080047 0.080047
0.161572 0.161572 0.161572
0.276543 0.271732 0.266865
0.416687 0.399291 0.381679
0.542030 0.514521 0.485559
0.065942 0.065942 0.065942
0.143669 0.143669 0.143669
0.250425 0.247406 0.244280
0.388826 0.374038 0.359130
0.518327 0.492398 0.465920
0.643398 0.610787 0.559298
0.126410 0.126410 0.126410
0.225615 0.224003 0.222295
0.360582 0.348479 0.336254
0.494207 0.470052 0.445664
0.618231 0.586631 0.541412
0.739255 0.706260 0.632087
0.202394 0.201946 0.201203
0.332330 0.322846 0.313241
0.469431 0.447259 0.424913
0.592788 0.562417 0.523165
0.716341 0.683043 0.613784
0.822337 0.793397 0.708054
0.304805 0.297775 0.290653
0.443852 0.423861 0.403775
0.567482 0.538454 0.504635
0.692723 0.659307 0.595535
0.802897 0.772732 0.689055
0.891229 0.868392 0.785233
0.418229 0.400618 0.382875
0.542580 0.515061 0.485789
0.668444 0.635268 0.577395
0.782665 0.751329 0.669869
0.875212 0.850776 0.765996
0.950622 0.934260 0.863817
0.027521 0.027521 0.027521
0.094752 0.094752 0.094752
0.180981 0.180869 0.180729
0.303997 0.297029 0.289951
0.443729 0.423774 0.403641
0.567059 0.538018 0.504606
0.080066 0.080066 0.080066
0.161822 0.161804 0.161784
0.276724 0.271883 0.266948
0.416595 0.399188 0.381609
0.542491 0.514978 0.485542
0.668285 0.635077 0.577235
0.143497 0.143497 0.143497
0.250431 0.247412 0.244306
0.388784 0.374014 0.359117
0.518356 0.492449 0.465874
0.643511 0.610976 0.559434
0.761381 0.729094 0.650826
0.225547 0.224009 0.222394
0.360707 0.348600 0.336381
0.494264 0.470084 0.445709
0.618223 0.586646 0.541403
0.739268 0.706353 0.632307
0.840824 0.813313 0.727319
0.333111 0.323563 0.313923
0.469754 0.447515 0.425131
0.592853 0.562430 0.523236
0.716378 0.683069 0.613810
0.822279 0.793398 0.708241
0.906676 0.885447 0.804647
0.445080 0.424977 0.404699
0.567497 0.538443 0.504805
0.692786 0.659332 0.595440
0.802994 0.772808 0.688961
0.891260 0.868417 0.785321
0.964912 0.950113 0.884144
0.039074 0.039074 0.039074
0.110192 0.110192 0.110192
0.202125 0.201468 0.200834
0.332073 0.322659 0.313105
0.469681 0.447418 0.425004
0.592503 0.562060 0.523141
0.094702 0.094702 0.094702
0.181232 0.181035 0.180862
0.304045 0.297025 0.289913
0.443563 0.423618 0.403558
0.567311 0.538270 0.504587
0.692625 0.659125 0.595241
0.161537 0.161537 0.161538
0.276696 0.271818 0.266891
0.416501 0.399073 0.381516
0.542501 0.514988 0.485485
0.668350 0.635193 0.577363
0.782584 0.751234 0.669720
0.250223 0.247283 0.244265
0.388917 0.374141 0.359233
0.518326 0.492391 0.465885
0.643466 0.610932 0.559408
0.761362 0.729119 0.651001
0.858376 0.832373 0.746555
0.361279 0.349143 0.336909
0.494474 0.470268 0.445842
0.618254 0.586655 0.541435
0.739294 0.706371 0.632286
0.840793 0.813302 0.727458
0.921638 0.902025 0.824182
0.471228 0.448816 0.426250
0.592850 0.562398 0.523318
0.716424 0.683067 0.613657
0.822385 0.793449 0.708096
0.906680 0.885494 0.804701
0.979177 0.965940 0.904827
