example_ofxGpuLutCube/bin/data/ofxGpuLutCube/LUT/U25 (soft B&W_1).cube
LUT_3D_SIZE 16
0.000000 0.000000 0.000000
0.006103 0.006103 0.006103
0.013074 0.013074 0.013074
0.023163 0.023163 0.023163
0.038045 0.038045 0.038045
0.057383 0.057383 0.057383
0.079101 0.079101 0.079101
0.102818 0.102818 0.102818
0.128141 0.128141 0.128141
0.154785 0.154785 0.154785
0.182485 0.182485 0.182485
0.210913 0.210913 0.210913
0.240088 0.240088 0.240088
0.269900 0.269900 0.269900
0.300167 0.300167 0.300114
0.330910 0.330970 0.330849
0.005322 0.005322 0.005322
0.011924 0.011924 0.011924
0.021527 0.021527 0.021527
0.035809 0.035809 0.035809
0.054779 0.054779 0.054779
0.076203 0.076203 0.076203
0.099580 0.099580 0.099580
0.124670 0.124670 0.124670
0.151125 0.151125 0.151125
0.178736 0.178736 0.178736
0.207099 0.207099 0.207099
0.236144 0.236144 0.236144
0.265844 0.265844 0.265844
0.296082 0.296082 0.296037
0.326888 0.326945 0.326827
0.357843 0.357934 0.357842
0.010917 0.010917 0.010917
0.019898 0.019898 0.019898
0.033647 0.033647 0.033647
0.052000 0.052000 0.052000
0.073225 0.073225 0.073225
0.096375 0.096375 0.096375
0.121178 0.121178 0.121178
0.147482 0.147482 0.147482
0.174909 0.174909 0.174909
0.203185 0.203185 0.203185
0.232168 0.232168 0.232168
0.261793 0.261793 0.261793
0.291974 0.291975 0.291948
0.322678 0.322709 0.322623
0.353747 0.353836 0.353744
0.385122 0.385214 0.385122
0.018421 0.018421 0.018421
0.031348 0.031348 0.031348
0.049344 0.049344 0.049344
0.070270 0.070270 0.070270
0.093216 0.093216 0.093216
0.117816 0.117816 0.117816
0.143903 0.143903 0.143903
0.171196 0.171196 0.171196
0.199335 0.199335 0.199335
0.228235 0.228235 0.228235
0.257778 0.257778 0.257778
0.287929 0.287929 0.287917
0.318550 0.318569 0.318496
0.349632 0.349693 0.349602
0.381030 0.381122 0.381030
0.412644 0.412717 0.412644
0.029234 0.029234 0.029234
0.046717 0.046717 0.046717
0.067237 0.067237 0.067237
0.090041 0.090041 0.090041
0.114404 0.114404 0.114404
0.140338 0.140338 0.140338
0.167449 0.167449 0.167449
0.195516 0.195516 0.195516
0.224286 0.224286 0.224286
0.253763 0.253763 0.253763
0.283801 0.283801 0.283785
0.314389 0.314403 0.314336
0.345383 0.345441 0.345350
0.376773 0.376865 0.376773
0.408476 0.408568 0.408476
0.440225 0.440286 0.440225
0.044006 0.044006 0.044006
0.064375 0.064375 0.064375
0.086740 0.086740 0.086740
0.111041 0.111041 0.111041
0.136761 0.136761 0.136761
0.163778 0.163778 0.163778
0.191685 0.191685 0.191685
0.220400 0.220400 0.220400
0.249730 0.249730 0.249730
0.279704 0.279704 0.279698
0.310242 0.310262 0.310187
0.341198 0.341254 0.341162
0.372522 0.372609 0.372518
0.404204 0.404290 0.404204
0.436075 0.436164 0.436075
0.467929 0.468010 0.467929
0.061395 0.061395 0.061395
0.083682 0.083682 0.083682
0.107622 0.107622 0.107622
0.133213 0.133213 0.133213
0.160048 0.160048 0.160048
0.187874 0.187874 0.187874
0.216504 0.216504 0.216504
0.245763 0.245763 0.245763
0.275629 0.275629 0.275605
0.306094 0.306100 0.306039
0.336983 0.337048 0.336949
0.368306 0.368397 0.368303
0.399899 0.399990 0.399899
0.431772 0.431860 0.431772
0.463777 0.463844 0.463777
0.495614 0.495675 0.495591
0.080443 0.080443 0.080443
0.104286 0.104286 0.104286
0.129676 0.129676 0.129676
0.156391 0.156391 0.156391
0.184086 0.184086 0.184086
0.212609 0.212609 0.212609
0.241826 0.241826 0.241826
0.271597 0.271597 0.271597
0.301926 0.301955 0.301898
0.332799 0.332865 0.332746
0.364049 0.364141 0.364047
0.395634 0.395726 0.395634
0.427482 0.427545 0.427482
0.459478 0.459570 0.459478
0.491494 0.491555 0.491494
0.523309 0.523370 0.523278
0.101041 0.101041 0.101041
0.126154 0.126154 0.126154
0.152662 0.152662 0.152662
0.180291 0.180291 0.180291
0.208705 0.208705 0.208705
0.237818 0.237818 0.237818
0.267544 0.267544 0.267542
0.297824 0.297824 0.297792
0.328652 0.328689 0.328595
0.359817 0.359909 0.359795
0.391361 0.391433 0.391361
0.423170 0.423261 0.423170
0.455138 0.455211 0.455138
0.487178 0.487239 0.487178
0.519133 0.519200 0.519106
0.550818 0.550909 0.550787
0.122809 0.122809 0.122809
0.149234 0.149234 0.149234
0.176562 0.176562 0.176562
0.204869 0.204869 0.204869
0.233866 0.233866 0.233866
0.263501 0.263501 0.263501
0.293693 0.293697 0.293667
0.324479 0.324515 0.324425
0.355584 0.355652 0.355553
0.387071 0.387162 0.387071
0.418862 0.418937 0.418862
0.450824 0.450885 0.450824
0.482849 0.482920 0.482845
0.514864 0.514925 0.514829
0.546723 0.546812 0.546693
0.578179 0.578277 0.578155
0.145589 0.145589 0.145589
0.173031 0.173031 0.173031
0.201066 0.201066 0.201066
0.229944 0.229944 0.229944
0.259510 0.259510 0.259510
0.289636 0.289642 0.289625
0.320292 0.320327 0.320259
0.351389 0.351460 0.351367
0.382825 0.382917 0.382825
0.414569 0.414661 0.414569
0.446557 0.446648 0.446557
0.478536 0.478612 0.478536
0.510502 0.510563 0.510480
0.542420 0.542504 0.542390
0.574084 0.574182 0.574062
0.605251 0.605353 0.605251
0.169360 0.169360 0.169360
0.197410 0.197410 0.197410
0.226095 0.226095 0.226095
0.255508 0.255508 0.255508
0.285580 0.285580 0.285563
0.316197 0.316238 0.316151
0.347209 0.347297 0.347182
0.378592 0.378685 0.378592
0.410267 0.410342 0.410267
0.442221 0.442313 0.442221
0.474207 0.474284 0.474198
0.506235 0.506304 0.506221
0.538120 0.538199 0.538099
0.569848 0.569935 0.569818
0.601217 0.601332 0.601215
0.632006 0.632099 0.632006
0.193647 0.193647 0.193647
0.222361 0.222361 0.222361
0.251657 0.251657 0.251657
0.281570 0.281570 0.281563
0.312056 0.312074 0.312008
0.343028 0.343099 0.342987
0.374375 0.374467 0.374372
0.406045 0.406120 0.406045
0.437895 0.437968 0.437895
0.469946 0.470007 0.469942
0.501939 0.502008 0.501933
0.533842 0.533924 0.533812
0.565558 0.565638 0.565527
0.597026 0.597131 0.597023
0.628020 0.628138 0.628020
0.658421 0.658512 0.658390
0.218663 0.218663 0.218663
0.248008 0.248008 0.248008
0.277575 0.277575 0.277575
0.307988 0.307997 0.307937
0.338869 0.338926 0.338830
0.370153 0.370258 0.370151
0.401733 0.401824 0.401733
0.433655 0.433724 0.433655
0.465648 0.465732 0.465648
0.497604 0.497673 0.497599
0.529601 0.529662 0.529570
0.561372 0.561452 0.561356
0.592833 0.592938 0.592830
0.623914 0.624006 0.623914
0.654481 0.654573 0.654451
0.684208 0.684313 0.684199
0.244183 0.244183 0.244183
0.273970 0.273970 0.273970
0.303952 0.303952 0.303913
0.334727 0.334784 0.334681
0.365989 0.366078 0.365985
0.397503 0.397595 0.397503
0.429313 0.429399 0.429313
0.461345 0.461436 0.461345
0.493370 0.493431 0.493344
0.525290 0.525351 0.525260
0.557103 0.557192 0.557082
0.588590 0.588694 0.588588
0.619729 0.619821 0.619729
0.650375 0.650468 0.650346
0.680359 0.680451 0.680336
0.709501 0.709593 0.709471
0.270261 0.270261 0.270261
0.300371 0.300371 0.300311
0.330642 0.330688 0.330589
0.361738 0.361859 0.361737
0.393218 0.393310 0.393218
0.424971 0.425062 0.424971
0.456896 0.456987 0.456896
0.488981 0.489072 0.488981
0.520917 0.520978 0.520887
0.552728 0.552789 0.552697
0.584294 0.584385 0.584274
0.615479 0.615571 0.615479
0.646147 0.646239 0.646117
0.676252 0.676374 0.676222
0.705600 0.705717 0.705595
0.734006 0.734098 0.733976
0.004993 0.004993 0.004993
0.011849 0.011849 0.011849
0.021221 0.021221 0.021221
0.035384 0.035384 0.035384
0.054153 0.054153 0.054153
0.075565 0.075565 0.075565
0.098918 0.098918 0.098918
0.124028 0.124028 0.124028
0.150408 0.150408 0.150408
0.177923 0.177923 0.177923
0.206319 0.206319 0.206319
0.235381 0.235381 0.235381
0.265077 0.265077 0.265077
0.295352 0.295352 0.295306
0.326052 0.326106 0.325995
0.357089 0.357206 0.357089
0.010843 0.010843 0.010843
0.019900 0.019900 0.019900
0.033299 0.033299 0.033299
0.051671 0.051671 0.051671
0.072741 0.072741 0.072741
0.095815 0.095815 0.095815
0.120572 0.120572 0.120572
0.146883 0.146883 0.146883
0.174268 0.174268 0.174268
0.202487 0.202487 0.202487
0.231465 0.231465 0.231465
0.261104 0.261104 0.261104
0.291257 0.291257 0.291224
0.321918 0.321950 0.321860
0.353041 0.353129 0.353038
0.384287 0.384379 0.384287
0.018390 0.018390 0.018390
0.031136 0.031136 0.031136
0.048962 0.048962 0.048962
0.069752 0.069752 0.069752
0.092594 0.092594 0.092594
0.117193 0.117193 0.117193
0.143255 0.143255 0.143255
0.170512 0.170512 0.170512
0.198618 0.198618 0.198618
0.227467 0.227467 0.227467
0.257010 0.257010 0.257008
0.287117 0.287118 0.287102
0.317783 0.317793 0.317722
0.348807 0.348861 0.348769
0.380196 0.380288 0.380196
0.411796 0.411887 0.411796
0.028806 0.028806 0.028806
0.046431 0.046431 0.046431
0.066813 0.066813 0.066813
0.089461 0.089461 0.089461
0.113816 0.113816 0.113816
0.139697 0.139697 0.139697
0.166784 0.166784 0.166784
0.194803 0.194803 0.194803
0.223564 0.223564 0.223564
0.253033 0.253033 0.253033
0.283067 0.283067 0.283054
0.313632 0.313642 0.313581
0.344600 0.344685 0.344578
0.375970 0.376066 0.375970
0.407675 0.407765 0.407675
0.439387 0.439465 0.439387
0.043528 0.043528 0.043528
0.063899 0.063899 0.063899
0.086235 0.086235 0.086235
0.110463 0.110463 0.110463
0.136135 0.136135 0.136135
0.163110 0.163110 0.163110
0.190965 0.190965 0.190965
0.219669 0.219669 0.219669
0.248993 0.248993 0.248993
0.278958 0.278958 0.278952
0.309463 0.309473 0.309411
0.340409 0.340470 0.340372
0.371730 0.371817 0.371718
0.403383 0.403463 0.403383
0.435265 0.435339 0.435265
0.467086 0.467162 0.467086
0.060945 0.060945 0.060945
0.083121 0.083121 0.083121
0.107037 0.107037 0.107037
0.132582 0.132582 0.132582
0.159398 0.159398 0.159398
0.187195 0.187195 0.187195
0.215757 0.215757 0.215757
0.245040 0.245040 0.245040
0.274893 0.274893 0.274890
0.305332 0.305337 0.305282
0.336213 0.336262 0.336165
0.367482 0.367569 0.367478
0.399106 0.399198 0.399103
0.430958 0.431035 0.430958
0.462943 0.463021 0.462943
0.494797 0.494859 0.494795
0.079882 0.079882 0.079882
0.103715 0.103715 0.103715
0.129013 0.129013 0.129013
0.155713 0.155713 0.155713
0.183377 0.183377 0.183377
0.211909 0.211909 0.211909
0.241063 0.241063 0.241063
0.270828 0.270828 0.270825
0.301178 0.301198 0.301143
0.332017 0.332074 0.331982
0.363253 0.363340 0.363249
0.394819 0.394911 0.394819
0.426646 0.426721 0.426646
0.458631 0.458718 0.458631
0.490663 0.490724 0.490659
0.522447 0.522512 0.522418
0.100375 0.100375 0.100375
0.125618 0.125618 0.125618
0.152039 0.152039 0.152039
0.179617 0.179617 0.179617
0.207985 0.207985 0.207985
0.237077 0.237077 0.237077
0.266763 0.266763 0.266763
0.297138 0.297138 0.297109
0.327859 0.327893 0.327804
0.359024 0.359115 0.359018
0.390570 0.390661 0.390570
0.422361 0.422428 0.422361
0.454330 0.454393 0.454330
0.486341 0.486404 0.486341
0.518328 0.518394 0.518303
0.550022 0.550112 0.549992
0.122101 0.122101 0.122101
0.148548 0.148548 0.148548
0.175836 0.175836 0.175836
0.204154 0.204154 0.204154
0.233117 0.233117 0.233117
0.262721 0.262721 0.262721
0.292954 0.292959 0.292909
0.323694 0.323723 0.323633
0.354786 0.354878 0.354762
0.386261 0.386367 0.386261
0.418034 0.418124 0.418034
0.450003 0.450068 0.450003
0.482011 0.482082 0.482009
0.514013 0.514077 0.513983
0.545878 0.545940 0.545848
0.577379 0.577472 0.577350
0.144837 0.144837 0.144837
0.172213 0.172213 0.172213
0.200306 0.200306 0.200306
0.229183 0.229183 0.229183
0.258740 0.258740 0.258739
0.288872 0.288872 0.288846
0.319500 0.319530 0.319450
0.350583 0.350669 0.350557
0.382004 0.382100 0.382004
0.413782 0.413872 0.413782
0.445682 0.445754 0.445682
0.477705 0.477778 0.477703
0.509707 0.509768 0.509686
0.541589 0.541680 0.541559
0.573260 0.573337 0.573240
0.604462 0.604554 0.604462
0.168526 0.168526 0.168526
0.196670 0.196670 0.196670
0.225288 0.225288 0.225288
0.254752 0.254752 0.254752
0.284794 0.284795 0.284781
0.315359 0.315393 0.315322
0.346376 0.346451 0.346343
0.377789 0.377877 0.377787
0.409464 0.409536 0.409464
0.441390 0.441454 0.441390
0.473370 0.473445 0.473360
0.505407 0.505470 0.505394
0.537289 0.537363 0.537258
0.569023 0.569109 0.568993
0.600425 0.600528 0.600425
0.631221 0.631314 0.631219
0.192942 0.192942 0.192942
0.221601 0.221601 0.221601
0.250785 0.250785 0.250785
0.280750 0.280750 0.280743
0.311253 0.311270 0.311208
0.342217 0.342268 0.342180
0.373544 0.373638 0.373541
0.405206 0.405297 0.405206
0.437064 0.437141 0.437064
0.469069 0.469146 0.469068
0.501099 0.501165 0.501075
0.533019 0.533086 0.532988
0.564760 0.564835 0.564729
0.596202 0.596294 0.596187
0.627213 0.627333 0.627213
0.657545 0.657627 0.657517
0.217826 0.217825 0.217826
0.247033 0.247033 0.247033
0.276727 0.276727 0.276725
0.307161 0.307171 0.307124
0.338020 0.338077 0.337992
0.369329 0.369421 0.369317
0.400933 0.401022 0.400933
0.432795 0.432876 0.432795
0.464766 0.464852 0.464763
0.496771 0.496853 0.496765
0.528728 0.528809 0.528705
0.560503 0.560585 0.560474
0.591949 0.592058 0.591949
0.623071 0.623170 0.623069
0.653660 0.653752 0.653631
0.683399 0.683506 0.683384
0.243304 0.243304 0.243304
0.272971 0.272971 0.272965
0.303151 0.303159 0.303095
0.333954 0.334016 0.333916
0.365130 0.365215 0.365123
0.396685 0.396774 0.396685
0.428490 0.428580 0.428490
0.460515 0.460584 0.460515
0.492523 0.492584 0.492511
0.524473 0.524537 0.524438
0.556240 0.556326 0.556211
0.587742 0.587845 0.587738
0.618933 0.619025 0.618915
0.649533 0.649627 0.649506
0.679550 0.679644 0.679519
0.708698 0.708794 0.708671
0.269347 0.269347 0.269347
0.299378 0.299379 0.299321
0.329876 0.329911 0.329834
0.360932 0.361021 0.360914
0.392448 0.392528 0.392448
0.424243 0.424333 0.424243
0.456170 0.456237 0.456170
0.488226 0.488292 0.488226
0.520181 0.520246 0.520150
0.551989 0.552074 0.551964
0.583531 0.583623 0.583507
0.614743 0.614846 0.614729
0.645478 0.645571 0.645458
0.675578 0.675673 0.675551
0.704915 0.705034 0.704892
0.733300 0.733417 0.733269
0.295292 0.295292 0.295288
0.326086 0.326125 0.326030
0.356796 0.356887 0.356776
0.388104 0.388193 0.388104
0.419864 0.419956 0.419864
0.451830 0.451901 0.451830
0.483792 0.483857 0.483792
0.515793 0.515858 0.515762
0.547620 0.547712 0.547590
0.579216 0.579309 0.579208
0.610466 0.610562 0.610466
0.641262 0.641354 0.641246
0.671485 0.671580 0.671456
0.700958 0.701053 0.700930
0.729525 0.729621 0.729494
0.756990 0.757113 0.756986
0.010535 0.010535 0.010535
0.019388 0.019388 0.019388
0.032769 0.032769 0.032769
0.050940 0.050940 0.050940
0.071995 0.071995 0.071995
0.095087 0.095087 0.095087
0.119838 0.119838 0.119838
0.146045 0.146045 0.146045
0.173406 0.173406 0.173406
0.201640 0.201640 0.201640
0.230594 0.230594 0.230594
0.260192 0.260192 0.260192
0.290355 0.290355 0.290345
0.321063 0.321087 0.321002
0.352121 0.352211 0.352117
0.383421 0.383513 0.383421
0.017978 0.017978 0.017978
0.030709 0.030709 0.030709
0.048513 0.048513 0.048513
0.069172 0.069172 0.069172
0.091996 0.091996 0.091996
0.116501 0.116501 0.116501
0.142518 0.142518 0.142518
0.169743 0.169743 0.169743
0.197830 0.197830 0.197830
0.226695 0.226695 0.226695
0.256203 0.256203 0.256202
0.286290 0.286290 0.286259
0.316899 0.316924 0.316858
0.347906 0.347963 0.347862
0.379316 0.379405 0.379298
0.410874 0.410966 0.410874
0.028614 0.028614 0.028614
0.045830 0.045830 0.045830
0.066262 0.066262 0.066262
0.088802 0.088802 0.088802
0.113154 0.113154 0.113154
0.138938 0.138938 0.138938
0.165965 0.165965 0.165965
0.194008 0.194008 0.194008
0.222736 0.222736 0.222736
0.252155 0.252155 0.252155
0.282170 0.282171 0.282154
0.312724 0.312747 0.312676
0.343702 0.343770 0.343671
0.375050 0.375129 0.375037
0.406707 0.406804 0.406707
0.438449 0.438512 0.438449
0.043159 0.043159 0.043159
0.063292 0.063292 0.063292
0.085592 0.085592 0.085592
0.109780 0.109780 0.109780
0.135405 0.135405 0.135405
0.162309 0.162309 0.162309
0.190180 0.190180 0.190180
0.218856 0.218856 0.218856
0.248169 0.248169 0.248169
0.278098 0.278098 0.278093
0.308582 0.308601 0.308536
0.339519 0.339581 0.339485
0.370835 0.370925 0.370826
0.402474 0.402565 0.402474
0.434345 0.434433 0.434345
0.466176 0.466259 0.466176
0.060422 0.060422 0.060422
0.082428 0.082428 0.082428
0.106370 0.106370 0.106370
0.131893 0.131893 0.131893
0.158604 0.158604 0.158604
0.186402 0.186402 0.186402
0.214950 0.214950 0.214950
0.244177 0.244177 0.244177
0.274016 0.274016 0.274010
0.304440 0.304453 0.304397
0.335317 0.335375 0.335263
0.366588 0.366667 0.366576
0.398181 0.398266 0.398181
0.430036 0.430115 0.430036
0.462024 0.462107 0.462024
0.493871 0.493946 0.493866
0.079309 0.079309 0.079309
0.103072 0.103072 0.103072
0.128309 0.128309 0.128309
0.154966 0.154966 0.154966
0.182609 0.182609 0.182609
0.211079 0.211079 0.211079
0.240211 0.240211 0.240211
0.269990 0.269990 0.269985
0.300308 0.300313 0.300271
0.331142 0.331187 0.331086
0.362338 0.362430 0.362328
0.393910 0.394007 0.393910
0.425729 0.425804 0.425729
0.457709 0.457794 0.457705
0.489726 0.489791 0.489714
0.521536 0.521602 0.521508
0.099653 0.099653 0.099653
0.124840 0.124840 0.124840
0.151273 0.151273 0.151273
0.178810 0.178810 0.178810
0.207188 0.207188 0.207188
0.236224 0.236224 0.236224
0.265930 0.265930 0.265925
0.296196 0.296202 0.296171
0.326946 0.326976 0.326906
0.358117 0.358204 0.358095
0.389623 0.389715 0.389623
0.421429 0.421517 0.421429
0.453382 0.453448 0.453382
0.485406 0.485470 0.485401
0.517368 0.517450 0.517341
0.549088 0.549179 0.549077
0.121346 0.121346 0.121346
0.147711 0.147711 0.147711
0.175046 0.175046 0.175046
0.203318 0.203318 0.203318
0.232273 0.232273 0.232273
0.261924 0.261924 0.261919
0.292093 0.292093 0.292062
0.322797 0.322835 0.322746
0.353906 0.353977 0.353878
0.385370 0.385445 0.385353
0.417129 0.417220 0.417129
0.449067 0.449153 0.449067
0.481091 0.481156 0.481074
0.513097 0.513158 0.513067
0.544966 0.545055 0.544936
0.576424 0.576516 0.576422
0.144127 0.144127 0.144127
0.171366 0.171366 0.171366
0.199437 0.199437 0.199437
0.228339 0.228339 0.228339
0.257854 0.257854 0.257854
0.287988 0.287988 0.287974
0.318627 0.318658 0.318573
0.349678 0.349741 0.349649
0.381096 0.381186 0.381096
0.412829 0.412912 0.412829
0.444737 0.444824 0.444737
0.476764 0.476829 0.476763
0.508753 0.508814 0.508734
0.540662 0.540751 0.540632
0.572353 0.572444 0.572324
0.603506 0.603606 0.603506
0.167692 0.167692 0.167692
0.195754 0.195755 0.195755
0.224444 0.224444 0.224444
0.253884 0.253884 0.253884
0.283902 0.283902 0.283881
0.314472 0.314486 0.314420
0.345470 0.345532 0.345440
0.376858 0.376949 0.376858
0.408547 0.408617 0.408547
0.440430 0.440517 0.440430
0.472440 0.472504 0.472432
0.504455 0.504529 0.504440
0.536366 0.536431 0.536336
0.568085 0.568175 0.568059
0.599468 0.599583 0.599465
0.630281 0.630373 0.630279
0.192037 0.192037 0.192037
0.220719 0.220719 0.220719
0.249923 0.249923 0.249923
0.279869 0.279872 0.279863
0.310331 0.310352 0.310288
0.341274 0.341343 0.341246
0.372595 0.372689 0.372592
0.404270 0.404361 0.404270
0.436120 0.436182 0.436120
0.468129 0.468193 0.468128
0.500128 0.500194 0.500117
0.532065 0.532140 0.532043
0.563813 0.563892 0.563783
0.595235 0.595343 0.595229
0.626287 0.626379 0.626284
0.656655 0.656747 0.656624
0.216831 0.216831 0.216831
0.246157 0.246157 0.246157
0.275866 0.275866 0.275862
0.306252 0.306259 0.306202
0.337130 0.337176 0.337075
0.368381 0.368468 0.368377
0.399988 0.400069 0.399988
0.431844 0.431920 0.431844
0.463827 0.463896 0.463827
0.495837 0.495901 0.495820
0.527761 0.527842 0.527738
0.559551 0.559637 0.559522
0.591033 0.591129 0.591016
0.622125 0.622217 0.622119
0.652710 0.652804 0.652686
0.682519 0.682611 0.682489
0.242248 0.242248 0.242248
0.272079 0.272079 0.272078
0.302217 0.302227 0.302169
0.332972 0.333024 0.332921
0.364168 0.364248 0.364154
0.395724 0.395802 0.395721
0.427524 0.427611 0.427524
0.459506 0.459594 0.459506
0.491518 0.491579 0.491500
0.523475 0.523540 0.523444
0.555271 0.555356 0.555242
0.586808 0.586902 0.586786
0.617945 0.618039 0.617941
0.648602 0.648693 0.648588
0.678638 0.678747 0.678620
0.707792 0.707885 0.707753
0.268202 0.268202 0.268202
0.298300 0.298304 0.298254
0.328917 0.328953 0.328863
0.360008 0.360090 0.359999
0.391479 0.391571 0.391479
0.423262 0.423349 0.423262
0.455204 0.455283 0.455204
0.487250 0.487311 0.487229
0.519188 0.519255 0.519163
0.551015 0.551104 0.550984
0.582578 0.582676 0.582563
0.613778 0.613883 0.613778
0.644523 0.644617 0.644503
0.674640 0.674743 0.674616
0.704031 0.704133 0.704009
0.732384 0.732492 0.732369
0.294467 0.294467 0.294453
0.325164 0.325216 0.325123
0.355909 0.355996 0.355899
0.387307 0.387398 0.387307
0.419026 0.419114 0.419026
0.450923 0.450988 0.450923
0.482921 0.483002 0.482915
0.514915 0.514986 0.514888
0.546769 0.546858 0.546739
0.578381 0.578471 0.578352
0.609618 0.609729 0.609616
0.640422 0.640513 0.640403
0.670623 0.670720 0.670594
0.700128 0.700225 0.700103
0.728747 0.728856 0.728717
0.756251 0.756373 0.756248
0.320989 0.321005 0.320928
0.351930 0.352002 0.351891
0.383107 0.383196 0.383107
0.414713 0.414799 0.414713
0.446580 0.446652 0.446580
0.478564 0.478628 0.478564
0.510528 0.510589 0.510502
0.542389 0.542478 0.542366
0.574026 0.574118 0.574026
0.605326 0.605435 0.605326
0.636204 0.636295 0.636196
0.666531 0.666623 0.666517
0.696088 0.696211 0.696079
0.724857 0.724967 0.724845
0.752645 0.752745 0.752622
0.779168 0.779261 0.779139
0.017639 0.017639 0.017639
0.030118 0.030118 0.030118
0.047710 0.047710 0.047710
0.068489 0.068489 0.068489
0.091274 0.091274 0.091274
0.115765 0.115765 0.115765
0.141761 0.141761 0.141761
0.168965 0.168965 0.168965
0.197025 0.197025 0.197025
0.225886 0.225886 0.225886
0.255369 0.255369 0.255369
0.285458 0.285458 0.285446
0.316038 0.316068 0.315984
0.347080 0.347144 0.347045
0.378477 0.378579 0.378477
0.410056 0.410148 0.410056
0.028180 0.028180 0.028180
0.045340 0.045340 0.045340
0.065623 0.065623 0.065623
0.088160 0.088160 0.088160
0.112436 0.112436 0.112436
0.138266 0.138266 0.138266
0.165270 0.165270 0.165270
0.193282 0.193282 0.193282
0.221987 0.221987 0.221987
0.251386 0.251386 0.251386
0.281404 0.281404 0.281390
0.311923 0.311933 0.311862
0.342899 0.342966 0.342857
0.374219 0.374312 0.374219
0.405903 0.405993 0.405903
0.437586 0.437666 0.437586
0.042653 0.042653 0.042653
0.062699 0.062699 0.062699
0.085037 0.085037 0.085037
0.109116 0.109116 0.109116
0.134701 0.134701 0.134701
0.161586 0.161586 0.161586
0.189421 0.189421 0.189421
0.218068 0.218068 0.218068
0.247362 0.247362 0.247362
0.277286 0.277286 0.277272
0.307742 0.307763 0.307705
0.338669 0.338739 0.338640
0.369962 0.370053 0.369962
0.401601 0.401692 0.401601
0.433470 0.433541 0.433470
0.465299 0.465387 0.465299
0.059855 0.059855 0.059855
0.081885 0.081885 0.081885
0.105742 0.105742 0.105742
0.131218 0.131218 0.131218
0.157951 0.157951 0.157951
0.185655 0.185655 0.185655
0.214181 0.214181 0.214181
0.243413 0.243413 0.243413
0.273244 0.273244 0.273233
0.303641 0.303649 0.303606
0.334507 0.334567 0.334470
0.365755 0.365840 0.365745
0.397343 0.397422 0.397343
0.429180 0.429268 0.429180
0.461170 0.461240 0.461170
0.493041 0.493102 0.493041
0.078723 0.078723 0.078723
0.102441 0.102441 0.102441
0.127636 0.127636 0.127636
0.154263 0.154263 0.154263
0.181878 0.181878 0.181878
0.210295 0.210295 0.210295
0.239428 0.239428 0.239428
0.269203 0.269203 0.269194
0.299511 0.299513 0.299482
0.330316 0.330358 0.330271
0.361518 0.361604 0.361497
0.393064 0.393152 0.393064
0.424877 0.424947 0.424877
0.456840 0.456918 0.456840
0.488859 0.488920 0.488853
0.520666 0.520749 0.520644
0.099068 0.099068 0.099068
0.124203 0.124203 0.124203
0.150552 0.150552 0.150552
0.178100 0.178100 0.178100
0.206446 0.206446 0.206446
0.235481 0.235481 0.235481
0.265130 0.265130 0.265123
0.295401 0.295409 0.295371
0.326117 0.326158 0.326072
0.357282 0.357358 0.357265
0.388785 0.388870 0.388781
0.420585 0.420661 0.420585
0.452525 0.452593 0.452525
0.484548 0.484609 0.484540
0.516512 0.516579 0.516494
0.548242 0.548329 0.548211
0.120656 0.120656 0.120656
0.146936 0.146936 0.146936
0.174292 0.174292 0.174292
0.202552 0.202552 0.202552
0.231498 0.231498 0.231498
0.261120 0.261120 0.261120
0.291276 0.291276 0.291244
0.321963 0.322015 0.321929
0.353039 0.353125 0.353023
0.384529 0.384615 0.384526
0.416270 0.416360 0.416270
0.448212 0.448276 0.448212
0.480207 0.480282 0.480207
0.512215 0.512276 0.512188
0.544085 0.544169 0.544054
0.575575 0.575666 0.575568
0.143328 0.143328 0.143328
0.170605 0.170605 0.170605
0.198697 0.198697 0.198697
0.227590 0.227590 0.227590
0.257080 0.257080 0.257080
0.287188 0.287188 0.287176
0.317813 0.317842 0.317758
0.348864 0.348941 0.348834
