example_ofxGpuLutCube/bin/data/ofxGpuLutCube/LUT/U25 (soft B&W_1).cube
LUT_3D_SIZE 6
0.000000 0.000000 0.000000
0.023163 0.023163 0.023163
0.079101 0.079101 0.079101
0.154785 0.154785 0.154785
0.240088 0.240088 0.240088
0.330910 0.330970 0.330849
0.018421 0.018421 0.018421
0.070270 0.070270 0.070270
0.143903 0.143903 0.143903
0.228235 0.228235 0.228235
0.318550 0.318569 0.318496
0.412644 0.412717 0.412644
0.061395 0.061395 0.061395
0.133213 0.133213 0.133213
0.216504 0.216504 0.216504
0.306094 0.306100 0.306039
0.399899 0.399990 0.399899
0.495614 0.495675 0.495591
0.122809 0.122809 0.122809
0.204869 0.204869 0.204869
0.293693 0.293697 0.293667
0.387071 0.387162 0.387071
0.482849 0.482920 0.482845
0.578179 0.578277 0.578155
0.193647 0.193647 0.193647
0.281570 0.281570 0.281563
0.374375 0.374467 0.374372
0.469946 0.470007 0.469942
0.565558 0.565638 0.565527
0.658421 0.658512 0.658390
0.270261 0.270261 0.270261
0.361738 0.361859 0.361737
0.456896 0.456987 0.456896
0.552728 0.552789 0.552697
0.646147 0.646239 0.646117
0.734006 0.734098 0.733976
0.017639 0.017639 0.017639
0.068489 0.068489 0.068489
0.141761 0.141761 0.141761
0.225886 0.225886 0.225886
0.316038 0.316068 0.315984
0.410056 0.410148 0.410056
0.059855 0.059855 0.059855
0.131218 0.131218 0.131218
0.214181 0.214181 0.214181
0.303641 0.303649 0.303606
0.397343 0.397422 0.397343
0.493041 0.493102 0.493041
0.120656 0.120656 0.120656
0.202552 0.202552 0.202552
0.291276 0.291276 0.291244
0.384529 0.384615 0.384526
0.480207 0.480282 0.480207
0.575575 0.575666 0.575568
0.191110 0.191110 0.191110
0.279039 0.279039 0.279023
0.371743 0.371834 0.371740
0.467262 0.467324 0.467262
0.562945 0.563031 0.562923
0.655824 0.655915 0.655793
0.267256 0.267256 0.267256
0.359128 0.359215 0.359109
0.454329 0.454397 0.454329
0.550137 0.550220 0.550115
0.643643 0.643739 0.643620
0.731595 0.731710 0.731570
0.347126 0.347169 0.347077
0.441438 0.441518 0.441438
0.537221 0.537296 0.537191
0.631225 0.631331 0.631209
0.720232 0.720336 0.720206
0.800530 0.800652 0.800500
0.057990 0.057990 0.057990
0.128927 0.128927 0.128927
0.211774 0.211774 0.211774
0.301107 0.301113 0.301081
0.394735 0.394827 0.394735
0.490438 0.490500 0.490415
0.118532 0.118532 0.118532
0.200241 0.200241 0.200241
0.288813 0.288813 0.288793
0.381929 0.382020 0.381929
0.477598 0.477675 0.477598
0.573016 0.573090 0.572995
0.188695 0.188695 0.188695
0.276549 0.276549 0.276540
0.369188 0.369276 0.369181
0.464629 0.464712 0.464629
0.560336 0.560425 0.560305
0.653320 0.653411 0.653289
0.264523 0.264523 0.264523
0.356501 0.356578 0.356484
0.451678 0.451760 0.451678
0.547503 0.547578 0.547473
0.641129 0.641221 0.641100
0.729281 0.729378 0.729256
0.344298 0.344374 0.344268
0.438858 0.438927 0.438858
0.534670 0.534742 0.534640
0.628746 0.628838 0.628726
0.717879 0.717987 0.717853
0.798479 0.798601 0.798463
0.426405 0.426496 0.426405
0.521858 0.521928 0.521829
0.616195 0.616311 0.616194
0.706225 0.706341 0.706219
0.788254 0.788376 0.788252
0.858854 0.859001 0.858848
0.116351 0.116351 0.116351
0.197806 0.197806 0.197806
0.286275 0.286275 0.286269
0.379374 0.379465 0.379374
0.475025 0.475088 0.475021
0.570506 0.570592 0.570476
0.186326 0.186326 0.186326
0.274074 0.274074 0.274066
0.366617 0.366695 0.366603
0.462030 0.462117 0.462030
0.557792 0.557877 0.557762
0.650891 0.650983 0.650876
0.261933 0.261933 0.261933
0.353935 0.354005 0.353913
0.449053 0.449138 0.449053
0.544915 0.545002 0.544889
0.638641 0.638741 0.638627
0.726978 0.727094 0.726972
0.341528 0.341594 0.341499
0.436175 0.436261 0.436175
0.532053 0.532128 0.532024
0.626180 0.626272 0.626175
0.715520 0.715617 0.715495
0.796392 0.796540 0.796392
0.423744 0.423808 0.423744
0.519273 0.519340 0.519243
0.613749 0.613841 0.613749
0.703877 0.703988 0.703862
0.786113 0.786235 0.786099
0.857124 0.857246 0.857108
0.507110 0.507195 0.507104
0.601306 0.601398 0.601306
0.692134 0.692231 0.692105
0.775629 0.775749 0.775598
0.848254 0.848376 0.848223
0.909932 0.910079 0.909902
0.183997 0.183997 0.183997
0.271580 0.271580 0.271572
0.364031 0.364122 0.364028
0.459455 0.459522 0.459455
0.555251 0.555327 0.555221
0.648496 0.648587 0.648484
0.259452 0.259452 0.259452
0.351368 0.351444 0.351345
0.446478 0.446555 0.446478
0.542374 0.542445 0.542344
0.636179 0.636276 0.636161
0.724726 0.724841 0.724719
0.338758 0.338817 0.338712
0.433544 0.433620 0.433544
0.529462 0.529535 0.529431
0.623721 0.623823 0.623706
0.713232 0.713341 0.713217
0.794400 0.794526 0.794388
0.420868 0.420954 0.420868
0.516608 0.516676 0.516592
0.611209 0.611316 0.611207
0.701534 0.701625 0.701503
0.784028 0.784150 0.784005
0.855359 0.855483 0.855346
0.504206 0.504267 0.504198
0.598750 0.598846 0.598742
0.689760 0.689861 0.689739
0.773484 0.773600 0.773471
0.846384 0.846513 0.846368
0.908416 0.908545 0.908386
0.586788 0.586879 0.586788
0.677944 0.678035 0.677914
0.762819 0.762928 0.762806
0.837340 0.837460 0.837295
0.900584 0.900713 0.900553
0.956077 0.956199 0.956064
0.256720 0.256720 0.256720
0.348657 0.348730 0.348638
0.443692 0.443777 0.443692
0.539634 0.539725 0.539628
0.633626 0.633717 0.633596
0.722410 0.722502 0.722380
0.336017 0.336066 0.335956
0.430767 0.430846 0.430767
0.526733 0.526794 0.526706
0.621142 0.621234 0.621132
0.710842 0.710941 0.710818
0.792302 0.792424 0.792302
0.417881 0.417973 0.417881
0.513821 0.513882 0.513789
0.608541 0.608639 0.608541
0.699105 0.699202 0.699075
0.781930 0.782052 0.781923
0.853551 0.853673 0.853520
0.501028 0.501089 0.500998
0.596019 0.596116 0.596019
0.687262 0.687373 0.687232
0.771289 0.771401 0.771279
0.844600 0.844722 0.844569
0.906815 0.906937 0.906785
0.583752 0.583844 0.583740
0.675402 0.675493 0.675371
0.760572 0.760670 0.760546
0.835421 0.835543 0.835390
0.898946 0.899093 0.898930
0.954620 0.954760 0.954589
0.664153 0.664245 0.664152
0.749683 0.749805 0.749652
0.826056 0.826178 0.826031
0.890898 0.891050 0.890898
0.947445 0.947567 0.947415
0.999690 0.999784 0.999660
