example_ofxGpuLutCube/bin/data/ofxGpuLutCube/LUT/U26 (hard teal orange).cube
LUT_3D_SIZE 6
0.000000 0.000000 0.000000
0.027314 0.002960 0.002344
0.224176 0.014990 0.006103
0.444860 0.038409 0.000031
0.669037 0.083044 0.000031
0.790253 0.106659 0.000031
0.004230 0.030969 0.004303
0.033842 0.022585 0.005372
0.206168 0.040631 0.010077
0.428888 0.078544 0.009703
0.679957 0.105893 0.001433
0.815832 0.125519 0.000031
0.017364 0.239734 0.017364
0.066782 0.244271 0.027448
0.251534 0.191293 0.024573
0.468524 0.194036 0.027200
0.744929 0.233448 0.029875
0.900427 0.254071 0.029529
0.032593 0.489551 0.032593
0.058625 0.512834 0.055442
0.376344 0.522620 0.052406
0.524932 0.409853 0.046437
0.801207 0.378675 0.047199
0.918640 0.392987 0.048963
0.052203 0.767279 0.052203
0.074644 0.804520 0.074644
0.349873 0.828325 0.079540
0.755941 0.861652 0.085270
0.824605 0.614452 0.067676
0.932745 0.573883 0.066071
0.063141 0.925995 0.063141
0.084790 0.970660 0.084790
0.315295 0.998547 0.099915
0.728308 0.997748 0.095459
0.949829 0.914081 0.092950
0.941071 0.719910 0.077942
0.000854 0.004138 0.008118
0.028699 0.004107 0.027536
0.219432 0.015943 0.042863
0.445412 0.038815 0.043503
0.700504 0.071738 0.014852
0.826434 0.098108 0.003193
0.005355 0.034084 0.018032
0.034532 0.036887 0.030870
0.263989 0.031765 0.017198
0.489826 0.056771 0.006890
0.728959 0.096001 0.000205
0.831729 0.117277 0.000909
0.018750 0.237399 0.044627
0.023760 0.266250 0.024924
0.261484 0.219221 0.036420
0.518304 0.222012 0.030197
0.808314 0.256189 0.032587
0.908692 0.287522 0.039690
0.035458 0.488580 0.058279
0.041726 0.531673 0.041726
0.313005 0.536915 0.053254
0.539663 0.440600 0.053465
0.858048 0.404651 0.050026
0.926467 0.433317 0.060183
0.052828 0.775945 0.052867
0.062568 0.824015 0.062568
0.255312 0.858294 0.087224
0.685477 0.869532 0.085350
0.844396 0.649004 0.071019
0.938804 0.607459 0.072671
0.060907 0.942334 0.060907
0.081784 0.980608 0.081784
0.249947 1.000000 0.129658
0.658227 0.999126 0.098676
0.954070 0.965313 0.112007
0.946264 0.762262 0.084161
0.005975 0.031671 0.064557
0.005955 0.031329 0.085581
0.229707 0.020088 0.220619
0.451422 0.042656 0.234148
0.706873 0.074650 0.212300
0.845111 0.092078 0.193652
0.010189 0.084999 0.104089
0.011203 0.090193 0.153091
0.266272 0.029856 0.254451
0.496318 0.055941 0.229373
0.759629 0.087821 0.196456
0.855022 0.109968 0.195822
0.022939 0.257843 0.141420
0.023561 0.284461 0.158813
0.253941 0.264255 0.242111
0.564198 0.233833 0.203322
0.894700 0.223623 0.156209
0.907209 0.272346 0.218337
0.037464 0.498732 0.172356
0.039313 0.547046 0.174333
0.182157 0.579494 0.193898
0.548709 0.497445 0.252516
0.920126 0.462389 0.166603
0.932400 0.499537 0.259556
0.054315 0.780278 0.217638
0.058178 0.839768 0.201565
0.097445 0.953041 0.103415
0.565482 0.894610 0.176659
0.855518 0.721150 0.225317
0.943822 0.669990 0.262915
0.065265 0.947821 0.213953
0.083264 0.982144 0.252528
0.208407 1.000000 0.310629
0.554103 1.000000 0.264150
0.954571 1.000000 0.346943
0.952808 0.837445 0.254999
0.009894 0.072619 0.143329
0.008329 0.052611 0.116521
0.154257 0.041100 0.458046
0.461219 0.049391 0.443573
0.720194 0.080539 0.424081
0.846588 0.096057 0.406238
0.014818 0.144265 0.194610
0.015916 0.150493 0.258567
0.114550 0.067795 0.524917
0.500995 0.060532 0.480489
0.770135 0.092701 0.432758
0.857468 0.115322 0.414579
0.026902 0.321714 0.306141
0.029139 0.350531 0.353302
0.127904 0.347024 0.477227
0.562590 0.220430 0.534888
0.895343 0.219959 0.467624
0.909801 0.276820 0.455217
0.042033 0.527884 0.291960
0.042580 0.578511 0.316883
0.179733 0.595280 0.420069
0.542536 0.553899 0.518006
0.926042 0.501560 0.455065
0.937665 0.539099 0.496912
0.058027 0.804406 0.292572
0.060132 0.865175 0.300489
0.094051 0.948992 0.388006
0.407375 0.935020 0.402964
0.866264 0.801582 0.476228
0.951315 0.768622 0.502812
0.068384 0.967297 0.318116
0.091545 0.990538 0.392972
0.216773 1.000000 0.527786
0.485475 1.000000 0.490028
0.928093 1.000000 0.557972
0.957910 0.922016 0.478326
0.014032 0.123907 0.244647
0.009867 0.070367 0.152828
0.021824 0.119916 0.601677
0.401600 0.068704 0.736982
0.721344 0.088074 0.691477
0.847119 0.102582 0.672863
0.019120 0.197916 0.290171
0.021068 0.214617 0.380317
0.019475 0.157721 0.567378
0.383852 0.089198 0.811019
0.766979 0.098519 0.734137
0.857415 0.120893 0.692821
0.032229 0.386188 0.434401
0.035150 0.421262 0.504031
0.042823 0.447892 0.753110
0.307470 0.285560 0.908048
0.889511 0.211559 0.847720
0.911739 0.278602 0.741049
0.047399 0.613920 0.553317
0.050509 0.654603 0.610749
0.060532 0.731327 0.759807
0.356175 0.649737 0.832025
0.924813 0.468898 0.876211
0.940487 0.531833 0.795761
0.062779 0.826057 0.441323
0.063252 0.888897 0.473017
0.100130 0.968123 0.589209
0.403118 0.941907 0.698749
0.861460 0.872981 0.820541
0.959928 0.869455 0.818875
0.077075 0.976092 0.424383
0.116134 1.000000 0.511839
0.278952 1.000000 0.609849
0.518446 1.000000 0.703568
0.848900 1.000000 0.827864
0.968158 0.999658 0.845124
0.016571 0.156158 0.310913
0.011725 0.092096 0.203027
0.018658 0.151434 0.533325
0.281048 0.103009 0.881330
0.718305 0.092944 0.849023
0.846252 0.107605 0.839752
0.021655 0.228528 0.350470
0.024117 0.252055 0.454989
0.019976 0.183191 0.535424
0.250275 0.138913 0.888770
0.734331 0.113611 0.859676
0.856000 0.124182 0.851447
0.035321 0.423444 0.509626
0.038584 0.462809 0.590323
0.061750 0.482165 0.764282
0.212332 0.365206 0.889446
0.775929 0.274730 0.910100
0.911829 0.278082 0.907782
0.051056 0.656250 0.650494
0.054301 0.698519 0.711199
0.091722 0.754393 0.819511
0.388822 0.681105 0.844753
0.798439 0.526909 0.938235
0.941156 0.520941 0.939404
0.068573 0.941534 0.673791
0.086238 0.963489 0.735370
0.162503 0.992030 0.832020
0.458645 0.965114 0.871094
0.809810 0.917962 0.945442
0.961353 0.858783 0.966443
0.079712 0.978912 0.534790
0.129437 1.000000 0.624506
0.310437 1.000000 0.719354
0.549041 1.000000 0.823096
0.877276 1.000000 0.942902
1.000000 1.000000 1.000000
