example_ofxGpuLutCube/bin/data/ofxGpuLutCube/LUT/U26 (hard teal orange).cube
LUT_3D_SIZE 16
0.000000 0.000000 0.000000
0.000000 0.000000 0.000000
0.001367 0.000220 0.000211
0.027314 0.002960 0.002344
0.077698 0.005965 0.004429
0.146515 0.010009 0.005666
0.224176 0.014990 0.006103
0.300810 0.021319 0.004883
0.372878 0.028371 0.002309
0.444860 0.038409 0.000031
0.514404 0.052968 0.000031
0.589335 0.067926 0.000031
0.669037 0.083044 0.000031
0.750930 0.099060 0.000031
0.790253 0.106659 0.000031
0.790253 0.106659 0.000031
0.000000 0.000000 0.000000
0.000000 0.000000 0.000000
0.001367 0.000220 0.000211
0.027338 0.002926 0.002345
0.077506 0.005942 0.004441
0.146182 0.009966 0.005679
0.223659 0.014950 0.006106
0.300335 0.021289 0.004883
0.372773 0.028351 0.002322
0.444744 0.038422 0.000031
0.514461 0.052973 0.000031
0.589628 0.067969 0.000031
0.669639 0.083174 0.000031
0.751695 0.099216 0.000031
0.790253 0.106659 0.000031
0.790253 0.106659 0.000031
0.000369 0.001500 0.000340
0.000362 0.001512 0.000333
0.002435 0.001502 0.000386
0.027959 0.002645 0.002462
0.073709 0.006512 0.004451
0.136925 0.012460 0.005976
0.208889 0.018757 0.006734
0.283760 0.025907 0.006272
0.359815 0.033602 0.004128
0.436197 0.043427 0.000657
0.510612 0.056564 0.000072
0.587330 0.070203 0.000031
0.665140 0.084692 0.000031
0.745265 0.099402 0.000031
0.793273 0.108330 0.000031
0.793500 0.108378 0.000031
0.004230 0.030969 0.004303
0.004218 0.030952 0.004291
0.010838 0.031657 0.005304
0.033842 0.022585 0.005372
0.075864 0.021079 0.006606
0.136892 0.029643 0.008476
0.206168 0.040631 0.010077
0.277963 0.053504 0.010582
0.352058 0.066620 0.010523
0.428888 0.078544 0.009703
0.510219 0.087577 0.007581
0.594638 0.096614 0.004185
0.679957 0.105893 0.001433
0.761679 0.117588 0.000583
0.815286 0.125424 0.000031
0.815832 0.125519 0.000031
0.008124 0.084627 0.008124
0.008128 0.084562 0.008128
0.012267 0.084828 0.009856
0.060182 0.088263 0.013201
0.090855 0.063733 0.011769
0.145555 0.057384 0.012126
0.213155 0.068240 0.013414
0.284079 0.082185 0.014739
0.357497 0.096255 0.015822
0.434207 0.110077 0.016383
0.516572 0.123594 0.016482
0.603479 0.137034 0.016052
0.693443 0.150447 0.014887
0.785440 0.161853 0.012855
0.845321 0.167649 0.010714
0.845950 0.167708 0.010696
0.012584 0.157501 0.012584
0.012567 0.157365 0.012567
0.016238 0.156508 0.014620
0.066299 0.161051 0.019397
0.143866 0.161331 0.020276
0.166779 0.122064 0.017680
0.226882 0.112187 0.017700
0.297482 0.119750 0.019038
0.371295 0.134445 0.020624
0.449739 0.148812 0.021940
0.533983 0.162506 0.022759
0.623371 0.175816 0.023046
0.716232 0.189061 0.022811
0.811620 0.202341 0.022151
0.873883 0.211188 0.021434
0.874532 0.211273 0.021423
0.017364 0.239734 0.017364
0.017355 0.239542 0.017355
0.021018 0.238974 0.020715
0.066782 0.244271 0.027448
0.158958 0.245801 0.027141
0.235321 0.241736 0.028157
0.251534 0.191293 0.024573
0.314224 0.178005 0.024491
0.388322 0.180343 0.025445
0.468524 0.194036 0.027200
0.555453 0.207782 0.028597
0.648099 0.220850 0.029414
0.744929 0.233448 0.029875
0.844160 0.246111 0.029742
0.900162 0.254002 0.029530
0.900427 0.254071 0.029529
0.022282 0.322813 0.022282
0.022293 0.322720 0.022293
0.026808 0.324551 0.026808
0.061683 0.332985 0.037506
0.163218 0.330865 0.034419
0.263808 0.336983 0.035968
0.327434 0.321573 0.035959
0.339412 0.264767 0.031844
0.405081 0.250792 0.031817
0.484962 0.247202 0.032467
0.573385 0.257691 0.034055
0.668248 0.270424 0.035534
0.768245 0.282460 0.036472
0.871863 0.294251 0.036882
0.907633 0.299370 0.037095
0.907639 0.299400 0.037101
0.027012 0.403634 0.027012
0.027125 0.403783 0.027125
0.033861 0.410448 0.033861
0.056963 0.422867 0.047401
0.163275 0.419076 0.042776
0.268706 0.423199 0.042972
0.372189 0.431855 0.045228
0.419820 0.400608 0.043736
0.429484 0.338810 0.039192
0.501581 0.323134 0.039163
0.590193 0.315244 0.039616
0.685751 0.319697 0.040743
0.787317 0.331464 0.042223
0.892412 0.343134 0.043243
0.913698 0.347243 0.043594
0.913702 0.347270 0.043598
0.032593 0.489551 0.032593
0.032790 0.489835 0.032790
0.041053 0.499525 0.041053
0.058625 0.512834 0.055442
0.158511 0.511405 0.052749
0.269216 0.513936 0.050710
0.376344 0.522620 0.052406
0.484262 0.529849 0.054821
0.516228 0.478041 0.051479
0.524932 0.409853 0.046437
0.604497 0.391862 0.046326
0.700173 0.380721 0.046600
0.801207 0.378675 0.047199
0.907061 0.389461 0.048566
0.918635 0.392967 0.048960
0.918640 0.392987 0.048963
0.039134 0.579234 0.039134
0.039343 0.579701 0.039343
0.047896 0.593230 0.047896
0.062899 0.607432 0.062899
0.141194 0.613295 0.066814
0.263122 0.611348 0.059801
0.372990 0.619605 0.060337
0.490830 0.631113 0.062766
0.604073 0.633301 0.064966
0.617999 0.556547 0.059401
0.623905 0.478377 0.053521
0.709793 0.457689 0.053280
0.810640 0.444336 0.053420
0.915226 0.435037 0.053340
0.922578 0.436218 0.053488
0.922577 0.436249 0.053487
0.045685 0.672465 0.045685
0.045897 0.673031 0.045897
0.054304 0.690016 0.054304
0.068863 0.704781 0.068863
0.111351 0.723222 0.085009
0.249687 0.714939 0.070846
0.364214 0.721780 0.069248
0.483052 0.733047 0.070832
0.618950 0.745529 0.073845
0.719751 0.729847 0.074526
0.722134 0.634953 0.067368
0.724198 0.546415 0.060582
0.815476 0.523086 0.060203
0.920205 0.507362 0.060173
0.927251 0.494052 0.059030
0.927244 0.493913 0.059017
0.052203 0.767279 0.052203
0.052414 0.767927 0.052414
0.060649 0.787911 0.060649
0.074644 0.804520 0.074644
0.098097 0.828388 0.095438
0.226331 0.824964 0.085250
0.349873 0.828325 0.079540
0.470614 0.838678 0.079675
0.606604 0.850809 0.081975
0.755941 0.861652 0.085270
0.833543 0.822787 0.083763
0.826297 0.712368 0.075244
0.824605 0.614452 0.067676
0.920570 0.588869 0.067124
0.932759 0.574058 0.066086
0.932745 0.573883 0.066071
0.058861 0.862883 0.058861
0.059074 0.863626 0.059074
0.066999 0.886825 0.066999
0.080554 0.905583 0.080554
0.100238 0.928662 0.100238
0.180336 0.946211 0.108950
0.329457 0.939400 0.091806
0.454052 0.947910 0.089580
0.590337 0.959013 0.090691
0.741026 0.969536 0.093416
0.893892 0.976498 0.096615
0.940099 0.906473 0.092167
0.929334 0.788385 0.082981
0.923499 0.681476 0.074622
0.937980 0.660719 0.073221
0.937964 0.660549 0.073205
0.063098 0.925336 0.063098
0.063316 0.926097 0.063316
0.071235 0.950639 0.071235
0.084745 0.969988 0.084745
0.105826 0.991919 0.105826
0.185717 1.000000 0.151206
0.315373 0.998544 0.099901
0.442534 0.994100 0.094118
0.578564 0.994540 0.093642
0.728462 0.997754 0.095463
0.887631 1.000000 0.115806
0.950276 1.000000 0.134844
0.949775 0.912751 0.092847
0.944651 0.792492 0.083618
0.941095 0.719995 0.077951
0.941047 0.719273 0.077893
0.063141 0.925995 0.063141
0.063359 0.926754 0.063359
0.071283 0.951304 0.071283
0.084790 0.970660 0.084790
0.106006 0.992503 0.106006
0.186524 1.000000 0.152161
0.315295 0.998547 0.099915
0.442422 0.994102 0.094120
0.578418 0.994539 0.093642
0.728308 0.997748 0.095459
0.887462 1.000000 0.115743
0.950195 1.000000 0.135956
0.949829 0.914081 0.092950
0.944704 0.793731 0.083716
0.941122 0.720669 0.078003
0.941071 0.719910 0.077942
0.000000 0.000000 0.000000
0.000000 0.000000 0.000000
0.001365 0.000218 0.000210
0.027326 0.002955 0.002348
0.077641 0.005966 0.004426
0.146430 0.009996 0.005663
0.224035 0.014978 0.006106
0.300709 0.021304 0.004893
0.372807 0.028362 0.002318
0.444721 0.038430 0.000031
0.514364 0.052927 0.000031
0.589299 0.067885 0.000031
0.668906 0.083040 0.000031
0.750835 0.099035 0.000031
0.790253 0.106659 0.000031
0.790253 0.106659 0.000031
0.000000 0.000000 0.000000
0.000000 0.000000 0.000000
0.001376 0.000219 0.000211
0.027400 0.002928 0.002353
0.077552 0.005950 0.004438
0.146211 0.009961 0.005676
0.223619 0.014945 0.006108
0.300308 0.021279 0.004892
0.372755 0.028348 0.002327
0.444666 0.038451 0.000031
0.514488 0.052948 0.000031
0.589677 0.067946 0.000031
0.669602 0.083188 0.000031
0.751697 0.099208 0.000031
0.790253 0.106659 0.000031
0.790253 0.106659 0.000031
0.000362 0.001506 0.000334
0.000355 0.001523 0.000327
0.002440 0.001534 0.000390
0.028478 0.002739 0.002505
0.074988 0.006578 0.004481
0.138514 0.012430 0.005980
0.210440 0.018682 0.006707
0.285044 0.025844 0.006186
0.360896 0.033555 0.004043
0.437123 0.043440 0.000626
0.511531 0.056647 0.000069
0.588558 0.070353 0.000031
0.666921 0.084938 0.000031
0.747822 0.099821 0.000031
0.793172 0.108259 0.000031
0.793382 0.108303 0.000031
0.004229 0.030968 0.004302
0.004222 0.030984 0.004295
0.010591 0.031997 0.005291
0.034022 0.022716 0.005399
0.076596 0.021134 0.006621
0.138110 0.029714 0.008491
0.207556 0.040763 0.010062
0.279373 0.053682 0.010561
0.353424 0.066656 0.010470
0.430314 0.078427 0.009594
0.511854 0.087419 0.007410
0.596531 0.096460 0.004005
0.682026 0.105892 0.001366
0.764239 0.117699 0.000546
0.816270 0.125296 0.000031
0.816778 0.125384 0.000031
0.008139 0.084587 0.008139
0.008146 0.084579 0.008146
0.012129 0.085450 0.009807
0.059835 0.088746 0.013224
0.091133 0.063917 0.011791
0.146193 0.057443 0.012124
0.214115 0.068350 0.013432
0.285169 0.082351 0.014750
0.358673 0.096466 0.015832
0.435555 0.110333 0.016397
0.518184 0.123856 0.016477
0.605512 0.137263 0.016017
0.695944 0.150385 0.014723
0.788557 0.161589 0.012535
0.847425 0.167159 0.010363
0.848011 0.167212 0.010345
0.012583 0.157480 0.012583
0.012570 0.157406 0.012570
0.016088 0.157228 0.014567
0.065437 0.161713 0.019440
0.143616 0.161809 0.020308
0.167050 0.122296 0.017704
0.227365 0.112291 0.017714
0.298134 0.120003 0.019059
0.372069 0.134750 0.020659
0.450623 0.149144 0.021971
0.535101 0.162827 0.022792
0.624810 0.176102 0.023061
0.718113 0.189300 0.022798
0.814068 0.202520 0.022082
0.875072 0.211163 0.021372
0.875678 0.211245 0.021363
0.017362 0.239702 0.017362
0.017355 0.239559 0.017355
0.020924 0.239563 0.020641
0.065741 0.244942 0.027513
0.158216 0.246312 0.027180
0.235410 0.242308 0.028201
0.251752 0.191629 0.024604
0.314526 0.178256 0.024515
0.388703 0.180764 0.025485
0.469006 0.194482 0.027245
0.556098 0.208210 0.028643
0.648957 0.221236 0.029465
0.746072 0.233796 0.029909
0.845698 0.246412 0.029752
0.900199 0.254090 0.029548
0.900447 0.254155 0.029547
0.022280 0.322816 0.022280
0.022292 0.322751 0.022292
0.026769 0.324965 0.026769
0.060798 0.333483 0.037530
0.162334 0.331317 0.034467
0.263231 0.337297 0.035985
0.327504 0.322066 0.035998
0.339554 0.265167 0.031877
0.405297 0.251090 0.031844
0.485327 0.247561 0.032503
0.573915 0.258103 0.034100
0.668937 0.270805 0.035577
0.769105 0.282809 0.036509
0.872927 0.294577 0.036914
0.907672 0.299600 0.037130
0.907678 0.299629 0.037136
0.027011 0.403634 0.027011
0.027123 0.403810 0.027123
0.033819 0.410847 0.033819
0.056588 0.423188 0.047327
0.162308 0.419487 0.042843
0.267981 0.423501 0.042991
0.371658 0.432074 0.045236
0.420009 0.401200 0.043785
0.429644 0.339184 0.039226
0.501851 0.323414 0.039191
0.590613 0.315514 0.039643
0.686356 0.320077 0.040787
0.788076 0.331809 0.042263
0.893277 0.343451 0.043275
0.913726 0.347482 0.043624
0.913731 0.347509 0.043627
0.032584 0.489530 0.032584
0.032780 0.489847 0.032780
0.041002 0.499988 0.041002
0.058371 0.513271 0.055389
0.157253 0.511993 0.052902
0.268326 0.514333 0.050749
0.375603 0.522919 0.052420
0.483855 0.530185 0.054839
0.516450 0.478670 0.051531
0.525118 0.410222 0.046468
0.604807 0.392125 0.046353
0.700634 0.380921 0.046621
0.801849 0.379010 0.047237
0.907437 0.389756 0.048598
0.918656 0.393230 0.048988
0.918661 0.393250 0.048990
0.039113 0.579358 0.039113
0.039320 0.579857 0.039320
0.047834 0.593792 0.047834
0.062794 0.607960 0.062794
0.139291 0.614246 0.067212
0.262075 0.611902 0.059877
0.372135 0.620029 0.060366
0.490046 0.631440 0.062780
0.603824 0.633791 0.064999
0.618264 0.557205 0.059455
0.624115 0.478754 0.053554
0.710136 0.457942 0.053305
0.811155 0.444511 0.053441
0.915345 0.435259 0.053363
0.922604 0.436496 0.053517
0.922604 0.436527 0.053516
0.045656 0.672770 0.045656
0.045867 0.673372 0.045867
0.054247 0.690750 0.054247
0.068777 0.705479 0.068777
0.110466 0.723867 0.084966
0.248398 0.715734 0.071005
0.363242 0.722394 0.069312
0.482179 0.733549 0.070866
0.618180 0.745931 0.073865
0.719904 0.730653 0.074590
0.722438 0.635650 0.067425
0.724449 0.546794 0.060617
0.815856 0.523346 0.060230
0.920343 0.507498 0.060187
0.927253 0.494126 0.059039
0.927246 0.493986 0.059026
0.052180 0.767887 0.052180
0.052392 0.768550 0.052392
0.060593 0.788799 0.060593
0.074551 0.805327 0.074551
0.097727 0.828988 0.095245
0.224476 0.826034 0.085600
0.348717 0.829101 0.079646
0.469613 0.839357 0.079733
0.605724 0.851394 0.082011
0.755286 0.862193 0.085299
0.833852 0.823729 0.083840
0.826685 0.713107 0.075308
0.824898 0.614842 0.067710
0.920990 0.589168 0.067158
0.932781 0.574272 0.066106
0.932768 0.574096 0.066091
0.058873 0.863465 0.058873
0.059084 0.864228 0.059084
0.066944 0.887725 0.066944
0.080422 0.906516 0.080422
0.100011 0.929427 0.100011
0.178353 0.947399 0.109308
0.328028 0.940331 0.091989
0.452869 0.948698 0.089667
0.589275 0.959720 0.090744
0.740135 0.970173 0.093453
0.893541 0.977139 0.096657
0.940349 0.907652 0.092262
0.929785 0.789175 0.083050
0.923887 0.681928 0.074665
0.937999 0.661039 0.073247
0.937983 0.660868 0.073231
0.063129 0.925837 0.063129
0.063342 0.926625 0.063342
0.071176 0.951578 0.071176
0.084546 0.970677 0.084546
0.105527 0.992236 0.105527
0.184362 1.000000 0.151056
0.313897 0.998573 0.100226
0.441282 0.994119 0.094144
0.577410 0.994523 0.093636
0.727460 0.997728 0.095447
0.886870 1.000000 0.115619
0.950270 1.000000 0.134919
0.949808 0.913745 0.092923
0.944681 0.793128 0.083666
0.941125 0.720392 0.077983
0.941078 0.719668 0.077925
0.063172 0.926498 0.063172
0.063385 0.927283 0.063385
0.071223 0.952241 0.071223
0.084588 0.971321 0.084588
0.105694 0.992785 0.105694
0.185107 1.000000 0.151946
0.313817 0.998577 0.100239
0.441169 0.994121 0.094146
0.577264 0.994523 0.093636
0.727305 0.997722 0.095443
0.886704 1.000000 0.115558
0.950195 1.000000 0.135956
0.949862 0.915078 0.093027
0.944734 0.794370 0.083765
0.941153 0.721065 0.078035
0.941104 0.720305 0.077975
0.000085 0.000155 0.000330
0.000081 0.000156 0.000328
0.001787 0.000281 0.000591
0.027239 0.003075 0.003572
0.076357 0.006039 0.006659
0.144037 0.010026 0.008634
0.220190 0.015071 0.010075
0.297779 0.021418 0.009243
0.371176 0.028953 0.007640
0.446454 0.037721 0.003788
0.517685 0.051873 0.001386
0.593014 0.066559 0.000187
0.670160 0.082507 0.000031
0.750409 0.098663 0.000031
0.792649 0.107003 0.000031
0.792646 0.107005 0.000031
0.000081 0.000156 0.000328
0.000079 0.000159 0.000328
0.001899 0.000313 0.000682
0.027977 0.003148 0.003654
0.077707 0.006108 0.006640
0.145470 0.010091 0.008573
0.221283 0.015155 0.009942
0.298494 0.021484 0.009173
0.371903 0.029025 0.007526
0.447275 0.037892 0.003691
0.518798 0.052113 0.001363
0.594601 0.066894 0.000182
0.672173 0.082902 0.000031
0.752585 0.099099 0.000031
0.792634 0.107009 0.000031
0.792629 0.107012 0.000031
0.000362 0.001993 0.000837
0.000359 0.002069 0.000864
0.002339 0.002491 0.001310
0.036234 0.004177 0.004209
0.092196 0.008036 0.006027
0.160441 0.012153 0.007125
0.231844 0.017325 0.007548
0.304497 0.023715 0.006776
0.378319 0.031545 0.004318
0.453275 0.041804 0.001388
0.528653 0.055897 0.000474
0.608778 0.071392 0.000031
0.694487 0.088102 0.000031
0.785275 0.105895 0.000031
0.794339 0.107587 0.000031
0.794336 0.107588 0.000031
0.003983 0.031262 0.004674
0.004055 0.031671 0.004748
0.005962 0.035964 0.005505
0.035452 0.028369 0.006854
0.087944 0.028227 0.007699
0.156946 0.037159 0.009851
0.228646 0.048323 0.010703
0.300558 0.057680 0.010415
0.374731 0.066644 0.009504
0.452931 0.074789 0.007267
0.537205 0.083015 0.003952
0.623666 0.092705 0.001273
0.710882 0.104675 0.000306
0.799649 0.118186 0.000031
0.828921 0.122794 0.000031
0.828904 0.122774 0.000031
0.008340 0.083801 0.009352
0.008381 0.084570 0.009364
0.009325 0.093385 0.009522
0.045664 0.095163 0.013167
0.095222 0.072894 0.012613
0.156542 0.066842 0.012961
0.228887 0.079272 0.014590
0.302270 0.094017 0.016102
0.377527 0.108977 0.017374
0.457280 0.122814 0.017973
0.543615 0.134332 0.017714
0.635319 0.142321 0.015760
0.731889 0.149841 0.012470
0.832594 0.156678 0.007718
0.876656 0.159813 0.005293
0.876643 0.159793 0.005282
0.012740 0.156418 0.013887
0.012768 0.157190 0.013881
0.013675 0.166482 0.014181
0.043837 0.169789 0.019315
0.129530 0.169154 0.020649
0.170944 0.133154 0.018639
0.235178 0.121835 0.018750
0.308899 0.134237 0.020478
0.384975 0.149728 0.022300
0.466163 0.164095 0.023760
0.553951 0.177561 0.024671
0.647980 0.190325 0.024954
0.747244 0.202890 0.024589
0.850714 0.214761 0.023327
0.894032 0.220491 0.022875
0.894041 0.220487 0.022879
0.017666 0.238152 0.018831
0.017682 0.238694 0.018811
0.019431 0.246745 0.019602
0.041718 0.253500 0.027970
0.133643 0.252708 0.027584
0.228796 0.251755 0.028786
0.255052 0.203985 0.025637
0.320195 0.190207 0.025583
0.397162 0.196931 0.027121
0.480055 0.211135 0.028982
0.569808 0.224250 0.030476
0.665249 0.236695 0.031458
0.765834 0.248713 0.031870
0.869988 0.260927 0.031668
0.902891 0.266622 0.031998
0.902900 0.266640 0.032004
0.022668 0.321897 0.023538
0.022673 0.322222 0.023513
0.025687 0.330116 0.025687
0.043312 0.339759 0.037327
0.134541 0.337333 0.035303
0.241093 0.340606 0.035944
0.324837 0.334280 0.036870
0.342635 0.278387 0.033002
0.411497 0.262086 0.032855
0.495719 0.262195 0.033927
0.587488 0.273755 0.035724
0.685247 0.285558 0.037214
0.787148 0.297171 0.038235
0.891968 0.309106 0.038773
0.909967 0.314370 0.039503
0.909966 0.314394 0.039504
0.027689 0.402846 0.028213
0.027711 0.403389 0.028201
0.032130 0.415915 0.032130
0.047458 0.427413 0.045618
0.130601 0.426125 0.044743
0.242461 0.427345 0.043108
0.350551 0.434340 0.045053
0.420688 0.415607 0.044911
0.434208 0.352207 0.040379
0.510563 0.333881 0.040200
0.603557 0.326390 0.040763
0.702854 0.334596 0.042337
0.806579 0.345908 0.043800
0.909042 0.358422 0.045349
0.915931 0.362572 0.045941
0.915932 0.362611 0.045943
0.032780 0.488433 0.032810
0.032873 0.489198 0.032900
0.038662 0.505886 0.038662
0.053221 0.518674 0.053221
0.117893 0.522521 0.057463
0.239148 0.519874 0.051411
0.349636 0.526439 0.052368
0.464923 0.535471 0.054896
0.520501 0.496923 0.053018
0.530965 0.423295 0.047595
0.614887 0.402463 0.047352
0.714732 0.390432 0.047630
0.819124 0.392715 0.048694
0.915386 0.405506 0.050909
0.920810 0.408969 0.051321
0.920816 0.408996 0.051324
0.037781 0.580595 0.037781
0.037987 0.581459 0.037987
0.045681 0.600570 0.045681
0.060134 0.613815 0.060134
0.097505 0.627268 0.073381
0.229534 0.619605 0.061482
0.343507 0.625334 0.060680
0.461478 0.634788 0.062608
0.587661 0.641017 0.065240
0.623160 0.576419 0.061021
0.630479 0.492262 0.054729
0.719968 0.468585 0.054322
0.824455 0.453114 0.054329
0.919479 0.450260 0.055494
0.924595 0.452956 0.055753
0.924593 0.452982 0.055755
0.044358 0.675670 0.044358
0.044557 0.676707 0.044557
0.052551 0.698666 0.052551
0.066647 0.713248 0.066647
0.089959 0.732146 0.084516
0.211100 0.726779 0.074576
0.332954 0.729627 0.070233
0.451778 0.738825 0.071024
0.587140 0.749358 0.073646
0.714730 0.748081 0.075807
0.727196 0.655673 0.069027
0.730040 0.560996 0.061823
0.824290 0.534821 0.061299
0.923851 0.518115 0.061664
0.928589 0.505030 0.060554
0.928581 0.504916 0.060543
0.051131 0.773437 0.051131
0.051327 0.774663 0.051327
0.059204 0.800613 0.059204
0.072781 0.816404 0.072781
0.091553 0.836828 0.091553
0.174480 0.845127 0.094772
0.316097 0.840132 0.081707
0.438312 0.847479 0.080457
0.573295 0.857614 0.082099
0.724768 0.866794 0.085117
0.832968 0.844512 0.085401
0.831660 0.734248 0.077016
0.829485 0.630061 0.068965
0.926919 0.602935 0.068564
0.933975 0.586845 0.067452
0.933965 0.586670 0.067436
0.057651 0.874860 0.057651
0.057865 0.876230 0.057865
0.065846 0.904738 0.065846
0.078937 0.921910 0.078937
0.097195 0.942839 0.097195
0.139467 0.966095 0.114363
0.291902 0.956384 0.096006
0.420960 0.960971 0.091286
0.556579 0.970007 0.091421
0.707713 0.978544 0.093644
0.869133 0.985259 0.096848
0.944122 0.937731 0.094736
0.936645 0.813064 0.085090
0.929953 0.699992 0.076189
0.939071 0.677599 0.074717
0.939060 0.677420 0.074703
0.062102 0.941169 0.062102
0.062310 0.942619 0.062310
0.069917 0.968311 0.069917
0.082431 0.981206 0.082431
0.102412 0.997286 0.102412
0.155524 1.000000 0.150454
0.280040 0.999336 0.108388
0.410020 0.994705 0.094898
0.545599 0.994251 0.093604
0.695262 0.997019 0.095053
0.857060 1.000000 0.109035
0.949999 1.000000 0.136740
0.950944 0.943740 0.096214
0.945919 0.816788 0.085589
0.942360 0.739902 0.079612
0.942325 0.739161 0.079555
0.062150 0.941850 0.062150
0.062358 0.943301 0.062358
0.069942 0.968689 0.069942
0.082435 0.981243 0.082435
0.102403 0.997283 0.102403
0.155428 1.000000 0.150464
0.279955 0.999338 0.108404
0.409914 0.994705 0.094899
0.545474 0.994250 0.093603
0.695118 0.997016 0.095050
0.856941 1.000000 0.109013
0.949994 1.000000 0.136735
0.950990 0.945122 0.096383
0.945976 0.818079 0.085689
0.942400 0.740587 0.079666
0.942363 0.739807 0.079606
0.000854 0.004138 0.008118
0.000855 0.004113 0.008061
0.001626 0.003823 0.009427
0.028699 0.004107 0.027536
0.078020 0.006939 0.032591
0.144279 0.010915 0.037941
0.219432 0.015943 0.042863
0.296021 0.022514 0.044906
0.370764 0.029789 0.046080
0.445412 0.038815 0.043503
0.525792 0.049084 0.036969
0.611067 0.060014 0.027461
0.700504 0.071738 0.014852
0.785513 0.087164 0.004786
0.826306 0.098072 0.003199
0.826434 0.098108 0.003193
0.000857 0.004115 0.008063
0.000861 0.004101 0.008031
0.001650 0.003974 0.009728
0.029387 0.004177 0.028184
0.079272 0.007035 0.032956
0.145685 0.011018 0.038097
0.220582 0.016049 0.042875
0.296870 0.022582 0.044935
0.371521 0.029878 0.046045
0.446395 0.038928 0.043427
0.527154 0.049254 0.036911
0.612937 0.060263 0.027458
0.702720 0.072038 0.014782
0.787668 0.087597 0.004766
0.826317 0.098074 0.003200
0.826435 0.098108 0.003193
0.001766 0.009354 0.012011
0.001808 0.009587 0.012388
0.002121 0.010075 0.017416
0.035555 0.005787 0.034667
0.093877 0.008396 0.034758
0.162122 0.012262 0.036485
0.233440 0.017426 0.038705
0.305614 0.024066 0.039677
0.379626 0.031691 0.039124
0.457255 0.040946 0.035278
0.541389 0.051739 0.028952
0.632205 0.063284 0.020526
0.728979 0.076553 0.010921
0.821161 0.094504 0.004567
0.831591 0.096775 0.004569
0.831564 0.096788 0.004578
0.005355 0.034084 0.018032
0.005404 0.034467 0.018262
0.006187 0.038207 0.022377
0.034532 0.036887 0.030870
0.107910 0.028397 0.024498
0.189030 0.026989 0.018169
0.263989 0.031765 0.017198
0.338307 0.039088 0.015296
0.412889 0.047580 0.011815
0.489826 0.056771 0.006890
0.566494 0.068717 0.003708
0.645630 0.082083 0.001913
0.728959 0.096001 0.000205
0.811165 0.111893 0.000031
0.831755 0.117281 0.000916
0.831729 0.117277 0.000909
0.009189 0.085103 0.026798
0.009219 0.085732 0.026834
0.009527 0.093677 0.027493
0.023181 0.102676 0.020789
0.095586 0.083754 0.029619
0.179197 0.077331 0.017500
0.260735 0.086621 0.016851
0.340025 0.097396 0.017108
0.418027 0.105550 0.016793
0.498966 0.113157 0.015542
0.584472 0.119643 0.012860
0.674746 0.126491 0.009257
0.768022 0.134026 0.005159
0.858753 0.144330 0.002292
0.876941 0.156055 0.007070
0.876932 0.156041 0.007058
0.013646 0.156277 0.036619
0.013681 0.156998 0.036494
0.014128 0.166359 0.034608
0.020112 0.181857 0.020115
0.103631 0.175694 0.026829
0.176537 0.147158 0.031239
0.256925 0.135729 0.022009
0.341088 0.146252 0.021991
0.423093 0.159212 0.023523
0.506719 0.172473 0.024698
0.596154 0.184027 0.025345
0.690098 0.193890 0.024933
0.787653 0.200877 0.023104
0.884088 0.209081 0.021014
0.896478 0.222619 0.026773
0.896474 0.222591 0.026770
0.018750 0.237399 0.044627
0.018786 0.237969 0.044458
0.019291 0.247691 0.039812
0.023760 0.266250 0.024924
0.090753 0.266250 0.029444
0.210663 0.256701 0.036970
0.261484 0.219221 0.036420
0.342161 0.202685 0.028347
0.429370 0.210567 0.028684
0.518304 0.222012 0.030197
0.611084 0.233294 0.031505
0.707997 0.244600 0.032321
0.808314 0.256189 0.032587
0.900222 0.272313 0.034077
0.908695 0.287498 0.039687
0.908692 0.287522 0.039690
0.024251 0.321241 0.050559
0.024269 0.321591 0.050458
0.024703 0.332873 0.042181
0.029151 0.352852 0.030050
0.080147 0.358128 0.039634
0.208270 0.348800 0.037831
0.316494 0.343626 0.044022
0.349456 0.294231 0.043327
