example_ofxGpuLutCube/bin/data/ofxGpuLutCube/LUT/U27 (hard teal orange_1).cube
LUT_3D_SIZE 16
0.000000 0.000000 0.000000
0.000000 0.000000 0.000000
0.001170 0.000129 0.000129
0.023041 0.001794 0.001044
0.064656 0.003570 0.001734
0.121012 0.006480 0.001221
0.184637 0.010815 0.000195
0.242888 0.018907 0.000031
0.295664 0.028915 0.000031
0.353479 0.040002 0.000031
0.418122 0.052511 0.000031
0.492606 0.064921 0.000031
0.576325 0.077673 0.000031
0.666652 0.091107 0.000031
0.711273 0.097534 0.000031
0.711273 0.097534 0.000031
0.000000 0.000000 0.000000
0.000000 0.000000 0.000000
0.001170 0.000129 0.000129
0.023058 0.001768 0.001048
0.064491 0.003556 0.001746
0.120735 0.006448 0.001246
0.184237 0.010769 0.000195
0.242507 0.018870 0.000031
0.295567 0.028904 0.000031
0.353409 0.040000 0.000031
0.418202 0.052499 0.000031
0.492919 0.064958 0.000031
0.576962 0.077788 0.000031
0.667515 0.091238 0.000031
0.711273 0.097534 0.000031
0.711273 0.097534 0.000031
0.000155 0.001278 0.000155
0.000149 0.001288 0.000149
0.001977 0.001188 0.000229
0.023273 0.001691 0.001182
0.060964 0.004237 0.001778
0.112865 0.008571 0.001692
0.172600 0.013484 0.000567
0.230271 0.021768 0.000031
0.287703 0.031667 0.000031
0.348395 0.042868 0.000031
0.416257 0.054539 0.000031
0.491582 0.066385 0.000031
0.573021 0.078660 0.000031
0.660429 0.091233 0.000031
0.715346 0.098652 0.000031
0.715643 0.098677 0.000031
0.001452 0.025769 0.001929
0.001435 0.025762 0.001909
0.005808 0.026789 0.002607
0.027012 0.018148 0.002560
0.062226 0.016091 0.002943
0.111867 0.022844 0.002820
0.168480 0.031948 0.002051
0.229389 0.042264 0.000517
0.293093 0.053243 0.000183
0.360451 0.064000 0.000031
0.433169 0.073389 0.000031
0.511822 0.083262 0.000031
0.595891 0.093440 0.000031
0.684620 0.104128 0.000031
0.744073 0.111442 0.000031
0.744684 0.111530 0.000031
0.002651 0.069661 0.003711
0.002654 0.069608 0.003719
0.005839 0.069821 0.005286
0.045779 0.071751 0.007190
0.071833 0.051453 0.005423
0.117302 0.045823 0.004836
0.173882 0.054124 0.004504
0.234704 0.065062 0.003911
0.300079 0.076086 0.003405
0.371648 0.087114 0.002014
0.453034 0.097965 0.000865
0.541986 0.109575 0.000287
0.638641 0.121319 0.000031
0.739138 0.132325 0.000031
0.804445 0.138709 0.000031
0.805166 0.138767 0.000031
0.004008 0.129517 0.006948
0.003998 0.129405 0.006932
0.006538 0.128872 0.008755
0.045618 0.132849 0.012828
0.111925 0.131280 0.011537
0.132863 0.098470 0.008687
0.184340 0.089744 0.007626
0.245553 0.095411 0.007458
0.312106 0.106923 0.007423
0.386302 0.118278 0.007178
0.471083 0.129164 0.006365
0.567246 0.139806 0.004963
0.672701 0.150511 0.003186
0.784833 0.161532 0.001211
0.858220 0.169097 0.000788
0.858978 0.169169 0.000784
0.005255 0.198578 0.011908
0.005253 0.198416 0.011889
0.008027 0.197997 0.014579
0.039107 0.204874 0.022001
0.119984 0.202931 0.018849
0.186143 0.198181 0.017871
0.202644 0.155087 0.013552
0.258784 0.143214 0.012172
0.326618 0.144533 0.011752
0.403509 0.155482 0.011793
0.492592 0.166396 0.011688
0.594147 0.176826 0.011014
0.705658 0.187123 0.009905
0.824374 0.197418 0.008402
0.892559 0.203893 0.007497
0.892889 0.203955 0.007489
0.006287 0.270980 0.018585
0.006300 0.270896 0.018588
0.009999 0.272493 0.021998
0.029919 0.283662 0.033719
0.117628 0.278735 0.028498
0.205916 0.281757 0.027498
0.264107 0.266894 0.025621
0.277853 0.216699 0.019698
0.339757 0.203798 0.018271
0.418225 0.200038 0.017229
0.510291 0.208281 0.017259
0.615438 0.218645 0.017437
0.732027 0.228475 0.016878
0.857127 0.238080 0.015886
0.900856 0.242445 0.015707
0.900861 0.242473 0.015717
0.007123 0.344755 0.026506
0.007212 0.344897 0.026587
0.012580 0.351141 0.031806
0.026735 0.364903 0.044301
0.109322 0.362545 0.041660
0.204535 0.362295 0.038373
0.299032 0.368285 0.038551
0.346270 0.338111 0.034528
0.358983 0.280957 0.027228
0.431729 0.265967 0.025334
0.526159 0.258160 0.023752
0.633770 0.261289 0.023297
0.753288 0.270945 0.023312
0.880815 0.280703 0.023197
0.906944 0.284244 0.023324
0.906952 0.284267 0.023336
0.008197 0.427741 0.037396
0.008348 0.428024 0.037559
0.014836 0.437696 0.044183
0.027035 0.452076 0.056266
0.091028 0.459251 0.060907
0.197768 0.453166 0.052828
0.296619 0.458854 0.052225
0.401607 0.464132 0.052785
0.437945 0.411407 0.044920
0.451179 0.345127 0.035418
0.537985 0.327278 0.032823
0.647591 0.315973 0.031024
0.767972 0.313214 0.029788
0.897067 0.322360 0.029815
0.911249 0.325463 0.030369
0.911261 0.325483 0.030371
0.009766 0.520386 0.050608
0.009921 0.520885 0.050795
0.016491 0.535337 0.058156
0.028370 0.550680 0.069997
0.062696 0.573545 0.085225
0.182441 0.559421 0.071306
0.285632 0.563501 0.068683
0.400865 0.572958 0.069184
0.521214 0.573126 0.068856
0.542375 0.490096 0.056793
0.554358 0.409889 0.044708
0.654487 0.388409 0.041450
0.775891 0.374512 0.039071
0.904990 0.364626 0.036861
0.914044 0.365741 0.036918
0.914042 0.365774 0.036926
0.011204 0.622933 0.064386
0.011355 0.623576 0.064577
0.017619 0.642873 0.071988
0.029133 0.659667 0.083686
0.049349 0.689180 0.102733
0.155120 0.683192 0.094290
0.267797 0.681792 0.087276
0.384583 0.690365 0.086258
0.529200 0.701293 0.086959
0.646504 0.680973 0.084117
0.656727 0.573085 0.069046
0.665493 0.477433 0.055179
0.776982 0.452170 0.051156
0.907149 0.435069 0.048368
0.916732 0.421711 0.046091
0.916740 0.421573 0.046071
0.012500 0.732428 0.078106
0.012648 0.733190 0.078326
0.018611 0.756759 0.086179
0.029610 0.776394 0.097707
0.046583 0.805749 0.115397
0.102354 0.831732 0.128090
0.242081 0.812491 0.108592
0.362212 0.818137 0.105029
0.506261 0.828100 0.104545
0.678915 0.837405 0.105234
0.776705 0.788898 0.098755
0.776594 0.658841 0.081228
0.781772 0.548553 0.065793
0.902376 0.519563 0.061342
0.918489 0.503614 0.058970
0.918488 0.503430 0.058936
0.013857 0.846489 0.092131
0.014003 0.847386 0.092363
0.019600 0.875412 0.100529
0.030113 0.898113 0.111879
0.045575 0.926085 0.128192
0.071197 0.972164 0.152843
0.204636 0.956517 0.134702
0.333963 0.954921 0.125849
0.477975 0.962233 0.123470
0.651386 0.970356 0.123185
0.838557 0.975109 0.123489
0.902641 0.888197 0.112021
0.898701 0.745962 0.093147
0.899468 0.621608 0.076197
0.919113 0.597890 0.072821
0.919112 0.597693 0.072786
0.014673 0.922235 0.101581
0.014821 0.923164 0.101799
0.020365 0.953045 0.109704
0.030807 0.976637 0.121433
0.051371 0.999420 0.141805
0.118813 1.000000 0.203651
0.212702 1.000000 0.191435
0.329594 1.000000 0.154092
0.467437 1.000000 0.142011
0.637196 1.000000 0.141461
0.829781 1.000000 0.155183
0.907720 1.000000 0.165646
0.914297 0.895649 0.113011
0.917576 0.750226 0.093822
0.918637 0.665193 0.082260
0.918628 0.664350 0.082143
0.014679 0.923035 0.101685
0.014828 0.923961 0.101903
0.020376 0.953855 0.109798
0.030816 0.977460 0.121527
0.051627 1.000000 0.142112
0.119507 1.000000 0.204305
0.212628 1.000000 0.191486
0.329480 1.000000 0.154114
0.467285 1.000000 0.142021
0.637018 1.000000 0.141443
0.829569 1.000000 0.155141
0.907654 1.000000 0.166504
0.914251 0.897278 0.113227
0.917542 0.751689 0.094029
0.918620 0.665957 0.082367
0.918610 0.665070 0.082245
0.000000 0.000000 0.000000
0.000000 0.000000 0.000000
0.001168 0.000127 0.000127
0.023041 0.001796 0.001045
0.064596 0.003581 0.001726
0.120949 0.006467 0.001224
0.184503 0.010816 0.000184
0.242821 0.018886 0.000031
0.295633 0.028897 0.000031
0.353376 0.040011 0.000031
0.418080 0.052479 0.000031
0.492544 0.064901 0.000031
0.576207 0.077660 0.000031
0.666548 0.091086 0.000031
0.711273 0.097534 0.000031
0.711273 0.097534 0.000031
0.000000 0.000000 0.000000
0.000000 0.000000 0.000000
0.001179 0.000127 0.000127
0.023104 0.001773 0.001051
0.064517 0.003570 0.001738
0.120767 0.006441 0.001248
0.184183 0.010778 0.000184
0.242498 0.018857 0.000031
0.295575 0.028893 0.000031
0.353360 0.040017 0.000031
0.418229 0.052481 0.000031
0.492944 0.064953 0.000031
0.576948 0.077790 0.000031
0.667520 0.091233 0.000031
0.711273 0.097534 0.000031
0.711273 0.097534 0.000031
0.000150 0.001282 0.000150
0.000145 0.001296 0.000145
0.001975 0.001217 0.000228
0.023780 0.001718 0.001208
0.062042 0.004265 0.001778
0.114194 0.008534 0.001665
0.173831 0.013458 0.000535
0.231243 0.021771 0.000031
0.288478 0.031703 0.000031
0.349141 0.042924 0.000031
0.417155 0.054614 0.000031
0.492834 0.066518 0.000031
0.574934 0.078875 0.000031
0.663339 0.091588 0.000031
0.715195 0.098607 0.000031
0.715472 0.098631 0.000031
0.001451 0.025768 0.001927
0.001438 0.025788 0.001912
0.005659 0.027039 0.002579
0.027158 0.018249 0.002571
0.062800 0.016145 0.002935
0.112866 0.022899 0.002810
0.169664 0.032045 0.002006
0.230592 0.042413 0.000501
0.294213 0.053316 0.000177
0.361548 0.063999 0.000031
0.434454 0.073380 0.000031
0.513407 0.083279 0.000031
0.597975 0.093511 0.000031
0.687369 0.104290 0.000031
0.745111 0.111374 0.000031
0.745676 0.111456 0.000031
0.002664 0.069627 0.003732
0.002667 0.069621 0.003741
0.005701 0.070339 0.005222
0.045438 0.072165 0.007221
0.072031 0.051616 0.005439
0.117846 0.045861 0.004815
0.174695 0.054209 0.004484
0.235657 0.065191 0.003897
0.301151 0.076254 0.003393
0.372958 0.087313 0.002015
0.454667 0.098180 0.000857
0.544136 0.109780 0.000275
0.641123 0.121381 0.000031
0.742086 0.132324 0.000031
0.806159 0.138531 0.000031
0.806829 0.138585 0.000031
0.004005 0.129498 0.006951
0.003996 0.129438 0.006939
0.006421 0.129459 0.008706
0.044836 0.133434 0.012891
0.111685 0.131688 0.011575
0.133085 0.098659 0.008708
0.184758 0.089822 0.007630
0.246143 0.095607 0.007468
0.312809 0.107172 0.007430
0.387165 0.118544 0.007195
0.472249 0.129427 0.006366
0.568848 0.140033 0.004955
0.674896 0.150709 0.003132
0.787675 0.161701 0.001189
0.859555 0.169108 0.000776
0.860265 0.169177 0.000771
0.005250 0.198553 0.011905
0.005249 0.198433 0.011891
0.007945 0.198495 0.014532
0.038234 0.205460 0.022091
0.119320 0.203393 0.018910
0.186198 0.198670 0.017911
0.202821 0.155369 0.013578
0.259043 0.143420 0.012199
0.326964 0.144881 0.011778
0.403980 0.155849 0.011846
0.493275 0.166751 0.011726
0.595106 0.177150 0.011041
0.707006 0.187408 0.009918
0.826243 0.197662 0.008397
0.892604 0.203968 0.007526
0.892912 0.204027 0.007519
0.006285 0.270982 0.018580
0.006298 0.270924 0.018585
0.009950 0.272863 0.021989
0.029506 0.283960 0.033635
0.116797 0.279189 0.028590
0.205398 0.282046 0.027531
0.264141 0.267338 0.025661
0.277962 0.217043 0.019736
0.339950 0.204054 0.018293
0.418579 0.200341 0.017265
0.510847 0.208631 0.017305
0.616211 0.218968 0.017468
0.733053 0.228768 0.016906
0.858429 0.238362 0.015914
0.900898 0.242638 0.015743
0.900902 0.242665 0.015753
0.007123 0.344754 0.026504
0.007210 0.344921 0.026586
0.012528 0.351519 0.031799
0.026512 0.365162 0.044235
0.108331 0.363036 0.041817
0.203867 0.362604 0.038435
0.298519 0.368507 0.038594
0.346414 0.338667 0.034606
0.359116 0.281294 0.027268
0.431989 0.266213 0.025367
0.526607 0.258395 0.023782
0.634449 0.261621 0.023341
0.754184 0.271250 0.023349
0.881872 0.280976 0.023227
0.906973 0.284461 0.023347
0.906981 0.284485 0.023357
0.008190 0.427721 0.037381
0.008338 0.428038 0.037546
0.014773 0.438165 0.044189
0.026924 0.452458 0.056222
0.089493 0.460135 0.061286
0.196907 0.453623 0.052933
0.295900 0.459179 0.052296
0.401177 0.464484 0.052837
0.438133 0.412035 0.045014
0.451351 0.345474 0.035463
0.538314 0.327516 0.032871
0.648117 0.316156 0.031044
0.768728 0.313521 0.029827
0.897516 0.322629 0.029863
0.911260 0.325704 0.030398
0.911272 0.325725 0.030400
0.009741 0.520519 0.050604
0.009893 0.521053 0.050792
0.016415 0.535949 0.058161
0.028260 0.551258 0.069970
0.062002 0.574090 0.085242
0.181364 0.560133 0.071487
0.284777 0.564006 0.068787
0.400039 0.573343 0.069250
0.520903 0.573676 0.068934
0.542630 0.490788 0.056893
0.554569 0.410264 0.044761
0.654872 0.388655 0.041484
0.776510 0.374678 0.039088
0.905126 0.364840 0.036887
0.914060 0.366006 0.036962
0.914058 0.366038 0.036969
0.011165 0.623281 0.064387
0.011314 0.623964 0.064581
0.017538 0.643709 0.072027
0.029031 0.660470 0.083698
0.049000 0.689692 0.102600
0.153482 0.684456 0.094720
0.266790 0.682578 0.087430
0.383661 0.690985 0.086358
0.528297 0.701788 0.087040
0.646615 0.681913 0.084250
0.657036 0.573859 0.069149
0.665761 0.477830 0.055225
0.777426 0.452424 0.051202
0.907307 0.435197 0.048380
0.916726 0.421789 0.046098
0.916733 0.421651 0.046078
0.012452 0.733145 0.078155
0.012599 0.733926 0.078376
0.018526 0.757813 0.086233
0.029497 0.777360 0.097712
0.046354 0.806408 0.115270
0.101182 0.832787 0.128297
0.240810 0.813577 0.108842
0.361128 0.819019 0.105184
0.505235 0.828841 0.104656
0.678078 0.838081 0.105325
0.777008 0.790027 0.098905
0.777011 0.659692 0.081344
0.782102 0.548974 0.065842
0.902875 0.519876 0.061390
0.918502 0.503833 0.059004
0.918501 0.503649 0.058971
0.013841 0.847189 0.092217
0.013984 0.848111 0.092448
0.019516 0.876507 0.100574
0.029963 0.899250 0.111883
0.045353 0.927021 0.128113
0.070873 0.972726 0.152807
0.202747 0.958061 0.135210
0.332656 0.955992 0.126066
0.476735 0.963153 0.123621
0.650256 0.971170 0.123301
0.838063 0.975908 0.123600
0.902859 0.889637 0.112211
0.899204 0.746893 0.093276
0.899916 0.622122 0.076270
0.919110 0.598250 0.072884
0.919109 0.598052 0.072850
0.014675 0.922846 0.101654
0.014819 0.923807 0.101873
0.020274 0.954193 0.109763
0.030609 0.977478 0.121351
0.051454 0.999458 0.141916
0.117950 1.000000 0.202868
0.211071 1.000000 0.192920
0.328417 1.000000 0.154301
0.466199 1.000000 0.142063
0.636016 1.000000 0.141436
0.828836 1.000000 0.155090
0.907715 1.000000 0.165703
0.914259 0.896865 0.113178
0.917564 0.750985 0.093917
0.918644 0.665658 0.082329
0.918637 0.664813 0.082212
0.014681 0.923647 0.101758
0.014825 0.924606 0.101976
0.020284 0.955002 0.109857
0.030617 0.978266 0.121440
0.051697 1.000000 0.142206
0.118593 1.000000 0.203474
0.210992 1.000000 0.192978
0.328303 1.000000 0.154323
0.466046 1.000000 0.142074
0.635835 1.000000 0.141419
0.828629 1.000000 0.155051
0.907654 1.000000 0.166504
0.914213 0.898497 0.113394
0.917530 0.752450 0.094122
0.918629 0.666422 0.082436
0.918620 0.665534 0.082314
0.000053 0.000118 0.000309
0.000049 0.000118 0.000307
0.001475 0.000194 0.000528
0.022840 0.001833 0.002580
0.063333 0.003588 0.004293
0.119143 0.006142 0.005285
0.182012 0.010254 0.004892
0.247674 0.015676 0.002682
0.307908 0.023659 0.001766
0.369550 0.033561 0.001331
0.437777 0.044991 0.000571
0.511772 0.058030 0.000031
0.591665 0.072105 0.000031
0.677943 0.086520 0.000031
0.724841 0.094053 0.000031
0.724844 0.094053 0.000031
0.000049 0.000118 0.000307
0.000047 0.000120 0.000309
0.001556 0.000216 0.000625
0.023469 0.001869 0.002639
0.064465 0.003623 0.004239
0.120305 0.006206 0.005172
0.182931 0.010328 0.004736
0.248191 0.015777 0.002633
0.308332 0.023808 0.001754
0.370184 0.033750 0.001314
0.438813 0.045219 0.000551
0.513452 0.058302 0.000031
0.593954 0.072401 0.000031
0.680465 0.086869 0.000031
0.724781 0.094066 0.000031
0.724779 0.094067 0.000031
0.000136 0.001622 0.000678
0.000134 0.001676 0.000705
0.002338 0.001670 0.001052
0.030165 0.002677 0.002777
0.076420 0.005089 0.002950
0.132495 0.008077 0.002503
0.191159 0.012563 0.001546
0.248206 0.019888 0.001310
0.306160 0.029042 0.000960
0.368616 0.039808 0.000389
0.441263 0.051283 0.000031
0.522655 0.064087 0.000031
0.615692 0.077729 0.000031
0.718211 0.092475 0.000031
0.728881 0.093715 0.000031
0.728904 0.093704 0.000031
0.001252 0.025989 0.002549
0.001269 0.026340 0.002569
0.002573 0.029891 0.002813
0.027533 0.023091 0.003699
0.071574 0.022012 0.003335
0.127618 0.029184 0.003205
0.187503 0.037989 0.001998
0.248763 0.045617 0.000534
0.311463 0.054022 0.000316
0.379255 0.062317 0.000031
0.453354 0.071993 0.000031
0.536589 0.082040 0.000031
0.627612 0.093366 0.000031
0.725796 0.105525 0.000031
0.760996 0.108947 0.000031
0.760980 0.108928 0.000031
0.002633 0.068887 0.005685
0.002654 0.069517 0.005644
0.003162 0.076791 0.005227
0.032652 0.078006 0.007496
0.074953 0.058969 0.006087
0.126338 0.053323 0.005250
0.187034 0.062953 0.005027
0.250406 0.074510 0.004959
0.318274 0.086253 0.004509
0.393967 0.097236 0.003433
0.481276 0.106400 0.001518
0.575936 0.113972 0.000573
0.676930 0.122488 0.000049
0.783322 0.131330 0.000031
0.831101 0.135157 0.000031
0.831074 0.135140 0.000031
0.003947 0.128355 0.009939
0.003959 0.129007 0.009850
0.004589 0.136872 0.008843
0.025887 0.140828 0.013480
0.099364 0.138081 0.012332
0.135911 0.107624 0.009522
0.191120 0.097590 0.008436
0.255449 0.107066 0.008742
0.324349 0.119341 0.008726
0.402008 0.130793 0.008401
0.491676 0.141480 0.007881
0.594458 0.151629 0.006544
0.708866 0.161736 0.004553
0.832606 0.171428 0.001781
0.884120 0.176265 0.002029
0.884133 0.176259 0.002030
0.005176 0.196913 0.015600
0.005187 0.197391 0.015483
0.006571 0.204485 0.014518
0.020428 0.212049 0.022153
0.097828 0.209596 0.019960
0.180027 0.206891 0.018722
0.205189 0.165747 0.014595
0.263588 0.153398 0.013155
0.334346 0.158316 0.013151
0.414608 0.169602 0.013465
0.507514 0.180096 0.013355
0.613098 0.190050 0.012855
0.730154 0.199726 0.011842
0.855567 0.209757 0.010162
0.895432 0.214380 0.011125
0.895437 0.214395 0.011138
0.006270 0.269729 0.022625
0.006276 0.270034 0.022507
0.008769 0.277376 0.022158
0.020336 0.287226 0.031669
0.091030 0.286088 0.030818
0.185721 0.285473 0.027851
0.260960 0.278329 0.026879
0.280069 0.228493 0.021266
0.345385 0.213506 0.019271
0.428490 0.212807 0.018646
0.524934 0.222000 0.018932
0.634499 0.231533 0.019076
0.754189 0.241016 0.018643
0.881329 0.250787 0.018150
0.903046 0.255079 0.020228
0.903047 0.255102 0.020216
0.007131 0.343346 0.031972
0.007157 0.343888 0.031783
0.010848 0.356257 0.031244
0.022078 0.367632 0.042014
0.075964 0.372778 0.046466
0.180781 0.366981 0.039613
0.278689 0.371105 0.039082
0.346065 0.352239 0.036628
0.362810 0.292963 0.029145
0.440434 0.275497 0.026346
0.540290 0.267884 0.025071
0.652954 0.274360 0.025030
0.775916 0.283713 0.025150
0.900302 0.293943 0.027803
0.908472 0.297459 0.029472
0.908476 0.297497 0.029467
0.007817 0.425911 0.042190
0.007892 0.426713 0.042081
0.012566 0.444151 0.043067
0.024183 0.457040 0.054548
0.055091 0.472313 0.066651
0.169385 0.460838 0.055264
0.271164 0.463558 0.053196
0.381859 0.470251 0.053736
0.441109 0.430262 0.047898
0.456672 0.357799 0.037388
0.548979 0.337034 0.034220
0.664064 0.324839 0.032240
0.788998 0.325978 0.031572
0.905825 0.336433 0.037032
0.912339 0.339530 0.037584
0.912343 0.339551 0.037590
0.008369 0.521531 0.051729
0.008513 0.522471 0.051861
0.014299 0.543311 0.057233
0.025803 0.557688 0.068572
0.044079 0.579144 0.084065
0.148353 0.571953 0.075809
0.257103 0.571037 0.070539
0.370916 0.577764 0.070059
0.502587 0.581977 0.070231
0.546742 0.511131 0.059929
0.560800 0.423635 0.046762
0.665790 0.398919 0.043035
0.792231 0.382800 0.040174
0.908669 0.378590 0.043767
0.914916 0.381004 0.044122
0.914915 0.381030 0.044107
0.009794 0.626422 0.064652
0.009923 0.627611 0.064830
0.015769 0.652740 0.071645
0.026919 0.669434 0.082933
0.042318 0.693098 0.098723
0.106273 0.707454 0.105377
0.236664 0.693017 0.090217
0.352397 0.698242 0.087881
0.493548 0.706594 0.087886
0.639207 0.702344 0.087087
0.661174 0.596093 0.072379
0.671415 0.492661 0.057261
0.786936 0.464026 0.053150
0.910368 0.445342 0.053506
0.917011 0.432112 0.051494
0.917009 0.431997 0.051472
0.011271 0.739636 0.078540
0.011383 0.741089 0.078765
0.016857 0.771845 0.086480
0.027528 0.790608 0.097420
0.042310 0.814943 0.112784
0.073696 0.847225 0.130959
0.205909 0.830890 0.114151
0.328605 0.830555 0.107606
0.468879 0.837444 0.106225
0.641271 0.844390 0.106289
0.774144 0.815052 0.102229
0.781441 0.684127 0.084616
0.786679 0.565581 0.068124
0.909155 0.534344 0.064769
0.918887 0.516836 0.062820
0.918886 0.516644 0.062788
0.012326 0.860988 0.092597
0.012445 0.862649 0.092884
0.017866 0.897190 0.101346
0.028050 0.918028 0.112436
0.042409 0.943435 0.127398
0.063297 0.979399 0.149369
0.157662 0.985054 0.151980
0.298266 0.973772 0.130377
0.439925 0.977292 0.126209
0.610813 0.982484 0.124996
0.807025 0.986483 0.125018
0.905130 0.926336 0.117574
0.905869 0.775220 0.097435
0.906141 0.642539 0.079235
0.919125 0.616836 0.076254
0.919126 0.616635 0.076223
0.013118 0.941580 0.102298
0.013230 0.943347 0.102597
0.018481 0.974682 0.110516
0.028361 0.990335 0.120815
0.054214 1.000000 0.144931
0.100202 1.000000 0.186732
0.178098 1.000000 0.215926
0.299064 1.000000 0.160110
0.432566 1.000000 0.144249
0.598353 1.000000 0.141273
0.792031 1.000000 0.151980
0.907409 1.000000 0.167207
0.913145 0.933425 0.119342
0.917192 0.779194 0.098251
0.918684 0.688335 0.085946
0.918702 0.687478 0.085827
0.013127 0.942411 0.102387
0.013239 0.944179 0.102686
0.018486 0.975147 0.110560
0.028361 0.990377 0.120820
0.054200 1.000000 0.144926
0.100149 1.000000 0.186683
0.178038 1.000000 0.215921
0.298961 1.000000 0.160131
0.432441 1.000000 0.144260
0.598194 1.000000 0.141271
0.791886 1.000000 0.151974
0.907402 1.000000 0.167203
0.913088 0.935114 0.119626
0.917161 0.780730 0.098459
0.918680 0.689132 0.086058
0.918699 0.688229 0.085932
0.000165 0.002777 0.008142
0.000165 0.002765 0.008082
0.000590 0.002691 0.009515
0.022467 0.002406 0.027066
0.063232 0.003898 0.030969
0.117663 0.006443 0.035055
0.179794 0.010390 0.037925
0.245044 0.015636 0.038566
0.310179 0.022192 0.037295
0.379188 0.029711 0.033971
0.458887 0.037738 0.028418
0.549138 0.046122 0.020833
0.649126 0.055151 0.011281
0.749579 0.066611 0.003761
0.800519 0.074431 0.002685
0.800660 0.074463 0.002680
0.000165 0.002766 0.008090
0.000165 0.002762 0.008054
0.000575 0.002794 0.009806
0.022967 0.002463 0.027700
0.064259 0.003949 0.031313
0.118810 0.006525 0.035169
0.180764 0.010472 0.037915
0.245773 0.015694 0.038568
0.310851 0.022274 0.037243
0.380141 0.029800 0.033898
0.460293 0.037868 0.028360
0.551194 0.046317 0.020824
0.651683 0.055376 0.011269
0.752260 0.066911 0.003747
0.800531 0.074434 0.002685
0.800660 0.074463 0.002680
0.000328 0.006111 0.012279
0.000335 0.006265 0.012624
0.000263 0.006708 0.017605
0.027457 0.003712 0.034117
0.076483 0.004718 0.032825
0.132222 0.007643 0.033046
0.191683 0.011634 0.033761
0.253471 0.016996 0.033353
0.318364 0.023788 0.030928
0.390766 0.031457 0.026761
0.475085 0.039822 0.021459
0.572167 0.048814 0.015103
0.681637 0.058905 0.008565
0.794637 0.071540 0.003622
0.807610 0.073203 0.003626
0.807598 0.073210 0.003629
0.001368 0.027610 0.017982
0.001379 0.027905 0.018215
0.001342 0.031001 0.022254
0.024279 0.029244 0.028765
0.086927 0.021761 0.020435
0.154647 0.020199 0.012763
0.217995 0.023912 0.010519
0.282138 0.030148 0.007418
0.348128 0.037695 0.004454
0.416166 0.046794 0.003356
0.491209 0.056990 0.002471
0.574807 0.068039 0.001378
0.666512 0.079780 0.000217
0.764543 0.091743 0.000031
0.801559 0.091585 0.001312
0.801529 0.091581 0.001306
0.002476 0.069721 0.024792
0.002492 0.070220 0.024820
0.002709 0.076505 0.025468
0.012841 0.084456 0.017293
0.074005 0.067364 0.024349
0.144770 0.061510 0.009858
0.213825 0.068619 0.007842
0.283720 0.076837 0.007444
0.355695 0.083077 0.006622
0.434779 0.088929 0.004850
0.523679 0.093988 0.001992
0.616587 0.101423 0.000656
0.713971 0.110291 0.000031
0.815418 0.120139 0.000193
0.857367 0.122636 0.004528
0.857337 0.122634 0.004521
0.003839 0.127602 0.034119
0.003853 0.128204 0.033983
0.003975 0.136018 0.032126
0.008285 0.149943 0.014867
0.076152 0.143906 0.021418
0.139316 0.118595 0.024622
0.209255 0.108679 0.011984
0.283948 0.116706 0.009817
0.360073 0.126841 0.010078
0.442450 0.137191 0.010515
0.536552 0.146261 0.010482
0.641836 0.154021 0.009157
0.756026 0.159605 0.006577
0.871870 0.166064 0.005049
0.884667 0.175560 0.022054
0.884657 0.175535 0.022052
0.005113 0.195336 0.043608
0.005126 0.195821 0.043468
0.005340 0.204161 0.039300
0.008898 0.221392 0.019966
0.058536 0.223321 0.023855
0.162991 0.210534 0.033137
0.209211 0.177764 0.030043
0.282730 0.163409 0.017238
0.364600 0.169459 0.014444
0.453286 0.178456 0.014141
0.552207 0.187322 0.014536
0.661835 0.196286 0.014913
0.780379 0.205587 0.014507
0.890657 0.218163 0.020523
0.898605 0.229530 0.037079
0.898605 0.229545 0.037074
0.006466 0.267937 0.052907
0.006471 0.268245 0.052844
0.006503 0.278391 0.046209
0.010637 0.297732 0.027474
0.041891 0.307351 0.037202
0.155619 0.293418 0.034302
0.251228 0.285390 0.044425
0.284180 0.241068 0.039533
