example_ofxGpuLutCube/bin/data/ofxGpuLutCube/LUT/U27 (hard teal orange_1).cube
LUT_3D_SIZE 6
0.000000 0.000000 0.000000
0.023041 0.001794 0.001044
0.184637 0.010815 0.000195
0.353479 0.040002 0.000031
0.576325 0.077673 0.000031
0.711273 0.097534 0.000031
0.001452 0.025769 0.001929
0.027012 0.018148 0.002560
0.168480 0.031948 0.002051
0.360451 0.064000 0.000031
0.595891 0.093440 0.000031
0.744684 0.111530 0.000031
0.005255 0.198578 0.011908
0.039107 0.204874 0.022001
0.202644 0.155087 0.013552
0.403509 0.155482 0.011793
0.705658 0.187123 0.009905
0.892889 0.203955 0.007489
0.008197 0.427741 0.037396
0.027035 0.452076 0.056266
0.296619 0.458854 0.052225
0.451179 0.345127 0.035418
0.767972 0.313214 0.029788
0.911261 0.325483 0.030371
0.012500 0.732428 0.078106
0.029610 0.776394 0.097707
0.242081 0.812491 0.108592
0.678915 0.837405 0.105234
0.781772 0.548553 0.065793
0.918488 0.503430 0.058936
0.014679 0.923035 0.101685
0.030816 0.977460 0.121527
0.212628 1.000000 0.191486
0.637018 1.000000 0.141443
0.914251 0.897278 0.113227
0.918610 0.665070 0.082245
0.000165 0.002777 0.008142
0.022467 0.002406 0.027066
0.179794 0.010390 0.037925
0.379188 0.029711 0.033971
0.649126 0.055151 0.011281
0.800660 0.074463 0.002680
0.001368 0.027610 0.017982
0.024279 0.029244 0.028765
0.217995 0.023912 0.010519
0.416166 0.046794 0.003356
0.666512 0.079780 0.000217
0.801529 0.091581 0.001306
0.005113 0.195336 0.043608
0.008898 0.221392 0.019966
0.209211 0.177764 0.030043
0.453286 0.178456 0.014141
0.780379 0.205587 0.014507
0.898605 0.229545 0.037074
0.008748 0.424421 0.072621
0.013865 0.470257 0.048890
0.235838 0.475423 0.058146
0.462604 0.372268 0.056656
0.836022 0.336713 0.032775
0.914275 0.359352 0.066722
0.010896 0.740095 0.093666
0.018667 0.799764 0.091053
0.133030 0.866568 0.129197
0.594333 0.848295 0.109984
0.803336 0.586156 0.072801
0.920380 0.536168 0.085653
0.011334 0.941815 0.108081
0.027232 0.988630 0.125475
0.156680 1.000000 0.226903
0.555657 1.000000 0.157522
0.913997 0.958100 0.143216
0.919873 0.712427 0.102502
0.000561 0.021728 0.060992
0.000569 0.022731 0.079346
0.180162 0.014563 0.199141
0.378753 0.032776 0.203230
0.652542 0.057382 0.178390
0.816608 0.071063 0.159528
0.000000 0.054257 0.096447
0.000060 0.059355 0.139873
0.208973 0.022992 0.229212
0.423675 0.042980 0.198002
0.714884 0.067716 0.163278
0.829307 0.085111 0.161289
0.003189 0.216710 0.150045
0.002169 0.240365 0.169590
0.192628 0.214947 0.217547
0.496237 0.186368 0.173484
0.881239 0.176443 0.128000
0.895480 0.217090 0.182122
0.008373 0.439625 0.169665
0.008772 0.488891 0.170657
0.095607 0.537779 0.193478
0.467097 0.429763 0.220151
0.906535 0.388987 0.143867
0.919280 0.425949 0.221674
0.013018 0.752303 0.213413
0.014893 0.821586 0.199325
0.039797 0.952241 0.153372
0.456037 0.883548 0.190295
0.811324 0.669020 0.202591
0.924653 0.608843 0.229531
0.016626 0.953235 0.214673
0.030892 0.995278 0.248932
0.143759 1.000000 0.326100
0.453495 1.000000 0.286642
0.916610 1.000000 0.343386
0.924744 0.805853 0.232129
0.000122 0.048944 0.130853
0.000423 0.036440 0.106561
0.067159 0.050592 0.457088
0.374033 0.040549 0.414080
0.656775 0.062671 0.386174
0.808722 0.074365 0.364410
0.000000 0.092062 0.178063
0.000000 0.099007 0.237340
0.028368 0.073829 0.538330
0.411397 0.049348 0.454322
0.715631 0.071976 0.394306
0.822689 0.089368 0.372689
0.000000 0.224728 0.285283
0.000000 0.240961 0.331456
0.028632 0.250796 0.492252
0.476596 0.176611 0.517255
0.870553 0.173104 0.428939
0.889879 0.220448 0.414929
0.004923 0.476138 0.316479
0.003002 0.530843 0.346988
0.057616 0.579313 0.506048
0.443706 0.486620 0.498571
0.905269 0.428033 0.413675
0.916543 0.466222 0.459021
0.012164 0.786429 0.296265
0.011884 0.859890 0.303914
0.034851 0.965497 0.402272
0.278917 0.952764 0.387443
0.814236 0.765997 0.438646
0.922189 0.724368 0.465498
0.015491 0.984564 0.321338
0.045281 1.000000 0.411429
0.157121 1.000000 0.582378
0.387793 1.000000 0.499782
0.885639 1.000000 0.553701
0.921869 0.911523 0.441052
0.000000 0.083276 0.223901
0.000289 0.048308 0.139196
0.000031 0.098359 0.580272
0.278540 0.067933 0.783843
0.635743 0.072068 0.705084
0.789770 0.081793 0.676740
0.000000 0.127689 0.267908
0.000000 0.142300 0.357619
0.000015 0.122217 0.556293
0.245588 0.090257 0.891313
0.686405 0.080406 0.759416
0.802124 0.096135 0.702091
0.000000 0.257570 0.416373
0.000000 0.276683 0.494179
0.000929 0.304698 0.805729
0.142196 0.269475 1.000000
0.832622 0.170126 0.907360
0.873123 0.223575 0.763873
0.000000 0.478913 0.573410
0.000000 0.498321 0.628887
0.000485 0.546555 0.818945
0.158888 0.533053 0.965407
0.877048 0.397912 0.944923
0.902076 0.459902 0.833914
0.007078 0.823143 0.500419
0.004369 0.901138 0.544992
0.031718 0.997221 0.714506
0.229038 0.989319 0.872364
0.780879 0.846992 0.870224
0.909553 0.848294 0.859787
0.019153 1.000000 0.457117
0.078263 1.000000 0.572131
0.198016 1.000000 0.747623
0.419613 1.000000 0.800576
0.789544 1.000000 0.878430
0.933990 1.000000 0.884296
0.000000 0.105194 0.287354
0.000000 0.063263 0.184918
0.000012 0.117554 0.518115
0.099914 0.128064 1.000000
0.613898 0.079749 0.915497
0.772125 0.088623 0.897827
0.000000 0.148523 0.327472
0.000000 0.168196 0.437192
0.000000 0.134979 0.525509
0.062853 0.164904 1.000000
0.633683 0.095581 0.929512
0.784369 0.101526 0.913251
0.000000 0.277362 0.500611
0.000000 0.303953 0.596846
0.009316 0.330873 0.825879
0.060341 0.310623 0.999219
0.686522 0.225845 0.997759
0.857538 0.225562 0.989227
0.000000 0.485980 0.673603
0.000000 0.518641 0.751627
0.020661 0.565390 0.901043
0.205527 0.561518 0.968749
0.700269 0.470592 1.000000
0.871344 0.463586 1.000000
0.000000 0.972076 0.885596
0.017693 0.986157 0.959701
0.101439 0.943082 1.000000
0.295654 0.903179 1.000000
0.738421 0.871360 1.000000
0.893915 0.851452 1.000000
0.022278 1.000000 0.624847
0.088336 1.000000 0.742810
0.224707 1.000000 0.912720
0.451275 1.000000 0.972699
0.828693 0.977978 1.000000
1.000000 1.000000 1.000000
