example_ofxGpuLutCube/bin/data/ofxGpuLutCube/LUT/U28 (hard teal orange_2).cube
LUT_3D_SIZE 6
0.000000 0.000000 0.008800
0.031640 0.010420 0.008140
0.225140 0.028640 0.000000
0.480080 0.046460 0.000000
0.651220 0.055940 0.000000
0.720554 0.086185 0.000000
0.006700 0.036460 0.027440
0.030964 0.046128 0.029348
0.308304 0.069716 0.001016
0.616120 0.107896 0.000000
0.774576 0.140664 0.000000
0.827488 0.199386 0.000000
0.000000 0.126500 0.122640
0.020224 0.148604 0.144976
0.380288 0.201948 0.123660
0.787708 0.266848 0.047456
0.976376 0.334632 0.000976
0.988152 0.425665 0.000000
0.000000 0.380760 0.442660
0.011448 0.440692 0.510524
0.387764 0.525104 0.559508
0.834492 0.597444 0.469016
0.999672 0.622676 0.281300
1.000000 0.668975 0.140867
0.000000 0.612300 0.728360
0.003356 0.654392 0.770660
0.316000 0.772872 0.832712
0.769424 0.821768 0.828008
0.992440 0.849608 0.758280
1.000000 0.882898 0.705348
0.000000 0.674445 0.814575
0.000000 0.719298 0.856518
0.067811 0.891333 0.975789
0.706308 0.956668 0.972846
0.964077 0.967207 0.955317
0.999390 0.982046 0.944647
0.001860 0.004380 0.010900
0.032116 0.016360 0.009888
0.234596 0.035220 0.000000
0.503544 0.056292 0.000000
0.676416 0.071000 0.000000
0.746491 0.106744 0.000000
0.005200 0.051044 0.040748
0.030130 0.061303 0.045482
0.339153 0.091942 0.008110
0.673082 0.134133 0.000364
0.833195 0.179238 0.000000
0.874066 0.250096 0.000000
0.000000 0.177728 0.184652
0.015573 0.210632 0.221006
0.380870 0.272394 0.224522
0.828483 0.350478 0.107218
0.997806 0.416805 0.014994
0.999952 0.491934 0.000007
0.000000 0.470716 0.554336
0.010483 0.528638 0.618479
0.395994 0.622199 0.666245
0.816049 0.674297 0.622265
0.999210 0.696756 0.464923
1.000000 0.743833 0.325969
0.000000 0.645916 0.771196
0.000422 0.681950 0.807639
0.239897 0.820974 0.888365
0.747450 0.881975 0.887507
0.984629 0.900252 0.841959
1.000000 0.926328 0.807380
0.000000 0.680381 0.826301
0.000000 0.732184 0.873158
0.023368 0.910061 0.994087
0.692050 0.972914 0.992604
0.956850 0.986905 0.980832
0.996091 0.991628 0.975318
0.007120 0.014800 0.013780
0.033964 0.023988 0.011496
0.247408 0.043184 0.000000
0.526060 0.069232 0.000000
0.698368 0.088800 0.000000
0.771838 0.128717 0.000000
0.000640 0.069308 0.060572
0.028347 0.081982 0.069780
0.359142 0.119247 0.030088
0.716804 0.168330 0.003808
0.888202 0.221606 0.000000
0.919010 0.306869 0.000000
0.000000 0.240940 0.262872
0.012502 0.285868 0.316158
0.379351 0.357061 0.347343
0.844205 0.443807 0.208412
0.999878 0.495802 0.067020
1.000000 0.555279 0.009655
0.000000 0.539032 0.638352
0.008840 0.591049 0.694501
0.378502 0.692477 0.743435
0.798247 0.735578 0.720356
0.997761 0.763506 0.608520
1.000000 0.805025 0.507899
0.000000 0.663812 0.795024
0.000000 0.699482 0.832378
0.165174 0.853477 0.929171
0.729276 0.921629 0.927375
0.975335 0.934859 0.900988
1.000000 0.952447 0.874746
0.000000 0.684114 0.830947
0.000000 0.746244 0.887883
0.005599 0.922908 0.998550
0.681293 0.980764 0.999411
0.953452 0.993381 0.992742
0.993685 0.998216 0.987952
0.009400 0.024060 0.017180
0.033936 0.031748 0.015980
0.268960 0.050844 0.000000
0.555008 0.082100 0.000000
0.721052 0.107504 0.000000
0.795678 0.153346 0.000000
0.000000 0.092464 0.086240
0.025594 0.108821 0.098947
0.372669 0.154607 0.068018
0.752711 0.211335 0.015542
0.934452 0.272456 0.000006
0.959506 0.366515 0.000000
0.000000 0.316416 0.359452
0.011471 0.368847 0.421260
0.382690 0.449521 0.467708
0.844032 0.533298 0.344141
0.999850 0.567265 0.167445
1.000000 0.618431 0.055763
0.000000 0.588584 0.698948
0.005688 0.634607 0.746838
0.342987 0.745742 0.802762
0.780258 0.790860 0.792356
0.994857 0.819454 0.709044
1.000000 0.857362 0.643948
0.000000 0.672752 0.809748
0.000000 0.713502 0.849936
0.092599 0.880642 0.962218
0.713355 0.947516 0.959594
0.967298 0.958214 0.941214
0.999849 0.973337 0.924967
0.000000 0.693579 0.840635
0.000000 0.763985 0.905229
0.004335 0.931333 0.999497
0.671265 0.984108 0.999993
0.946734 0.998333 0.999072
0.992416 0.999973 0.997718
0.007100 0.031400 0.022620
0.031236 0.040924 0.023420
0.295484 0.062364 0.000000
0.594176 0.099580 0.000000
0.753064 0.127620 0.000000
0.812673 0.181699 0.000000
0.000000 0.122380 0.117648
0.020290 0.143198 0.141486
0.380655 0.197350 0.117085
0.782651 0.262746 0.044311
0.976632 0.326586 0.000535
0.989120 0.419646 0.000000
0.000000 0.392400 0.456584
0.011250 0.450862 0.524122
0.389602 0.537350 0.573131
0.832167 0.607338 0.489705
0.999653 0.631197 0.302182
1.000000 0.679789 0.162471
0.000000 0.624928 0.744676
0.002210 0.664908 0.784194
0.291278 0.788418 0.851166
0.762324 0.842407 0.846507
0.990521 0.866445 0.787981
1.000000 0.898950 0.738670
0.000000 0.676340 0.819316
0.000000 0.723986 0.863118
0.048932 0.898822 0.982851
0.700524 0.962793 0.979974
0.961298 0.976330 0.967897
0.998078 0.985039 0.955645
0.000000 0.705261 0.852578
0.000000 0.783635 0.920447
0.018033 0.937750 0.999994
0.662788 0.987122 1.000000
0.942110 0.999469 0.999979
0.992081 0.999999 0.999949
0.007692 0.042666 0.031361
0.030540 0.050224 0.033866
0.322758 0.077060 0.000776
0.640816 0.115610 0.000000
0.797269 0.154228 0.000000
0.844693 0.216915 0.000000
0.000000 0.160934 0.164573
0.016892 0.190417 0.196336
0.381473 0.249425 0.189692
0.820568 0.323560 0.084645
0.996596 0.392495 0.007601
0.999921 0.473132 0.000004
0.000000 0.464820 0.545535
0.010575 0.522007 0.609824
0.390443 0.614180 0.658077
0.817479 0.669279 0.612078
0.999166 0.692005 0.449219
1.000000 0.738221 0.308790
0.000000 0.648155 0.774115
0.000364 0.684899 0.811019
0.231339 0.824311 0.892206
0.745306 0.887167 0.890640
0.983514 0.904927 0.852590
1.000000 0.928817 0.812088
0.000000 0.680929 0.826203
0.000000 0.734562 0.875219
0.020952 0.911925 0.995052
0.690439 0.973094 0.994238
0.956627 0.986999 0.982054
0.995212 0.994089 0.976236
0.000000 0.720694 0.864332
0.000000 0.800359 0.935226
0.028492 0.942196 1.000000
0.654022 0.987273 1.000000
0.937724 0.999715 1.000000
0.992069 1.000000 0.999999
