example_ofxGpuLutCube/bin/data/ofxGpuLutCube/LUT/U28 (hard teal orange_2).cube
LUT_3D_SIZE 16
0.000000 0.000000 0.008800
0.004273 0.000353 0.008780
0.015460 0.004593 0.009673
0.031640 0.010420 0.008140
0.065480 0.017060 0.006967
0.132233 0.022667 0.002933
0.225140 0.028640 0.000000
0.324380 0.036247 0.000000
0.407260 0.042167 0.000000
0.480080 0.046460 0.000000
0.545267 0.052833 0.000000
0.604313 0.054900 0.000000
0.651220 0.055940 0.000000
0.686873 0.061833 0.000000
0.705100 0.073993 0.000000
0.720554 0.086185 0.000000
0.002220 0.004893 0.011220
0.006537 0.005385 0.011332
0.016590 0.011953 0.011494
0.032124 0.017165 0.010293
0.068375 0.021750 0.006999
0.139116 0.029096 0.002684
0.235931 0.035929 0.000000
0.338074 0.044991 0.000000
0.427240 0.052468 0.000000
0.505549 0.057549 0.000000
0.574840 0.064622 0.000000
0.635093 0.069578 0.000000
0.678296 0.072621 0.000000
0.711453 0.083992 0.000000
0.734138 0.094601 0.000000
0.748475 0.108202 0.000000
0.009113 0.020680 0.016873
0.010453 0.022118 0.017049
0.016265 0.026816 0.017273
0.033975 0.030867 0.016179
0.073635 0.035174 0.009980
0.156227 0.041949 0.003316
0.264331 0.050020 0.000000
0.373327 0.061372 0.000000
0.468325 0.070406 0.000000
0.548851 0.079376 0.000000
0.623116 0.086520 0.000000
0.680409 0.094019 0.000000
0.718283 0.105475 0.000000
0.749890 0.117787 0.000000
0.773255 0.133917 0.000000
0.790328 0.148266 0.000000
0.006700 0.036460 0.027440
0.007485 0.038183 0.028548
0.011912 0.041823 0.030631
0.030964 0.046128 0.029348
0.081108 0.052149 0.020889
0.179453 0.060793 0.008853
0.308304 0.069716 0.001016
0.432761 0.083544 0.000107
0.534127 0.097027 0.000000
0.616120 0.107896 0.000000
0.687587 0.118213 0.000000
0.740480 0.129219 0.000000
0.774576 0.140664 0.000000
0.800092 0.159269 0.000000
0.815553 0.180803 0.000000
0.827488 0.199386 0.000000
0.005233 0.056433 0.046133
0.005091 0.058949 0.046824
0.007377 0.062656 0.051004
0.029988 0.066101 0.051444
0.087549 0.074910 0.046512
0.200547 0.087629 0.029920
0.345963 0.100409 0.013283
0.484637 0.114783 0.006430
0.595474 0.129887 0.002953
0.687283 0.142957 0.000635
0.764645 0.157431 0.000009
0.816885 0.173617 0.000000
0.849936 0.191384 0.000000
0.871139 0.216516 0.000000
0.882245 0.243087 0.000000
0.887711 0.267490 0.000000
0.000067 0.083433 0.076600
0.000089 0.086527 0.078962
0.002604 0.094918 0.086176
0.026467 0.099193 0.088080
0.090911 0.106278 0.085822
0.210756 0.123767 0.071944
0.369000 0.141433 0.052727
0.521176 0.159496 0.036991
0.641176 0.178216 0.022769
0.740020 0.194773 0.010560
0.824567 0.212978 0.002244
0.884071 0.230836 0.000018
0.919760 0.251920 0.000000
0.939924 0.284184 0.000000
0.948636 0.317433 0.000000
0.946757 0.345603 0.000000
0.000000 0.126500 0.122640
0.000000 0.130079 0.128113
0.001243 0.141311 0.140409
0.020224 0.148604 0.144976
0.090816 0.158764 0.146832
0.213347 0.177833 0.142513
0.380288 0.201948 0.123660
0.549015 0.224041 0.096843
0.681473 0.245535 0.071797
0.787708 0.266848 0.047456
0.878900 0.289280 0.021587
0.944616 0.309704 0.005797
0.976376 0.334632 0.000976
0.987672 0.367673 0.000059
0.991128 0.398487 0.000000
0.988152 0.425665 0.000000
0.000000 0.189227 0.197307
0.000000 0.196973 0.207156
0.000451 0.212677 0.225848
0.014773 0.223612 0.238113
0.089813 0.238259 0.245831
0.215622 0.261844 0.254989
0.380741 0.288219 0.247897
0.566032 0.314217 0.207396
0.715667 0.341054 0.164082
0.833804 0.368731 0.122444
0.928033 0.392276 0.081580
0.983750 0.413882 0.044613
0.998809 0.434391 0.019361
1.000000 0.458755 0.005187
1.000000 0.483343 0.001288
1.000000 0.505617 0.000011
0.000000 0.274720 0.306960
0.000000 0.287053 0.320546
0.000031 0.306675 0.345617
0.011776 0.325127 0.366647
0.089447 0.346601 0.381930
0.220600 0.373525 0.397176
0.380037 0.400966 0.408644
0.565093 0.428013 0.382638
0.726305 0.458263 0.325358
0.847223 0.487366 0.267628
0.941829 0.506125 0.209278
0.991529 0.519184 0.152503
0.999919 0.530817 0.104695
1.000000 0.547242 0.064330
1.000000 0.567279 0.038209
1.000000 0.585232 0.021065
0.000000 0.380760 0.442660
0.000000 0.395515 0.459224
0.000000 0.416893 0.487224
0.011448 0.440692 0.510524
0.090461 0.465956 0.528391
0.228860 0.495733 0.542513
0.387764 0.525104 0.559508
0.557791 0.549304 0.561567
0.711924 0.573645 0.525823
0.834492 0.597444 0.469016
0.932447 0.610247 0.403960
0.988467 0.615668 0.339839
0.999672 0.622676 0.281300
1.000000 0.635707 0.223916
1.000000 0.651667 0.176159
1.000000 0.668975 0.140867
0.000000 0.483000 0.570900
0.000000 0.496311 0.586053
0.000000 0.519000 0.614205
0.010213 0.539767 0.631820
0.086791 0.567882 0.649794
0.232300 0.603778 0.667833
0.391860 0.634480 0.680433
0.554158 0.653640 0.685033
0.692825 0.668396 0.674065
0.813260 0.684727 0.639747
0.916233 0.695122 0.589578
0.982489 0.699602 0.539709
0.999120 0.707940 0.492047
1.000000 0.721071 0.443180
1.000000 0.737422 0.399389
1.000000 0.755462 0.356176
0.000000 0.559447 0.662840
0.000000 0.570349 0.677081
0.000000 0.590797 0.700107
0.008188 0.609261 0.716303
0.076307 0.640358 0.734552
0.217742 0.679898 0.754747
0.368757 0.713603 0.766536
0.527144 0.735808 0.769669
0.667514 0.746446 0.764805
0.792283 0.755869 0.748168
0.899365 0.766440 0.716120
0.971132 0.774559 0.680929
0.997160 0.785859 0.648205
1.000000 0.797807 0.619477
1.000000 0.810717 0.590855
1.000000 0.824476 0.563690
0.000000 0.612300 0.728360
0.000000 0.620571 0.739364
0.000000 0.637915 0.756004
0.003356 0.654392 0.770660
0.047063 0.685240 0.790687
0.170293 0.731213 0.816187
0.316000 0.772872 0.832712
0.488611 0.800775 0.836081
0.641112 0.814513 0.834417
0.769424 0.821768 0.828008
0.881640 0.831880 0.807587
0.956136 0.840541 0.783629
0.992440 0.849608 0.758280
0.999701 0.861912 0.736200
1.000000 0.874011 0.719056
1.000000 0.882898 0.705348
0.000000 0.648600 0.774553
0.000000 0.655368 0.782377
0.000000 0.668813 0.797314
0.000304 0.684309 0.810739
0.018900 0.718508 0.834659
0.100775 0.771831 0.866391
0.231788 0.825552 0.894269
0.411899 0.864357 0.904198
0.596791 0.880727 0.898331
0.745153 0.887889 0.892841
0.863331 0.892264 0.884025
0.941429 0.897907 0.866953
0.983637 0.905260 0.849808
0.998702 0.914679 0.835685
1.000000 0.923311 0.825095
1.000000 0.930136 0.817147
0.000000 0.667920 0.800713
0.000000 0.673681 0.807669
0.000000 0.683204 0.822411
0.000000 0.704093 0.838779
0.003378 0.743519 0.866617
0.030909 0.802089 0.906409
0.141879 0.862709 0.940280
0.353420 0.904399 0.950635
0.563721 0.923129 0.945167
0.724180 0.931161 0.938999
0.848029 0.935913 0.933060
0.929179 0.939433 0.924474
0.972453 0.943871 0.915464
0.994074 0.950446 0.907320
0.999757 0.954655 0.898710
1.000000 0.958999 0.894299
0.000000 0.674445 0.814575
0.000000 0.681241 0.823145
0.000000 0.696289 0.838723
0.000000 0.719298 0.856518
0.000025 0.763335 0.892042
0.001388 0.825845 0.936190
0.067811 0.891333 0.975789
0.291115 0.931476 0.985581
0.538067 0.946660 0.978452
0.706308 0.956668 0.972846
0.833966 0.963316 0.967151
0.917920 0.965502 0.961157
0.964077 0.967207 0.955317
0.987398 0.973997 0.952454
0.997291 0.978062 0.946098
0.999390 0.982046 0.944647
0.000053 0.000200 0.008867
0.004544 0.001295 0.009164
0.015761 0.004943 0.010066
0.031827 0.011860 0.008189
0.066241 0.017321 0.006943
0.133856 0.023798 0.003058
0.227423 0.030065 0.000000
0.327187 0.037977 0.000000
0.411735 0.043752 0.000000
0.486101 0.048676 0.000000
0.551920 0.054536 0.000000
0.611843 0.057287 0.000000
0.658028 0.060208 0.000000
0.692948 0.067274 0.000000
0.711952 0.079261 0.000000
0.726471 0.090382 0.000000
0.003662 0.008226 0.011679
0.007627 0.009406 0.011658
0.017131 0.014870 0.011977
0.033040 0.018072 0.010346
0.069100 0.024415 0.007216
0.141362 0.031160 0.002672
0.239702 0.037594 0.000000
0.342525 0.047906 0.000000
0.433115 0.054695 0.000000
0.512521 0.060519 0.000000
0.583028 0.068549 0.000000
0.642978 0.072442 0.000000
0.685213 0.077757 0.000000
0.718412 0.087874 0.000000
0.742189 0.101387 0.000000
0.756438 0.114854 0.000000
0.009007 0.025025 0.018100
0.009854 0.026256 0.018633
0.015927 0.029648 0.019101
0.033715 0.033637 0.017150
0.075524 0.037601 0.012454
0.160553 0.044482 0.004389
0.272933 0.052412 0.000014
0.383937 0.064496 0.000000
0.479947 0.075641 0.000000
0.561036 0.084879 0.000000
0.633877 0.090544 0.000000
0.689516 0.099877 0.000000
0.726861 0.110351 0.000000
0.757877 0.125637 0.000000
0.780351 0.141286 0.000000
0.798474 0.157757 0.000000
0.006132 0.040825 0.030933
0.006468 0.042142 0.031090
0.010799 0.046177 0.033052
0.030628 0.048958 0.032924
0.082500 0.056509 0.025061
0.184436 0.064464 0.012660
0.317085 0.075413 0.002137
0.445113 0.088513 0.000217
0.548135 0.102149 0.000024
0.631974 0.113611 0.000000
0.703242 0.125282 0.000000
0.755264 0.136653 0.000000
0.789592 0.150082 0.000000
0.813695 0.170166 0.000000
0.828286 0.192109 0.000000
0.839008 0.212318 0.000000
0.003183 0.061892 0.051079
0.003012 0.063130 0.052458
0.005791 0.067976 0.057329
0.029454 0.072421 0.059054
0.088498 0.081376 0.052951
0.203973 0.094526 0.037467
0.351716 0.107872 0.019969
0.493269 0.123869 0.009489
0.606474 0.138430 0.004622
0.700393 0.152448 0.001089
0.779952 0.167778 0.000052
0.832231 0.185012 0.000000
0.865885 0.204514 0.000000
0.887063 0.229555 0.000000
0.896949 0.257224 0.000000
0.900600 0.284261 0.000000
0.000000 0.091622 0.084258
0.000017 0.095420 0.088789
0.002353 0.102143 0.095128
0.025764 0.106328 0.098616
0.091109 0.115071 0.097069
0.211633 0.133610 0.085183
0.372631 0.153772 0.065752
0.528574 0.172393 0.048089
0.650827 0.190995 0.030132
0.750492 0.209476 0.014887
0.836739 0.227867 0.004639
0.897218 0.246572 0.000470
0.933656 0.269782 0.000001
0.952612 0.300653 0.000000
0.961285 0.334450 0.000000
0.958629 0.364117 0.000000
0.000000 0.138008 0.136019
0.000000 0.144021 0.143331
0.001006 0.155409 0.156430
0.018676 0.161885 0.163324
0.090644 0.173047 0.165487
0.213903 0.194167 0.164413
0.381467 0.219125 0.146680
0.555391 0.241778 0.115935
0.690263 0.264243 0.086985
0.797262 0.287865 0.060833
0.889926 0.311500 0.031605
0.956432 0.332493 0.009440
0.986212 0.353832 0.001450
0.994004 0.385629 0.000073
0.997777 0.416834 0.000000
0.994598 0.441765 0.000000
0.000000 0.206307 0.219959
0.000000 0.216233 0.230190
0.000311 0.231361 0.250427
0.013806 0.243563 0.263390
0.089722 0.260640 0.273537
0.216689 0.285224 0.284744
0.380843 0.311683 0.280656
0.568273 0.338965 0.242758
0.720319 0.368433 0.194811
0.838411 0.395758 0.150068
0.933658 0.419280 0.104148
0.988404 0.438728 0.060546
0.999643 0.456254 0.031020
1.000000 0.478846 0.011629
1.000000 0.502590 0.001677
1.000000 0.522770 0.000131
0.000000 0.299054 0.338661
0.000000 0.311740 0.352576
0.000000 0.331514 0.377611
0.011543 0.350658 0.399373
0.089667 0.373555 0.416590
0.222573 0.402724 0.431668
0.381667 0.429700 0.443903
0.563110 0.456881 0.427505
0.724189 0.487697 0.373940
0.845796 0.515816 0.314623
0.940325 0.532847 0.252710
0.991150 0.542970 0.191616
0.999909 0.552867 0.139660
1.000000 0.568175 0.093085
1.000000 0.586815 0.059715
1.000000 0.605883 0.039946
0.000000 0.406756 0.473617
0.000000 0.419587 0.491049
0.000000 0.444672 0.519065
0.011258 0.466021 0.542339
0.090116 0.491475 0.560551
0.231218 0.523823 0.574261
0.392207 0.553239 0.590191
0.557351 0.575848 0.597408
0.705832 0.598040 0.568574
0.829370 0.620166 0.515128
0.928205 0.632353 0.453473
0.987046 0.637066 0.388668
0.999585 0.642743 0.330471
1.000000 0.654352 0.274779
1.000000 0.671844 0.225299
1.000000 0.689883 0.188546
0.000000 0.503051 0.592825
0.000000 0.514892 0.610505
0.000000 0.539190 0.636720
0.009804 0.558703 0.655689
0.084641 0.587488 0.674185
0.229514 0.624578 0.690394
0.387454 0.655787 0.702356
0.548862 0.675058 0.707881
0.687431 0.687656 0.699257
0.808163 0.702555 0.670640
0.911777 0.713603 0.626362
0.979614 0.718599 0.577875
0.998657 0.727158 0.534330
1.000000 0.739825 0.490263
1.000000 0.757367 0.448036
1.000000 0.773167 0.410918
0.000000 0.575090 0.681625
0.000000 0.584920 0.694859
0.000000 0.604609 0.715756
0.007341 0.622662 0.732244
0.071095 0.654524 0.751398
0.208795 0.695445 0.772128
0.358037 0.730296 0.784800
0.517734 0.753904 0.788386
0.660289 0.764886 0.783866
0.786553 0.772850 0.770261
0.894932 0.783262 0.741434
0.967836 0.792235 0.708000
0.996265 0.802127 0.680233
0.999953 0.813869 0.652010
1.000000 0.827494 0.628280
1.000000 0.842804 0.606069
0.000000 0.623103 0.742011
0.000000 0.630924 0.751667
0.000000 0.647116 0.768197
0.002277 0.663845 0.782236
0.039377 0.695045 0.803062
0.154939 0.742330 0.828945
0.297217 0.785770 0.846592
0.473160 0.815063 0.852744
0.632855 0.831307 0.848966
0.763833 0.839820 0.842098
0.877589 0.847067 0.826471
0.952630 0.855032 0.807112
0.990865 0.863602 0.783931
0.999556 0.875909 0.761915
1.000000 0.886315 0.746329
1.000000 0.895016 0.733160
0.000000 0.654292 0.781934
0.000000 0.660932 0.789253
0.000000 0.673322 0.804280
0.000157 0.689800 0.818356
0.014248 0.725033 0.843774
0.082957 0.779699 0.876226
0.211230 0.835337 0.905749
0.396434 0.875417 0.918592
0.587156 0.892791 0.912151
0.739824 0.900571 0.904115
0.859583 0.904734 0.896499
0.938756 0.910948 0.884736
0.980986 0.916511 0.871125
0.998061 0.924092 0.854051
0.999978 0.932188 0.842575
1.000000 0.938250 0.835959
0.000000 0.671300 0.805379
0.000000 0.674654 0.812712
0.000000 0.686936 0.827437
0.000000 0.708301 0.844586
0.001878 0.749390 0.873884
0.018832 0.809736 0.914648
0.115581 0.871282 0.951624
0.333987 0.911923 0.962453
0.556157 0.930443 0.955142
0.719614 0.939129 0.947528
0.844896 0.944147 0.943626
0.926339 0.947182 0.937978
0.969692 0.952040 0.929181
0.992198 0.956263 0.920234
0.999624 0.959697 0.911660
1.000000 0.964519 0.906552
0.000000 0.674676 0.816996
0.000000 0.683271 0.825854
0.000000 0.699020 0.841961
0.000000 0.722605 0.860995
0.000012 0.767372 0.897563
0.000149 0.830159 0.942804
0.056306 0.896418 0.982433
0.275798 0.936382 0.992551
0.532719 0.950933 0.984491
0.702333 0.961240 0.979045
0.830527 0.968887 0.974166
0.915633 0.971418 0.968679
0.962311 0.975194 0.963410
0.986258 0.979341 0.961050
0.996106 0.982767 0.955763
0.998424 0.985655 0.954049
0.000907 0.003120 0.009933
0.005538 0.004063 0.010350
0.016209 0.007363 0.010776
0.031923 0.014388 0.009256
0.067372 0.018349 0.006879
0.136287 0.026380 0.002898
0.231244 0.032724 0.000000
0.332378 0.040656 0.000000
0.419593 0.047455 0.000000
0.496051 0.052975 0.000000
0.563613 0.059727 0.000000
0.624131 0.063124 0.000000
0.668663 0.067453 0.000000
0.702387 0.074887 0.000000
0.723040 0.086315 0.000000
0.737526 0.100735 0.000000
0.005860 0.013725 0.012520
0.009660 0.014602 0.012508
0.017252 0.017622 0.012881
0.033526 0.022140 0.011495
0.070055 0.028077 0.007762
0.144962 0.034385 0.002754
0.245558 0.041476 0.000000
0.349966 0.050940 0.000000
0.441836 0.059906 0.000000
0.522524 0.066972 0.000000
0.594451 0.072530 0.000000
0.653892 0.078152 0.000000
0.694653 0.086959 0.000000
0.727687 0.097107 0.000000
0.752310 0.109191 0.000000
0.767094 0.125503 0.000000
0.008750 0.030474 0.021330
0.009340 0.031350 0.021512
0.014524 0.033424 0.021888
0.032321 0.036922 0.020742
0.078023 0.042688 0.015375
0.167424 0.049371 0.006025
0.285549 0.059554 0.000132
0.401773 0.071274 0.000000
0.500018 0.082501 0.000000
0.580966 0.091811 0.000000
0.652948 0.100410 0.000000
0.706122 0.109702 0.000000
0.740865 0.121624 0.000000
0.770559 0.135426 0.000000
0.790979 0.155150 0.000000
0.809066 0.172505 0.000000
0.006137 0.046961 0.035912
0.006180 0.048356 0.036673
0.009718 0.051732 0.039183
0.030320 0.055433 0.039570
0.084692 0.063061 0.033141
0.191356 0.073252 0.018256
0.330302 0.084288 0.004867
0.463746 0.099292 0.001659
0.569692 0.112312 0.000484
0.656040 0.124667 0.000041
0.729153 0.136840 0.000000
0.781063 0.150400 0.000000
0.814694 0.166202 0.000000
0.837074 0.188287 0.000000
0.850856 0.212464 0.000000
0.858751 0.233020 0.000000
0.000464 0.069756 0.060428
0.000619 0.073777 0.062746
0.004013 0.079577 0.068429
0.028428 0.082115 0.069495
0.089900 0.090888 0.065956
0.207608 0.105581 0.049891
0.360085 0.120878 0.031710
0.505870 0.137572 0.018360
0.622840 0.154143 0.009510
0.718841 0.170094 0.003574
0.801360 0.185439 0.000653
0.856750 0.202934 0.000002
0.890599 0.223665 0.000000
0.910334 0.251315 0.000000
0.921237 0.281312 0.000000
0.921287 0.309503 0.000000
0.000000 0.103462 0.099213
0.000004 0.108164 0.102194
0.001774 0.117551 0.110997
0.023230 0.123222 0.115927
0.090859 0.131415 0.115114
0.212160 0.150913 0.106056
0.376030 0.171661 0.086693
0.537565 0.191818 0.065814
0.664887 0.211886 0.045247
0.766382 0.231921 0.026036
0.854379 0.251296 0.010339
0.918469 0.270626 0.001710
0.953609 0.294716 0.000046
0.968138 0.328586 0.000000
0.974846 0.361698 0.000000
0.973407 0.390270 0.000000
0.000000 0.157747 0.160400
0.000000 0.164358 0.167292
0.000728 0.177105 0.184674
0.016739 0.187115 0.193584
0.090230 0.199818 0.197792
0.214486 0.221389 0.201712
0.381023 0.246830 0.187311
0.561997 0.271300 0.150941
0.705021 0.295316 0.116076
0.815264 0.320836 0.084810
0.906885 0.346726 0.050187
0.969640 0.368006 0.021478
0.994810 0.387974 0.007509
0.999405 0.417427 0.001104
0.999539 0.446736 0.000107
0.999936 0.470480 0.000001
0.000000 0.234496 0.254574
0.000000 0.243905 0.265934
0.000163 0.262290 0.291131
0.012610 0.276719 0.306328
0.089106 0.296133 0.318943
0.217815 0.322062 0.333675
0.379146 0.348401 0.336250
0.569890 0.376520 0.297860
0.726715 0.407057 0.244935
0.843829 0.435555 0.196276
0.940191 0.457388 0.142547
0.991104 0.474167 0.094235
0.999864 0.489067 0.058176
1.000000 0.509300 0.029762
1.000000 0.530546 0.013582
1.000000 0.549359 0.003382
0.000000 0.335343 0.385479
0.000000 0.348658 0.399698
0.000000 0.369775 0.427041
0.011472 0.390865 0.450177
0.089969 0.415797 0.467537
0.225294 0.445529 0.482450
0.384352 0.472944 0.495894
0.562267 0.498613 0.486356
0.719757 0.527476 0.442504
0.841492 0.554028 0.384019
0.937476 0.568421 0.319682
0.990036 0.575918 0.255693
0.999800 0.584499 0.200576
1.000000 0.598473 0.148250
1.000000 0.616487 0.106881
1.000000 0.635391 0.076861
0.000000 0.441505 0.518247
0.000000 0.455942 0.535580
0.000000 0.478078 0.563608
0.010895 0.499729 0.583757
0.089448 0.526849 0.601737
0.233864 0.560235 0.617628
0.395509 0.590373 0.630486
0.557244 0.612385 0.636595
0.699307 0.631165 0.619749
0.822193 0.649785 0.575903
0.923309 0.659348 0.517850
0.985326 0.663744 0.458242
0.999416 0.670660 0.402913
1.000000 0.683249 0.346565
1.000000 0.700495 0.297200
1.000000 0.719185 0.257921
0.000000 0.528611 0.624611
0.000000 0.539936 0.640073
0.000000 0.562726 0.667564
0.009198 0.581954 0.684001
0.081687 0.611756 0.701543
0.226114 0.649507 0.719408
0.382223 0.680984 0.730517
0.541793 0.702430 0.734299
0.679489 0.713569 0.728944
0.801299 0.725309 0.706597
0.906601 0.735803 0.667665
0.975928 0.742382 0.625528
0.997987 0.752306 0.586436
1.000000 0.766129 0.546783
1.000000 0.781278 0.511767
1.000000 0.794828 0.479390
0.000000 0.594836 0.706905
0.000000 0.603690 0.718586
0.000000 0.622700 0.737893
0.005139 0.640051 0.753010
0.057884 0.671924 0.772234
0.188132 0.714476 0.795480
0.336600 0.752792 0.810612
0.503570 0.778991 0.814884
0.650545 0.791302 0.811572
0.777483 0.798734 0.801561
0.888025 0.808555 0.776858
0.961757 0.816321 0.748305
0.994305 0.827085 0.721373
0.999828 0.840592 0.696963
1.000000 0.853000 0.678310
1.000000 0.864504 0.660087
0.000000 0.637657 0.760869
0.000000 0.644741 0.769425
0.000000 0.659349 0.784725
0.000779 0.674846 0.797897
0.027398 0.708005 0.819703
0.128389 0.757846 0.848231
0.265251 0.805538 0.871096
0.445140 0.839370 0.879397
0.617077 0.856595 0.875009
0.754528 0.863780 0.868795
0.870887 0.869577 0.855253
0.947179 0.876739 0.837865
0.987983 0.886092 0.818433
0.999253 0.895331 0.801997
1.000000 0.905528 0.788606
1.000000 0.915190 0.775940
0.000000 0.661052 0.791304
0.000000 0.667199 0.798216
0.000000 0.676895 0.813015
0.000000 0.696403 0.828078
0.008290 0.733596 0.853630
0.057571 0.789513 0.889829
0.181340 0.847057 0.921478
0.379316 0.888098 0.933744
0.576959 0.907182 0.928128
0.732870 0.916203 0.920122
0.854658 0.920611 0.912402
0.934624 0.924400 0.901843
0.977313 0.929030 0.894923
0.996623 0.936088 0.883118
0.999904 0.943583 0.871723
1.000000 0.948439 0.861690
0.000000 0.673772 0.810525
0.000000 0.677711 0.818429
0.000000 0.691514 0.833435
0.000000 0.713801 0.851453
0.000416 0.756449 0.883097
0.006601 0.818290 0.924606
0.087123 0.881434 0.963473
0.311401 0.921589 0.975589
0.546976 0.939099 0.967390
0.713356 0.948538 0.960433
0.840166 0.954518 0.954697
0.922248 0.956550 0.948532
0.967091 0.958945 0.943311
0.989979 0.963360 0.936802
0.999058 0.966482 0.928798
0.999946 0.973331 0.925118
0.000000 0.677813 0.823052
0.000000 0.686425 0.829937
0.000000 0.703196 0.847332
0.000000 0.727898 0.867924
0.000000 0.773862 0.906818
0.000036 0.837539 0.952053
0.034654 0.905078 0.989244
0.243380 0.943903 0.998225
0.525439 0.956900 0.993252
0.695834 0.968361 0.986829
0.825253 0.977123 0.981983
0.912356 0.981040 0.978812
0.958997 0.982361 0.976579
0.984199 0.985864 0.973755
0.994464 0.987403 0.969541
0.997257 0.988610 0.966168
0.001860 0.004380 0.010900
0.006327 0.004921 0.011043
0.016687 0.011228 0.011232
0.032116 0.016360 0.009888
0.068084 0.021144 0.006811
0.138300 0.028513 0.002653
0.234596 0.035220 0.000000
0.336452 0.044323 0.000000
0.425401 0.051427 0.000000
0.503544 0.056292 0.000000
0.572520 0.063673 0.000000
0.632944 0.068200 0.000000
0.676416 0.071000 0.000000
0.709648 0.081977 0.000000
0.732344 0.092671 0.000000
0.746491 0.106744 0.000000
0.007587 0.016848 0.014788
0.010429 0.017277 0.014961
0.017040 0.020992 0.014161
0.033958 0.025836 0.012451
0.071194 0.031480 0.008376
0.149017 0.037173 0.002778
0.251805 0.045223 0.000000
0.357679 0.054139 0.000000
0.451106 0.063542 0.000000
0.532382 0.071551 0.000000
0.605415 0.077578 0.000000
0.664218 0.084948 0.000000
0.703655 0.093344 0.000000
0.736334 0.105646 0.000000
0.760665 0.119219 0.000000
0.776734 0.133859 0.000000
0.007517 0.033499 0.023031
0.008179 0.034102 0.024290
0.012844 0.036390 0.026027
0.031321 0.041606 0.023167
0.079398 0.047562 0.016911
0.173083 0.054624 0.006932
0.296761 0.064434 0.000385
0.417038 0.077645 0.000014
0.516586 0.088781 0.000000
0.597713 0.099911 0.000000
0.669299 0.109371 0.000000
0.722046 0.118875 0.000000
0.756503 0.131318 0.000000
0.783328 0.145795 0.000000
0.800504 0.167104 0.000000
0.817021 0.184934 0.000000
0.005200 0.051044 0.040748
0.005123 0.053226 0.042305
0.008153 0.057568 0.045545
0.030130 0.061303 0.045482
0.086442 0.068949 0.039602
0.196324 0.080416 0.023647
0.339153 0.091942 0.008110
0.475318 0.106496 0.003472
0.583862 0.121015 0.001535
0.673082 0.134133 0.000364
0.748253 0.147453 0.000001
0.800062 0.162338 0.000000
0.833195 0.179238 0.000000
0.854904 0.202685 0.000000
0.866822 0.227875 0.000000
0.874066 0.250096 0.000000
0.000117 0.078143 0.069100
0.000292 0.081168 0.070979
0.003189 0.086974 0.077808
0.027372 0.090997 0.079699
0.090567 0.099690 0.076706
0.209392 0.114677 0.061318
0.365176 0.131703 0.042691
0.514582 0.150087 0.028682
0.633187 0.167326 0.016750
0.730625 0.183764 0.007817
0.814527 0.200383 0.001767
0.872160 0.218366 0.000063
0.906942 0.239030 0.000000
0.927085 0.268575 0.000000
0.936407 0.299766 0.000000
0.935564 0.330071 0.000000
0.000000 0.117133 0.111967
0.000000 0.122031 0.117840
0.001402 0.131109 0.127329
0.021253 0.137709 0.133577
0.090859 0.147368 0.134509
0.212793 0.166607 0.127369
0.378863 0.189649 0.108325
0.544844 0.210871 0.084414
0.675293 0.231866 0.061050
0.779348 0.252852 0.038807
0.869140 0.274736 0.017087
0.935186 0.294268 0.003968
0.968799 0.318384 0.000401
0.981700 0.351730 0.000012
0.986156 0.383920 0.000000
0.983601 0.410221 0.000000
0.000000 0.177728 0.184652
0.000000 0.185093 0.193815
0.000563 0.199033 0.210443
0.015573 0.210632 0.221006
0.090002 0.224636 0.228127
0.215169 0.246679 0.234549
0.380870 0.272394 0.224522
0.564402 0.298471 0.186593
0.712138 0.324137 0.146467
0.828483 0.350478 0.107218
0.920823 0.376097 0.070047
0.979249 0.395705 0.036300
0.997806 0.416805 0.014994
0.999942 0.443813 0.004271
1.000000 0.471064 0.000828
0.999952 0.491934 0.000007
0.000000 0.262071 0.290099
0.000000 0.272234 0.302286
0.000053 0.291772 0.327927
0.011887 0.309082 0.346081
0.089233 0.330148 0.361236
0.219497 0.356892 0.375701
0.379527 0.383737 0.384558
0.567019 0.411451 0.354175
