example_ofxGpuLutCube/bin/data/ofxGpuLutCube/LUT/U29 (hard teal pink).cube
LUT_3D_SIZE 6
0.002100 0.006600 0.002100
0.076020 0.013280 0.002640
0.280100 0.019400 0.000000
0.576040 0.030700 0.000000
0.734060 0.053760 0.000000
0.810810 0.070665 0.000000
0.000000 0.069600 0.074480
0.060128 0.076504 0.074640
0.313540 0.072568 0.038620
0.656492 0.070412 0.037840
0.818848 0.079764 0.037840
0.893908 0.090252 0.037840
0.000000 0.198880 0.238620
0.047520 0.220876 0.266420
0.382796 0.214200 0.218244
0.779652 0.196984 0.190980
0.938868 0.188312 0.204348
0.996538 0.236034 0.216221
0.000000 0.497220 0.582180
0.047520 0.551876 0.633200
0.253436 0.537088 0.572024
0.787412 0.552588 0.539916
0.957000 0.539296 0.524456
0.997986 0.550220 0.513152
0.000000 0.681920 0.789840
0.047520 0.726708 0.820356
0.184468 0.772040 0.805804
0.749704 0.787524 0.758268
0.949784 0.787076 0.741408
0.997986 0.796607 0.736071
0.000000 0.750350 0.875404
0.047520 0.792636 0.903814
0.112981 0.882085 0.947517
0.704233 0.916562 0.917782
0.927749 0.926552 0.907629
0.997969 0.930789 0.903606
0.000080 0.019480 0.018620
0.077076 0.025520 0.016168
0.279224 0.030120 0.009680
0.577024 0.040152 0.009680
0.736668 0.063832 0.009680
0.811792 0.080446 0.009680
0.000000 0.091144 0.099008
0.054604 0.098630 0.102258
0.334166 0.095994 0.055734
0.700040 0.063088 0.047408
0.867532 0.057735 0.047408
0.937595 0.079836 0.047408
0.000000 0.279780 0.336920
0.047520 0.314649 0.377217
0.370619 0.288214 0.315044
0.791322 0.292086 0.299774
0.948068 0.294934 0.308210
0.997985 0.332955 0.314819
0.000000 0.568256 0.659612
0.047520 0.623439 0.707491
0.219026 0.630254 0.660271
0.776853 0.639969 0.616059
0.956050 0.623847 0.593490
0.997986 0.632191 0.583573
0.000000 0.710868 0.826192
0.047520 0.751927 0.851886
0.162406 0.816162 0.859243
0.734450 0.840282 0.817444
0.943039 0.844019 0.802029
0.997986 0.851157 0.799408
0.000000 0.764733 0.894782
0.047520 0.810704 0.924604
0.098662 0.901030 0.966084
0.691862 0.938936 0.951892
0.921274 0.951526 0.940254
0.996380 0.955191 0.938103
0.000000 0.034940 0.034820
0.074340 0.039136 0.032884
0.284664 0.041676 0.018240
0.591636 0.056956 0.018240
0.754112 0.075384 0.018240
0.829175 0.091485 0.018240
0.000000 0.115376 0.130288
0.051635 0.124824 0.138095
0.357878 0.125422 0.089086
0.737248 0.077419 0.065051
0.907298 0.066426 0.067510
0.975872 0.090536 0.069378
0.000000 0.365076 0.435484
0.047520 0.408987 0.482093
0.339798 0.373510 0.411254
0.794735 0.388947 0.394722
0.955191 0.389731 0.396405
0.997986 0.416787 0.395052
0.000000 0.621552 0.719740
0.047520 0.674646 0.761862
0.206657 0.696799 0.725232
0.766987 0.704772 0.676168
0.954622 0.694238 0.654126
0.997986 0.703455 0.646765
0.000000 0.729480 0.848676
0.047520 0.770202 0.875402
0.144025 0.846880 0.899916
0.721467 0.877014 0.862718
0.936882 0.882968 0.850422
0.997986 0.889101 0.846916
0.000000 0.779379 0.909458
0.047520 0.828476 0.941505
0.098555 0.915816 0.974999
0.685488 0.954802 0.971705
0.918133 0.966809 0.962191
0.994411 0.969474 0.959473
0.000000 0.049580 0.050400
0.070444 0.053820 0.048968
0.293816 0.053588 0.026540
0.614492 0.067772 0.026540
0.775680 0.084620 0.026540
0.852919 0.097848 0.026540
0.000000 0.146892 0.171780
0.048461 0.160782 0.188427
0.376020 0.163084 0.144039
0.764292 0.119142 0.101440
0.933524 0.100864 0.107458
0.994326 0.146264 0.112271
0.000000 0.440528 0.520396
0.047520 0.491973 0.571498
0.292746 0.463738 0.502624
0.792378 0.480754 0.479041
0.957050 0.474835 0.471645
0.997986 0.491544 0.461682
0.000000 0.662188 0.766124
0.047520 0.710366 0.801310
0.193462 0.746834 0.777615
0.756525 0.758707 0.728775
0.952055 0.754983 0.710017
0.997986 0.764976 0.703906
0.000000 0.744072 0.867040
0.047520 0.785650 0.894966
0.121908 0.871866 0.933485
0.709683 0.905477 0.901380
0.930488 0.914016 0.890535
0.997978 0.918647 0.887245
0.000000 0.798359 0.926062
0.047520 0.845716 0.957458
0.105004 0.928867 0.983282
0.679018 0.966208 0.983114
0.915014 0.979155 0.977362
0.992834 0.982121 0.976911
0.000000 0.062160 0.065960
0.062772 0.068604 0.065044
0.306264 0.064864 0.034140
0.640980 0.072848 0.034140
0.801292 0.088512 0.034140
0.878189 0.095025 0.034140
0.000000 0.193064 0.230232
0.047520 0.214125 0.258118
0.383353 0.209470 0.211050
0.778263 0.191304 0.183074
0.938264 0.182064 0.196438
0.996473 0.229259 0.209126
0.000000 0.506388 0.591824
0.047520 0.561170 0.642816
0.251084 0.548902 0.583162
0.786251 0.563953 0.549850
0.956953 0.550153 0.533263
0.997986 0.560900 0.521563
0.000000 0.692304 0.802856
0.047520 0.735663 0.832076
0.178364 0.786744 0.823684
0.744564 0.804602 0.777726
0.947289 0.805690 0.761159
0.997986 0.814389 0.757043
0.000000 0.756008 0.883320
0.047520 0.799262 0.911682
0.106887 0.889285 0.955129
0.699171 0.925336 0.931261
0.925192 0.936602 0.920422
0.997631 0.940347 0.917008
0.000000 0.817959 0.944165
0.047520 0.862819 0.971965
0.121476 0.940009 0.990946
0.670131 0.976485 0.990943
0.911088 0.988646 0.989649
0.991785 0.990891 0.989537
0.000000 0.078847 0.083639
0.056997 0.084688 0.084257
0.319502 0.081024 0.042671
0.672860 0.067372 0.041776
0.837700 0.061446 0.041776
0.910095 0.085196 0.041776
0.000000 0.253841 0.306411
0.047520 0.285529 0.344193
0.376876 0.264899 0.286393
0.789216 0.264384 0.270394
0.945308 0.266322 0.279995
0.997984 0.307109 0.289217
0.000000 0.562634 0.653659
0.047520 0.618146 0.701795
0.220442 0.622468 0.652971
0.777911 0.632892 0.610120
0.956048 0.617409 0.588868
0.997986 0.625965 0.578383
0.000000 0.713260 0.829006
0.047520 0.754228 0.854995
0.160365 0.819803 0.864291
0.732679 0.844668 0.823141
0.942143 0.848561 0.808294
0.997986 0.855644 0.805257
0.000000 0.766943 0.896580
0.047520 0.814088 0.927481
0.098584 0.904018 0.967174
0.691432 0.940984 0.954405
0.921137 0.953851 0.944113
0.996096 0.956690 0.940347
0.000000 0.835240 0.957494
0.047520 0.877599 0.984372
0.126641 0.950243 0.998186
0.665694 0.984096 0.998186
0.907769 0.997523 0.998164
0.991734 0.998183 0.998160
