example_ofxGpuLutCube/bin/data/ofxGpuLutCube/LUT/U29 (hard teal pink).cube
LUT_3D_SIZE 16
0.002100 0.006600 0.002100
0.018513 0.006920 0.005227
0.047233 0.010333 0.005293
0.076020 0.013280 0.002640
0.118100 0.017253 0.000000
0.181300 0.019867 0.000000
0.280100 0.019400 0.000000
0.399200 0.018133 0.000000
0.498507 0.020640 0.000000
0.576040 0.030700 0.000000
0.644267 0.038367 0.000000
0.697740 0.043680 0.000000
0.734060 0.053760 0.000000
0.763513 0.060927 0.000000
0.790340 0.066833 0.000000
0.810810 0.070665 0.000000
0.000000 0.020540 0.019927
0.015323 0.022394 0.020044
0.046172 0.024079 0.019836
0.076980 0.026597 0.017297
0.118957 0.030484 0.011372
0.181867 0.032809 0.010347
0.279664 0.031051 0.010320
0.399096 0.029240 0.010320
0.499039 0.032500 0.010320
0.578141 0.041372 0.010320
0.646867 0.049896 0.010320
0.701123 0.055177 0.010320
0.737879 0.064633 0.010320
0.767146 0.071583 0.010320
0.792976 0.077317 0.010320
0.813225 0.081185 0.010320
0.000000 0.046327 0.047407
0.013007 0.047632 0.047900
0.035498 0.049552 0.048602
0.071028 0.050973 0.045903
0.119234 0.053071 0.037218
0.187800 0.054849 0.026249
0.291832 0.051304 0.024848
0.417996 0.048530 0.024840
0.524887 0.055495 0.024840
0.609040 0.066412 0.024840
0.680658 0.072900 0.024840
0.733866 0.077059 0.024840
0.771596 0.081687 0.024840
0.803855 0.086390 0.024840
0.828651 0.091099 0.024840
0.848231 0.096343 0.024840
0.000000 0.069600 0.074480
0.012880 0.071320 0.075391
0.032144 0.074432 0.077039
0.060128 0.076504 0.074640
0.117611 0.077389 0.065504
0.195033 0.078347 0.048913
0.313540 0.072568 0.038620
0.454296 0.065368 0.037840
0.569421 0.063469 0.037840
0.656492 0.070412 0.037840
0.726553 0.084593 0.037840
0.779253 0.086431 0.037840
0.818848 0.079764 0.037840
0.848705 0.080111 0.037840
0.873425 0.086988 0.037840
0.893908 0.090252 0.037840
0.000000 0.097200 0.107200
0.012880 0.098499 0.109304
0.031440 0.102244 0.113231
0.053701 0.105549 0.111717
0.111191 0.106790 0.102844
0.206358 0.108978 0.084113
0.341156 0.103619 0.063121
0.495571 0.088116 0.053982
0.618433 0.071583 0.051152
0.711815 0.062903 0.050107
0.787238 0.064433 0.050107
0.838555 0.069398 0.050107
0.880688 0.056431 0.050107
0.912465 0.052287 0.050107
0.931546 0.068558 0.050107
0.949450 0.081547 0.050107
0.000000 0.134800 0.155833
0.012880 0.138129 0.160644
0.031440 0.144462 0.169289
0.049627 0.146260 0.168380
0.095982 0.145833 0.159207
0.214011 0.149422 0.144989
0.370513 0.148960 0.123193
0.533707 0.137391 0.100513
0.660338 0.119204 0.089953
0.756167 0.102000 0.085393
0.835811 0.088511 0.086300
0.890216 0.084311 0.088447
0.925673 0.085413 0.090367
0.954329 0.090211 0.093304
0.975253 0.104589 0.094416
0.989634 0.122661 0.094896
0.000000 0.198880 0.238620
0.012880 0.206888 0.248267
0.031440 0.220048 0.265155
0.047520 0.220876 0.266420
0.080464 0.211191 0.252255
0.196447 0.209720 0.234580
0.382796 0.214200 0.218244
0.557771 0.211381 0.201249
0.686464 0.204395 0.193441
0.779652 0.196984 0.190980
0.853753 0.187813 0.193673
0.905039 0.183779 0.198321
0.938868 0.188312 0.204348
0.965408 0.200631 0.212516
0.983440 0.220335 0.216175
0.996538 0.236034 0.216221
0.000000 0.296733 0.357533
0.012880 0.308093 0.369996
0.031440 0.328805 0.393554
0.047520 0.334051 0.399560
0.067668 0.318730 0.383103
0.155609 0.299893 0.352922
0.366656 0.303867 0.334428
0.562112 0.307004 0.321876
0.697835 0.308551 0.318310
0.793004 0.310343 0.319961
0.866882 0.309664 0.321824
0.917173 0.309826 0.323545
0.949621 0.313935 0.327707
0.971928 0.325328 0.332324
0.985838 0.339564 0.334548
0.997985 0.350472 0.332251
0.000000 0.402440 0.477214
0.012880 0.413618 0.489370
0.031440 0.436478 0.515232
0.047520 0.450712 0.527336
0.062533 0.446285 0.519270
0.120640 0.421636 0.484051
0.319712 0.416336 0.455559
0.549454 0.422400 0.442203
0.694279 0.428071 0.437471
0.794423 0.433874 0.436473
0.871629 0.435158 0.435940
0.924953 0.432809 0.435278
0.956405 0.431513 0.433253
0.973283 0.437879 0.432047
0.985927 0.447330 0.431647
0.997986 0.452817 0.427733
0.000000 0.497220 0.582180
0.012880 0.508212 0.593573
0.031440 0.531999 0.618237
0.047520 0.551876 0.633200
0.062533 0.561833 0.634784
0.089780 0.550267 0.609187
0.253436 0.537088 0.572024
0.528657 0.542076 0.552715
0.682385 0.547751 0.544256
0.787412 0.552588 0.539916
0.869393 0.552233 0.535460
0.925293 0.546496 0.530381
0.957000 0.539296 0.524456
0.973356 0.539656 0.518672
0.985927 0.545819 0.516411
0.997986 0.550220 0.513152
0.000000 0.577633 0.670033
0.012880 0.588811 0.681413
0.031440 0.611656 0.703080
0.047520 0.632607 0.717107
0.062533 0.650998 0.723089
0.077211 0.653111 0.707822
0.217073 0.641894 0.671573
0.501429 0.643602 0.644925
0.665767 0.648118 0.632320
0.775327 0.651140 0.626140
0.862433 0.649322 0.618989
0.921280 0.643120 0.610436
0.955813 0.635707 0.603547
0.973278 0.633982 0.598698
0.985927 0.638227 0.596236
0.997986 0.644374 0.594153
0.000000 0.637787 0.738720
0.012880 0.648562 0.747969
0.031440 0.669462 0.765764
0.047520 0.689716 0.777951
0.062533 0.710660 0.785085
0.076967 0.721613 0.777127
0.202377 0.716707 0.745473
0.473150 0.717007 0.715489
0.649210 0.721743 0.702130
0.763619 0.724815 0.695319
0.853942 0.724033 0.687389
0.915800 0.720335 0.679774
0.953997 0.716756 0.674277
0.973133 0.716687 0.671151
0.985927 0.720625 0.668723
0.997986 0.726055 0.667828
0.000000 0.681920 0.789840
0.012880 0.690651 0.797233
0.031440 0.707459 0.810729
0.047520 0.726708 0.820356
0.062533 0.747823 0.827604
0.076967 0.766760 0.828060
0.184468 0.772040 0.805804
0.437585 0.775625 0.777460
0.628721 0.782495 0.764415
0.749704 0.787524 0.758268
0.844067 0.789527 0.752180
0.908429 0.788073 0.746080
0.949784 0.787076 0.741408
0.972660 0.788835 0.739005
0.985927 0.793021 0.737267
0.997986 0.796607 0.736071
0.000000 0.713260 0.829380
0.012880 0.720458 0.834709
0.031440 0.735796 0.845332
0.047520 0.754105 0.854571
0.062533 0.776932 0.863762
0.076967 0.803347 0.871893
0.159713 0.820488 0.864568
0.391743 0.829759 0.842664
0.605574 0.839153 0.829836
0.732915 0.845481 0.823491
0.831271 0.848322 0.817845
0.898308 0.849816 0.811987
0.942308 0.849545 0.808067
0.970681 0.850791 0.805516
0.985846 0.854037 0.805531
0.997986 0.856280 0.805725
0.000000 0.734260 0.854540
0.012880 0.741020 0.859307
0.031440 0.756422 0.869875
0.047520 0.775095 0.881736
0.062533 0.799233 0.893868
0.076967 0.830418 0.908533
0.138129 0.854832 0.910765
0.351640 0.868529 0.894544
0.585816 0.878883 0.881695
0.718253 0.886649 0.875288
0.819893 0.891247 0.869373
0.890652 0.892375 0.866463
0.935047 0.893505 0.863571
0.967593 0.894426 0.861102
0.985597 0.896288 0.860770
0.997985 0.899034 0.860054
0.000000 0.750350 0.875404
0.012880 0.757275 0.881187
0.031440 0.773810 0.891034
0.047520 0.792636 0.903814
0.062533 0.819172 0.918932
0.076967 0.851701 0.936111
0.112981 0.882085 0.947517
0.307019 0.898415 0.937022
0.565348 0.908339 0.924486
0.704233 0.916562 0.917782
0.809663 0.921850 0.912694
0.882452 0.925247 0.909928
0.927749 0.926552 0.907629
0.961691 0.927901 0.905882
0.983732 0.929120 0.904941
0.997969 0.930789 0.903606
0.002033 0.009253 0.004880
0.018424 0.009512 0.007819
0.047211 0.012979 0.007887
0.076063 0.015851 0.005337
0.118130 0.019897 0.002575
0.181311 0.022507 0.002560
0.280061 0.021995 0.002560
0.399167 0.020666 0.002560
0.498477 0.023137 0.002560
0.576052 0.033144 0.002560
0.644291 0.040916 0.002560
0.697789 0.046266 0.002560
0.734120 0.056333 0.002560
0.763556 0.063413 0.002560
0.790355 0.069300 0.002560
0.810817 0.073224 0.002560
0.000000 0.026021 0.025063
0.015029 0.027121 0.025306
0.044978 0.028327 0.025419
0.075973 0.030956 0.023224
0.119205 0.034345 0.016310
0.182887 0.036785 0.013111
0.281219 0.034689 0.013048
0.401752 0.033073 0.013048
0.502891 0.037588 0.013048
0.582745 0.045721 0.013048
0.651451 0.054091 0.013048
0.705942 0.059401 0.013048
0.743585 0.068300 0.013048
0.773332 0.075079 0.013048
0.798120 0.080851 0.013048
0.818276 0.084463 0.013048
0.000000 0.051381 0.052631
0.012929 0.052488 0.053230
0.034223 0.054824 0.053783
0.069336 0.055973 0.051401
0.119043 0.057831 0.042270
0.189457 0.059106 0.029787
0.295647 0.055360 0.027607
0.424445 0.051674 0.027562
0.533288 0.056287 0.027562
0.618503 0.067249 0.027562
0.689033 0.077095 0.027562
0.742342 0.080626 0.027562
0.780029 0.082912 0.027562
0.812258 0.086236 0.027562
0.837271 0.091184 0.027562
0.856845 0.096722 0.027562
0.000000 0.075521 0.080523
0.012880 0.076988 0.081674
0.031930 0.079811 0.083627
0.058518 0.082181 0.081488
0.116815 0.083135 0.072593
0.197350 0.084128 0.055082
0.318880 0.078253 0.042296
0.462692 0.069012 0.040400
0.579356 0.064554 0.040400
0.667928 0.068161 0.040400
0.738991 0.079284 0.040400
0.791057 0.081944 0.040400
0.831153 0.071513 0.040400
0.862201 0.070074 0.040400
0.884896 0.082392 0.040400
0.905298 0.086592 0.040400
0.000000 0.103996 0.115876
0.012880 0.105592 0.118300
0.031440 0.109875 0.122951
0.052818 0.112951 0.121786
0.108182 0.113971 0.113305
0.209010 0.116691 0.095283
0.348427 0.111979 0.072545
0.504755 0.096328 0.059460
0.628423 0.078969 0.054833
0.722784 0.067603 0.053157
0.799886 0.064637 0.053191
0.852187 0.066996 0.053264
0.892501 0.057696 0.053318
0.923853 0.055116 0.053391
0.943691 0.069787 0.053408
0.961289 0.084565 0.053420
0.000000 0.144936 0.169322
0.012880 0.148736 0.174711
0.031440 0.156804 0.185806
0.048764 0.158625 0.185532
0.092133 0.156779 0.175653
0.213377 0.160245 0.161670
0.375340 0.161121 0.141211
0.541132 0.151240 0.117564
0.667617 0.135143 0.103163
0.763456 0.116099 0.098309
0.843714 0.100863 0.099542
0.898334 0.096851 0.101416
0.932675 0.098394 0.103313
0.960250 0.102839 0.106206
0.980195 0.119327 0.107639
0.993907 0.142911 0.108206
0.000000 0.218145 0.261732
0.012880 0.226552 0.272135
0.031440 0.241988 0.291643
0.047520 0.243872 0.294276
0.077107 0.231926 0.278948
0.186952 0.227446 0.259094
0.381513 0.232138 0.242369
0.560337 0.230682 0.226925
0.690024 0.226347 0.220429
0.783115 0.221963 0.220015
0.856622 0.215725 0.223098
0.907600 0.213091 0.226852
0.941418 0.217902 0.232019
0.966884 0.230111 0.239373
0.984267 0.248474 0.243379
0.997140 0.262457 0.243580
0.000000 0.321350 0.385716
0.012880 0.332944 0.398441
0.031440 0.354371 0.423137
0.047520 0.361708 0.430765
0.064743 0.347963 0.415502
0.144585 0.325515 0.382852
0.358741 0.327999 0.362479
0.560101 0.331948 0.350232
0.697887 0.334687 0.346862
0.793983 0.337728 0.347615
0.868635 0.338099 0.348908
0.919707 0.338277 0.350468
0.952010 0.341589 0.353599
0.972526 0.352060 0.356667
0.985910 0.365186 0.358418
0.997986 0.374453 0.355535
0.000000 0.425496 0.503312
0.012880 0.436822 0.515695
0.031440 0.460258 0.541080
0.047520 0.476003 0.554502
0.062533 0.475603 0.549132
0.113382 0.452138 0.515268
0.304283 0.444724 0.484301
0.544996 0.450422 0.469636
0.692219 0.456037 0.464401
0.793346 0.462055 0.462531
0.871729 0.463691 0.460841
0.925746 0.460929 0.459417
0.956875 0.457802 0.456966
0.973332 0.462753 0.454037
0.985927 0.471381 0.452300
0.997986 0.476202 0.448172
0.000000 0.517823 0.604201
0.012880 0.528686 0.615793
0.031440 0.552446 0.639630
0.047520 0.573156 0.654813
0.062533 0.585714 0.658068
0.085628 0.577693 0.635239
0.243216 0.564283 0.597467
0.523147 0.568323 0.576141
0.678716 0.573696 0.566741
0.784609 0.578245 0.561957
0.868042 0.577284 0.556422
0.924636 0.571123 0.550425
0.956737 0.563550 0.544149
0.973332 0.562685 0.538056
0.985927 0.567948 0.535090
0.997986 0.572853 0.532336
0.000000 0.593140 0.687229
0.012880 0.604296 0.698548
0.031440 0.627177 0.719555
0.047520 0.648156 0.733417
0.062533 0.667273 0.739725
0.076967 0.671546 0.726172
0.214198 0.661541 0.690316
0.496182 0.662833 0.662542
0.662007 0.667323 0.650004
0.772545 0.670136 0.643575
0.860472 0.668230 0.636022
0.920031 0.662634 0.627554
0.955451 0.656374 0.621147
0.973253 0.654833 0.616731
0.985927 0.658947 0.614407
0.997986 0.665312 0.612436
0.000000 0.650139 0.752958
0.012880 0.660653 0.761407
0.031440 0.680678 0.778312
0.047520 0.700677 0.790070
0.062533 0.721913 0.797351
0.076967 0.735075 0.791562
0.198278 0.732222 0.761800
0.465094 0.732816 0.731565
0.644659 0.737857 0.718323
0.760409 0.741327 0.711519
0.851637 0.741155 0.703926
0.914133 0.738207 0.696799
0.953222 0.735400 0.691516
0.973055 0.735908 0.688835
0.985927 0.739854 0.686562
0.997986 0.744675 0.685688
0.000000 0.690656 0.801024
0.012880 0.699036 0.807842
0.031440 0.715303 0.820123
0.047520 0.734263 0.830004
0.062533 0.755923 0.837266
0.076967 0.776516 0.839312
0.179712 0.784158 0.820238
0.428193 0.788680 0.792524
0.623032 0.796114 0.779615
0.745631 0.801485 0.773880
0.840802 0.803782 0.767939
0.906040 0.803101 0.762202
0.947899 0.802303 0.757579
0.972412 0.803726 0.754920
0.985926 0.807820 0.753876
0.997986 0.811188 0.753084
0.000000 0.719020 0.836316
0.012880 0.725895 0.841327
0.031440 0.741008 0.851988
0.047520 0.759578 0.861513
0.062533 0.782695 0.871413
0.076967 0.810532 0.881372
0.154038 0.829946 0.877045
0.381424 0.840787 0.856638
0.600588 0.850588 0.843643
0.728912 0.857012 0.837532
0.828336 0.860000 0.831743
0.896193 0.861569 0.826540
0.940465 0.861639 0.822930
0.969824 0.863170 0.820362
0.985798 0.866112 0.820027
0.997986 0.867944 0.820392
0.000000 0.738585 0.859949
0.012880 0.745232 0.865160
0.031440 0.760667 0.875069
0.047520 0.779715 0.887575
0.062533 0.804754 0.900871
0.076967 0.836669 0.916649
0.130011 0.862558 0.921037
0.338008 0.876793 0.906346
0.580870 0.887358 0.893581
0.715044 0.895551 0.887629
0.817244 0.900900 0.882371
0.888106 0.902441 0.878911
0.932743 0.903489 0.875870
0.965488 0.904688 0.874067
0.985348 0.906192 0.874039
0.997984 0.908123 0.872677
0.000000 0.753983 0.880691
0.012880 0.761165 0.886141
0.031440 0.778345 0.896684
0.047520 0.797086 0.909380
0.062533 0.823703 0.924174
0.076967 0.856174 0.941249
0.108286 0.887791 0.954584
0.298006 0.904967 0.945912
0.560398 0.914482 0.934179
0.700760 0.922545 0.927321
0.806766 0.927956 0.922063
0.880866 0.931476 0.919321
0.925746 0.933891 0.917290
0.960226 0.934856 0.915281
0.982809 0.935847 0.913862
0.997921 0.937877 0.912287
0.000967 0.014773 0.012413
0.016973 0.015621 0.013918
0.046892 0.018552 0.013802
0.076732 0.021293 0.011463
0.118593 0.025236 0.006830
0.181471 0.027773 0.006600
0.279453 0.026568 0.006600
0.398634 0.024998 0.006600
0.498008 0.027747 0.006600
0.576236 0.036941 0.006600
0.644660 0.045307 0.006600
0.698562 0.050701 0.006600
0.735067 0.060563 0.006600
0.764237 0.067640 0.006600
0.790597 0.073440 0.006600
0.810924 0.077265 0.006600
0.000000 0.032572 0.031943
0.014291 0.033006 0.032301
0.043456 0.033921 0.032617
0.074602 0.036740 0.030047
0.119676 0.039638 0.022615
0.184240 0.042152 0.016825
0.283820 0.039739 0.016652
0.405847 0.038060 0.016652
0.508271 0.044295 0.016652
0.589126 0.053369 0.016652
0.658724 0.058789 0.016652
0.712786 0.064077 0.016652
0.751135 0.073191 0.016652
0.781892 0.079814 0.016652
0.805668 0.085680 0.016652
0.825584 0.089217 0.016652
0.000000 0.058494 0.060417
0.012885 0.059456 0.061161
0.033166 0.062259 0.061859
0.066248 0.063384 0.059501
0.118776 0.064905 0.050005
0.191825 0.065544 0.035517
0.302044 0.061206 0.031591
0.434678 0.056485 0.031440
0.545832 0.059653 0.031440
0.632437 0.069932 0.031440
0.701533 0.082916 0.031440
0.755013 0.084797 0.031440
0.792843 0.084465 0.031440
0.824504 0.086334 0.031440
0.849611 0.092559 0.031440
0.869918 0.095665 0.031440
0.000000 0.084996 0.091312
0.012880 0.086038 0.092821
0.031603 0.088532 0.095084
0.055955 0.091443 0.093050
0.115255 0.092748 0.084226
0.200860 0.093960 0.065857
0.326809 0.088446 0.049109
0.475525 0.075849 0.044572
0.594775 0.067097 0.044464
0.685849 0.065923 0.044421
0.758504 0.073459 0.044421
0.809936 0.077583 0.044421
0.852136 0.059824 0.044421
0.884811 0.055472 0.044421
0.903806 0.075976 0.044421
0.924004 0.081803 0.044421
0.000000 0.116411 0.131643
0.012880 0.118907 0.135257
0.031440 0.123676 0.140958
0.051394 0.126004 0.139769
0.103029 0.126694 0.131641
0.212292 0.130318 0.115686
0.359212 0.126877 0.090772
0.518233 0.111935 0.071124
0.643233 0.093130 0.067109
0.739206 0.077410 0.065270
0.818129 0.068328 0.065787
0.871957 0.066705 0.066985
0.909799 0.065990 0.067898
0.940664 0.067636 0.069158
0.961503 0.076865 0.069462
0.977932 0.090433 0.069671
0.000000 0.165207 0.195238
0.012880 0.170549 0.202551
0.031440 0.180945 0.216075
0.047834 0.181923 0.216744
0.086413 0.176952 0.205281
0.208584 0.179302 0.190368
0.380459 0.182041 0.172081
0.549839 0.175261 0.151494
0.676424 0.163390 0.140565
0.770495 0.150242 0.136778
0.847757 0.136450 0.139278
0.900972 0.132313 0.143404
0.935437 0.135687 0.147362
0.962360 0.143973 0.153136
0.981921 0.163324 0.155290
0.995398 0.182257 0.156269
0.000000 0.250303 0.301447
0.012880 0.259227 0.312670
0.031440 0.277646 0.334150
0.047520 0.281019 0.338407
0.072937 0.266768 0.322420
0.174052 0.256568 0.298492
0.377333 0.261347 0.281450
0.562545 0.261935 0.268245
0.694223 0.260887 0.263627
0.787925 0.260649 0.264846
0.861256 0.257724 0.268259
0.911594 0.257095 0.270972
0.945473 0.262116 0.275086
0.968981 0.274069 0.281589
0.985580 0.290247 0.284856
0.997985 0.302342 0.285165
0.000000 0.357793 0.427443
0.012880 0.368932 0.439680
0.031440 0.390876 0.464117
0.047520 0.400966 0.473684
0.062607 0.390446 0.461392
0.132495 0.365440 0.426500
0.344469 0.364956 0.402747
0.556317 0.370066 0.390557
0.697003 0.374547 0.386763
0.794887 0.379672 0.386792
0.870535 0.380607 0.388126
0.922545 0.379804 0.389136
0.954932 0.381741 0.389757
0.973089 0.390729 0.390822
0.985924 0.401959 0.391108
0.997986 0.409626 0.388445
0.000000 0.458327 0.539948
0.012880 0.469500 0.552029
0.031440 0.493573 0.576732
0.047520 0.511105 0.591402
0.062533 0.515963 0.589485
0.101022 0.497398 0.559258
0.278050 0.486859 0.524518
0.537009 0.492206 0.507869
0.687734 0.497906 0.501479
0.791002 0.503641 0.498577
0.870889 0.504850 0.495549
0.925878 0.500600 0.492681
0.957119 0.494903 0.488315
0.973362 0.497690 0.483815
0.985927 0.505491 0.481283
0.997986 0.509744 0.477638
0.000000 0.544943 0.634097
0.012880 0.556095 0.646136
0.031440 0.579810 0.669095
0.047520 0.600607 0.683848
0.062533 0.616630 0.688731
0.079477 0.613607 0.669811
0.226834 0.600189 0.631428
0.512611 0.602864 0.607445
0.672877 0.607857 0.596845
0.780767 0.611596 0.591485
0.865589 0.610498 0.584992
0.923601 0.603854 0.577316
0.956574 0.595364 0.570225
0.973328 0.593899 0.564773
0.985927 0.598826 0.561808
0.997986 0.604108 0.559322
0.000000 0.612900 0.709571
0.012880 0.624110 0.720868
0.031440 0.646447 0.740541
0.047520 0.667119 0.753770
0.062533 0.687193 0.760342
0.076967 0.694419 0.749133
0.209419 0.686166 0.714276
0.486677 0.686846 0.685439
0.656565 0.691500 0.672721
0.768841 0.694123 0.666162
0.857710 0.692681 0.658373
0.918417 0.687813 0.649952
0.954954 0.682755 0.643965
0.973213 0.681954 0.640312
0.985927 0.686121 0.637980
0.997986 0.692353 0.636181
0.000000 0.667433 0.772208
0.012880 0.676974 0.780375
0.031440 0.695127 0.795699
0.047520 0.714629 0.806191
0.062533 0.735576 0.813272
0.076967 0.751865 0.810863
0.191259 0.753377 0.784832
0.450991 0.755662 0.755681
0.636403 0.761775 0.742633
0.754862 0.766117 0.736203
0.847805 0.767166 0.729631
0.911219 0.765003 0.722844
0.951519 0.763268 0.717955
0.972863 0.764614 0.715784
0.985927 0.768709 0.713584
0.997986 0.773111 0.711972
0.000000 0.703339 0.816363
0.012880 0.711115 0.822420
0.031440 0.726734 0.833790
0.047520 0.744958 0.843624
0.062533 0.766940 0.850912
0.076967 0.790433 0.855981
0.170927 0.802587 0.842684
0.411577 0.809109 0.817208
0.614130 0.817663 0.804543
0.739184 0.823807 0.798760
0.835728 0.826513 0.793300
0.902326 0.826811 0.787455
0.944963 0.826578 0.782843
0.971886 0.827452 0.780551
0.985915 0.831320 0.780156
0.997986 0.834860 0.779670
0.000000 0.726344 0.844884
0.012880 0.733179 0.849639
0.031440 0.748513 0.860684
0.047520 0.767011 0.871277
0.062533 0.790302 0.881904
0.076967 0.819760 0.894133
0.148009 0.841473 0.892769
0.369603 0.853588 0.873966
0.593835 0.863575 0.860946
0.723584 0.870790 0.854495
0.824234 0.874326 0.848688
0.894259 0.875203 0.844949
0.938102 0.876042 0.841713
0.969169 0.877218 0.839455
0.985775 0.879838 0.838503
0.997986 0.882497 0.838353
0.000000 0.744144 0.867005
0.012880 0.750833 0.872842
0.031440 0.766665 0.882282
0.047520 0.785748 0.895092
0.062533 0.811711 0.909734
0.076967 0.844467 0.926969
0.120585 0.872536 0.934113
0.321539 0.887268 0.921049
0.573570 0.897611 0.908286
0.709791 0.906368 0.902317
0.813933 0.912155 0.897652
0.885635 0.914363 0.894123
0.930060 0.915037 0.891231
0.963071 0.916573 0.890186
0.984772 0.917752 0.889903
0.997979 0.919445 0.888213
0.000000 0.760492 0.889579
0.012880 0.767952 0.893830
0.031440 0.785576 0.905446
0.047520 0.804691 0.918110
0.062533 0.830374 0.932608
0.076967 0.862271 0.950111
0.101927 0.895357 0.961865
0.285989 0.913907 0.957454
0.553446 0.923568 0.948446
0.695060 0.932565 0.942230
0.801748 0.938675 0.937871
0.876064 0.942359 0.933869
0.923229 0.944534 0.931051
0.958091 0.945865 0.929189
0.982550 0.946400 0.929710
0.997253 0.948260 0.928190
0.000080 0.019480 0.018620
0.015585 0.021159 0.018799
0.046692 0.022839 0.018617
0.077076 0.025520 0.016168
0.118911 0.029371 0.010355
0.181653 0.031773 0.009680
0.279224 0.030120 0.009680
0.398525 0.028433 0.009680
0.498184 0.031601 0.009680
0.577024 0.040152 0.009680
0.645520 0.048893 0.009680
0.699847 0.054259 0.009680
0.736668 0.063832 0.009680
0.765755 0.070880 0.009680
0.791568 0.076680 0.009680
0.811792 0.080446 0.009680
0.000000 0.037840 0.038148
0.013528 0.038847 0.038531
0.039921 0.040389 0.039048
0.073403 0.042279 0.036379
0.119587 0.044819 0.028526
0.185601 0.047194 0.020462
0.286615 0.044122 0.019947
0.409828 0.042314 0.019947
0.514016 0.049953 0.019947
0.596419 0.059299 0.019947
0.667323 0.063659 0.019947
0.720810 0.069942 0.019947
0.758753 0.077354 0.019947
0.790453 0.083200 0.019947
0.814622 0.088730 0.019947
0.834326 0.092622 0.019947
0.000000 0.063597 0.066964
0.012880 0.065102 0.067894
0.032578 0.068146 0.069007
0.062986 0.069695 0.066567
0.118352 0.070759 0.057339
0.193134 0.071512 0.042029
0.307389 0.066280 0.034934
0.444008 0.060536 0.034555
0.557413 0.061054 0.034555
0.644026 0.070043 0.034555
0.713296 0.085145 0.034555
0.766114 0.087600 0.034555
0.804585 0.085142 0.034555
0.834981 0.085849 0.034555
0.860601 0.090973 0.034555
0.880966 0.094070 0.034555
0.000000 0.091144 0.099008
0.012880 0.092317 0.100849
0.031474 0.095391 0.103984
0.054604 0.098630 0.102258
0.113519 0.099824 0.093354
0.203812 0.101475 0.074872
0.334166 0.095994 0.055734
0.486215 0.081100 0.049013
0.607696 0.068010 0.047850
0.700040 0.063088 0.047408
0.773976 0.066893 0.047408
0.825199 0.071354 0.047408
0.867532 0.057735 0.047408
0.899730 0.054201 0.047408
0.918581 0.070725 0.047408
0.937595 0.079836 0.047408
0.000000 0.126328 0.144720
0.012880 0.129253 0.149065
0.031440 0.134676 0.156069
0.050443 0.136671 0.154887
0.099317 0.137006 0.146252
0.213586 0.140623 0.131441
0.365679 0.138787 0.108059
0.526851 0.125582 0.086313
0.652988 0.106433 0.079069
0.749113 0.089491 0.075558
0.828579 0.077896 0.076231
0.882803 0.074617 0.078032
0.919326 0.075429 0.079548
0.949057 0.079162 0.081855
0.970214 0.090423 0.082608
0.985295 0.105816 0.082946
0.000000 0.185327 0.221013
0.012880 0.192236 0.229951
0.031440 0.203951 0.245139
0.047531 0.204673 0.246065
0.082642 0.197093 0.233200
0.202244 0.197480 0.216953
0.382896 0.201493 0.200396
0.555253 0.197361 0.182274
0.683022 0.188483 0.173357
0.776351 0.179251 0.169340
0.851225 0.167973 0.171931
0.903217 0.163057 0.177217
0.937348 0.167356 0.182952
0.963911 0.179122 0.191248
0.982904 0.199532 0.194456
0.996125 0.215935 0.195082
0.000000 0.279780 0.336920
0.012880 0.290236 0.348801
0.031440 0.310149 0.371760
0.047520 0.314649 0.377217
0.069781 0.299509 0.360838
0.162848 0.283891 0.332924
0.370619 0.288214 0.315044
0.562332 0.290508 0.302157
0.696597 0.291082 0.298219
0.791322 0.292086 0.299774
0.864988 0.290664 0.302001
0.915252 0.290611 0.304018
0.948068 0.294934 0.308210
0.970889 0.306542 0.313628
0.985688 0.321619 0.316123
0.997985 0.332955 0.314819
0.000000 0.388484 0.461633
0.012880 0.399645 0.473884
0.031440 0.422336 0.499370
0.047520 0.435238 0.510671
0.062533 0.428678 0.501186
0.124621 0.403097 0.465532
0.328182 0.399502 0.438659
0.551879 0.405336 0.425741
