example_ofxGpuLutCube/bin/data/ofxGpuLutCube/LUT/U3 (contrasty warm).cube
LUT_3D_SIZE 16
0.022738 0.030624 0.022738
0.044901 0.036658 0.030624
0.057264 0.041822 0.028777
0.078989 0.048267 0.000000
0.098052 0.057133 0.022738
0.130957 0.069140 0.030624
0.180326 0.083504 0.036658
0.246749 0.095437 0.023982
0.322651 0.106585 0.000000
0.386472 0.117728 0.033180
0.442390 0.120565 0.025702
0.479215 0.124125 0.000000
0.498884 0.127678 0.034379
0.516663 0.130289 0.041822
0.531237 0.131250 0.041822
0.544723 0.134798 0.036711
0.009770 0.049352 0.037383
0.044901 0.049435 0.037383
0.061186 0.053703 0.037383
0.080919 0.059174 0.031932
0.107536 0.067335 0.016426
0.141259 0.077815 0.030328
0.195007 0.089897 0.025483
0.266239 0.105099 0.022172
0.346227 0.120030 0.037383
0.415033 0.127993 0.021813
0.465398 0.135532 0.040396
0.501377 0.134507 0.024020
0.526683 0.137588 0.000000
0.544276 0.140337 0.000000
0.558278 0.141649 0.000000
0.569052 0.145211 0.000000
0.030624 0.061186 0.050851
0.040581 0.064134 0.047529
0.060426 0.066017 0.045615
0.084435 0.071880 0.037743
0.114678 0.079497 0.000000
0.152780 0.089371 0.016817
0.211466 0.104146 0.036063
0.290403 0.119494 0.033504
0.371950 0.137143 0.039400
0.443733 0.148242 0.027799
0.497083 0.156857 0.043004
0.531853 0.157576 0.027800
0.554896 0.159238 0.000000
0.571671 0.163784 0.023368
0.587120 0.167376 0.017443
0.599777 0.170936 0.000000
0.033180 0.075346 0.056599
0.040086 0.079473 0.056280
0.053877 0.083566 0.050964
0.084621 0.089073 0.042792
0.120380 0.098578 0.000000
0.165533 0.108774 0.000000
0.234110 0.124945 0.027799
0.318057 0.145339 0.035763
0.406283 0.160861 0.000000
0.478271 0.171857 0.024573
0.528741 0.180278 0.038800
0.566340 0.183395 0.027800
0.588110 0.186448 0.000000
0.602182 0.195038 0.049257
0.618533 0.203145 0.047680
0.630316 0.208670 0.004780
0.039490 0.094493 0.066896
0.044289 0.098527 0.066627
0.049169 0.103502 0.062304
0.073881 0.115594 0.042792
0.122526 0.124180 0.000000
0.178384 0.138620 0.000000
0.257417 0.156729 0.024337
0.351176 0.179727 0.038823
0.441525 0.198879 0.043740
0.513171 0.210464 0.034222
0.563676 0.217284 0.049138
0.602301 0.222211 0.027800
0.624065 0.227006 0.031503
0.639938 0.232640 0.031503
0.652763 0.243056 0.039807
0.666337 0.249609 0.031632
0.034770 0.117895 0.078926
0.037655 0.121942 0.078926
0.040339 0.132222 0.073660
0.049501 0.149038 0.049429
0.121909 0.163452 0.000000
0.195152 0.182321 0.000000
0.284114 0.207355 0.020690
0.383013 0.227558 0.036287
0.478185 0.248231 0.025148
0.554085 0.261710 0.039828
0.608297 0.269534 0.019158
0.644552 0.276116 0.033984
0.664080 0.284662 0.054988
0.678546 0.291737 0.058975
0.694525 0.299579 0.017443
0.704795 0.311007 0.047798
0.027799 0.153034 0.093529
0.018626 0.160048 0.093529
0.031290 0.172171 0.092579
0.048749 0.191315 0.074207
0.109005 0.217960 0.000000
0.209537 0.243179 0.000000
0.310916 0.273370 0.024220
0.421444 0.300486 0.040905
0.519388 0.320825 0.035536
0.597949 0.335040 0.037530
0.656494 0.342900 0.024573
0.691882 0.351506 0.034222
0.713272 0.359375 0.058188
0.727574 0.366471 0.045895
0.742199 0.377336 0.015460
0.756367 0.392557 0.000000
0.031503 0.196643 0.112748
0.017337 0.208246 0.116291
0.031836 0.225510 0.115352
0.051488 0.252718 0.103029
0.088196 0.289319 0.039238
0.225029 0.320848 0.000000
0.340720 0.356125 0.000000
0.461180 0.388350 0.011241
0.566275 0.415419 0.044979
0.649099 0.430444 0.022736
0.704958 0.438366 0.030624
0.743468 0.446289 0.000000
0.765295 0.452059 0.053630
0.779657 0.462077 0.034770
0.793578 0.473987 0.040502
0.807794 0.489225 0.035536
0.000000 0.248634 0.135278
0.017213 0.261297 0.135968
0.023060 0.285701 0.137957
0.027425 0.320103 0.124683
0.097331 0.363659 0.077115
0.239607 0.405165 0.030624
0.371198 0.447763 0.028196
0.497001 0.484803 0.011570
0.609965 0.516026 0.023941
0.697804 0.535763 0.027395
0.756513 0.546763 0.031067
0.793515 0.551144 0.031931
0.817000 0.555353 0.035840
0.831179 0.565844 0.038263
0.842072 0.577973 0.061757
0.855561 0.593432 0.035606
0.040838 0.292971 0.154098
0.023214 0.312792 0.154577
0.045687 0.338061 0.156725
0.027425 0.376169 0.141932
0.082544 0.426187 0.096143
0.255865 0.477974 0.031503
0.394645 0.524928 0.045589
0.527655 0.568382 0.033180
0.648281 0.601202 0.029812
0.738078 0.624761 0.022348
0.801068 0.638884 0.017443
0.838809 0.647392 0.027799
0.861097 0.653106 0.018831
0.875462 0.659523 0.000000
0.885341 0.666819 0.039145
0.895315 0.678352 0.055909
0.034770 0.327929 0.165808
0.017213 0.349362 0.169409
0.045438 0.378319 0.168213
0.050926 0.418241 0.154577
0.084465 0.473511 0.097098
0.265847 0.529004 0.035409
0.412787 0.581028 0.027799
0.551407 0.626922 0.035536
0.674789 0.666557 0.008249
0.767976 0.694242 0.043110
0.833354 0.708922 0.056777
0.872122 0.716861 0.063448
0.893963 0.722554 0.064127
0.906360 0.728131 0.069719
0.915251 0.733397 0.070380
0.923918 0.739962 0.088377
0.000000 0.351690 0.175885
0.052458 0.374087 0.179487
0.050142 0.408547 0.177564
0.051205 0.451665 0.159833
0.108247 0.505977 0.101128
0.277337 0.562035 0.014324
0.428250 0.615540 0.000000
0.567950 0.665360 0.036287
0.690880 0.707209 0.021447
0.786400 0.736280 0.054503
0.851862 0.752565 0.079811
0.890628 0.760902 0.089953
0.912400 0.766048 0.091866
0.926641 0.770834 0.098051
0.933798 0.774586 0.095639
0.939926 0.778700 0.095679
0.000000 0.367120 0.183570
0.031396 0.397639 0.184820
0.042952 0.435638 0.180459
0.065097 0.478082 0.157105
0.099519 0.531577 0.095438
0.290537 0.583875 0.044979
0.438423 0.637522 0.027799
0.579489 0.687156 0.025702
0.700895 0.730672 0.041170
0.796260 0.757970 0.065287
0.862968 0.777027 0.089485
0.902745 0.786650 0.099470
0.925669 0.792490 0.101363
0.937697 0.796491 0.107532
0.947387 0.798843 0.101845
0.949949 0.800625 0.101363
0.000000 0.383294 0.187653
0.058510 0.419333 0.190789
0.034577 0.461989 0.179488
0.088834 0.506033 0.145756
0.134327 0.555787 0.057659
0.308132 0.602181 0.024179
0.452780 0.653604 0.000000
0.590385 0.702473 0.017443
0.708652 0.742075 0.038006
0.801450 0.769364 0.069638
0.867854 0.788321 0.090917
0.908466 0.801455 0.100894
0.930903 0.806725 0.109475
0.945548 0.810204 0.109648
0.952947 0.812057 0.111331
0.957753 0.814722 0.112510
0.000000 0.424895 0.202106
0.023382 0.468568 0.193923
0.037567 0.514626 0.166774
0.120154 0.554565 0.120796
0.227244 0.591698 0.052248
0.357499 0.633920 0.000000
0.487044 0.678366 0.000000
0.609986 0.719572 0.035536
0.719689 0.755219 0.053700
0.808574 0.783121 0.072595
0.874132 0.800444 0.090917
0.916569 0.812479 0.105888
0.938355 0.816689 0.113078
0.953324 0.820882 0.110723
0.960228 0.821888 0.113388
0.965809 0.825604 0.116511
0.000000 0.470307 0.213877
0.026647 0.521493 0.190295
0.093829 0.564365 0.147216
0.133189 0.604821 0.019951
0.286897 0.630668 0.006193
0.406697 0.664990 0.030624
0.523539 0.701796 0.039676
0.633989 0.737402 0.000000
0.735129 0.768937 0.043557
0.816348 0.792264 0.076977
0.879346 0.808180 0.098013
0.920691 0.818618 0.109621
0.944936 0.826536 0.113457
0.960417 0.830653 0.113428
0.967625 0.831691 0.116511
0.973759 0.835543 0.117009
0.022738 0.037383 0.044901
0.044366 0.038005 0.044901
0.061186 0.043110 0.045514
0.080438 0.048621 0.043663
0.103982 0.057133 0.032250
0.138867 0.067564 0.024429
0.188019 0.080134 0.033080
0.250900 0.094726 0.038010
0.326825 0.106108 0.028595
0.395137 0.113457 0.020508
0.447154 0.117728 0.017213
0.483581 0.123391 0.037655
0.507364 0.127028 0.049643
0.525088 0.130290 0.051753
0.539136 0.130709 0.055462
0.549434 0.133858 0.055999
0.031387 0.049352 0.049926
0.043903 0.050857 0.049926
0.061186 0.055049 0.049926
0.084043 0.059514 0.048093
0.111337 0.067335 0.037969
0.148601 0.077049 0.024429
0.199990 0.089424 0.037043
0.274096 0.104630 0.036054
0.351360 0.118736 0.036214
0.419762 0.127616 0.044161
0.474514 0.130923 0.031511
0.511111 0.133943 0.022538
0.533486 0.136712 0.020111
0.552544 0.139563 0.018737
0.566686 0.143439 0.017213
0.576959 0.145097 0.022537
0.036311 0.061561 0.054649
0.036215 0.065838 0.054705
0.059944 0.069529 0.054696
0.085476 0.073944 0.052213
0.117014 0.080671 0.040776
0.159494 0.088735 0.023133
0.219408 0.103696 0.029313
0.298864 0.121595 0.028974
0.382617 0.134655 0.036095
0.454261 0.145870 0.036624
0.506370 0.152902 0.037956
0.539806 0.155190 0.025617
0.559556 0.158617 0.040791
0.577381 0.162223 0.034368
0.594338 0.166855 0.028661
0.605499 0.170128 0.025271
0.040502 0.078989 0.063044
0.037086 0.082676 0.063044
0.053234 0.086704 0.059194
0.084621 0.092636 0.052680
0.120626 0.097817 0.041090
0.170947 0.108774 0.018736
0.240689 0.125705 0.024096
0.329369 0.145021 0.033395
0.415790 0.160660 0.032800
0.487785 0.172235 0.025569
0.538422 0.181440 0.043412
0.573292 0.184078 0.034672
0.593678 0.186010 0.017213
0.612764 0.191502 0.017213
0.623690 0.202547 0.059093
0.637252 0.208178 0.053303
0.039490 0.098052 0.073028
0.044035 0.100250 0.073028
0.048622 0.107024 0.069212
0.073257 0.116573 0.053538
0.122775 0.127074 0.033711
0.182623 0.139968 0.017782
0.263127 0.158639 0.018536
0.357322 0.179635 0.033484
0.448213 0.198748 0.040823
0.523617 0.210087 0.038691
0.575771 0.217261 0.031223
0.609804 0.222073 0.020703
0.632043 0.226636 0.017213
0.649885 0.231897 0.020124
0.661215 0.243279 0.052421
0.674697 0.249606 0.034945
0.042792 0.121611 0.084882
0.042896 0.125670 0.084882
0.046908 0.134472 0.083646
0.046374 0.151374 0.060610
0.119329 0.168487 0.018847
0.198714 0.186310 0.021766
0.291240 0.208228 0.020409
0.391349 0.231097 0.024138
0.486412 0.250844 0.035154
0.562496 0.264441 0.027676
0.617878 0.273175 0.037851
0.652712 0.278645 0.032119
0.674712 0.282371 0.017213
0.689972 0.291507 0.040924
0.703178 0.300768 0.032906
0.717057 0.309990 0.022893
0.035309 0.156002 0.099416
0.020271 0.161446 0.099427
0.038900 0.175411 0.098829
0.037791 0.196759 0.081031
0.103503 0.223924 0.021516
0.212169 0.250246 0.018737
0.318040 0.277449 0.032149
0.429411 0.304443 0.017986
0.530101 0.327464 0.038645
0.609799 0.339860 0.034984
0.665623 0.350253 0.025121
0.702371 0.354638 0.022963
0.722361 0.360019 0.041743
0.735716 0.369335 0.058150
0.750658 0.380723 0.038627
0.764272 0.396200 0.021086
0.031387 0.200724 0.119048
0.030190 0.212330 0.122172
0.023120 0.229684 0.121208
0.028538 0.258115 0.109577
0.076511 0.293541 0.043092
0.223748 0.326500 0.017213
0.344817 0.361642 0.017939
0.465593 0.395974 0.028924
0.574264 0.419636 0.035974
0.657996 0.435449 0.040897
0.716423 0.446240 0.033116
0.753566 0.452430 0.017702
0.773656 0.458341 0.054563
0.787920 0.466261 0.051687
0.801555 0.477834 0.056730
0.815611 0.496838 0.028874
0.015460 0.253040 0.141897
0.047315 0.269069 0.145029
0.041261 0.290096 0.144245
0.047170 0.324382 0.135886
0.088429 0.367857 0.091734
0.237196 0.411935 0.028009
0.371522 0.452813 0.019907
0.504668 0.492463 0.017460
0.617879 0.520675 0.018847
0.705668 0.540210 0.051116
0.764865 0.551308 0.019752
0.803642 0.559035 0.017637
0.825618 0.564732 0.035292
0.840515 0.571242 0.039658
0.850556 0.582866 0.063711
0.864207 0.597936 0.026889
0.015460 0.300806 0.160491
0.036197 0.317197 0.163753
0.039124 0.345451 0.163140
0.052105 0.383986 0.152364
0.108520 0.430617 0.106989
0.250150 0.483722 0.043009
0.397066 0.531586 0.038321
0.535051 0.576380 0.031281
0.653429 0.609127 0.027676
0.746463 0.632230 0.047260
0.808139 0.646674 0.038456
0.846738 0.653149 0.022185
0.870490 0.659523 0.052249
0.883857 0.666974 0.024491
0.893794 0.674650 0.048370
0.903083 0.685542 0.059283
0.017443 0.332112 0.175351
0.047928 0.353537 0.178082
0.046977 0.386160 0.178316
0.044049 0.427122 0.165148
0.116911 0.477896 0.121027
0.260335 0.533719 0.042248
0.415663 0.588734 0.035393
0.557691 0.634880 0.039568
0.680033 0.672227 0.024429
0.774905 0.699213 0.048464
0.838836 0.714390 0.067001
0.878921 0.721962 0.067001
0.902006 0.729122 0.076620
0.913686 0.734131 0.075798
0.923163 0.740252 0.078055
0.929823 0.745474 0.092776
0.015460 0.355571 0.185420
0.034881 0.381241 0.185914
0.044537 0.414222 0.185664
0.055053 0.457871 0.170274
0.097699 0.511148 0.117806
0.268411 0.567635 0.058742
0.429298 0.623128 0.039177
0.571890 0.671919 0.040331
0.695012 0.711595 0.031048
0.790552 0.740394 0.057258
0.857219 0.755563 0.084418
0.897001 0.766048 0.095363
0.920338 0.771000 0.097561
0.932173 0.775536 0.102971
0.941650 0.779278 0.098371
0.947806 0.783023 0.099431
0.000000 0.369548 0.190017
0.018172 0.401153 0.193628
0.026446 0.437971 0.191817
0.047854 0.482278 0.170670
0.105921 0.535503 0.111963
0.281582 0.588368 0.054142
0.437426 0.642956 0.049415
0.579746 0.692115 0.021181
0.705045 0.734571 0.044208
0.800518 0.762306 0.068082
0.867223 0.780678 0.092845
0.907803 0.790129 0.102449
0.930536 0.795830 0.106881
0.942291 0.800037 0.112451
0.951611 0.803011 0.104320
0.957683 0.804922 0.106763
0.000000 0.383747 0.198205
0.056908 0.423818 0.201372
0.028088 0.465886 0.193272
0.032042 0.511073 0.162091
0.099016 0.561701 0.095059
0.301178 0.610248 0.048772
0.449008 0.660851 0.045040
0.590193 0.707109 0.040219
0.712308 0.746365 0.041415
0.804876 0.773685 0.073914
0.871464 0.792546 0.093517
0.912856 0.804511 0.103209
0.937469 0.810503 0.113038
0.950085 0.814418 0.112784
0.959822 0.816247 0.114772
0.963537 0.819053 0.117057
0.065823 0.429522 0.223590
0.023382 0.476108 0.219572
0.023060 0.518812 0.199726
0.029931 0.563855 0.146977
0.107903 0.611863 0.036959
0.338318 0.647845 0.022477
0.481891 0.690625 0.017213
0.610133 0.731545 0.022096
0.724342 0.764145 0.046540
0.815460 0.790395 0.078225
0.879928 0.806701 0.099610
0.922826 0.818465 0.112922
0.947135 0.824829 0.117177
0.961923 0.828764 0.115765
0.971401 0.830136 0.119201
0.977490 0.833047 0.121902
0.054530 0.478751 0.247744
0.067811 0.526215 0.238707
0.028902 0.573311 0.200897
0.056060 0.619639 0.114707
0.189648 0.657913 0.033379
0.374579 0.690433 0.023214
0.511682 0.722385 0.017213
0.634166 0.754330 0.017213
0.740462 0.782373 0.047640
0.828308 0.805550 0.080866
0.891067 0.820746 0.098833
0.933694 0.831164 0.110077
0.959216 0.836787 0.113912
0.973056 0.840629 0.113731
0.983561 0.843975 0.117123
0.989185 0.847096 0.132051
0.022738 0.043110 0.056200
0.039404 0.041997 0.061186
0.060426 0.046498 0.061186
0.080438 0.050851 0.061186
0.107068 0.057133 0.058128
0.145544 0.063700 0.045037
0.199395 0.068196 0.024980
0.264311 0.077956 0.023060
0.340344 0.090022 0.034291
0.404773 0.106066 0.048705
0.459221 0.107063 0.038512
0.497700 0.109663 0.029489
0.523774 0.108950 0.023060
0.541936 0.110370 0.025430
0.555100 0.112983 0.037567
0.562613 0.112983 0.043223
0.030862 0.054649 0.061561
0.038686 0.054705 0.064252
0.061086 0.057738 0.065046
0.084043 0.061713 0.064126
0.112483 0.067395 0.060222
0.154998 0.071383 0.047339
0.216034 0.077257 0.025639
0.286214 0.089925 0.028048
0.364644 0.105725 0.033360
0.435752 0.116084 0.031561
0.486841 0.123597 0.043606
0.521350 0.127479 0.053838
0.549284 0.123914 0.035472
0.568599 0.123339 0.028732
0.582727 0.125700 0.028732
0.587427 0.135416 0.060933
0.028746 0.065749 0.066017
0.040544 0.068230 0.068770
0.056539 0.072473 0.068840
0.085047 0.076243 0.068232
0.116900 0.081701 0.063998
0.165372 0.086734 0.047942
0.234813 0.094192 0.029589
0.314630 0.110825 0.032651
0.398250 0.126854 0.024827
0.467963 0.137746 0.033445
0.518799 0.146116 0.052765
0.554743 0.146256 0.040169
0.576568 0.143985 0.023060
0.594250 0.146862 0.023060
0.611061 0.151869 0.031289
0.622378 0.155198 0.028085
0.048904 0.081012 0.073944
0.047880 0.083081 0.073944
0.044770 0.090159 0.073660
0.082792 0.094538 0.072218
0.122275 0.100444 0.066302
0.175737 0.108906 0.051385
0.253550 0.120553 0.031428
0.341702 0.138534 0.040026
0.429757 0.153257 0.036178
0.502923 0.165706 0.031429
0.553992 0.173458 0.047951
0.589563 0.175321 0.039525
0.610952 0.175034 0.023060
0.629329 0.179447 0.026727
0.641032 0.191104 0.060513
0.652939 0.197940 0.045149
0.040748 0.101615 0.083110
0.038410 0.102974 0.083110
0.047640 0.110172 0.080990
0.071438 0.120340 0.074911
0.123310 0.130093 0.065013
0.188077 0.141716 0.046787
0.274130 0.157878 0.029588
0.369192 0.176462 0.047089
0.461580 0.193555 0.041006
0.537229 0.203284 0.023060
0.591460 0.212911 0.041801
0.624581 0.218562 0.049380
0.646134 0.219641 0.027818
0.664509 0.225879 0.038697
0.678577 0.237743 0.050622
0.692108 0.244069 0.034554
0.038450 0.125958 0.094368
0.037782 0.129949 0.095312
0.041432 0.138236 0.094537
0.045834 0.154792 0.081552
0.114982 0.173752 0.057831
0.202408 0.190873 0.031096
0.300661 0.211354 0.030223
0.404148 0.232625 0.027462
0.500448 0.251994 0.047832
0.578674 0.263807 0.027552
0.633601 0.270995 0.034751
0.668129 0.277812 0.051622
0.688485 0.280760 0.036597
0.703020 0.288222 0.053312
0.721082 0.298909 0.038927
0.732133 0.312490 0.057737
0.024101 0.161156 0.109783
0.029679 0.168096 0.110429
0.029735 0.180704 0.110860
0.036941 0.201029 0.101544
0.091596 0.231012 0.052564
0.213025 0.257954 0.026304
0.326612 0.284747 0.028887
0.439061 0.308600 0.037161
0.542148 0.328404 0.029521
0.623012 0.343628 0.054843
0.680363 0.353229 0.039639
0.713403 0.357203 0.055931
0.736894 0.361716 0.032814
0.750709 0.370365 0.057689
0.764319 0.384010 0.048647
0.777986 0.399707 0.061740
0.000000 0.208466 0.132319
0.035972 0.219839 0.132679
0.034343 0.236326 0.133437
0.033008 0.263962 0.125949
0.071042 0.299946 0.081977
0.215065 0.337425 0.023232
0.351735 0.372062 0.023428
0.474470 0.403804 0.040734
0.583335 0.427467 0.037468
0.670751 0.443239 0.034453
0.729164 0.453545 0.046515
0.765996 0.458216 0.042310
0.788344 0.463495 0.046935
0.802001 0.470436 0.058986
0.815401 0.484304 0.047192
0.828275 0.501036 0.052109
0.033585 0.260809 0.155422
0.024796 0.276916 0.156729
0.024362 0.297943 0.158299
0.031827 0.332206 0.150074
0.075920 0.374730 0.105369
0.216659 0.422664 0.024032
0.373059 0.463785 0.034577
0.508730 0.501721 0.025431
0.626997 0.529770 0.036105
0.715429 0.549117 0.053274
0.778323 0.561110 0.028860
0.815950 0.567557 0.029489
0.841432 0.574947 0.035042
0.853020 0.582895 0.043583
0.866219 0.590833 0.065190
0.876301 0.605966 0.041114
0.048560 0.308602 0.174281
0.017213 0.325938 0.177813
0.023060 0.353785 0.177938
0.036751 0.391874 0.170803
0.082169 0.440768 0.123364
0.227042 0.495673 0.030465
0.395256 0.541178 0.026727
0.538775 0.585301 0.037567
0.662304 0.620643 0.023060
0.757232 0.643695 0.044332
0.820283 0.656082 0.039663
0.859001 0.662607 0.027552
0.882439 0.668670 0.029489
0.896102 0.674869 0.046943
0.906053 0.682650 0.062247
0.915115 0.693722 0.065615
0.053357 0.339978 0.189467
0.018626 0.362149 0.192436
0.028475 0.394073 0.193341
0.040661 0.436017 0.183455
0.097721 0.487966 0.136415
0.236773 0.546162 0.045810
0.413663 0.598720 0.024980
0.561447 0.646413 0.033304
0.687033 0.683273 0.028216
0.782851 0.709343 0.050917
0.848953 0.724190 0.071276
0.888699 0.731912 0.072482
0.910938 0.736963 0.073944
0.925107 0.742270 0.084257
0.934251 0.748164 0.087459
0.941801 0.755932 0.099023
0.057133 0.360522 0.200548
0.019701 0.386638 0.204233
0.040430 0.422124 0.205528
0.027425 0.466813 0.191629
0.080493 0.521499 0.132353
0.239946 0.579420 0.048511
0.423812 0.632248 0.041402
0.575208 0.682344 0.029365
0.701222 0.721581 0.044357
0.797680 0.748378 0.064679
0.865600 0.764692 0.090185
0.906813 0.774526 0.100210
0.929448 0.779837 0.103443
0.944357 0.783735 0.102152
0.950936 0.787187 0.103858
0.956779 0.791433 0.105516
0.027599 0.375433 0.208276
0.023548 0.406908 0.213019
0.058918 0.444719 0.215078
0.032877 0.488342 0.200131
0.069688 0.544549 0.138576
0.247224 0.601886 0.056394
0.427791 0.653606 0.059129
0.580805 0.704160 0.050719
0.709322 0.743923 0.052918
0.806210 0.771228 0.074791
0.875255 0.789132 0.098048
0.917558 0.798543 0.108200
0.939388 0.804118 0.112718
0.954414 0.807491 0.108849
0.961500 0.811517 0.110905
0.966917 0.813782 0.113102
0.000000 0.392632 0.223258
0.029976 0.433902 0.227891
0.063833 0.473371 0.226457
0.054670 0.516054 0.208453
0.070074 0.572143 0.140885
0.257159 0.628086 0.046359
0.441143 0.675771 0.059928
0.588140 0.722952 0.046766
0.713747 0.758262 0.046626
0.811461 0.785368 0.079638
0.880524 0.804325 0.099111
0.924316 0.814761 0.109073
0.949620 0.820289 0.112684
0.962622 0.823524 0.117708
0.970066 0.825275 0.121258
0.977816 0.828820 0.122337
0.018777 0.441624 0.257858
0.027406 0.487396 0.261808
0.032318 0.530111 0.254872
0.031181 0.572356 0.227814
0.071138 0.626588 0.143895
0.266636 0.677511 0.051687
0.459708 0.717838 0.045447
0.609117 0.755560 0.028986
0.732749 0.784448 0.023396
0.826928 0.806955 0.063741
0.897297 0.823143 0.096269
0.941068 0.833595 0.108274
0.965995 0.838831 0.113565
0.980148 0.842649 0.114219
0.987460 0.845265 0.137465
0.995545 0.845797 0.138286
0.035084 0.491842 0.297377
0.027869 0.538346 0.294495
0.066208 0.584658 0.286911
0.033840 0.627239 0.250506
0.094620 0.676864 0.170740
0.322366 0.715350 0.120642
0.488694 0.752180 0.059680
0.631008 0.785274 0.055880
0.753242 0.812986 0.052390
0.847255 0.832378 0.049695
0.918663 0.844282 0.049055
0.962762 0.851354 0.043129
0.986951 0.856654 0.054771
0.996041 0.860530 0.060079
0.998053 0.863437 0.071553
1.000040 0.860872 0.236208
0.000000 0.052526 0.071670
0.020210 0.048033 0.077922
0.053275 0.048267 0.080822
0.078987 0.050851 0.084043
0.106398 0.056280 0.082893
0.146400 0.057926 0.078019
0.209534 0.044297 0.064037
0.284690 0.000000 0.045363
0.360936 0.024920 0.045363
0.424978 0.050852 0.057199
0.476529 0.079164 0.066462
0.512081 0.080613 0.069699
0.539761 0.067394 0.054623
0.559043 0.062850 0.057466
0.573381 0.061312 0.063428
0.583395 0.055798 0.070898
0.031154 0.059174 0.075837
0.022133 0.059031 0.080086
0.054284 0.058487 0.085679
0.079683 0.061837 0.085960
0.110292 0.066638 0.085814
0.156760 0.069576 0.081964
0.226531 0.055129 0.066210
0.310329 0.022827 0.045383
0.390623 0.047753 0.050300
0.458396 0.074062 0.058100
0.509291 0.086128 0.052472
0.542414 0.089859 0.058151
0.566027 0.089002 0.064776
0.583839 0.089212 0.068010
0.598535 0.089279 0.071149
0.611621 0.086796 0.075702
0.039828 0.070254 0.079953
0.042460 0.072104 0.083968
0.049986 0.074529 0.089114
0.080359 0.077594 0.092015
0.115905 0.082088 0.089726
0.167118 0.087619 0.085099
0.244737 0.084563 0.070142
0.337165 0.071775 0.045520
0.423693 0.078262 0.043002
0.490871 0.095933 0.053587
0.543914 0.104607 0.064863
0.577089 0.107757 0.068859
0.602194 0.098152 0.052943
0.621515 0.094919 0.046096
0.635115 0.097455 0.048925
0.649372 0.099769 0.049962
0.042598 0.084043 0.087634
0.046481 0.087634 0.089466
0.052067 0.090811 0.093365
0.076104 0.096211 0.096435
0.119052 0.104107 0.095368
0.177501 0.111672 0.089931
0.263845 0.115700 0.073178
0.364841 0.115846 0.046334
0.457331 0.114657 0.042363
0.530300 0.123409 0.038958
0.581553 0.129982 0.054192
0.616713 0.134321 0.060790
0.641378 0.128697 0.042363
0.658343 0.129695 0.039165
0.671622 0.144175 0.060057
0.686094 0.151888 0.055318
0.049484 0.103033 0.097168
0.051678 0.106737 0.098711
0.055523 0.111661 0.100444
0.061039 0.122324 0.100814
0.119216 0.132425 0.099389
0.188827 0.145843 0.092638
0.284414 0.158789 0.074774
0.395291 0.164541 0.047467
0.493983 0.171659 0.042489
0.568272 0.178444 0.027425
0.621879 0.179618 0.040457
0.655835 0.186318 0.058100
0.678778 0.186084 0.043882
0.694255 0.193134 0.055203
0.712534 0.204339 0.048932
0.727816 0.213744 0.027653
0.039145 0.129994 0.109723
0.038830 0.134049 0.110520
0.043269 0.142290 0.113819
0.042874 0.157342 0.110197
0.104612 0.175675 0.101441
0.201655 0.196357 0.091931
0.309306 0.215597 0.073733
0.426014 0.230240 0.046415
0.530916 0.242428 0.032877
0.609682 0.251354 0.035256
0.663912 0.257428 0.027425
0.698444 0.261019 0.039097
0.718325 0.266118 0.051320
0.736113 0.271850 0.044134
0.754399 0.283599 0.029374
0.767916 0.297545 0.027425
0.017258 0.168096 0.128223
0.028115 0.174272 0.128693
0.036311 0.186032 0.132158
0.036249 0.205345 0.128795
0.067939 0.234755 0.106476
0.205811 0.264504 0.085099
0.334324 0.291909 0.054919
0.458240 0.312486 0.033205
0.567404 0.326843 0.027425
0.648474 0.341512 0.046096
0.705565 0.347467 0.048581
0.743313 0.350608 0.027425
0.764314 0.357283 0.027425
0.783297 0.365163 0.041583
0.797525 0.378126 0.027425
0.809753 0.393830 0.041583
0.000000 0.217566 0.151055
0.036269 0.227681 0.152862
0.042754 0.244460 0.156364
0.030258 0.271012 0.154174
0.049848 0.306928 0.121977
0.191501 0.349268 0.067310
0.354173 0.384952 0.034136
0.491474 0.413375 0.031218
