example_ofxGpuLutCube/bin/data/ofxGpuLutCube/LUT/U3 (contrasty warm).cube
LUT_3D_SIZE 6
0.022738 0.030624 0.022738
0.078989 0.048267 0.000000
0.180326 0.083504 0.036658
0.386472 0.117728 0.033180
0.498884 0.127678 0.034379
0.544723 0.134798 0.036711
0.033180 0.075346 0.056599
0.084621 0.089073 0.042792
0.234110 0.124945 0.027799
0.478271 0.171857 0.024573
0.588110 0.186448 0.000000
0.630316 0.208670 0.004780
0.027799 0.153034 0.093529
0.048749 0.191315 0.074207
0.310916 0.273370 0.024220
0.597949 0.335040 0.037530
0.713272 0.359375 0.058188
0.756367 0.392557 0.000000
0.040838 0.292971 0.154098
0.027425 0.376169 0.141932
0.394645 0.524928 0.045589
0.738078 0.624761 0.022348
0.861097 0.653106 0.018831
0.895315 0.678352 0.055909
0.000000 0.367120 0.183570
0.065097 0.478082 0.157105
0.438423 0.637522 0.027799
0.796260 0.757970 0.065287
0.925669 0.792490 0.101363
0.949949 0.800625 0.101363
0.000000 0.470307 0.213877
0.133189 0.604821 0.019951
0.523539 0.701796 0.039676
0.816348 0.792264 0.076977
0.944936 0.826536 0.113457
0.973759 0.835543 0.117009
0.000000 0.052526 0.071670
0.078987 0.050851 0.084043
0.209534 0.044297 0.064037
0.424978 0.050852 0.057199
0.539761 0.067394 0.054623
0.583395 0.055798 0.070898
0.042598 0.084043 0.087634
0.076104 0.096211 0.096435
0.263845 0.115700 0.073178
0.530300 0.123409 0.038958
0.641378 0.128697 0.042363
0.686094 0.151888 0.055318
0.017258 0.168096 0.128223
0.036249 0.205345 0.128795
0.334324 0.291909 0.054919
0.648474 0.341512 0.046096
0.764314 0.357283 0.027425
0.809753 0.393830 0.041583
0.019318 0.317942 0.196684
0.038162 0.400063 0.201348
0.384256 0.562032 0.033849
0.771684 0.656817 0.039165
0.898262 0.678083 0.048749
0.934135 0.705499 0.059543
0.041823 0.387079 0.239980
0.060035 0.499852 0.248241
0.398042 0.680885 0.033849
0.820570 0.787621 0.070760
0.958800 0.818788 0.102756
0.985460 0.827442 0.109701
0.000000 0.511841 0.351986
0.065934 0.640514 0.353559
0.462848 0.771118 0.278805
0.848086 0.851859 0.213453
0.994308 0.876779 0.196705
1.000000 0.879578 0.341311
0.020690 0.087094 0.143021
0.041582 0.067547 0.184950
0.210103 0.000000 0.222305
0.442598 0.054988 0.241842
0.557615 0.051191 0.255517
0.603455 0.048310 0.269713
0.023860 0.121531 0.178604
0.040672 0.124450 0.217996
0.269566 0.119540 0.287579
0.568826 0.050639 0.297543
0.690645 0.027425 0.300936
0.739658 0.053646 0.322510
0.035536 0.217378 0.250002
0.027425 0.252451 0.287718
0.315037 0.327502 0.354978
0.690208 0.358763 0.359375
0.824496 0.353784 0.357889
0.868371 0.402944 0.380152
0.000000 0.378381 0.342999
0.041307 0.457823 0.389413
0.274809 0.630000 0.403367
0.800139 0.715323 0.389695
0.959308 0.729831 0.379830
0.991631 0.758845 0.397752
0.000000 0.455904 0.405856
0.043882 0.561608 0.461173
0.177317 0.750187 0.461593
0.825603 0.858736 0.451255
0.992774 0.885850 0.437092
1.000000 0.888459 0.495433
0.000000 0.575752 0.525776
0.029186 0.689991 0.579780
0.362327 0.818958 0.588430
0.818754 0.902714 0.591338
0.988378 0.927512 0.584516
1.000000 0.931180 0.626133
0.000000 0.132678 0.241050
0.027425 0.126255 0.287113
0.217960 0.026565 0.387986
0.462001 0.056919 0.419762
0.581417 0.072595 0.437987
0.627302 0.074787 0.459666
0.000000 0.185558 0.305443
0.029186 0.193512 0.348241
0.273523 0.070642 0.522474
0.581585 0.045363 0.545166
0.705683 0.027425 0.551847
0.757869 0.053974 0.580804
0.000000 0.291110 0.406447
0.027425 0.322514 0.461166
0.273626 0.359981 0.631942
0.690358 0.389006 0.662904
0.832298 0.388359 0.669102
0.875947 0.437608 0.686610
0.056599 0.456934 0.518223
0.034419 0.535629 0.589477
0.142298 0.682536 0.713816
0.775437 0.770586 0.747779
0.944818 0.785736 0.747779
0.979816 0.811185 0.758915
0.049657 0.534093 0.575201
0.032828 0.633540 0.656061
0.130896 0.801633 0.764142
0.788983 0.915482 0.792259
0.976442 0.941450 0.791887
1.000000 0.947740 0.807691
0.000000 0.631633 0.669959
0.027425 0.738186 0.753657
0.176746 0.862382 0.827520
0.788127 0.943831 0.847789
0.972686 0.973369 0.848415
1.000000 0.975235 0.870031
0.000000 0.161985 0.306733
0.039578 0.167731 0.342056
0.226662 0.061003 0.487822
0.478608 0.070081 0.527413
0.600040 0.073913 0.543310
0.645213 0.068892 0.565745
0.000000 0.218856 0.381128
0.027425 0.232094 0.426949
0.274973 0.055601 0.649627
0.592463 0.027425 0.685998
0.720697 0.027425 0.690438
0.770452 0.052323 0.721566
0.000000 0.328417 0.485886
0.027425 0.360545 0.550468
0.235303 0.373586 0.773529
0.683978 0.397066 0.814868
0.834196 0.395818 0.823453
0.879166 0.451443 0.843933
0.046132 0.495392 0.605976
0.027425 0.569566 0.684683
0.138816 0.705828 0.847668
0.757339 0.791692 0.915960
0.935775 0.806171 0.922324
0.973603 0.832845 0.929893
0.020688 0.569531 0.657413
0.057199 0.667664 0.746283
0.081847 0.824480 0.887386
0.762663 0.937263 0.947544
0.963942 0.967333 0.955055
1.000000 0.974686 0.957721
0.004780 0.658426 0.734758
0.070276 0.762273 0.825978
0.159476 0.879076 0.928968
0.765398 0.961162 0.958305
0.962069 0.991789 0.968206
1.000000 0.996197 0.972613
0.000000 0.188559 0.355809
0.027425 0.197936 0.400096
0.249205 0.005914 0.583956
0.524945 0.056695 0.615958
0.646060 0.092111 0.628730
0.693577 0.095632 0.656195
0.000000 0.249367 0.428186
0.027425 0.263942 0.478601
0.276162 0.148142 0.716003
0.616215 0.088121 0.762321
0.754988 0.060344 0.771330
0.802493 0.115624 0.795006
0.000000 0.348988 0.518702
0.027425 0.384109 0.588613
0.206500 0.403886 0.818291
0.688718 0.434679 0.866164
0.844506 0.434637 0.877032
0.888475 0.482673 0.892230
0.046485 0.507229 0.632584
0.042521 0.581542 0.712391
0.085340 0.706694 0.879443
0.745103 0.795738 0.957250
0.931883 0.812738 0.966635
0.971523 0.835876 0.971571
0.000000 0.580625 0.681041
0.065629 0.677525 0.771815
0.037464 0.828286 0.914041
0.748608 0.940781 0.982078
0.959371 0.970206 0.994628
1.000026 0.978453 0.996164
0.000000 0.667419 0.753176
0.083714 0.762887 0.843642
0.148001 0.880219 0.949835
0.753074 0.963996 0.988681
0.956715 0.994689 1.000004
1.000000 1.000000 1.000000
