example_ofxGpuLutCube/bin/data/ofxGpuLutCube/LUT/U30 (warm teal fade).cube
LUT_3D_SIZE 6
0.160990 0.160404 0.159222
0.199437 0.164183 0.159997
0.306231 0.172387 0.160702
0.470408 0.184666 0.161382
0.636531 0.197588 0.163140
0.807910 0.212746 0.167156
0.170306 0.189322 0.163243
0.200184 0.192765 0.163275
0.302112 0.205713 0.163260
0.468999 0.225117 0.163613
0.645730 0.245808 0.165238
0.826392 0.272656 0.169717
0.201020 0.306994 0.173118
0.237818 0.309933 0.172810
0.349727 0.329327 0.172460
0.513552 0.362342 0.171400
0.694942 0.402278 0.173008
0.890298 0.456334 0.179987
0.261746 0.477619 0.192809
0.306354 0.482659 0.192214
0.419342 0.496542 0.191047
0.576799 0.531841 0.190487
0.750109 0.582449 0.191864
0.947804 0.655587 0.204983
0.378029 0.679673 0.239796
0.416453 0.683982 0.239173
0.524950 0.696930 0.237807
0.662225 0.713948 0.237417
0.802712 0.746684 0.240237
0.989529 0.826007 0.262495
0.542762 0.906102 0.336711
0.575624 0.909839 0.336310
0.671658 0.920445 0.335415
0.782692 0.931842 0.335565
0.908380 0.945766 0.338063
1.013674 0.963981 0.344858
0.161098 0.162107 0.180420
0.190029 0.163701 0.176396
0.294626 0.167207 0.175998
0.465281 0.170721 0.172513
0.637524 0.177809 0.172972
0.812789 0.184747 0.179391
0.167650 0.190007 0.184957
0.196193 0.191691 0.182603
0.294779 0.202969 0.181871
0.462218 0.221673 0.181925
0.646568 0.240903 0.183287
0.833696 0.260544 0.188104
0.187770 0.307742 0.200187
0.229673 0.311298 0.200639
0.340238 0.325813 0.199049
0.506231 0.358499 0.196755
0.693938 0.398772 0.197670
0.893852 0.449616 0.205432
0.235643 0.480404 0.220798
0.294701 0.487626 0.229805
0.412648 0.500249 0.227730
0.569277 0.529874 0.226375
0.747538 0.580771 0.228002
0.948548 0.652156 0.241768
0.354315 0.683602 0.272030
0.403450 0.690459 0.282375
0.516209 0.702470 0.280742
0.658471 0.718925 0.279708
0.797991 0.747013 0.281236
0.987279 0.825438 0.301643
0.523617 0.909684 0.371293
0.561888 0.914763 0.378626
0.661761 0.925026 0.377413
0.775921 0.936353 0.377063
0.905418 0.949970 0.379083
1.011228 0.966394 0.385053
0.161022 0.165759 0.262638
0.187236 0.164965 0.248179
0.282581 0.169166 0.253044
0.454032 0.172911 0.268213
0.638353 0.176802 0.289081
0.823458 0.183444 0.327720
0.164968 0.198889 0.272053
0.192175 0.196620 0.267703
0.286541 0.200714 0.267040
0.453287 0.206666 0.275658
0.645235 0.212126 0.290431
0.841303 0.220305 0.322785
0.178951 0.316043 0.310910
0.213254 0.318533 0.308041
0.325737 0.327718 0.301974
0.495353 0.348015 0.299527
0.691217 0.371503 0.298759
0.894634 0.394001 0.302624
0.213436 0.489802 0.362092
0.258613 0.495877 0.356833
0.387398 0.509451 0.344986
0.550343 0.527605 0.342445
0.737484 0.571032 0.342563
0.944028 0.629327 0.352267
0.304465 0.693906 0.420510
0.347883 0.699908 0.414134
0.476495 0.713187 0.404723
0.640860 0.728900 0.402562
0.783252 0.747465 0.401767
0.978671 0.819561 0.420258
0.459538 0.920088 0.512076
0.495802 0.924656 0.505119
0.617212 0.935078 0.498464
0.747454 0.945864 0.496993
0.890134 0.959515 0.497407
1.003992 0.972484 0.500665
0.161391 0.170917 0.397686
0.190172 0.166314 0.388891
0.284615 0.169881 0.386753
0.438326 0.174514 0.402668
0.630705 0.178926 0.448840
0.825876 0.186065 0.516579
0.163610 0.214182 0.418143
0.188630 0.207359 0.416965
0.289145 0.203583 0.414047
0.440845 0.210229 0.420030
0.638141 0.215985 0.463311
0.841562 0.224460 0.527003
0.170526 0.344196 0.466492
0.201434 0.342551 0.465196
0.309940 0.338703 0.466617
0.477112 0.344058 0.466089
0.678084 0.353770 0.491513
0.887626 0.363475 0.533772
0.195626 0.504524 0.518023
0.237753 0.507367 0.517056
0.359030 0.516504 0.515825
0.526123 0.529842 0.514304
0.718426 0.545469 0.512712
0.928311 0.561950 0.513018
0.277828 0.703373 0.598714
0.321471 0.708687 0.597523
0.435270 0.721193 0.589667
0.599773 0.736307 0.568549
0.762263 0.748829 0.566872
0.963224 0.801743 0.575424
0.429690 0.928705 0.705435
0.465685 0.932856 0.702973
0.568246 0.943910 0.686032
0.687536 0.952071 0.643542
0.858198 0.965875 0.642096
0.992273 0.977985 0.642277
0.162771 0.178225 0.542270
0.194309 0.168479 0.540926
0.302796 0.171713 0.547696
0.460192 0.176537 0.559849
0.619539 0.181013 0.584081
0.821479 0.189176 0.664943
0.163900 0.233080 0.570690
0.187110 0.222732 0.577205
0.300014 0.207186 0.580840
0.467269 0.213716 0.588968
0.628553 0.219619 0.604846
0.836830 0.229276 0.682258
0.167192 0.383223 0.631957
0.194840 0.379489 0.634995
0.297519 0.357432 0.642469
0.486205 0.349277 0.647358
0.663555 0.358696 0.653570
0.877724 0.369318 0.716489
0.184624 0.553533 0.688940
0.223728 0.554249 0.691019
0.341611 0.552310 0.695665
0.503284 0.537929 0.697438
0.698988 0.545658 0.699292
0.912263 0.556615 0.737206
0.258560 0.716158 0.739119
0.300884 0.719548 0.740012
0.412566 0.727915 0.741669
0.571807 0.740433 0.743885
0.740399 0.751768 0.744219
0.943070 0.764906 0.744782
0.407203 0.932051 0.841246
0.442608 0.936346 0.841089
0.543232 0.947308 0.837609
0.658244 0.957207 0.824749
0.804918 0.968765 0.795165
0.976019 0.981387 0.795168
0.165094 0.196530 0.694411
0.197312 0.174577 0.699425
0.333732 0.177797 0.716061
0.515323 0.183287 0.737497
0.675646 0.188805 0.748544
0.819138 0.196397 0.775533
0.165705 0.266174 0.729288
0.187735 0.250176 0.739477
0.320987 0.217280 0.751204
0.518257 0.223477 0.767296
0.687813 0.229831 0.775501
0.833109 0.238007 0.795429
0.167246 0.440139 0.800703
0.192620 0.433355 0.805922
0.290300 0.385319 0.814214
0.511559 0.360182 0.826332
0.712539 0.369937 0.832430
0.869793 0.378115 0.842009
0.185488 0.623909 0.863014
0.223391 0.622324 0.867172
0.334888 0.606640 0.873879
0.485121 0.552892 0.874362
0.720702 0.552565 0.880026
0.899760 0.561984 0.883872
0.266562 0.789959 0.913052
0.306177 0.791338 0.915196
0.411786 0.791933 0.919146
0.560557 0.784732 0.922549
0.719648 0.757359 0.921012
0.926216 0.767106 0.922941
0.391301 0.937887 0.950902
0.425758 0.940836 0.951946
0.524263 0.950051 0.954802
0.640167 0.959691 0.957569
0.781691 0.971357 0.959792
0.957835 0.984883 0.961054
