example_ofxGpuLutCube/bin/data/ofxGpuLutCube/LUT/U30 (warm teal fade).cube
LUT_3D_SIZE 16
0.160990 0.160404 0.159222
0.165995 0.161153 0.159525
0.178951 0.162479 0.159789
0.199437 0.164183 0.159997
0.223503 0.166056 0.160208
0.258490 0.168789 0.160445
0.306231 0.172387 0.160702
0.359139 0.176322 0.160937
0.417010 0.180575 0.161132
0.470408 0.184666 0.161382
0.521596 0.188729 0.161751
0.579606 0.193110 0.162353
0.636531 0.197588 0.163140
0.691248 0.202244 0.164168
0.750670 0.207399 0.165461
0.807910 0.212746 0.167156
0.162353 0.163795 0.160060
0.165317 0.164012 0.160075
0.173940 0.164970 0.160217
0.189806 0.166509 0.160406
0.215830 0.168809 0.160567
0.253581 0.171902 0.160774
0.300488 0.175543 0.160995
0.352405 0.179538 0.161189
0.410346 0.183934 0.161347
0.468249 0.188473 0.161582
0.521094 0.192731 0.161967
0.578889 0.197103 0.162554
0.636931 0.201688 0.163316
0.691687 0.206334 0.164343
0.751346 0.211979 0.165641
0.809094 0.217506 0.167347
0.165111 0.171748 0.161305
0.168362 0.171942 0.161286
0.177223 0.173046 0.161334
0.192811 0.175058 0.161387
0.216683 0.177837 0.161536
0.251478 0.181579 0.161691
0.296949 0.186153 0.161837
0.347895 0.191013 0.161975
0.405447 0.196304 0.162132
0.467378 0.201770 0.162299
0.519756 0.206456 0.162730
0.577461 0.211667 0.163307
0.639334 0.217419 0.164016
0.695675 0.223226 0.165052
0.755361 0.229711 0.166355
0.813967 0.235634 0.168151
0.170306 0.189322 0.163243
0.173936 0.189483 0.163204
0.183192 0.189999 0.163195
0.200184 0.192765 0.163275
0.224084 0.195804 0.163230
0.258201 0.200191 0.163226
0.302112 0.205713 0.163260
0.351709 0.211612 0.163338
0.407491 0.218126 0.163447
0.468999 0.225117 0.163613
0.524929 0.231360 0.164019
0.581764 0.237874 0.164578
0.645730 0.245808 0.165238
0.705899 0.254246 0.166269
0.766409 0.263795 0.167708
0.826392 0.272656 0.169717
0.178041 0.219196 0.165901
0.181701 0.219257 0.165832
0.192298 0.219720 0.165775
0.209600 0.220947 0.165753
0.235402 0.225484 0.165803
0.270322 0.230446 0.165565
0.313962 0.236868 0.165433
0.362968 0.243947 0.165372
0.417679 0.251892 0.165412
0.478722 0.260810 0.165539
0.537758 0.269314 0.165834
0.593949 0.277649 0.166344
0.657651 0.287945 0.167024
0.723039 0.299601 0.168069
0.783926 0.311534 0.169937
0.843816 0.322418 0.172244
0.187693 0.259548 0.169166
0.191493 0.259804 0.169132
0.203954 0.260769 0.169019
0.222884 0.262411 0.168908
0.248236 0.264912 0.168873
0.286597 0.273078 0.168864
0.330609 0.280605 0.168445
0.379620 0.288819 0.168170
0.433940 0.297999 0.168064
0.494837 0.308597 0.168048
0.556021 0.319285 0.168229
0.611762 0.329173 0.168752
0.675144 0.341899 0.169519
0.744861 0.357443 0.170795
0.807369 0.373358 0.173085
0.867458 0.387754 0.175659
0.201020 0.306994 0.173118
0.204757 0.307216 0.173086
0.217550 0.308195 0.172956
0.237818 0.309933 0.172810
0.266096 0.312958 0.172659
0.301810 0.317276 0.172538
0.349727 0.329327 0.172460
0.398153 0.338726 0.171933
0.452493 0.349678 0.171575
0.513552 0.362342 0.171400
0.575795 0.375330 0.171518
0.631581 0.387129 0.172046
0.694942 0.402278 0.173008
0.766056 0.421133 0.174631
0.831211 0.440180 0.177153
0.890298 0.456334 0.179987
0.216587 0.360892 0.178388
0.220110 0.361116 0.178323
0.233237 0.362128 0.178166
0.255735 0.364270 0.177902
0.287387 0.367927 0.177611
0.324556 0.372363 0.177339
0.365643 0.377396 0.177144
0.418913 0.392583 0.177047
0.472791 0.404430 0.176378
0.533768 0.418580 0.176002
0.595467 0.432953 0.176020
0.651048 0.446168 0.176629
0.714093 0.463189 0.177758
0.785348 0.484494 0.179507
0.852345 0.506777 0.182283
0.911662 0.525275 0.185413
0.235224 0.416076 0.184876
0.238625 0.416387 0.184823
0.253584 0.417980 0.184644
0.278592 0.420908 0.184293
0.311501 0.425064 0.183914
0.349677 0.429929 0.183558
0.391266 0.435378 0.183238
0.434044 0.440750 0.183044
0.494870 0.460509 0.182939
0.554952 0.475954 0.182216
0.614964 0.491589 0.182031
0.670249 0.506383 0.182563
0.732831 0.524830 0.183702
0.804133 0.547942 0.185674
0.871752 0.572213 0.188756
0.930536 0.592213 0.192720
0.261746 0.477619 0.192809
0.265776 0.478075 0.192759
0.280820 0.479748 0.192558
0.306354 0.482659 0.192214
0.339445 0.486623 0.191813
0.378085 0.491486 0.191392
0.419342 0.496542 0.191047
0.462694 0.501893 0.190761
0.509257 0.508042 0.190587
0.576799 0.531841 0.190487
0.633916 0.547091 0.190062
0.688112 0.562363 0.190529
0.750109 0.582449 0.191864
0.821542 0.607845 0.194433
0.889555 0.634401 0.199244
0.947804 0.655587 0.204983
0.295348 0.542157 0.203658
0.298971 0.542622 0.203607
0.313008 0.544299 0.203393
0.338209 0.547271 0.203013
0.371372 0.551649 0.202562
0.409646 0.556864 0.202094
0.450693 0.562111 0.201704
0.494901 0.568190 0.201364
0.542046 0.574569 0.201122
0.594137 0.584780 0.201068
0.653407 0.605059 0.201440
0.706957 0.620871 0.201925
0.768494 0.641974 0.203758
0.839459 0.668922 0.207655
0.906033 0.695951 0.213954
0.963834 0.718190 0.220550
0.333580 0.607728 0.219186
0.336863 0.608033 0.219102
0.350681 0.609705 0.218873
0.374691 0.612705 0.218452
0.406830 0.616615 0.217965
0.443752 0.621464 0.217439
0.484892 0.626823 0.216956
0.529735 0.632797 0.216601
0.577558 0.639176 0.216348
0.624836 0.645336 0.216411
0.670864 0.655975 0.216947
0.725155 0.674165 0.217921
0.785738 0.695847 0.220283
0.855610 0.723289 0.224915
0.920568 0.751145 0.232293
0.977171 0.773382 0.239765
0.378029 0.679673 0.239796
0.381317 0.680091 0.239728
0.394032 0.681481 0.239533
0.416453 0.683982 0.239173
0.446567 0.687228 0.238735
0.483224 0.691661 0.238222
0.524950 0.696930 0.237807
0.570492 0.702682 0.237449
0.618501 0.708733 0.237256
0.662225 0.713948 0.237417
0.700545 0.717832 0.238022
0.747528 0.728902 0.238962
0.802712 0.746684 0.240237
0.870860 0.774334 0.245566
0.933518 0.802851 0.254025
0.989529 0.826007 0.262495
0.427723 0.757904 0.267088
0.430513 0.757941 0.267052
0.441938 0.759208 0.266896
0.463937 0.762104 0.266562
0.493920 0.765439 0.266111
0.530928 0.770371 0.265644
0.573154 0.775717 0.265174
0.619694 0.781878 0.264805
0.663876 0.787326 0.264644
0.702813 0.791351 0.265003
0.742246 0.794937 0.265540
0.782829 0.798832 0.266479
0.832323 0.810559 0.267720
0.886156 0.826786 0.269445
0.946281 0.854760 0.279056
0.999879 0.877239 0.288166
0.485002 0.833106 0.300706
0.487796 0.833561 0.300733
0.499200 0.834613 0.300530
0.519740 0.837221 0.300356
0.549459 0.840569 0.299926
0.586178 0.845068 0.299580
0.627989 0.850386 0.299266
0.668304 0.854988 0.299104
0.706132 0.859163 0.299153
0.745031 0.863344 0.299529
0.785411 0.867654 0.300106
0.827423 0.872293 0.300965
0.870432 0.877147 0.302104
0.916342 0.889543 0.303887
0.958025 0.901163 0.306138
1.007315 0.920702 0.315724
0.542762 0.906102 0.336711
0.545359 0.906486 0.336658
0.555628 0.907366 0.336603
0.575624 0.909839 0.336310
0.604031 0.912859 0.335927
0.639585 0.916977 0.335634
0.671658 0.920445 0.335415
0.706202 0.923849 0.335324
0.743344 0.927731 0.335306
0.782692 0.931842 0.335565
0.823603 0.936279 0.336128
0.866266 0.941097 0.336885
0.908380 0.945766 0.338063
0.940753 0.948909 0.339846
0.979358 0.957956 0.342061
1.013674 0.963981 0.344858
0.161145 0.160770 0.161985
0.166297 0.161230 0.161480
0.179152 0.162317 0.161363
0.198483 0.163777 0.161313
0.221669 0.165462 0.161354
0.256583 0.168049 0.161485
0.304397 0.171537 0.161584
0.357170 0.175357 0.161681
0.415541 0.179587 0.161798
0.469606 0.183568 0.162050
0.521109 0.187425 0.162494
0.579047 0.191779 0.163058
0.636548 0.196222 0.163828
0.691397 0.200786 0.164860
0.750705 0.205706 0.166228
0.808266 0.210849 0.167995
0.162180 0.163741 0.161999
0.165240 0.163943 0.161822
0.173940 0.164836 0.161769
0.189494 0.166335 0.161840
0.214518 0.168572 0.161948
0.250951 0.171562 0.162076
0.297111 0.175243 0.162169
0.348427 0.179274 0.162270
0.407495 0.183928 0.162422
0.467089 0.188518 0.162740
0.520063 0.192601 0.163185
0.577922 0.196985 0.163700
0.636913 0.201477 0.164416
0.692008 0.206004 0.165394
0.752096 0.211356 0.166772
0.810194 0.216510 0.168551
0.164798 0.171636 0.163231
0.168096 0.171851 0.163116
0.176924 0.172917 0.163060
0.192141 0.174787 0.163006
0.215640 0.177437 0.163014
0.249926 0.181045 0.163047
0.295021 0.185581 0.163072
0.345736 0.190446 0.163149
0.403069 0.195722 0.163307
0.465967 0.201424 0.163535
0.519319 0.206209 0.163961
0.576967 0.211399 0.164476
0.639356 0.217126 0.165129
0.696229 0.222803 0.166126
0.756098 0.228898 0.167586
0.814929 0.234509 0.169401
0.169627 0.189111 0.165141
0.173449 0.189257 0.165159
0.182725 0.189773 0.165054
0.199389 0.192296 0.165007
0.222967 0.195143 0.164844
0.256746 0.199428 0.164723
0.300482 0.204940 0.164659
0.350150 0.210935 0.164700
0.405909 0.217484 0.164802
0.467665 0.224589 0.164975
0.524586 0.231005 0.165300
0.581455 0.237619 0.165795
0.645365 0.245523 0.166432
0.706452 0.254025 0.167378
0.767243 0.263201 0.169054
0.826861 0.271811 0.171083
0.177052 0.218812 0.167708
0.181050 0.218839 0.167871
0.191565 0.219274 0.167728
0.208865 0.220525 0.167627
0.234321 0.224799 0.167605
0.269029 0.229677 0.167274
0.312521 0.236114 0.167053
0.361707 0.243308 0.166942
0.416446 0.251302 0.166910
0.477602 0.260300 0.166962
0.537338 0.268972 0.167181
0.593580 0.277333 0.167642
0.657161 0.287578 0.168264
0.723465 0.299187 0.169434
0.784533 0.310938 0.171439
0.844423 0.321634 0.173743
0.186341 0.259385 0.170983
0.190680 0.259681 0.171291
0.203080 0.260634 0.171137
0.222068 0.262245 0.170984
0.247498 0.264776 0.170856
0.285391 0.272470 0.170762
0.329346 0.279905 0.170258
0.378461 0.288117 0.169901
0.432773 0.297326 0.169686
0.493802 0.307991 0.169590
0.555618 0.318817 0.169726
0.611440 0.328822 0.170186
0.674861 0.341495 0.170995
0.745178 0.357100 0.172463
0.808174 0.372989 0.174733
0.867872 0.387197 0.177285
0.199405 0.306970 0.175007
0.203831 0.307320 0.175442
0.216581 0.308271 0.175284
0.236854 0.309947 0.175067
0.265185 0.312894 0.174854
0.300997 0.317116 0.174649
0.348596 0.328789 0.174493
0.397132 0.338127 0.173855
0.451468 0.349021 0.173449
0.512793 0.361829 0.173206
0.575311 0.374864 0.173234
0.631431 0.386783 0.173816
0.694723 0.401847 0.174838
0.766071 0.420754 0.176427
0.831218 0.439676 0.178924
0.890755 0.455973 0.181730
0.214939 0.360940 0.180231
0.219103 0.361249 0.180786
0.232233 0.362349 0.180599
0.254832 0.364397 0.180301
0.286501 0.367828 0.179961
0.323816 0.372363 0.179636
0.364953 0.377348 0.179398
0.417922 0.392142 0.179245
0.471936 0.404000 0.178525
0.532931 0.418086 0.178103
0.594853 0.432523 0.178093
0.650881 0.445879 0.178644
0.713932 0.462868 0.179716
0.785287 0.484221 0.181449
0.852513 0.506492 0.184214
0.911590 0.524860 0.187330
0.233590 0.416141 0.186638
0.237847 0.416675 0.187307
0.252728 0.418275 0.187081
0.277739 0.421135 0.186756
0.310686 0.425225 0.186368
0.348955 0.430145 0.185988
0.390666 0.435523 0.185654
0.433520 0.440874 0.185399
0.493914 0.460154 0.185252
0.554154 0.475635 0.184468
0.614533 0.491349 0.184216
0.669990 0.506117 0.184701
0.732418 0.524522 0.185815
0.804123 0.547701 0.187737
0.871969 0.571989 0.190833
0.930869 0.591991 0.195313
0.259832 0.477824 0.194870
0.264861 0.478525 0.195678
0.279765 0.480130 0.195450
0.305359 0.483075 0.195076
0.338559 0.486987 0.194630
0.377328 0.491711 0.194151
0.418748 0.496770 0.193717
0.462172 0.502102 0.193396
0.508607 0.507959 0.193105
0.576185 0.531676 0.192947
0.633451 0.546919 0.192454
0.687916 0.562231 0.192868
0.749958 0.582211 0.194194
0.821738 0.607776 0.196933
0.889421 0.634181 0.202104
0.947982 0.655394 0.207829
0.293449 0.542505 0.205885
0.297936 0.543265 0.206843
0.312062 0.544945 0.206620
0.337179 0.547876 0.206208
0.370522 0.552230 0.205721
0.408905 0.557257 0.205205
0.450117 0.562698 0.204755
0.494379 0.568564 0.204344
0.541715 0.574911 0.204065
0.593561 0.584889 0.203926
0.652923 0.604952 0.204238
0.706817 0.620902 0.204773
0.768007 0.641814 0.206838
0.839201 0.668772 0.210714
0.906098 0.695948 0.216949
0.963909 0.718204 0.223570
0.331750 0.607977 0.221481
0.335797 0.608629 0.222498
0.349828 0.610432 0.222256
0.373740 0.613175 0.221834
0.406069 0.617301 0.221302
0.442971 0.621940 0.220783
0.484221 0.627202 0.220276
0.529175 0.633199 0.219948
0.577219 0.639730 0.219729
0.624369 0.645664 0.219755
0.670676 0.656267 0.220269
0.724788 0.674338 0.221166
0.785229 0.696011 0.223502
0.855252 0.723208 0.228068
0.920387 0.750973 0.235405
0.977073 0.773464 0.242851
0.376296 0.680048 0.242252
0.380207 0.680691 0.243298
0.393043 0.682181 0.243093
0.415436 0.684651 0.242722
0.445681 0.687932 0.242261
0.482460 0.692233 0.241763
0.524275 0.697436 0.241307
0.569928 0.703128 0.240905
0.618183 0.709435 0.240689
0.661933 0.714363 0.240799
0.700436 0.718218 0.241383
0.746992 0.729138 0.242256
0.802411 0.746714 0.243467
0.870524 0.774478 0.248771
0.933219 0.802783 0.257197
0.989366 0.825874 0.265642
0.426130 0.757998 0.269563
0.429453 0.758590 0.270580
0.440904 0.759833 0.270415
0.462886 0.762597 0.270006
0.493062 0.766011 0.269529
0.530047 0.770686 0.269052
0.572429 0.776154 0.268583
0.619098 0.782514 0.268194
0.663333 0.787813 0.268093
0.702670 0.791625 0.268309
0.741924 0.795242 0.268833
0.782676 0.799348 0.269746
0.831938 0.810819 0.270988
0.886069 0.826844 0.272657
0.945939 0.854968 0.282196
0.999752 0.877360 0.291186
0.483523 0.833477 0.303193
0.486862 0.833791 0.303991
0.498263 0.835116 0.303826
0.518777 0.837524 0.303564
0.548558 0.841075 0.303240
0.585305 0.845448 0.302880
0.627192 0.850631 0.302560
0.667880 0.855467 0.302314
0.705583 0.859559 0.302334
0.744615 0.863536 0.302637
0.785204 0.868123 0.303201
0.827197 0.872861 0.304070
0.870074 0.877661 0.305157
0.915941 0.889573 0.306871
0.957641 0.901090 0.309120
1.007180 0.920742 0.318655
0.541360 0.906472 0.339329
0.544326 0.906830 0.339981
0.554687 0.908048 0.339891
0.574665 0.910091 0.339609
0.603097 0.913408 0.339336
0.638826 0.917561 0.338894
0.670912 0.920717 0.338618
0.705550 0.924077 0.338453
0.742736 0.928201 0.338484
0.782078 0.932029 0.338765
0.823357 0.936700 0.339278
0.865878 0.941533 0.339975
0.908232 0.946273 0.341063
0.940555 0.949268 0.342881
0.979002 0.957949 0.345102
1.013461 0.964064 0.347978
0.161140 0.161349 0.168832
0.165456 0.161601 0.166881
0.176506 0.162409 0.166675
0.193788 0.163329 0.166409
0.217074 0.164261 0.165838
0.252224 0.165696 0.165155
0.299644 0.168448 0.165057
0.352147 0.171643 0.165009
0.410501 0.175198 0.165014
0.467753 0.178837 0.165147
0.519334 0.182354 0.165475
0.577432 0.186317 0.165964
0.636823 0.190309 0.166740
0.692245 0.194236 0.167958
0.751904 0.198294 0.169608
0.810021 0.202701 0.171614
0.161981 0.164207 0.167663
0.164991 0.164295 0.166960
0.173384 0.164888 0.166764
0.188241 0.165748 0.166413
0.212297 0.167131 0.166048
0.247490 0.169384 0.165883
0.293401 0.172350 0.165772
0.344535 0.175728 0.165721
0.403327 0.179734 0.165751
0.464997 0.183933 0.165877
0.518433 0.187750 0.166163
0.576267 0.191682 0.166672
0.637139 0.195713 0.167402
0.693055 0.199588 0.168588
0.753432 0.204090 0.170257
0.811600 0.208552 0.172221
0.164358 0.172063 0.169218
0.167433 0.172207 0.168759
0.176175 0.172980 0.168415
0.190993 0.174636 0.168261
0.213766 0.177073 0.168239
0.246903 0.180480 0.168263
0.291116 0.184864 0.168327
0.341790 0.189760 0.168397
0.398577 0.195046 0.168547
0.461420 0.200701 0.168722
0.518431 0.205662 0.169077
0.575815 0.210490 0.169579
0.639727 0.215669 0.170264
0.698967 0.220478 0.171347
0.758588 0.225215 0.172889
0.818427 0.231015 0.174833
0.168342 0.189144 0.171794
0.171745 0.189243 0.171165
0.181864 0.189722 0.171083
0.197720 0.191577 0.170824
0.220737 0.194344 0.170541
0.253737 0.198478 0.170366
0.297075 0.203888 0.170270
0.346899 0.209868 0.170288
0.402413 0.216410 0.170361
0.464389 0.223616 0.170475
0.524466 0.230394 0.170773
0.581323 0.236883 0.171285
0.645658 0.244433 0.172005
0.709896 0.252435 0.173131
0.770503 0.260626 0.174884
0.829922 0.268440 0.177001
0.173930 0.218550 0.174373
0.178126 0.218569 0.174244
0.190102 0.219002 0.174642
0.207261 0.220111 0.174289
0.231603 0.223567 0.174046
0.265834 0.228366 0.173581
0.309136 0.234776 0.173275
0.358629 0.242079 0.173083
0.413265 0.250062 0.173010
0.474855 0.259148 0.173039
0.537117 0.268179 0.173254
0.593676 0.276408 0.173801
0.657462 0.286228 0.174589
0.726276 0.297517 0.175845
0.787294 0.308465 0.177841
0.846594 0.319005 0.180147
0.181669 0.259332 0.177866
0.186309 0.259653 0.178027
0.200964 0.260805 0.179148
0.219889 0.262239 0.178793
0.245310 0.264585 0.178487
0.281898 0.270927 0.178229
0.325820 0.278166 0.177561
0.375333 0.286514 0.177069
0.429714 0.295792 0.176774
0.491100 0.306528 0.176629
0.554481 0.317758 0.176749
0.611447 0.327886 0.177270
0.674888 0.340367 0.178153
0.745961 0.355788 0.179522
0.810161 0.371328 0.181733
0.869617 0.385128 0.184262
0.193649 0.307099 0.182279
0.198398 0.307445 0.182621
0.213900 0.308689 0.184291
0.234029 0.310162 0.183941
0.262524 0.312986 0.183598
0.298589 0.317036 0.183241
0.344899 0.327195 0.182918
0.394023 0.336748 0.182149
0.448416 0.347548 0.181588
0.509841 0.360269 0.181267
0.573591 0.373673 0.181223
0.630875 0.385869 0.181711
0.694333 0.400850 0.182612
0.766118 0.419413 0.184083
0.832538 0.438378 0.186661
0.891713 0.454043 0.189721
0.208453 0.361187 0.187664
0.212969 0.361575 0.188149
0.229131 0.362878 0.190268
0.251929 0.364861 0.189904
0.283626 0.368259 0.189485
0.321271 0.372587 0.189045
0.362754 0.377376 0.188641
0.414589 0.390723 0.188324
0.468758 0.402543 0.187466
0.529774 0.416517 0.186888
0.592648 0.431220 0.186700
0.649767 0.444888 0.187115
0.712787 0.461677 0.188045
0.785274 0.483074 0.189989
0.853568 0.505278 0.193133
0.912757 0.523322 0.196887
0.226455 0.416762 0.194384
0.231002 0.417259 0.194993
0.249444 0.419466 0.197479
0.274712 0.422231 0.197045
0.307888 0.426152 0.196525
0.346448 0.430846 0.195965
0.388583 0.436056 0.195448
0.431747 0.441257 0.194998
0.490665 0.458909 0.194633
0.551321 0.474473 0.193717
0.612664 0.490412 0.193294
0.668672 0.505179 0.193935
0.731625 0.523523 0.195358
0.803623 0.546627 0.197811
0.872543 0.571029 0.201820
0.931561 0.590914 0.206488
0.252034 0.478571 0.203265
0.257410 0.479256 0.203976
0.276384 0.481672 0.207058
0.302114 0.484411 0.206561
0.335584 0.488125 0.205941
0.374766 0.492700 0.205254
0.416681 0.497628 0.204601
0.460347 0.502785 0.204214
0.506758 0.508256 0.203944
0.573606 0.530809 0.203859
0.631858 0.546328 0.203402
0.686665 0.561804 0.204062
0.748857 0.581746 0.205805
0.821141 0.607119 0.209031
0.890020 0.633573 0.214152
0.948255 0.654472 0.219814
0.285583 0.543813 0.215060
0.290397 0.544504 0.215946
0.308363 0.547517 0.219974
0.333324 0.550347 0.219533
0.366960 0.554402 0.218937
0.405914 0.559329 0.218369
0.447738 0.564614 0.217821
0.492572 0.570449 0.217349
0.540261 0.576612 0.217008
0.591586 0.585120 0.216857
0.651368 0.604869 0.217194
0.705335 0.620633 0.217754
0.766975 0.641488 0.219737
0.838530 0.668380 0.223540
0.906232 0.695588 0.229652
0.963930 0.717682 0.236122
0.323888 0.609378 0.231337
0.328172 0.610098 0.232335
0.345710 0.613280 0.236559
0.369818 0.615911 0.236138
0.402306 0.619772 0.235599
0.439673 0.624296 0.235000
0.481616 0.629637 0.234442
0.527090 0.635288 0.233944
0.575561 0.641645 0.233596
0.623496 0.647746 0.233460
0.669249 0.656871 0.233830
0.723085 0.674513 0.234506
0.783920 0.696100 0.236773
0.854474 0.723386 0.241243
0.920322 0.751166 0.248541
0.976756 0.773167 0.256019
0.368891 0.681415 0.252441
0.373079 0.682079 0.253423
0.388929 0.684514 0.257615
0.411401 0.686843 0.257191
0.442061 0.690138 0.256688
0.479231 0.694409 0.256079
0.521502 0.699383 0.255555
0.567671 0.704975 0.255105
0.616478 0.711008 0.254718
0.660853 0.716012 0.254744
0.699830 0.719725 0.255077
0.745723 0.729621 0.255854
0.800806 0.746847 0.256931
0.869547 0.774548 0.262229
0.932631 0.802832 0.270592
0.988745 0.825911 0.278778
0.419361 0.759459 0.279995
0.422933 0.760019 0.280896
0.437067 0.762440 0.284629
0.458982 0.764872 0.284267
0.489487 0.768453 0.283792
0.526880 0.772972 0.283284
0.569718 0.778425 0.282749
0.616872 0.784426 0.282254
0.661561 0.789324 0.281950
0.701151 0.793101 0.282102
0.740839 0.796586 0.282489
0.781788 0.800482 0.283225
0.830507 0.811037 0.284302
0.884857 0.826936 0.285761
0.945106 0.855205 0.294942
0.999465 0.877998 0.303532
0.477440 0.834432 0.313375
0.480903 0.835199 0.314172
0.494449 0.836981 0.317334
0.515100 0.839468 0.317063
0.545016 0.842814 0.316655
0.582153 0.847254 0.316200
0.624671 0.852416 0.315777
0.665615 0.856996 0.315515
0.703577 0.861053 0.315455
0.742843 0.865135 0.315589
0.783890 0.869695 0.315973
0.826275 0.874264 0.316698
0.869590 0.879067 0.317632
0.915030 0.890177 0.319152
0.956960 0.901553 0.321212
1.006534 0.921279 0.331053
0.535654 0.907434 0.349863
0.538704 0.908081 0.350573
0.550611 0.909638 0.353456
0.570824 0.911783 0.353220
0.599559 0.914926 0.352782
0.635384 0.918977 0.352360
0.668071 0.922320 0.352043
0.702904 0.925569 0.351752
0.740651 0.929324 0.351602
0.780280 0.933407 0.351768
0.821601 0.938112 0.352223
0.864418 0.942807 0.353165
0.907425 0.947623 0.354486
0.940093 0.950596 0.356280
0.978158 0.958755 0.358588
1.012602 0.964914 0.361434
0.161098 0.162107 0.180420
0.164721 0.162110 0.177118
0.173907 0.162778 0.175773
0.190029 0.163701 0.176396
0.212740 0.164632 0.176287
0.247797 0.165893 0.176334
0.294626 0.167207 0.175998
0.346740 0.168455 0.175151
0.404770 0.169630 0.173938
0.465281 0.170721 0.172513
0.517600 0.172198 0.171615
0.575801 0.175062 0.172094
0.637524 0.177809 0.172972
0.693892 0.180136 0.174567
0.753862 0.182123 0.176853
0.812789 0.184747 0.179391
0.161820 0.165031 0.178425
0.164758 0.164918 0.177109
0.172720 0.165445 0.176242
0.187111 0.166299 0.176616
0.210172 0.167316 0.176560
0.244033 0.168513 0.176257
0.289234 0.169792 0.175579
0.340248 0.171012 0.174375
0.398707 0.172243 0.172702
0.462165 0.175010 0.172336
0.516875 0.177875 0.172512
0.574730 0.180760 0.172949
0.637676 0.183512 0.173816
0.694661 0.185808 0.175383
0.755294 0.188427 0.177639
0.814287 0.191179 0.180133
0.163906 0.172982 0.180264
0.166883 0.172948 0.179622
0.175615 0.173618 0.179000
0.189860 0.174518 0.178822
0.212041 0.175738 0.178028
0.244283 0.177352 0.176931
0.287908 0.180396 0.176462
0.338556 0.184000 0.176131
0.394907 0.188107 0.175899
0.457790 0.192545 0.175848
0.517244 0.196671 0.176040
0.574738 0.200481 0.176524
0.639009 0.204413 0.177351
0.700474 0.207951 0.178736
0.760188 0.211165 0.180822
0.820147 0.215830 0.183193
0.167650 0.190007 0.184957
0.170841 0.190084 0.184419
0.180234 0.190487 0.183312
0.196193 0.191691 0.182603
0.219029 0.194233 0.182211
0.251675 0.197996 0.182011
0.294779 0.202969 0.181871
0.344969 0.208683 0.181838
0.400085 0.214828 0.181855
0.462218 0.221673 0.181925
0.525592 0.228463 0.182146
0.582564 0.234390 0.182603
0.646568 0.240903 0.183287
0.714657 0.247748 0.184364
0.774550 0.254039 0.186041
0.833696 0.260544 0.188104
0.172861 0.219157 0.190244
0.176098 0.219195 0.189457
0.186317 0.219602 0.187656
0.205452 0.220830 0.187769
0.228861 0.223204 0.187310
0.262900 0.227744 0.186722
0.306225 0.233861 0.186276
0.356361 0.240934 0.185936
0.410884 0.248592 0.185718
0.472634 0.257287 0.185646
0.537112 0.266241 0.185728
0.594677 0.274107 0.186140
0.658307 0.283018 0.186843
0.728112 0.293148 0.187965
0.790305 0.302984 0.189797
0.849773 0.312932 0.192009
0.179022 0.260147 0.195627
0.182331 0.260433 0.194652
0.194774 0.261537 0.192570
0.216858 0.263141 0.193867
0.242490 0.265102 0.193332
0.277923 0.269847 0.192871
0.321993 0.276914 0.192045
0.372175 0.285193 0.191367
0.426623 0.294278 0.190883
0.488126 0.304775 0.190571
0.552874 0.315939 0.190470
0.611632 0.326237 0.190766
0.675226 0.338159 0.191477
0.746523 0.352725 0.192645
0.812198 0.367283 0.194780
0.871785 0.380172 0.197509
0.187770 0.307742 0.200187
0.191245 0.308143 0.199088
0.205851 0.309442 0.198271
0.229673 0.311298 0.200639
0.258874 0.313948 0.200086
0.295429 0.317737 0.199546
0.340238 0.325813 0.199049
0.390076 0.335278 0.198060
0.444682 0.346011 0.197291
0.506231 0.358499 0.196755
0.570988 0.371867 0.196549
0.630331 0.384266 0.196839
0.693938 0.398772 0.197670
0.766289 0.416562 0.199203
0.834356 0.434739 0.201804
0.893852 0.449616 0.205432
0.198524 0.362031 0.204490
0.201865 0.362335 0.203404
0.219051 0.363755 0.205049
0.246716 0.366478 0.208472
0.279174 0.369704 0.207913
0.317441 0.373717 0.207314
0.359728 0.378347 0.206763
0.409948 0.389331 0.206282
