example_ofxGpuLutCube/bin/data/ofxGpuLutCube/LUT/U31 (hard warm contrasty fade).cube
LUT_3D_SIZE 6
0.101501 0.101959 0.101959
0.120935 0.098578 0.098719
0.359046 0.060657 0.060657
0.596991 0.022424 0.022424
0.798291 0.000000 0.000000
0.955687 0.000000 0.000000
0.100964 0.100958 0.101807
0.113490 0.106737 0.101556
0.288613 0.083693 0.071969
0.589541 0.034872 0.023623
0.839023 0.007455 0.000000
1.000000 0.038136 0.034367
0.096295 0.130054 0.097119
0.100011 0.196655 0.085387
0.273239 0.246191 0.143682
0.607101 0.279071 0.065357
0.893245 0.247289 0.000000
1.000000 0.277055 0.072254
0.058643 0.337231 0.061371
0.049064 0.432128 0.044433
0.258270 0.490160 0.080853
0.502205 0.468131 0.201531
0.728248 0.533750 0.181928
0.963090 0.563119 0.121200
0.000000 0.702008 0.002362
0.000000 0.741020 0.001703
0.120382 0.793463 0.000000
0.483987 0.678886 0.163603
0.671433 0.646208 0.243091
0.811385 0.686354 0.277671
0.004327 0.982614 0.000000
0.004603 0.994757 0.000000
0.016970 0.999933 0.009922
0.359604 1.000000 0.030675
0.671149 0.776692 0.268051
0.808587 0.788291 0.275946
0.099909 0.099842 0.103253
0.128701 0.097481 0.106875
0.366320 0.059473 0.069464
0.619628 0.018784 0.027312
0.821541 0.000000 0.007449
0.975773 0.000000 0.007111
0.101746 0.105950 0.106579
0.116513 0.107020 0.105431
0.295546 0.086874 0.081508
0.606016 0.039252 0.033188
0.866148 0.004326 0.001135
1.000000 0.064742 0.065439
0.087166 0.183457 0.089279
0.101838 0.190918 0.088496
0.268949 0.245922 0.147355
0.602091 0.295274 0.077612
0.902187 0.269863 0.002187
1.000000 0.302660 0.080031
0.045546 0.410758 0.046184
0.050024 0.439894 0.040342
0.252146 0.499355 0.074395
0.496561 0.469974 0.198971
0.715239 0.539939 0.192371
0.951219 0.578262 0.132419
0.000000 0.734878 0.001824
0.000000 0.750857 0.001546
0.118755 0.801011 0.000000
0.478765 0.693740 0.153795
0.667646 0.648441 0.242093
0.811569 0.692781 0.277629
0.004766 0.997436 0.000000
0.010569 0.999868 0.005722
0.026059 1.000000 0.019220
0.353793 1.000000 0.038775
0.670439 0.782445 0.269455
0.806487 0.791629 0.275421
0.104407 0.119580 0.171142
0.106904 0.117535 0.217167
0.338665 0.101178 0.276284
0.615283 0.042074 0.265642
0.844701 0.000000 0.234686
0.997755 0.000000 0.224738
0.107506 0.153768 0.211311
0.119678 0.163816 0.222728
0.303188 0.124244 0.277117
0.615690 0.072329 0.291117
0.890450 0.013319 0.263669
1.000000 0.085072 0.297689
0.101526 0.270724 0.289925
0.122835 0.274388 0.285522
0.325053 0.295586 0.295402
0.615784 0.289548 0.278764
0.885565 0.276942 0.262426
1.000000 0.351780 0.341652
0.056476 0.511807 0.272538
0.068058 0.522281 0.269417
0.210682 0.533146 0.240285
0.531088 0.518727 0.371627
0.778955 0.596871 0.363554
1.000000 0.618585 0.336870
0.000000 0.801592 0.187541
0.000000 0.805540 0.192865
0.085491 0.831484 0.170232
0.478572 0.800537 0.263853
0.705397 0.700842 0.418005
0.864097 0.758451 0.457102
0.029128 1.000000 0.136101
0.034563 1.000000 0.144871
0.046968 1.000000 0.170072
0.362145 1.000000 0.233934
0.723415 0.864780 0.399717
0.844238 0.843661 0.445437
0.115686 0.182867 0.359504
0.127318 0.192567 0.427075
0.254631 0.113508 0.496335
0.581196 0.101959 0.534678
0.782291 0.083430 0.545413
0.982268 0.039960 0.546899
0.120121 0.249572 0.429239
0.130776 0.272333 0.458923
0.237524 0.190376 0.514450
0.591201 0.138916 0.565629
0.814060 0.121231 0.586925
1.000000 0.103293 0.592221
0.111245 0.369491 0.524175
0.125738 0.385701 0.536894
0.314671 0.421531 0.535940
0.588867 0.356815 0.575807
0.841765 0.352605 0.614767
1.000000 0.382483 0.631563
0.100336 0.557765 0.588611
0.133230 0.563058 0.585959
0.349866 0.568675 0.580079
0.598665 0.619671 0.644608
0.827530 0.615032 0.663175
1.000000 0.658885 0.696672
0.094561 0.758617 0.585050
0.109349 0.765193 0.586741
0.264420 0.794142 0.592295
0.452092 0.817791 0.611832
0.773443 0.784271 0.699444
0.978028 0.845654 0.704871
0.053651 1.000000 0.565161
0.057888 1.000000 0.569130
0.167722 1.000000 0.570599
0.360652 1.000000 0.573867
0.765829 0.999998 0.661620
0.918593 0.928378 0.746531
0.129394 0.273132 0.580738
0.137832 0.279586 0.637996
0.188823 0.157783 0.685116
0.576740 0.101858 0.739463
0.785626 0.101959 0.744561
0.945284 0.101959 0.749497
0.133466 0.355089 0.645559
0.141062 0.380363 0.677714
0.265811 0.316663 0.720967
0.573340 0.198775 0.768329
0.813920 0.154724 0.783088
0.974216 0.151890 0.792248
0.120922 0.469616 0.726836
0.134357 0.488397 0.744158
0.328643 0.533939 0.751949
0.556200 0.450993 0.782093
0.819402 0.408009 0.805498
0.985300 0.422169 0.828441
0.101077 0.606112 0.788806
0.131863 0.619248 0.794456
0.352946 0.650692 0.791901
0.611794 0.707842 0.813941
0.806871 0.659380 0.836174
0.999129 0.674716 0.867053
0.099811 0.790586 0.809485
0.154116 0.794416 0.808450
0.399541 0.802484 0.808002
0.616471 0.815930 0.831910
0.806264 0.839907 0.859151
0.999857 0.846985 0.870055
0.102701 0.965338 0.806573
0.123188 0.969805 0.808785
0.321137 0.982754 0.814674
0.512556 0.999875 0.837240
0.776488 1.000000 0.867194
0.957831 0.971991 0.900552
0.142232 0.379033 0.786801
0.147868 0.386108 0.830965
0.225060 0.273173 0.869106
0.520067 0.154789 0.908269
0.805929 0.104562 0.927336
0.961013 0.101412 0.922328
0.143924 0.456203 0.838273
0.149140 0.480832 0.870035
0.323173 0.460613 0.904370
0.522518 0.290406 0.933620
0.826604 0.218674 0.959802
0.978269 0.177851 0.959014
0.130420 0.559911 0.905235
0.141157 0.579493 0.924544
0.349477 0.632486 0.933890
0.544615 0.539612 0.945105
0.827927 0.482827 0.973508
0.983941 0.450089 0.977353
0.111821 0.676415 0.949324
0.140944 0.691382 0.956578
0.369805 0.732876 0.960650
0.640479 0.789570 0.962845
0.802166 0.725733 0.975147
0.984910 0.701474 0.986717
0.099585 0.816756 0.974385
0.156957 0.826665 0.977920
0.400337 0.843468 0.982801
0.638771 0.874221 0.983172
0.839075 0.906543 0.982193
0.981749 0.874074 0.990267
0.103115 0.975337 0.982422
0.201476 0.981513 0.984536
0.436252 0.988123 0.986700
0.648136 0.993211 0.988395
0.830205 0.997309 0.989193
0.972961 0.999897 0.988686
