example_ofxGpuLutCube/bin/data/ofxGpuLutCube/LUT/U31 (hard warm contrasty fade).cube
LUT_3D_SIZE 16
0.101501 0.101959 0.101959
0.099682 0.101959 0.101923
0.101892 0.101386 0.101575
0.120935 0.098578 0.098719
0.184216 0.088721 0.088721
0.272430 0.074554 0.074554
0.359046 0.060657 0.060657
0.440033 0.047644 0.047644
0.518146 0.035083 0.035083
0.596991 0.022424 0.022424
0.675262 0.009857 0.009857
0.744525 0.000000 0.000000
0.798291 0.000000 0.000000
0.850971 0.000000 0.000000
0.903565 0.000000 0.000000
0.955687 0.000000 0.000000
0.101087 0.100751 0.101892
0.099891 0.100891 0.101830
0.100176 0.100497 0.101776
0.108079 0.098805 0.101188
0.131168 0.095315 0.097548
0.183099 0.087237 0.089160
0.260147 0.075209 0.076782
0.358131 0.059986 0.060950
0.451667 0.045358 0.045861
0.550624 0.029788 0.029895
0.644452 0.014758 0.014789
0.726355 0.001768 0.001768
0.792303 0.000000 0.000000
0.854245 0.000000 0.000000
0.912240 0.000000 0.000000
0.966814 0.000000 0.000000
0.100867 0.099524 0.101868
0.099611 0.099896 0.101746
0.100430 0.099728 0.101807
0.110712 0.098214 0.100892
0.136758 0.094078 0.096703
0.191302 0.085412 0.087933
0.268246 0.073018 0.075632
0.366570 0.057063 0.059896
0.465392 0.040990 0.044043
0.560006 0.025640 0.028858
0.656610 0.010065 0.013312
0.739828 0.000000 0.003186
0.806641 0.000000 0.002794
0.873363 0.000000 0.002302
0.939300 0.000000 0.001843
0.997433 0.002139 0.003410
0.100964 0.100958 0.101807
0.099574 0.102085 0.101902
0.100570 0.104656 0.101582
0.113490 0.106737 0.101556
0.147461 0.103721 0.094575
0.206977 0.095764 0.085046
0.288613 0.083693 0.071969
0.386687 0.068343 0.056208
0.493797 0.050955 0.039001
0.589541 0.034872 0.023623
0.684588 0.018610 0.008356
0.771472 0.008840 0.000000
0.839023 0.007455 0.000000
0.904037 0.006237 0.000000
0.969159 0.005102 0.000000
1.000000 0.038136 0.034367
0.100446 0.106714 0.101172
0.097518 0.112097 0.100672
0.097975 0.119021 0.099098
0.113673 0.123596 0.102647
0.145749 0.132021 0.107592
0.218311 0.133844 0.089599
0.311067 0.122032 0.068359
0.408982 0.108998 0.052634
0.518490 0.093282 0.035033
0.616378 0.077847 0.019312
0.708728 0.062518 0.004474
0.790741 0.055812 0.000000
0.862760 0.052816 0.000000
0.926973 0.050263 0.000000
0.990996 0.047799 0.000000
1.000000 0.095647 0.054802
0.098694 0.116821 0.099426
0.095197 0.127374 0.097913
0.093762 0.141388 0.095295
0.108356 0.159595 0.092377
0.145495 0.157983 0.114063
0.201508 0.180145 0.123474
0.298919 0.195178 0.099292
0.409094 0.190466 0.071106
0.531555 0.175055 0.039136
0.639502 0.158374 0.015582
0.729431 0.144989 0.001129
0.806061 0.140051 0.000000
0.879932 0.136316 0.000000
0.945312 0.132885 0.000000
0.999255 0.136524 0.009082
1.000000 0.176212 0.064527
0.096295 0.130054 0.097119
0.092245 0.146642 0.094454
0.088732 0.169038 0.090501
0.100011 0.196655 0.085387
0.145186 0.216100 0.094599
0.201373 0.215076 0.130090
0.273239 0.246191 0.143682
0.374810 0.272393 0.123953
0.493763 0.282065 0.094289
0.607101 0.279071 0.065357
0.707904 0.269342 0.038214
0.808092 0.256233 0.011504
0.893245 0.247289 0.000000
0.960350 0.243269 0.000000
1.000000 0.251301 0.022265
1.000000 0.277055 0.072254
0.090124 0.164087 0.091211
0.085397 0.188872 0.086979
0.079355 0.220347 0.081654
0.087577 0.255681 0.075140
0.125865 0.294314 0.069897
0.208136 0.292401 0.108258
0.271094 0.287772 0.148179
0.350329 0.318596 0.163742
0.448031 0.349121 0.153824
0.558883 0.368961 0.125964
0.655182 0.375397 0.101532
0.752854 0.375363 0.075584
0.850881 0.370799 0.049795
0.943358 0.362960 0.025665
1.000000 0.361450 0.030363
1.000000 0.376193 0.077179
0.076837 0.236908 0.078674
0.071538 0.266052 0.073667
0.065003 0.298701 0.068164
0.070505 0.335663 0.061250
0.103684 0.375907 0.054220
0.187738 0.393139 0.071765
0.277283 0.368274 0.130193
0.345759 0.364178 0.167194
0.430708 0.394480 0.183743
0.506013 0.418829 0.188827
0.600140 0.444147 0.164868
0.694171 0.459818 0.140986
0.789108 0.468617 0.116689
0.881710 0.471786 0.092417
0.965753 0.470377 0.069788
1.000000 0.472068 0.081024
0.058643 0.337231 0.061371
0.053473 0.366027 0.056393
0.048244 0.395036 0.051360
0.049064 0.432128 0.044433
0.077343 0.470693 0.037720
0.144812 0.508569 0.031634
0.258270 0.490160 0.080853
0.348671 0.445730 0.155535
0.424969 0.443697 0.186977
0.502205 0.468131 0.201531
0.557166 0.484259 0.215210
0.635102 0.509702 0.205898
0.728248 0.533750 0.181928
0.819310 0.549795 0.158777
0.901769 0.558702 0.137511
0.963090 0.563119 0.121200
0.038208 0.451782 0.041443
0.033471 0.478576 0.036719
0.028796 0.505237 0.032129
0.025513 0.536072 0.026379
0.048230 0.570679 0.020251
0.106323 0.603180 0.014648
0.212817 0.611011 0.032898
0.337335 0.566803 0.102747
0.419018 0.502594 0.192114
0.493408 0.511383 0.203808
0.561035 0.530457 0.216156
0.614960 0.546405 0.229578
0.672058 0.563745 0.240277
0.762519 0.592889 0.217053
0.844214 0.612213 0.196027
0.905199 0.623286 0.181243
0.015649 0.580548 0.018896
0.011909 0.602183 0.015015
0.008269 0.623179 0.011363
0.004637 0.644231 0.007598
0.016499 0.670439 0.002725
0.068329 0.695502 0.000000
0.159328 0.717443 0.000000
0.295243 0.689603 0.049610
0.417362 0.624548 0.135843
0.481703 0.562973 0.214660
0.553967 0.572680 0.219000
0.617247 0.589465 0.230138
0.670560 0.605222 0.243402
0.723540 0.620661 0.256569
0.788891 0.641926 0.251177
0.854030 0.661526 0.234234
0.000000 0.702008 0.002362
0.000000 0.715312 0.002122
0.000000 0.727874 0.001960
0.000000 0.741020 0.001703
0.000088 0.755882 0.000664
0.041046 0.775683 0.000000
0.120382 0.793463 0.000000
0.234800 0.809147 0.002197
0.379354 0.754616 0.073536
0.483987 0.678886 0.163603
0.546496 0.623059 0.231110
0.612399 0.631679 0.233242
0.671433 0.646208 0.243091
0.723453 0.661531 0.255979
0.770762 0.674938 0.267671
0.811385 0.686354 0.277671
0.000000 0.804291 0.000434
0.000000 0.813736 0.000217
0.000172 0.823077 0.000073
0.000238 0.832936 0.000000
0.000554 0.843330 0.000000
0.012555 0.855993 0.000000
0.081933 0.870494 0.000000
0.184702 0.884647 0.000000
0.312856 0.885941 0.011624
0.457568 0.807397 0.101661
0.552588 0.710004 0.208313
0.609530 0.681582 0.245059
0.668882 0.687705 0.246570
0.722765 0.699857 0.255240
0.769287 0.713137 0.266724
0.812447 0.725274 0.277425
0.001886 0.896765 0.000000
0.001931 0.903061 0.000000
0.002130 0.909277 0.000000
0.002374 0.915910 0.000000
0.002579 0.923035 0.000000
0.002643 0.930511 0.000000
0.045239 0.941150 0.000000
0.138335 0.951428 0.000000
0.251173 0.960530 0.000000
0.409208 0.925858 0.043680
0.551574 0.818543 0.158496
0.609282 0.732341 0.251116
0.669545 0.732003 0.257178
0.721430 0.735885 0.258121
0.767057 0.745518 0.265840
0.811557 0.758113 0.276878
0.004327 0.982614 0.000000
0.004328 0.986525 0.000000
0.004456 0.990449 0.000000
0.004603 0.994757 0.000000
0.004949 0.999584 0.000073
0.009651 0.999870 0.004803
0.016970 0.999933 0.009922
0.100002 1.000000 0.017121
0.207545 1.000000 0.023767
0.359604 1.000000 0.030675
0.532987 0.926656 0.109517
0.623698 0.829238 0.211504
0.671149 0.776692 0.268051
0.725678 0.779087 0.268645
0.767129 0.780269 0.268914
0.808587 0.788291 0.275946
0.101092 0.101379 0.100610
0.099189 0.102275 0.100320
0.103229 0.101220 0.099884
0.129386 0.097589 0.095470
0.196260 0.087088 0.085230
0.276715 0.074121 0.072607
0.358763 0.060885 0.059668
0.441720 0.047556 0.046569
0.521151 0.034766 0.033906
0.599974 0.022057 0.021367
0.678094 0.009478 0.009015
0.746882 0.000146 0.000000
0.800822 0.000101 0.000000
0.853718 0.000043 0.000000
0.906520 0.000000 0.000000
0.958811 0.000000 0.000000
0.101331 0.100470 0.100483
0.099762 0.100602 0.100647
0.100416 0.100106 0.100187
0.109153 0.098456 0.098556
0.134690 0.094590 0.094761
0.189683 0.085965 0.086121
0.269117 0.073526 0.073589
0.362602 0.059061 0.058862
0.454429 0.044793 0.044400
0.554314 0.029180 0.028540
0.645912 0.014623 0.013946
0.728301 0.001634 0.001199
0.795267 0.000225 0.000000
0.857867 0.000100 0.000000
0.915474 0.000043 0.000000
0.969983 0.000000 0.000000
0.101095 0.099396 0.100401
0.099551 0.099618 0.100375
0.100904 0.099492 0.100325
0.111487 0.098022 0.098418
0.138749 0.093779 0.094489
0.195593 0.084797 0.085674
0.273735 0.072228 0.073543
0.373715 0.056022 0.057929
0.470383 0.040281 0.042721
0.565145 0.024890 0.027748
0.662058 0.009214 0.012318
0.743468 0.000000 0.003078
0.810415 0.000000 0.002915
0.877164 0.000000 0.002577
0.943473 0.000000 0.002082
0.999757 0.003769 0.005447
0.101077 0.101476 0.100426
0.099154 0.102150 0.100233
0.101044 0.104057 0.100035
0.114077 0.106119 0.100158
0.148266 0.103177 0.093770
0.209401 0.095483 0.084236
0.291178 0.083702 0.071334
0.390825 0.068241 0.055462
0.497380 0.050964 0.038396
0.593045 0.034949 0.023046
0.688737 0.018585 0.007674
0.774742 0.009605 0.000000
0.842068 0.008245 0.000000
0.907401 0.007001 0.000000
0.972798 0.005809 0.000000
1.000000 0.042685 0.038281
0.100178 0.109767 0.099190
0.097488 0.111359 0.099119
0.098623 0.117979 0.098097
0.113863 0.121734 0.103119
0.145719 0.131054 0.106888
0.218930 0.133332 0.089310
0.312056 0.122147 0.068194
0.411644 0.109333 0.052200
0.522163 0.093798 0.034448
0.619227 0.078683 0.018855
0.712155 0.063448 0.003916
0.794004 0.057290 0.000000
0.865539 0.054539 0.000000
0.929828 0.052087 0.000000
0.994119 0.049837 0.000000
1.000000 0.098124 0.055410
0.097669 0.122705 0.097869
0.095112 0.126300 0.097602
0.094253 0.140063 0.095243
0.109025 0.157842 0.092839
0.145076 0.156720 0.113924
0.201514 0.179584 0.122949
0.299001 0.195250 0.099362
0.410604 0.191330 0.071041
0.533985 0.176583 0.039280
0.641719 0.160099 0.015234
0.732220 0.147010 0.000690
0.808740 0.142500 0.000000
0.882748 0.138898 0.000000
0.947735 0.135724 0.000000
0.999762 0.140952 0.011093
1.000000 0.179384 0.064808
0.094967 0.137331 0.095796
0.092152 0.145155 0.094738
0.089248 0.167235 0.090766
0.100455 0.195022 0.085669
0.145005 0.214960 0.094680
0.200949 0.214537 0.129963
0.272607 0.246054 0.143630
0.374880 0.273274 0.124481
0.494922 0.283860 0.094820
0.607318 0.281423 0.066288
0.708561 0.272323 0.039128
0.809067 0.259604 0.012514
0.895433 0.250491 0.000038
0.962103 0.246504 0.000000
1.000000 0.255627 0.024168
1.000000 0.280506 0.072498
0.088640 0.172097 0.089826
0.085177 0.188605 0.087091
0.079543 0.220088 0.081674
0.087682 0.255571 0.075164
0.125369 0.294679 0.069688
0.207226 0.293352 0.107581
0.270136 0.288089 0.148264
0.350184 0.319537 0.163708
0.447503 0.350583 0.155245
0.557283 0.371148 0.128107
0.654830 0.378330 0.102828
0.751938 0.379118 0.077902
0.850179 0.375167 0.052195
0.943007 0.367607 0.027601
1.000000 0.366226 0.031823
1.000000 0.380372 0.077368
0.075927 0.241964 0.077785
0.071466 0.266392 0.073596
0.064945 0.299487 0.068011
0.070543 0.336501 0.061097
0.103281 0.377006 0.054043
0.185775 0.395629 0.070081
0.276322 0.370785 0.128653
0.344758 0.365035 0.167400
0.430708 0.395837 0.183743
0.503737 0.419579 0.190967
0.597530 0.445837 0.167851
0.692323 0.462394 0.143520
0.788032 0.472005 0.118800
0.880343 0.475758 0.094872
0.964153 0.474838 0.072345
1.000000 0.476488 0.081213
0.058096 0.340254 0.060858
0.053143 0.367863 0.056063
0.047842 0.397098 0.051009
0.048927 0.434127 0.044084
0.076683 0.472532 0.037402
0.142701 0.510550 0.031084
0.255783 0.493863 0.078639
0.348149 0.449920 0.152955
0.423876 0.444936 0.187284
0.501532 0.469384 0.201365
0.556885 0.485919 0.215137
0.631988 0.510470 0.209079
0.725361 0.535542 0.185189
0.816662 0.552305 0.161940
0.900283 0.561932 0.139426
0.959763 0.566503 0.124639
0.037512 0.455816 0.040784
0.032831 0.482322 0.036114
0.028159 0.508940 0.031522
0.024941 0.539593 0.025792
0.047254 0.573778 0.019714
0.104553 0.605945 0.014167
0.209171 0.616087 0.029928
0.334954 0.571201 0.100372
0.418219 0.505875 0.190841
0.491502 0.512764 0.204150
0.560199 0.531806 0.215955
0.614518 0.548141 0.229461
0.671361 0.565483 0.240811
0.759381 0.594132 0.220210
0.840889 0.614071 0.199351
0.903612 0.625996 0.182982
0.014842 0.585164 0.018096
0.011135 0.606695 0.014266
0.007570 0.627237 0.010646
0.003985 0.648104 0.006898
0.015606 0.673847 0.002232
0.067108 0.698282 0.000000
0.157041 0.719953 0.000000
0.292104 0.694698 0.046807
0.415237 0.630147 0.132174
0.480466 0.565740 0.213697
0.552427 0.574047 0.219348
0.616293 0.590593 0.229905
0.669976 0.606692 0.243253
0.723185 0.622468 0.256490
0.785680 0.642743 0.254051
0.850969 0.662884 0.237338
0.000000 0.706206 0.002358
0.000000 0.719175 0.002114
0.000000 0.731543 0.001921
0.000000 0.744564 0.001630
0.000000 0.759098 0.000737
0.039960 0.778731 0.000000
0.118576 0.796271 0.000000
0.232141 0.812183 0.001755
0.376015 0.760189 0.070280
0.482219 0.684616 0.159946
0.545145 0.624648 0.231472
0.611264 0.633127 0.233575
0.670613 0.647374 0.242865
0.722832 0.662955 0.255799
0.770239 0.676546 0.267502
0.811434 0.688260 0.277667
0.000000 0.808478 0.000232
0.000128 0.817821 0.000159
0.000238 0.826981 0.000086
0.000376 0.836633 0.000000
0.000653 0.846916 0.000000
0.011516 0.859224 0.000000
0.080412 0.873644 0.000000
0.182354 0.887515 0.000000
0.308706 0.890855 0.009277
0.454210 0.813134 0.098263
0.552103 0.714988 0.205547
0.608657 0.683261 0.245466
0.668194 0.689243 0.246938
0.721997 0.700909 0.255022
0.768669 0.714444 0.266571
0.812505 0.726891 0.277410
0.001887 0.900718 0.000000
0.002130 0.906858 0.000000
0.002150 0.912929 0.000000
0.002374 0.919406 0.000000
0.002618 0.926447 0.000000
0.002867 0.933821 0.000000
0.043908 0.944248 0.000000
0.136316 0.954228 0.000000
0.248355 0.963129 0.000000
0.404844 0.931774 0.040240
0.550350 0.824976 0.154394
0.609105 0.735295 0.250364
0.669106 0.733726 0.257594
0.721036 0.737475 0.258506
0.766306 0.746558 0.265639
0.811044 0.759393 0.276743
0.004328 0.986319 0.000000
0.004446 0.990245 0.000000
0.004602 0.994071 0.000000
0.004798 0.998278 0.000000
0.007987 0.999848 0.003134
0.013144 0.999903 0.008055
0.019509 0.999962 0.012872
0.100393 1.000000 0.019950
0.207001 1.000000 0.026475
0.356851 1.000000 0.033247
0.530883 0.932460 0.106268
0.623121 0.832023 0.211127
0.670781 0.778502 0.268495
0.725538 0.780845 0.269062
0.766990 0.781912 0.269329
0.807976 0.789369 0.275788
0.100518 0.100293 0.099755
0.099204 0.101182 0.099325
0.103873 0.101038 0.099479
0.128985 0.097395 0.095272
0.191980 0.087866 0.085023
0.276770 0.074341 0.071319
0.362207 0.060669 0.057489
0.448591 0.046809 0.043525
0.530757 0.033602 0.030277
0.610017 0.020883 0.017526
0.688379 0.008270 0.004932
0.754577 0.003286 0.000000
0.808589 0.003160 0.000000
0.860790 0.003077 0.000000
0.912744 0.003014 0.000000
0.964556 0.002925 0.000000
0.101041 0.099606 0.099301
0.099562 0.099814 0.099466
0.100778 0.099887 0.099469
0.111364 0.097962 0.097883
0.140003 0.093551 0.093303
0.198526 0.084342 0.083915
0.281358 0.071444 0.070565
0.377319 0.056654 0.055068
0.469624 0.042436 0.040186
0.570023 0.026842 0.023978
0.660780 0.012535 0.009382
0.739051 0.003192 0.000000
0.804427 0.003167 0.000000
0.866036 0.003154 0.000000
0.922653 0.003030 0.000000
0.976364 0.002968 0.000000
0.101423 0.099279 0.099315
0.099565 0.099578 0.099555
0.101257 0.099438 0.099323
0.111829 0.098178 0.097844
0.139540 0.094106 0.093495
0.198220 0.085048 0.084167
0.279090 0.072130 0.071178
0.382524 0.055336 0.054464
0.480015 0.039355 0.038707
0.576376 0.023503 0.023151
0.674272 0.007482 0.007359
0.753050 0.000117 0.000132
0.820046 0.000101 0.000095
0.886723 0.000154 0.000086
0.952688 0.000371 0.000098
0.999974 0.013272 0.012696
0.101450 0.102877 0.099806
0.098762 0.103937 0.098863
0.101279 0.103977 0.099413
0.113617 0.106216 0.099623
0.148613 0.104014 0.092032
0.212438 0.096654 0.081754
0.296248 0.085012 0.068230
0.398915 0.069501 0.051647
0.505489 0.052486 0.034435
0.601909 0.036497 0.018913
0.698135 0.020100 0.003416
0.779324 0.015110 0.000000
0.846550 0.013632 0.000000
0.912072 0.012299 0.000000
0.977680 0.010983 0.000000
1.000000 0.052271 0.043378
0.099578 0.115715 0.096745
0.096785 0.115933 0.096691
0.099287 0.117735 0.096412
0.113483 0.119592 0.102334
0.144918 0.129901 0.104920
0.219367 0.134174 0.087745
0.315014 0.124055 0.065074
0.417021 0.112079 0.048590
0.528050 0.097189 0.030828
0.624926 0.082513 0.015409
0.718261 0.067758 0.000665
0.797239 0.064134 0.000000
0.868259 0.061353 0.000000
0.932705 0.058851 0.000000
0.996478 0.057138 0.000719
1.000000 0.105021 0.056442
0.096124 0.134509 0.093421
0.093949 0.134375 0.093436
0.095331 0.138721 0.092676
0.110846 0.154929 0.091745
0.143967 0.154407 0.111995
0.200391 0.178290 0.120990
0.296859 0.196095 0.099148
0.409547 0.194815 0.071522
0.534039 0.182056 0.039852
0.643844 0.165524 0.013649
0.733764 0.153619 0.000220
0.810411 0.149480 0.000000
0.884647 0.145986 0.000000
0.949519 0.142837 0.000000
1.000000 0.149424 0.012929
1.000000 0.186308 0.065417
0.092012 0.156506 0.089789
0.090389 0.156128 0.089776
0.090376 0.165136 0.088140
0.101935 0.193084 0.083334
0.145336 0.211122 0.094187
0.199174 0.212597 0.128307
0.269600 0.244641 0.142735
0.370740 0.273708 0.126132
0.491794 0.286899 0.096914
0.604022 0.286246 0.068885
0.704436 0.278757 0.043207
0.805966 0.267042 0.016256
0.896106 0.257459 0.000535
0.963193 0.253472 0.000000
1.000000 0.263189 0.025567
1.000000 0.287342 0.072916
0.083700 0.200361 0.082984
0.082897 0.201896 0.082507
0.080105 0.219515 0.079352
0.088693 0.255195 0.073327
0.125769 0.293798 0.068828
0.205515 0.293142 0.106128
0.267408 0.286895 0.147860
0.347398 0.318783 0.163015
0.443099 0.350774 0.157663
0.552629 0.373376 0.131334
0.650739 0.382360 0.106279
0.748258 0.384577 0.081550
0.846916 0.381786 0.055998
0.939393 0.375331 0.031884
0.999835 0.373437 0.032898
1.000000 0.387125 0.077630
0.069800 0.275633 0.071887
0.069472 0.277427 0.071427
0.065022 0.300082 0.067511
0.071042 0.336883 0.060759
0.103329 0.377127 0.053884
0.184147 0.395920 0.069321
0.274420 0.372428 0.126271
0.341868 0.364316 0.167220
0.428456 0.395653 0.183175
0.499757 0.419500 0.192774
0.593743 0.447344 0.170227
0.688186 0.465377 0.146953
0.784343 0.476320 0.122382
0.876318 0.481223 0.099217
0.959573 0.481363 0.077302
1.000000 0.482858 0.081467
0.052182 0.373208 0.055114
0.051678 0.376033 0.054656
0.047494 0.398780 0.050743
0.049225 0.435598 0.043820
0.076757 0.473677 0.037193
0.141557 0.511349 0.030847
0.253541 0.495267 0.077549
0.346501 0.452255 0.150654
0.421346 0.444831 0.187255
0.499304 0.469332 0.200802
0.555259 0.486774 0.214715
0.628641 0.511353 0.211108
0.721480 0.537345 0.188366
0.813399 0.555378 0.164933
0.895580 0.565864 0.143999
0.956327 0.571334 0.128234
0.032532 0.483972 0.035834
0.031826 0.488019 0.035103
0.027614 0.512057 0.030927
0.024751 0.542611 0.025246
0.047065 0.576195 0.019299
0.103760 0.607886 0.013831
0.207036 0.618738 0.028699
0.332727 0.574689 0.098028
0.417642 0.510016 0.187465
0.488793 0.513159 0.204252
0.558307 0.532147 0.215497
0.613155 0.549165 0.229128
0.669166 0.566512 0.241942
0.755013 0.595151 0.223999
0.837796 0.616412 0.202053
0.901260 0.629327 0.185405
0.011415 0.605044 0.014546
0.010331 0.611299 0.013471
0.006947 0.630817 0.010013
0.003486 0.651329 0.006428
0.015393 0.676766 0.001797
0.067004 0.700458 0.000000
0.156045 0.721924 0.000000
0.289977 0.697801 0.045392
0.413286 0.634307 0.129322
0.478951 0.567752 0.212755
0.550397 0.574746 0.219534
0.614761 0.591102 0.229500
0.668926 0.607863 0.242986
0.722476 0.624092 0.256299
0.783067 0.643838 0.255949
0.848616 0.664680 0.239746
0.000000 0.717413 0.002101
0.000000 0.722630 0.002075
0.000000 0.734818 0.001859
0.000000 0.747627 0.001603
0.000000 0.762027 0.000641
0.040088 0.781289 0.000000
0.118137 0.798570 0.000000
0.230855 0.814615 0.001441
0.373711 0.763945 0.068250
0.480488 0.688751 0.157329
0.543701 0.625753 0.231749
0.609857 0.634123 0.233803
0.669424 0.647999 0.242555
0.721951 0.664135 0.255558
0.769573 0.678144 0.267316
0.811496 0.690279 0.277649
0.000051 0.816560 0.000159
0.000128 0.821430 0.000142
0.000238 0.830429 0.000031
0.000452 0.839931 0.000000
0.000653 0.850011 0.000000
0.011491 0.862132 0.000000
0.080281 0.876308 0.000000
0.181549 0.889979 0.000000
0.306088 0.894738 0.007558
0.451558 0.818755 0.094563
0.552029 0.720138 0.202175
0.607733 0.684575 0.245774
0.667340 0.690449 0.247211
0.721001 0.701660 0.254768
0.767868 0.715551 0.266355
0.812545 0.728549 0.277392
0.002105 0.906530 0.000000
0.002130 0.910536 0.000000
0.002374 0.916440 0.000000
0.002560 0.922807 0.000000
0.002640 0.929648 0.000000
0.002887 0.936865 0.000000
0.043673 0.947124 0.000000
0.135332 0.956866 0.000000
0.246574 0.965589 0.000000
0.401004 0.938116 0.036215
0.548750 0.827330 0.154232
0.609472 0.739250 0.248469
0.668611 0.735294 0.257971
0.720582 0.738957 0.258870
0.765455 0.747480 0.265424
0.810402 0.760708 0.276560
0.004601 0.990814 0.000000
0.004602 0.993830 0.000000
0.004788 0.997569 0.000000
0.006783 0.999829 0.001906
0.011240 0.999880 0.006392
0.016264 0.999934 0.011202
0.022191 0.999989 0.015792
0.101753 1.000000 0.022733
0.207417 1.000000 0.029174
0.354727 1.000000 0.035782
0.529114 0.937145 0.103965
0.623193 0.836613 0.208929
0.670619 0.780344 0.268935
0.725450 0.782584 0.269492
0.766762 0.783579 0.269744
0.807335 0.790491 0.275629
0.099909 0.099842 0.103253
0.099743 0.100785 0.103467
0.102507 0.100643 0.105871
0.128701 0.097481 0.106875
0.191286 0.087458 0.097858
0.278900 0.073529 0.083966
0.366320 0.059473 0.069464
0.455154 0.045212 0.054698
0.540109 0.031556 0.040532
0.619628 0.018784 0.027312
0.697802 0.006226 0.014325
0.767229 0.000000 0.007759
0.821541 0.000000 0.007449
0.872899 0.000000 0.007242
0.924210 0.000000 0.007114
0.975773 0.000000 0.007111
0.100049 0.099674 0.103050
0.099664 0.100251 0.102677
0.100507 0.099695 0.103856
0.113990 0.098330 0.105632
0.148796 0.091880 0.101895
0.212328 0.081788 0.092738
0.298706 0.068234 0.079313
0.396589 0.052990 0.063631
0.489110 0.038673 0.048576
0.588166 0.023267 0.032519
0.677252 0.009239 0.018031
0.754698 0.000000 0.008487
0.819003 0.000000 0.008134
0.879324 0.000000 0.007951
0.935031 0.000000 0.007883
0.987989 0.000000 0.007995
0.100888 0.101225 0.104302
0.099754 0.101586 0.103909
0.101211 0.101300 0.103991
0.113772 0.099042 0.105413
0.145443 0.093606 0.102435
0.207262 0.084149 0.094398
0.290462 0.070944 0.082243
0.395962 0.053846 0.065992
0.493761 0.037787 0.050550
0.590573 0.021831 0.035143
0.688706 0.005649 0.019327
0.765066 0.000000 0.013721
0.831537 0.000000 0.013563
0.897752 0.000000 0.013427
0.963368 0.000000 0.013166
1.000000 0.022605 0.035151
0.101746 0.105950 0.106579
0.099562 0.106036 0.106214
0.101821 0.106444 0.105816
0.116513 0.107020 0.105431
0.147728 0.104388 0.101601
0.211175 0.097750 0.093516
0.295546 0.086874 0.081508
0.400132 0.071795 0.065627
0.508375 0.055110 0.048689
0.606016 0.039252 0.033188
0.703441 0.022962 0.017616
0.796005 0.007850 0.003477
0.866148 0.004326 0.001135
0.932034 0.003324 0.001417
0.995761 0.004535 0.003993
1.000000 0.064742 0.065439
0.098062 0.123739 0.104307
0.096080 0.124116 0.104198
0.098120 0.124496 0.103105
0.114540 0.122814 0.106257
0.146543 0.131732 0.111047
0.220432 0.134912 0.095900
0.312729 0.127220 0.078251
0.416602 0.116773 0.062247
0.529606 0.103078 0.044306
0.627386 0.089471 0.028615
0.722192 0.075233 0.013279
0.813314 0.062826 0.000876
0.885321 0.059937 0.000000
0.950280 0.057863 0.000000
0.999817 0.069534 0.015452
1.000000 0.119853 0.073306
0.092938 0.151325 0.097113
0.091521 0.151411 0.097339
0.093091 0.151817 0.096875
0.109565 0.155437 0.096445
0.144759 0.156115 0.117136
0.200921 0.180231 0.127563
0.296736 0.199033 0.107507
0.410320 0.199542 0.080974
0.536017 0.188969 0.049900
0.645855 0.174275 0.023482
0.738300 0.163208 0.008325
0.823546 0.155326 0.000000
0.897525 0.152706 0.000000
0.962262 0.149995 0.000000
1.000000 0.166074 0.026061
1.000000 0.202355 0.077636
0.087166 0.183457 0.089279
0.086375 0.182807 0.089758
0.087199 0.183906 0.089482
0.101838 0.190918 0.088496
0.144066 0.212224 0.097459
0.198893 0.213187 0.133120
0.268949 0.245922 0.147355
0.369894 0.277220 0.132947
0.491229 0.293303 0.104727
0.602091 0.295274 0.077612
0.703545 0.290177 0.051555
0.805309 0.280625 0.024785
0.902187 0.269863 0.002187
0.970419 0.265947 0.000000
1.000000 0.279262 0.033165
1.000000 0.302660 0.080031
0.077346 0.237272 0.077787
0.076947 0.238346 0.077782
0.076446 0.242110 0.077312
0.088996 0.255179 0.075443
0.124998 0.294898 0.070758
0.204792 0.296571 0.106568
0.266495 0.288456 0.150526
0.346692 0.320815 0.165008
