example_ofxGpuLutCube/bin/data/ofxGpuLutCube/LUT/U32 (hard clear contrasty fade).cube
LUT_3D_SIZE 6
0.101105 0.101959 0.101959
0.126288 0.094763 0.095367
0.274298 0.038782 0.038782
0.386737 0.019043 0.019043
0.506177 0.010639 0.010639
0.577917 0.007143 0.007143
0.100140 0.099945 0.101300
0.109503 0.101743 0.100107
0.227673 0.074548 0.065912
0.355418 0.030254 0.023311
0.617710 0.009277 0.006020
0.842519 0.001915 0.000790
0.107080 0.178864 0.108759
0.152761 0.219961 0.114102
0.315201 0.256549 0.119678
0.526729 0.220939 0.056177
0.776577 0.159390 0.022810
0.998502 0.111537 0.008171
0.153051 0.412219 0.130396
0.252333 0.449193 0.137635
0.420001 0.480431 0.156018
0.576586 0.490394 0.160822
0.724232 0.471549 0.137551
0.886582 0.432491 0.103425
0.292199 0.618512 0.151807
0.382022 0.630872 0.162139
0.515207 0.647357 0.177847
0.646482 0.672212 0.182916
0.748495 0.671731 0.184056
0.842530 0.670592 0.182485
0.451382 0.746201 0.174602
0.514803 0.752887 0.181397
0.610726 0.762563 0.193109
0.692486 0.776746 0.196702
0.783984 0.793114 0.198948
0.857053 0.799665 0.198844
0.100336 0.099768 0.100952
0.126283 0.094358 0.097396
0.272298 0.041677 0.042793
0.405287 0.017570 0.017768
0.558413 0.008063 0.008159
0.641832 0.004854 0.005197
0.101431 0.101328 0.101976
0.112123 0.103556 0.101390
0.240680 0.075905 0.066193
0.395858 0.030787 0.022295
0.671389 0.009706 0.005581
0.911696 0.001868 0.000741
0.110919 0.204971 0.119712
0.152111 0.236325 0.125070
0.315165 0.272183 0.132752
0.536094 0.251280 0.068210
0.788531 0.188202 0.030555
0.998774 0.140801 0.015296
0.144583 0.447463 0.159714
0.248549 0.482804 0.164247
0.418075 0.507131 0.172580
0.580216 0.521269 0.167053
0.716500 0.504817 0.155225
0.873500 0.472089 0.120377
0.293412 0.658035 0.226442
0.383005 0.671518 0.225121
0.520203 0.682814 0.226266
0.646082 0.698303 0.215791
0.750280 0.705242 0.205350
0.844146 0.709283 0.204278
0.463422 0.802325 0.327376
0.531225 0.807272 0.328446
0.628838 0.813533 0.328221
0.708550 0.819586 0.325231
0.798080 0.832731 0.312727
0.868300 0.843323 0.308332
0.102704 0.110376 0.140503
0.105639 0.112694 0.198451
0.343142 0.080951 0.237267
0.485564 0.035783 0.166417
0.648179 0.015686 0.118140
0.743841 0.008945 0.098094
0.106327 0.140558 0.187983
0.117505 0.162651 0.220513
0.314994 0.128100 0.281825
0.515723 0.071884 0.219012
0.752857 0.035794 0.149537
0.963783 0.018323 0.103283
0.101501 0.273241 0.311897
0.131018 0.300254 0.322900
0.366500 0.340084 0.339388
0.563730 0.275385 0.257651
0.809323 0.215436 0.196950
0.999946 0.176799 0.161004
0.105890 0.527581 0.392465
0.223188 0.548994 0.399025
0.454374 0.586985 0.442313
0.622197 0.604669 0.448191
0.784468 0.602207 0.411894
0.946939 0.581863 0.354192
0.249558 0.715494 0.463306
0.386806 0.726024 0.482898
0.557934 0.765942 0.537164
0.690402 0.778559 0.541674
0.794752 0.791568 0.537994
0.891256 0.810580 0.531077
0.468123 0.846063 0.567650
0.554232 0.865740 0.606041
0.662534 0.888870 0.623166
0.752733 0.896622 0.625930
0.842374 0.902360 0.628689
0.906760 0.911343 0.625294
0.108887 0.144086 0.248181
0.122800 0.170754 0.365724
0.324792 0.105448 0.478302
0.567352 0.093434 0.473615
0.682643 0.073547 0.419730
0.777370 0.056295 0.382134
0.116699 0.222271 0.372236
0.129312 0.268216 0.443509
0.280325 0.205649 0.530313
0.614022 0.158726 0.567551
0.764507 0.132595 0.497340
0.917883 0.100533 0.434044
0.110845 0.382117 0.538453
0.128399 0.418606 0.573533
0.371467 0.481765 0.593830
0.642597 0.450821 0.649606
0.817800 0.413858 0.614538
0.973649 0.360397 0.572831
0.100128 0.585116 0.644967
0.187562 0.608681 0.651219
0.437500 0.639748 0.668138
0.667381 0.701101 0.729525
0.823771 0.678116 0.719491
0.968350 0.635697 0.671387
0.191276 0.771664 0.695007
0.333254 0.787594 0.699305
0.537681 0.814784 0.732808
0.708548 0.840339 0.773499
0.831903 0.855119 0.788879
0.931286 0.879908 0.789711
0.418404 0.900372 0.739113
0.520264 0.910936 0.760274
0.652847 0.925818 0.789897
0.770437 0.939573 0.820583
0.872794 0.956276 0.830047
0.936157 0.959551 0.835778
0.116461 0.187506 0.371741
0.132257 0.221661 0.507401
0.270239 0.126100 0.611159
0.616211 0.100995 0.666705
0.740110 0.094189 0.638463
0.825320 0.086033 0.605941
0.125560 0.302100 0.527183
0.137352 0.351753 0.603516
0.283067 0.289243 0.678854
0.643765 0.224065 0.744524
0.807838 0.194412 0.740373
0.920263 0.177838 0.715743
0.116261 0.462376 0.684720
0.135308 0.501219 0.723681
0.392781 0.576544 0.755931
0.627201 0.540777 0.799117
0.837220 0.526374 0.824806
0.949965 0.499731 0.821351
0.099918 0.629978 0.786982
0.185833 0.659206 0.801530
0.446925 0.706678 0.819719
0.681696 0.766391 0.847535
0.829735 0.752006 0.869529
0.951309 0.752189 0.880649
0.184465 0.797296 0.830897
0.333315 0.812092 0.835327
0.541456 0.837934 0.855576
0.703639 0.861906 0.876224
0.842559 0.887116 0.897037
0.946526 0.898008 0.899070
0.412171 0.923428 0.862723
0.514266 0.935956 0.875308
0.638366 0.951964 0.890590
0.757615 0.965919 0.904401
0.879447 0.977152 0.920267
0.951097 0.985589 0.928102
0.124689 0.249274 0.504967
0.139979 0.286937 0.619577
0.263515 0.170079 0.711123
0.638283 0.109831 0.779848
0.794506 0.099355 0.793237
0.880726 0.092203 0.770589
0.129995 0.368256 0.639905
0.142746 0.418283 0.711082
0.352634 0.408488 0.779957
0.634693 0.307394 0.838935
0.836196 0.273398 0.862331
0.942204 0.252559 0.859884
0.117650 0.521580 0.781446
0.143711 0.561235 0.819815
0.417687 0.642182 0.855736
0.627977 0.611817 0.889428
0.853961 0.591075 0.921236
0.958884 0.580260 0.928525
0.101580 0.669322 0.877850
0.201380 0.702788 0.895295
0.467071 0.759758 0.913191
0.702095 0.816762 0.930320
0.830505 0.798503 0.944276
0.953062 0.796872 0.956990
0.195737 0.825692 0.924707
0.345906 0.842272 0.931822
0.557585 0.870552 0.947084
0.719316 0.894354 0.957457
0.859917 0.921684 0.962730
0.941765 0.921764 0.967440
0.426560 0.938021 0.948337
0.529176 0.949133 0.954661
0.642628 0.962160 0.961369
0.760138 0.977293 0.969118
0.875688 0.991977 0.975555
0.953265 0.997642 0.978619
