example_ofxGpuLutCube/bin/data/ofxGpuLutCube/LUT/U32 (hard clear contrasty fade).cube
LUT_3D_SIZE 16
0.101105 0.101959 0.101959
0.099951 0.101788 0.101911
0.101813 0.100757 0.101135
0.126288 0.094763 0.095367
0.194617 0.075458 0.075464
0.254089 0.052490 0.052490
0.274298 0.038782 0.038782
0.289331 0.029730 0.029730
0.337952 0.023816 0.023816
0.386737 0.019043 0.019043
0.437042 0.015015 0.015015
0.478778 0.012231 0.012231
0.506177 0.010639 0.010639
0.530273 0.009357 0.009357
0.554657 0.008173 0.008173
0.577917 0.007143 0.007143
0.100946 0.101593 0.101923
0.100311 0.101421 0.101917
0.099514 0.100930 0.101626
0.102819 0.099855 0.101018
0.117090 0.096114 0.097930
0.154663 0.086145 0.087781
0.205003 0.071093 0.072178
0.253022 0.052649 0.053030
0.272664 0.040342 0.040416
0.294259 0.029109 0.029129
0.364777 0.021064 0.021064
0.424176 0.015979 0.015979
0.483835 0.011923 0.011923
0.544442 0.008660 0.008660
0.593141 0.006539 0.006539
0.628165 0.005252 0.005252
0.100397 0.100147 0.101617
0.099915 0.100254 0.101587
0.099662 0.100005 0.101530
0.104546 0.098702 0.101000
0.120939 0.094468 0.097155
0.159863 0.083972 0.086371
0.208694 0.068976 0.071074
0.253175 0.051302 0.053180
0.274838 0.036785 0.038513
0.301474 0.026819 0.028360
0.382629 0.018304 0.019623
0.460939 0.012494 0.013529
0.525136 0.008953 0.009740
0.592608 0.006094 0.006645
0.663749 0.003837 0.004182
0.725993 0.002347 0.002603
0.100140 0.099945 0.101300
0.099546 0.100614 0.101428
0.100810 0.101438 0.101714
0.109503 0.101743 0.100107
0.132639 0.098756 0.094318
0.177179 0.089203 0.082123
0.227673 0.074548 0.065912
0.266985 0.057880 0.048927
0.286231 0.041268 0.033147
0.355418 0.030254 0.023311
0.440783 0.021307 0.015643
0.539356 0.013717 0.009484
0.617710 0.009277 0.006020
0.689128 0.006206 0.003704
0.764210 0.003746 0.001965
0.842519 0.001915 0.000790
0.101001 0.106592 0.102118
0.100484 0.109618 0.102416
0.104262 0.113724 0.102978
0.116687 0.118272 0.104225
0.148254 0.124163 0.099432
0.203088 0.118628 0.082056
0.257302 0.104336 0.062510
0.294877 0.088419 0.046449
0.336877 0.070068 0.031062
0.424181 0.055868 0.021095
0.509302 0.044684 0.014215
0.606248 0.033970 0.008630
0.704310 0.024900 0.004730
0.777412 0.019238 0.002688
0.852246 0.014170 0.001214
0.930960 0.009599 0.000264
0.103455 0.128632 0.104279
0.103705 0.137219 0.105005
0.111560 0.146302 0.105951
0.131464 0.155908 0.108130
0.166791 0.165790 0.111188
0.225006 0.177887 0.104034
0.289215 0.174389 0.082184
0.336066 0.158618 0.059906
0.398468 0.135199 0.038562
0.494922 0.112677 0.023310
0.580170 0.095398 0.014282
0.671839 0.080182 0.008862
0.772754 0.065088 0.004626
0.852557 0.054199 0.002246
0.924536 0.045282 0.000702
0.996298 0.037247 0.000000
0.107080 0.178864 0.108759
0.111948 0.193502 0.110298
0.125834 0.206914 0.111556
0.152761 0.219961 0.114102
0.196738 0.231777 0.119762
0.256494 0.246301 0.123126
0.315201 0.256549 0.119678
0.375580 0.256351 0.097535
0.439790 0.241760 0.074994
0.526729 0.220939 0.056177
0.600922 0.202258 0.043481
0.683709 0.181618 0.032432
0.776577 0.159390 0.022810
0.862462 0.139793 0.015718
0.930406 0.125133 0.011268
0.998502 0.111537 0.008171
0.114484 0.247882 0.115234
0.126244 0.263161 0.116733
0.146087 0.277192 0.118024
0.179889 0.290961 0.121152
0.230709 0.304473 0.127119
0.291797 0.318463 0.132886
0.350217 0.329592 0.135581
0.400957 0.334936 0.136476
0.465807 0.335261 0.115295
0.542835 0.323897 0.096081
0.606799 0.310034 0.081854
0.677759 0.292586 0.068504
0.756931 0.271767 0.056099
0.836205 0.250692 0.045723
0.895901 0.234949 0.038936
0.958835 0.218418 0.032163
0.129834 0.326520 0.122540
0.148104 0.340477 0.123828
0.173690 0.353800 0.125048
0.213669 0.366703 0.129082
0.267289 0.379780 0.135121
0.325690 0.390900 0.142767
0.386911 0.405503 0.145325
0.441216 0.411763 0.147767
0.489250 0.412415 0.149766
0.552904 0.411219 0.137550
0.609058 0.404968 0.123352
0.670582 0.393659 0.109298
0.739636 0.377633 0.094871
0.810010 0.359203 0.082440
0.866690 0.343567 0.072904
0.919211 0.328585 0.065498
0.153051 0.412219 0.130396
0.178026 0.425438 0.131610
0.209215 0.438203 0.132782
0.252333 0.449193 0.137635
0.306701 0.460436 0.144052
0.362848 0.470117 0.150830
0.420001 0.480431 0.156018
0.482258 0.493672 0.157919
0.531526 0.494114 0.159750
0.576586 0.490394 0.160822
0.614191 0.485840 0.161090
0.663789 0.480759 0.152274
0.724232 0.471549 0.137551
0.788228 0.457981 0.122811
0.839287 0.445275 0.112627
0.886582 0.432491 0.103425
0.189301 0.486115 0.137177
0.219061 0.496912 0.138166
0.253204 0.505506 0.141217
0.296466 0.514014 0.146161
0.346368 0.523011 0.151605
0.396759 0.530518 0.157776
0.451666 0.538482 0.164307
0.509363 0.550800 0.166065
0.565417 0.560419 0.167713
0.603559 0.555768 0.168756
0.638123 0.550903 0.169250
0.676019 0.544928 0.169361
0.717120 0.537549 0.168988
0.771619 0.529419 0.157733
0.819116 0.524518 0.146722
0.861302 0.522797 0.137485
0.236169 0.555139 0.143378
0.268341 0.562816 0.145625
0.302351 0.567954 0.150166
0.340454 0.574135 0.154463
0.383242 0.580507 0.159295
0.431702 0.586981 0.165100
0.483750 0.593954 0.171179
0.536406 0.604153 0.173636
0.589308 0.614858 0.175165
0.628379 0.619448 0.176225
0.659894 0.613678 0.176801
0.695000 0.608013 0.177042
0.733238 0.604052 0.176849
0.773026 0.601135 0.176208
0.805774 0.599400 0.175447
0.840263 0.600531 0.169602
0.292199 0.618512 0.151807
0.321167 0.623511 0.154371
0.348556 0.627130 0.157647
0.382022 0.630872 0.162139
0.422879 0.636607 0.166267
0.468567 0.641931 0.171948
0.515207 0.647357 0.177847
0.564464 0.656077 0.180720
0.610173 0.665203 0.181970
0.646482 0.672212 0.182916
0.680676 0.677307 0.183752
0.712912 0.673850 0.184058
0.748495 0.671731 0.184056
0.785340 0.670477 0.183664
0.815759 0.670128 0.183102
0.842530 0.670592 0.182485
0.343902 0.672699 0.159662
0.368770 0.676079 0.162176
0.394575 0.678950 0.165315
0.426249 0.682565 0.169048
0.463780 0.687510 0.172762
0.504761 0.691852 0.177948
0.547676 0.696664 0.183311
0.591314 0.703323 0.186935
0.630099 0.711017 0.187982
0.662486 0.717277 0.188849
0.695807 0.723609 0.189667
0.729624 0.729374 0.190504
0.762252 0.728439 0.190618
0.796068 0.728647 0.190442
0.824016 0.729245 0.190074
0.849188 0.730399 0.189638
0.397241 0.710132 0.167816
0.420197 0.713275 0.169934
0.443919 0.716083 0.172578
0.471269 0.719208 0.175710
0.504147 0.723776 0.178627
0.540357 0.727173 0.183752
0.579812 0.732009 0.188091
0.615936 0.736993 0.191378
0.646492 0.742840 0.192188
0.677193 0.748633 0.192956
0.708887 0.754577 0.193762
0.741198 0.760548 0.194588
0.773094 0.764455 0.195132
0.804113 0.765402 0.195089
0.829424 0.767154 0.194909
0.853396 0.768862 0.194623
0.451382 0.746201 0.174602
0.471225 0.748289 0.176764
0.490799 0.750041 0.179145
0.514803 0.752887 0.181397
0.543730 0.755080 0.185523
0.576784 0.758651 0.189261
0.610726 0.762563 0.193109
0.636270 0.766069 0.195255
0.663617 0.771343 0.195992
0.692486 0.776746 0.196702
0.722439 0.782223 0.197470
0.753345 0.787790 0.198240
0.783984 0.793114 0.198948
0.811997 0.795280 0.199105
0.834436 0.797244 0.199026
0.857053 0.799665 0.198844
0.101068 0.101733 0.101392
0.099745 0.101618 0.101239
0.103516 0.100118 0.099848
0.136680 0.091896 0.091764
0.204562 0.072239 0.071839
0.254693 0.052185 0.052106
0.272695 0.040462 0.040440
0.284417 0.030431 0.030431
0.337894 0.023836 0.023836
0.388864 0.018861 0.018861
0.441412 0.014697 0.014697
0.486902 0.011737 0.011737
0.516011 0.010089 0.010089
0.541736 0.008793 0.008793
0.567190 0.007628 0.007628
0.591380 0.006600 0.006600
0.100977 0.101511 0.101484
0.100219 0.101335 0.101463
0.099541 0.100747 0.101005
0.104127 0.099233 0.099759
0.121501 0.094825 0.095761
0.163059 0.083680 0.084868
0.213726 0.068062 0.068876
0.256814 0.050693 0.051062
0.274544 0.038345 0.038412
0.307562 0.027365 0.027368
0.376819 0.019930 0.019930
0.437109 0.015013 0.015013
0.498157 0.011084 0.011084
0.559944 0.007939 0.007939
0.607304 0.005995 0.005995
0.642961 0.004758 0.004758
0.100677 0.100139 0.101052
0.099864 0.100156 0.100953
0.099762 0.099779 0.100810
0.105797 0.098054 0.099478
0.124194 0.093438 0.095327
0.166319 0.082034 0.084133
0.214637 0.066852 0.068891
0.257906 0.048820 0.050720
0.275974 0.035285 0.037010
0.312349 0.025474 0.027000
0.396363 0.017137 0.018370
0.472323 0.011818 0.012760
0.538218 0.008347 0.009065
0.607800 0.005555 0.006061
0.680759 0.003373 0.003694
0.741439 0.002031 0.002252
0.100471 0.099854 0.100545
0.099512 0.100406 0.100547
0.101143 0.101133 0.100731
0.110949 0.101206 0.098753
0.135553 0.097687 0.093309
0.182588 0.087378 0.080442
0.231984 0.072631 0.064260
0.270211 0.055405 0.046881
0.290903 0.039319 0.031732
0.365707 0.028673 0.022175
0.454160 0.019893 0.014642
0.553554 0.012684 0.008763
0.630946 0.008599 0.005535
0.704143 0.005656 0.003307
0.781216 0.003333 0.001660
0.861495 0.001629 0.000588
0.101202 0.106784 0.101051
0.100534 0.109416 0.101347
0.104674 0.113382 0.102259
0.117587 0.117926 0.104094
0.150599 0.123477 0.098432
0.207535 0.117113 0.080232
0.260658 0.102851 0.061227
0.297493 0.086400 0.044826
0.347567 0.067861 0.029600
0.433891 0.054364 0.020178
0.521496 0.043258 0.013410
0.621246 0.032626 0.007955
0.717410 0.024066 0.004318
0.791456 0.018582 0.002384
0.867844 0.013613 0.001008
0.947982 0.009025 0.000136
0.103857 0.129852 0.103790
0.103844 0.137882 0.104760
0.111918 0.147006 0.105944
0.132002 0.156415 0.108222
0.167969 0.166262 0.111280
0.228473 0.178864 0.103436
0.292685 0.175309 0.081537
0.339614 0.158929 0.059027
0.408927 0.134700 0.037219
0.503892 0.112727 0.022637
0.591369 0.095252 0.013660
0.685134 0.079863 0.008301
0.787042 0.064640 0.004181
0.864808 0.054234 0.001963
0.937581 0.045203 0.000482
0.999923 0.039619 0.000961
0.107581 0.181370 0.108870
0.111902 0.196205 0.110510
0.125606 0.209538 0.111786
0.152572 0.222880 0.114202
0.197591 0.235069 0.119843
0.258799 0.249725 0.123553
0.317529 0.260154 0.120780
0.379394 0.260432 0.098533
0.447039 0.245103 0.075125
0.532062 0.224680 0.057101
0.606636 0.205635 0.044498
0.690812 0.184530 0.033106
0.784978 0.161752 0.023208
0.869574 0.142159 0.015940
0.937348 0.127619 0.011620
0.999776 0.116122 0.009828
0.114347 0.253255 0.115615
0.125562 0.268741 0.117248
0.144982 0.282872 0.118545
0.178701 0.297210 0.121324
0.230666 0.310847 0.127555
0.292490 0.324613 0.133755
0.352959 0.336696 0.136358
0.404509 0.341778 0.138176
0.469906 0.342561 0.118541
0.545984 0.331745 0.098908
0.610279 0.317873 0.084468
0.681509 0.300224 0.071014
0.760974 0.279161 0.058364
0.840602 0.257640 0.047307
0.898713 0.242326 0.040769
0.960533 0.226082 0.034254
0.128633 0.332991 0.123134
0.146370 0.346969 0.124421
0.171604 0.360387 0.125648
0.211651 0.374037 0.129280
0.266351 0.386927 0.135847
0.325273 0.398479 0.143091
0.386930 0.412578 0.146326
0.444595 0.420329 0.148718
0.493910 0.420859 0.150821
0.553517 0.419452 0.141936
0.609640 0.413790 0.127842
0.672157 0.402645 0.112727
0.741111 0.386623 0.098277
0.810668 0.368381 0.085814
0.865542 0.353130 0.076615
0.918737 0.338081 0.068623
0.150584 0.419785 0.131091
0.175201 0.432780 0.132281
0.206262 0.445553 0.133450
0.249801 0.456808 0.138106
0.304458 0.468208 0.144301
0.360922 0.477780 0.151043
0.418787 0.487417 0.157011
0.482275 0.500903 0.158945
0.534563 0.503170 0.160760
0.578858 0.499485 0.161884
0.616745 0.494800 0.162227
0.662829 0.489149 0.157086
0.723922 0.480418 0.141622
0.786846 0.467319 0.127229
0.837687 0.454711 0.116381
0.884534 0.442246 0.107296
0.185956 0.494013 0.137909
0.215566 0.504783 0.138878
0.249926 0.513866 0.141532
0.293276 0.522135 0.146502
0.343162 0.530643 0.152125
0.394098 0.537909 0.158508
0.450117 0.546294 0.164701
0.508396 0.558014 0.167102
0.566602 0.569597 0.168811
0.604662 0.565744 0.169849
0.639514 0.561072 0.170453
0.677642 0.554681 0.170551
0.719055 0.547035 0.170223
0.768520 0.538940 0.163349
0.814987 0.536890 0.152453
0.856948 0.535626 0.143155
0.232940 0.562505 0.144009
0.265360 0.570370 0.146084
0.298692 0.575932 0.149914
0.336997 0.581654 0.154483
0.380284 0.588079 0.159152
0.429541 0.594656 0.164824
0.482429 0.601268 0.171286
0.535183 0.610578 0.174531
0.587657 0.621111 0.176050
0.628131 0.628210 0.177170
0.659818 0.623028 0.177764
0.695239 0.618291 0.178080
0.733827 0.614690 0.177919
0.773694 0.612122 0.177368
0.806114 0.610920 0.176693
0.836010 0.610716 0.174876
0.289358 0.626167 0.151648
0.317683 0.630885 0.154180
0.345290 0.634173 0.157720
0.379064 0.638414 0.161681
0.420445 0.643616 0.166333
0.466601 0.649347 0.171478
0.514012 0.654218 0.177870
0.563248 0.662064 0.181490
0.608513 0.670992 0.182726
0.644708 0.677861 0.183672
0.679682 0.684272 0.184544
0.712255 0.682018 0.184924
0.748197 0.680480 0.185031
0.785202 0.679880 0.184746
0.815411 0.679944 0.184250
0.842336 0.680611 0.183673
0.341149 0.681160 0.159447
0.366235 0.684107 0.161696
0.392220 0.686199 0.165303
0.424136 0.690041 0.168583
0.461980 0.694108 0.173055
0.503427 0.698190 0.178526
0.547045 0.703763 0.183057
0.590178 0.709215 0.187713
0.628523 0.716723 0.188723
0.661079 0.722926 0.189576
0.694513 0.729136 0.190415
0.728610 0.735187 0.191223
0.761535 0.735478 0.191462
0.795418 0.735991 0.191362
0.823234 0.737030 0.191081
0.848523 0.738376 0.190682
0.396624 0.722557 0.174513
0.419608 0.724759 0.175380
0.443116 0.726688 0.176592
0.470839 0.729258 0.177829
0.503382 0.732082 0.179726
0.539970 0.734795 0.183378
0.579424 0.738115 0.188433
0.614799 0.742336 0.192088
0.645324 0.748136 0.192876
0.676111 0.753912 0.193656
0.707819 0.759802 0.194464
0.740412 0.765721 0.195265
0.772823 0.770912 0.195972
0.803310 0.772004 0.195968
0.828424 0.773856 0.195860
0.852512 0.775935 0.195607
0.452865 0.762458 0.199141
0.472989 0.763042 0.200034
0.492649 0.764608 0.199768
0.516689 0.766767 0.199141
0.545696 0.768270 0.199463
0.578560 0.770602 0.199289
0.611288 0.772852 0.199367
0.636043 0.774365 0.200110
0.663208 0.778579 0.198539
0.691765 0.782680 0.197859
0.721718 0.787518 0.198353
0.752734 0.792720 0.198803
0.783444 0.797940 0.199593
0.811253 0.800987 0.199932
0.833226 0.802909 0.199867
0.856021 0.805529 0.199740
0.100580 0.100567 0.099768
0.099813 0.100943 0.099877
0.103157 0.100204 0.098927
0.130365 0.093467 0.091697
0.191571 0.076487 0.074209
0.249939 0.054840 0.052838
0.271822 0.041580 0.039990
0.283448 0.031003 0.029820
0.341535 0.023561 0.022655
0.394300 0.018488 0.017786
0.448303 0.014276 0.013739
0.499370 0.011061 0.010615
0.531816 0.009336 0.008917
0.558531 0.008065 0.007636
0.584783 0.006913 0.006504
0.611024 0.005917 0.005459
0.100707 0.100588 0.100052
0.100113 0.100587 0.100080
0.099655 0.100472 0.099871
0.104966 0.098823 0.098279
0.124142 0.093813 0.093261
0.168298 0.081713 0.081041
0.220045 0.065408 0.064511
0.259593 0.048935 0.047764
0.275931 0.036577 0.035323
0.321798 0.025791 0.024757
0.394639 0.018466 0.017677
0.455980 0.013788 0.013155
0.518383 0.010052 0.009532
0.581040 0.007112 0.006672
0.628733 0.005300 0.004916
0.665347 0.004133 0.003761
0.100924 0.099565 0.099470
0.099864 0.099698 0.099730
0.099879 0.099496 0.099622
0.106173 0.097844 0.097816
0.125884 0.092994 0.092681
0.170647 0.080855 0.080241
0.219929 0.064999 0.064373
0.261404 0.046581 0.046301
0.276076 0.033431 0.033500
0.326657 0.023715 0.024028
0.414257 0.015594 0.016017
0.490472 0.010602 0.011024
0.557804 0.007306 0.007627
0.629302 0.004683 0.004898
0.704367 0.002680 0.002798
0.765237 0.001513 0.001560
0.100907 0.100056 0.099413
0.099620 0.100642 0.099598
0.101056 0.101461 0.099747
0.111082 0.102225 0.097643
0.137514 0.098638 0.090614
0.187676 0.087883 0.076873
0.237041 0.073012 0.060790
0.274248 0.055414 0.043718
0.299326 0.039571 0.029553
0.378958 0.028934 0.020575
0.469429 0.020027 0.013434
0.568973 0.012904 0.007978
0.646829 0.008783 0.004953
0.721320 0.005786 0.002850
0.799823 0.003406 0.001334
0.881306 0.001647 0.000389
0.102053 0.108683 0.100388
0.100583 0.111012 0.100612
0.104569 0.114352 0.100963
0.117431 0.118490 0.102244
0.150476 0.124729 0.097213
0.210286 0.120174 0.078894
0.264721 0.105794 0.058885
0.301726 0.089286 0.043003
0.357787 0.070720 0.028526
0.444278 0.057030 0.019522
0.533281 0.045431 0.012897
0.634583 0.034267 0.007563
0.729713 0.025549 0.004094
0.804513 0.019786 0.002199
0.881984 0.014561 0.000854
0.962971 0.009694 0.000038
0.104389 0.135272 0.102930
0.103826 0.141096 0.103534
0.111892 0.149319 0.104255
0.131718 0.158406 0.106320
0.167427 0.167907 0.109471
0.228272 0.181867 0.103894
0.293679 0.181367 0.083678
0.343240 0.166436 0.061231
0.415197 0.142197 0.039128
0.508573 0.120371 0.024579
0.597503 0.101843 0.014850
0.695864 0.084208 0.008063
0.798220 0.068373 0.003979
0.874954 0.057677 0.001807
0.948458 0.048303 0.000338
1.000000 0.045257 0.002209
0.109147 0.190741 0.108216
0.111685 0.201177 0.109334
0.125178 0.213945 0.110304
0.151750 0.226988 0.112442
0.196792 0.238959 0.118274
0.257661 0.253295 0.123197
0.315315 0.264306 0.123906
0.380139 0.267660 0.102412
0.449472 0.254019 0.078761
0.533739 0.234069 0.060145
0.608919 0.214799 0.047058
0.693268 0.193465 0.035521
0.787804 0.170186 0.025229
0.869645 0.150926 0.018069
0.937934 0.135986 0.013377
0.999593 0.124459 0.011622
0.114659 0.263342 0.115262
0.125006 0.276633 0.116609
0.144028 0.290385 0.117463
0.177540 0.304526 0.119736
0.229426 0.317365 0.126392
0.290388 0.329685 0.133972
0.352004 0.342549 0.136832
0.404862 0.348356 0.139851
0.470061 0.351236 0.123440
0.545405 0.342547 0.103841
0.609402 0.329622 0.089612
0.681724 0.312117 0.075096
0.760869 0.291358 0.062445
0.838116 0.270396 0.051534
0.896494 0.254832 0.044455
0.958219 0.238408 0.037618
0.127800 0.343324 0.123668
0.145096 0.356415 0.124415
0.170099 0.369366 0.124998
0.210048 0.382674 0.127827
0.264694 0.394715 0.134653
0.323143 0.405105 0.142567
0.384046 0.417836 0.147068
0.444828 0.427432 0.149382
0.495616 0.428979 0.151740
0.550484 0.428175 0.147964
0.607489 0.424043 0.133094
0.669640 0.413940 0.118398
0.739008 0.398581 0.103387
0.808622 0.380347 0.090309
0.862199 0.365679 0.081113
0.915080 0.350774 0.073016
0.149226 0.430907 0.132998
0.173392 0.443388 0.133175
0.204347 0.455439 0.133392
0.247825 0.466343 0.136778
0.302361 0.475855 0.143574
0.358375 0.484296 0.150713
0.416114 0.492730 0.157768
0.479928 0.506126 0.159685
0.534889 0.510531 0.161495
0.578731 0.507792 0.162807
0.617077 0.503549 0.163257
0.660310 0.497947 0.161569
0.720705 0.490369 0.146983
0.783836 0.478177 0.132158
0.833812 0.466428 0.121325
0.880272 0.454436 0.112324
0.184131 0.506396 0.142505
0.213779 0.516683 0.142052
0.247726 0.525757 0.142499
0.291345 0.532632 0.146417
0.340717 0.539570 0.151275
0.392010 0.546173 0.157428
0.448078 0.552774 0.164844
0.506512 0.563855 0.167931
0.564943 0.575504 0.169597
0.603804 0.574014 0.170672
0.639105 0.569891 0.171411
0.677754 0.564134 0.171680
0.719652 0.556908 0.171490
0.764508 0.549738 0.169069
0.811083 0.550024 0.157538
0.852925 0.549592 0.148172
0.231757 0.575360 0.153207
0.263874 0.583419 0.152465
0.296987 0.588144 0.154399
0.335254 0.592959 0.156899
0.378805 0.598399 0.159587
0.428218 0.602720 0.164787
0.481165 0.608197 0.171145
0.533844 0.616405 0.174927
0.585718 0.626437 0.176796
0.626256 0.634166 0.177904
0.658760 0.631035 0.178534
0.694631 0.627335 0.178974
0.733716 0.624453 0.178941
0.773763 0.622469 0.178470
0.805962 0.621798 0.177849
0.834910 0.621633 0.177102
0.288729 0.641364 0.166694
0.316814 0.644600 0.167912
0.344734 0.647718 0.169021
0.378817 0.650957 0.170809
0.420465 0.655169 0.172541
0.466037 0.658666 0.175586
0.513632 0.662957 0.178406
0.562375 0.668445 0.182007
0.606950 0.676478 0.182954
0.642961 0.682917 0.184321
0.678013 0.689299 0.185204
0.711282 0.689271 0.185695
0.747601 0.688261 0.185904
0.784784 0.688204 0.185718
0.814765 0.688815 0.185314
0.841920 0.689708 0.184773
0.341526 0.697491 0.187046
0.367229 0.699752 0.187846
0.393759 0.702044 0.188627
0.425899 0.704469 0.189706
0.463780 0.707806 0.190270
0.504735 0.710760 0.191301
0.548099 0.714613 0.191510
0.590320 0.717873 0.192622
0.627586 0.723990 0.190946
0.659995 0.729117 0.190747
0.693347 0.734642 0.190990
0.727501 0.740175 0.191702
0.760587 0.741644 0.192217
0.794610 0.742687 0.192240
0.822182 0.744187 0.192022
0.847661 0.745883 0.191681
0.399376 0.740289 0.216282
0.422881 0.742175 0.216554
0.446585 0.743672 0.217041
0.474715 0.745947 0.216887
0.507448 0.748849 0.216025
0.544251 0.751149 0.215506
0.583446 0.753374 0.214744
0.617666 0.755852 0.213528
0.647072 0.759898 0.210783
0.677324 0.764642 0.207459
0.708568 0.769443 0.204331
0.740628 0.774218 0.201522
0.772725 0.778735 0.199438
0.802587 0.779652 0.198312
0.827498 0.781771 0.198356
0.851650 0.784298 0.198359
0.457385 0.780406 0.253644
0.477894 0.781817 0.253378
0.498217 0.782719 0.253478
0.522666 0.784689 0.252633
0.552466 0.787141 0.251398
0.585781 0.788526 0.250968
0.618113 0.791022 0.248895
0.642863 0.791881 0.248443
0.669171 0.794570 0.245983
0.697444 0.798753 0.241648
0.726863 0.803001 0.237147
0.757256 0.807364 0.232545
0.786816 0.811352 0.227868
0.814125 0.814907 0.223991
0.835031 0.816666 0.223175
0.858061 0.819964 0.224210
0.100336 0.099768 0.100952
0.099695 0.100050 0.100359
0.102351 0.100104 0.101504
0.126283 0.094358 0.097396
0.185597 0.078215 0.080780
0.246161 0.056756 0.058490
0.272298 0.041677 0.042793
0.283931 0.031022 0.031677
0.348897 0.022826 0.023182
0.405287 0.017570 0.017768
0.462256 0.013348 0.013464
0.520757 0.009911 0.009979
0.558413 0.008063 0.008159
0.585856 0.006893 0.007047
0.613362 0.005829 0.006077
0.641832 0.004854 0.005197
0.100547 0.099611 0.099919
0.099791 0.099697 0.099898
0.099745 0.099841 0.100299
0.107059 0.098169 0.099923
0.130870 0.091998 0.094675
0.179028 0.078529 0.081366
0.230670 0.061503 0.063776
0.266022 0.045176 0.046518
0.277962 0.033254 0.033928
0.344706 0.023180 0.023482
0.420996 0.016309 0.016481
0.484642 0.011951 0.012139
0.549775 0.008477 0.008671
0.614151 0.005810 0.006027
0.662709 0.004222 0.004517
0.699221 0.003219 0.003655
0.100837 0.099424 0.100512
0.099659 0.099666 0.100527
0.099986 0.099776 0.100775
0.107855 0.098084 0.100526
0.129843 0.092909 0.096043
0.176698 0.080469 0.083769
0.226839 0.064241 0.067420
0.267252 0.045406 0.048294
0.279893 0.032197 0.034826
0.348253 0.022330 0.024767
0.441171 0.014169 0.016260
0.519832 0.009346 0.011181
0.590022 0.006177 0.007789
0.664099 0.003719 0.005093
0.741309 0.001930 0.003032
0.802611 0.000973 0.001918
0.101431 0.101328 0.101976
0.099700 0.101967 0.102218
0.101062 0.102840 0.102472
0.112123 0.103556 0.101390
0.137990 0.100570 0.095977
0.190037 0.090459 0.082780
0.240680 0.075905 0.066193
0.278518 0.057969 0.047603
0.312155 0.041818 0.032144
0.395858 0.030787 0.022295
0.490448 0.021478 0.014507
0.592042 0.014057 0.008712
0.671389 0.009706 0.005581
0.747926 0.006480 0.003412
0.828383 0.003874 0.001808
0.911696 0.001868 0.000741
0.102526 0.112135 0.105243
0.100854 0.114680 0.105409
0.104551 0.117748 0.106141
0.118523 0.122119 0.107895
0.150181 0.128330 0.104020
0.212052 0.125653 0.086421
0.268390 0.112630 0.065826
0.307545 0.095949 0.047845
0.371728 0.076908 0.031621
0.459883 0.062830 0.021747
0.551780 0.050517 0.014419
0.656029 0.038483 0.008533
0.750126 0.029300 0.004919
0.825836 0.022978 0.002921
0.904453 0.017123 0.001495
0.986577 0.011608 0.000558
0.105475 0.143671 0.110718
0.104128 0.149187 0.111391
0.112037 0.156177 0.113043
0.132436 0.164906 0.114963
0.167762 0.173614 0.117843
0.228015 0.188086 0.113275
0.296007 0.190851 0.092795
0.349294 0.177727 0.068756
0.424692 0.154678 0.045403
0.516681 0.133621 0.030167
0.606592 0.114368 0.019086
0.708852 0.094573 0.010252
0.813717 0.076763 0.004800
0.889424 0.065591 0.002552
0.963047 0.055514 0.001078
1.000000 0.056267 0.005342
0.110919 0.204971 0.119712
0.110740 0.213755 0.120968
0.125342 0.223794 0.123654
0.152111 0.236325 0.125070
0.197587 0.248185 0.129068
0.258195 0.261395 0.131426
0.315165 0.272183 0.132752
0.383315 0.279794 0.112071
0.453982 0.269368 0.087483
0.536094 0.251280 0.068210
0.610818 0.232836 0.054335
0.695218 0.211373 0.041526
0.788531 0.188202 0.030555
0.867027 0.169227 0.023051
0.933818 0.154164 0.018206
0.998774 0.140801 0.015296
0.117174 0.280117 0.130742
0.122885 0.291701 0.133009
0.144509 0.302755 0.136196
0.177989 0.317216 0.136877
0.230324 0.330082 0.140673
0.290974 0.340951 0.145361
0.353334 0.354032 0.144622
0.408375 0.360120 0.145597
