example_ofxGpuLutCube/bin/data/ofxGpuLutCube/LUT/U33 (warm contrasty teal fade).cube
LUT_3D_SIZE 16
0.000000 0.000000 0.000000
0.021393 0.002899 0.002350
0.062898 0.008026 0.005737
0.110933 0.008728 0.008606
0.170565 0.000793 0.010101
0.242252 0.000000 0.011688
0.320989 0.000000 0.011902
0.414496 0.000000 0.010864
0.507134 0.000000 0.007965
0.596399 0.000000 0.004334
0.676326 0.000000 0.000000
0.744320 0.000000 0.000000
0.800626 0.000000 0.000000
0.849790 0.000000 0.000000
0.890227 0.000000 0.006714
0.920711 0.000000 0.033634
0.008667 0.025635 0.013733
0.018952 0.025849 0.013977
0.065919 0.032258 0.008789
0.117922 0.028077 0.009766
0.177981 0.017792 0.010986
0.247807 0.000000 0.011536
0.331731 0.000000 0.010986
0.424506 0.000000 0.009033
0.513909 0.000000 0.005707
0.601740 0.000000 0.001923
0.679530 0.000000 0.000000
0.745632 0.000000 0.000000
0.800259 0.000000 0.000000
0.848844 0.000000 0.000000
0.888975 0.000000 0.003601
0.920185 0.061121 0.032727
0.019257 0.057252 0.025666
0.032410 0.051972 0.027619
0.048402 0.054597 0.025086
0.113710 0.066011 0.014588
0.191897 0.058412 0.009491
0.266850 0.040497 0.009094
0.350225 0.006317 0.007477
0.438819 0.000000 0.004944
0.525566 0.000000 0.001221
0.611872 0.000000 0.000000
0.685756 0.000000 0.000000
0.748348 0.000000 0.000000
0.800565 0.000000 0.000000
0.848234 0.000000 0.000000
0.887510 0.004669 0.000000
0.918932 0.134675 0.031391
0.029877 0.098146 0.040589
0.049409 0.092439 0.043397
0.066316 0.090120 0.044404
0.092744 0.094820 0.039826
0.168399 0.110292 0.023957
0.277623 0.110903 0.005829
0.369360 0.093507 0.000000
0.454963 0.065644 0.000000
0.541100 0.018372 0.000000
0.621515 0.000000 0.000000
0.689845 0.000000 0.000000
0.748531 0.000000 0.000000
0.799405 0.000000 0.000000
0.844175 0.059266 0.000000
0.881132 0.131136 0.000000
0.912100 0.193405 0.022388
0.057710 0.146334 0.060761
0.077180 0.143282 0.063905
0.101808 0.139437 0.069764
0.122072 0.142184 0.067811
0.155734 0.148104 0.061585
0.237827 0.167788 0.041474
0.373419 0.181888 0.001129
0.490242 0.174197 0.000000
0.576654 0.162753 0.000000
0.649897 0.154208 0.000000
0.711147 0.152010 0.000000
0.764401 0.161257 0.000000
0.811429 0.182010 0.000000
0.852232 0.212680 0.000000
0.885954 0.247745 0.000000
0.912481 0.282248 0.034080
0.094270 0.204837 0.085725
0.112886 0.203738 0.088991
0.138430 0.199863 0.094636
0.162783 0.194217 0.099641
0.184970 0.199069 0.093568
0.222446 0.204807 0.085389
0.304356 0.226474 0.065248
0.447211 0.257084 0.006195
0.571984 0.268132 0.000000
0.663600 0.271977 0.000000
0.718929 0.271977 0.000000
0.768215 0.277867 0.000000
0.811368 0.289799 0.000000
0.849027 0.308476 0.000000
0.880888 0.330999 0.000000
0.906901 0.355743 0.048370
0.134859 0.270176 0.114717
0.151888 0.269413 0.118105
0.175540 0.265690 0.123201
0.203891 0.257786 0.130190
0.226108 0.256352 0.130739
0.253727 0.262882 0.123384
0.296178 0.270054 0.114473
0.373571 0.290806 0.095399
0.509453 0.331029 0.028931
0.631525 0.357763 0.000000
0.711452 0.370031 0.000000
0.768887 0.378820 0.000000
0.808774 0.384283 0.000000
0.843961 0.394537 0.000000
0.874296 0.408270 0.000000
0.899916 0.425159 0.078433
0.176791 0.337255 0.148409
0.192782 0.338140 0.152468
0.215946 0.336095 0.158145
0.244297 0.329503 0.165072
0.272679 0.319158 0.173465
0.292790 0.322179 0.167086
0.321569 0.326177 0.156985
0.362493 0.331243 0.145266
0.427436 0.345953 0.128511
0.556542 0.395392 0.075990
0.666804 0.431586 0.000000
0.744259 0.451484 0.000000
0.801144 0.463355 0.000000
0.836606 0.467872 0.000000
0.865415 0.474067 0.014710
0.890764 0.485639 0.117252
0.215763 0.392554 0.182345
0.227512 0.391180 0.184665
0.247868 0.389380 0.189822
0.274205 0.384771 0.196628
0.303807 0.377844 0.205600
0.328985 0.373022 0.211307
0.352850 0.380041 0.204562
0.386236 0.387213 0.196048
0.429175 0.395148 0.186099
0.484932 0.406561 0.173983
0.606622 0.464973 0.139162
0.703822 0.503655 0.094392
0.776089 0.525109 0.035401
0.824796 0.535363 0.033509
0.861234 0.542809 0.113832
0.883955 0.547824 0.188488
0.268284 0.457374 0.232273
0.276677 0.455116 0.233402
0.292760 0.452216 0.236759
0.315404 0.447852 0.242222
0.342168 0.441535 0.250034
0.369574 0.433265 0.259678
0.391852 0.435096 0.260227
0.417365 0.442176 0.253605
0.450935 0.449866 0.245640
0.491829 0.457374 0.235996
0.536034 0.463111 0.226078
0.642908 0.519341 0.207675
0.727596 0.555200 0.189548
0.793698 0.576623 0.171664
0.839597 0.587671 0.183261
0.873133 0.596493 0.250363
0.324651 0.517876 0.290043
0.331579 0.516106 0.291051
0.344091 0.513420 0.293400
0.362921 0.509575 0.297734
0.386358 0.504234 0.304051
0.411292 0.497475 0.312505
0.435340 0.489906 0.322087
0.454719 0.495674 0.316594
0.480140 0.502098 0.310185
0.511376 0.508507 0.302342
0.547601 0.514855 0.292760
0.585412 0.519188 0.282444
0.673365 0.566155 0.280339
0.748013 0.600153 0.281621
0.805783 0.619226 0.281010
0.848776 0.629136 0.295935
0.384588 0.571527 0.353704
0.389654 0.570123 0.354467
0.399207 0.568017 0.356298
0.413519 0.564477 0.359106
0.431830 0.559503 0.363165
0.452430 0.553521 0.369146
0.473701 0.546441 0.376837
0.491737 0.543511 0.380011
0.510246 0.548425 0.374487
0.533135 0.553155 0.367559
0.560693 0.558068 0.359533
0.592370 0.563012 0.350774
0.625727 0.566918 0.342016
0.697475 0.604883 0.349859
0.763180 0.636500 0.364477
0.814784 0.655806 0.379463
0.423041 0.603937 0.397650
0.428016 0.603479 0.399115
0.437903 0.603632 0.403540
0.452033 0.602808 0.408942
0.470283 0.601770 0.416846
0.490181 0.599298 0.425116
0.511528 0.596674 0.435859
0.531823 0.592737 0.447028
0.549371 0.597375 0.450019
0.568505 0.603784 0.448798
0.591821 0.611109 0.448280
0.617884 0.617853 0.446021
0.647303 0.625147 0.444495
0.676173 0.629236 0.439429
0.729213 0.655360 0.452766
0.780696 0.677566 0.465304
0.496529 0.656275 0.483528
0.491279 0.650568 0.474495
0.493690 0.647456 0.472145
0.502342 0.645594 0.474220
0.516014 0.644648 0.480110
0.531823 0.642756 0.486732
0.549126 0.640742 0.495155
0.566766 0.638117 0.504631
0.583825 0.637079 0.514519
0.597650 0.642206 0.513909
0.614954 0.648066 0.514122
0.634363 0.653346 0.512596
0.656794 0.659052 0.511528
0.680354 0.663355 0.507347
0.704341 0.665705 0.501549
0.745974 0.684498 0.514087
0.550408 0.693507 0.549187
0.545678 0.689021 0.541375
0.546166 0.686091 0.538079
0.551720 0.684260 0.538720
0.561425 0.683162 0.542473
0.573541 0.681849 0.547784
0.587762 0.680659 0.555108
0.602167 0.678828 0.562646
0.616968 0.676967 0.571740
0.629145 0.678157 0.576074
0.641962 0.682979 0.576867
0.656855 0.687922 0.577417
0.674769 0.693751 0.579278
0.693965 0.698848 0.579614
0.714748 0.703334 0.578576
0.734628 0.704905 0.573500
0.604640 0.729461 0.616049
0.600393 0.725820 0.609475
0.600277 0.723585 0.606662
0.604260 0.722299 0.607182
0.611488 0.721623 0.610271
0.620733 0.720914 0.614584
0.631934 0.720419 0.620640
0.643951 0.719797 0.627604
0.657000 0.719567 0.636335
0.669872 0.719427 0.645805
0.681088 0.724401 0.650315
0.693594 0.730040 0.654218
0.708789 0.736835 0.660218
0.725387 0.743593 0.666053
0.744387 0.751282 0.673807
0.765314 0.759613 0.683029
0.000000 0.001740 0.018494
0.020752 0.006500 0.018799
0.063264 0.007538 0.019104
0.113008 0.010285 0.015656
0.173098 0.008179 0.016266
0.244633 0.000000 0.013916
0.327459 0.000000 0.011139
0.419287 0.000000 0.009400
0.509087 0.000000 0.006195
0.597864 0.000000 0.002045
0.676905 0.000000 0.000000
0.743099 0.000000 0.000000
0.798001 0.000000 0.000000
0.846799 0.000000 0.000000
0.887114 0.000000 0.003723
0.918565 0.005800 0.030281
0.000092 0.033387 0.027771
0.026368 0.033631 0.026337
0.067109 0.033875 0.024048
0.119600 0.032197 0.021424
0.181247 0.025147 0.019287
0.253788 0.009003 0.015717
0.339025 0.000000 0.010742
0.429938 0.000000 0.007294
0.518120 0.000000 0.003998
0.606439 0.000000 0.000000
0.682521 0.000000 0.000000
0.746212 0.000000 0.000000
0.799100 0.000000 0.000000
0.846738 0.000000 0.000000
0.886229 0.000000 0.001099
0.917892 0.071212 0.029166
0.015290 0.070436 0.037476
0.039673 0.067567 0.039338
0.059968 0.065736 0.038361
0.129519 0.072663 0.027466
0.198276 0.065370 0.022309
0.274144 0.051942 0.017548
0.357977 0.023804 0.011322
0.446998 0.000000 0.003296
0.535668 0.000000 0.000000
0.618952 0.000000 0.000000
0.689265 0.000000 0.000000
0.749050 0.000000 0.000000
0.800076 0.000000 0.000000
0.846616 0.000000 0.000000
0.885100 0.028717 0.000000
0.916279 0.137544 0.027736
0.034333 0.114290 0.054200
0.059297 0.109804 0.055970
0.082551 0.102724 0.059571
0.106752 0.106386 0.054017
0.186740 0.121218 0.037568
0.290776 0.117342 0.018799
0.376898 0.102083 0.010193
0.465034 0.080476 0.000397
0.551171 0.048157 0.000000
0.629084 0.006043 0.000000
0.695155 0.000000 0.000000
0.751736 0.000000 0.000000
0.802426 0.023590 0.000000
0.845914 0.091127 0.000000
0.881621 0.146609 0.000000
0.911350 0.199843 0.021632
0.063966 0.159426 0.071931
0.084504 0.155947 0.074220
0.110475 0.149325 0.078431
0.130983 0.147768 0.078492
0.161044 0.151858 0.071778
0.243107 0.171359 0.053742
0.373175 0.182712 0.016327
0.484718 0.173892 0.000000
0.566705 0.163302 0.000000
0.641932 0.157534 0.000000
0.705196 0.158175 0.000000
0.759792 0.167056 0.000000
0.807889 0.187259 0.000000
0.849271 0.215579 0.000000
0.883452 0.248875 0.000000
0.911006 0.283287 0.030304
0.098787 0.215305 0.094789
0.117464 0.212863 0.097475
0.143160 0.207034 0.101686
0.170199 0.198276 0.108675
0.190799 0.202670 0.102480
0.226841 0.208255 0.094850
0.309056 0.229679 0.075105
0.447852 0.257359 0.022339
0.567376 0.265446 0.000000
0.654292 0.267338 0.000000
0.712764 0.269871 0.000000
0.764309 0.278660 0.000000
0.808133 0.290623 0.000000
0.846189 0.307836 0.000000
0.878477 0.329320 0.000000
0.905578 0.354638 0.043476
0.138888 0.280827 0.123751
0.155825 0.279240 0.126864
0.180423 0.273716 0.130800
0.209018 0.264805 0.137026
0.232425 0.260136 0.139406
0.258122 0.265721 0.131807
0.298039 0.271458 0.122225
0.374975 0.292119 0.103334
0.510094 0.331395 0.046693
0.628656 0.355810 0.000000
0.708614 0.367102 0.000000
0.763577 0.374609 0.000000
0.805386 0.382025 0.000000
0.841001 0.391730 0.000000
0.871824 0.405066 0.000000
0.898411 0.422832 0.071755
0.179385 0.344213 0.156008
0.194491 0.343816 0.159396
0.216587 0.339544 0.163516
0.245274 0.332006 0.169528
0.274418 0.321141 0.177584
0.294926 0.322454 0.173281
0.323522 0.327520 0.163943
0.364202 0.332891 0.152804
0.429999 0.348455 0.136049
0.557183 0.396094 0.088869
0.666377 0.430640 0.000000
0.742061 0.449256 0.000000
0.799405 0.461341 0.000000
0.834470 0.465583 0.000000
0.863066 0.470405 0.000366
0.888203 0.479832 0.102908
0.221347 0.402747 0.192874
0.233371 0.400427 0.194736
0.252232 0.397253 0.198581
0.278508 0.391272 0.204196
0.307897 0.383185 0.212314
0.333898 0.376196 0.219303
0.357275 0.383062 0.212650
0.389471 0.390051 0.204044
0.431464 0.397253 0.193820
0.487800 0.409369 0.181521
0.607660 0.466224 0.149447
0.703822 0.503746 0.109285
0.774746 0.524285 0.065705
0.823819 0.535027 0.066651
0.860807 0.542382 0.111818
0.883981 0.548153 0.189254
0.271641 0.463752 0.240848
0.280705 0.461463 0.241978
0.296757 0.458259 0.244877
0.319280 0.453468 0.249943
0.346563 0.446876 0.257237
0.374151 0.438453 0.266636
0.395544 0.437781 0.267521
0.420203 0.444160 0.260502
0.452735 0.451362 0.252415
0.492653 0.458320 0.242496
0.535607 0.463325 0.231662
0.643091 0.519707 0.214969
0.727474 0.555413 0.198581
0.793515 0.576745 0.182589
0.839017 0.588006 0.196689
0.873248 0.596648 0.251132
0.327855 0.522515 0.297612
0.335424 0.521233 0.299016
0.348180 0.518456 0.301366
0.366674 0.514275 0.305150
0.389593 0.508476 0.310857
0.414252 0.500938 0.318303
0.437903 0.492103 0.327520
0.456489 0.496803 0.322026
0.481361 0.502922 0.315648
0.511711 0.508995 0.307225
0.547478 0.515068 0.297704
0.584955 0.519066 0.287022
0.672786 0.565606 0.284459
0.747127 0.599145 0.285222
0.805173 0.618585 0.285649
0.848619 0.628314 0.293686
0.386175 0.574121 0.359289
0.391547 0.572839 0.360052
0.400549 0.570153 0.361028
0.414740 0.566491 0.363622
0.433082 0.561761 0.367834
0.454017 0.555566 0.373541
0.475441 0.548577 0.381170
0.493538 0.544549 0.384741
0.511009 0.548669 0.378363
0.533043 0.552819 0.370489
0.559777 0.557061 0.361822
0.590753 0.561547 0.352178
0.623560 0.564691 0.342138
0.695735 0.602777 0.349340
0.761501 0.633967 0.362188
0.813558 0.653454 0.376358
0.427832 0.608423 0.406195
0.432563 0.607874 0.407446
0.441901 0.607477 0.410956
0.455299 0.606226 0.415717
0.472694 0.604578 0.422431
0.492348 0.601984 0.430304
0.513878 0.599268 0.440803
0.533989 0.595087 0.451514
0.551202 0.598718 0.454810
0.569665 0.604791 0.453223
0.592462 0.611688 0.451881
0.618189 0.618280 0.449500
0.647517 0.625605 0.447974
0.676204 0.629694 0.443214
0.729732 0.656336 0.456977
0.781366 0.678845 0.470754
0.499214 0.658747 0.488899
0.494728 0.653468 0.480690
0.497047 0.650507 0.478401
0.505516 0.648524 0.480201
0.518853 0.647303 0.485481
0.534051 0.645167 0.491615
0.551019 0.642786 0.499245
0.568231 0.639857 0.508019
0.584955 0.637934 0.517662
0.598444 0.642786 0.516777
0.615320 0.648432 0.516472
0.634577 0.653590 0.514824
0.656947 0.659449 0.514000
0.680629 0.663874 0.510063
0.704768 0.666468 0.504814
0.746795 0.685834 0.518229
0.551873 0.695094 0.552575
0.547570 0.690944 0.545403
0.548516 0.688258 0.542596
0.554070 0.686488 0.543297
0.563653 0.685298 0.546960
0.575525 0.683803 0.551751
0.589319 0.682460 0.558495
0.603418 0.680262 0.565454
0.617731 0.678065 0.573846
0.629725 0.678645 0.578088
0.642267 0.683284 0.578546
0.657069 0.688136 0.578943
0.674830 0.693935 0.580713
0.694057 0.699092 0.581170
0.714992 0.703761 0.580529
0.735023 0.705604 0.575967
0.605410 0.730594 0.618288
0.601470 0.727138 0.612053
0.601510 0.724967 0.609457
0.605553 0.723741 0.610038
0.612809 0.723094 0.613126
0.622083 0.722384 0.617404
0.633188 0.721827 0.623302
0.645021 0.721080 0.629867
0.657733 0.720605 0.638078
0.670512 0.720248 0.647245
0.681514 0.724766 0.651600
0.693687 0.730132 0.655079
0.708487 0.736626 0.660384
0.724934 0.743263 0.665978
0.743966 0.750893 0.673525
0.764924 0.759287 0.682781
0.000000 0.004822 0.048798
0.022583 0.008606 0.045869
0.053101 0.013367 0.040833
0.105135 0.013184 0.041871
0.170809 0.003510 0.034302
0.239658 0.000000 0.031708
0.322789 0.000000 0.029084
0.414252 0.000000 0.023957
0.505699 0.000000 0.014893
0.597589 0.000000 0.003326
0.676387 0.000000 0.000000
0.742153 0.000000 0.000000
0.796872 0.000000 0.000000
0.846067 0.000000 0.000000
0.886503 0.000000 0.001617
0.918136 0.052933 0.029715
0.000000 0.032959 0.053986
0.023438 0.033509 0.053162
0.060548 0.037781 0.048554
0.114595 0.035004 0.047181
0.176883 0.028016 0.040558
0.249424 0.018097 0.038178
0.332860 0.000000 0.032898
0.423438 0.000000 0.025330
0.515862 0.000000 0.015259
0.605676 0.000000 0.002502
0.682155 0.000000 0.000000
0.745266 0.000000 0.000000
0.798306 0.000000 0.000000
0.846128 0.000000 0.000000
0.885588 0.000000 0.000000
0.917402 0.098765 0.028702
0.001709 0.075441 0.062867
0.025971 0.075776 0.060792
0.073091 0.077790 0.059297
0.128634 0.076204 0.054566
0.193851 0.072297 0.049653
0.269139 0.061982 0.044343
0.352331 0.038880 0.036072
0.440436 0.000000 0.026764
0.532280 0.000000 0.015045
0.616938 0.000000 0.001465
0.688533 0.000000 0.000000
0.748043 0.000000 0.000000
0.799557 0.000000 0.000000
0.845731 0.000000 0.000000
0.884367 0.071931 0.000000
0.915728 0.153173 0.026557
0.013672 0.125032 0.071687
0.049958 0.123110 0.071626
0.094911 0.120027 0.075196
0.121553 0.118685 0.074220
0.206516 0.129549 0.059297
0.290074 0.120577 0.047333
0.371527 0.108766 0.038788
0.460792 0.090974 0.027466
0.546471 0.064942 0.014038
0.625727 0.035523 0.000000
0.693416 0.020874 0.000000
0.750820 0.033234 0.000000
0.801755 0.070924 0.000000
0.844938 0.116182 0.000000
0.880583 0.161776 0.000000
0.910494 0.208516 0.020454
0.055085 0.169589 0.085481
0.083070 0.169650 0.088106
0.119326 0.166506 0.092592
0.147127 0.159121 0.096620
0.174838 0.163088 0.090211
0.260960 0.182101 0.072633
0.381231 0.186404 0.045563
0.479469 0.176974 0.025177
0.561456 0.168215 0.009613
0.636774 0.164034 0.000000
0.701472 0.166781 0.000000
0.758541 0.180606 0.000000
0.807279 0.200992 0.000000
0.848508 0.227268 0.000000
0.882841 0.257542 0.000000
0.910667 0.289628 0.032086
0.097292 0.227695 0.108736
0.120851 0.228824 0.112337
0.150698 0.224063 0.115969
0.183352 0.214237 0.122194
0.205356 0.213809 0.120272
0.239780 0.218997 0.112337
0.325353 0.241367 0.092958
0.462531 0.265721 0.050782
0.573053 0.269535 0.006439
0.650111 0.269444 0.000000
0.709255 0.273167 0.000000
0.761624 0.283116 0.000000
0.807309 0.297887 0.000000
0.845548 0.314458 0.000000
0.877958 0.334874 0.000000
0.905331 0.358893 0.045229
0.141238 0.294804 0.138949
0.158175 0.295079 0.141146
0.186252 0.289738 0.144991
0.219303 0.280430 0.151034
0.247196 0.271031 0.157107
0.271214 0.276585 0.149447
0.309697 0.281865 0.139467
0.389715 0.304112 0.120516
0.521691 0.340185 0.074922
0.632715 0.360601 0.006317
0.711086 0.370855 0.000000
0.760952 0.376226 0.000000
0.803342 0.384405 0.000000
0.840513 0.395392 0.000000
0.871489 0.408057 0.000000
0.898258 0.425278 0.074323
0.181003 0.358495 0.170596
0.198032 0.358221 0.174044
0.222416 0.353887 0.178042
0.253880 0.345983 0.183780
0.284733 0.334813 0.191226
0.307378 0.332097 0.190585
0.334539 0.336706 0.180880
0.373938 0.341833 0.169772
0.441718 0.358984 0.152560
0.566155 0.404547 0.112337
0.671962 0.436866 0.047486
0.743679 0.452827 0.000000
0.797726 0.462928 0.000000
0.833005 0.467140 0.000000
0.862699 0.471626 0.000519
0.887988 0.480448 0.102729
0.224979 0.414801 0.207340
0.237278 0.412726 0.209110
0.257847 0.409277 0.212863
0.285740 0.403082 0.218204
0.316350 0.395056 0.226169
0.345373 0.384741 0.236027
0.367315 0.391485 0.229709
0.398444 0.398230 0.221164
0.439368 0.405066 0.210819
0.497139 0.418677 0.198093
0.613794 0.473274 0.171176
0.707515 0.508476 0.139437
0.775357 0.527062 0.113436
0.824063 0.537438 0.114900
0.860197 0.543603 0.128237
0.884186 0.549131 0.191260
0.276127 0.473579 0.254978
0.285496 0.471595 0.256016
0.302129 0.468452 0.259068
0.325963 0.463569 0.263920
0.353857 0.457313 0.271183
0.382238 0.448737 0.280003
0.405005 0.445106 0.283604
0.428260 0.451270 0.276432
0.459937 0.458167 0.268315
0.498634 0.464729 0.258366
0.542626 0.470893 0.247074
0.647425 0.524956 0.232853
0.729976 0.558984 0.220035
0.794797 0.579370 0.207340
0.838773 0.590051 0.223484
0.873487 0.597272 0.253213
0.332341 0.530175 0.310552
0.340063 0.529107 0.312078
0.353277 0.526421 0.314458
0.372320 0.522118 0.317906
0.395605 0.516381 0.323491
0.420630 0.508659 0.330297
0.444770 0.500008 0.339208
0.463539 0.502525 0.336461
0.487221 0.508263 0.329412
0.516625 0.514031 0.321050
0.551476 0.519707 0.311498
0.588037 0.523247 0.300572
0.675563 0.569543 0.299046
0.748684 0.601892 0.301122
0.806027 0.620600 0.302403
0.848326 0.629905 0.311165
0.389654 0.579370 0.370062
0.395209 0.578241 0.370977
0.404456 0.575616 0.372076
0.419043 0.572107 0.374487
0.437751 0.567407 0.378607
0.458656 0.561395 0.384039
0.480354 0.554437 0.391424
0.499031 0.548699 0.396582
0.515648 0.552667 0.389960
0.536767 0.556451 0.381994
0.562768 0.560479 0.373205
0.593194 0.564721 0.363500
0.625269 0.567468 0.353002
0.697536 0.605646 0.360815
0.762448 0.635859 0.373449
0.814051 0.654741 0.386894
0.431617 0.613153 0.416236
0.436408 0.612512 0.417426
0.445472 0.612055 0.420569
0.458839 0.610712 0.424994
0.476417 0.608972 0.431495
0.496040 0.606226 0.438972
0.517479 0.603479 0.449104
0.537652 0.599329 0.459571
0.554864 0.601556 0.463905
0.572747 0.607599 0.462196
0.594995 0.614405 0.461097
0.620233 0.620813 0.458686
0.649165 0.627985 0.457160
0.677241 0.631708 0.451514
0.730922 0.658534 0.465522
0.782072 0.680438 0.478665
0.501183 0.661616 0.495460
0.496803 0.656672 0.487678
0.499641 0.653742 0.485512
0.508080 0.651911 0.487465
0.521324 0.650477 0.492348
0.536431 0.648341 0.498085
0.553460 0.645838 0.505455
0.570703 0.642908 0.514000
0.587762 0.640101 0.524437
0.600885 0.644800 0.523461
0.617273 0.650202 0.522759
0.636072 0.655329 0.521172
0.658106 0.661036 0.520012
0.681483 0.665278 0.516045
0.705318 0.667720 0.510460
0.747918 0.687539 0.524086
0.552758 0.696956 0.556786
0.548638 0.692927 0.549859
0.549615 0.690333 0.547173
0.555352 0.688655 0.547936
0.564904 0.687404 0.551324
0.576898 0.685939 0.556146
0.590875 0.684565 0.562860
0.604913 0.682368 0.569574
0.619104 0.679988 0.577417
0.631281 0.679805 0.582330
0.643641 0.684443 0.582849
0.658137 0.689265 0.583124
0.675685 0.694942 0.584680
0.694789 0.700069 0.585107
0.715602 0.704707 0.584222
0.735543 0.706550 0.579812
0.605600 0.731943 0.620778
0.601782 0.728518 0.614786
0.601913 0.726377 0.612131
0.606049 0.725213 0.612803
0.613426 0.724626 0.616010
0.622761 0.723856 0.620197
0.633807 0.723299 0.625914
0.645641 0.722430 0.632295
0.658471 0.721893 0.640290
0.671252 0.721499 0.649342
0.682374 0.725563 0.654151
0.694362 0.730869 0.657508
0.709070 0.737269 0.662599
0.725395 0.743817 0.668012
0.744304 0.751416 0.675374
0.765292 0.759780 0.684483
0.000000 0.007843 0.082124
0.015106 0.009735 0.080934
0.049775 0.016052 0.074037
0.093690 0.020447 0.070100
0.160250 0.015015 0.072969
0.236362 0.000000 0.067018
0.322057 0.000000 0.056703
0.408331 0.000000 0.053468
0.500633 0.000000 0.047120
0.591943 0.000000 0.038636
0.672053 0.000000 0.025422
0.740017 0.000000 0.008301
0.797116 0.000000 0.000000
0.846189 0.000000 0.000000
0.886168 0.000000 0.000000
0.917800 0.089793 0.029488
0.000000 0.033936 0.088197
0.017304 0.033539 0.085939
0.058198 0.038422 0.081605
0.104921 0.042664 0.077485
0.168673 0.038666 0.078859
0.247379 0.017029 0.071778
0.331548 0.000000 0.061006
0.417182 0.000000 0.058686
0.510704 0.000000 0.051759
0.599908 0.000000 0.041688
0.676997 0.000000 0.026307
0.742519 0.000000 0.008240
0.798367 0.000000 0.000000
0.846036 0.000000 0.000000
0.885191 0.016327 0.000000
0.917126 0.123703 0.028098
0.000000 0.070375 0.093629
0.018463 0.070954 0.091646
0.066804 0.074891 0.091859
0.122683 0.082277 0.088808
0.188296 0.078614 0.088075
0.265873 0.063081 0.078035
0.345617 0.054047 0.073823
0.434882 0.020050 0.067109
0.525902 0.000000 0.057313
0.610468 0.000000 0.044526
0.682704 0.000000 0.027314
0.744564 0.000000 0.007568
0.798825 0.000000 0.000000
0.845609 0.022736 0.000000
0.883909 0.107515 0.000000
0.915331 0.169874 0.026829
0.000000 0.127840 0.104585
0.022248 0.128054 0.103151
0.076661 0.130343 0.102358
0.141329 0.134951 0.102235
0.208652 0.132296 0.095857
0.282994 0.126925 0.089021
0.365881 0.117525 0.081117
0.454292 0.102846 0.072389
0.539788 0.082582 0.061189
0.619409 0.061677 0.046754
0.687709 0.052918 0.028565
0.746914 0.067964 0.006226
0.800229 0.104463 0.000000
0.844633 0.143130 0.000000
0.880186 0.179416 0.000000
0.910097 0.219539 0.019639
0.006622 0.182528 0.111635
0.049653 0.182925 0.111788
0.104524 0.183139 0.112581
0.164157 0.180972 0.118654
0.193973 0.179202 0.116762
0.290837 0.195285 0.100587
0.387884 0.188266 0.085389
0.473396 0.181827 0.075990
0.555291 0.175082 0.064637
0.630884 0.171939 0.049317
0.696193 0.176211 0.028443
0.754604 0.191196 0.005402
0.804929 0.213748 0.000000
0.847929 0.241276 0.000000
0.882506 0.268437 0.000000
0.910513 0.297108 0.032691
0.069368 0.241337 0.129305
0.100252 0.242710 0.131563
0.144137 0.243137 0.135470
0.194766 0.239414 0.142977
0.226871 0.230137 0.147494
0.258701 0.235233 0.139284
0.351873 0.258732 0.120302
0.479683 0.274205 0.092256
0.576593 0.272770 0.067842
0.644923 0.272709 0.051881
0.704860 0.277958 0.030701
0.757931 0.288701 0.008240
0.804013 0.303990 0.000000
0.844022 0.322423 0.000000
0.877684 0.341772 0.000000
0.905329 0.363978 0.048039
0.123812 0.307134 0.156893
0.147402 0.309239 0.160250
0.185611 0.310185 0.166384
0.228458 0.304540 0.172549
0.266026 0.291844 0.180545
0.290501 0.292424 0.177096
0.327306 0.297734 0.167056
0.411536 0.321721 0.147890
0.539910 0.353368 0.112886
0.639826 0.367285 0.076265
0.708736 0.373358 0.045411
0.757198 0.379370 0.026764
0.800046 0.388006 0.008148
0.837919 0.399481 0.000000
0.871275 0.412360 0.000000
0.898346 0.428251 0.076922
0.175479 0.371130 0.190616
0.196445 0.374182 0.195804
0.229313 0.375616 0.203220
0.262211 0.367468 0.206210
0.298619 0.355810 0.213138
0.325933 0.346380 0.218112
0.350622 0.350958 0.208408
0.388739 0.355871 0.196811
