example_ofxGpuLutCube/bin/data/ofxGpuLutCube/LUT/U33 (warm contrasty teal fade).cube
LUT_3D_SIZE 6
0.000000 0.000000 0.000000
0.110933 0.008728 0.008606
0.320989 0.000000 0.011902
0.596399 0.000000 0.004334
0.800626 0.000000 0.000000
0.920711 0.000000 0.033634
0.029877 0.098146 0.040589
0.092744 0.094820 0.039826
0.369360 0.093507 0.000000
0.621515 0.000000 0.000000
0.799405 0.000000 0.000000
0.912100 0.193405 0.022388
0.134859 0.270176 0.114717
0.203891 0.257786 0.130190
0.296178 0.270054 0.114473
0.631525 0.357763 0.000000
0.808774 0.384283 0.000000
0.899916 0.425159 0.078433
0.268284 0.457374 0.232273
0.315404 0.447852 0.242222
0.391852 0.435096 0.260227
0.491829 0.457374 0.235996
0.727596 0.555200 0.189548
0.873133 0.596493 0.250363
0.423041 0.603937 0.397650
0.452033 0.602808 0.408942
0.511528 0.596674 0.435859
0.568505 0.603784 0.448798
0.647303 0.625147 0.444495
0.780696 0.677566 0.465304
0.604640 0.729461 0.616049
0.604260 0.722299 0.607182
0.631934 0.720419 0.620640
0.669872 0.719427 0.645805
0.708789 0.736835 0.660218
0.765314 0.759613 0.683029
0.000000 0.007843 0.082124
0.093690 0.020447 0.070100
0.322057 0.000000 0.056703
0.591943 0.000000 0.038636
0.797116 0.000000 0.000000
0.917800 0.089793 0.029488
0.000000 0.127840 0.104585
0.141329 0.134951 0.102235
0.365881 0.117525 0.081117
0.619409 0.061677 0.046754
0.800229 0.104463 0.000000
0.910097 0.219539 0.019639
0.123812 0.307134 0.156893
0.228458 0.304540 0.172549
0.327306 0.297734 0.167056
0.639826 0.367285 0.076265
0.800046 0.388006 0.008148
0.898346 0.428251 0.076922
0.286015 0.488167 0.280125
0.334142 0.479133 0.285710
0.419257 0.456153 0.308446
0.508019 0.474952 0.283665
0.733944 0.564843 0.252384
0.873032 0.599359 0.278136
0.436072 0.619867 0.430518
0.462776 0.616754 0.437964
0.522545 0.609796 0.461555
0.577539 0.611841 0.476234
0.651331 0.631464 0.470466
0.783393 0.683040 0.491032
0.605486 0.733995 0.624556
0.606304 0.727390 0.616889
0.634338 0.725324 0.629480
0.672332 0.723450 0.652489
0.709959 0.738344 0.666226
0.765994 0.760670 0.687412
0.000000 0.018250 0.210452
0.047425 0.025391 0.210727
0.293187 0.023468 0.207156
0.582208 0.000000 0.213687
0.792081 0.000000 0.161654
0.912240 0.157432 0.157610
0.000000 0.108766 0.233768
0.091676 0.119142 0.242863
0.343481 0.151736 0.246860
0.601404 0.106142 0.235233
0.783108 0.159396 0.202548
0.903948 0.243704 0.164433
0.000000 0.327977 0.293339
0.128725 0.343877 0.302708
0.409796 0.380560 0.325048
0.625238 0.381231 0.296941
0.780819 0.403540 0.271580
0.889474 0.439006 0.249254
0.217411 0.527245 0.371954
0.310826 0.530022 0.381903
0.469551 0.530510 0.416693
0.550317 0.525689 0.410315
0.750881 0.591791 0.403052
0.859549 0.606548 0.414098
0.419654 0.642664 0.481514
0.463294 0.644434 0.495705
0.542016 0.643122 0.523033
0.600824 0.632624 0.541802
0.662196 0.648585 0.533471
0.791508 0.695445 0.547943
0.596608 0.744027 0.640742
0.604452 0.739176 0.638655
0.632928 0.736331 0.646697
0.675773 0.733731 0.667895
0.713885 0.743162 0.683530
0.769503 0.765176 0.701744
0.000000 0.028717 0.391119
0.000000 0.029358 0.402838
0.254032 0.037079 0.422553
0.546380 0.037293 0.436988
0.762295 0.123873 0.468086
0.893797 0.215501 0.429305
0.000000 0.104616 0.420478
0.000000 0.109865 0.426001
0.296208 0.142367 0.448737
0.566766 0.193637 0.461128
0.758267 0.247410 0.479072
0.884065 0.281736 0.428316
0.000000 0.268376 0.434821
0.000000 0.277928 0.443824
0.333867 0.332921 0.487709
0.588922 0.415747 0.510582
0.747280 0.434150 0.507286
0.866901 0.447989 0.462444
0.000000 0.533135 0.514641
0.140139 0.540581 0.520989
0.396185 0.561334 0.539513
0.606439 0.598840 0.573754
0.738064 0.601984 0.559289
0.842685 0.606375 0.540666
0.334722 0.674067 0.574945
0.388922 0.674830 0.578271
0.504265 0.676600 0.589532
0.629999 0.678126 0.623713
0.680262 0.675929 0.619379
0.809979 0.714320 0.628625
0.526047 0.759250 0.653701
0.533494 0.754829 0.647313
0.602372 0.753972 0.666386
0.674932 0.752791 0.693841
0.720730 0.751239 0.712335
0.776094 0.773204 0.726236
0.000000 0.033875 0.600580
0.000000 0.031830 0.608148
0.132570 0.016754 0.624445
0.548119 0.109957 0.646509
0.739742 0.240635 0.653834
0.847071 0.375535 0.651058
0.000000 0.097566 0.609949
0.000000 0.101595 0.614405
0.185855 0.116335 0.633417
0.558587 0.218601 0.652033
0.734066 0.326513 0.656703
0.836484 0.414824 0.648851
0.000000 0.235904 0.603876
0.000000 0.245823 0.614130
0.214542 0.282597 0.638636
0.560723 0.390448 0.660090
0.720211 0.486763 0.669032
0.819453 0.535534 0.669737
0.000000 0.468849 0.627649
0.000000 0.471015 0.630030
0.074403 0.473396 0.635737
0.534203 0.542687 0.670039
0.710811 0.625544 0.692622
0.809128 0.635637 0.690270
0.077211 0.669123 0.673610
0.217136 0.671656 0.676265
0.402411 0.679896 0.684535
0.577173 0.696101 0.699794
0.720027 0.725795 0.729152
0.810239 0.722126 0.715452
0.457689 0.781587 0.730269
0.469711 0.779122 0.726406
0.535621 0.778894 0.727618
0.625087 0.777856 0.730184
0.728950 0.775686 0.752017
0.788759 0.787507 0.765755
0.000000 0.048068 0.783011
0.000000 0.042274 0.784951
0.038632 0.010577 0.790238
0.539369 0.145330 0.793860
0.727863 0.427620 0.792461
0.828629 0.511162 0.789986
0.000000 0.104740 0.783925
0.000000 0.106025 0.785301
0.076006 0.105865 0.789379
0.533744 0.208881 0.790714
0.719175 0.443987 0.786592
0.820640 0.511791 0.781943
0.000000 0.219884 0.782107
0.000000 0.227571 0.784743
0.000590 0.250603 0.789527
0.520368 0.345226 0.792959
0.710720 0.530897 0.788867
0.810738 0.590219 0.787261
0.000000 0.400221 0.779275
0.000000 0.394112 0.780666
0.000000 0.382987 0.786265
0.439975 0.471838 0.792650
0.696268 0.611428 0.793861
0.802304 0.669943 0.795650
0.000000 0.652321 0.797343
0.000000 0.650108 0.797222
0.000095 0.643351 0.797343
0.270286 0.628213 0.796566
0.656367 0.679483 0.803220
0.804494 0.745769 0.813036
0.376395 0.797930 0.818540
0.393559 0.796950 0.817228
0.462296 0.797934 0.817765
0.560576 0.800401 0.819511
0.677832 0.806441 0.824851
0.824528 0.824443 0.844991
