example_ofxGpuLutCube/bin/data/ofxGpuLutCube/LUT/U34 (teal desat fade).cube
LUT_3D_SIZE 16
0.000000 0.000000 0.000000
0.045563 0.009033 0.007874
0.094881 0.025513 0.023346
0.142885 0.042390 0.039368
0.193149 0.058595 0.053742
0.244266 0.075471 0.069093
0.295842 0.094270 0.086488
0.346593 0.114504 0.105165
0.395880 0.136782 0.126955
0.444129 0.159854 0.148867
0.491310 0.183078 0.171145
0.539330 0.206241 0.193606
0.591394 0.230198 0.216739
0.648615 0.255253 0.240513
0.709346 0.282109 0.265965
0.771977 0.311325 0.293821
0.037934 0.050080 0.037964
0.056306 0.056458 0.045228
0.105592 0.070100 0.046845
0.155337 0.077424 0.054292
0.202548 0.088045 0.066163
0.251987 0.101320 0.079957
0.302007 0.116945 0.096101
0.351324 0.134707 0.115114
0.399603 0.154391 0.135134
0.447211 0.174990 0.156222
0.493996 0.196109 0.177707
0.541802 0.217716 0.199222
0.593713 0.240299 0.221530
0.650843 0.264378 0.244785
0.711360 0.290532 0.269718
0.773720 0.319143 0.297695
0.078218 0.101381 0.078462
0.091798 0.104067 0.084840
0.112551 0.112428 0.091188
0.157198 0.126009 0.091493
0.218173 0.131899 0.087648
0.264744 0.140719 0.099916
0.311864 0.152651 0.115114
0.359228 0.166873 0.131502
0.406134 0.182803 0.150332
0.452888 0.200137 0.169528
0.498787 0.218326 0.189242
0.546410 0.237247 0.209232
0.598108 0.258061 0.230228
0.655116 0.280644 0.252689
0.714992 0.305394 0.277165
0.776898 0.333130 0.304629
0.121401 0.154513 0.121767
0.132967 0.155215 0.127901
0.146914 0.160311 0.133150
0.169558 0.169436 0.140261
0.208499 0.183230 0.143526
0.269963 0.194400 0.139193
0.326238 0.199283 0.141817
0.371160 0.209506 0.156008
0.416327 0.221714 0.172213
0.461646 0.235325 0.189212
0.506554 0.249882 0.206302
0.553704 0.266178 0.224613
0.605310 0.284489 0.243839
0.661738 0.305211 0.265080
0.720699 0.328527 0.288853
0.781880 0.354842 0.315622
0.168185 0.209140 0.168582
0.176394 0.209476 0.172793
0.188571 0.211429 0.178866
0.204471 0.218143 0.184329
0.227054 0.227146 0.191897
0.260777 0.239780 0.198154
0.319371 0.254398 0.193698
0.379950 0.261570 0.191989
0.429969 0.267460 0.199222
0.473548 0.277531 0.213169
0.517327 0.288945 0.228336
0.564111 0.302434 0.244205
0.615503 0.318639 0.262058
0.670954 0.337346 0.281804
0.728725 0.358892 0.304662
0.788909 0.383848 0.330765
0.215549 0.263096 0.215946
0.221897 0.263340 0.219181
0.232273 0.264012 0.225010
0.244694 0.268223 0.230045
0.261387 0.275151 0.235752
0.283726 0.283574 0.242557
0.311467 0.293950 0.251286
0.368078 0.311345 0.246708
0.427222 0.321233 0.244297
0.486915 0.326452 0.243381
0.531151 0.333410 0.253941
0.577569 0.344701 0.268070
0.628626 0.358984 0.284245
0.682460 0.375982 0.302983
0.738857 0.395758 0.324895
0.797863 0.419294 0.350606
0.261692 0.315862 0.262150
0.266606 0.316136 0.264652
0.275334 0.316594 0.269230
0.286931 0.318334 0.275517
0.299870 0.323674 0.279667
0.317144 0.330571 0.285283
0.338872 0.338903 0.292027
0.364904 0.348302 0.300420
0.416083 0.365759 0.297612
0.473915 0.377508 0.294163
0.533989 0.385565 0.292821
0.594385 0.391699 0.295354
0.644007 0.404425 0.310277
0.696071 0.419593 0.328099
0.750851 0.437995 0.349126
0.808527 0.460352 0.374596
0.306371 0.367864 0.307103
0.310674 0.368017 0.309148
0.317845 0.368322 0.312810
0.328466 0.368994 0.318883
0.339727 0.372503 0.323644
0.353796 0.378119 0.328008
0.371405 0.384863 0.333440
0.392950 0.392859 0.339849
0.417975 0.401678 0.347448
0.463294 0.417884 0.346502
0.521874 0.433234 0.343542
0.586023 0.445991 0.343328
0.652430 0.456703 0.345922
0.711360 0.467231 0.356664
0.764553 0.484443 0.377600
0.820749 0.505971 0.403220
0.349981 0.418769 0.350744
0.353491 0.418952 0.352453
0.359533 0.419165 0.355596
0.368963 0.419501 0.360571
0.380346 0.420905 0.366857
0.391943 0.425635 0.370520
0.406500 0.431281 0.374853
0.424598 0.438239 0.380377
0.445869 0.445869 0.386389
0.470710 0.454597 0.393774
0.513664 0.471748 0.396643
0.575433 0.491981 0.395636
0.640345 0.508476 0.397986
0.707210 0.522911 0.403510
0.776089 0.536889 0.413245
0.834067 0.555440 0.436388
0.394476 0.471199 0.395270
0.397498 0.471290 0.396765
0.402838 0.471534 0.399451
0.411292 0.472053 0.403906
0.422370 0.472724 0.410224
0.433509 0.476020 0.415076
0.446204 0.481117 0.418921
0.461921 0.487404 0.423743
0.480720 0.494514 0.429328
0.502678 0.502678 0.435767
0.527703 0.511528 0.442908
0.568200 0.529259 0.450446
0.630060 0.552819 0.452888
0.695216 0.573327 0.459083
0.763210 0.592889 0.469978
0.833304 0.613283 0.486414
0.442664 0.528801 0.443580
0.445319 0.528985 0.444984
0.450263 0.529229 0.447425
0.458015 0.529747 0.451484
0.468421 0.530388 0.457191
0.480476 0.531853 0.464179
0.491829 0.536400 0.467750
0.505760 0.541924 0.472267
0.522240 0.548180 0.477546
0.541436 0.555322 0.483650
0.563165 0.563134 0.490608
0.587243 0.571618 0.498421
0.623529 0.588617 0.510765
0.685786 0.616388 0.517662
0.752193 0.642298 0.529412
0.821774 0.668220 0.546875
0.497230 0.588739 0.498177
0.499550 0.588952 0.499428
0.503960 0.589197 0.501671
0.511040 0.589593 0.505455
0.520409 0.590234 0.510735
0.532189 0.591211 0.517815
0.543359 0.594202 0.523278
0.555291 0.598962 0.527306
0.569421 0.604425 0.532097
0.585931 0.610773 0.537682
0.604547 0.617792 0.544060
0.625422 0.625483 0.551019
0.648493 0.633814 0.558740
0.681636 0.650690 0.575189
0.745693 0.683680 0.587640
0.814004 0.716038 0.606584
0.557031 0.650935 0.558007
0.559075 0.651118 0.559136
0.562982 0.651392 0.561181
0.568963 0.651820 0.564446
0.577295 0.652491 0.569146
0.587701 0.653468 0.575372
0.599634 0.654902 0.582666
0.609918 0.659266 0.586481
0.622217 0.664240 0.590906
0.636469 0.670039 0.596033
0.652857 0.676539 0.601953
0.671168 0.683742 0.608484
0.691615 0.691615 0.615778
0.714046 0.700160 0.623835
0.748135 0.719509 0.643702
0.811763 0.757245 0.665636
0.622126 0.717403 0.623163
0.623957 0.717556 0.624140
0.627314 0.717800 0.625940
0.632593 0.718318 0.628870
0.639979 0.719112 0.633173
0.649348 0.720180 0.638819
0.660456 0.721553 0.645808
0.671168 0.724636 0.651514
0.682033 0.729397 0.655787
0.694728 0.734890 0.660853
0.709346 0.741176 0.666621
0.725734 0.748135 0.673121
0.744167 0.755886 0.680476
0.764401 0.764431 0.688655
0.786557 0.773709 0.697658
0.822751 0.796610 0.721767
0.695796 0.790219 0.696834
0.697414 0.790402 0.697749
0.700374 0.790707 0.699397
0.705135 0.791348 0.702144
0.711727 0.792233 0.706081
0.720241 0.793484 0.711330
0.730343 0.795102 0.717861
0.741848 0.797238 0.725673
0.751736 0.801938 0.730159
0.763302 0.807462 0.735470
0.776577 0.813779 0.741543
0.791684 0.820951 0.748531
0.808530 0.828977 0.756435
0.827298 0.837980 0.765408
0.847929 0.847959 0.775418
0.870195 0.858866 0.786566
0.783806 0.872760 0.784753
0.785212 0.873004 0.785608
0.787840 0.873491 0.787226
0.792088 0.874313 0.789882
0.798075 0.875469 0.793668
0.805804 0.877084 0.798736
0.815180 0.879185 0.805085
0.826021 0.881864 0.812777
0.836936 0.886171 0.819892
0.848049 0.892299 0.826199
0.860901 0.899433 0.833601
0.875584 0.907601 0.842222
0.892159 0.916987 0.852271
0.910656 0.927621 0.863962
0.931195 0.939746 0.877658
0.953433 0.953434 0.893801
0.007752 0.005005 0.040162
0.044404 0.015717 0.044587
0.091981 0.031159 0.058595
0.145907 0.045472 0.068605
0.196323 0.073121 0.086366
0.247379 0.091615 0.100984
0.298589 0.110842 0.117128
0.348486 0.130770 0.134157
0.397284 0.151522 0.152071
0.445258 0.172610 0.170993
0.492409 0.193759 0.189914
0.540246 0.215366 0.209628
0.592248 0.237583 0.230320
0.649470 0.261234 0.252171
0.709987 0.286809 0.276005
0.772377 0.315087 0.302502
0.030335 0.058900 0.059815
0.066468 0.066468 0.066468
0.110140 0.075868 0.075105
0.156985 0.087190 0.085298
0.204746 0.100160 0.097230
0.254337 0.114900 0.110750
0.303899 0.131167 0.125643
0.352819 0.148501 0.141665
0.400916 0.166873 0.158907
0.448249 0.186221 0.177066
0.494850 0.205814 0.195621
0.542779 0.225650 0.214481
0.594598 0.247166 0.234745
0.651759 0.269963 0.256046
0.711879 0.294987 0.279759
0.774088 0.322662 0.306165
0.081636 0.113344 0.094545
0.102052 0.114626 0.102449
0.120882 0.121035 0.109560
0.168215 0.133303 0.110414
0.219242 0.140108 0.115480
0.265873 0.150607 0.127047
0.313176 0.163119 0.140505
0.360174 0.177096 0.155001
0.407141 0.192538 0.171176
0.453681 0.209140 0.187991
0.499580 0.226108 0.205356
0.547204 0.244144 0.223392
0.598993 0.263920 0.242588
0.655879 0.285527 0.263462
0.715480 0.309361 0.286412
0.777205 0.336250 0.312546
0.129152 0.164736 0.136355
0.141115 0.165133 0.141543
0.156100 0.167941 0.148592
0.176638 0.176333 0.154879
0.217044 0.190433 0.157656
0.276524 0.199619 0.155489
0.326726 0.206149 0.162356
0.371679 0.216556 0.175357
0.417060 0.228580 0.189548
0.462226 0.241917 0.204746
0.507317 0.255772 0.220371
0.554467 0.271580 0.236942
0.606104 0.289342 0.255131
0.662440 0.309453 0.274937
0.721218 0.331823 0.297520
0.782218 0.357685 0.323110
0.174624 0.216587 0.179690
0.183047 0.216831 0.183383
0.196414 0.217685 0.190646
0.210910 0.223789 0.195743
0.232273 0.232212 0.202579
0.266880 0.245426 0.207858
0.324498 0.258701 0.204685
0.384649 0.264988 0.203983
0.430274 0.272099 0.213352
0.474037 0.282170 0.226383
0.517876 0.293339 0.239872
0.564721 0.306523 0.255070
0.616205 0.322454 0.271977
0.671534 0.340734 0.290684
0.729122 0.361730 0.312444
0.789155 0.386142 0.337702
0.220310 0.268650 0.224186
0.226871 0.268833 0.227085
0.237400 0.269535 0.232883
0.250187 0.272526 0.238804
0.266117 0.279301 0.244083
0.287572 0.287541 0.250706
0.316258 0.298589 0.258427
0.372381 0.314916 0.254398
0.431128 0.324102 0.252323
0.488624 0.328222 0.252567
0.531731 0.336492 0.263828
0.578180 0.347814 0.277379
0.629206 0.361913 0.292790
0.682948 0.378454 0.310857
0.739193 0.398016 0.331914
0.798047 0.421190 0.356780
0.265232 0.320317 0.268406
0.270359 0.320562 0.270848
0.279057 0.320867 0.275242
0.291447 0.321874 0.282383
0.303990 0.327153 0.286564
0.320836 0.333989 0.291814
0.342138 0.342229 0.298436
0.367712 0.351446 0.306523
0.419806 0.368780 0.303227
0.477211 0.380041 0.300145
0.537255 0.387457 0.298985
0.594934 0.394018 0.303258
0.644434 0.406531 0.317754
0.696376 0.421607 0.334813
0.751186 0.439765 0.355383
0.808712 0.461972 0.380248
0.309270 0.371405 0.312078
0.313420 0.371710 0.314122
0.320714 0.372015 0.317815
0.331609 0.372503 0.323552
0.343359 0.375341 0.329107
0.356970 0.380835 0.333288
0.374395 0.387732 0.338750
0.395544 0.395575 0.345006
0.420356 0.404273 0.352422
0.466529 0.420661 0.351049
0.525048 0.435492 0.348486
0.588800 0.447913 0.348455
0.654932 0.458045 0.351049
0.711604 0.468910 0.362860
0.764736 0.485908 0.383154
0.820902 0.507314 0.408200
0.352392 0.421881 0.354986
0.355871 0.421912 0.356603
0.362097 0.422217 0.359747
0.371405 0.422614 0.364599
0.383459 0.423438 0.371527
0.394842 0.428077 0.375067
0.409308 0.433722 0.379370
0.426947 0.440406 0.384619
0.448157 0.448219 0.390784
0.472816 0.456886 0.398016
0.516503 0.474250 0.400458
0.578058 0.493996 0.399634
0.642603 0.510063 0.401984
0.709194 0.524041 0.407568
0.777249 0.537591 0.417273
0.834079 0.556564 0.441232
0.396429 0.473884 0.398779
0.399481 0.473945 0.400214
0.404883 0.474342 0.403052
0.413397 0.474708 0.407385
0.424567 0.475471 0.413703
0.436164 0.478187 0.419013
0.448737 0.483375 0.422919
0.464271 0.489418 0.427619
0.482765 0.496620 0.433112
0.504662 0.504662 0.439460
0.529595 0.513573 0.446723
0.570703 0.531395 0.453803
0.632197 0.554559 0.456306
0.697108 0.574670 0.462440
0.764858 0.593896 0.473182
0.834801 0.613867 0.489316
0.444312 0.531090 0.446693
0.447059 0.531273 0.448005
0.452094 0.531548 0.450538
0.459785 0.531975 0.454505
0.470283 0.532677 0.460212
0.482795 0.533684 0.467659
0.494087 0.538323 0.471351
0.507774 0.543694 0.475685
0.524224 0.549920 0.480903
0.543206 0.556970 0.486946
0.564721 0.564721 0.493874
0.588678 0.573205 0.501518
0.625513 0.590448 0.513481
0.687526 0.617792 0.520317
0.753689 0.643397 0.531945
0.823088 0.669017 0.549197
0.498634 0.590631 0.500847
0.501030 0.590753 0.502007
0.505516 0.590967 0.504387
0.512505 0.591363 0.508019
0.521965 0.592096 0.513329
0.533623 0.592950 0.520256
0.545220 0.595575 0.526116
0.557061 0.600305 0.530175
0.571099 0.605859 0.534936
0.587396 0.612116 0.540520
0.605890 0.619074 0.546624
0.626673 0.626703 0.553521
0.649622 0.635004 0.561181
0.683192 0.652155 0.577325
0.747097 0.684901 0.589776
0.815257 0.716866 0.608328
0.558038 0.652369 0.560052
0.560143 0.652491 0.561181
0.563897 0.652735 0.563104
0.570031 0.653193 0.566400
0.578424 0.653864 0.571099
0.588830 0.654810 0.577264
0.600977 0.656123 0.584924
0.611292 0.660334 0.588647
0.623438 0.665309 0.593103
0.637629 0.671077 0.598230
0.653895 0.677516 0.603937
0.672206 0.684657 0.610529
0.692531 0.692531 0.617762
0.714839 0.701015 0.625696
0.748959 0.720394 0.645502
0.812889 0.758099 0.667014
0.622705 0.718379 0.624537
0.624506 0.718532 0.625574
0.627863 0.718898 0.627375
0.633265 0.719356 0.630304
0.640650 0.720119 0.634546
0.650080 0.721126 0.640131
0.661219 0.722499 0.647089
0.672145 0.725399 0.653193
0.682979 0.730129 0.657465
0.695613 0.735622 0.662470
0.710109 0.741817 0.668116
0.726497 0.748775 0.674617
0.744778 0.756527 0.681849
0.765011 0.765011 0.689998
0.787106 0.774289 0.698970
0.823452 0.797250 0.723050
0.696040 0.790890 0.697780
0.697658 0.791073 0.698665
0.700618 0.791440 0.700313
0.705379 0.792020 0.703029
0.712001 0.792935 0.706996
0.720546 0.794156 0.712215
0.730709 0.795743 0.718715
0.742336 0.797818 0.726619
0.752346 0.802426 0.731319
0.763851 0.807919 0.736507
0.777096 0.814206 0.742580
0.792111 0.821378 0.749538
0.808988 0.829404 0.757443
0.827695 0.838346 0.766293
0.848264 0.848295 0.776272
0.870562 0.859202 0.787391
0.783718 0.873220 0.785246
0.785154 0.873494 0.786101
0.787812 0.873951 0.787749
0.792090 0.874742 0.790375
0.798077 0.875900 0.794161
0.805807 0.877544 0.799197
0.815244 0.879643 0.805517
0.826177 0.882293 0.813270
0.837214 0.886448 0.820598
0.848327 0.892576 0.826874
0.861179 0.899679 0.834216
0.875831 0.907877 0.842866
0.892375 0.917233 0.852885
0.910871 0.927867 0.864515
0.931410 0.939991 0.878210
0.953677 0.953650 0.894324
0.019715 0.012482 0.080079
0.051942 0.023346 0.083162
0.090944 0.038849 0.091127
0.141665 0.056641 0.106447
0.195956 0.076295 0.120943
0.251164 0.095827 0.133639
0.303960 0.117372 0.146517
0.350530 0.148013 0.167300
0.399115 0.167056 0.182467
0.446784 0.187076 0.198825
0.493751 0.206607 0.214939
0.541711 0.226505 0.232151
0.593774 0.247288 0.250278
0.650935 0.269230 0.269841
0.711055 0.293370 0.291508
0.773082 0.320290 0.316253
0.038849 0.058717 0.097414
0.073793 0.070771 0.102388
0.109438 0.082734 0.109224
0.155367 0.096132 0.122774
0.207370 0.108522 0.132631
0.259068 0.123262 0.142550
0.306096 0.146426 0.159396
0.354620 0.163363 0.173159
0.402350 0.180880 0.187961
0.449714 0.199161 0.203403
0.496223 0.217472 0.219760
0.544213 0.236271 0.236027
0.596124 0.256016 0.253849
0.653132 0.277531 0.273350
0.712947 0.301183 0.294926
0.774793 0.327588 0.319580
0.072938 0.119265 0.121096
0.098207 0.124514 0.125673
0.133333 0.133333 0.133333
0.175509 0.141207 0.140414
0.220523 0.150820 0.149325
0.267247 0.162356 0.159915
0.314488 0.175204 0.171511
0.361578 0.188998 0.183902
0.408423 0.204074 0.198154
0.454902 0.220005 0.212558
0.500908 0.236210 0.227939
0.548516 0.253330 0.243839
0.600397 0.271946 0.260838
0.657130 0.292393 0.279820
0.716457 0.315129 0.301061
0.777910 0.340901 0.325533
0.125429 0.175540 0.152987
0.144533 0.177859 0.158389
0.167178 0.179812 0.167269
0.186404 0.186404 0.174746
0.230106 0.199161 0.176638
0.282963 0.205386 0.179629
0.327611 0.214694 0.189731
0.372686 0.225376 0.201053
0.418036 0.237430 0.213657
0.463294 0.250401 0.226871
0.508293 0.264134 0.240726
0.555718 0.279088 0.255497
0.607446 0.296147 0.272221
0.663600 0.315251 0.290471
0.722042 0.336889 0.311192
0.782860 0.361663 0.335544
0.179232 0.228122 0.194980
0.189425 0.228092 0.198367
0.204593 0.228580 0.204837
0.220737 0.232090 0.212222
0.240360 0.240177 0.218387
0.276799 0.253788 0.222141
0.333959 0.264378 0.220737
0.387549 0.269444 0.223087
0.431159 0.278599 0.234195
0.474922 0.288579 0.245640
0.518853 0.299657 0.258152
0.565911 0.312596 0.272068
0.617395 0.328038 0.287266
0.672511 0.345678 0.304936
0.729915 0.365972 0.325475
0.789707 0.389689 0.349494
0.225589 0.277745 0.236606
0.232700 0.277897 0.239231
0.244144 0.278202 0.244358
0.258885 0.279515 0.252384
0.273838 0.285954 0.257206
0.294163 0.294133 0.263493
0.324681 0.305943 0.269535
0.380041 0.320531 0.266636
0.438453 0.328161 0.265385
0.489662 0.332738 0.268772
0.532525 0.341436 0.279850
0.579248 0.352544 0.292241
0.630213 0.366369 0.307012
0.683772 0.382544 0.323644
0.739742 0.401617 0.343816
0.798476 0.424338 0.367473
0.270176 0.327825 0.278508
0.275456 0.327947 0.280766
0.284428 0.328313 0.284886
0.297490 0.328954 0.291783
0.310796 0.332952 0.297490
0.326787 0.339513 0.302403
0.347570 0.347601 0.308782
0.372656 0.356756 0.316808
0.426246 0.373968 0.312993
0.483436 0.383948 0.310399
0.543175 0.390661 0.309880
0.595789 0.397864 0.316686
0.645319 0.410163 0.330236
0.697108 0.424933 0.346715
0.751675 0.442756 0.366247
0.809019 0.464599 0.390327
0.313512 0.377783 0.320500
0.317815 0.377935 0.322423
0.325261 0.378271 0.325963
0.336522 0.378576 0.331579
0.349493 0.380468 0.338537
0.362676 0.385870 0.342687
0.379492 0.392554 0.347753
0.400336 0.400275 0.353826
0.424506 0.408698 0.360876
0.472114 0.425330 0.359075
0.530663 0.439460 0.357061
0.594415 0.450843 0.357122
0.659724 0.460182 0.359899
0.712215 0.471626 0.373571
0.765133 0.488533 0.393042
0.821027 0.509606 0.417484
0.356115 0.427253 0.362158
0.359747 0.427344 0.363775
0.366125 0.427558 0.366735
0.375738 0.428016 0.371679
0.388067 0.428748 0.378546
0.399969 0.432471 0.383124
0.414069 0.438087 0.387366
0.431373 0.444739 0.392432
0.452369 0.452369 0.398505
0.476600 0.460883 0.405432
0.521752 0.478706 0.407324
0.582910 0.497627 0.406714
0.646967 0.512840 0.409186
0.713069 0.526024 0.414740
0.778988 0.538598 0.425086
0.834217 0.558599 0.449528
0.399756 0.478676 0.405158
0.402869 0.478798 0.406622
0.408515 0.479103 0.409247
0.417090 0.479530 0.413550
0.428473 0.480262 0.419715
0.440864 0.482124 0.426154
0.453162 0.487221 0.429999
0.468544 0.493416 0.434668
0.486885 0.500420 0.440040
0.508385 0.508354 0.446143
0.533074 0.517082 0.453223
0.575067 0.535302 0.459724
0.636164 0.557671 0.462348
0.700526 0.577050 0.468421
0.768002 0.595666 0.479072
0.837643 0.614942 0.494783
0.447272 0.535302 0.452277
0.450019 0.535302 0.453468
0.455024 0.535576 0.455879
0.463050 0.536004 0.459937
0.473457 0.536706 0.465522
0.486397 0.537713 0.473060
0.498116 0.541558 0.477668
0.511589 0.546929 0.482002
0.527703 0.553094 0.487098
0.546380 0.560021 0.492988
0.567712 0.567651 0.499702
0.591272 0.575891 0.507042
0.629053 0.593744 0.518578
0.690669 0.620417 0.525261
0.756497 0.645380 0.536614
0.825653 0.670276 0.553292
0.501061 0.593927 0.505547
0.503532 0.593988 0.506737
0.508171 0.594263 0.509056
0.515160 0.594690 0.512718
0.524620 0.595239 0.517784
0.536400 0.596094 0.524620
0.548638 0.598260 0.531395
0.560296 0.602930 0.535424
0.574029 0.608362 0.539971
0.590082 0.614557 0.545434
0.608392 0.621363 0.551385
0.628962 0.628931 0.558068
0.651667 0.637140 0.565576
0.686061 0.654780 0.581140
0.749599 0.686915 0.593317
0.817578 0.718307 0.611595
0.559747 0.654902 0.563653
0.561883 0.655055 0.564721
0.565728 0.655299 0.566705
0.571832 0.655665 0.569940
0.580255 0.656336 0.574548
0.590814 0.657252 0.580621
0.602960 0.658534 0.588220
0.613764 0.662348 0.592859
0.625788 0.667231 0.597101
0.639796 0.672969 0.602106
0.655879 0.679286 0.607691
0.673976 0.686366 0.614069
0.694118 0.694148 0.621180
0.716304 0.702571 0.628962
0.750484 0.722042 0.648768
0.814988 0.759687 0.669706
0.623743 0.720272 0.627161
0.625513 0.720455 0.628107
0.628901 0.720699 0.629877
0.634363 0.721187 0.632807
0.641749 0.721950 0.636988
0.651270 0.722957 0.642512
0.662440 0.724361 0.649500
0.673915 0.726802 0.656214
0.684627 0.731502 0.660426
0.697169 0.736934 0.665278
0.711513 0.743099 0.670924
0.727810 0.750027 0.677363
0.745968 0.757687 0.684443
0.766079 0.766079 0.692409
0.788083 0.775296 0.701259
0.824701 0.798500 0.725520
0.696437 0.792203 0.699458
0.698024 0.792386 0.700313
0.701015 0.792752 0.702022
0.705806 0.793362 0.704707
0.712490 0.794217 0.708614
0.721004 0.795377 0.713741
0.731289 0.796994 0.720272
0.743008 0.799008 0.728084
0.753384 0.803311 0.733394
0.764858 0.808774 0.738552
0.778012 0.815030 0.744533
0.792935 0.822141 0.751369
0.809751 0.830137 0.759182
0.828397 0.839048 0.767971
0.848936 0.848966 0.777859
0.871172 0.859812 0.788857
0.783541 0.874110 0.786109
0.785006 0.874353 0.787024
0.787695 0.874810 0.788612
0.791974 0.875572 0.791207
0.798022 0.876789 0.795022
0.805842 0.878341 0.800028
0.815341 0.880442 0.806378
0.826305 0.883060 0.814040
0.837738 0.886971 0.821918
0.848851 0.893098 0.828133
0.861641 0.900170 0.835444
0.876292 0.908338 0.844002
0.892806 0.917663 0.853960
0.911331 0.928297 0.865559
0.931810 0.940390 0.879163
0.954106 0.954078 0.895275
0.034699 0.021729 0.119356
0.061463 0.030121 0.122774
0.096498 0.044648 0.129244
0.141238 0.066102 0.141756
0.193942 0.086702 0.158572
0.247929 0.110658 0.176455
0.302770 0.128847 0.188510
0.355200 0.148074 0.199527
0.405768 0.167361 0.209964
0.450233 0.197787 0.228611
0.495735 0.220401 0.244968
0.543847 0.238987 0.259800
0.595911 0.258152 0.275608
0.652949 0.278538 0.293187
0.712612 0.301274 0.312749
0.774245 0.326683 0.335469
0.060273 0.070192 0.136477
0.083375 0.075868 0.140139
0.115572 0.087648 0.146334
0.155795 0.103548 0.156100
0.204074 0.118959 0.170504
0.256046 0.135683 0.184909
0.308568 0.150546 0.195102
0.359686 0.166293 0.204410
0.407507 0.186801 0.217227
0.451759 0.212802 0.235203
0.498207 0.230228 0.248936
0.546197 0.247959 0.263401
0.598291 0.266636 0.279149
0.655177 0.286564 0.296483
0.714504 0.308690 0.315862
0.775956 0.333918 0.338431
0.078523 0.116365 0.156619
0.102113 0.122255 0.161227
0.138613 0.135561 0.167117
0.175113 0.148409 0.175082
0.219333 0.160220 0.187778
0.269169 0.170260 0.196780
0.318669 0.181643 0.204654
0.363989 0.200809 0.217319
0.410346 0.216678 0.229984
0.456794 0.232029 0.242863
0.502708 0.247684 0.256077
0.550530 0.264164 0.269932
0.602502 0.281498 0.285252
0.659113 0.300664 0.302159
0.717983 0.322210 0.321599
0.778983 0.346712 0.344138
0.116793 0.179629 0.182223
0.134829 0.183474 0.185336
0.162478 0.189914 0.191165
0.200015 0.200015 0.200015
0.241032 0.206577 0.205844
0.284428 0.215152 0.213748
0.329198 0.224735 0.222263
0.374365 0.235904 0.232212
0.419715 0.247745 0.243198
0.464942 0.260563 0.255161
0.510155 0.274022 0.267308
0.557702 0.288518 0.280613
0.609491 0.304723 0.295262
0.665370 0.322759 0.312016
0.723445 0.343297 0.330938
0.783781 0.367135 0.353356
0.168612 0.237675 0.212924
0.182742 0.239567 0.215976
0.206058 0.242588 0.222477
0.232395 0.245121 0.232578
0.251530 0.251530 0.239841
0.293065 0.263859 0.241672
0.345922 0.269352 0.242802
0.389014 0.277440 0.251560
0.432563 0.286656 0.260990
0.476448 0.296941 0.271550
0.520531 0.307927 0.282719
0.567620 0.320684 0.295140
0.619318 0.335393 0.309270
0.674128 0.352239 0.325322
0.731136 0.371710 0.344030
0.790565 0.394521 0.366387
0.225223 0.288914 0.251804
0.235447 0.290349 0.255558
0.249607 0.291417 0.260502
0.267796 0.292119 0.268132
0.284489 0.295842 0.275731
0.303655 0.303593 0.281376
0.337774 0.316258 0.285252
0.392798 0.327367 0.283665
0.448768 0.331884 0.283513
0.491066 0.339391 0.292332
0.534051 0.348272 0.302281
0.580957 0.359319 0.313848
0.631861 0.372656 0.327092
0.685176 0.388281 0.342809
0.740810 0.406683 0.361334
0.799242 0.428618 0.383722
0.273930 0.339269 0.292851
0.280156 0.339330 0.294987
0.290440 0.339483 0.298894
0.304997 0.340032 0.305303
0.320867 0.341619 0.313725
0.335882 0.348089 0.318425
0.355901 0.355901 0.324285
0.383581 0.366247 0.330358
0.436835 0.381292 0.327306
0.493629 0.389380 0.325475
0.550744 0.393866 0.325750
0.597375 0.403418 0.336217
0.646693 0.415442 0.349096
0.698238 0.429786 0.364263
0.752499 0.447181 0.382666
0.809570 0.468360 0.405235
0.318364 0.387640 0.333135
0.323033 0.387640 0.334874
0.331212 0.387945 0.338323
0.343175 0.388434 0.343694
0.357794 0.389136 0.351354
0.371283 0.393408 0.356695
0.387457 0.399969 0.361517
0.407507 0.407599 0.367254
