example_ofxGpuLutCube/bin/data/ofxGpuLutCube/LUT/U34 (teal desat fade).cube
LUT_3D_SIZE 6
0.000000 0.000000 0.000000
0.142885 0.042390 0.039368
0.295842 0.094270 0.086488
0.444129 0.159854 0.148867
0.591394 0.230198 0.216739
0.771977 0.311325 0.293821
0.121401 0.154513 0.121767
0.169558 0.169436 0.140261
0.326238 0.199283 0.141817
0.461646 0.235325 0.189212
0.605310 0.284489 0.243839
0.781880 0.354842 0.315622
0.261692 0.315862 0.262150
0.286931 0.318334 0.275517
0.338872 0.338903 0.292027
0.473915 0.377508 0.294163
0.644007 0.404425 0.310277
0.808527 0.460352 0.374596
0.394476 0.471199 0.395270
0.411292 0.472053 0.403906
0.446204 0.481117 0.418921
0.502678 0.502678 0.435767
0.630060 0.552819 0.452888
0.833304 0.613283 0.486414
0.557031 0.650935 0.558007
0.568963 0.651820 0.564446
0.599634 0.654902 0.582666
0.636469 0.670039 0.596033
0.691615 0.691615 0.615778
0.811763 0.757245 0.665636
0.783806 0.872760 0.784753
0.792088 0.874313 0.789882
0.815180 0.879185 0.805085
0.848049 0.892299 0.826199
0.892159 0.916987 0.852271
0.953433 0.953434 0.893801
0.034699 0.021729 0.119356
0.141238 0.066102 0.141756
0.302770 0.128847 0.188510
0.450233 0.197787 0.228611
0.595911 0.258152 0.275608
0.774245 0.326683 0.335469
0.116793 0.179629 0.182223
0.200015 0.200015 0.200015
0.329198 0.224735 0.222263
0.464942 0.260563 0.255161
0.609491 0.304723 0.295262
0.783781 0.367135 0.353356
0.273930 0.339269 0.292851
0.304997 0.340032 0.305303
0.355901 0.355901 0.324285
0.493629 0.389380 0.325475
0.646693 0.415442 0.349096
0.809570 0.468360 0.405235
0.404517 0.486488 0.415106
0.422492 0.487190 0.423163
0.460273 0.493477 0.441138
0.514092 0.514122 0.456611
0.642390 0.562585 0.471931
0.842133 0.616388 0.502865
0.562341 0.659022 0.569421
0.574517 0.659754 0.575463
0.606073 0.662409 0.593408
0.643183 0.675868 0.608209
0.696773 0.696773 0.626673
0.818338 0.762251 0.673836
0.783181 0.875491 0.787525
0.791736 0.876982 0.792622
0.815319 0.881761 0.807701
0.849651 0.893867 0.830159
0.893483 0.918401 0.855740
0.954751 0.954723 0.896750
0.085939 0.051362 0.250187
0.165103 0.088136 0.266087
0.302831 0.165072 0.303258
0.458778 0.233524 0.352575
0.617792 0.281773 0.384405
0.793734 0.327453 0.414059
0.144533 0.178988 0.289525
0.213260 0.203281 0.301671
0.332250 0.252140 0.332555
0.476448 0.296635 0.373693
0.629419 0.327062 0.394965
0.791773 0.379898 0.429100
0.245792 0.355505 0.359686
0.291386 0.366796 0.369879
0.400000 0.400000 0.400000
0.517082 0.414282 0.412024
0.654414 0.438819 0.433631
0.812850 0.482311 0.473444
0.405219 0.521324 0.460487
0.434577 0.525994 0.470619
0.493141 0.530175 0.493538
0.545129 0.545129 0.511833
0.678340 0.584985 0.520165
0.850269 0.623932 0.552051
0.569116 0.681666 0.597864
0.583276 0.682094 0.603388
0.619104 0.683742 0.619776
0.661372 0.692164 0.640223
0.711269 0.711299 0.655634
0.838185 0.775205 0.694774
0.777540 0.883680 0.794150
0.787074 0.885016 0.799186
0.813284 0.889215 0.814078
0.853721 0.898263 0.840996
0.896992 0.922455 0.865319
0.958554 0.958526 0.905129
0.141787 0.091524 0.375219
0.197757 0.116823 0.386725
0.316686 0.183078 0.418372
0.464607 0.266361 0.465492
0.632074 0.331914 0.521202
0.814504 0.411308 0.582923
0.189273 0.195499 0.399054
0.235294 0.211032 0.408820
0.342565 0.256992 0.437995
0.483192 0.325261 0.483925
0.644984 0.380591 0.536950
0.819248 0.444059 0.588831
0.231693 0.318212 0.436133
0.277226 0.333898 0.448768
0.395239 0.385931 0.483497
0.530907 0.447669 0.531304
0.676600 0.492195 0.576837
0.833431 0.513411 0.596858
0.363867 0.526177 0.532280
0.394141 0.533806 0.539361
0.474708 0.556420 0.559899
0.600031 0.600031 0.600031
0.713558 0.605921 0.603723
0.856529 0.627851 0.622583
0.543542 0.710353 0.642329
0.562615 0.712612 0.646632
0.616114 0.719570 0.661341
0.688563 0.725216 0.688930
0.738766 0.738796 0.705562
0.878540 0.792072 0.727948
0.755621 0.900121 0.807721
0.766510 0.901343 0.811477
0.798926 0.904579 0.824619
0.850942 0.911565 0.851582
0.903281 0.930018 0.883243
0.965683 0.965653 0.920730
0.201938 0.127901 0.526085
0.246067 0.146944 0.536095
0.351690 0.199283 0.564752
0.501183 0.287144 0.613397
0.661585 0.382849 0.662806
0.822961 0.464095 0.712425
0.226688 0.205966 0.539605
0.267430 0.219577 0.549004
0.368261 0.260380 0.576349
0.514061 0.337285 0.623682
0.671107 0.426581 0.672206
0.828826 0.500342 0.721238
0.253086 0.321569 0.564599
0.297215 0.335973 0.574243
0.396796 0.371008 0.600885
0.542870 0.440650 0.647211
0.695888 0.526940 0.696712
0.846922 0.583256 0.744758
0.284672 0.464942 0.605371
0.312230 0.467170 0.608606
0.386236 0.474556 0.619654
0.570642 0.559899 0.675196
0.736141 0.651453 0.736568
0.880113 0.697184 0.783429
0.476722 0.700954 0.709346
0.497566 0.705196 0.713008
0.556268 0.718318 0.724758
0.656855 0.745876 0.749691
0.800015 0.800015 0.800015
0.918319 0.799680 0.797249
0.712136 0.923968 0.853857
0.724528 0.925374 0.855778
0.760685 0.929499 0.861937
0.824290 0.937018 0.876149
0.909963 0.946905 0.910360
0.977791 0.977722 0.948009
0.295893 0.177255 0.774523
0.335912 0.194164 0.780339
0.435565 0.242900 0.796963
0.578573 0.331228 0.824582
0.743164 0.468150 0.859383
0.885004 0.579385 0.886342
0.296945 0.231449 0.778875
0.337652 0.245390 0.784599
0.438629 0.287671 0.800976
0.583298 0.368845 0.828289
0.748488 0.499452 0.862723
0.888678 0.604111 0.889986
0.268816 0.322342 0.787292
0.317542 0.334330 0.793078
0.432067 0.372031 0.809669
0.589048 0.447918 0.837107
0.760037 0.567693 0.871817
0.899299 0.663359 0.900456
0.001532 0.412571 0.801698
0.117515 0.414472 0.806059
0.347119 0.451165 0.817537
0.568496 0.533325 0.847852
0.770626 0.651493 0.886622
0.918878 0.750872 0.919764
0.269747 0.677521 0.868943
0.294316 0.674472 0.869134
0.358573 0.663902 0.869438
0.457814 0.635988 0.868986
0.757257 0.741679 0.906258
0.950214 0.863033 0.950763
0.652360 0.951515 0.962780
0.663668 0.952771 0.963766
0.697427 0.956655 0.966787
0.760204 0.964226 0.972642
0.859215 0.977130 0.982558
0.999228 0.999337 0.999522
