example_ofxGpuLutCube/bin/data/ofxGpuLutCube/LUT/U35 (teal sunset fade).cube
LUT_3D_SIZE 6
0.036927 0.031922 0.027253
0.113874 0.038970 0.036896
0.224710 0.029618 0.045346
0.413585 0.000000 0.054568
0.646582 0.000000 0.065782
0.841141 0.000000 0.099480
0.064968 0.119433 0.079211
0.101702 0.116745 0.066655
0.261852 0.100812 0.034842
0.448001 0.046399 0.040307
0.653898 0.000600 0.049902
0.835693 0.000000 0.083147
0.109454 0.265164 0.166024
0.164158 0.255119 0.176334
0.242746 0.271491 0.133363
0.504165 0.273080 0.015359
0.709164 0.237107 0.000000
0.857297 0.272018 0.012025
0.217983 0.449200 0.285416
0.256330 0.441216 0.287979
0.328879 0.437924 0.293237
0.450845 0.465330 0.229195
0.685433 0.503669 0.064317
0.853168 0.485996 0.000000
0.414104 0.617984 0.453050
0.435696 0.618298 0.458256
0.503856 0.616267 0.489239
0.548686 0.634020 0.479330
0.647278 0.659146 0.430026
0.797203 0.684565 0.313464
0.612954 0.771604 0.676456
0.609227 0.763039 0.664684
0.636243 0.763091 0.678857
0.674288 0.767313 0.703875
0.706006 0.789775 0.698025
0.780488 0.815604 0.688315
0.029983 0.055595 0.132957
0.116865 0.061880 0.105145
0.240614 0.065307 0.084675
0.431039 0.018853 0.069966
0.651530 0.000000 0.056776
0.840251 0.000000 0.093022
0.037274 0.152277 0.144456
0.136202 0.154142 0.135209
0.280553 0.137236 0.107831
0.467470 0.097034 0.077059
0.668839 0.004759 0.039408
0.836656 0.006342 0.075953
0.097913 0.302072 0.205737
0.188610 0.298468 0.214330
0.273162 0.295610 0.185358
0.519212 0.278673 0.096118
0.706378 0.253278 0.012182
0.855118 0.282189 0.002021
0.259470 0.480357 0.330162
0.291339 0.473507 0.327137
0.369587 0.458967 0.337910
0.471641 0.481850 0.275258
0.692891 0.509511 0.142363
0.855279 0.491827 0.000047
0.441998 0.634165 0.485638
0.458472 0.632588 0.486623
0.516677 0.630425 0.509276
0.562800 0.642422 0.507930
0.652898 0.666156 0.461461
0.800551 0.689191 0.350808
0.617203 0.776900 0.686911
0.614759 0.769224 0.676476
0.638835 0.769421 0.687087
0.680370 0.770818 0.714706
0.708446 0.791913 0.706756
0.781745 0.817120 0.695576
0.000000 0.082892 0.267870
0.092681 0.092535 0.252255
0.259259 0.103098 0.231848
0.480377 0.052923 0.212745
0.669944 0.055733 0.185538
0.848744 0.000007 0.127241
0.000000 0.154279 0.285821
0.118564 0.169926 0.277670
0.298638 0.184744 0.265367
0.498902 0.163051 0.234082
0.682487 0.155650 0.198488
0.842969 0.115847 0.123549
0.000000 0.331377 0.320740
0.117954 0.343381 0.324198
0.360822 0.368067 0.328575
0.547993 0.341120 0.280888
0.714521 0.318797 0.224000
0.858291 0.317379 0.139780
0.148429 0.524823 0.394707
0.269225 0.527782 0.403612
0.443607 0.528840 0.432089
0.527872 0.531101 0.400334
0.719296 0.528592 0.290924
0.859408 0.510988 0.190578
0.425380 0.658868 0.525693
0.470764 0.661144 0.538558
0.543735 0.664630 0.561355
0.597572 0.663924 0.577196
0.667289 0.684555 0.536042
0.809085 0.697129 0.429918
0.613138 0.788547 0.705904
0.621016 0.782405 0.702329
0.643290 0.782341 0.707231
0.686534 0.783018 0.731224
0.716326 0.798673 0.731342
0.787196 0.823358 0.718180
0.000000 0.121045 0.439303
0.002455 0.128476 0.436214
0.268134 0.148412 0.437751
0.505316 0.153681 0.432416
0.727642 0.136566 0.433074
0.857480 0.207005 0.383899
0.000000 0.176230 0.464954
0.025346 0.196411 0.459059
0.302855 0.219262 0.459604
0.528959 0.240513 0.454985
0.724660 0.241359 0.443187
0.845796 0.267784 0.383399
0.000000 0.319328 0.478609
0.006366 0.327495 0.483105
0.345361 0.374788 0.495801
0.562997 0.421594 0.502142
0.715854 0.422830 0.475621
0.831818 0.443619 0.434077
0.014038 0.540377 0.531207
0.190202 0.547126 0.535193
0.398681 0.566153 0.546686
0.592202 0.599217 0.567771
0.719568 0.578228 0.518495
0.849471 0.550545 0.438965
0.312365 0.694058 0.598946
0.371294 0.695299 0.602707
0.497783 0.700044 0.617849
0.631993 0.707304 0.655976
0.688003 0.712505 0.636063
0.829075 0.703915 0.533139
0.530391 0.807032 0.715886
0.540127 0.801149 0.709232
0.613978 0.802759 0.729575
0.689102 0.806350 0.757310
0.732301 0.809970 0.771794
0.797524 0.834416 0.755695
0.000000 0.181726 0.642974
0.001279 0.188037 0.643530
0.298320 0.207996 0.646791
0.552072 0.268599 0.658186
0.724098 0.323358 0.657301
0.849964 0.380302 0.649363
0.000000 0.230706 0.653520
0.006688 0.247098 0.651438
0.326556 0.271961 0.655758
0.560641 0.334836 0.664108
0.719426 0.385172 0.660694
0.839843 0.416254 0.646426
0.000000 0.324711 0.654224
0.000000 0.335571 0.657503
0.348017 0.400687 0.665116
0.567704 0.465386 0.674518
0.712673 0.518057 0.679602
0.830078 0.535645 0.672283
0.000000 0.531308 0.678058
0.013956 0.533368 0.679312
0.313482 0.537801 0.681654
0.565871 0.594710 0.697139
0.712187 0.649457 0.714750
0.818759 0.648899 0.698040
0.305855 0.701374 0.719233
0.352359 0.704122 0.721220
0.459181 0.713409 0.728208
0.590305 0.731035 0.740655
0.725758 0.761273 0.763671
0.828957 0.735011 0.713337
0.447647 0.836979 0.790675
0.455622 0.833467 0.784518
0.517634 0.836238 0.785635
0.624433 0.837392 0.791892
0.750641 0.838386 0.817901
0.817159 0.853462 0.812907
0.227745 0.349868 0.838365
0.309954 0.359861 0.837917
0.461787 0.392527 0.836598
0.613670 0.463771 0.835807
0.733317 0.561419 0.836614
0.835926 0.592585 0.835126
0.234512 0.389562 0.840150
0.322949 0.404388 0.838560
0.463513 0.431483 0.835748
0.608597 0.488286 0.832513
0.725523 0.566783 0.829863
0.826450 0.587788 0.824660
0.000001 0.414408 0.845278
0.185163 0.440762 0.844621
0.461854 0.517925 0.840030
0.607074 0.563899 0.838178
0.723993 0.625356 0.836914
0.824648 0.648759 0.835090
0.000000 0.557675 0.855656
0.000163 0.551995 0.855189
0.268892 0.549147 0.853780
0.581929 0.636627 0.848399
0.720809 0.691492 0.849123
0.826331 0.720934 0.850188
0.330720 0.737613 0.874930
0.357908 0.736725 0.874731
0.429682 0.734651 0.874663
0.533526 0.729041 0.873573
0.707170 0.762067 0.871039
0.839515 0.803198 0.874687
0.526564 0.870013 0.891294
0.532752 0.869016 0.889855
0.565363 0.870828 0.890130
0.624617 0.874436 0.891106
0.718450 0.881190 0.894621
0.866663 0.895687 0.907651
