example_ofxGpuLutCube/bin/data/ofxGpuLutCube/LUT/U35 (teal sunset fade).cube
LUT_3D_SIZE 16
0.036927 0.031922 0.027253
0.055681 0.034158 0.029315
0.083755 0.037520 0.033538
0.113874 0.038970 0.036896
0.144406 0.038806 0.039520
0.182355 0.035996 0.042509
0.224710 0.029618 0.045346
0.279954 0.016638 0.048573
0.342782 0.000000 0.051402
0.413585 0.000000 0.054568
0.489797 0.000000 0.057454
0.569417 0.000000 0.061204
0.646582 0.000000 0.065782
0.724720 0.000000 0.073335
0.790475 0.000000 0.084610
0.841141 0.000000 0.099480
0.047424 0.058188 0.042426
0.056786 0.057960 0.039133
0.091774 0.056638 0.033146
0.122174 0.053603 0.035262
0.152057 0.050895 0.038259
0.188678 0.047325 0.041008
0.234295 0.040745 0.043987
0.289513 0.027014 0.046714
0.350138 0.007292 0.049944
0.420690 0.000000 0.052580
0.495035 0.000000 0.055470
0.572721 0.000000 0.059159
0.647356 0.000000 0.063010
0.724549 0.000000 0.070953
0.790084 0.000000 0.082310
0.842466 0.000000 0.097796
0.055539 0.087145 0.059282
0.063720 0.081496 0.059369
0.076323 0.083687 0.050854
0.118686 0.086290 0.038457
0.160811 0.076034 0.035675
0.204731 0.070596 0.037313
0.250380 0.063452 0.040306
0.303807 0.051598 0.043464
0.363360 0.029571 0.045998
0.433580 0.000865 0.048852
0.504981 0.000111 0.051649
0.579353 0.000000 0.054643
0.650734 0.000000 0.058649
0.726694 0.000000 0.066044
0.791134 0.000000 0.077588
0.844440 0.000000 0.093851
0.064968 0.119433 0.079211
0.074017 0.113931 0.079286
0.081634 0.112627 0.076649
0.101702 0.116745 0.066655
0.152918 0.123052 0.050567
0.211116 0.113557 0.037421
0.261852 0.100812 0.034842
0.320468 0.089299 0.035094
0.381539 0.072845 0.037839
0.448001 0.046399 0.040307
0.514691 0.008339 0.042874
0.584588 0.001490 0.045892
0.653898 0.000600 0.049902
0.724522 0.000685 0.056488
0.783891 0.000884 0.067485
0.835693 0.000000 0.083147
0.076000 0.157966 0.102893
0.084962 0.155388 0.103370
0.102322 0.151391 0.108411
0.110150 0.156057 0.099964
0.139192 0.161534 0.087049
0.204442 0.173263 0.065833
0.276528 0.164490 0.044176
0.346657 0.144760 0.029291
0.414936 0.129393 0.025145
0.487034 0.110740 0.023815
0.552843 0.088027 0.025853
0.621765 0.060627 0.028352
0.687562 0.035843 0.032593
0.752649 0.035786 0.040934
0.807044 0.064379 0.055058
0.850283 0.100768 0.074505
0.090942 0.206996 0.131904
0.099498 0.206447 0.132845
0.118939 0.203048 0.137406
0.133450 0.200799 0.137384
0.146595 0.205336 0.124835
0.184916 0.211875 0.108578
0.260945 0.227371 0.082217
0.346436 0.223063 0.051763
0.430086 0.204651 0.022417
0.500644 0.181377 0.006311
0.569370 0.167355 0.003953
0.640948 0.155595 0.001056
0.701375 0.149959 0.003503
0.760990 0.156691 0.011036
0.811790 0.172013 0.026335
0.854169 0.193129 0.052523
0.109454 0.265164 0.166024
0.118813 0.265404 0.167105
0.137693 0.262147 0.170112
0.164158 0.255119 0.176334
0.173496 0.257647 0.168399
0.195133 0.263979 0.153116
0.242746 0.271491 0.133363
0.330350 0.291095 0.100477
0.417093 0.287652 0.060341
0.504165 0.273080 0.015359
0.578642 0.251072 0.000411
0.648021 0.239400 0.000000
0.709164 0.237107 0.000000
0.768331 0.243571 0.000000
0.815994 0.255522 0.000772
0.857297 0.272018 0.012025
0.135596 0.326507 0.202814
0.145639 0.328307 0.204812
0.162771 0.327443 0.207293
0.193334 0.321636 0.214074
0.216761 0.315655 0.217195
0.225336 0.320044 0.201944
0.252186 0.324073 0.182164
0.303572 0.329582 0.158330
0.392989 0.350619 0.120648
0.481820 0.352748 0.072755
0.569413 0.345996 0.012827
0.648078 0.333681 0.000797
0.708373 0.315318 0.000000
0.764438 0.321529 0.000000
0.813150 0.329020 0.000000
0.856389 0.341948 0.000008
0.166456 0.379372 0.236453
0.173722 0.378418 0.236646
0.187939 0.377999 0.238388
0.215972 0.374228 0.244315
0.248612 0.368341 0.252979
0.264384 0.370037 0.249552
0.281066 0.378544 0.234226
0.317002 0.386748 0.214746
0.375412 0.396250 0.190060
0.469497 0.422693 0.150533
0.559032 0.432958 0.096179
0.640557 0.434134 0.021107
0.709955 0.427658 0.002761
0.768584 0.418441 0.000000
0.817978 0.415218 0.000000
0.858408 0.422049 0.000000
0.217983 0.449200 0.285416
0.223226 0.446848 0.284492
0.234389 0.444881 0.284673
0.256330 0.441216 0.287979
0.288558 0.435534 0.296271
0.319480 0.429617 0.305378
0.328879 0.437924 0.293237
0.351264 0.446743 0.276333
0.391995 0.455691 0.255532
0.450845 0.465330 0.229195
0.539110 0.491597 0.189317
0.616362 0.501922 0.135520
0.685433 0.503669 0.064317
0.751262 0.504156 0.007771
0.807653 0.498636 0.001232
0.853168 0.485996 0.000000
0.282327 0.517634 0.341374
0.286574 0.516100 0.340652
0.295088 0.513943 0.340169
0.310319 0.510949 0.341346
0.339547 0.506208 0.348916
0.370593 0.500144 0.358491
0.389982 0.499841 0.359444
0.401649 0.507324 0.344464
0.427459 0.515192 0.326164
0.467237 0.522036 0.303469
0.521124 0.529995 0.275926
0.595244 0.551190 0.237224
0.662996 0.562343 0.189332
0.727821 0.569392 0.129795
0.785451 0.570061 0.036849
0.837783 0.564095 0.000307
0.357678 0.577214 0.403160
0.360660 0.575927 0.402434
0.367335 0.574482 0.402380
0.377965 0.572165 0.402739
0.399005 0.568188 0.407738
0.425627 0.562997 0.416421
0.452043 0.557622 0.426505
0.460067 0.561639 0.417479
0.473412 0.568441 0.401995
0.497426 0.574503 0.382598
0.533021 0.580314 0.359884
0.580125 0.587493 0.333220
0.643052 0.605477 0.296448
0.705045 0.619165 0.257610
0.761824 0.625695 0.209217
0.814386 0.627406 0.148011
0.414104 0.617984 0.453050
0.416886 0.617315 0.452890
0.424521 0.618012 0.455230
0.435696 0.618298 0.458256
0.453834 0.618534 0.465207
0.478100 0.617365 0.476016
0.503856 0.616267 0.489239
0.522995 0.617072 0.497227
0.532920 0.625803 0.490282
0.548686 0.634020 0.479330
0.573772 0.642839 0.466852
0.606403 0.650599 0.450024
0.647278 0.659146 0.430026
0.700741 0.675801 0.402937
0.751366 0.684899 0.364470
0.797203 0.684565 0.313464
0.501822 0.681162 0.540462
0.494198 0.674233 0.530473
0.494052 0.670969 0.526655
0.499871 0.669831 0.527003
0.511163 0.670069 0.531126
0.529447 0.669236 0.539916
0.549864 0.668423 0.551070
0.570115 0.667502 0.563298
0.581053 0.672553 0.564942
0.589507 0.679336 0.556876
0.604664 0.686781 0.547797
0.625658 0.693332 0.535129
0.653948 0.700310 0.520924
0.687685 0.705946 0.500368
0.730880 0.716894 0.473634
0.775545 0.723943 0.437435
0.560696 0.727908 0.609497
0.554536 0.722248 0.600738
0.553305 0.718965 0.596289
0.556735 0.717536 0.595642
0.564187 0.717351 0.598105
0.576964 0.716843 0.604369
0.593257 0.716721 0.614083
0.609773 0.715980 0.624482
0.625051 0.716345 0.634540
0.630075 0.722057 0.629512
0.638961 0.728474 0.623226
0.652678 0.734897 0.615302
0.672587 0.742110 0.607096
0.697373 0.748342 0.595318
0.727116 0.753605 0.579005
0.761421 0.758913 0.551530
0.612954 0.771604 0.676456
0.607816 0.766834 0.668875
0.606716 0.764141 0.665174
0.609227 0.763039 0.664684
0.614740 0.762947 0.666641
0.623418 0.762911 0.670873
0.636243 0.763091 0.678857
0.649996 0.763113 0.687898
0.664900 0.763719 0.699003
0.674288 0.767313 0.703875
0.681019 0.774322 0.702270
0.690922 0.781400 0.699558
0.706006 0.789775 0.698025
0.725142 0.797825 0.694785
0.749992 0.806551 0.691817
0.780488 0.815604 0.688315
0.039749 0.038710 0.050927
0.060221 0.041451 0.049285
0.089347 0.041822 0.044913
0.118223 0.046046 0.042583
0.151977 0.048723 0.041722
0.190138 0.046670 0.041276
0.234908 0.041649 0.043999
0.288810 0.029150 0.046584
0.349160 0.009196 0.049420
0.419241 0.000000 0.052206
0.493758 0.000000 0.055491
0.570120 0.000000 0.058791
0.644129 0.000000 0.063297
0.720687 0.000000 0.070547
0.785476 0.000000 0.081915
0.837435 0.000000 0.096825
0.040589 0.068884 0.063231
0.065288 0.068535 0.058686
0.093046 0.066061 0.053216
0.124965 0.064328 0.049122
0.158180 0.062495 0.045277
0.198401 0.058675 0.041455
0.244788 0.052903 0.042431
0.298584 0.040746 0.044967
0.358830 0.018729 0.047738
0.429585 0.000145 0.050547
0.502231 0.000000 0.053396
0.576499 0.000000 0.056960
0.647660 0.000000 0.060944
0.722288 0.000000 0.068248
0.785698 0.000000 0.079549
0.838276 0.000000 0.094773
0.052765 0.102325 0.074832
0.073046 0.097372 0.075168
0.086131 0.095374 0.068906
0.129884 0.094202 0.056764
0.169362 0.087330 0.050876
0.214214 0.082442 0.045449
0.261536 0.074806 0.040535
0.315116 0.063142 0.041370
0.377083 0.041792 0.043783
0.445290 0.009741 0.046427
0.512983 0.000361 0.049233
0.583302 0.000000 0.052327
0.652374 0.000000 0.056310
0.725150 0.000000 0.063775
0.787184 0.000000 0.075020
0.839226 0.000000 0.090594
0.070110 0.136030 0.095444
0.082183 0.131089 0.094472
0.094416 0.124896 0.093357
0.111965 0.127866 0.082591
0.164582 0.132140 0.066428
0.221666 0.120337 0.053335
0.273107 0.110485 0.045783
0.332561 0.099027 0.037592
0.395069 0.082662 0.035569
0.459565 0.058286 0.037917
0.524616 0.021203 0.040331
0.592727 0.001854 0.043144
0.662099 0.000908 0.047313
0.729924 0.000987 0.054476
0.786462 0.001070 0.065688
0.835263 0.000237 0.081120
0.084491 0.170407 0.116559
0.092484 0.167125 0.115190
0.107850 0.160796 0.116760
0.117455 0.160732 0.110990
0.142865 0.164599 0.097761
0.205552 0.174293 0.078104
0.276837 0.165282 0.058052
0.343646 0.146457 0.043713
0.408944 0.133936 0.031939
0.478411 0.117204 0.023982
0.545723 0.096312 0.024297
0.615152 0.072964 0.025760
0.682290 0.050408 0.029546
0.747534 0.047726 0.037663
0.802427 0.070408 0.051984
0.847623 0.104188 0.071461
0.098238 0.217230 0.143348
0.106313 0.215191 0.142779
0.121923 0.209753 0.143448
0.140762 0.203744 0.145990
0.151824 0.208163 0.133932
0.188021 0.214376 0.118173
0.261286 0.227398 0.092769
0.344403 0.221800 0.065209
0.424678 0.202651 0.038870
0.493748 0.182501 0.020196
0.561355 0.169830 0.003914
0.633890 0.159052 0.000452
0.695932 0.152903 0.001935
0.755509 0.157842 0.008947
0.806786 0.171365 0.023838
0.851018 0.193043 0.049262
0.117213 0.275083 0.176438
0.126197 0.274241 0.176709
0.140351 0.269458 0.176335
0.167648 0.261158 0.181580
0.180294 0.260126 0.176497
0.198925 0.265435 0.160823
0.243661 0.271393 0.141026
0.328019 0.289147 0.109923
0.414940 0.285886 0.073215
0.501394 0.270870 0.030774
0.573210 0.247986 0.001714
0.640744 0.238025 0.000000
0.702102 0.235465 0.000000
0.761984 0.240906 0.000000
0.810367 0.251820 0.000559
0.853496 0.269185 0.008699
0.142899 0.333325 0.211075
0.152410 0.333477 0.211883
0.165969 0.329939 0.211687
0.193489 0.322890 0.216212
0.220935 0.314260 0.221583
0.228197 0.318945 0.207256
0.254384 0.324059 0.188604
0.304591 0.329896 0.165373
0.392381 0.349913 0.129624
0.480263 0.351262 0.085228
0.566481 0.343279 0.029036
0.643647 0.329998 0.001957
0.703783 0.313241 0.000000
0.759614 0.318719 0.000000
0.807945 0.324840 0.000000
0.850563 0.335099 0.000000
0.177033 0.390060 0.247267
0.183859 0.388542 0.246947
0.196682 0.385787 0.246751
0.220244 0.380847 0.250060
0.253009 0.373624 0.257883
0.271118 0.372783 0.256653
0.286349 0.380958 0.241395
0.320856 0.388780 0.222085
0.377508 0.397540 0.197593
0.469901 0.422736 0.159111
0.558374 0.431943 0.108021
0.639286 0.432291 0.039390
0.708448 0.425316 0.003471
0.766786 0.416784 0.000002
0.816867 0.414948 0.000000
0.858552 0.423422 0.000000
0.226737 0.455649 0.293835
0.232236 0.453808 0.292952
0.242553 0.451223 0.292403
0.260759 0.447342 0.293891
0.293342 0.441478 0.302039
0.325337 0.434099 0.311253
0.334345 0.440111 0.299839
0.354768 0.448041 0.282292
0.393649 0.456171 0.261364
0.451012 0.465040 0.235242
0.537757 0.489996 0.195840
0.614918 0.500160 0.144493
0.684250 0.502162 0.078295
0.750564 0.503008 0.008389
0.806816 0.498524 0.002029
0.853372 0.486890 0.000000
0.290039 0.522312 0.348794
0.294961 0.521410 0.348649
0.303146 0.519218 0.347963
0.316456 0.515812 0.347741
0.343420 0.510564 0.353856
0.373827 0.503705 0.362559
0.394196 0.501031 0.364619
0.404489 0.507634 0.349180
0.428900 0.515031 0.330640
0.467489 0.521520 0.307972
0.520213 0.528943 0.280517
0.593825 0.549655 0.242142
0.661121 0.560289 0.195104
0.726157 0.567146 0.138305
0.784342 0.568149 0.054336
0.837023 0.563389 0.000509
0.363209 0.579712 0.408848
0.366375 0.578779 0.408352
0.372095 0.576792 0.407499
0.382160 0.574119 0.407253
0.401362 0.570403 0.411136
0.427770 0.565241 0.419623
0.454181 0.559854 0.429590
0.463451 0.562586 0.422197
0.475137 0.568545 0.406031
0.497749 0.573965 0.385933
0.532013 0.578972 0.362461
0.578208 0.585554 0.335401
0.640455 0.602726 0.298060
0.702243 0.615850 0.258955
0.758792 0.621663 0.209709
0.811612 0.623248 0.148036
0.422326 0.622768 0.461537
0.424747 0.622055 0.461055
0.431579 0.622158 0.462632
0.441586 0.621918 0.464749
0.457323 0.621740 0.469919
0.481013 0.620250 0.480139
0.506568 0.619045 0.493202
0.526668 0.618960 0.502198
0.535707 0.627146 0.494971
0.550668 0.634969 0.483681
0.574806 0.643389 0.470830
0.606903 0.651014 0.454133
0.647570 0.659579 0.434340
0.700894 0.676298 0.407576
0.751709 0.685637 0.370449
0.798150 0.685745 0.320962
0.506036 0.683906 0.545934
0.499088 0.677547 0.536603
0.499116 0.674420 0.532921
0.504709 0.673162 0.533025
0.515065 0.673134 0.536406
0.532163 0.672040 0.544153
0.552016 0.670811 0.554614
0.571815 0.669517 0.566191
0.583111 0.673479 0.568361
0.590970 0.679948 0.559942
0.605438 0.687083 0.550423
0.626079 0.693608 0.537808
0.654326 0.700760 0.524083
0.688112 0.706627 0.504065
0.731472 0.717852 0.478093
0.776375 0.725180 0.443171
0.563083 0.729721 0.613195
0.557474 0.724473 0.605045
0.556607 0.721512 0.601085
0.560124 0.720158 0.600557
0.567304 0.719863 0.602721
0.579074 0.719298 0.608067
0.594980 0.718881 0.617239
0.611139 0.717770 0.627048
0.626647 0.717265 0.637250
0.631189 0.722628 0.631830
0.639706 0.728837 0.625300
0.653134 0.735205 0.617343
0.672784 0.742312 0.608993
0.697489 0.748629 0.597439
0.727426 0.754123 0.581658
0.762099 0.759843 0.555011
0.614399 0.773013 0.679032
0.609632 0.768476 0.671935
0.608624 0.765860 0.668368
0.611254 0.764838 0.667978
0.616735 0.764805 0.669904
0.624940 0.764831 0.673726
0.637606 0.764886 0.681430
0.651206 0.764782 0.690221
0.665750 0.765047 0.700781
0.675441 0.768088 0.705989
0.681773 0.774852 0.703989
0.691247 0.781598 0.700883
0.705810 0.789546 0.698591
0.724761 0.797385 0.694899
0.749491 0.806082 0.691695
0.780078 0.815168 0.688228
0.038153 0.047992 0.093534
0.061052 0.049781 0.085933
0.087223 0.050318 0.076258
0.122315 0.050365 0.069901
0.152042 0.055222 0.063179
0.189093 0.060373 0.061980
0.237268 0.057753 0.058961
0.292974 0.047972 0.054221
0.354319 0.025046 0.047643
0.424738 0.000350 0.050027
0.497859 0.000000 0.052588
0.573068 0.000000 0.055704
0.645940 0.000000 0.059985
0.722615 0.000000 0.067729
0.786740 0.000000 0.079358
0.838626 0.000000 0.095047
0.039166 0.071236 0.097608
0.065218 0.074217 0.091077
0.090673 0.075070 0.083244
0.123289 0.074795 0.077146
0.154073 0.077622 0.072671
0.197716 0.075529 0.068171
0.246142 0.070380 0.063102
0.301790 0.058520 0.056134
0.364993 0.036373 0.049087
0.435111 0.004794 0.047884
0.506194 0.000004 0.050728
0.579126 0.000000 0.053430
0.649884 0.000000 0.057773
0.724064 0.000000 0.065405
0.786892 0.000000 0.077011
0.839336 0.000000 0.093211
0.042384 0.108341 0.101836
0.065934 0.107125 0.097607
0.095220 0.106866 0.092892
0.129624 0.104065 0.086598
0.168961 0.100946 0.080198
0.213725 0.096756 0.073504
0.262513 0.089931 0.066500
0.317735 0.078773 0.058809
0.382222 0.060253 0.050385
0.450014 0.028791 0.043865
0.516550 0.001334 0.046425
0.585808 0.000016 0.048936
0.654987 0.000000 0.052975
0.726667 0.000000 0.060480
0.788126 0.000000 0.072053
0.839915 0.000000 0.088621
0.050360 0.148041 0.111250
0.075531 0.144780 0.110358
0.104750 0.140447 0.111141
0.122616 0.139317 0.104382
0.175409 0.138784 0.089337
0.226580 0.128928 0.078852
0.278481 0.120781 0.070660
0.337296 0.110709 0.062147
0.398768 0.096188 0.052741
0.463466 0.074868 0.041733
0.527795 0.043155 0.037549
0.595049 0.003194 0.039761
0.664245 0.001699 0.043177
0.730778 0.001825 0.050999
0.786677 0.001908 0.062759
0.835107 0.001519 0.078875
0.073312 0.181674 0.128241
0.092780 0.181018 0.130126
0.114954 0.176994 0.131013
0.131072 0.171660 0.130424
0.153485 0.174809 0.117009
0.216311 0.181188 0.098036
0.285645 0.169062 0.079814
0.349165 0.155021 0.067856
0.414235 0.142756 0.056230
0.482042 0.127649 0.042081
0.547620 0.109727 0.027201
0.617569 0.090366 0.022474
0.684013 0.074231 0.025249
0.748550 0.073615 0.033562
0.803264 0.090943 0.048592
0.848520 0.119532 0.069596
0.095646 0.230000 0.156538
0.114659 0.230285 0.159623
0.130158 0.225586 0.158250
0.153637 0.217149 0.161182
0.165017 0.218594 0.152148
0.199112 0.224171 0.136039
0.272079 0.234794 0.111570
0.355439 0.226617 0.085929
0.431174 0.205687 0.063613
0.498737 0.190254 0.046558
0.565564 0.178218 0.025695
0.634903 0.169119 0.002759
0.697134 0.163810 0.000551
0.756179 0.168434 0.004774
0.807380 0.180946 0.019799
0.851871 0.201329 0.046489
0.124960 0.288632 0.192353
0.137744 0.288859 0.193560
0.151606 0.284297 0.191651
0.175977 0.276280 0.193716
0.196492 0.270508 0.193995
0.212280 0.275593 0.178439
0.255487 0.281029 0.158515
0.338818 0.296601 0.128199
0.425021 0.291240 0.094058
0.509717 0.274391 0.057465
0.578076 0.250643 0.027232
0.643492 0.244774 0.001024
0.702314 0.242289 0.000225
0.761705 0.247446 0.000000
0.810626 0.257672 0.000400
0.853990 0.274558 0.006225
0.155644 0.346533 0.227361
0.165295 0.346967 0.227863
0.178751 0.343455 0.226720
0.200916 0.336859 0.227630
0.233040 0.326737 0.234242
0.243327 0.328125 0.223951
0.266421 0.332964 0.204952
0.315498 0.338565 0.182059
0.401882 0.356748 0.147135
0.488905 0.356745 0.106378
0.573845 0.347423 0.056847
0.647367 0.332184 0.005500
0.705608 0.318450 0.000291
0.759565 0.322833 0.000000
0.807651 0.328350 0.000000
0.850486 0.337828 0.000000
0.190906 0.401918 0.262459
0.197849 0.400238 0.261661
0.209322 0.397563 0.260827
0.228155 0.392917 0.260972
0.261912 0.385647 0.268544
0.286737 0.381354 0.271931
0.299620 0.389224 0.257088
0.331802 0.396777 0.237854
0.387075 0.405174 0.213798
0.477838 0.428940 0.176925
0.564716 0.436911 0.130269
0.643904 0.435848 0.071098
0.711800 0.427459 0.005723
0.768488 0.418021 0.000218
0.817299 0.418014 0.000000
0.859167 0.426360 0.000000
0.240557 0.465436 0.307744
0.245807 0.463943 0.307070
0.255576 0.461407 0.305960
0.271951 0.457828 0.306048
0.302034 0.452203 0.312371
0.334894 0.444811 0.321701
0.348172 0.447596 0.314732
0.366313 0.455354 0.297442
0.403444 0.463272 0.276839
0.459232 0.471567 0.250871
0.543328 0.494941 0.212521
0.618977 0.503876 0.164647
0.687455 0.504950 0.103822
0.753149 0.504726 0.013348
0.808231 0.499273 0.003477
0.854046 0.488897 0.000002
0.302852 0.529714 0.361480
0.307844 0.529011 0.361412
0.315698 0.527012 0.360509
0.328538 0.523839 0.360003
0.351134 0.518902 0.363382
0.381990 0.512064 0.372113
0.406944 0.507230 0.377863
0.415783 0.513629 0.363250
0.437878 0.520526 0.344694
0.474470 0.526520 0.322026
0.525670 0.533484 0.294790
0.597396 0.553179 0.257229
0.663684 0.563062 0.212060
0.728189 0.569236 0.159650
0.786090 0.569571 0.085492
0.837998 0.564692 0.000992
0.373479 0.584961 0.419715
0.376674 0.584095 0.419294
0.382061 0.582199 0.418170
0.391996 0.579776 0.417870
0.407911 0.576358 0.419774
0.434271 0.571451 0.428006
0.460817 0.566011 0.437899
0.472755 0.566778 0.434126
0.482714 0.572497 0.417811
0.503743 0.577692 0.398033
0.536598 0.582523 0.374713
0.581172 0.588391 0.347419
0.642582 0.605253 0.311006
0.703788 0.617784 0.272699
0.759987 0.622914 0.224438
0.812623 0.623757 0.164865
0.430678 0.627570 0.471381
0.433044 0.626792 0.470758
0.439165 0.626736 0.471868
0.448918 0.626451 0.473720
0.462750 0.626381 0.477631
0.485357 0.624934 0.486856
0.510798 0.623591 0.499667
0.533119 0.622262 0.511067
0.541481 0.630203 0.504162
0.555463 0.637957 0.493208
0.578578 0.646272 0.480766
0.609827 0.653760 0.464407
0.649690 0.662189 0.445118
0.702426 0.678501 0.418373
0.752674 0.687255 0.381617
0.799073 0.687151 0.332736
0.510278 0.686884 0.552529
0.503907 0.680814 0.543679
0.504072 0.677831 0.540097
0.509576 0.676636 0.540102
0.519644 0.676509 0.543110
0.534881 0.675511 0.549317
0.554659 0.674312 0.559627
0.574513 0.672996 0.571157
0.587320 0.675852 0.575321
0.594628 0.682205 0.567133
0.608345 0.689168 0.557597
0.628311 0.695551 0.545181
0.655961 0.702582 0.531444
0.689304 0.708267 0.511504
0.732505 0.719414 0.485654
0.777227 0.726539 0.451389
0.565349 0.731781 0.617751
0.560026 0.726675 0.609795
0.559277 0.723838 0.606047
0.562822 0.722536 0.605447
0.569979 0.722285 0.607544
0.580511 0.721842 0.611826
0.596533 0.721444 0.620932
0.612671 0.720282 0.630533
0.628626 0.719322 0.641038
0.633675 0.724099 0.636772
0.641844 0.730274 0.630303
0.654850 0.736585 0.622369
0.674124 0.743623 0.614015
0.698565 0.749894 0.602561
0.728258 0.755311 0.586814
0.763001 0.761131 0.560469
0.615631 0.774574 0.682220
0.610949 0.770092 0.675141
0.609989 0.767558 0.671718
0.612742 0.766587 0.671340
0.618346 0.766651 0.673366
0.625743 0.766765 0.676441
0.638273 0.766762 0.683863
0.651935 0.766539 0.692474
0.666562 0.766771 0.702842
0.677422 0.769165 0.709379
0.683441 0.775865 0.707379
0.692568 0.782604 0.704185
0.706829 0.790434 0.701678
0.725477 0.798200 0.697868
0.750127 0.806782 0.694541
0.780678 0.815894 0.690982
0.029983 0.055595 0.132957
0.054030 0.056678 0.126088
0.083270 0.059700 0.115096
0.116865 0.061880 0.105145
0.159177 0.061399 0.099997
0.196993 0.064181 0.091082
0.240614 0.065307 0.084675
0.294126 0.064738 0.082529
0.358247 0.047712 0.076200
0.431039 0.018853 0.069966
0.504476 0.000172 0.060141
0.579120 0.000000 0.053049
0.651530 0.000000 0.056776
0.726525 0.000000 0.064165
0.789183 0.000000 0.076300
0.840251 0.000000 0.093022
0.035041 0.076152 0.135720
0.061719 0.080305 0.127948
0.089586 0.082190 0.119464
0.121182 0.083387 0.111234
0.161947 0.081847 0.105886
0.202235 0.083548 0.098323
0.245921 0.087616 0.094423
0.303293 0.077858 0.087067
0.369660 0.062192 0.080202
0.441200 0.032619 0.072154
0.512171 0.000906 0.060903
0.584744 0.000006 0.050828
0.655374 0.000000 0.054107
0.727711 0.000000 0.061795
0.789272 0.000000 0.073896
0.840987 0.000000 0.090885
0.039657 0.108208 0.137672
0.062385 0.107944 0.132691
0.094132 0.111591 0.127614
0.128594 0.114547 0.121976
0.169296 0.113333 0.116202
0.211199 0.114426 0.110158
0.262314 0.108872 0.102206
0.321297 0.099628 0.093951
0.386445 0.084141 0.084824
0.454566 0.058674 0.074401
0.521294 0.020596 0.062050
0.590467 0.001321 0.048136
0.659921 0.000024 0.049176
0.730021 0.000010 0.056523
0.790276 0.000008 0.068596
0.841288 0.000021 0.086046
0.037274 0.152277 0.144456
0.061913 0.151366 0.141178
0.093858 0.151621 0.138037
0.136202 0.154142 0.135209
0.178906 0.149708 0.126553
0.227740 0.144305 0.117233
0.280553 0.137236 0.107831
0.340123 0.128411 0.098645
0.402480 0.115032 0.088250
0.467470 0.097034 0.077059
0.532166 0.071661 0.064023
0.599937 0.034894 0.048252
0.668839 0.004759 0.039408
0.733785 0.003847 0.046526
0.788782 0.004298 0.058799
0.836656 0.006342 0.075953
0.031310 0.195140 0.150430
0.061112 0.195074 0.150033
0.101246 0.193883 0.150222
0.145714 0.190699 0.153616
0.168755 0.189379 0.145015
0.233375 0.189508 0.127010
0.295345 0.176744 0.112700
0.358162 0.168230 0.102696
0.421954 0.156643 0.091533
0.486570 0.143658 0.079756
0.551770 0.128244 0.065828
0.622289 0.112712 0.046048
0.687895 0.100651 0.022556
0.751153 0.101164 0.028424
0.804989 0.114829 0.043227
0.849921 0.137754 0.066349
0.061525 0.244700 0.173412
0.088509 0.245255 0.175245
0.125732 0.244732 0.178138
0.163432 0.240410 0.181109
0.185311 0.233686 0.179344
0.216134 0.238969 0.163322
0.290468 0.245236 0.139046
0.372765 0.232739 0.115685
0.441155 0.213761 0.098449
0.507282 0.202671 0.084412
0.573499 0.191811 0.067521
0.640659 0.183703 0.043229
0.699782 0.179207 0.015524
0.758143 0.183022 0.002640
0.808772 0.194076 0.014741
0.853231 0.212853 0.042456
0.097913 0.302072 0.205737
0.122106 0.303970 0.209128
0.158599 0.303969 0.213810
0.188610 0.298468 0.214330
0.218905 0.287624 0.218003
0.232602 0.290369 0.205396
0.273162 0.295610 0.185358
0.355500 0.307607 0.155841
0.440722 0.298856 0.124652
0.519212 0.278673 0.096118
0.585429 0.261444 0.072912
0.649217 0.255883 0.046008
0.706378 0.253278 0.012182
0.762898 0.257534 0.001287
0.811859 0.266697 0.000130
0.855118 0.282189 0.002021
0.144531 0.360473 0.242166
0.166712 0.363417 0.246891
0.197213 0.363527 0.251499
0.217204 0.357143 0.248910
0.246130 0.347006 0.251247
0.266772 0.341740 0.249401
0.285191 0.346367 0.230638
0.331927 0.351679 0.207793
