example_ofxGpuLutCube/bin/data/ofxGpuLutCube/LUT/U36 (teal sunset fade_1).cube
LUT_3D_SIZE 16
0.030518 0.025940 0.011902
0.061702 0.030168 0.013424
0.109309 0.034282 0.015756
0.158374 0.035414 0.016801
0.206701 0.033870 0.017211
0.263631 0.028160 0.016433
0.323755 0.017896 0.015575
0.397765 0.000000 0.012836
0.472973 0.000000 0.009189
0.550467 0.000000 0.004259
0.626229 0.000000 0.000000
0.696968 0.000000 0.000000
0.756846 0.001164 0.000000
0.814893 0.024998 0.000000
0.863928 0.113940 0.000000
0.902463 0.172858 0.000000
0.044695 0.058362 0.022974
0.063975 0.060187 0.023518
0.110668 0.061779 0.017896
0.157720 0.059349 0.016040
0.206274 0.056575 0.015774
0.261833 0.051869 0.015134
0.327033 0.042902 0.013595
0.400561 0.026147 0.010823
0.473715 0.005624 0.007225
0.551336 0.000365 0.001847
0.625957 0.000206 0.000000
0.695623 0.000227 0.000000
0.754451 0.004220 0.000000
0.812546 0.061473 0.000000
0.861893 0.131693 0.000000
0.902019 0.187508 0.000000
0.054298 0.097429 0.038896
0.074137 0.094184 0.041786
0.098895 0.098109 0.038513
0.157924 0.100888 0.024178
0.207846 0.089665 0.018045
0.268074 0.086728 0.015172
0.332802 0.081067 0.011459
0.403257 0.071925 0.007254
0.475773 0.057507 0.003197
0.553596 0.038653 0.000000
0.626283 0.024281 0.000000
0.694132 0.027333 0.000000
0.751556 0.056410 0.000000
0.810005 0.108222 0.000000
0.859490 0.160974 0.000000
0.901088 0.211459 0.000000
0.066993 0.140566 0.062942
0.087164 0.137658 0.065690
0.109737 0.138679 0.067272
0.144426 0.145324 0.063873
0.210018 0.150466 0.043888
0.275956 0.138958 0.026997
0.336487 0.126246 0.018175
0.405713 0.119900 0.012213
0.479232 0.112567 0.004585
0.553095 0.105596 0.000014
0.621980 0.101322 0.000000
0.687834 0.105096 0.000000
0.745784 0.121360 0.000000
0.802060 0.153550 0.000000
0.849139 0.190738 0.000000
0.890559 0.231486 0.000000
0.083916 0.189629 0.092066
0.104818 0.189840 0.096144
0.133791 0.191672 0.103451
0.163486 0.197750 0.103068
0.207876 0.206059 0.099058
0.286071 0.215285 0.076261
0.366832 0.203857 0.044473
0.433897 0.184040 0.024103
0.504109 0.174035 0.012190
0.576020 0.170566 0.000864
0.642814 0.170583 0.000000
0.705672 0.179000 0.000000
0.761465 0.196082 0.000000
0.815386 0.224612 0.000000
0.860447 0.256223 0.000000
0.896870 0.286011 0.000000
0.106298 0.249297 0.127445
0.127537 0.251683 0.132127
0.158961 0.253593 0.139094
0.193225 0.255427 0.145013
0.229063 0.261925 0.141708
0.282681 0.271167 0.136710
0.365606 0.281821 0.112804
0.457121 0.275943 0.072483
0.524918 0.255366 0.039577
0.586598 0.235217 0.012980
0.649185 0.235103 0.001042
0.709454 0.242609 0.000000
0.762257 0.256075 0.000000
0.813439 0.279756 0.000000
0.857088 0.305983 0.000000
0.894209 0.332039 0.000000
0.136963 0.316371 0.167680
0.158643 0.319131 0.172388
0.189956 0.320630 0.178614
0.229235 0.321114 0.187207
0.266472 0.325422 0.189552
0.311060 0.333852 0.186280
0.370143 0.344288 0.181455
0.453930 0.356487 0.157310
0.537040 0.350135 0.110746
0.605138 0.333004 0.066484
0.659214 0.313955 0.027401
0.712496 0.307232 0.003068
0.762345 0.316916 0.000523
0.811072 0.336040 0.000000
0.853524 0.357651 0.000000
0.890941 0.380390 0.000000
0.178244 0.383599 0.210191
0.199679 0.387824 0.215654
0.230953 0.390830 0.222699
0.270929 0.392018 0.231546
0.313635 0.392365 0.241648
0.349864 0.397670 0.238211
0.394471 0.403422 0.232465
0.450494 0.411315 0.226211
0.526345 0.422941 0.203893
0.603433 0.421141 0.156267
0.668848 0.411269 0.106711
0.717672 0.396330 0.066035
0.760944 0.383111 0.019191
0.805972 0.390729 0.004390
0.846528 0.406086 0.001576
0.884858 0.426157 0.000000
0.221300 0.439126 0.248458
0.236858 0.439871 0.251308
0.264626 0.442602 0.257540
0.301705 0.444751 0.266296
0.345223 0.447366 0.278038
0.386298 0.452059 0.286036
0.427829 0.461422 0.285479
0.476992 0.471413 0.283964
0.533618 0.483005 0.281923
0.601449 0.497333 0.266326
0.667769 0.499544 0.222303
0.726767 0.495369 0.174559
0.771025 0.483773 0.133189
0.812209 0.475258 0.094940
0.849988 0.470012 0.052637
0.885468 0.481581 0.045964
0.287021 0.508747 0.303322
0.298713 0.507927 0.304555
0.320741 0.508472 0.309133
0.353107 0.509272 0.316380
0.392121 0.510823 0.327046
0.434588 0.513077 0.340543
0.471780 0.520233 0.345218
0.511505 0.528972 0.345784
0.556253 0.538605 0.346475
0.603281 0.548460 0.346408
0.656920 0.560135 0.336385
0.711765 0.561699 0.293960
0.762349 0.557542 0.247177
0.808326 0.552960 0.208183
0.846355 0.546390 0.176991
0.881324 0.539961 0.144971
0.364170 0.570654 0.365033
0.373098 0.570138 0.366527
0.390578 0.569905 0.370086
0.416563 0.570091 0.376582
0.449261 0.570827 0.386311
0.485224 0.572003 0.398821
0.520202 0.574983 0.411647
0.549690 0.581396 0.413092
0.583022 0.588794 0.414601
0.618734 0.596296 0.415511
0.656671 0.604664 0.417017
0.698146 0.612841 0.409762
0.746126 0.615630 0.371667
0.794772 0.616459 0.333356
0.839381 0.613240 0.292245
0.874496 0.606225 0.262314
0.443017 0.622806 0.431562
0.449518 0.622431 0.432809
0.462140 0.622415 0.436208
0.481082 0.622334 0.441702
0.505349 0.622539 0.449653
0.533058 0.623175 0.460190
0.562096 0.624634 0.473163
0.587200 0.628381 0.480601
0.611799 0.634337 0.482456
0.638896 0.640457 0.483895
0.668251 0.647131 0.485666
0.699717 0.654621 0.488312
0.732779 0.661071 0.484946
0.777268 0.666800 0.457013
0.820999 0.667690 0.423664
0.864323 0.665837 0.387943
0.497252 0.660994 0.485004
0.502411 0.660922 0.486238
0.513863 0.662235 0.491230
0.530448 0.663865 0.498372
0.552098 0.666441 0.508658
0.576031 0.669012 0.520624
0.602079 0.672601 0.535590
0.627493 0.676458 0.551263
0.648400 0.683437 0.557912
0.670396 0.690485 0.562905
0.694841 0.698494 0.569112
0.720526 0.706320 0.575043
0.747732 0.714467 0.581487
0.776604 0.721447 0.584134
0.812947 0.723220 0.557482
0.850238 0.719844 0.523039
0.573305 0.716076 0.570136
0.569492 0.711037 0.562732
0.573318 0.709169 0.561704
0.583691 0.709344 0.565632
0.599383 0.711187 0.573689
0.617660 0.713206 0.583460
0.638026 0.716028 0.595713
0.659075 0.719361 0.609499
0.678856 0.724349 0.621851
0.695680 0.730002 0.626206
0.714727 0.736456 0.631353
0.735231 0.742715 0.635923
0.758046 0.749662 0.641709
0.781530 0.755464 0.645554
0.804896 0.759050 0.646770
0.836848 0.758846 0.621140
0.624353 0.758661 0.636996
0.621308 0.754416 0.630523
0.623330 0.752339 0.628643
0.630368 0.752059 0.630965
0.641750 0.753186 0.636866
0.655854 0.754824 0.644737
0.672396 0.757377 0.655113
0.689694 0.760005 0.666345
0.707817 0.763420 0.679158
0.722734 0.767828 0.685695
0.738256 0.773272 0.690025
0.755631 0.779032 0.694768
0.775645 0.785674 0.700758
0.797078 0.791950 0.706063
0.819347 0.797472 0.710396
0.836477 0.797394 0.709907
0.669218 0.799197 0.699665
0.666558 0.795498 0.694162
0.667848 0.793725 0.692421
0.673296 0.793510 0.694286
0.682231 0.794397 0.698937
0.693612 0.795864 0.705300
0.707375 0.798064 0.713714
0.722524 0.800627 0.723276
0.739328 0.804014 0.734800
0.756192 0.808049 0.746318
0.770509 0.813931 0.751796
0.786524 0.820065 0.757375
0.805232 0.827498 0.764801
0.825389 0.834974 0.772116
0.847487 0.843497 0.780775
0.871191 0.852726 0.790498
0.036473 0.031546 0.030558
0.065353 0.039066 0.033390
0.113649 0.040016 0.030743
0.161893 0.045209 0.027466
0.208974 0.051418 0.027827
0.264484 0.049627 0.024891
0.327479 0.042134 0.021488
0.398923 0.026991 0.016146
0.471363 0.007126 0.009937
0.548548 0.000138 0.002475
0.623809 0.000000 0.000140
0.693142 0.000016 0.000024
0.751912 0.003093 0.000000
0.809853 0.048620 0.000000
0.858772 0.120485 0.000000
0.898694 0.175735 0.000000
0.038924 0.067050 0.046603
0.071955 0.071389 0.044669
0.113680 0.071675 0.039709
0.161423 0.071954 0.035608
0.210950 0.071379 0.032012
0.267875 0.069224 0.028053
0.333162 0.063216 0.024240
0.404118 0.051632 0.018597
0.476381 0.032426 0.011342
0.554024 0.010238 0.002791
0.627024 0.000907 0.000203
0.694603 0.002236 0.000046
0.751652 0.018626 0.000000
0.808795 0.080215 0.000000
0.857215 0.137583 0.000000
0.897958 0.189324 0.000000
0.053003 0.111381 0.061501
0.082314 0.110243 0.063082
0.108918 0.110792 0.062022
0.164362 0.109389 0.047358
0.217202 0.103523 0.039991
0.277797 0.100897 0.035334
0.342484 0.095705 0.029548
0.412159 0.087389 0.023015
0.486299 0.075853 0.014792
0.561149 0.062944 0.005264
0.629754 0.053489 0.000248
0.693767 0.057395 0.000074
0.750196 0.078506 0.000000
0.807103 0.119686 0.000000
0.855293 0.165213 0.000000
0.896267 0.210950 0.000000
0.072097 0.155693 0.084599
0.094879 0.153704 0.085784
0.122025 0.151265 0.089298
0.154276 0.156593 0.085007
0.220295 0.160097 0.066126
0.284401 0.146436 0.048259
0.348090 0.137625 0.038600
0.418576 0.131680 0.030581
0.491105 0.124852 0.021614
0.562728 0.118128 0.010729
0.629477 0.114463 0.000481
0.692671 0.119494 0.000142
0.749973 0.136401 0.000000
0.804662 0.165985 0.000000
0.850095 0.199505 0.000000
0.889448 0.235596 0.000000
0.089192 0.199013 0.107962
0.109089 0.199162 0.110201
0.138369 0.197756 0.115307
0.167023 0.200183 0.116204
0.206790 0.206292 0.111504
0.281622 0.213876 0.090723
0.358881 0.202346 0.064216
0.426294 0.183393 0.043832
0.497189 0.177590 0.032246
0.568326 0.173880 0.019513
0.635644 0.174027 0.006316
0.699817 0.181687 0.000243
0.756738 0.197895 0.000029
0.810661 0.225034 0.000000
0.856155 0.255533 0.000000
0.894162 0.285987 0.000000
0.111828 0.256012 0.140487
0.129479 0.256806 0.142528
0.160274 0.255932 0.147743
0.195940 0.255586 0.154820
0.229861 0.261677 0.151526
0.281086 0.270487 0.146761
0.360779 0.279251 0.123429
0.449366 0.272446 0.087159
0.515196 0.251963 0.058881
0.578364 0.235307 0.033716
0.642767 0.235551 0.017667
0.704150 0.243034 0.001112
0.757566 0.256037 0.000193
0.808768 0.278132 0.000007
0.852744 0.303454 0.000000
0.891262 0.330566 0.000000
0.139083 0.323105 0.178149
0.160561 0.324362 0.181964
0.191550 0.323966 0.186756
0.230758 0.323086 0.194241
0.268119 0.325219 0.197804
0.309560 0.332334 0.193966
0.365129 0.340689 0.188168
0.446280 0.351696 0.164615
0.530537 0.346029 0.121750
0.597601 0.328699 0.082820
0.652052 0.309593 0.048071
0.706383 0.305161 0.019549
0.756844 0.314297 0.001612
0.805842 0.332560 0.000584
0.848670 0.353714 0.000011
0.887501 0.377369 0.000000
0.179065 0.387035 0.217941
0.199206 0.389246 0.222015
0.228423 0.389477 0.226906
0.267518 0.389151 0.234310
0.310035 0.388582 0.243829
0.346631 0.393680 0.242482
0.391168 0.400478 0.238124
0.446836 0.408733 0.232064
0.521969 0.419842 0.209738
0.598642 0.417577 0.164427
0.663072 0.406707 0.118374
0.712425 0.391616 0.080828
0.756436 0.378724 0.037468
0.802030 0.387975 0.013847
0.842518 0.402549 0.002663
0.880096 0.420954 0.000234
0.226455 0.446798 0.258590
0.241495 0.446861 0.261045
0.267576 0.447412 0.265635
0.304011 0.447834 0.273015
0.346559 0.449019 0.283660
0.388212 0.452608 0.292608
0.428511 0.461496 0.291856
0.476498 0.471098 0.290135
0.531806 0.481920 0.287413
0.598993 0.495551 0.271325
0.664919 0.497393 0.228258
0.724066 0.492622 0.182075
0.767923 0.480727 0.142513
0.809985 0.472768 0.107084
0.848845 0.469701 0.072936
0.885364 0.482943 0.068453
0.289359 0.512291 0.310254
0.301629 0.511844 0.312077
0.323502 0.511792 0.315911
0.355484 0.512091 0.322713
0.394671 0.513316 0.333068
0.436399 0.514936 0.345762
0.472837 0.520425 0.350659
0.511086 0.528278 0.350494
0.554546 0.537194 0.350480
0.600640 0.546500 0.349687
0.653998 0.557517 0.338531
0.709173 0.559236 0.297141
0.760283 0.555551 0.251917
0.806521 0.551196 0.214782
0.845230 0.545190 0.184471
0.881157 0.539757 0.154566
0.365988 0.572720 0.370815
0.376315 0.572839 0.372977
0.393372 0.572551 0.376498
0.418945 0.572332 0.382438
0.450866 0.572421 0.391232
0.485900 0.572840 0.402822
0.520369 0.574522 0.415316
0.548941 0.580395 0.416261
0.581595 0.587460 0.417323
0.616744 0.594676 0.417922
0.654309 0.602616 0.418435
0.695920 0.610706 0.410483
0.743961 0.613418 0.372930
0.792878 0.614290 0.335214
0.837638 0.611301 0.295397
0.873506 0.605050 0.266863
0.443071 0.623776 0.435366
0.450144 0.623557 0.436908
0.462184 0.623081 0.439646
0.480972 0.622833 0.444680
0.505349 0.623012 0.452523
0.533147 0.623600 0.463077
0.562199 0.625078 0.475794
0.587508 0.628355 0.483877
0.611293 0.633738 0.484845
0.637717 0.639352 0.485402
0.666411 0.645481 0.486408
0.697605 0.652572 0.488274
0.730431 0.658496 0.483554
0.774824 0.663966 0.455145
0.818529 0.664406 0.420844
0.861968 0.662408 0.384343
0.500754 0.663964 0.491401
0.505873 0.663830 0.492670
0.516537 0.664744 0.496880
0.532510 0.665977 0.503299
0.553386 0.668008 0.512716
0.577023 0.670338 0.524197
0.602975 0.673780 0.538800
0.628270 0.677482 0.554210
0.649097 0.683976 0.561153
0.670582 0.690747 0.565616
0.694596 0.698501 0.571405
0.720149 0.706200 0.577021
0.747314 0.714439 0.583467
0.776277 0.721486 0.586092
0.812963 0.723608 0.560182
0.850693 0.720652 0.526833
0.574462 0.717714 0.573975
0.571322 0.713095 0.567202
0.575225 0.711307 0.566325
0.585547 0.711378 0.570098
0.600908 0.712989 0.577732
0.618803 0.714765 0.587014
0.638740 0.717257 0.598533
0.659576 0.720302 0.611812
0.679291 0.724789 0.624077
0.695782 0.730167 0.628101
0.714595 0.736452 0.632910
0.735023 0.742684 0.637408
0.757937 0.749801 0.643317
0.781546 0.755733 0.647405
0.805130 0.759588 0.648869
0.837371 0.759711 0.624079
0.624809 0.759752 0.639426
0.622192 0.755832 0.633559
0.624359 0.754018 0.632024
0.631611 0.753750 0.634543
0.642855 0.754820 0.640212
0.656812 0.756312 0.647760
0.673118 0.758602 0.657662
0.690218 0.760958 0.668391
0.708007 0.764011 0.680585
0.722970 0.768099 0.687242
0.738281 0.773441 0.691379
0.755629 0.779132 0.695876
0.775491 0.785729 0.701777
0.796984 0.792067 0.707117
0.819482 0.797784 0.711766
0.836938 0.797954 0.711467
0.669283 0.800114 0.701321
0.666876 0.796620 0.696188
0.668313 0.794890 0.694602
0.673836 0.794748 0.696561
0.682860 0.795667 0.701209
0.694266 0.797131 0.707536
0.707996 0.799268 0.715791
0.723144 0.801646 0.725136
0.739644 0.804818 0.736139
0.756717 0.808606 0.747779
0.770762 0.814245 0.752953
0.786504 0.820166 0.758167
0.804906 0.827296 0.765047
0.824911 0.834650 0.772117
0.847040 0.843145 0.780688
0.870806 0.852405 0.790440
0.036691 0.041464 0.077286
0.066124 0.046452 0.074085
0.103505 0.052696 0.068888
0.158418 0.055580 0.065354
0.211138 0.057402 0.054682
0.264888 0.063880 0.052666
0.328447 0.063933 0.050752
0.399085 0.056200 0.046676
0.471604 0.037603 0.038360
0.549413 0.014859 0.028468
0.623175 0.000716 0.016476
0.691475 0.002490 0.003527
0.749622 0.023031 0.000372
0.808286 0.083215 0.000137
0.857745 0.138282 0.000000
0.898200 0.187396 0.000000
0.039617 0.069029 0.086101
0.072533 0.076483 0.081990
0.108773 0.082650 0.077500
0.159283 0.084342 0.072660
0.209668 0.086950 0.065805
0.268851 0.087265 0.061652
0.333555 0.084112 0.056751
0.404183 0.075014 0.049896
0.478491 0.061182 0.041445
0.555541 0.043078 0.030891
0.627208 0.028862 0.018700
0.693493 0.031324 0.004873
0.750192 0.057362 0.000467
0.807457 0.104792 0.000192
0.856220 0.152972 0.000000
0.897438 0.199727 0.000000
0.046786 0.114481 0.094787
0.075716 0.116422 0.092134
0.114146 0.120525 0.089741
0.163341 0.119793 0.083774
0.217525 0.118723 0.077182
0.279148 0.116486 0.070722
0.344142 0.111982 0.063779
0.413663 0.104788 0.056055
0.489038 0.095707 0.047378
0.562664 0.085571 0.035922
0.630177 0.078830 0.022847
0.693568 0.082413 0.007636
0.749686 0.100954 0.000874
0.805809 0.136749 0.000348
0.854121 0.177860 0.000000
0.895509 0.220095 0.000000
0.059097 0.163943 0.109477
0.088994 0.163059 0.108508
0.127075 0.163122 0.110475
0.160646 0.165501 0.110536
0.224027 0.164352 0.093057
0.286124 0.154293 0.079267
0.350609 0.149490 0.071930
0.422283 0.144629 0.064420
0.493926 0.138437 0.055476
0.564725 0.132306 0.044072
0.630726 0.129236 0.030174
0.692928 0.133795 0.013583
0.750321 0.149638 0.001101
0.803821 0.176685 0.000513
0.848673 0.208312 0.000006
0.888238 0.242102 0.000000
0.083774 0.206171 0.127470
0.106485 0.207554 0.129138
0.140182 0.208411 0.132898
0.175442 0.208115 0.138156
0.213045 0.213632 0.133271
0.286989 0.218612 0.113426
0.358918 0.204315 0.090156
0.428255 0.191713 0.075193
0.499059 0.186789 0.065943
0.569578 0.183722 0.054792
0.636210 0.184263 0.040444
0.700596 0.191977 0.022540
0.757067 0.207355 0.003904
0.810670 0.233048 0.000866
0.855838 0.262428 0.000310
0.894027 0.292007 0.000005
0.107368 0.262943 0.157130
0.129631 0.265228 0.160200
0.161755 0.266027 0.163848
0.202770 0.264756 0.171471
0.237745 0.268636 0.171588
0.287165 0.277055 0.166927
0.365049 0.283805 0.144034
0.449468 0.273998 0.112184
0.515096 0.253024 0.086397
0.579888 0.242734 0.069159
0.644096 0.243213 0.055200
0.704944 0.250619 0.037639
0.758002 0.263088 0.018246
0.808735 0.284397 0.001926
0.852633 0.308748 0.000792
0.891367 0.335237 0.000226
0.139574 0.328658 0.194318
0.162496 0.331809 0.198473
0.192667 0.332281 0.201325
0.235932 0.331390 0.208999
0.277028 0.331611 0.215991
0.316942 0.338408 0.212248
0.370837 0.346506 0.206385
0.450493 0.355710 0.182641
0.533133 0.348516 0.142866
0.596926 0.329236 0.108673
0.651593 0.310436 0.078514
0.706903 0.311018 0.059590
0.756945 0.319761 0.040472
0.805642 0.337434 0.020041
0.848451 0.357742 0.002466
0.887420 0.381128 0.001137
0.182287 0.392302 0.233053
0.203480 0.396055 0.237536
0.229579 0.396636 0.240007
0.271275 0.396127 0.247558
0.315528 0.395221 0.256802
0.353813 0.398663 0.258805
0.396771 0.405270 0.254123
0.451194 0.413225 0.248401
0.524932 0.423346 0.225662
0.600372 0.420140 0.183068
0.662632 0.407535 0.141699
0.711943 0.391818 0.107343
0.756024 0.378945 0.072436
0.801879 0.391583 0.056480
0.842127 0.405674 0.037400
0.879721 0.423387 0.021794
0.231874 0.452139 0.273417
0.242727 0.452885 0.273312
0.269260 0.453193 0.277453
0.307057 0.453746 0.284855
0.350989 0.454601 0.295246
0.395191 0.456941 0.306860
0.434258 0.465571 0.306512
0.480685 0.474948 0.305020
0.534583 0.485521 0.302125
0.600342 0.498271 0.285660
0.665786 0.499252 0.244156
0.724349 0.493770 0.199920
0.767121 0.480730 0.163378
0.809502 0.472875 0.130059
0.848836 0.472749 0.105328
0.885418 0.485901 0.101640
0.293857 0.516629 0.322776
0.303302 0.516692 0.323152
0.325334 0.516563 0.326749
0.358643 0.517044 0.333814
0.398895 0.518196 0.344109
0.440958 0.519455 0.356538
0.478404 0.523970 0.363977
0.515253 0.531515 0.363629
0.557199 0.540203 0.363721
0.602235 0.549237 0.362709
0.654542 0.559499 0.350607
0.709423 0.560600 0.309983
0.760290 0.556569 0.265920
0.805927 0.551468 0.230445
0.844919 0.545189 0.200348
0.881112 0.539542 0.170440
0.367778 0.575957 0.380341
0.378363 0.576154 0.382634
0.395371 0.575948 0.386012
0.421652 0.575775 0.392139
0.453892 0.575672 0.400626
0.489013 0.576129 0.412057
0.524621 0.577477 0.425884
0.552634 0.582954 0.427582
0.583968 0.589726 0.428242
0.618091 0.596695 0.428563
0.654816 0.604352 0.428695
0.696045 0.612125 0.419984
0.743877 0.614602 0.383042
0.792775 0.615216 0.345985
0.837080 0.611704 0.307417
0.873276 0.605281 0.278539
0.444461 0.625898 0.442823
0.451327 0.625815 0.444488
0.463403 0.625258 0.447030
0.482456 0.625184 0.452215
0.507046 0.625409 0.459987
0.535008 0.626014 0.470186
0.564331 0.627426 0.482954
0.590128 0.630209 0.492297
0.613141 0.635420 0.493208
0.638925 0.640897 0.493591
0.667136 0.646910 0.494374
0.697505 0.653535 0.495382
0.730444 0.659559 0.490488
0.774869 0.664852 0.462249
0.818436 0.664957 0.428077
0.861942 0.662621 0.391309
0.501931 0.666252 0.498009
0.506962 0.666101 0.499160
0.517448 0.666841 0.503006
0.533477 0.668013 0.509342
0.554406 0.670054 0.518642
0.578208 0.672291 0.529838
0.604065 0.675589 0.544139
0.629285 0.679247 0.559287
0.650627 0.685452 0.567684
0.671724 0.692192 0.572069
0.695493 0.699884 0.577669
0.720665 0.707583 0.583127
0.747682 0.715734 0.589398
0.776584 0.722552 0.591049
0.813254 0.724489 0.565352
0.851090 0.721492 0.532182
0.574279 0.719128 0.578085
0.571428 0.714660 0.571679
0.575427 0.713006 0.570920
0.585901 0.713115 0.574659
0.601351 0.714630 0.582219
0.619265 0.716322 0.591245
0.639377 0.718737 0.602619
0.660287 0.721767 0.615811
0.680543 0.726026 0.628962
0.696826 0.731400 0.632909
0.715339 0.737548 0.637491
0.735575 0.743727 0.641843
0.758325 0.750815 0.647573
0.781848 0.756668 0.651437
0.805493 0.760411 0.652240
0.837960 0.760598 0.627668
0.623991 0.760758 0.642040
0.621580 0.756952 0.636369
0.623949 0.755171 0.634958
0.631248 0.754984 0.637419
0.642689 0.756032 0.643165
0.656771 0.757522 0.650656
0.673284 0.759832 0.660538
0.690432 0.762152 0.671126
0.708281 0.765056 0.683010
0.723677 0.768967 0.690474
0.738878 0.774309 0.694561
0.756117 0.779968 0.699020
0.775961 0.786530 0.704795
0.797456 0.792856 0.710105
0.819863 0.798575 0.714563
0.837467 0.798772 0.714020
0.668339 0.800970 0.703010
0.665997 0.797504 0.697931
0.667557 0.795818 0.696482
0.673283 0.795694 0.698534
0.682458 0.796765 0.703281
0.694040 0.798198 0.709603
0.707847 0.800242 0.717665
0.723061 0.802591 0.726920
0.739769 0.805701 0.737825
0.757198 0.809369 0.749874
0.771338 0.814999 0.755159
0.787039 0.820859 0.760307
0.805328 0.827930 0.767034
0.825219 0.835244 0.773912
0.847361 0.843683 0.782333
0.871153 0.852971 0.792016
0.031379 0.049190 0.120163
0.059264 0.053052 0.117052
0.096842 0.061748 0.110787
0.144449 0.070623 0.106808
0.204218 0.076151 0.105920
0.267153 0.074217 0.095276
0.333814 0.077476 0.088165
0.404053 0.070746 0.082315
0.477372 0.061843 0.077623
0.554302 0.051648 0.072447
0.626788 0.040845 0.063608
0.693756 0.043110 0.050157
0.751617 0.066097 0.032144
0.809347 0.110381 0.011089
0.857572 0.157362 0.000851
0.897896 0.200854 0.000000
0.038710 0.074722 0.127340
0.070183 0.082094 0.122383
0.105738 0.089275 0.117497
0.149045 0.096922 0.113886
0.206387 0.099895 0.112193
0.272758 0.097255 0.102253
0.338579 0.098959 0.095706
0.408919 0.092676 0.088597
0.484455 0.085719 0.083660
0.560282 0.076796 0.076578
0.630531 0.068487 0.066548
0.695500 0.071802 0.053204
0.752308 0.090627 0.034515
0.808420 0.127604 0.013691
0.856162 0.169839 0.000978
0.897137 0.212327 0.000085
0.046927 0.112908 0.133305
0.074027 0.115000 0.129968
0.113206 0.123482 0.128095
0.158125 0.133058 0.126919
0.216571 0.134015 0.123514
0.281196 0.134434 0.115383
0.347987 0.129956 0.106749
0.419358 0.125068 0.099418
0.493956 0.117534 0.091286
0.566675 0.109667 0.082177
0.633166 0.104816 0.071569
0.695317 0.108399 0.057540
0.751691 0.124284 0.040062
0.806977 0.154733 0.017177
0.854346 0.191768 0.001448
0.895195 0.230521 0.000550
0.052277 0.163631 0.145294
0.079165 0.164701 0.143471
0.116518 0.168773 0.142386
0.167494 0.176546 0.142768
0.224643 0.173905 0.134136
0.288145 0.170418 0.124791
0.355321 0.166154 0.115875
0.427368 0.161298 0.107604
0.498619 0.155488 0.098983
0.568543 0.150571 0.089040
0.633624 0.148414 0.078253
0.695448 0.152851 0.064768
0.752191 0.167530 0.048501
0.804839 0.191762 0.025107
0.849201 0.220007 0.002889
0.888193 0.251830 0.001666
0.057819 0.213277 0.157322
0.085243 0.215516 0.157646
0.126964 0.217678 0.158130
0.180161 0.220616 0.163104
0.220931 0.223584 0.162680
0.294346 0.222716 0.143348
0.362013 0.209047 0.124855
0.433147 0.205081 0.116670
0.503757 0.200578 0.107819
0.573721 0.198140 0.098653
0.639492 0.199061 0.088472
0.703407 0.207033 0.076188
0.758923 0.221579 0.061232
0.811549 0.245214 0.040621
0.856210 0.272419 0.016445
0.894219 0.300217 0.002754
0.086308 0.271490 0.182622
0.114330 0.273753 0.184360
0.153115 0.275890 0.186810
0.204130 0.278144 0.193324
0.248519 0.278352 0.199163
0.295834 0.286182 0.194733
0.373462 0.289503 0.171423
0.450725 0.274694 0.143578
0.517262 0.257191 0.121628
0.584094 0.254395 0.111983
0.647393 0.255426 0.101320
0.707210 0.262833 0.090101
0.759326 0.274471 0.076748
0.809451 0.294166 0.059394
0.852894 0.317050 0.037539
0.891637 0.342431 0.013101
0.125547 0.335226 0.215689
0.150013 0.338531 0.218872
0.187301 0.341028 0.222692
0.236196 0.342894 0.229167
0.286168 0.341713 0.238593
0.326745 0.346827 0.238762
0.378488 0.354657 0.233034
0.456800 0.361332 0.208698
0.537019 0.351395 0.172410
0.596929 0.330202 0.141911
0.653006 0.315896 0.118584
0.708762 0.320420 0.106964
0.758073 0.329147 0.094588
0.806241 0.345392 0.080645
0.848700 0.364731 0.065673
0.887579 0.386986 0.049383
0.173186 0.398138 0.251642
0.195154 0.402216 0.255861
0.229282 0.404889 0.260698
0.272077 0.406147 0.266422
0.320726 0.404749 0.275378
0.363777 0.405861 0.282104
0.404303 0.412119 0.278076
0.457035 0.419847 0.272267
