example_ofxGpuLutCube/bin/data/ofxGpuLutCube/LUT/U36 (teal sunset fade_1).cube
LUT_3D_SIZE 6
0.030518 0.025940 0.011902
0.158374 0.035414 0.016801
0.323755 0.017896 0.015575
0.550467 0.000000 0.004259
0.756846 0.001164 0.000000
0.902463 0.172858 0.000000
0.066993 0.140566 0.062942
0.144426 0.145324 0.063873
0.336487 0.126246 0.018175
0.553095 0.105596 0.000014
0.745784 0.121360 0.000000
0.890559 0.231486 0.000000
0.136963 0.316371 0.167680
0.229235 0.321114 0.187207
0.370143 0.344288 0.181455
0.605138 0.333004 0.066484
0.762345 0.316916 0.000523
0.890941 0.380390 0.000000
0.287021 0.508747 0.303322
0.353107 0.509272 0.316380
0.471780 0.520233 0.345218
0.603281 0.548460 0.346408
0.762349 0.557542 0.247177
0.881324 0.539961 0.144971
0.497252 0.660994 0.485004
0.530448 0.663865 0.498372
0.602079 0.672601 0.535590
0.670396 0.690485 0.562905
0.747732 0.714467 0.581487
0.850238 0.719844 0.523039
0.669218 0.799197 0.699665
0.673296 0.793510 0.694286
0.707375 0.798064 0.713714
0.756192 0.808049 0.746318
0.805232 0.827498 0.764801
0.871191 0.852726 0.790498
0.031379 0.049190 0.120163
0.144449 0.070623 0.106808
0.333814 0.077476 0.088165
0.554302 0.051648 0.072447
0.751617 0.066097 0.032144
0.897896 0.200854 0.000000
0.052277 0.163631 0.145294
0.167494 0.176546 0.142768
0.355321 0.166154 0.115875
0.568543 0.150571 0.089040
0.752191 0.167530 0.048501
0.888193 0.251830 0.001666
0.125547 0.335226 0.215689
0.236196 0.342894 0.229167
0.378488 0.354657 0.233034
0.596929 0.330202 0.141911
0.758073 0.329147 0.094588
0.887579 0.386986 0.049383
0.293105 0.520744 0.338925
0.361191 0.523995 0.350208
0.486331 0.528935 0.383356
0.604735 0.553435 0.382572
0.760779 0.558262 0.287114
0.881139 0.538915 0.193264
0.505756 0.668877 0.509576
0.533275 0.670466 0.517332
0.605187 0.678208 0.551945
0.673447 0.694304 0.581744
0.748200 0.717680 0.598448
0.851791 0.722627 0.540047
0.666326 0.802193 0.705343
0.671767 0.797157 0.701252
0.707070 0.801540 0.720172
0.757374 0.810693 0.752288
0.806002 0.828998 0.770207
0.871781 0.853940 0.794621
0.000000 0.077500 0.251903
0.117046 0.098525 0.249767
0.317311 0.137344 0.254906
0.577951 0.121151 0.249019
0.765693 0.160663 0.213102
0.900599 0.250536 0.184566
0.004689 0.157147 0.275349
0.150501 0.183133 0.277912
0.353219 0.223363 0.288647
0.588897 0.212977 0.266032
0.762429 0.239122 0.231545
0.890883 0.287330 0.187515
0.018223 0.336783 0.326391
0.181757 0.353387 0.334604
0.409402 0.391136 0.350902
0.606756 0.375722 0.310623
0.761877 0.379736 0.272847
0.888447 0.415066 0.236948
0.237185 0.538819 0.418020
0.330233 0.544286 0.425220
0.501278 0.556748 0.456144
0.614459 0.573008 0.471068
0.759296 0.559983 0.380363
0.880456 0.554453 0.322830
0.471501 0.677533 0.541896
0.513442 0.680811 0.553001
0.602493 0.691552 0.587493
0.680556 0.703935 0.626261
0.750169 0.726274 0.639179
0.856591 0.726065 0.573659
0.643342 0.806767 0.712048
0.654405 0.802719 0.710874
0.697483 0.807844 0.730822
0.755581 0.817116 0.763188
0.808506 0.833773 0.785573
0.874963 0.858809 0.807734
0.000000 0.114364 0.402067
0.040999 0.129256 0.407623
0.309598 0.174042 0.431105
0.561117 0.229047 0.453769
0.763826 0.289205 0.469642
0.893348 0.346912 0.430149
0.000000 0.171791 0.428641
0.102140 0.198273 0.431298
0.341094 0.242602 0.451682
0.576889 0.302512 0.473175
0.758872 0.347180 0.477393
0.884419 0.375590 0.426009
0.000000 0.307270 0.450926
0.109107 0.319242 0.458194
0.379726 0.380013 0.485990
0.599606 0.452690 0.514948
0.752485 0.467442 0.501940
0.876219 0.486515 0.463952
0.157124 0.525146 0.523977
0.261177 0.533814 0.529732
0.442729 0.558162 0.546342
0.625594 0.599148 0.575299
0.754103 0.587593 0.536903
0.877259 0.583950 0.492863
0.390266 0.692292 0.617776
0.436426 0.695084 0.621219
0.545741 0.703557 0.633887
0.676174 0.720585 0.673251
0.752465 0.737756 0.693280
0.866582 0.723053 0.615719
0.558840 0.815250 0.724561
0.570663 0.811233 0.718804
0.646394 0.816386 0.739476
0.740560 0.828207 0.778558
0.812042 0.841691 0.811183
0.880763 0.867555 0.830340
0.000000 0.161994 0.591044
0.002415 0.173976 0.596228
0.318341 0.211264 0.612463
0.583662 0.312405 0.643768
0.747200 0.414884 0.659097
0.854385 0.512394 0.673200
0.000000 0.206970 0.602795
0.004246 0.227075 0.605516
0.341995 0.267736 0.621891
0.589943 0.366188 0.649376
0.742256 0.456852 0.662209
0.847454 0.527317 0.670073
0.000000 0.288460 0.602321
0.001398 0.302741 0.610324
0.354296 0.377506 0.631518
0.593949 0.470737 0.659046
0.738072 0.550384 0.681027
0.847250 0.591227 0.689688
0.000000 0.490629 0.642345
0.013424 0.494098 0.644571
0.308482 0.502168 0.649216
0.585399 0.576102 0.678462
0.740999 0.653935 0.716270
0.854801 0.663551 0.711360
0.319064 0.676758 0.704714
0.369230 0.680406 0.707558
0.482297 0.692500 0.717182
0.618099 0.716144 0.735287
0.756721 0.755040 0.766345
0.872100 0.737276 0.726209
0.484501 0.829665 0.800435
0.497585 0.827143 0.795911
0.559595 0.833245 0.799577
0.660866 0.841764 0.805530
0.802243 0.857035 0.838967
0.891205 0.882663 0.866697
0.025953 0.268048 0.803665
0.221202 0.282008 0.805148
0.440175 0.328794 0.809471
0.630735 0.438538 0.818027
0.762681 0.582968 0.831835
0.864459 0.639867 0.838750
0.000001 0.301407 0.806155
0.221837 0.319659 0.806577
0.437403 0.362699 0.808982
0.624574 0.460271 0.814896
0.755391 0.586084 0.825282
0.855105 0.635568 0.829133
0.000000 0.318919 0.809530
0.004120 0.345072 0.811740
0.412503 0.438135 0.814191
0.616872 0.524756 0.821217
0.754020 0.629379 0.833315
0.858515 0.678087 0.841465
0.000000 0.470090 0.823815
0.000000 0.461793 0.823191
0.016157 0.456125 0.824429
0.567823 0.582101 0.830442
0.747613 0.679715 0.846070
0.865850 0.734745 0.859758
0.001413 0.691750 0.860748
0.071891 0.690611 0.860658
0.297098 0.687726 0.860936
0.475532 0.680299 0.860160
0.716786 0.734703 0.867009
0.884238 0.810476 0.889421
0.463718 0.845120 0.905700
0.475843 0.844539 0.903997
0.525842 0.848908 0.904607
0.609374 0.858173 0.906327
0.731533 0.876287 0.911942
0.916066 0.916029 0.932330
