example_ofxGpuLutCube/bin/data/ofxGpuLutCube/LUT/U37 (teal sunset fade_2).cube
LUT_3D_SIZE 6
0.036072 0.036011 0.032166
0.173808 0.030974 0.039164
0.375715 0.000000 0.040889
0.654601 0.000000 0.031643
0.854244 0.000000 0.024295
0.979163 0.000000 0.061863
0.073759 0.138090 0.087427
0.117354 0.133165 0.074945
0.392160 0.126663 0.026887
0.661578 0.012580 0.012009
0.844975 0.002711 0.003521
0.968151 0.092172 0.050098
0.143337 0.280994 0.168226
0.200558 0.260475 0.184032
0.256343 0.271036 0.134514
0.642501 0.338963 0.004327
0.852880 0.344817 0.000000
0.962335 0.366104 0.058644
0.264451 0.436489 0.271028
0.308132 0.420336 0.280389
0.356526 0.392120 0.292306
0.426677 0.413595 0.203416
0.749874 0.518603 0.108267
0.943812 0.552994 0.152946
0.433893 0.584793 0.413159
0.463374 0.579272 0.423173
0.520757 0.562250 0.450972
0.547025 0.561865 0.435679
0.627344 0.583763 0.332385
0.832135 0.656550 0.308043
0.634195 0.737738 0.640806
0.633837 0.726205 0.630176
0.663149 0.719974 0.647137
0.698771 0.711488 0.679230
0.722047 0.736530 0.662706
0.798524 0.771525 0.624450
0.011207 0.053347 0.155532
0.149584 0.064990 0.127177
0.369715 0.006419 0.099380
0.646109 0.000000 0.075240
0.848110 0.000000 0.014737
0.975483 0.000000 0.058191
0.000000 0.180622 0.158770
0.158168 0.180942 0.150271
0.389628 0.161815 0.124741
0.660024 0.104770 0.087681
0.846741 0.087910 0.014679
0.966102 0.145482 0.046789
0.105875 0.324456 0.201735
0.221582 0.316009 0.218680
0.292290 0.301583 0.186412
0.657448 0.351782 0.120316
0.842861 0.354973 0.058860
0.959910 0.372364 0.056143
0.269172 0.471518 0.301971
0.327365 0.460658 0.312467
0.397517 0.418590 0.334786
0.453493 0.435448 0.246391
0.761201 0.531318 0.189315
0.943097 0.558225 0.191612
0.449285 0.606973 0.442055
0.476472 0.599778 0.448245
0.536003 0.582437 0.473065
0.564585 0.573814 0.466911
0.636353 0.593430 0.365058
0.837826 0.664913 0.352395
0.633882 0.745640 0.649856
0.635373 0.735189 0.640873
0.665918 0.728750 0.656955
0.702617 0.719063 0.686576
0.724583 0.739122 0.673000
0.799414 0.773301 0.633061
0.000000 0.072228 0.292611
0.102146 0.084503 0.284812
0.327455 0.099174 0.264919
0.615609 0.002032 0.259300
0.843218 0.001086 0.201496
0.971935 0.110133 0.172765
0.000000 0.166528 0.293354
0.107390 0.174072 0.298275
0.358002 0.200546 0.292355
0.630846 0.148228 0.273519
0.832024 0.183215 0.238624
0.961890 0.206758 0.177166
0.000000 0.360228 0.327861
0.071876 0.370505 0.332662
0.395490 0.390211 0.341414
0.647466 0.387312 0.319364
0.823798 0.395686 0.291588
0.951855 0.405044 0.243047
0.160980 0.531152 0.383803
0.283245 0.529696 0.389462
0.467961 0.517987 0.420799
0.529950 0.500827 0.373158
0.791629 0.571129 0.373508
0.929849 0.580584 0.372351
0.416010 0.640081 0.482296
0.465123 0.639163 0.494559
0.560397 0.633157 0.528792
0.609248 0.605741 0.545962
0.658994 0.619708 0.451985
0.851567 0.684949 0.457946
0.614269 0.762183 0.662364
0.623594 0.754281 0.658522
0.663449 0.749060 0.675653
0.709044 0.738661 0.703345
0.732963 0.747387 0.702602
0.804053 0.780753 0.660737
0.000000 0.096059 0.452405
0.001815 0.101681 0.459360
0.316721 0.128256 0.469485
0.580811 0.132622 0.466790
0.793302 0.133192 0.473124
0.948840 0.192974 0.436433
0.000000 0.172050 0.466267
0.002496 0.175545 0.468802
0.335991 0.207953 0.483928
0.593634 0.237257 0.483241
0.790276 0.245928 0.481600
0.938851 0.269886 0.435538
0.000000 0.315657 0.458344
0.000000 0.320576 0.464092
0.328851 0.360386 0.500960
0.607248 0.423692 0.518039
0.784435 0.432044 0.510844
0.924608 0.459711 0.481146
0.000000 0.546475 0.526035
0.019833 0.551730 0.530652
0.378345 0.566023 0.543994
0.619613 0.593318 0.571005
0.781368 0.605501 0.569455
0.908875 0.607184 0.548954
0.302769 0.691658 0.592536
0.370268 0.690479 0.593328
0.506870 0.687825 0.600725
0.651251 0.679339 0.635417
0.693344 0.664718 0.585591
0.875892 0.718161 0.611989
0.526732 0.790070 0.683860
0.537199 0.783121 0.675024
0.618200 0.779942 0.695374
0.707914 0.774287 0.732000
0.750901 0.761325 0.752193
0.812615 0.793960 0.707334
0.000000 0.124895 0.644322
0.000000 0.127860 0.649902
0.269616 0.140326 0.661977
0.598648 0.228162 0.679420
0.776605 0.285540 0.678482
0.893279 0.359522 0.665655
0.000000 0.182086 0.649050
0.000000 0.186414 0.651640
0.279537 0.207110 0.667577
0.600286 0.299166 0.682769
0.769728 0.353887 0.679895
0.882662 0.398238 0.662372
0.000000 0.300699 0.629680
0.000000 0.307377 0.639520
0.242075 0.336965 0.664204
0.590375 0.427392 0.686777
0.757089 0.494414 0.693554
0.871547 0.518980 0.686709
0.000000 0.500715 0.653067
0.000000 0.499798 0.654224
0.021131 0.493562 0.656136
0.546270 0.550354 0.693503
0.748108 0.629728 0.721389
0.869126 0.638872 0.719256
0.018526 0.693260 0.711028
0.113638 0.694886 0.713095
0.373905 0.701201 0.720424
0.578379 0.714192 0.733649
0.750446 0.742607 0.761816
0.873888 0.749204 0.760307
0.423381 0.827903 0.783643
0.440405 0.824555 0.778658
0.524750 0.824148 0.779127
0.637072 0.819625 0.777875
0.766462 0.808047 0.800495
0.828916 0.817159 0.779513
0.000000 0.194098 0.843977
0.000000 0.196988 0.845156
0.319731 0.210267 0.848309
0.610805 0.320523 0.848304
0.774681 0.509357 0.846139
0.885993 0.533848 0.844267
0.000000 0.240500 0.844528
0.000000 0.245358 0.844878
0.309287 0.259951 0.846680
0.600963 0.354600 0.844646
0.765745 0.516934 0.839607
0.876041 0.532633 0.834340
0.000000 0.338963 0.841597
0.000000 0.348339 0.843623
0.243783 0.369956 0.846990
0.581731 0.447533 0.848357
0.759476 0.578879 0.844533
0.869963 0.603774 0.842116
0.000000 0.490859 0.843440
0.000000 0.481327 0.843357
0.000000 0.471176 0.847600
0.501960 0.538191 0.852131
0.744857 0.644484 0.853450
0.864077 0.685882 0.853429
0.000000 0.701363 0.868238
0.000000 0.698805 0.868005
0.000450 0.691292 0.867648
0.326319 0.672868 0.865659
0.690912 0.708694 0.868578
0.865268 0.775319 0.872750
0.316276 0.853386 0.885396
0.341372 0.852165 0.883925
0.431491 0.852961 0.883891
0.552597 0.854978 0.884301
0.694982 0.859531 0.886891
0.873948 0.872104 0.898794
