example_ofxGpuLutCube/bin/data/ofxGpuLutCube/LUT/U37 (teal sunset fade_2).cube
LUT_3D_SIZE 16
0.036072 0.036011 0.032166
0.068274 0.036681 0.034150
0.119455 0.036455 0.036886
0.173808 0.030974 0.039164
0.229988 0.019924 0.040321
0.299328 0.000000 0.041157
0.375715 0.000000 0.040889
0.469408 0.000000 0.039279
0.563100 0.000000 0.036224
0.654601 0.000000 0.031643
0.734468 0.000000 0.027489
0.800458 0.000000 0.024265
0.854244 0.000000 0.024295
0.905099 0.000000 0.029107
0.946919 0.000000 0.042393
0.979163 0.000000 0.061863
0.049746 0.067459 0.050365
0.062637 0.067207 0.046882
0.118179 0.068278 0.038671
0.172097 0.062037 0.039577
0.229234 0.050759 0.040142
0.297724 0.028935 0.040245
0.380823 0.000572 0.039645
0.474370 0.000031 0.037441
0.565257 0.000000 0.034141
0.656697 0.000000 0.028987
0.734941 0.000000 0.024204
0.799597 0.000000 0.021556
0.852239 0.000000 0.021089
0.902998 0.000000 0.026035
0.945107 0.000000 0.039710
0.978631 0.000000 0.061714
0.060774 0.101257 0.067552
0.074936 0.091167 0.071747
0.086860 0.097224 0.059011
0.153057 0.104435 0.043186
0.229180 0.094676 0.038006
0.305422 0.081276 0.037294
0.389507 0.054206 0.035351
0.479684 0.004963 0.032321
0.569591 0.001267 0.028502
0.660867 0.000159 0.023045
0.736033 0.000000 0.018288
0.798709 0.000000 0.014804
0.849974 0.000000 0.014244
0.900843 0.000016 0.020246
0.942844 0.000160 0.034818
0.977490 0.000000 0.059700
0.073759 0.138090 0.087427
0.089348 0.129557 0.090641
0.097228 0.125081 0.089781
0.117354 0.133165 0.074945
0.189710 0.145787 0.056055
0.297880 0.142779 0.036993
0.392160 0.126663 0.026887
0.482917 0.103591 0.023051
0.574764 0.066430 0.017908
0.661578 0.012580 0.012009
0.732990 0.003943 0.006586
0.793547 0.003732 0.003717
0.844975 0.002711 0.003521
0.893800 0.004623 0.008886
0.933714 0.019371 0.023519
0.968151 0.092172 0.050098
0.091337 0.178674 0.110324
0.107070 0.173842 0.114079
0.124838 0.166554 0.120645
0.130935 0.168646 0.113099
0.157956 0.177556 0.094412
0.241943 0.195100 0.071455
0.377587 0.203137 0.038403
0.508896 0.191241 0.012918
0.602607 0.177175 0.000000
0.685376 0.162745 0.000000
0.750846 0.151215 0.000000
0.808290 0.147340 0.000000
0.857943 0.152062 0.000000
0.904242 0.170327 0.001605
0.941968 0.191424 0.019492
0.971986 0.211391 0.053377
0.114398 0.227190 0.137522
0.130136 0.224566 0.141600
0.150594 0.217747 0.147665
0.166045 0.206784 0.153238
0.170323 0.213799 0.135944
0.203613 0.222545 0.113523
0.290436 0.241334 0.087303
0.440214 0.263403 0.047443
0.585174 0.266858 0.002895
0.689910 0.261828 0.000000
0.753408 0.255972 0.000000
0.809049 0.254818 0.000000
0.856099 0.256990 0.000000
0.900396 0.267420 0.000429
0.937279 0.279624 0.007806
0.967740 0.292405 0.053162
0.143337 0.280994 0.168226
0.158751 0.278726 0.172062
0.179575 0.272216 0.177329
0.200558 0.260475 0.184032
0.208338 0.254875 0.181428
0.218264 0.262699 0.160511
0.256343 0.271036 0.134514
0.344442 0.289596 0.104599
0.495205 0.320692 0.061089
0.642501 0.338963 0.004327
0.742740 0.343474 0.000003
0.806738 0.344693 0.000000
0.852880 0.344817 0.000000
0.895431 0.350679 0.000000
0.931441 0.357670 0.003895
0.962335 0.366104 0.058644
0.178709 0.334145 0.200371
0.193675 0.333884 0.204860
0.214681 0.329125 0.210309
0.238355 0.318780 0.217072
0.256694 0.304054 0.224437
0.256900 0.304086 0.210302
0.269232 0.309662 0.183857
0.307690 0.315079 0.153829
0.387579 0.329845 0.121537
0.539452 0.371203 0.078753
0.679703 0.401923 0.006453
0.777767 0.416656 0.002821
0.845593 0.420573 0.000000
0.887423 0.422536 0.000153
0.922600 0.424720 0.005729
0.954121 0.430114 0.070116
0.213344 0.378770 0.229526
0.223915 0.376123 0.231663
0.242783 0.372251 0.236531
0.266147 0.364199 0.243103
0.288790 0.352526 0.251562
0.302666 0.341017 0.257004
0.304276 0.348921 0.236088
0.323646 0.356814 0.209168
0.365900 0.363680 0.177177
0.441339 0.377237 0.142776
0.594336 0.430264 0.106801
0.723008 0.469546 0.052673
0.813696 0.488075 0.005021
0.877933 0.495767 0.006549
0.921569 0.497467 0.039080
0.951065 0.497669 0.112582
0.264451 0.436489 0.271028
0.272515 0.433033 0.271926
0.287669 0.428142 0.275230
0.308132 0.420336 0.280389
0.330672 0.409547 0.287708
0.349896 0.396054 0.296262
0.356526 0.392120 0.292306
0.361693 0.400405 0.268250
0.384896 0.408132 0.238601
0.426677 0.413595 0.203416
0.492122 0.422277 0.165414
0.635713 0.478987 0.138968
0.749874 0.518603 0.108267
0.836970 0.541784 0.070382
0.898007 0.550325 0.070892
0.943812 0.552994 0.152946
0.321773 0.494009 0.317658
0.328519 0.491306 0.318614
0.340983 0.486554 0.320938
0.358635 0.479595 0.325163
0.379561 0.469909 0.331375
0.399806 0.457450 0.339480
0.415394 0.443319 0.347903
0.415091 0.446041 0.331547
0.423600 0.453775 0.304055
0.447806 0.459709 0.270895
0.488312 0.463826 0.232338
0.543781 0.467820 0.190382
0.672420 0.523363 0.175109
0.777906 0.565930 0.167543
0.855988 0.588177 0.155985
0.914429 0.595112 0.157541
0.384368 0.547276 0.369339
0.389405 0.544975 0.369985
0.399406 0.541420 0.372045
0.414093 0.535538 0.375399
0.431797 0.527222 0.380242
0.450467 0.516587 0.386911
0.467080 0.503570 0.394953
0.475745 0.493041 0.397700
0.475198 0.499674 0.373817
0.485613 0.505711 0.343387
0.510505 0.510620 0.307829
0.549235 0.514157 0.266861
0.596814 0.515815 0.221329
0.709502 0.567998 0.218366
0.802606 0.608294 0.226714
0.873434 0.629707 0.229702
0.433893 0.584793 0.413159
0.438226 0.583251 0.413886
0.448701 0.581964 0.417756
0.463374 0.579272 0.423173
0.482130 0.575570 0.431215
0.501397 0.569589 0.439986
0.520757 0.562250 0.450972
0.536458 0.553033 0.461904
0.542682 0.553357 0.458739
0.547025 0.561865 0.435679
0.562732 0.570706 0.407985
0.589594 0.577755 0.373332
0.627344 0.583763 0.332385
0.673671 0.588762 0.288032
0.757818 0.626487 0.292208
0.832135 0.656550 0.308043
0.519100 0.645103 0.497021
0.512728 0.637544 0.487765
0.514746 0.632933 0.485235
0.523689 0.629424 0.487550
0.537681 0.626368 0.493864
0.553126 0.621747 0.501149
0.569550 0.616213 0.510576
0.584814 0.609272 0.521264
0.597725 0.602398 0.532856
0.598870 0.607664 0.518904
0.605608 0.615996 0.497398
0.620299 0.623034 0.469448
0.645711 0.630121 0.436495
0.678661 0.634155 0.392505
0.716828 0.635246 0.342459
0.783372 0.662327 0.344149
0.579058 0.692124 0.567809
0.573651 0.685728 0.559025
0.573897 0.681318 0.555383
0.579720 0.678014 0.556282
0.589957 0.675330 0.560808
0.602224 0.671943 0.567042
0.616209 0.668375 0.575667
0.629604 0.663250 0.584822
0.642089 0.657756 0.595682
0.649251 0.654434 0.600124
0.651554 0.662068 0.585086
0.659681 0.669995 0.565941
0.676272 0.678688 0.544405
0.700303 0.686058 0.515873
0.731305 0.691432 0.478364
0.760955 0.687089 0.420690
0.634195 0.737738 0.640806
0.629547 0.732265 0.632802
0.629458 0.728656 0.629473
0.633837 0.726205 0.630176
0.641674 0.724365 0.634027
0.651526 0.722156 0.639497
0.663149 0.719974 0.647137
0.675119 0.717174 0.655984
0.687515 0.714548 0.667064
0.698771 0.711488 0.679230
0.704436 0.715914 0.680371
0.709958 0.725364 0.671319
0.722047 0.736530 0.662706
0.739815 0.747314 0.651033
0.765315 0.759120 0.638571
0.798524 0.771525 0.624450
0.035919 0.039972 0.062147
0.070831 0.044911 0.061259
0.121177 0.040707 0.056344
0.176262 0.040933 0.049604
0.230744 0.040091 0.048340
0.299745 0.023086 0.043159
0.380368 0.000185 0.040100
0.471681 0.000000 0.037920
0.562388 0.000000 0.034136
0.654051 0.000000 0.029068
0.733320 0.000000 0.024392
0.797657 0.000000 0.021609
0.850275 0.000000 0.021384
0.900867 0.000000 0.026323
0.942664 0.000000 0.039780
0.976069 0.000000 0.059209
0.030189 0.082258 0.073709
0.071999 0.080876 0.069361
0.118215 0.077970 0.063339
0.172387 0.074486 0.057992
0.231281 0.067660 0.052349
0.302869 0.052421 0.045871
0.387572 0.021269 0.038129
0.478427 0.000428 0.035366
0.568729 0.000001 0.031502
0.660681 0.000000 0.026010
0.736973 0.000000 0.021026
0.799185 0.000000 0.018584
0.850140 0.000000 0.018066
0.899965 0.000000 0.023333
0.941248 0.000000 0.036282
0.975275 0.000002 0.058443
0.048236 0.121148 0.082425
0.082040 0.114732 0.085590
0.098376 0.112257 0.079210
0.167631 0.115174 0.065823
0.235509 0.107286 0.059005
0.313005 0.096800 0.051522
0.397978 0.075352 0.041826
0.488784 0.035226 0.030164
0.580991 0.001850 0.025230
0.668706 0.000884 0.019454
0.739414 0.000010 0.014817
0.798827 0.000006 0.011815
0.848997 0.000005 0.012136
0.898417 0.000086 0.017470
0.939412 0.000674 0.031468
0.973526 0.000606 0.055885
0.070956 0.158211 0.101192
0.095196 0.151820 0.104305
0.112671 0.140137 0.108027
0.128907 0.146802 0.092115
0.206647 0.158077 0.074555
0.313053 0.151484 0.059240
0.401293 0.137936 0.048173
0.494852 0.118289 0.033206
0.586946 0.089262 0.015767
0.670409 0.047758 0.007850
0.738776 0.004723 0.003050
0.797187 0.004303 0.000252
0.848726 0.003295 0.001072
0.896011 0.009134 0.007480
0.934526 0.057653 0.022723
0.967279 0.105373 0.048751
0.090965 0.193758 0.120534
0.109599 0.189341 0.123635
0.131171 0.179091 0.128519
0.139070 0.175418 0.124453
0.162538 0.182383 0.105688
0.246227 0.198899 0.085155
0.376338 0.204552 0.060371
0.497282 0.192967 0.039311
0.590111 0.180049 0.017586
0.674975 0.167842 0.000400
0.742881 0.157958 0.000111
0.802128 0.154481 0.000000
0.853100 0.159236 0.000000
0.899995 0.174890 0.001235
0.938420 0.193980 0.015641
0.969796 0.213556 0.050414
0.114890 0.240296 0.146413
0.131319 0.235975 0.148824
0.153422 0.227143 0.153450
0.172411 0.214325 0.159753
0.176509 0.218320 0.145217
0.208364 0.226739 0.123373
0.294458 0.244367 0.098560
0.440181 0.263718 0.065876
0.579207 0.264804 0.026357
0.678578 0.259396 0.001102
0.745702 0.255465 0.000160
0.803562 0.255872 0.000000
0.851581 0.258060 0.000000
0.896229 0.267244 0.000044
0.933609 0.278339 0.003686
0.965461 0.291832 0.049054
0.143772 0.293032 0.175812
0.160421 0.289878 0.179107
0.182539 0.281734 0.183266
0.205287 0.268789 0.189318
0.215710 0.259230 0.189696
0.222896 0.265983 0.168364
0.258820 0.272965 0.141936
0.345779 0.291201 0.114145
0.495671 0.321094 0.075956
0.639278 0.337362 0.017893
0.738663 0.340720 0.001552
0.800033 0.341402 0.000017
0.847862 0.342342 0.000001
0.890888 0.347644 0.000000
0.927507 0.354181 0.003511
0.959629 0.363613 0.053000
0.178936 0.343065 0.206358
0.194043 0.341181 0.209784
0.214377 0.334540 0.213833
0.238667 0.322976 0.219665
0.258233 0.307672 0.226463
0.260531 0.305253 0.215989
0.272344 0.311577 0.190749
0.310182 0.317267 0.160947
0.390777 0.332307 0.129738
0.540678 0.372049 0.092184
0.678779 0.400803 0.029466
0.774650 0.414423 0.004387
0.840972 0.418127 0.000446
0.884077 0.419861 0.000178
0.919208 0.420966 0.004916
0.950211 0.424641 0.058458
0.217951 0.390226 0.237778
0.228900 0.387306 0.239684
0.247140 0.381592 0.243211
0.270299 0.372203 0.248676
0.293499 0.359301 0.256434
0.309587 0.345096 0.264052
0.309966 0.352528 0.243208
0.327972 0.360056 0.216039
0.369399 0.366476 0.184129
0.445211 0.380180 0.150678
0.595992 0.431539 0.118575
0.722891 0.469445 0.072340
0.812223 0.487290 0.015499
0.876922 0.495393 0.008322
0.920826 0.497157 0.037737
0.951119 0.498478 0.113637
0.267129 0.444467 0.277257
0.276089 0.441228 0.278569
0.291220 0.435738 0.281287
0.312531 0.427667 0.286150
0.335719 0.416511 0.293090
0.355368 0.402466 0.301226
0.362324 0.395556 0.298818
0.365772 0.402881 0.274186
0.387577 0.409955 0.244499
0.428363 0.415004 0.209399
0.494040 0.423811 0.172195
0.636088 0.479312 0.148059
0.749780 0.518696 0.122183
0.836869 0.541874 0.092225
0.897726 0.550807 0.097081
0.943895 0.553478 0.154614
0.324304 0.500273 0.323364
0.331974 0.498040 0.324756
0.344702 0.493192 0.326913
0.362676 0.485959 0.330780
0.383578 0.475656 0.336327
0.403419 0.462303 0.343429
0.418754 0.447357 0.351190
0.418658 0.447727 0.336618
0.425961 0.454939 0.308953
0.449161 0.460522 0.275762
0.488656 0.464158 0.237248
0.543490 0.467705 0.195474
0.671928 0.522979 0.181816
0.777098 0.565116 0.175607
0.855531 0.587505 0.165334
0.913970 0.594363 0.155945
0.386066 0.551336 0.373870
0.391851 0.549152 0.374732
0.401346 0.545264 0.376171
0.415856 0.539076 0.379113
0.433901 0.530753 0.383790
0.452844 0.520008 0.390157
0.469933 0.507243 0.398370
0.479558 0.495056 0.402579
0.477663 0.500710 0.378137
0.486747 0.506127 0.347260
0.510326 0.510337 0.311384
0.547967 0.513202 0.270034
0.594556 0.513966 0.224305
0.707680 0.565993 0.221474
0.800406 0.605597 0.228460
0.871423 0.626990 0.230722
0.439615 0.590670 0.420738
0.443997 0.588888 0.421264
0.453628 0.587201 0.424482
0.467540 0.583955 0.429092
0.485447 0.579651 0.436060
0.504527 0.573431 0.444429
0.523988 0.566107 0.455208
0.539573 0.556605 0.465845
0.546021 0.555390 0.463783
0.549517 0.563413 0.440468
0.564283 0.571820 0.412426
0.590473 0.578667 0.377621
0.628121 0.584582 0.336879
0.674402 0.589620 0.292961
0.759080 0.628102 0.299209
0.833397 0.658380 0.316739
0.521805 0.648723 0.502110
0.516367 0.641707 0.493570
0.518575 0.637232 0.491183
0.527248 0.633616 0.493301
0.540902 0.630270 0.499002
0.555940 0.625402 0.505763
0.571953 0.619468 0.514435
0.586823 0.612079 0.524363
0.599406 0.604643 0.535282
0.600614 0.608666 0.522384
0.606627 0.616632 0.500549
0.620990 0.623578 0.472786
0.646326 0.630809 0.440088
0.679363 0.635068 0.396758
0.717804 0.636455 0.347258
0.785032 0.664334 0.351389
0.580477 0.694602 0.571331
0.575590 0.688619 0.563157
0.576322 0.684505 0.560082
0.582284 0.681393 0.560990
0.592324 0.678600 0.565317
0.604421 0.675042 0.571143
0.618168 0.671124 0.579203
0.631216 0.665690 0.587720
0.643265 0.659637 0.597674
0.650601 0.655285 0.602810
0.652449 0.662691 0.587551
0.660255 0.670426 0.568334
0.676528 0.678973 0.546511
0.700522 0.686409 0.518234
0.731695 0.692119 0.481361
0.761786 0.688204 0.424882
0.634934 0.739636 0.643350
0.630653 0.734427 0.635770
0.630693 0.730895 0.632574
0.635184 0.728531 0.633349
0.643078 0.726782 0.637318
0.653016 0.724631 0.642751
0.664605 0.722295 0.650171
0.676483 0.719309 0.658617
0.688542 0.716314 0.669080
0.699616 0.712974 0.680794
0.705282 0.716511 0.682341
0.710345 0.725626 0.672803
0.721792 0.736214 0.663250
0.739255 0.746786 0.651095
0.764633 0.758564 0.638398
0.797962 0.770971 0.624166
0.027555 0.047495 0.111880
0.068038 0.050869 0.104702
0.109025 0.053362 0.093645
0.164250 0.049971 0.087964
0.226251 0.040004 0.076059
0.292116 0.039348 0.071423
0.372881 0.016754 0.066336
0.463787 0.000000 0.058851
0.556825 0.000000 0.045317
0.651968 0.000000 0.028004
0.730916 0.000000 0.021686
0.795256 0.000000 0.018227
0.848167 0.000000 0.018045
0.899777 0.000000 0.022891
0.941898 0.000000 0.036654
0.975697 0.000000 0.058511
0.025943 0.082407 0.112031
0.066609 0.082978 0.107408
0.109782 0.086390 0.098762
0.163921 0.082855 0.092761
0.223738 0.079314 0.083454
0.295069 0.073086 0.078685
0.378094 0.050518 0.071337
0.469754 0.005255 0.061113
0.564865 0.000077 0.047051
0.658533 0.000000 0.028451
0.734859 0.000000 0.018369
0.797052 0.000000 0.014907
0.848561 0.000000 0.014764
0.898958 0.000000 0.020212
0.940485 0.000011 0.034553
0.974876 0.000164 0.057944
0.018401 0.130422 0.115122
0.061199 0.128454 0.110723
0.108837 0.127353 0.106084
0.164686 0.124507 0.100051
0.228889 0.120218 0.093431
0.305711 0.111431 0.085438
0.389844 0.094949 0.076535
0.480710 0.062778 0.065372
0.576659 0.009055 0.050409
0.665899 0.001706 0.029768
0.737508 0.001087 0.012125
0.796823 0.000641 0.008465
0.847818 0.000680 0.008169
0.897301 0.001236 0.014211
0.938519 0.002959 0.029179
0.972905 0.017729 0.055285
0.037083 0.174145 0.120613
0.077761 0.170012 0.119572
0.121343 0.163785 0.123211
0.142037 0.161414 0.116138
0.223959 0.168090 0.101827
0.310125 0.159990 0.092147
0.395605 0.148538 0.082178
0.489680 0.131767 0.070597
0.581297 0.107833 0.054461
0.666647 0.078389 0.032405
0.736608 0.051525 0.009315
0.795599 0.032329 0.000954
0.847665 0.033470 0.000499
0.894797 0.058043 0.004624
0.933333 0.089613 0.020251
0.966253 0.123689 0.047496
0.071916 0.208204 0.133118
0.099197 0.206559 0.135613
0.135055 0.201014 0.141179
0.155763 0.189267 0.145018
0.175363 0.195504 0.126153
0.263881 0.210314 0.107877
0.386902 0.210326 0.090774
0.492298 0.200274 0.076790
0.584788 0.188217 0.059971
0.669528 0.177358 0.036406
0.739301 0.170285 0.011169
0.800979 0.171131 0.001127
0.852258 0.176292 0.000406
0.899252 0.189461 0.001089
0.937884 0.206089 0.014209
0.969614 0.223591 0.051060
0.100912 0.254535 0.156604
0.124959 0.254038 0.160473
0.156433 0.247703 0.165476
0.184196 0.234072 0.172079
0.191752 0.230809 0.164398
0.221372 0.238857 0.141794
0.311573 0.256292 0.118856
0.456913 0.272174 0.093004
0.587267 0.270031 0.068311
0.674667 0.264611 0.043446
0.742402 0.261599 0.015661
0.801255 0.263174 0.001407
0.850894 0.266958 0.000687
0.895592 0.275383 0.000015
0.933197 0.285600 0.003305
0.965433 0.297969 0.049963
0.136651 0.307338 0.186341
0.159164 0.307736 0.191320
0.185410 0.300587 0.194785
0.214942 0.287502 0.201127
0.233377 0.271471 0.207175
0.237607 0.277714 0.186036
0.272091 0.284369 0.159274
0.362596 0.302905 0.132504
0.510343 0.330068 0.102354
0.646498 0.343107 0.064609
0.739836 0.345175 0.030061
0.797567 0.345774 0.003378
0.845972 0.346942 0.001319
0.890301 0.352352 0.000454
0.927124 0.358448 0.003550
0.959632 0.367319 0.053314
0.178183 0.357762 0.217868
0.195160 0.358044 0.221705
0.218127 0.351261 0.224821
0.246770 0.339503 0.230658
0.270241 0.323754 0.237483
0.276470 0.315969 0.232257
0.285370 0.321689 0.206535
0.322236 0.327178 0.176520
0.405364 0.343160 0.146744
0.553108 0.380992 0.116242
0.686741 0.407536 0.071664
0.777801 0.418942 0.035854
0.838969 0.421636 0.006694
0.882904 0.423025 0.005055
0.918813 0.423219 0.006440
0.949980 0.426283 0.058116
0.221931 0.405079 0.250094
0.231063 0.402096 0.250470
0.251173 0.396110 0.253608
0.277481 0.386676 0.259178
0.303292 0.373736 0.266657
0.322338 0.358523 0.274745
0.323835 0.361893 0.258582
0.339781 0.369181 0.231164
0.380261 0.375397 0.199249
0.458289 0.390321 0.167203
0.605794 0.439751 0.141429
0.728587 0.475193 0.109653
0.814379 0.491318 0.081873
0.878165 0.498981 0.075371
0.920536 0.499490 0.064562
0.951565 0.500157 0.116413
0.269733 0.457119 0.287522
0.279650 0.454039 0.288919
0.296003 0.448653 0.291369
0.319208 0.440688 0.296426
0.344422 0.429680 0.303322
0.365969 0.415228 0.311315
0.375910 0.404413 0.312803
0.377925 0.411348 0.288701
0.397831 0.418033 0.258619
0.438077 0.422860 0.223514
0.505074 0.432506 0.187160
0.643429 0.485889 0.168035
0.754189 0.523445 0.149650
0.839490 0.545489 0.130488
0.898617 0.553888 0.138314
0.944368 0.554580 0.157789
0.328040 0.510618 0.333073
0.336505 0.508514 0.334549
0.349349 0.503858 0.336414
0.368881 0.496583 0.340378
0.390810 0.486464 0.345767
0.412024 0.473185 0.352702
0.428402 0.458064 0.360316
0.430336 0.455066 0.349862
0.435784 0.461926 0.322067
0.457414 0.467097 0.288687
0.495958 0.470209 0.249830
0.549938 0.473123 0.208336
0.677467 0.528283 0.199342
0.780371 0.568965 0.196961
0.857452 0.590459 0.190516
0.914605 0.597051 0.187512
0.389986 0.559009 0.382592
0.396006 0.557013 0.383485
0.405550 0.553020 0.384750
0.420895 0.547036 0.387748
0.439862 0.539117 0.392604
0.459572 0.528564 0.398790
0.477518 0.515691 0.406861
0.489407 0.501358 0.413900
0.486360 0.506201 0.389921
0.494019 0.511284 0.358740
0.516460 0.515199 0.322828
0.552761 0.517441 0.281071
0.598996 0.517931 0.235669
0.711477 0.570043 0.236125
0.802599 0.608382 0.244737
0.872804 0.628958 0.248368
0.443995 0.597311 0.429234
0.448249 0.595568 0.429679
0.457700 0.593675 0.432473
0.471901 0.590388 0.437024
0.489967 0.586197 0.443905
0.509395 0.579924 0.451927
0.528959 0.572582 0.462232
0.544972 0.563158 0.472683
0.552836 0.559784 0.473513
0.555545 0.567493 0.450896
0.569198 0.575662 0.423050
0.594472 0.582384 0.388599
0.631403 0.588045 0.347750
0.677041 0.592641 0.303775
0.761577 0.631296 0.312232
0.835092 0.660898 0.330608
0.523581 0.653241 0.508014
0.518510 0.646464 0.499790
0.521090 0.642215 0.497676
0.529963 0.638689 0.499806
0.543706 0.635274 0.505271
0.558924 0.630330 0.511756
0.575103 0.624407 0.520124
0.590283 0.617094 0.529871
0.603050 0.609472 0.540528
0.605126 0.611739 0.530371
0.610280 0.619474 0.508580
0.623907 0.626274 0.481049
0.648609 0.633318 0.448584
0.681168 0.637295 0.405302
0.719339 0.638475 0.355802
0.787096 0.666972 0.362121
0.580834 0.697751 0.575276
0.576264 0.691970 0.567414
0.577267 0.687983 0.564413
0.583437 0.684923 0.565487
0.593698 0.682181 0.569764
0.605949 0.678678 0.575525
0.619930 0.674805 0.583476
0.633113 0.669307 0.591730
0.645240 0.662971 0.601321
0.653464 0.657348 0.608222
0.654974 0.664617 0.593291
0.662317 0.672312 0.574234
0.678122 0.680731 0.552470
0.701726 0.688086 0.524315
0.732717 0.693629 0.487626
0.762811 0.689710 0.431493
0.634757 0.741964 0.645988
0.630511 0.736868 0.638519
0.630829 0.733450 0.635500
0.635471 0.731170 0.636440
0.643609 0.729520 0.640450
0.653693 0.727283 0.645819
0.665329 0.724916 0.653014
0.677333 0.721869 0.661246
0.689572 0.718722 0.671489
0.700858 0.715349 0.683083
0.707108 0.717837 0.686231
0.711764 0.726855 0.676668
0.722815 0.737296 0.666930
0.739970 0.747732 0.654666
0.765149 0.759422 0.641779
0.798470 0.771825 0.627490
0.011207 0.053347 0.155532
0.050655 0.054873 0.150903
0.101989 0.061365 0.137992
0.149584 0.064990 0.127177
0.208623 0.062527 0.122900
0.283207 0.044576 0.112761
0.369715 0.006419 0.099380
0.458301 0.000000 0.094133
0.551930 0.000000 0.085275
0.646109 0.000000 0.075240
0.726938 0.000000 0.059164
0.793328 0.000000 0.036492
0.848110 0.000000 0.014737
0.899690 0.000000 0.020232
0.941521 0.000000 0.034896
0.975483 0.000000 0.058191
0.017585 0.085812 0.154216
0.055393 0.085409 0.149124
0.104990 0.090575 0.140573
0.151433 0.093939 0.131361
0.209731 0.090370 0.127507
0.289118 0.075579 0.117595
0.375022 0.049597 0.104488
0.462896 0.028382 0.099698
0.559313 0.000531 0.090721
0.652505 0.000009 0.078934
0.730282 0.000000 0.061560
0.794625 0.000000 0.037661
0.848615 0.000000 0.011424
0.898732 0.000007 0.017619
0.940162 0.000081 0.032219
0.974662 0.000796 0.057262
0.012856 0.125725 0.152633
0.050189 0.124435 0.148126
0.101286 0.126857 0.146036
0.155980 0.133417 0.140153
0.219764 0.129021 0.135602
0.300291 0.117919 0.123782
0.382304 0.111821 0.117509
0.474338 0.088596 0.108484
0.569799 0.048380 0.097169
0.658808 0.003090 0.082528
0.731970 0.001893 0.064498
0.793765 0.001712 0.039942
0.847451 0.001936 0.011751
0.897031 0.002908 0.011728
0.938171 0.008201 0.027097
0.972639 0.067809 0.054921
0.000000 0.180622 0.158770
0.039034 0.179227 0.155497
0.094895 0.179118 0.152517
0.158168 0.180942 0.150271
0.224872 0.177146 0.142624
0.303381 0.171582 0.134256
0.389628 0.161815 0.124741
0.482907 0.147609 0.115035
0.574242 0.127359 0.102558
0.660024 0.104770 0.087681
0.731065 0.086878 0.069453
0.792474 0.079495 0.044554
0.846741 0.087910 0.014679
0.894518 0.103481 0.003622
0.933071 0.122319 0.018031
0.966102 0.145482 0.046789
0.002318 0.226829 0.161438
0.048622 0.225700 0.160644
0.108465 0.223122 0.160010
0.168817 0.217654 0.165933
0.194374 0.214220 0.156627
0.292354 0.224786 0.142440
0.393111 0.217901 0.131488
0.487656 0.210286 0.121332
0.578962 0.199732 0.109105
0.663682 0.190410 0.094456
0.734255 0.184886 0.076396
0.797525 0.187539 0.052325
0.850624 0.195043 0.020965
0.898982 0.207897 0.003561
0.937658 0.221377 0.013426
0.969605 0.235910 0.051572
0.054795 0.273593 0.176717
0.090509 0.273407 0.178526
0.138074 0.271279 0.181565
0.191500 0.264524 0.190130
0.216231 0.250022 0.192863
0.241896 0.257085 0.170319
0.340745 0.274108 0.150505
0.478501 0.282333 0.133511
0.588762 0.277468 0.119069
0.670457 0.273182 0.104196
0.738109 0.271135 0.086906
0.797673 0.273591 0.064722
0.847945 0.278130 0.033472
0.894591 0.286671 0.003951
0.933048 0.295202 0.005527
0.965603 0.306026 0.051464
0.105875 0.324456 0.201735
0.134070 0.325253 0.204995
0.174808 0.323680 0.210404
0.221582 0.316009 0.218680
0.253514 0.298046 0.225761
0.260486 0.295105 0.213737
0.292290 0.301583 0.186412
0.389103 0.321024 0.162276
0.534322 0.343791 0.140424
0.657448 0.351782 0.120316
0.736421 0.351813 0.103104
0.794336 0.353134 0.084272
0.842861 0.354973 0.058860
0.888255 0.360168 0.023496
0.927127 0.364671 0.007710
0.959910 0.372364 0.056143
0.158245 0.373603 0.230629
0.181676 0.375275 0.235317
0.215496 0.374258 0.241568
0.253426 0.365300 0.247666
0.285822 0.348471 0.254512
0.301241 0.332478 0.257608
0.305806 0.337435 0.232260
0.341115 0.342750 0.201927
