example_ofxGpuLutCube/bin/data/ofxGpuLutCube/LUT/U38 (teal sunset fade_3).cube
LUT_3D_SIZE 16
0.026856 0.035828 0.027832
0.049455 0.037775 0.029884
0.085627 0.039820 0.033136
0.124125 0.039001 0.035925
0.164382 0.036087 0.037815
0.215835 0.026879 0.039434
0.275406 0.010903 0.041368
0.356101 0.000000 0.042566
0.446894 0.000000 0.043643
0.545807 0.000000 0.043647
0.643750 0.000000 0.043446
0.730691 0.000000 0.044290
0.802148 0.000000 0.048105
0.868670 0.000000 0.057907
0.922254 0.000000 0.073205
0.962595 0.000000 0.093381
0.037835 0.061099 0.043870
0.047219 0.061357 0.041003
0.086729 0.062183 0.036493
0.124651 0.059498 0.037820
0.165413 0.054867 0.039061
0.216397 0.046901 0.040705
0.281256 0.028826 0.042229
0.362318 0.000393 0.043357
0.450786 0.000000 0.043907
0.549597 0.000000 0.043440
0.645694 0.000000 0.043298
0.730712 0.000000 0.043940
0.800556 0.000000 0.047398
0.866737 0.000000 0.057224
0.920436 0.000000 0.073128
0.962395 0.000000 0.094376
0.048112 0.088398 0.061639
0.056543 0.083597 0.063244
0.068797 0.086217 0.053704
0.118253 0.090384 0.043285
0.168190 0.084152 0.041498
0.224904 0.078517 0.041996
0.290894 0.066096 0.043077
0.370282 0.038688 0.043885
0.458100 0.001293 0.043939
0.556963 0.000164 0.043267
0.649833 0.000000 0.042239
0.731517 0.000000 0.043217
0.799142 0.000000 0.046826
0.865253 0.000000 0.056415
0.918589 0.000000 0.072934
0.961621 0.000000 0.096216
0.061202 0.119319 0.083274
0.072316 0.114252 0.086414
0.078297 0.113511 0.083419
0.096505 0.117361 0.071642
0.152622 0.125263 0.056887
0.229384 0.121761 0.045173
0.298116 0.112102 0.044205
0.377914 0.096708 0.043403
0.467893 0.066744 0.042867
0.562250 0.011710 0.041833
0.649965 0.002593 0.040301
0.728121 0.002004 0.040567
0.795288 0.001333 0.043981
0.858366 0.001980 0.053702
0.908833 0.001755 0.069765
0.951430 0.000000 0.092497
0.078380 0.155356 0.109844
0.090585 0.153222 0.113977
0.104936 0.150594 0.121733
0.111620 0.154572 0.111031
0.136420 0.158834 0.095949
0.207387 0.172065 0.077397
0.308002 0.173778 0.053823
0.412815 0.160813 0.041931
0.503952 0.146018 0.038757
0.596440 0.124969 0.035895
0.678134 0.100818 0.034061
0.751573 0.081480 0.035264
0.815306 0.076729 0.041204
0.873917 0.097082 0.055805
0.920685 0.125918 0.078417
0.957174 0.154372 0.104394
0.101877 0.201990 0.142908
0.115238 0.201915 0.147996
0.133099 0.199839 0.155829
0.144352 0.198485 0.156917
0.155065 0.201370 0.141062
0.186787 0.205739 0.122055
0.267788 0.222151 0.100101
0.389287 0.232736 0.069506
0.513720 0.228339 0.035558
0.612736 0.216800 0.025498
0.688435 0.208732 0.022659
0.757818 0.207105 0.024830
0.816966 0.209985 0.033394
0.872011 0.223124 0.054688
0.916914 0.239423 0.082106
0.953483 0.256796 0.113609
0.133643 0.258619 0.181891
0.147886 0.259358 0.187015
0.168073 0.257509 0.194769
0.189849 0.252835 0.205128
0.196435 0.254620 0.195186
0.212755 0.257963 0.175079
0.250554 0.261999 0.152007
0.342101 0.282086 0.126078
0.468292 0.298637 0.087710
0.596884 0.305800 0.030127
0.694290 0.301345 0.010011
0.761441 0.303555 0.012190
0.817085 0.307217 0.026845
0.868605 0.317756 0.057095
0.911687 0.329517 0.092303
0.948144 0.342884 0.128996
0.174633 0.320823 0.223888
0.190194 0.323500 0.230223
0.212956 0.323567 0.238858
0.238938 0.320430 0.250293
0.257565 0.316839 0.257136
0.261451 0.318167 0.236036
0.279631 0.317992 0.210048
0.318413 0.318939 0.181398
0.409194 0.339261 0.152826
0.537626 0.365016 0.113103
0.656408 0.382643 0.055182
0.750316 0.390466 0.014579
0.813061 0.390723 0.029627
0.861832 0.397580 0.068341
0.902705 0.404685 0.106976
0.939446 0.415279 0.149656
0.218477 0.376677 0.263002
0.229996 0.376368 0.266759
0.251230 0.376892 0.274880
0.278315 0.375636 0.286582
0.306958 0.373410 0.301847
0.318342 0.374926 0.297686
0.329217 0.379470 0.275685
0.354495 0.382387 0.248909
0.398650 0.386081 0.218822
0.490733 0.410254 0.189774
0.614264 0.445195 0.153268
0.719164 0.469131 0.107452
0.802389 0.479377 0.074754
0.863266 0.481185 0.111108
0.902924 0.485704 0.153437
0.936218 0.490049 0.196250
0.285907 0.450962 0.319750
0.295020 0.449188 0.322253
0.312484 0.448323 0.328591
0.337349 0.446554 0.338911
0.366520 0.444557 0.353943
0.392684 0.442671 0.369905
0.397315 0.447482 0.351668
0.411571 0.451330 0.326669
0.439610 0.454318 0.297215
0.482459 0.456924 0.263286
0.563954 0.478634 0.234230
0.668789 0.511111 0.204650
0.757580 0.532028 0.172185
0.834636 0.545401 0.166027
0.890797 0.548521 0.200352
0.928455 0.549830 0.244079
0.364822 0.523343 0.384836
0.372459 0.522253 0.387278
0.386744 0.520955 0.392678
0.408178 0.519448 0.402044
0.434566 0.517899 0.415971
0.461467 0.516061 0.433392
0.475371 0.516931 0.436088
0.480376 0.519881 0.413437
0.495373 0.522352 0.385966
0.520913 0.523075 0.352875
0.558726 0.523997 0.316272
0.621984 0.537745 0.286982
0.713267 0.568241 0.267395
0.793287 0.590221 0.252996
0.860034 0.601835 0.264848
0.911292 0.603729 0.294641
0.447442 0.585421 0.455869
0.452920 0.584633 0.457926
0.463991 0.583867 0.462901
0.480260 0.582641 0.470908
0.500539 0.581200 0.482285
0.522619 0.579676 0.497267
0.543608 0.578579 0.514386
0.546667 0.580309 0.501653
0.552637 0.582538 0.479071
0.566228 0.583488 0.450891
0.589214 0.583595 0.417172
0.622338 0.583848 0.379578
0.671844 0.591719 0.349850
0.752834 0.621522 0.344775
0.821448 0.640446 0.345752
0.880000 0.651661 0.370712
0.505342 0.629268 0.512256
0.509999 0.628928 0.514282
0.520551 0.630015 0.520680
0.535484 0.631140 0.529964
0.554917 0.633003 0.543331
0.575703 0.634475 0.559049
0.597143 0.636665 0.577807
0.611231 0.639338 0.588415
0.615844 0.643943 0.575982
0.624392 0.647513 0.558318
0.640043 0.651155 0.537486
0.662148 0.653415 0.510699
0.691775 0.655399 0.479731
0.732785 0.661649 0.456674
0.794575 0.681350 0.454663
0.848791 0.693052 0.463437
0.588863 0.690681 0.601779
0.584058 0.684881 0.594478
0.586878 0.682439 0.594332
0.596118 0.682038 0.599738
0.610175 0.683235 0.609879
0.626010 0.684367 0.622230
0.643054 0.686123 0.637298
0.659110 0.688204 0.653365
0.665791 0.691753 0.653088
0.669435 0.694597 0.640395
0.677746 0.697656 0.625324
0.690641 0.699687 0.605662
0.710080 0.701725 0.582463
0.734687 0.701807 0.552186
0.765290 0.702453 0.526529
0.817440 0.717911 0.527811
0.645804 0.735192 0.668730
0.642002 0.730595 0.662761
0.643150 0.728072 0.661585
0.649200 0.727306 0.664918
0.659108 0.727856 0.672010
0.671238 0.728725 0.681333
0.685005 0.730383 0.693276
0.698527 0.731909 0.706154
0.710064 0.734102 0.717547
0.711834 0.736630 0.709400
0.716186 0.739453 0.699075
0.724097 0.742088 0.686337
0.737044 0.745215 0.672029
0.754510 0.747380 0.653298
0.776709 0.748249 0.629299
0.797671 0.743441 0.600103
0.695804 0.775727 0.728748
0.692533 0.771904 0.723914
0.693179 0.769885 0.722813
0.697651 0.769273 0.725203
0.705213 0.769701 0.730471
0.714760 0.770435 0.737513
0.725959 0.771751 0.746608
0.737689 0.773276 0.756822
0.749896 0.775473 0.768638
0.756380 0.778400 0.771998
0.759955 0.782263 0.767000
0.765838 0.786097 0.760612
0.775900 0.791049 0.754398
0.789424 0.795790 0.746156
0.808086 0.801342 0.737531
0.831917 0.807919 0.731038
0.028708 0.043392 0.050148
0.050602 0.045178 0.050957
0.089011 0.042295 0.046055
0.126675 0.046552 0.041331
0.166671 0.050479 0.040656
0.217749 0.045283 0.040978
0.280720 0.030078 0.042178
0.359813 0.000747 0.043319
0.448000 0.000000 0.043826
0.546412 0.000000 0.043473
0.643474 0.000000 0.043072
0.727873 0.000000 0.044132
0.797678 0.000000 0.047408
0.863752 0.000000 0.056893
0.917167 0.000000 0.071613
0.958978 0.000000 0.091703
0.027637 0.071115 0.062368
0.052247 0.071909 0.059835
0.086634 0.070064 0.054665
0.125910 0.068951 0.049556
0.168934 0.067184 0.045154
0.222091 0.062469 0.041604
0.287869 0.049276 0.042840
0.367433 0.019292 0.043605
0.455575 0.000110 0.043769
0.555319 0.000000 0.043455
0.649335 0.000000 0.042675
0.730947 0.000000 0.043482
0.798470 0.000000 0.046775
0.863316 0.000000 0.056453
0.915911 0.000000 0.071473
0.958372 0.000000 0.092565
0.037645 0.102509 0.074399
0.062477 0.098589 0.077458
0.075412 0.097503 0.071910
0.125615 0.098709 0.060344
0.174403 0.094559 0.054027
0.232799 0.090409 0.047875
0.300289 0.080621 0.043857
0.379802 0.057293 0.044086
0.470880 0.011049 0.043447
0.566904 0.000639 0.042784
0.654841 0.000001 0.042004
0.732431 0.000000 0.042716
0.798460 0.000000 0.045934
0.862619 0.000000 0.055494
0.914520 0.000000 0.071506
0.956954 0.000000 0.093724
0.056505 0.134188 0.095343
0.075614 0.129789 0.098884
0.087537 0.124828 0.100788
0.103913 0.127648 0.088080
0.162854 0.134191 0.073525
0.237955 0.129485 0.059969
0.309066 0.121722 0.050307
0.391780 0.108460 0.044156
0.481449 0.082267 0.042573
0.573174 0.034845 0.040707
0.657990 0.003023 0.039087
0.733412 0.002424 0.039497
0.800537 0.001677 0.043667
0.861401 0.002290 0.053948
0.909908 0.002024 0.070443
0.950381 0.000362 0.092468
0.075823 0.166366 0.118757
0.090861 0.163609 0.122228
0.108075 0.158640 0.128082
0.115576 0.158724 0.121810
0.137525 0.161581 0.106174
0.207239 0.173418 0.089449
0.305230 0.174515 0.068794
0.403260 0.163519 0.052091
0.493990 0.151260 0.039821
0.585294 0.133152 0.035510
0.668636 0.112226 0.033193
0.744036 0.095464 0.033963
0.809468 0.091426 0.039135
0.868770 0.106750 0.054130
0.916429 0.131574 0.076396
0.954645 0.159019 0.102441
0.099444 0.210707 0.149645
0.114009 0.209000 0.153571
0.133171 0.205025 0.159740
0.148400 0.200963 0.164799
0.157108 0.203802 0.149614
0.187681 0.207775 0.130832
0.266473 0.222493 0.109967
0.384367 0.231213 0.082976
0.503544 0.226125 0.052177
0.601639 0.217063 0.027392
0.680011 0.210762 0.022725
0.751196 0.209539 0.024189
0.811464 0.212374 0.032020
0.866835 0.223918 0.052411
0.912496 0.238700 0.079366
0.950712 0.257057 0.111220
0.131743 0.267100 0.188008
0.147011 0.266738 0.192480
0.168134 0.263041 0.198804
0.191179 0.257579 0.208404
0.199844 0.256580 0.202588
0.214014 0.259012 0.182374
0.249111 0.261547 0.158559
0.338526 0.280384 0.134411
0.464177 0.296717 0.100432
0.591610 0.303050 0.051509
0.685300 0.299563 0.012352
0.754328 0.301289 0.012268
0.810904 0.304877 0.025060
0.863088 0.314817 0.053478
0.906961 0.325986 0.087475
0.944975 0.340325 0.124961
0.172193 0.326530 0.228074
0.187240 0.327351 0.233091
0.208933 0.324880 0.239663
0.235295 0.320342 0.249835
0.257654 0.314959 0.260259
0.261112 0.316684 0.240572
0.279167 0.317738 0.215841
0.317539 0.318981 0.188057
0.407996 0.339020 0.160584
0.534575 0.363343 0.123854
0.652478 0.379696 0.071547
0.744099 0.387492 0.014959
0.808669 0.388054 0.025719
0.857850 0.394856 0.064092
0.898814 0.400920 0.101914
0.935166 0.409733 0.142113
0.220835 0.386410 0.270291
0.232682 0.385426 0.273593
0.252851 0.383904 0.280156
0.279800 0.380956 0.290397
0.308556 0.377392 0.304681
0.322581 0.377394 0.304511
0.332075 0.381531 0.282361
0.356211 0.384207 0.255831
0.399046 0.387069 0.225335
0.490579 0.410527 0.197100
0.612511 0.444313 0.162871
0.717105 0.467562 0.119457
0.799089 0.477475 0.071668
0.861216 0.480161 0.108957
0.901994 0.485532 0.152507
0.936208 0.491265 0.197085
0.285847 0.456565 0.324328
0.295967 0.455265 0.327135
0.313955 0.453472 0.333019
0.339127 0.451509 0.342905
0.368967 0.449114 0.357607
0.396601 0.446270 0.374924
0.400781 0.449403 0.357952
0.412996 0.452316 0.332233
0.439424 0.454394 0.302250
0.481055 0.456389 0.268608
0.561956 0.477441 0.239991
0.666967 0.509764 0.211844
0.756142 0.530892 0.180804
0.832930 0.544415 0.165123
0.889976 0.548343 0.199566
0.928564 0.550560 0.245291
0.364898 0.527153 0.388542
0.373707 0.526650 0.391716
0.388342 0.525206 0.396909
0.409874 0.523352 0.405910
0.435987 0.521071 0.418933
0.462429 0.518415 0.435491
0.477604 0.517691 0.440474
0.481047 0.519957 0.417532
0.495098 0.522007 0.389913
0.519762 0.522308 0.356794
0.556668 0.522818 0.320073
0.620265 0.536483 0.290875
0.711382 0.566703 0.272076
0.791609 0.588775 0.257464
0.858586 0.600357 0.261683
0.910793 0.603080 0.292813
0.446437 0.587343 0.458001
0.452667 0.586765 0.460471
0.463212 0.585449 0.464656
0.479434 0.584045 0.472279
0.500029 0.582547 0.483565
0.522701 0.581030 0.498462
0.544112 0.580039 0.515559
0.548332 0.581159 0.505646
0.553036 0.582572 0.482340
0.565587 0.582894 0.453588
0.587418 0.582287 0.419263
0.619877 0.582113 0.381533
0.669187 0.589418 0.351149
0.750229 0.618879 0.344752
0.818748 0.636961 0.338739
0.877975 0.648289 0.362612
0.508412 0.633327 0.517599
0.512970 0.632907 0.519513
0.522884 0.633530 0.525179
0.537395 0.634125 0.533731
0.556149 0.635385 0.546143
0.576767 0.636562 0.561329
0.598304 0.638725 0.580078
0.613616 0.641048 0.592626
0.617569 0.645173 0.579911
0.625421 0.648427 0.562089
0.640388 0.651670 0.540836
0.662121 0.653772 0.514102
0.691751 0.655787 0.483495
0.732855 0.662264 0.461107
0.794846 0.682292 0.459664
0.849491 0.693955 0.465404
0.589808 0.692882 0.604591
0.585809 0.687557 0.598134
0.588761 0.685170 0.598064
0.597914 0.684671 0.603296
0.611715 0.685603 0.612992
0.627304 0.686468 0.624779
0.644036 0.687835 0.639228
0.659933 0.689549 0.654849
0.667074 0.692642 0.655802
0.670226 0.695184 0.642797
0.678099 0.697986 0.627483
0.690744 0.699965 0.607904
0.710216 0.702168 0.585142
0.734853 0.702414 0.555447
0.765863 0.703447 0.530439
0.818148 0.718906 0.530029
0.646116 0.736612 0.670405
0.642769 0.732310 0.664975
0.644262 0.730082 0.664172
0.650448 0.729384 0.667556
0.660387 0.729820 0.674502
0.672293 0.730571 0.683535
0.685914 0.731966 0.695087
0.699259 0.733190 0.707537
0.711245 0.734940 0.719671
0.712591 0.737226 0.711162
0.716661 0.739865 0.700710
0.724347 0.742400 0.687928
0.737149 0.745450 0.673614
0.754583 0.747648 0.654961
0.776876 0.748718 0.631496
0.798223 0.744308 0.603084
0.695869 0.776830 0.729852
0.692901 0.773183 0.725322
0.693645 0.771266 0.724321
0.698278 0.770699 0.726793
0.705962 0.771127 0.732089
0.715566 0.771859 0.739126
0.726792 0.773112 0.748063
0.738432 0.774482 0.758061
0.750553 0.776403 0.769521
0.757371 0.779114 0.773584
0.760580 0.782762 0.768314
0.766067 0.786354 0.761652
0.775640 0.790941 0.754864
0.788980 0.795530 0.746379
0.807610 0.801023 0.737609
0.831504 0.807482 0.730271
0.025082 0.053720 0.088589
0.046904 0.054457 0.084829
0.076336 0.054516 0.078281
0.118406 0.053146 0.073152
0.165747 0.048820 0.061718
0.215057 0.053712 0.058346
0.278789 0.047174 0.055023
0.357710 0.025907 0.049393
0.446554 0.000000 0.044231
0.546014 0.000000 0.043779
0.641895 0.000000 0.042604
0.725947 0.000000 0.043080
0.795794 0.000000 0.046512
0.862896 0.000000 0.055932
0.916491 0.000000 0.071663
0.958639 0.000000 0.092368
0.027342 0.075756 0.092876
0.049996 0.077853 0.089829
0.077892 0.078142 0.085179
0.121000 0.075118 0.079313
0.164136 0.075382 0.070992
0.219161 0.073560 0.066378
0.284755 0.065793 0.060641
0.364822 0.043424 0.052092
0.456340 0.000812 0.044353
0.555219 0.000001 0.043269
0.648126 0.000000 0.042472
0.729236 0.000000 0.042497
0.797119 0.000000 0.046643
0.862570 0.000000 0.056220
0.915265 0.000000 0.071783
0.958033 0.000000 0.092992
0.025894 0.107312 0.100244
0.049691 0.106944 0.097767
0.079636 0.107858 0.094933
0.121751 0.106055 0.088906
0.170242 0.103919 0.082572
0.229028 0.099965 0.075316
0.297091 0.092209 0.067533
0.377755 0.074700 0.057921
0.471817 0.039899 0.046347
0.566815 0.001467 0.042730
0.653855 0.000159 0.041396
0.730842 0.000006 0.041266
0.797686 0.000000 0.045079
0.861574 0.000000 0.055079
0.913655 0.000002 0.071717
0.956264 0.000026 0.094110
0.028985 0.143576 0.111738
0.057565 0.141628 0.110914
0.092604 0.138240 0.115407
0.110095 0.137765 0.109485
0.171364 0.141267 0.096782
0.236151 0.136025 0.086601
0.306002 0.129543 0.077351
0.390687 0.118363 0.067034
0.481320 0.098416 0.053583
0.573464 0.064232 0.041128
0.657369 0.010558 0.038829
0.732253 0.003611 0.038435
0.799759 0.002724 0.042668
0.860223 0.003305 0.053408
0.908634 0.003305 0.070407
0.949194 0.003335 0.092706
0.056025 0.175428 0.128183
0.077303 0.175332 0.130974
0.107754 0.172246 0.137812
0.124793 0.168230 0.140533
0.144362 0.170682 0.125004
0.215588 0.180661 0.109557
0.309623 0.178151 0.092895
0.400110 0.169594 0.079640
0.491521 0.158699 0.064446
0.583804 0.145265 0.044997
0.667583 0.130421 0.033387
0.743599 0.119548 0.033064
0.808907 0.117985 0.038135
0.868077 0.131104 0.053839
0.915775 0.151431 0.076471
0.954343 0.174491 0.104025
0.082456 0.221127 0.157180
0.102975 0.221958 0.161971
0.131985 0.218129 0.168798
0.157310 0.212214 0.178193
0.166252 0.212848 0.167588
0.195209 0.216610 0.148299
0.276405 0.230063 0.128502
0.393861 0.236440 0.105116
0.506741 0.228944 0.081797
0.599292 0.222559 0.058293
0.679650 0.219878 0.030010
0.750705 0.220782 0.023255
0.810947 0.224099 0.030916
0.866204 0.235092 0.051532
0.911964 0.248905 0.079738
0.950590 0.266036 0.112424
0.117082 0.278387 0.194880
0.139454 0.278860 0.200792
0.165911 0.275342 0.206974
0.195475 0.269669 0.216837
0.212004 0.265864 0.219690
0.223265 0.268178 0.199288
0.257666 0.270206 0.175160
0.348380 0.288427 0.151946
0.473152 0.302589 0.122219
0.594931 0.306363 0.085797
0.685767 0.303033 0.050894
0.753974 0.307954 0.014545
0.810383 0.311758 0.024496
0.862496 0.321263 0.053237
0.906449 0.332049 0.088421
0.944792 0.345617 0.126859
0.163580 0.337460 0.235626
0.181617 0.338436 0.240789
0.206900 0.336003 0.247111
0.238107 0.331473 0.257536
0.266159 0.325168 0.270361
0.272211 0.325094 0.256891
0.287904 0.325746 0.231465
0.325445 0.326970 0.203607
0.416326 0.346413 0.177223
0.541815 0.369577 0.144681
0.657480 0.384209 0.102463
0.745269 0.390374 0.058481
0.808362 0.392520 0.028850
0.857466 0.398851 0.064901
0.898341 0.404396 0.102724
0.934784 0.412459 0.143405
0.215310 0.396365 0.277603
0.228889 0.395316 0.280851
0.251747 0.393302 0.287022
0.281385 0.390608 0.297457
0.313396 0.387156 0.311922
0.334112 0.385285 0.319113
0.341855 0.389212 0.297916
0.364156 0.391560 0.270803
0.406123 0.394160 0.240526
0.497795 0.417607 0.213515
0.617650 0.449792 0.183120
0.720012 0.471392 0.146277
0.799200 0.479907 0.103790
0.860565 0.483175 0.111301
0.902147 0.488143 0.154589
0.936536 0.493727 0.199790
0.283072 0.464505 0.331025
0.294215 0.463475 0.333953
0.313092 0.461924 0.339584
0.340581 0.459967 0.349715
0.372593 0.457824 0.364472
0.402571 0.454812 0.381844
0.410919 0.456462 0.372567
0.421280 0.459120 0.346829
0.446397 0.461045 0.316983
0.486952 0.462600 0.283109
0.566992 0.483001 0.255458
0.670245 0.513973 0.230086
0.758126 0.533922 0.201549
0.833095 0.546406 0.175189
0.890042 0.550083 0.201410
0.928942 0.552262 0.247670
0.363102 0.532984 0.394283
0.372873 0.532695 0.397620
0.388375 0.531388 0.402930
0.411121 0.529624 0.411997
0.438480 0.527254 0.424850
0.466384 0.524614 0.441514
0.486160 0.523266 0.452890
0.488671 0.525337 0.430812
0.500894 0.526932 0.402969
0.524232 0.526943 0.369928
0.560301 0.527090 0.333255
0.623488 0.540684 0.304892
0.713288 0.569943 0.287889
0.792827 0.591197 0.273592
0.858802 0.601577 0.264619
0.911205 0.604300 0.295475
0.445076 0.591474 0.462439
0.451626 0.590860 0.464901
0.462592 0.589545 0.468998
0.479737 0.588275 0.476739
0.501201 0.586975 0.488119
0.524657 0.585579 0.502975
0.546891 0.584515 0.520070
0.553996 0.585042 0.515699
0.557677 0.586250 0.492877
0.569214 0.586357 0.464435
0.590186 0.585502 0.430512
0.621452 0.584757 0.392410
0.671255 0.592534 0.363176
0.751371 0.621320 0.357573
0.819382 0.638560 0.349762
0.878354 0.648793 0.363838
0.508253 0.637066 0.521880
0.512855 0.636629 0.523812
0.522680 0.636994 0.529035
0.537682 0.637532 0.537513
0.556837 0.638833 0.549892
0.577992 0.639869 0.564871
0.599948 0.641855 0.583439
0.617633 0.643964 0.599779
0.621264 0.648003 0.587756
0.628445 0.651085 0.570152
0.642713 0.654235 0.549306
0.663824 0.656302 0.523174
0.692973 0.658161 0.492949
0.733985 0.664624 0.471034
0.795590 0.684294 0.469437
0.850281 0.694931 0.467843
0.588990 0.695020 0.606837
0.585210 0.689926 0.600737
0.588520 0.687733 0.600897
0.597948 0.687243 0.606078
0.611974 0.688089 0.615679
0.627822 0.688871 0.627250
0.644892 0.690187 0.641581
0.661203 0.691915 0.657289
0.669886 0.694798 0.661296
0.672665 0.697236 0.648618
0.680001 0.699892 0.633493
0.692194 0.701732 0.614066
0.711189 0.703836 0.591530
0.735488 0.703922 0.561988
0.766584 0.705056 0.537209
0.819056 0.720223 0.534803
0.645008 0.738099 0.671542
0.641837 0.733911 0.666369
0.643597 0.731773 0.665687
0.649994 0.731131 0.669155
0.660112 0.731571 0.676084
0.672342 0.732323 0.685163
0.686264 0.733711 0.696680
0.699914 0.734897 0.709061
0.712574 0.736499 0.722058
0.714402 0.738608 0.714974
0.718223 0.741215 0.704618
0.725578 0.743716 0.691969
0.738040 0.746669 0.677662
0.755252 0.748817 0.659142
0.777412 0.749797 0.635735
0.798966 0.745624 0.607998
0.694891 0.777992 0.730558
0.691960 0.774401 0.726058
0.692908 0.772502 0.725182
0.697685 0.772013 0.727744
0.705699 0.772506 0.733190
0.715483 0.773238 0.740165
0.726791 0.774427 0.748999
0.738682 0.775737 0.758967
0.750921 0.777627 0.770359
0.758853 0.780184 0.776182
0.761900 0.783769 0.770975
0.767195 0.787328 0.764259
0.776466 0.791795 0.757375
0.789599 0.796285 0.748811
0.808026 0.801720 0.739885
0.832005 0.807999 0.731260
0.016523 0.062246 0.123890
0.036141 0.063174 0.120394
0.067440 0.064473 0.114643
0.104128 0.066280 0.108465
0.148787 0.066273 0.104651
0.212057 0.054719 0.094544
0.278926 0.036999 0.080255
0.356162 0.027784 0.077233
0.446371 0.000000 0.070294
0.546782 0.000000 0.060962
0.643304 0.000000 0.045963
0.726675 0.000000 0.043270
0.796618 0.000000 0.046435
0.863321 0.000000 0.055822
0.916402 0.000000 0.072333
0.958487 0.000000 0.093854
0.022352 0.083523 0.126635
0.043386 0.084959 0.123083
0.071981 0.085955 0.118858
0.106814 0.086362 0.114263
0.151820 0.084669 0.110630
0.216946 0.074764 0.100054
0.283456 0.069717 0.090517
0.362485 0.051145 0.083510
0.455662 0.014676 0.075880
0.555386 0.000039 0.064629
0.648906 0.000000 0.048395
0.729493 0.000000 0.042586
0.798052 0.000000 0.045445
0.862786 0.000000 0.055367
0.915062 0.000000 0.071892
0.957880 0.000000 0.094465
0.025222 0.109606 0.130919
0.045993 0.110131 0.127838
0.075517 0.112965 0.126649
0.112083 0.114810 0.124992
0.163609 0.111277 0.120428
0.225913 0.105565 0.108975
0.294203 0.100079 0.101638
0.375992 0.086217 0.093838
0.469221 0.056399 0.083568
0.565262 0.005221 0.069816
0.653598 0.001044 0.052284
0.730807 0.000307 0.041300
0.798329 0.000026 0.044810
0.861703 0.000040 0.054584
0.913417 0.000138 0.072027
0.955968 0.001155 0.095258
0.018381 0.145938 0.141794
0.041553 0.145766 0.139721
0.074667 0.146986 0.138278
0.116929 0.150596 0.138255
0.169598 0.147882 0.130614
0.232209 0.144133 0.121851
0.303740 0.137981 0.112875
0.387951 0.127909 0.103753
0.478276 0.109959 0.092298
0.570696 0.083333 0.077648
0.656371 0.049457 0.059064
0.733048 0.018002 0.039028
0.800524 0.006442 0.041802
0.860261 0.007444 0.052484
0.908443 0.012519 0.070713
0.949047 0.056665 0.094177
0.003117 0.185072 0.151607
0.031618 0.185628 0.151454
0.079834 0.185678 0.151631
0.131049 0.184040 0.159247
0.153830 0.183276 0.151886
0.229995 0.189360 0.138209
0.311933 0.183455 0.126233
0.398158 0.177406 0.115837
0.488713 0.166933 0.103727
0.580989 0.154932 0.088857
0.665863 0.144987 0.069383
0.744311 0.144445 0.043400
0.809484 0.147869 0.038199
0.868097 0.159117 0.053220
0.915582 0.175226 0.077258
0.954244 0.193302 0.105782
0.036495 0.231550 0.172819
0.066272 0.232935 0.175004
0.107122 0.233399 0.179287
0.156605 0.230784 0.190486
0.180109 0.226187 0.193418
0.206596 0.229482 0.174320
0.292766 0.241172 0.156007
0.407387 0.242872 0.137415
0.507322 0.234817 0.121143
0.596907 0.229921 0.104392
0.677386 0.228057 0.084496
0.750104 0.232709 0.057019
0.811118 0.240272 0.032811
0.866120 0.250366 0.052283
0.911754 0.262419 0.081475
0.950606 0.277593 0.114962
0.079346 0.287752 0.205042
0.105159 0.290032 0.209220
0.145300 0.291307 0.216213
0.192943 0.287570 0.228247
0.227689 0.280407 0.241039
0.237431 0.281353 0.225227
0.270085 0.283195 0.200809
0.363559 0.300159 0.178686
0.487015 0.311280 0.153908
0.600037 0.310993 0.128247
0.683626 0.309286 0.105783
0.752111 0.314442 0.080168
0.809968 0.321302 0.047786
0.862483 0.330927 0.056115
0.906420 0.340745 0.090309
0.944916 0.352990 0.129077
0.131677 0.347813 0.242612
0.155599 0.351471 0.248567
0.194214 0.352648 0.258061
0.235060 0.347934 0.268086
0.272517 0.341138 0.281210
0.289349 0.337537 0.281510
0.301041 0.338068 0.256181
0.337208 0.338867 0.227766
