example_ofxGpuLutCube/bin/data/ofxGpuLutCube/LUT/U38 (teal sunset fade_4).cube
LUT_3D_SIZE 16
0.026215 0.016907 0.015930
0.049248 0.017399 0.016804
0.083359 0.017744 0.018506
0.124381 0.015436 0.019941
0.169414 0.008163 0.021152
0.226147 0.000000 0.021958
0.292226 0.000000 0.022112
0.378112 0.000000 0.020849
0.472635 0.000000 0.018189
0.572951 0.000000 0.013095
0.668739 0.000000 0.006880
0.751078 0.000000 0.001266
0.817579 0.000000 0.000000
0.877474 0.000000 0.000000
0.925113 0.000000 0.000962
0.961871 0.000000 0.014563
0.038534 0.036761 0.025403
0.047152 0.036184 0.024846
0.084957 0.037780 0.019909
0.124937 0.033122 0.020753
0.170334 0.024698 0.021552
0.226347 0.012193 0.021382
0.296796 0.000316 0.021027
0.382620 0.000000 0.019503
0.475145 0.000000 0.016114
0.575244 0.000000 0.011077
0.669803 0.000000 0.004518
0.750544 0.000000 0.000000
0.815784 0.000000 0.000000
0.875519 0.000000 0.000000
0.923354 0.000000 0.000765
0.961279 0.000000 0.011602
0.048475 0.065459 0.037416
0.060144 0.058141 0.041037
0.069495 0.061494 0.034807
0.116312 0.069142 0.024001
0.171908 0.060795 0.020103
0.232853 0.050841 0.019423
0.303853 0.030525 0.017828
0.387908 0.001553 0.015830
0.479965 0.000737 0.011920
0.579777 0.000000 0.005596
0.671563 0.000000 0.000000
0.750110 0.000000 0.000000
0.813815 0.000000 0.000000
0.873463 0.000000 0.000000
0.921170 0.000024 0.000391
0.959928 0.000000 0.005983
0.059926 0.101070 0.055383
0.073372 0.095108 0.058924
0.082905 0.091905 0.060447
0.098112 0.098002 0.051630
0.151210 0.109753 0.033026
0.234497 0.109582 0.015821
0.307671 0.095751 0.011024
0.392134 0.076846 0.007659
0.485826 0.039872 0.003267
0.581954 0.003581 0.000000
0.669690 0.002820 0.000000
0.745829 0.002526 0.000000
0.809428 0.001924 0.000000
0.866974 0.002790 0.000000
0.912757 0.004792 0.000000
0.951201 0.038128 0.000000
0.072573 0.144526 0.078320
0.088076 0.141175 0.082312
0.107001 0.136639 0.089830
0.117157 0.138975 0.087249
0.139180 0.147163 0.075481
0.203972 0.165180 0.052564
0.307462 0.172870 0.013345
0.415429 0.160940 0.000639
0.511602 0.145170 0.000000
0.605877 0.127425 0.000000
0.688545 0.109504 0.000000
0.760897 0.101458 0.000000
0.821535 0.109074 0.000000
0.875815 0.134896 0.000000
0.919068 0.164755 0.000000
0.953444 0.192953 0.000000
0.088838 0.199486 0.106521
0.106475 0.198078 0.111187
0.129638 0.194082 0.118812
0.150822 0.187237 0.127739
0.160907 0.193989 0.117528
0.191834 0.203990 0.102996
0.263910 0.223851 0.076998
0.387072 0.241903 0.019991
0.517477 0.242458 0.001539
0.615281 0.227654 0.000000
0.693317 0.222457 0.000000
0.762470 0.224100 0.000000
0.819743 0.230954 0.000000
0.871549 0.247197 0.000000
0.913626 0.265020 0.000000
0.948316 0.283280 0.000000
0.111514 0.263313 0.140310
0.130668 0.262694 0.145100
0.156754 0.259234 0.152172
0.186028 0.251875 0.162550
0.203877 0.249646 0.166101
0.220840 0.258713 0.153330
0.260026 0.270034 0.136299
0.339663 0.291322 0.108658
0.467250 0.314879 0.037180
0.595140 0.325867 0.003728
0.691324 0.322098 0.000000
0.761735 0.320528 0.000000
0.816303 0.325563 0.000000
0.865735 0.337506 0.000000
0.906768 0.349991 0.000000
0.941751 0.363030 0.000000
0.144896 0.331160 0.177999
0.164852 0.332105 0.183309
0.193591 0.330333 0.191137
0.227668 0.324421 0.201799
0.259114 0.315421 0.215214
0.272012 0.318164 0.209283
0.293315 0.326260 0.192273
0.335630 0.336185 0.172059
0.412455 0.355606 0.145808
0.539956 0.386593 0.072685
0.656955 0.406356 0.007209
0.749274 0.414775 0.000000
0.809080 0.408913 0.000000
0.857032 0.415710 0.000000
0.896934 0.422698 0.000000
0.932200 0.431809 0.000000
0.187647 0.392462 0.215391
0.203522 0.391183 0.218793
0.230483 0.389866 0.226099
0.264522 0.385934 0.236716
0.301225 0.379698 0.251342
0.330150 0.374147 0.264986
0.345383 0.385031 0.253651
0.375182 0.397153 0.237475
0.423616 0.410208 0.217812
0.498549 0.430932 0.196482
0.617628 0.468539 0.125140
0.717113 0.492311 0.013294
0.794974 0.501846 0.005359
0.851343 0.500303 0.000881
0.893988 0.498650 0.000019
0.927579 0.501886 0.000000
0.253571 0.468180 0.268466
0.266500 0.465735 0.270840
0.289247 0.463358 0.276644
0.320887 0.459416 0.286253
0.356869 0.453928 0.299916
0.391817 0.447358 0.317298
0.414204 0.449102 0.323589
0.433404 0.460934 0.310713
0.466694 0.473760 0.294398
0.514025 0.486417 0.274556
0.579736 0.505314 0.254953
0.673496 0.536800 0.200578
0.754728 0.556649 0.120733
0.825137 0.567905 0.028887
0.879309 0.567137 0.008613
0.919002 0.558362 0.007550
0.336563 0.539838 0.332319
0.346481 0.538260 0.334648
0.365065 0.535886 0.339711
0.391793 0.532478 0.348267
0.423857 0.528249 0.360939
0.457207 0.522658 0.377593
0.487221 0.517119 0.397004
0.501263 0.523619 0.392694
0.520716 0.534205 0.379071
0.550368 0.544374 0.362334
0.590348 0.554954 0.343470
0.640759 0.568408 0.324847
0.715417 0.594930 0.286558
0.787071 0.614572 0.234150
0.847823 0.622650 0.196393
0.899990 0.619377 0.154000
0.427001 0.600168 0.405243
0.434190 0.599009 0.407295
0.447678 0.597346 0.411770
0.467468 0.594534 0.419062
0.491742 0.590841 0.429447
0.518117 0.586366 0.443322
0.543734 0.581707 0.460475
0.563226 0.579232 0.474140
0.573781 0.587530 0.465163
0.590472 0.595882 0.452195
0.615313 0.604391 0.437202
0.647966 0.613157 0.420158
0.686718 0.622350 0.402511
0.748570 0.646149 0.380799
0.809597 0.662396 0.346139
0.864355 0.669710 0.325486
0.486757 0.640178 0.462277
0.492230 0.639502 0.464136
0.504734 0.639777 0.470256
0.522172 0.639659 0.479383
0.544413 0.639790 0.492339
0.568168 0.638942 0.507441
0.592499 0.638374 0.526192
0.614221 0.637414 0.546009
0.628562 0.642340 0.555430
0.639933 0.651594 0.550534
0.657089 0.661600 0.545094
0.679048 0.670841 0.536945
0.706205 0.680022 0.527513
0.738161 0.688888 0.517013
0.782128 0.702592 0.500335
0.831321 0.711665 0.473533
0.573089 0.697876 0.558248
0.568121 0.691804 0.549453
0.571427 0.688817 0.548398
0.581821 0.687477 0.553369
0.597437 0.687375 0.563381
0.614941 0.686846 0.575470
0.633619 0.686535 0.590319
0.651659 0.686075 0.607094
0.668253 0.686484 0.625535
0.675947 0.692587 0.625273
0.686108 0.700541 0.621553
0.699809 0.707904 0.615729
0.718254 0.715732 0.609591
0.739994 0.721825 0.599125
0.764507 0.726068 0.585407
0.798821 0.735140 0.574955
0.627448 0.739516 0.630755
0.623687 0.734706 0.623393
0.625136 0.731790 0.621371
0.631760 0.730329 0.624174
0.642442 0.729935 0.631117
0.655351 0.729593 0.640331
0.670133 0.729649 0.652308
0.684662 0.729270 0.665232
0.698822 0.729289 0.679915
0.709257 0.730456 0.690427
0.715762 0.736827 0.688480
0.724945 0.743448 0.685505
0.738099 0.750781 0.682860
0.754387 0.757432 0.678139
0.773696 0.762902 0.670681
0.791497 0.762472 0.652786
0.672934 0.777766 0.696670
0.669815 0.773760 0.690644
0.670645 0.771465 0.688840
0.675515 0.770362 0.690923
0.683538 0.770025 0.696097
0.693517 0.769901 0.703169
0.705359 0.770083 0.712385
0.717763 0.770230 0.722810
0.730751 0.770833 0.735077
0.743128 0.771538 0.748213
0.751284 0.775921 0.754168
0.758601 0.782608 0.754320
0.769450 0.790381 0.755590
0.782810 0.797951 0.756054
0.799876 0.806173 0.757216
0.820408 0.815036 0.760233
0.029824 0.019709 0.029844
0.050382 0.020457 0.030173
0.085062 0.018980 0.026930
0.126432 0.019080 0.023182
0.170514 0.018455 0.021643
0.226329 0.007786 0.022064
0.294906 0.000017 0.021028
0.379176 0.000000 0.019585
0.471695 0.000000 0.016247
0.571736 0.000000 0.011451
0.667322 0.000000 0.004954
0.748105 0.000000 0.000000
0.813564 0.000000 0.000000
0.873413 0.000000 0.000000
0.921191 0.000000 0.000764
0.959082 0.000000 0.011571
0.032422 0.043253 0.038635
0.053495 0.044317 0.036647
0.085682 0.042336 0.032301
0.126404 0.040376 0.028024
0.172380 0.035867 0.024193
0.229952 0.026031 0.021142
0.300595 0.006163 0.020063
0.384940 0.000155 0.017701
0.477417 0.000000 0.014145
0.578143 0.000000 0.008325
0.671209 0.000000 0.002010
0.749953 0.000000 0.000000
0.813581 0.000000 0.000000
0.872604 0.000000 0.000000
0.919857 0.000000 0.000571
0.958227 0.000000 0.008639
0.040703 0.077590 0.048408
0.064568 0.073560 0.050673
0.076894 0.071809 0.048560
0.125757 0.075947 0.034698
0.177073 0.069867 0.026915
0.238757 0.063516 0.020691
0.310338 0.048033 0.016581
0.394251 0.015159 0.013830
0.488633 0.001148 0.009194
0.586350 0.000057 0.003160
0.674373 0.000000 0.000000
0.750049 0.000000 0.000000
0.812760 0.000000 0.000000
0.871193 0.000000 0.000000
0.918016 0.000047 0.000153
0.956390 0.000248 0.002328
0.055951 0.114359 0.065815
0.075265 0.110221 0.068922
0.092491 0.102338 0.074103
0.106208 0.107416 0.065012
0.161217 0.118587 0.046517
0.240732 0.115732 0.025007
0.316043 0.105363 0.012726
0.402554 0.090088 0.005227
0.495412 0.058430 0.000470
0.589493 0.006581 0.000000
0.675058 0.003106 0.000000
0.749132 0.002832 0.000000
0.812744 0.002182 0.000000
0.868866 0.003056 0.000000
0.913296 0.006462 0.000000
0.950384 0.058942 0.000000
0.069970 0.154163 0.086039
0.087727 0.151641 0.089456
0.109734 0.144923 0.095558
0.121758 0.142871 0.096069
0.141734 0.149601 0.084698
0.205505 0.166389 0.062930
0.306739 0.172634 0.025141
0.407787 0.162632 0.001423
0.503157 0.149481 0.000001
0.596793 0.133747 0.000000
0.680888 0.118004 0.000000
0.754801 0.110851 0.000000
0.817004 0.117936 0.000000
0.871954 0.140762 0.000000
0.915825 0.168063 0.000000
0.951529 0.195535 0.000000
0.086621 0.207606 0.113633
0.103910 0.205254 0.116529
0.129515 0.199527 0.122746
0.153643 0.191211 0.132082
0.164316 0.195969 0.124502
0.193658 0.205548 0.110878
0.264670 0.224350 0.085559
0.384526 0.239826 0.033234
0.508478 0.239195 0.002299
0.606324 0.227035 0.000000
0.686565 0.223191 0.000000
0.757219 0.225606 0.000000
0.815563 0.232500 0.000000
0.867737 0.247113 0.000000
0.910405 0.264267 0.000000
0.946342 0.283073 0.000000
0.107491 0.271322 0.145900
0.127441 0.270068 0.150003
0.155985 0.264752 0.156263
0.186958 0.256836 0.165941
0.207716 0.251230 0.171994
0.222884 0.259325 0.159377
0.259506 0.269222 0.142375
0.337962 0.289988 0.115709
0.464978 0.312632 0.051650
0.591638 0.322615 0.004350
0.684955 0.320191 0.000000
0.756188 0.318230 0.000000
0.811714 0.323434 0.000000
0.861764 0.334806 0.000000
0.903360 0.346904 0.000000
0.939443 0.360964 0.000000
0.140292 0.336673 0.182210
0.161095 0.336110 0.186544
0.189769 0.332166 0.192763
0.224606 0.325299 0.202524
0.257157 0.315721 0.215238
0.272612 0.316725 0.213203
0.293372 0.325594 0.197173
0.335342 0.335794 0.177818
0.412232 0.355308 0.151790
0.538380 0.384848 0.082925
0.654373 0.403263 0.007806
0.745068 0.412201 0.000822
0.805594 0.406959 0.000000
0.854099 0.413112 0.000000
0.893526 0.418624 0.000000
0.927988 0.425666 0.000000
0.186934 0.401165 0.221862
0.203531 0.399333 0.224967
0.230827 0.396233 0.230919
0.265696 0.390836 0.240527
0.302557 0.383680 0.254392
0.334316 0.376001 0.270257
0.348344 0.386370 0.259159
0.376898 0.398024 0.242954
0.424224 0.410563 0.223710
0.498723 0.431031 0.202352
0.616979 0.467629 0.134168
0.715875 0.490581 0.026300
0.792673 0.500043 0.005821
0.849895 0.499419 0.000774
0.893386 0.498357 0.000021
0.927695 0.502482 0.000002
0.252457 0.473062 0.272850
0.266313 0.471093 0.275531
0.289598 0.468150 0.280907
0.321790 0.463972 0.290135
0.358776 0.458240 0.303627
0.394157 0.451166 0.320394
0.417247 0.450347 0.328437
0.434765 0.461307 0.315226
0.466777 0.473425 0.298575
0.512929 0.485446 0.278777
0.577886 0.503847 0.259427
0.672159 0.535436 0.206402
0.753885 0.555320 0.129396
0.824129 0.566912 0.027269
0.878921 0.566609 0.008519
0.919208 0.558659 0.008402
0.335959 0.543171 0.336180
0.347375 0.542143 0.339139
0.365785 0.539682 0.343973
0.392721 0.536033 0.352095
0.425090 0.531053 0.364118
0.457907 0.524870 0.379825
0.487666 0.518482 0.398288
0.502197 0.523389 0.396012
0.520621 0.533545 0.382247
0.549509 0.543450 0.365141
0.588693 0.553645 0.346078
0.639043 0.566930 0.327676
0.713683 0.592887 0.288386
0.785496 0.612464 0.236306
0.846737 0.620816 0.191956
0.899559 0.618507 0.151428
0.425959 0.602081 0.407839
0.433622 0.601068 0.410130
0.446514 0.598835 0.413899
0.466307 0.595872 0.420815
0.491049 0.592097 0.430950
0.517798 0.587632 0.444696
0.543942 0.582968 0.461869
0.564222 0.579447 0.476807
0.573706 0.586903 0.467204
0.589368 0.594649 0.453384
0.613288 0.602470 0.437465
0.645514 0.610757 0.419975
0.683873 0.619298 0.401310
0.746202 0.643084 0.377969
0.807456 0.658663 0.337339
0.862552 0.666179 0.315555
0.490039 0.644179 0.468362
0.495623 0.643363 0.470045
0.507113 0.643209 0.475441
0.524027 0.642593 0.483696
0.545553 0.642125 0.495719
0.569056 0.641058 0.510325
0.593575 0.640391 0.528788
0.615227 0.639241 0.548306
0.629736 0.643181 0.558428
0.640628 0.652004 0.553221
0.657194 0.661675 0.547257
0.678898 0.670838 0.539110
0.706072 0.680089 0.530090
0.738006 0.689071 0.519931
0.782500 0.703282 0.503601
0.832116 0.712411 0.475265
0.574086 0.700053 0.561807
0.569926 0.694453 0.553749
0.573362 0.691550 0.552915
0.583640 0.690170 0.557666
0.598912 0.689830 0.567140
0.616097 0.689000 0.578578
0.634452 0.688277 0.592713
0.652303 0.687484 0.608866
0.668634 0.687499 0.626607
0.676443 0.692869 0.627018
0.686224 0.700573 0.623003
0.699791 0.707930 0.617300
0.718301 0.715911 0.611416
0.740128 0.722181 0.601407
0.764839 0.726698 0.588289
0.799620 0.736037 0.576599
0.627724 0.740969 0.632941
0.624419 0.736453 0.626150
0.626218 0.733831 0.624590
0.632968 0.732466 0.627529
0.643626 0.731960 0.634246
0.656424 0.731443 0.643134
0.670944 0.731266 0.654607
0.685301 0.730613 0.666964
0.699122 0.730206 0.680934
0.709830 0.730827 0.691822
0.716057 0.737029 0.689752
0.725103 0.743579 0.686665
0.738092 0.750891 0.683913
0.754380 0.757580 0.679364
0.773832 0.763302 0.672286
0.791898 0.763154 0.655203
0.672877 0.778929 0.698143
0.670093 0.775127 0.692479
0.671109 0.772875 0.690809
0.676020 0.771819 0.692948
0.684133 0.771543 0.698211
0.694229 0.771386 0.705216
0.706009 0.771504 0.714273
0.718414 0.771497 0.724390
0.731217 0.771824 0.736256
0.743564 0.772343 0.749058
0.751784 0.776266 0.755295
0.758797 0.782710 0.755050
0.769218 0.790150 0.755774
0.782426 0.797598 0.755998
0.799461 0.805821 0.757041
0.820053 0.814625 0.759575
0.033079 0.024607 0.059447
0.050021 0.025464 0.056873
0.076380 0.025248 0.052212
0.119248 0.022809 0.048102
0.168979 0.016340 0.038533
0.224122 0.013595 0.034552
0.292560 0.001508 0.028901
0.376183 0.000000 0.021108
0.468670 0.000000 0.014873
0.569685 0.000000 0.009000
0.664710 0.000000 0.002430
0.745672 0.000000 0.000000
0.811451 0.000000 0.000000
0.872288 0.000000 0.000000
0.920367 0.000000 0.000608
0.958680 0.000000 0.009215
0.036075 0.045015 0.064229
0.055140 0.047446 0.061938
0.080841 0.047557 0.058180
0.121840 0.045224 0.053384
0.168608 0.043777 0.046206
0.227062 0.037561 0.040100
0.297175 0.022314 0.032201
0.381718 0.000382 0.021589
0.476340 0.000001 0.012538
0.576546 0.000000 0.006239
0.669070 0.000000 0.000000
0.747608 0.000000 0.000000
0.811999 0.000000 0.000000
0.871594 0.000000 0.000000
0.919093 0.000000 0.000456
0.957829 0.000000 0.006926
0.036397 0.079111 0.071471
0.055960 0.079631 0.069266
0.083469 0.080977 0.066605
0.124768 0.079804 0.061067
0.173995 0.077799 0.053867
0.235510 0.072640 0.045026
0.306994 0.060969 0.034537
0.391666 0.034952 0.021532
0.488304 0.001782 0.007280
0.584910 0.000777 0.000779
0.672470 0.000009 0.000000
0.747881 0.000000 0.000000
0.811553 0.000000 0.000000
0.870021 0.000019 0.000000
0.917125 0.000252 0.000048
0.955748 0.001847 0.000722
0.032814 0.123695 0.081938
0.060831 0.121242 0.080794
0.094862 0.117643 0.084282
0.113806 0.116755 0.082313
0.172380 0.123910 0.065369
0.240394 0.117224 0.049831
0.313741 0.110859 0.037493
0.401331 0.098844 0.021549
0.494821 0.076970 0.004346
0.588822 0.037612 0.000397
0.673745 0.004172 0.000000
0.747560 0.003629 0.000000
0.811642 0.003186 0.000000
0.867598 0.004778 0.000000
0.912129 0.014739 0.000000
0.949460 0.083171 0.000000
0.052443 0.162788 0.096604
0.075271 0.162095 0.098632
0.107976 0.158991 0.104013
0.131331 0.151848 0.110758
0.149079 0.158001 0.100190
0.215786 0.173137 0.079472
0.314380 0.174264 0.048030
0.407293 0.162962 0.021883
0.501124 0.154393 0.001047
0.595398 0.144382 0.000358
0.679545 0.133149 0.000000
0.753981 0.129901 0.000000
0.816201 0.136639 0.000000
0.871215 0.156668 0.000000
0.915311 0.180629 0.000000
0.951283 0.205407 0.000000
0.068353 0.215869 0.121452
0.092423 0.216002 0.124995
0.125193 0.212910 0.130774
0.158444 0.204300 0.140174
0.173439 0.203778 0.138985
0.201536 0.213369 0.125801
0.275119 0.231378 0.101112
0.394017 0.243122 0.055119
0.508945 0.238513 0.004333
0.605035 0.229941 0.000280
0.686332 0.230549 0.000000
0.756638 0.233933 0.000000
0.814990 0.240797 0.000000
0.867172 0.255017 0.000000
0.909993 0.270883 0.000000
0.946280 0.288650 0.000000
0.093531 0.279012 0.153776
0.118353 0.280319 0.158621
0.150794 0.276885 0.163807
0.189501 0.268647 0.173612
0.218911 0.258982 0.185336
0.232079 0.266700 0.173355
0.267626 0.276332 0.156726
0.348289 0.296937 0.130384
0.473554 0.316739 0.072686
0.597659 0.324040 0.006094
0.685265 0.320402 0.000049
0.756004 0.322628 0.000000
0.811308 0.328292 0.000000
0.861301 0.339204 0.000000
0.903053 0.350856 0.000000
0.939470 0.364216 0.000000
0.131302 0.344440 0.190185
0.155968 0.346358 0.195675
0.185062 0.342830 0.199952
0.225456 0.335877 0.209759
0.262294 0.326171 0.222400
0.282894 0.323301 0.225765
0.301808 0.331757 0.210412
0.342698 0.341733 0.191333
0.421095 0.361694 0.165584
0.545498 0.389158 0.101573
0.658866 0.405527 0.010001
0.745391 0.412750 0.003312
0.805246 0.410304 0.000000
0.853886 0.415654 0.000000
0.893124 0.420484 0.000000
0.927786 0.426790 0.000000
0.183364 0.409319 0.230744
0.197745 0.408423 0.232340
0.227048 0.405166 0.237678
0.265722 0.399952 0.247395
0.306098 0.392808 0.261027
0.341211 0.384679 0.277546
0.357492 0.391805 0.271444
0.384290 0.403354 0.255787
0.430475 0.415772 0.236750
0.505883 0.436767 0.215483
0.621519 0.471353 0.154292
0.718620 0.492646 0.065371
0.793627 0.501125 0.006982
0.849958 0.501171 0.001201
0.893705 0.499809 0.000032
0.928239 0.503815 0.000030
0.250751 0.480308 0.281385
0.262175 0.478778 0.282485
0.287218 0.475927 0.287658
0.322409 0.471760 0.297009
0.361578 0.466335 0.310411
0.399272 0.458901 0.327140
0.425980 0.455491 0.339536
0.442259 0.466144 0.327048
0.472915 0.477952 0.310822
0.517652 0.489672 0.291471
0.581389 0.507428 0.272860
0.675130 0.538326 0.221964
0.755696 0.557109 0.150003
0.824605 0.567852 0.034853
0.879329 0.567566 0.009000
0.919772 0.559502 0.012602
0.333124 0.548499 0.342493
0.345247 0.547519 0.345464
0.364832 0.545274 0.350272
0.393487 0.541722 0.358604
0.426874 0.536764 0.370339
0.461210 0.530659 0.385837
0.492070 0.524395 0.404397
0.508741 0.527060 0.406480
0.525717 0.536888 0.392943
0.553159 0.546418 0.376092
0.591255 0.556311 0.357307
0.640955 0.569449 0.339434
0.715316 0.595020 0.300756
0.786646 0.613878 0.249525
0.847389 0.621464 0.193715
0.900281 0.619012 0.153577
0.424287 0.605850 0.413151
0.432361 0.604831 0.415390
0.445586 0.602677 0.418967
0.466243 0.599790 0.425886
0.492034 0.596277 0.436296
0.519572 0.591920 0.449809
0.546421 0.587194 0.466819
0.568675 0.582300 0.484410
0.577408 0.589287 0.475297
0.592300 0.596909 0.461901
0.615339 0.604479 0.446104
0.646483 0.612261 0.428397
0.684780 0.621089 0.410945
0.747232 0.644628 0.386988
0.808174 0.659456 0.343948
0.863361 0.666242 0.315421
0.489687 0.647799 0.473558
0.495418 0.646892 0.475192
0.506900 0.646543 0.480175
0.524024 0.645910 0.488226
0.546082 0.645402 0.500179
0.569933 0.644276 0.514507
0.594793 0.643443 0.532647
0.616859 0.642223 0.552018
0.632544 0.645214 0.564644
0.642960 0.653927 0.559735
0.659025 0.663482 0.554025
0.680210 0.672587 0.546076
0.706998 0.681771 0.537269
0.738641 0.690565 0.527116
0.783306 0.704687 0.510064
0.833211 0.713096 0.476454
0.573010 0.702200 0.564708
0.569115 0.696858 0.557162
0.572981 0.694126 0.556502
0.583511 0.692721 0.561230
0.599038 0.692265 0.570513
0.616423 0.691404 0.581750
0.635061 0.690635 0.595764
0.653232 0.689887 0.611805
0.669826 0.689798 0.629378
0.678297 0.694376 0.631830
0.687642 0.701988 0.627869
0.700891 0.709214 0.621988
0.719154 0.717130 0.616162
0.740706 0.723285 0.606164
0.765290 0.727781 0.593239
0.800615 0.737096 0.579617
0.626432 0.742579 0.634652
0.623301 0.738150 0.628119
0.625279 0.735618 0.626681
0.632276 0.734278 0.629707
0.643160 0.733776 0.636463
0.656229 0.733259 0.645291
0.671077 0.733100 0.656723
0.685636 0.732383 0.668970
0.699643 0.731812 0.682734
0.711076 0.731853 0.694892
0.717201 0.738044 0.692985
0.726065 0.744564 0.689899
0.738889 0.751813 0.687163
0.755013 0.758508 0.682634
0.774385 0.764161 0.675564
0.792457 0.764125 0.658838
0.671746 0.780215 0.699248
0.668968 0.776467 0.693671
0.670129 0.774261 0.692101
0.675273 0.773251 0.694395
0.683627 0.773041 0.699723
0.693903 0.772854 0.706723
0.705853 0.772910 0.715615
0.718445 0.772841 0.725674
0.731461 0.773139 0.737441
0.743992 0.773625 0.750243
0.752821 0.777055 0.757494
0.759676 0.783465 0.757219
0.769919 0.790845 0.757762
0.782952 0.798225 0.757920
0.799907 0.806392 0.758843
0.820523 0.815047 0.760400
0.031487 0.029115 0.090829
0.046571 0.030224 0.088773
0.072785 0.030763 0.084663
0.107790 0.030831 0.079442
0.156167 0.027994 0.076993
0.218197 0.015646 0.067744
0.291723 0.000353 0.056233
0.374891 0.000000 0.048357
0.468528 0.000000 0.035195
0.569671 0.000000 0.018338
0.664846 0.000000 0.001072
0.745147 0.000000 0.000348
0.811295 0.000000 0.000000
0.872101 0.000000 0.000000
0.920020 0.000000 0.000513
0.958495 0.000000 0.007795
0.038595 0.049835 0.095674
0.055256 0.051271 0.092407
0.079121 0.052459 0.089150
0.112295 0.052571 0.085185
0.159446 0.050168 0.081888
0.223855 0.038283 0.072588
0.296166 0.025968 0.063542
0.379388 0.000529 0.052577
0.475402 0.000050 0.039007
0.576063 0.000000 0.019152
0.668864 0.000000 0.001188
0.746999 0.000000 0.000402
0.812022 0.000000 0.000000
0.871316 0.000000 0.000000
0.918686 0.000000 0.000275
0.957614 0.000000 0.004179
0.041406 0.078431 0.099382
0.058427 0.079762 0.096985
0.084074 0.083370 0.096183
0.118477 0.085735 0.094448
0.168344 0.083706 0.089930
0.232477 0.080551 0.081343
0.304501 0.069693 0.071206
0.389844 0.047670 0.059197
0.485713 0.006149 0.042128
0.583269 0.001187 0.019606
0.671814 0.000391 0.001448
0.747110 0.000014 0.000490
0.811411 0.000044 0.000000
0.869724 0.000408 0.000000
0.916750 0.001439 0.000000
0.955510 0.002608 0.000000
0.032220 0.121651 0.109802
0.052847 0.121869 0.107898
0.082453 0.123835 0.106151
0.122434 0.128326 0.105165
0.174304 0.126536 0.097732
0.238113 0.123690 0.087993
0.312045 0.117726 0.076916
0.398901 0.106421 0.063309
0.492088 0.085779 0.044638
0.586521 0.055610 0.019574
0.672712 0.021464 0.001774
0.747510 0.005645 0.000566
0.811664 0.007535 0.000000
0.867396 0.023675 0.000000
0.911861 0.067380 0.000000
0.949223 0.109942 0.000000
0.006023 0.172289 0.120191
0.032154 0.173165 0.119667
0.081762 0.172051 0.118750
0.134014 0.169590 0.124243
0.159298 0.169205 0.121979
0.232357 0.179358 0.102698
0.317691 0.171785 0.081542
0.406235 0.167098 0.066500
0.499141 0.158307 0.045876
0.592949 0.149073 0.018042
0.678331 0.143984 0.001839
0.754373 0.150841 0.000531
0.816355 0.158568 0.000000
0.871062 0.175971 0.000000
0.915121 0.195960 0.000000
0.951323 0.217084 0.000000
0.018253 0.226687 0.138392
0.053896 0.227184 0.139772
0.100801 0.226617 0.142463
0.154433 0.223449 0.151426
0.187027 0.215389 0.159537
0.213180 0.224264 0.147293
0.292431 0.240803 0.123131
0.410203 0.245851 0.086060
0.511712 0.234999 0.047954
0.603541 0.232030 0.014868
0.685081 0.233144 0.001921
0.756598 0.241953 0.000490
0.815047 0.252240 0.000000
0.867116 0.265510 0.000000
0.909964 0.279813 0.000000
0.946504 0.296017 0.000000
0.048894 0.288488 0.166477
0.082262 0.289958 0.169284
0.129313 0.289869 0.174205
0.183420 0.286446 0.184146
0.227022 0.275916 0.196651
0.246057 0.276865 0.194347
0.279709 0.286573 0.178180
0.363740 0.306901 0.151906
0.487487 0.321856 0.102625
0.603099 0.323407 0.035231
0.686877 0.317657 0.004204
0.755284 0.324943 0.000542
0.811456 0.334618 0.000000
0.861424 0.345535 0.000000
0.903178 0.356264 0.000000
0.939741 0.368623 0.000000
0.094812 0.353184 0.200132
0.125681 0.355361 0.204477
0.168782 0.355770 0.210896
0.219467 0.351696 0.220011
0.266667 0.341698 0.232839
0.298216 0.332821 0.244557
0.314356 0.340817 0.230414
0.353802 0.350769 0.212128
