example_ofxGpuLutCube/bin/data/ofxGpuLutCube/LUT/U38 (teal sunset fade_4).cube
LUT_3D_SIZE 6
0.026215 0.016907 0.015930
0.124381 0.015436 0.019941
0.292226 0.000000 0.022112
0.572951 0.000000 0.013095
0.817579 0.000000 0.000000
0.961871 0.000000 0.014563
0.059926 0.101070 0.055383
0.098112 0.098002 0.051630
0.307671 0.095751 0.011024
0.581954 0.003581 0.000000
0.809428 0.001924 0.000000
0.951201 0.038128 0.000000
0.111514 0.263313 0.140310
0.186028 0.251875 0.162550
0.260026 0.270034 0.136299
0.595140 0.325867 0.003728
0.816303 0.325563 0.000000
0.941751 0.363030 0.000000
0.253571 0.468180 0.268466
0.320887 0.459416 0.286253
0.414204 0.449102 0.323589
0.514025 0.486417 0.274556
0.754728 0.556649 0.120733
0.919002 0.558362 0.007550
0.486757 0.640178 0.462277
0.522172 0.639659 0.479383
0.592499 0.638374 0.526192
0.639933 0.651594 0.550534
0.706205 0.680022 0.527513
0.831321 0.711665 0.473533
0.672934 0.777766 0.696670
0.675515 0.770362 0.690923
0.705359 0.770083 0.712385
0.743128 0.771538 0.748213
0.769450 0.790381 0.755590
0.820408 0.815036 0.760233
0.031487 0.029115 0.090829
0.107790 0.030831 0.079442
0.291723 0.000353 0.056233
0.569671 0.000000 0.018338
0.811295 0.000000 0.000000
0.958495 0.000000 0.007795
0.032220 0.121651 0.109802
0.122434 0.128326 0.105165
0.312045 0.117726 0.076916
0.586521 0.055610 0.019574
0.811664 0.007535 0.000000
0.949223 0.109942 0.000000
0.048894 0.288488 0.166477
0.183420 0.286446 0.184146
0.279709 0.286573 0.178180
0.603099 0.323407 0.035231
0.811456 0.334618 0.000000
0.939741 0.368623 0.000000
0.234706 0.487112 0.289799
0.318719 0.483596 0.307113
0.439057 0.463333 0.356173
0.524939 0.496054 0.311292
0.759105 0.559986 0.182866
0.920745 0.560655 0.019897
0.490534 0.652209 0.482714
0.521866 0.650157 0.493759
0.595998 0.648030 0.538182
0.646471 0.656731 0.569720
0.708224 0.684112 0.547955
0.834849 0.714226 0.479341
0.669391 0.782111 0.700630
0.673513 0.775381 0.696239
0.705118 0.774882 0.717279
0.744561 0.775564 0.751889
0.771052 0.791947 0.761054
0.821277 0.816049 0.763299
0.001998 0.047201 0.204318
0.091333 0.053616 0.203451
0.255194 0.049146 0.200785
0.546426 0.000000 0.192879
0.814309 0.000000 0.135518
0.962448 0.000000 0.007378
0.019849 0.122911 0.220048
0.112481 0.134203 0.223921
0.286321 0.143671 0.228828
0.569682 0.064479 0.206071
0.811480 0.046179 0.151784
0.952858 0.140460 0.002674
0.000000 0.289211 0.267280
0.080668 0.302179 0.272010
0.333485 0.332466 0.281992
0.602522 0.328505 0.244479
0.806701 0.344640 0.187741
0.943614 0.374872 0.052829
0.014715 0.516697 0.355334
0.197952 0.518727 0.361349
0.452371 0.518334 0.401859
0.556815 0.526234 0.405023
0.777279 0.569427 0.309699
0.922205 0.564234 0.194634
0.418939 0.667466 0.499122
0.476723 0.668303 0.514119
0.589386 0.671307 0.562789
0.662496 0.669600 0.614734
0.713699 0.694871 0.596288
0.843529 0.721477 0.528352
0.641308 0.790049 0.699880
0.652419 0.784700 0.699262
0.695148 0.785134 0.723206
0.744827 0.785545 0.758865
0.776310 0.796979 0.776895
0.825332 0.821025 0.777699
0.000000 0.074365 0.356282
0.018635 0.079122 0.361988
0.254740 0.085230 0.386015
0.508571 0.019521 0.394304
0.772862 0.000000 0.407044
0.949983 0.000016 0.349895
0.000000 0.142476 0.379311
0.055891 0.146838 0.380787
0.280063 0.162576 0.403664
0.531097 0.153204 0.415085
0.775195 0.118824 0.417091
0.941724 0.146412 0.347547
0.000000 0.262425 0.386758
0.033165 0.272019 0.393285
0.309840 0.318547 0.432273
0.566891 0.356879 0.460989
0.778482 0.364590 0.446929
0.926032 0.415918 0.399903
0.000000 0.493253 0.475171
0.012094 0.501310 0.480158
0.343405 0.524011 0.495281
0.591746 0.564406 0.525115
0.772464 0.574033 0.500648
0.912920 0.572738 0.440908
0.135184 0.692833 0.580800
0.280055 0.693100 0.582667
0.479737 0.694880 0.594611
0.659190 0.699347 0.647401
0.721803 0.710148 0.659143
0.866212 0.727049 0.591169
0.531960 0.805592 0.700827
0.547486 0.800530 0.695118
0.634282 0.800522 0.720260
0.731059 0.803501 0.767004
0.786535 0.805200 0.803017
0.832882 0.830105 0.802106
0.000000 0.111908 0.574544
0.000245 0.114150 0.580003
0.268317 0.114102 0.597646
0.558124 0.117898 0.633212
0.761389 0.118254 0.636027
0.896454 0.231357 0.622569
0.000000 0.168395 0.584417
0.001533 0.171263 0.587037
0.287754 0.181884 0.605468
0.565398 0.211977 0.638449
0.758288 0.230753 0.640340
0.886326 0.292376 0.619241
0.000000 0.268987 0.577648
0.000042 0.278535 0.588233
0.293264 0.315937 0.611399
0.565869 0.372685 0.645143
0.748932 0.420190 0.658430
0.875918 0.457190 0.644018
0.000000 0.458273 0.608616
0.000000 0.459666 0.609841
0.208124 0.462367 0.612177
0.546534 0.531726 0.654373
0.734407 0.597251 0.690482
0.868083 0.610806 0.680033
0.018423 0.664553 0.681833
0.178045 0.667290 0.684194
0.384805 0.676589 0.692388
0.570862 0.695415 0.707527
0.733968 0.731755 0.739265
0.871573 0.733102 0.719362
0.362104 0.825518 0.780144
0.379718 0.822875 0.774635
0.472800 0.827010 0.776834
0.624730 0.826919 0.781373
0.781488 0.828686 0.821190
0.847002 0.846069 0.840167
0.057193 0.216896 0.809287
0.211247 0.219478 0.810465
0.414568 0.230090 0.814267
0.613334 0.276034 0.822437
0.769054 0.395429 0.834255
0.892566 0.425198 0.830556
0.068432 0.264552 0.810577
0.215765 0.268387 0.811076
0.413273 0.279622 0.813072
0.605465 0.319491 0.817980
0.758349 0.416888 0.826176
0.881158 0.430109 0.819166
0.000000 0.353657 0.810459
0.151103 0.368656 0.812125
0.396838 0.390037 0.815279
0.595332 0.436835 0.820887
0.746876 0.518100 0.829784
0.870444 0.536950 0.827972
0.000000 0.480987 0.812237
0.000000 0.479292 0.813716
0.163372 0.479026 0.818293
0.553860 0.549073 0.824408
0.729610 0.619196 0.836573
0.859346 0.649265 0.841213
0.000000 0.685127 0.846547
0.115956 0.683536 0.846078
0.303816 0.679174 0.845147
0.472908 0.668552 0.841541
0.698327 0.709920 0.850229
0.860111 0.760118 0.865947
0.430766 0.840991 0.874281
0.442893 0.839813 0.872606
0.497554 0.841844 0.873572
0.584936 0.846408 0.876036
0.705130 0.856410 0.883092
0.881250 0.882941 0.906820
