example_ofxGpuLutCube/bin/data/ofxGpuLutCube/LUT/U38 (teal sunset fade_3).cube
LUT_3D_SIZE 6
0.026856 0.035828 0.027832
0.124125 0.039001 0.035925
0.275406 0.010903 0.041368
0.545807 0.000000 0.043647
0.802148 0.000000 0.048105
0.962595 0.000000 0.093381
0.061202 0.119319 0.083274
0.096505 0.117361 0.071642
0.298116 0.112102 0.044205
0.562250 0.011710 0.041833
0.795288 0.001333 0.043981
0.951430 0.000000 0.092497
0.133643 0.258619 0.181891
0.189849 0.252835 0.205128
0.250554 0.261999 0.152007
0.596884 0.305800 0.030127
0.817085 0.307217 0.026845
0.948144 0.342884 0.128996
0.285907 0.450962 0.319750
0.337349 0.446554 0.338911
0.397315 0.447482 0.351668
0.482459 0.456924 0.263286
0.757580 0.532028 0.172185
0.928455 0.549830 0.244079
0.505342 0.629268 0.512256
0.535484 0.631140 0.529964
0.597143 0.636665 0.577807
0.624392 0.647513 0.558318
0.691775 0.655399 0.479731
0.848791 0.693052 0.463437
0.695804 0.775727 0.728748
0.697651 0.769273 0.725203
0.725959 0.771751 0.746608
0.756380 0.778400 0.771998
0.775900 0.791049 0.754398
0.831917 0.807919 0.731038
0.016523 0.062246 0.123890
0.104128 0.066280 0.108465
0.278926 0.036999 0.080255
0.546782 0.000000 0.060962
0.796618 0.000000 0.046435
0.958487 0.000000 0.093854
0.018381 0.145938 0.141794
0.116929 0.150596 0.138255
0.303740 0.137981 0.112875
0.570696 0.083333 0.077648
0.800524 0.006442 0.041802
0.949047 0.056665 0.094177
0.079346 0.287752 0.205042
0.192943 0.287570 0.228247
0.270085 0.283195 0.200809
0.600037 0.310993 0.128247
0.809968 0.321302 0.047786
0.944916 0.352990 0.129077
0.272115 0.476511 0.340559
0.339501 0.472565 0.359436
0.426566 0.466958 0.394600
0.496117 0.472236 0.306084
0.761581 0.539287 0.234580
0.929632 0.554612 0.251256
0.505815 0.642082 0.527321
0.535862 0.641959 0.541885
0.601616 0.646506 0.587971
0.633037 0.655216 0.582750
0.694834 0.661773 0.507411
0.851576 0.696704 0.474371
0.692781 0.779706 0.731300
0.696227 0.773970 0.728898
0.726336 0.776220 0.750066
0.761318 0.781852 0.780224
0.777851 0.793238 0.761328
0.832758 0.809105 0.734136
0.000000 0.091298 0.241456
0.059518 0.098763 0.238471
0.236580 0.104509 0.237632
0.525534 0.003611 0.232190
0.799445 0.000000 0.178817
0.961279 0.000000 0.121628
0.000000 0.156825 0.256536
0.083213 0.166497 0.261941
0.270178 0.176939 0.269768
0.555290 0.102181 0.246855
0.798384 0.084977 0.203251
0.951350 0.141488 0.128532
0.000000 0.301410 0.306533
0.068704 0.315183 0.314388
0.328244 0.347158 0.331820
0.593198 0.341531 0.302439
0.798951 0.353299 0.264657
0.945500 0.376268 0.200113
0.047804 0.503974 0.389156
0.226324 0.510648 0.400336
0.456371 0.520749 0.455440
0.536273 0.518616 0.421800
0.777875 0.564259 0.385519
0.925302 0.569509 0.353077
0.440662 0.658189 0.535297
0.493265 0.661803 0.553708
0.597614 0.669186 0.606453
0.656091 0.674942 0.641028
0.703146 0.678795 0.573858
0.858243 0.709556 0.546522
0.666773 0.788133 0.727997
0.678804 0.783691 0.730712
0.717798 0.785243 0.752771
0.765216 0.790612 0.788161
0.784456 0.800128 0.781245
0.836494 0.815105 0.752795
0.000000 0.128607 0.392987
0.000000 0.134897 0.398516
0.212636 0.149211 0.423211
0.480078 0.137430 0.440915
0.742360 0.064368 0.455903
0.947051 0.000030 0.404180
0.000000 0.182168 0.415130
0.001309 0.191783 0.420822
0.243443 0.209746 0.443568
0.504953 0.217418 0.462971
0.748900 0.192718 0.467534
0.938041 0.168990 0.401959
0.000000 0.296839 0.434088
0.002625 0.306932 0.441997
0.287674 0.349930 0.477191
0.544814 0.393334 0.509575
0.763934 0.390248 0.499944
0.920619 0.439306 0.465306
0.000000 0.502993 0.511453
0.045398 0.512253 0.518184
0.346412 0.537248 0.537505
0.583554 0.580837 0.574275
0.765192 0.591084 0.563830
0.909098 0.593111 0.532945
0.187658 0.677710 0.593437
0.299628 0.680174 0.598168
0.485004 0.688627 0.618741
0.665480 0.704289 0.684118
0.716061 0.704241 0.661155
0.875917 0.728360 0.644593
0.560094 0.799302 0.717078
0.574892 0.794881 0.713632
0.658468 0.798455 0.742302
0.754227 0.805960 0.791532
0.798328 0.812418 0.814555
0.843523 0.826025 0.784111
0.000000 0.185590 0.599772
0.000000 0.191125 0.605237
0.190742 0.204957 0.622601
0.510687 0.239207 0.657844
0.726665 0.275624 0.671013
0.870087 0.339176 0.663257
0.000000 0.224005 0.609384
0.000000 0.238079 0.613567
0.222244 0.257511 0.631634
0.521047 0.302094 0.663052
0.723502 0.341591 0.674077
0.860458 0.380468 0.660703
0.000000 0.317647 0.602043
0.000000 0.327130 0.611582
0.246664 0.370991 0.639076
0.530933 0.431076 0.670683
0.720200 0.485374 0.691259
0.855276 0.508939 0.685945
0.000000 0.495684 0.641878
0.000000 0.498749 0.644449
0.220996 0.506071 0.650188
0.534412 0.565888 0.684949
0.722941 0.627911 0.722813
0.865563 0.634373 0.719981
0.154122 0.671551 0.701055
0.247109 0.674804 0.703963
0.407179 0.685664 0.713894
0.578913 0.707048 0.732630
0.742964 0.745950 0.768815
0.876513 0.750984 0.762879
0.383365 0.820607 0.783078
0.396206 0.817673 0.777696
0.489415 0.821238 0.780210
0.643358 0.824972 0.791009
0.803036 0.834449 0.839486
0.857187 0.845618 0.832473
0.000000 0.343197 0.814940
0.104262 0.350116 0.816179
0.366758 0.372511 0.819922
0.573005 0.428770 0.827997
0.735321 0.522374 0.840456
0.859228 0.557721 0.843298
0.000000 0.370484 0.816447
0.130434 0.387316 0.816549
0.370333 0.407024 0.818636
0.568413 0.454654 0.824367
0.726759 0.531148 0.833907
0.849637 0.555858 0.834197
0.000000 0.427634 0.815605
0.003578 0.439505 0.817818
0.371703 0.488463 0.821158
0.570659 0.532496 0.828020
0.726467 0.595820 0.838708
0.848429 0.622184 0.843112
0.000000 0.552647 0.825832
0.000000 0.547634 0.825198
0.136976 0.540679 0.825814
0.546163 0.608100 0.833302
0.723667 0.666596 0.847107
0.850711 0.699802 0.856599
0.255257 0.716771 0.857453
0.294287 0.715824 0.857297
0.388699 0.713694 0.857212
0.513897 0.708212 0.855932
0.709204 0.739012 0.862268
0.864466 0.787673 0.879885
0.505827 0.854862 0.884848
0.513522 0.853654 0.883447
0.554619 0.855594 0.884479
0.626342 0.859781 0.887132
0.733860 0.868774 0.894087
0.893808 0.892274 0.915657
