example_ofxGpuLutCube/bin/data/ofxGpuLutCube/LUT/U39 (teal sunset fade_5).cube
LUT_3D_SIZE 16
0.008484 0.046235 0.059998
0.030570 0.047216 0.062269
0.077897 0.047601 0.066003
0.136901 0.042828 0.068695
0.204383 0.028408 0.070384
0.289403 0.000000 0.071333
0.378353 0.000000 0.071425
0.481775 0.000000 0.070156
0.578878 0.000000 0.068334
0.667957 0.000000 0.065729
0.744694 0.000000 0.063679
0.812885 0.000000 0.063057
0.873098 0.000000 0.064614
0.935111 0.000000 0.070520
0.988990 0.000000 0.082197
0.999902 0.000000 0.099636
0.007421 0.073163 0.074270
0.030208 0.071888 0.068450
0.084739 0.070939 0.066815
0.147175 0.065470 0.068520
0.217568 0.052937 0.069429
0.301865 0.025180 0.069746
0.398570 0.000498 0.069107
0.500343 0.000000 0.067173
0.592478 0.000000 0.064607
0.678820 0.000000 0.061681
0.752128 0.000000 0.059757
0.817765 0.000000 0.058706
0.875433 0.000000 0.060669
0.936354 0.000000 0.067203
0.989516 0.000000 0.079621
0.999908 0.000000 0.098944
0.000000 0.112497 0.086878
0.033620 0.101864 0.085955
0.074210 0.106990 0.073309
0.153102 0.112768 0.064024
0.241500 0.101034 0.064588
0.336646 0.083799 0.063466
0.433167 0.048158 0.061443
0.528384 0.002608 0.058214
0.615474 0.001767 0.054739
0.697323 0.000711 0.051416
0.765257 0.000000 0.049298
0.826609 0.000000 0.048872
0.880995 0.000000 0.051786
0.940550 0.000000 0.059905
0.992038 0.000000 0.074691
0.999935 0.000000 0.096900
0.000000 0.170632 0.101722
0.018775 0.159639 0.101520
0.083568 0.149685 0.099170
0.144985 0.167362 0.076029
0.252147 0.186751 0.045856
0.365367 0.177436 0.039775
0.470027 0.155035 0.038140
0.561406 0.128982 0.033902
0.645440 0.092531 0.029471
0.718040 0.041822 0.026640
0.778840 0.005205 0.026224
0.835324 0.004581 0.028141
0.887299 0.002999 0.032936
0.942132 0.003498 0.044641
0.988724 0.002482 0.062598
0.999898 0.000000 0.087381
0.000000 0.245924 0.121516
0.001038 0.240098 0.122370
0.094609 0.231718 0.123806
0.165126 0.233040 0.112739
0.250278 0.260948 0.070936
0.386756 0.298613 0.002780
0.505783 0.289634 0.000000
0.615945 0.268771 0.000000
0.697107 0.243926 0.000000
0.761182 0.221724 0.000000
0.815580 0.199461 0.000000
0.867679 0.181031 0.000000
0.916993 0.168727 0.001383
0.967453 0.168999 0.022315
1.000000 0.177466 0.055766
1.000020 0.189425 0.089906
0.000000 0.339052 0.150221
0.000951 0.337344 0.151994
0.089045 0.329953 0.153604
0.194911 0.315024 0.154165
0.263715 0.328211 0.126467
0.363111 0.363495 0.059789
0.502795 0.409457 0.002597
0.616373 0.402777 0.000000
0.708420 0.382246 0.000000
0.786117 0.356581 0.000000
0.836876 0.333984 0.000000
0.885848 0.317869 0.000000
0.931134 0.306348 0.000000
0.976297 0.304527 0.003084
1.000000 0.306751 0.036469
1.000020 0.311792 0.088553
0.000000 0.435170 0.188167
0.000965 0.434460 0.190311
0.091496 0.428129 0.191606
0.214689 0.415307 0.192508
0.301349 0.399945 0.190830
0.372450 0.429731 0.144844
0.473741 0.465920 0.055843
0.598530 0.506593 0.004528
0.695520 0.501653 0.000000
0.773987 0.481950 0.000000
0.841741 0.458816 0.000000
0.900130 0.440009 0.000000
0.942728 0.425752 0.000000
0.983283 0.419911 0.001906
1.000000 0.417135 0.025188
1.000020 0.417572 0.096548
0.000000 0.517929 0.233881
0.005940 0.519186 0.237068
0.133518 0.516187 0.239347
0.243792 0.507296 0.240294
0.331311 0.493322 0.240030
0.399678 0.489267 0.225839
0.467829 0.515131 0.173781
0.556961 0.544525 0.082260
0.659186 0.574991 0.008797
0.753498 0.583396 0.000000
0.825203 0.568025 0.000000
0.889471 0.550898 0.000000
0.944470 0.533996 0.000000
0.985088 0.522982 0.002666
1.000000 0.514513 0.032831
1.000020 0.511458 0.116967
0.013896 0.575858 0.277814
0.075641 0.574023 0.278422
0.179821 0.572013 0.280483
0.267451 0.566502 0.281942
0.348135 0.557947 0.283752
0.421108 0.546935 0.283987
0.480909 0.558239 0.264668
0.548517 0.587059 0.217640
0.631105 0.617717 0.136656
0.722056 0.647117 0.014916
0.813552 0.667430 0.003819
0.880822 0.657563 0.000000
0.935612 0.642214 0.000000
0.982699 0.630075 0.010550
1.000000 0.618794 0.115960
1.000020 0.608645 0.177985
0.183578 0.640835 0.338778
0.213467 0.638198 0.338063
0.261777 0.635190 0.338395
0.321224 0.630205 0.338767
0.385190 0.623360 0.339731
0.448840 0.614416 0.340946
0.508601 0.605806 0.341346
0.559555 0.627459 0.316413
0.621897 0.655107 0.274510
0.695054 0.682833 0.203635
0.776220 0.710753 0.071962
0.859124 0.734313 0.012423
0.916736 0.723811 0.000000
0.965505 0.712602 0.011278
0.999442 0.700993 0.126566
1.000020 0.689221 0.233222
0.297221 0.698779 0.401809
0.313731 0.696974 0.401212
0.342813 0.694241 0.400857
0.383400 0.690245 0.400994
0.432109 0.684934 0.401530
0.483708 0.678035 0.402134
0.535791 0.670076 0.403064
0.583432 0.668439 0.398387
0.629908 0.691575 0.373570
0.686149 0.716300 0.335597
0.751403 0.741123 0.276437
0.821287 0.764252 0.173205
0.897040 0.790157 0.014952
0.948334 0.781742 0.019212
0.986274 0.769457 0.141464
0.999881 0.756437 0.249878
0.381425 0.752238 0.462558
0.392321 0.750755 0.461956
0.412132 0.748838 0.461887
0.441830 0.745536 0.461701
0.479054 0.741049 0.461502
0.520961 0.735435 0.461699
0.565333 0.728744 0.462370
0.609167 0.721755 0.462561
0.649451 0.728664 0.454379
0.692470 0.749976 0.431613
0.743448 0.771646 0.397985
0.801121 0.792473 0.347998
0.860819 0.810309 0.264130
0.929077 0.833825 0.128436
0.970727 0.826306 0.178175
0.999708 0.813935 0.282372
0.438093 0.793271 0.509815
0.446413 0.792504 0.509636
0.464102 0.792249 0.511396
0.489919 0.791468 0.513688
0.523233 0.790389 0.517032
0.560472 0.788147 0.520110
0.601299 0.785534 0.524247
0.642430 0.781789 0.527975
0.683303 0.779237 0.532449
0.720039 0.793683 0.524690
0.761399 0.813675 0.509561
0.806924 0.831819 0.485691
0.855708 0.848180 0.449793
0.906213 0.861729 0.388270
0.959116 0.874877 0.300428
0.987860 0.865132 0.341277
0.532196 0.849361 0.590774
0.528071 0.844169 0.582073
0.535458 0.841242 0.578640
0.552549 0.839515 0.578677
0.578185 0.838472 0.581343
0.607981 0.836719 0.584005
0.641450 0.834758 0.587638
0.676597 0.832267 0.591489
0.712704 0.829938 0.596589
0.746251 0.829128 0.598742
0.777408 0.843853 0.590320
0.811373 0.857740 0.575318
0.848908 0.870668 0.553590
0.888037 0.880943 0.516643
0.928098 0.888283 0.459208
0.970452 0.897486 0.415757
0.609802 0.887660 0.660435
0.604744 0.884045 0.652337
0.608100 0.881572 0.648208
0.619578 0.879992 0.647428
0.638112 0.878876 0.649032
0.660962 0.877529 0.651563
0.687755 0.876224 0.655206
0.715942 0.874350 0.658824
0.745473 0.872431 0.663432
0.774309 0.870129 0.667345
0.800770 0.873214 0.667676
0.825481 0.883494 0.658930
0.852988 0.893300 0.646404
0.882440 0.901601 0.625211
0.913914 0.908254 0.591803
0.943913 0.910703 0.545776
0.690136 0.916968 0.733489
0.684949 0.914634 0.726398
0.686041 0.913068 0.722822
0.693528 0.912024 0.722209
0.706223 0.911228 0.723675
0.722405 0.910338 0.726026
0.741924 0.909479 0.729598
0.763042 0.908433 0.733558
0.786127 0.907507 0.738982
0.809605 0.906543 0.744826
0.833125 0.905787 0.751715
0.851605 0.910701 0.750989
0.870302 0.918047 0.746214
0.890363 0.924517 0.736190
0.912709 0.930491 0.720575
0.935452 0.935568 0.715315
0.012377 0.051555 0.086195
0.030099 0.053101 0.081986
0.083045 0.049032 0.079478
0.146587 0.046541 0.072315
0.219590 0.040579 0.070467
0.304712 0.014991 0.070338
0.399104 0.000000 0.069681
0.498677 0.000000 0.067478
0.590443 0.000000 0.065020
0.676761 0.000000 0.062293
0.750570 0.000000 0.060241
0.815281 0.000000 0.059817
0.872622 0.000000 0.061228
0.932848 0.000000 0.067815
0.985548 0.000000 0.079281
0.999866 0.000000 0.097008
0.000000 0.077564 0.102632
0.033258 0.076369 0.096079
0.089089 0.073683 0.087607
0.155877 0.070858 0.080041
0.233211 0.064454 0.072028
0.322849 0.043329 0.068160
0.420002 0.000932 0.066470
0.517042 0.000208 0.063521
0.606243 0.000000 0.060657
0.690493 0.000000 0.057172
0.760262 0.000000 0.055625
0.822269 0.000000 0.054886
0.876843 0.000000 0.057537
0.935475 0.000000 0.064338
0.986622 0.000000 0.076849
0.999877 0.000000 0.096166
0.000000 0.125131 0.115780
0.028046 0.118424 0.109883
0.085048 0.115297 0.099412
0.168757 0.116728 0.086473
0.260141 0.110011 0.076021
0.360146 0.100926 0.062504
0.455659 0.073558 0.057044
0.547678 0.020975 0.053176
0.634610 0.002388 0.049115
0.710681 0.001517 0.045531
0.773322 0.000401 0.044502
0.830784 0.000005 0.044923
0.883132 0.000000 0.048561
0.940188 0.000000 0.057020
0.989597 0.000000 0.071864
0.999909 0.000000 0.093663
0.000000 0.188532 0.129299
0.005212 0.180631 0.126749
0.096975 0.164530 0.124928
0.159091 0.177558 0.102657
0.268785 0.191436 0.075979
0.383856 0.184000 0.057331
0.491958 0.170937 0.033053
0.582881 0.149647 0.024792
0.662575 0.119680 0.020957
0.730205 0.080216 0.019431
0.788079 0.026246 0.020707
0.842415 0.005179 0.022608
0.894105 0.003300 0.028944
0.947095 0.003807 0.042190
0.991444 0.002799 0.061805
0.999927 0.000439 0.086548
0.000000 0.257931 0.142645
0.001048 0.253360 0.145749
0.093640 0.240739 0.145467
0.169458 0.232469 0.137351
0.247540 0.256178 0.101073
0.378113 0.287101 0.041458
0.497226 0.279770 0.007592
0.608185 0.268888 0.000538
0.691209 0.247883 0.000009
0.755192 0.227166 0.000000
0.810439 0.206848 0.000000
0.863370 0.189464 0.000000
0.913376 0.177272 0.001119
0.964038 0.175512 0.018635
1.000000 0.181463 0.051866
1.000020 0.192601 0.087514
0.000000 0.348281 0.167290
0.000922 0.344983 0.173128
0.083340 0.334209 0.173426
0.194665 0.317976 0.172911
0.264865 0.324831 0.151863
0.360337 0.358612 0.095590
0.496624 0.400693 0.005582
0.607413 0.391428 0.000249
0.700162 0.376905 0.000000
0.778208 0.354928 0.000000
0.831770 0.334401 0.000000
0.881647 0.319321 0.000000
0.927209 0.307761 0.000000
0.972589 0.304373 0.002584
1.000000 0.305372 0.031368
1.000020 0.311010 0.085224
0.000000 0.443906 0.207785
0.000953 0.442005 0.210806
0.086361 0.433211 0.210632
0.215292 0.418889 0.210265
0.302610 0.401136 0.208487
0.371119 0.424959 0.170192
0.468399 0.458833 0.097044
0.591824 0.498630 0.006999
0.689102 0.492808 0.000020
0.768328 0.476128 0.000000
0.836075 0.455557 0.000000
0.894976 0.436929 0.000000
0.937912 0.422800 0.000000
0.979092 0.416267 0.000887
1.000000 0.412930 0.014764
1.000020 0.414457 0.090974
0.000000 0.522161 0.251276
0.007473 0.521277 0.252838
0.126348 0.515577 0.253173
0.238748 0.505130 0.252641
0.327042 0.490506 0.251658
0.397383 0.483203 0.241660
0.465067 0.510013 0.196055
0.553631 0.539972 0.117787
0.656547 0.571293 0.011048
0.748827 0.576906 0.000078
0.820555 0.562173 0.000000
0.885296 0.547082 0.000000
0.940909 0.530755 0.000000
0.982270 0.519648 0.001586
1.000000 0.510311 0.021401
1.000020 0.505576 0.107049
0.014490 0.583522 0.296530
0.095357 0.581098 0.296599
0.186612 0.577064 0.296739
0.270966 0.570155 0.297009
0.350370 0.560351 0.297344
0.422363 0.548824 0.296916
0.482511 0.557027 0.280759
0.548321 0.585255 0.237975
0.629516 0.615262 0.163412
0.719737 0.644171 0.017835
0.810405 0.663041 0.007234
0.877944 0.653779 0.000005
0.933540 0.639598 0.000000
0.981437 0.628375 0.010329
1.000000 0.617986 0.113844
1.000020 0.609189 0.178961
0.190734 0.644297 0.352304
0.220740 0.642123 0.352027
0.267088 0.638533 0.351646
0.325280 0.633329 0.351785
0.388628 0.626339 0.352405
0.450969 0.616877 0.352779
0.509602 0.607131 0.351995
0.559776 0.625639 0.329465
0.620606 0.652721 0.289817
0.692470 0.679897 0.226316
0.772945 0.707238 0.116047
0.856045 0.730408 0.014177
0.914791 0.721261 0.000068
0.964772 0.711037 0.011018
0.999417 0.700212 0.124081
1.000020 0.689331 0.233809
0.301343 0.701145 0.412485
0.318807 0.699844 0.412447
0.347070 0.697065 0.412141
0.387062 0.692750 0.411593
0.434540 0.686900 0.411360
0.485111 0.679244 0.411116
0.535917 0.670405 0.410794
0.583314 0.666609 0.406889
0.628740 0.689239 0.383337
0.684230 0.713803 0.346821
0.748739 0.738384 0.291302
0.818725 0.761621 0.193720
0.894407 0.787146 0.016969
0.947154 0.779648 0.020775
0.985695 0.767801 0.135669
0.999876 0.755505 0.248799
0.382315 0.753445 0.469747
0.393551 0.752214 0.469490
0.413030 0.749874 0.468963
0.442178 0.746423 0.468503
0.479401 0.741890 0.468157
0.521396 0.736231 0.468227
0.565749 0.729633 0.468919
0.609315 0.722308 0.468755
0.649063 0.727323 0.461135
0.691203 0.748119 0.438481
0.741420 0.769355 0.405605
0.798651 0.790079 0.357477
0.858023 0.807662 0.277656
0.926593 0.831423 0.154888
0.969348 0.823530 0.165499
0.999690 0.811258 0.273241
0.442222 0.796615 0.518746
0.450683 0.795665 0.518454
0.467366 0.795075 0.519622
0.492362 0.793820 0.521289
0.524715 0.792279 0.523922
0.561819 0.789770 0.526505
0.602469 0.787119 0.530482
0.643377 0.783195 0.533915
0.683839 0.780190 0.537844
0.720191 0.793366 0.530755
0.761061 0.813209 0.515830
0.806370 0.831387 0.492793
0.855113 0.847878 0.458721
0.905584 0.861570 0.400368
0.958940 0.874987 0.313243
0.988378 0.865292 0.344294
0.534095 0.851077 0.596758
0.530866 0.846241 0.588808
0.538083 0.843447 0.585554
0.555197 0.841645 0.585407
0.580189 0.840398 0.587608
0.609580 0.838403 0.589892
0.642510 0.836095 0.592849
0.677238 0.833326 0.596107
0.712838 0.830599 0.600555
0.746270 0.828829 0.602799
0.777131 0.843428 0.594356
0.810991 0.857391 0.579958
0.848563 0.870535 0.559353
0.887769 0.880991 0.524010
0.927934 0.888532 0.468314
0.971061 0.897887 0.417763
0.611091 0.888646 0.664800
0.606622 0.885289 0.657314
0.610306 0.883028 0.653605
0.621841 0.881484 0.652873
0.640162 0.880309 0.654338
0.662630 0.878819 0.656546
0.688904 0.877367 0.659824
0.716656 0.875255 0.662818
0.745607 0.873046 0.666615
0.774247 0.870545 0.670047
0.800719 0.873065 0.670528
0.825342 0.883295 0.662055
0.852746 0.893151 0.649911
0.882195 0.901567 0.629320
0.913760 0.908338 0.596566
0.944402 0.910981 0.546698
0.691115 0.917582 0.736585
0.686281 0.915364 0.729871
0.687515 0.913869 0.726415
0.695062 0.912862 0.725942
0.707662 0.912096 0.727528
0.723832 0.911175 0.729813
0.743010 0.910284 0.733168
0.763973 0.909144 0.736879
0.786658 0.908094 0.741689
0.809856 0.907008 0.747193
0.833133 0.906125 0.753567
0.851614 0.910610 0.752908
0.870033 0.917806 0.747567
0.890001 0.924246 0.737431
0.912345 0.930252 0.722013
0.935427 0.935420 0.714388
0.019375 0.057782 0.144389
0.055336 0.059712 0.129250
0.074182 0.058316 0.111715
0.143577 0.050956 0.113380
0.221498 0.025085 0.095586
0.302839 0.012383 0.087369
0.404499 0.000000 0.077565
0.509721 0.000000 0.064861
0.599732 0.000000 0.061711
0.685180 0.000000 0.057751
0.756507 0.000000 0.055546
0.819591 0.000000 0.055006
0.875658 0.000000 0.057360
0.935709 0.000000 0.064598
0.987452 0.000000 0.077767
0.999886 0.000000 0.097083
0.000152 0.080704 0.154699
0.048118 0.081943 0.140769
0.082396 0.081244 0.124561
0.151827 0.072760 0.119774
0.225559 0.060459 0.104571
0.319901 0.042192 0.094802
0.421717 0.010913 0.081385
0.525267 0.000495 0.063443
0.616501 0.000000 0.056657
0.698211 0.000000 0.052474
0.765776 0.000000 0.050015
0.826188 0.000000 0.050136
0.880007 0.000000 0.053122
0.938237 0.000000 0.061252
0.988511 0.000000 0.074983
0.999897 0.000000 0.095785
0.000000 0.124979 0.159503
0.014382 0.121685 0.151445
0.089487 0.118819 0.142155
0.167488 0.114306 0.130210
0.253972 0.107512 0.117378
0.352204 0.094866 0.101992
0.452857 0.075448 0.083962
0.552149 0.045718 0.061230
0.643611 0.003125 0.043423
0.717106 0.002486 0.039320
0.778085 0.001661 0.037922
0.834209 0.000596 0.039041
0.886413 0.000029 0.043535
0.942358 0.000013 0.053701
0.991040 0.000006 0.070223
0.999924 0.000013 0.092909
0.000000 0.196611 0.177710
0.001024 0.190519 0.168611
0.090732 0.182888 0.160472
0.167934 0.181862 0.146326
0.275509 0.185272 0.126412
0.385752 0.174527 0.109583
0.484280 0.162379 0.086447
0.583369 0.151944 0.056162
0.668438 0.141425 0.017978
0.735140 0.113671 0.013827
0.791952 0.077608 0.013374
0.845038 0.031412 0.016941
0.896653 0.005770 0.023670
0.948578 0.005442 0.038568
0.992150 0.004423 0.059585
0.999936 0.003151 0.085514
0.000000 0.265362 0.186609
0.000855 0.263676 0.181740
0.076872 0.257999 0.179754
0.182307 0.239254 0.177495
0.256240 0.259611 0.146455
0.383496 0.280696 0.108313
0.500584 0.271041 0.082934
0.609530 0.258608 0.049183
0.690071 0.249103 0.003111
0.757681 0.239539 0.001368
0.812599 0.221802 0.000090
0.865683 0.206491 0.000000
0.915383 0.195068 0.000802
0.965415 0.192515 0.014474
1.000000 0.196181 0.049843
1.000020 0.204889 0.088029
0.000000 0.355859 0.207024
0.000648 0.356048 0.204665
0.058860 0.350347 0.207295
0.198600 0.333664 0.206655
0.275889 0.329124 0.193802
0.367841 0.361262 0.147974
0.499994 0.395604 0.070989
0.609752 0.385103 0.024724
0.701496 0.370298 0.002747
0.778728 0.355681 0.001741
0.833580 0.342026 0.000262
0.883326 0.328305 0.000000
0.928609 0.316975 0.000000
0.973530 0.312913 0.002500
1.000000 0.312894 0.030557
1.000020 0.317565 0.086278
0.000000 0.450036 0.236464
0.000744 0.451521 0.236375
0.067392 0.445742 0.243015
0.216920 0.431942 0.242942
0.310355 0.413796 0.240553
0.380174 0.428006 0.213482
0.474127 0.461289 0.152944
0.596844 0.500211 0.028111
0.690139 0.488798 0.004705
0.768809 0.472099 0.002236
0.836743 0.456407 0.001108
0.896075 0.441583 0.000002
0.938803 0.427888 0.000000
0.979646 0.420835 0.001040
1.000000 0.417064 0.016409
1.000020 0.417881 0.092859
0.000000 0.527862 0.270495
0.006456 0.529437 0.275777
0.122199 0.524705 0.282564
0.242373 0.514539 0.282488
0.333302 0.499531 0.280955
0.406861 0.485612 0.275836
0.471018 0.511597 0.237025
0.557302 0.541522 0.172230
0.661542 0.574267 0.044074
0.749303 0.574257 0.009650
0.820724 0.560261 0.001881
0.885868 0.548303 0.000177
0.941392 0.533394 0.000011
0.982747 0.521911 0.001714
1.000000 0.512157 0.022740
1.000020 0.506857 0.107617
0.013196 0.589141 0.310663
0.083756 0.587518 0.320067
0.190745 0.583800 0.322431
0.276771 0.576876 0.322821
0.356258 0.567126 0.322801
0.428617 0.555516 0.322485
0.489103 0.558388 0.311426
0.552352 0.586301 0.274983
0.631703 0.616174 0.216749
0.721401 0.645136 0.115883
0.809966 0.661257 0.015030
0.877476 0.652550 0.002828
0.934260 0.640491 0.000395
0.982060 0.629639 0.010661
1.000000 0.619227 0.116705
1.000020 0.610347 0.181383
0.176197 0.648827 0.368317
0.227989 0.647056 0.373850
0.272734 0.643797 0.373526
0.332202 0.638580 0.373926
0.394925 0.631815 0.374585
0.456862 0.622357 0.374666
0.514612 0.612407 0.373770
0.564299 0.626590 0.356159
0.623390 0.653610 0.321940
0.694171 0.680768 0.268435
0.773516 0.707641 0.176379
0.855270 0.729124 0.027492
0.914124 0.720520 0.008974
0.965510 0.711485 0.012714
0.999443 0.700712 0.129152
1.000020 0.689743 0.236974
0.303311 0.704747 0.428592
0.323625 0.703681 0.430033
0.351658 0.701041 0.429567
0.391672 0.696774 0.429565
0.438904 0.690926 0.429185
0.489347 0.683340 0.428637
0.539870 0.674461 0.428531
0.587724 0.667623 0.426686
0.631646 0.689854 0.405313
0.685662 0.714290 0.372702
0.749169 0.738839 0.324174
0.818506 0.761974 0.246058
0.893465 0.786284 0.123376
0.946804 0.779415 0.030220
0.986556 0.767905 0.140182
0.999885 0.755547 0.251546
0.383559 0.756356 0.482973
0.395373 0.755150 0.482953
0.414685 0.752770 0.482085
0.444537 0.749434 0.481871
0.481963 0.745076 0.482054
0.523889 0.739491 0.481945
0.568282 0.732833 0.482326
0.611598 0.725379 0.482325
0.651415 0.727818 0.476153
0.692780 0.748495 0.455793
0.742117 0.769743 0.425865
0.798382 0.790141 0.382377
0.857658 0.808046 0.313130
0.926065 0.831808 0.211071
0.969973 0.823288 0.171219
0.999695 0.810843 0.275491
0.443865 0.799438 0.530080
0.452207 0.798503 0.529808
0.468638 0.797747 0.530632
0.493723 0.796474 0.532257
0.526293 0.794912 0.534870
0.563382 0.792319 0.537342
0.603897 0.789557 0.541053
0.644689 0.785634 0.544366
0.685196 0.782484 0.548121
0.721662 0.793770 0.542939
0.761966 0.813674 0.529450
0.806843 0.831911 0.508346
0.855130 0.848445 0.477329
0.905114 0.862076 0.423921
0.958126 0.875361 0.344323
0.989129 0.865198 0.347492
0.534031 0.852723 0.604656
0.531112 0.848113 0.597142
0.538600 0.845442 0.594045
0.555869 0.843666 0.594000
0.580970 0.842321 0.596126
0.610269 0.840273 0.598167
0.643273 0.837939 0.601000
0.678017 0.835167 0.604260
0.713703 0.832312 0.608452
0.747366 0.829450 0.611198
0.777842 0.843717 0.603688
0.811412 0.857725 0.590232
0.848621 0.870875 0.570944
0.887513 0.881325 0.537860
0.927533 0.888875 0.484101
0.971955 0.898224 0.419771
0.610783 0.889669 0.670584
0.606495 0.886373 0.663300
0.610344 0.884230 0.659753
0.621977 0.882710 0.659205
0.640399 0.881524 0.660721
0.663018 0.880062 0.662705
0.689353 0.878604 0.666079
0.717100 0.876457 0.668957
0.745933 0.874105 0.672349
0.774493 0.871516 0.675666
0.801340 0.873201 0.676907
0.825754 0.883484 0.668955
0.852900 0.893365 0.657472
0.882143 0.901820 0.637714
0.913550 0.908612 0.605737
0.945071 0.911326 0.548367
0.691052 0.918256 0.740571
0.686217 0.916096 0.733990
0.687516 0.914637 0.730694
0.695226 0.913638 0.730300
0.708063 0.912905 0.731990
0.724164 0.911985 0.734154
0.743256 0.911063 0.737409
0.764247 0.909863 0.740938
0.786799 0.908783 0.745562
0.809985 0.907696 0.750968
0.833247 0.906750 0.757158
0.852055 0.910708 0.757126
0.870238 0.917908 0.751973
0.890055 0.924371 0.742228
0.912226 0.930381 0.727249
0.935769 0.935580 0.715170
0.032025 0.060921 0.215882
0.079796 0.061216 0.200109
0.116719 0.064685 0.174404
0.136214 0.062910 0.152509
0.223641 0.049480 0.160582
0.317618 0.001363 0.142984
0.407662 0.000000 0.111293
0.498187 0.000000 0.101113
0.599420 0.000000 0.083800
0.692456 0.000000 0.063152
0.764679 0.000000 0.050874
0.826296 0.000000 0.049968
0.881454 0.000000 0.052830
0.940421 0.000000 0.061251
0.990614 0.000000 0.076184
0.999919 0.000000 0.097217
0.008050 0.087942 0.222414
0.070333 0.087133 0.205110
0.120617 0.089803 0.184637
0.147106 0.087236 0.164755
0.231981 0.076036 0.169149
0.328159 0.022932 0.146742
0.414127 0.000629 0.122152
0.513053 0.000163 0.106872
0.614259 0.000000 0.088083
0.703664 0.000000 0.063280
0.773272 0.000000 0.044727
0.832141 0.000000 0.044727
0.885776 0.000000 0.048075
0.942553 0.000000 0.057506
0.991413 0.000000 0.073910
0.999928 0.000000 0.095894
0.000000 0.127001 0.222371
0.013023 0.124027 0.212908
0.113793 0.126366 0.201391
0.164605 0.128249 0.185493
0.252260 0.114648 0.180585
0.344663 0.080926 0.153613
0.439660 0.057335 0.136540
0.541162 0.016970 0.116783
0.636877 0.002687 0.092856
0.718672 0.002526 0.061955
0.784118 0.002487 0.032252
0.839326 0.001930 0.032718
0.891401 0.001289 0.037583
0.946297 0.000617 0.049679
0.993696 0.000302 0.068361
0.999952 0.000578 0.092962
0.000000 0.191345 0.231900
0.000846 0.188273 0.225260
0.075056 0.186472 0.217686
0.178408 0.187474 0.209759
0.271922 0.179141 0.192726
0.372064 0.168024 0.173175
0.472115 0.152801 0.151032
0.570770 0.137440 0.126522
0.657976 0.122570 0.097718
0.732784 0.115420 0.060852
0.796248 0.113680 0.014746
0.849938 0.089932 0.011578
0.901265 0.062728 0.017684
0.952054 0.033821 0.033509
0.994453 0.020650 0.057735
0.999961 0.032815 0.085742
0.000000 0.275338 0.250812
0.000107 0.273739 0.244874
0.010781 0.270256 0.234619
0.180183 0.263333 0.227182
0.267808 0.263882 0.209764
0.389860 0.271454 0.186430
0.503762 0.259991 0.167593
0.598937 0.248624 0.139893
0.680430 0.238329 0.106821
0.751207 0.231739 0.063981
0.812877 0.229280 0.008285
0.869936 0.226292 0.002839
0.919211 0.216748 0.000980
0.968065 0.212824 0.011747
1.000000 0.213671 0.049369
1.000020 0.219104 0.088572
0.000000 0.366526 0.266407
0.000000 0.366483 0.263577
0.001641 0.363995 0.256782
0.189675 0.356304 0.255619
0.292440 0.335422 0.251262
0.378387 0.364756 0.216826
0.505293 0.387815 0.174878
0.612949 0.376796 0.151383
0.701860 0.362063 0.124925
0.771602 0.349439 0.080905
0.830104 0.341218 0.016593
0.885534 0.338209 0.003621
0.931300 0.329079 0.001041
0.975543 0.324301 0.002513
1.000000 0.322642 0.030782
1.000020 0.325548 0.088373
0.000000 0.457174 0.289888
0.000028 0.458693 0.289025
0.004282 0.457284 0.284916
0.208128 0.450351 0.289252
0.317758 0.432044 0.286643
0.392884 0.431760 0.271554
0.482230 0.464151 0.227846
0.601683 0.498453 0.164346
0.691170 0.483003 0.136944
0.768668 0.467249 0.103258
0.836333 0.452898 0.054034
0.894163 0.443476 0.005112
0.940690 0.434976 0.002672
0.981203 0.427497 0.001274
1.000000 0.422748 0.018428
1.000020 0.422369 0.095747
0.000000 0.533334 0.316966
0.000526 0.535633 0.318108
0.047989 0.534695 0.317142
0.240666 0.528050 0.325124
0.339195 0.513211 0.323260
0.417135 0.496242 0.319481
0.479378 0.513351 0.292926
0.562403 0.543398 0.245369
