example_ofxGpuLutCube/bin/data/ofxGpuLutCube/LUT/U39 (teal sunset fade_5).cube
LUT_3D_SIZE 6
0.008484 0.046235 0.059998
0.136901 0.042828 0.068695
0.378353 0.000000 0.071425
0.667957 0.000000 0.065729
0.873098 0.000000 0.064614
0.999902 0.000000 0.099636
0.000000 0.170632 0.101722
0.144985 0.167362 0.076029
0.470027 0.155035 0.038140
0.718040 0.041822 0.026640
0.887299 0.002999 0.032936
0.999898 0.000000 0.087381
0.000000 0.435170 0.188167
0.214689 0.415307 0.192508
0.473741 0.465920 0.055843
0.773987 0.481950 0.000000
0.942728 0.425752 0.000000
1.000020 0.417572 0.096548
0.183578 0.640835 0.338778
0.321224 0.630205 0.338767
0.508601 0.605806 0.341346
0.695054 0.682833 0.203635
0.916736 0.723811 0.000000
1.000020 0.689221 0.233222
0.438093 0.793271 0.509815
0.489919 0.791468 0.513688
0.601299 0.785534 0.524247
0.720039 0.793683 0.524690
0.855708 0.848180 0.449793
0.987860 0.865132 0.341277
0.690136 0.916968 0.733489
0.693528 0.912024 0.722209
0.741924 0.909479 0.729598
0.809605 0.906543 0.744826
0.870302 0.918047 0.746214
0.935452 0.935568 0.715315
0.032025 0.060921 0.215882
0.136214 0.062910 0.152509
0.407662 0.000000 0.111293
0.692456 0.000000 0.063152
0.881454 0.000000 0.052830
0.999919 0.000000 0.097217
0.000000 0.191345 0.231900
0.178408 0.187474 0.209759
0.472115 0.152801 0.151032
0.732784 0.115420 0.060852
0.901265 0.062728 0.017684
0.999961 0.032815 0.085742
0.000000 0.457174 0.289888
0.208128 0.450351 0.289252
0.482230 0.464151 0.227846
0.768668 0.467249 0.103258
0.940690 0.434976 0.002672
1.000020 0.422369 0.095747
0.154844 0.652948 0.392433
0.338549 0.646620 0.406238
0.521405 0.620482 0.405923
0.696046 0.682109 0.324907
0.912623 0.719842 0.141140
1.000019 0.690102 0.241764
0.428537 0.803242 0.538429
0.493893 0.799887 0.548211
0.605550 0.793245 0.557150
0.723659 0.794387 0.560989
0.854991 0.849295 0.504851
0.990227 0.864957 0.353754
0.690426 0.919269 0.746454
0.695029 0.914789 0.736873
0.743167 0.912123 0.743546
0.810115 0.908730 0.756694
0.870691 0.918130 0.759050
0.936236 0.935889 0.717111
0.155199 0.066300 0.450252
0.300889 0.071360 0.418039
0.443397 0.067596 0.357139
0.732056 0.007180 0.344013
0.879190 0.000000 0.198076
0.999982 0.000000 0.102534
0.070331 0.208664 0.462549
0.294650 0.220488 0.442887
0.485432 0.242695 0.405649
0.725612 0.141439 0.352467
0.879536 0.047902 0.233022
0.999981 0.079941 0.094270
0.000000 0.444869 0.481199
0.186443 0.454771 0.480996
0.510067 0.475926 0.474397
0.726649 0.456422 0.418308
0.905170 0.437829 0.330079
1.000019 0.423356 0.139589
0.116205 0.671007 0.537988
0.308702 0.669329 0.534889
0.538172 0.662946 0.539991
0.703464 0.688502 0.517796
0.900230 0.717873 0.472637
0.999982 0.690128 0.357629
0.382971 0.815424 0.608018
0.450417 0.815241 0.610758
0.602242 0.813711 0.632057
0.730087 0.800587 0.638769
0.853813 0.852497 0.616595
0.982881 0.862605 0.515879
0.647283 0.926326 0.756692
0.661528 0.922170 0.752199
0.737028 0.918014 0.772506
0.808315 0.914317 0.784370
0.872246 0.918555 0.791281
0.935265 0.937077 0.756855
0.343004 0.128838 0.642949
0.437301 0.145419 0.636259
0.616201 0.231514 0.624463
0.729790 0.246329 0.589285
0.909584 0.359504 0.615488
1.000020 0.144683 0.481913
0.357169 0.273493 0.654319
0.443264 0.283551 0.644944
0.616505 0.350782 0.636173
0.727553 0.375005 0.607484
0.896112 0.428376 0.620492
0.999930 0.220816 0.469028
0.148249 0.417527 0.633051
0.329113 0.437731 0.640251
0.580169 0.505431 0.648894
0.717125 0.556817 0.643615
0.874211 0.533594 0.621646
0.999771 0.411554 0.469851
0.258000 0.644802 0.670611
0.352164 0.650281 0.672028
0.520548 0.665954 0.676649
0.710834 0.695733 0.685567
0.870412 0.689837 0.648443
0.999624 0.668377 0.563401
0.303253 0.835329 0.741143
0.379142 0.835190 0.738151
0.534381 0.835284 0.731033
0.726060 0.832193 0.739346
0.851797 0.855717 0.740349
0.969713 0.858657 0.700289
0.546812 0.938441 0.796376
0.559054 0.935293 0.788124
0.672943 0.930463 0.798348
0.799425 0.924548 0.825696
0.874434 0.919125 0.835084
0.934387 0.939149 0.817881
0.560888 0.302498 0.814075
0.608914 0.323621 0.812073
0.716357 0.390212 0.807258
0.830752 0.509449 0.802903
0.902365 0.497936 0.782290
0.992842 0.593238 0.792778
0.563646 0.397255 0.816384
0.606276 0.409397 0.812549
0.711964 0.463530 0.810137
0.823915 0.559513 0.806390
0.892236 0.551597 0.785713
0.982282 0.622061 0.793857
0.497994 0.512044 0.807163
0.554077 0.525302 0.807833
0.676503 0.566814 0.809198
0.803424 0.642921 0.811936
0.876538 0.661817 0.802310
0.964851 0.716294 0.817041
0.341990 0.634390 0.802528
0.396425 0.635744 0.802014
0.532373 0.643906 0.802379
0.755750 0.718247 0.820468
0.862348 0.775376 0.827863
0.958162 0.766458 0.815484
0.409572 0.811978 0.833874
0.451814 0.813903 0.834412
0.557851 0.820499 0.836630
0.702857 0.833703 0.840905
0.852989 0.858379 0.851154
0.952768 0.846693 0.821149
0.529073 0.947103 0.890345
0.539492 0.945386 0.886942
0.622885 0.943691 0.883068
0.738286 0.939714 0.874890
0.866558 0.933147 0.882353
0.936692 0.942833 0.883240
0.760701 0.596617 0.932466
0.779038 0.606127 0.931153
0.825285 0.634485 0.927278
0.885512 0.688154 0.921142
0.935900 0.751302 0.914144
0.985154 0.720715 0.904993
0.755570 0.628214 0.932022
0.773285 0.635832 0.930407
0.818476 0.658472 0.926245
0.878613 0.703350 0.919587
0.929416 0.760270 0.911111
0.978342 0.722999 0.900344
0.727170 0.680828 0.931251
0.749049 0.689789 0.930369
0.800794 0.713050 0.927042
0.866146 0.751999 0.921553
0.920619 0.803417 0.914380
0.964107 0.782662 0.906019
0.630738 0.731461 0.935128
0.660938 0.736486 0.934508
0.745365 0.762023 0.931387
0.838464 0.798110 0.926346
0.909990 0.844329 0.920986
0.948893 0.847522 0.914815
0.613927 0.843660 0.940307
0.629302 0.843276 0.939969
0.674054 0.842704 0.939133
0.747318 0.841353 0.936873
0.888752 0.881444 0.932301
0.941951 0.905305 0.929291
0.695029 0.942652 0.941326
0.701574 0.942133 0.940590
0.734457 0.942467 0.940534
0.789255 0.943246 0.940682
0.859972 0.945327 0.942050
0.946457 0.951535 0.948580
