example_ofxGpuLutCube/bin/data/ofxGpuLutCube/LUT/U4 (twilight look).cube
LUT_3D_SIZE 16
0.000000 0.000000 0.000000
0.053875 0.000000 0.010527
0.090833 0.000000 0.033776
0.126109 0.000000 0.040975
0.163058 0.015861 0.053318
0.201113 0.029676 0.054623
0.230942 0.038531 0.051104
0.260893 0.047191 0.050652
0.294075 0.052656 0.059286
0.328737 0.057609 0.066817
0.360172 0.062990 0.075862
0.392643 0.067219 0.081835
0.423852 0.068010 0.084897
0.459356 0.073135 0.095365
0.493395 0.082035 0.102172
0.526863 0.076890 0.102558
0.000000 0.056882 0.028926
0.055672 0.054050 0.014938
0.086402 0.056117 0.031225
0.128836 0.054528 0.043744
0.164533 0.057149 0.051104
0.198282 0.060231 0.049819
0.229313 0.067207 0.048413
0.262141 0.071691 0.045761
0.293879 0.076156 0.054724
0.325776 0.079135 0.064610
0.358985 0.082138 0.074235
0.394449 0.085195 0.083424
0.426640 0.086271 0.087950
0.457194 0.093266 0.093627
0.490782 0.094863 0.097412
0.524103 0.105195 0.107921
0.000000 0.091595 0.042275
0.043902 0.091260 0.043477
0.088077 0.087305 0.045221
0.127391 0.092082 0.041180
0.165837 0.094608 0.045294
0.198673 0.096265 0.045599
0.230461 0.098338 0.049971
0.260698 0.101415 0.053505
0.293677 0.102729 0.060296
0.325533 0.103748 0.068212
0.356786 0.105534 0.078761
0.389811 0.108710 0.086429
0.425245 0.114093 0.091443
0.457125 0.115556 0.098725
0.495601 0.122483 0.107652
0.527284 0.120912 0.106537
0.000000 0.131779 0.049057
0.045654 0.131180 0.054143
0.085270 0.130654 0.050875
0.128389 0.130654 0.053493
0.161232 0.130035 0.052965
0.194373 0.129327 0.055700
0.226881 0.130311 0.058493
0.259211 0.130801 0.063760
0.290525 0.130801 0.070149
0.326385 0.130311 0.075198
0.359744 0.131222 0.080299
0.390473 0.134966 0.085243
0.422745 0.139983 0.096646
0.457259 0.144351 0.099642
0.492672 0.144869 0.107123
0.529226 0.147129 0.114388
0.011870 0.164976 0.066018
0.054743 0.162735 0.064164
0.082512 0.160774 0.061039
0.127483 0.160774 0.064206
0.159298 0.160774 0.068421
0.191550 0.161479 0.068541
0.224227 0.163180 0.073134
0.257163 0.161940 0.075522
0.288498 0.161940 0.080875
0.321848 0.163180 0.084443
0.357450 0.163372 0.088463
0.389669 0.165731 0.092711
0.420718 0.166502 0.097410
0.458997 0.171980 0.101508
0.490661 0.173527 0.106571
0.527619 0.175829 0.117376
0.023337 0.193405 0.078761
0.060506 0.193405 0.076894
0.087526 0.193405 0.077795
0.124975 0.193220 0.078568
0.156580 0.192712 0.082406
0.192459 0.193405 0.084833
0.222993 0.194182 0.086627
0.254095 0.193090 0.087446
0.287772 0.192591 0.088463
0.321124 0.193220 0.090801
0.355250 0.195003 0.096870
0.388225 0.198416 0.101793
0.421229 0.199205 0.105577
0.459088 0.199205 0.110425
0.491582 0.202779 0.113695
0.530766 0.209704 0.122306
0.032137 0.226283 0.087194
0.063589 0.226183 0.092628
0.087556 0.225264 0.089061
0.123379 0.225955 0.090051
0.155593 0.225011 0.092028
0.187073 0.226283 0.096499
0.221288 0.226283 0.095741
0.253870 0.225479 0.097447
0.286077 0.224538 0.096845
0.318987 0.224538 0.098002
0.354130 0.226881 0.104063
0.388486 0.229314 0.110258
0.422982 0.231631 0.115244
0.460404 0.233058 0.119598
0.493494 0.236490 0.122769
0.531552 0.239616 0.129136
0.037686 0.259328 0.100665
0.061029 0.259234 0.102157
0.083786 0.257790 0.099536
0.120477 0.258233 0.101113
0.154792 0.259328 0.103328
0.186132 0.259328 0.106015
0.219638 0.258791 0.105616
0.253700 0.258588 0.107135
0.289039 0.259328 0.109456
0.321540 0.259328 0.110644
0.352322 0.259328 0.112501
0.387438 0.261300 0.119742
0.421812 0.263440 0.123223
0.460546 0.267496 0.128449
0.493552 0.268066 0.131858
0.531179 0.270960 0.136158
0.035332 0.292494 0.112753
0.056458 0.292494 0.109919
0.084705 0.292524 0.110124
0.117757 0.292657 0.111997
0.154488 0.292902 0.115018
0.189186 0.293550 0.117604
0.220247 0.291953 0.117402
0.251291 0.291760 0.117608
0.287477 0.292494 0.119935
0.323707 0.293436 0.124239
0.352863 0.294075 0.126109
0.389266 0.297215 0.130734
0.423680 0.297260 0.133817
0.460764 0.302043 0.139050
0.494937 0.304275 0.142471
0.534295 0.305747 0.148307
0.030041 0.325815 0.123530
0.055176 0.327471 0.124092
0.090521 0.326182 0.124017
0.116576 0.328160 0.123411
0.152392 0.326573 0.124158
0.188243 0.328343 0.129014
0.222443 0.328251 0.131823
0.254609 0.328512 0.130155
0.289330 0.328512 0.132270
0.324864 0.330038 0.137490
0.356828 0.330488 0.139244
0.391710 0.332652 0.142349
0.427624 0.334827 0.145704
0.464059 0.338769 0.152691
0.499771 0.342052 0.156345
0.539266 0.345713 0.162215
0.040439 0.363130 0.141329
0.062014 0.363869 0.142288
0.092983 0.361504 0.141899
0.118173 0.363869 0.138490
0.153788 0.362875 0.135199
0.186067 0.362794 0.139111
0.223779 0.364473 0.144566
0.255391 0.364621 0.144696
0.290097 0.365686 0.146196
0.326182 0.366991 0.150259
0.361167 0.368377 0.149873
0.396078 0.371159 0.156601
0.429311 0.374243 0.161683
0.470426 0.377426 0.166398
0.506095 0.378766 0.167922
0.541663 0.380736 0.171765
0.055488 0.402881 0.154266
0.071691 0.402825 0.154266
0.092020 0.401938 0.154149
0.129558 0.401127 0.153611
0.160944 0.402083 0.155186
0.190668 0.400884 0.157616
0.225256 0.402881 0.157193
0.260271 0.403911 0.160755
0.293879 0.406599 0.163408
0.330705 0.406712 0.164327
0.366433 0.407798 0.168105
0.400476 0.409402 0.172515
0.437113 0.411918 0.177499
0.474130 0.416949 0.181004
0.510198 0.419597 0.187272
0.546008 0.419796 0.186378
0.063802 0.442688 0.170281
0.087834 0.442581 0.172266
0.104836 0.440250 0.167992
0.126676 0.439872 0.168099
0.159060 0.440830 0.168874
0.197834 0.443063 0.171622
0.230797 0.445071 0.176600
0.264542 0.445359 0.178846
0.300293 0.445942 0.180677
0.335071 0.445955 0.183142
0.371159 0.447597 0.185202
0.407955 0.450356 0.190847
0.446871 0.453320 0.193620
0.481575 0.459015 0.200366
0.520244 0.462592 0.205115
0.554722 0.467494 0.211672
0.062378 0.482618 0.188656
0.082204 0.482578 0.188991
0.110837 0.482526 0.188613
0.132347 0.484807 0.191272
0.170835 0.484254 0.192593
0.200849 0.482787 0.191167
0.237115 0.485082 0.192090
0.269023 0.488134 0.195808
0.301321 0.488134 0.198681
0.337813 0.488134 0.199429
0.377046 0.490167 0.203904
0.416475 0.493226 0.208245
0.456319 0.496434 0.211237
0.488865 0.499989 0.217125
0.530079 0.505514 0.220604
0.569316 0.511761 0.231877
0.073135 0.528123 0.209831
0.089177 0.528123 0.209454
0.124139 0.527758 0.204443
0.141998 0.526650 0.206290
0.177086 0.531769 0.214292
0.212789 0.532726 0.218107
0.242744 0.531046 0.215938
0.279063 0.532583 0.215482
0.312223 0.532583 0.217121
0.347456 0.534593 0.222399
0.387871 0.538813 0.225221
0.426629 0.539915 0.226592
0.461392 0.542357 0.231865
0.502112 0.545524 0.240355
0.542495 0.551408 0.244215
0.579598 0.554965 0.253230
0.110686 0.577133 0.234134
0.121980 0.577133 0.234125
0.138933 0.577512 0.234430
0.172576 0.579456 0.236918
0.201523 0.577165 0.237033
0.233681 0.578126 0.237055
0.260980 0.578902 0.237026
0.290144 0.577171 0.237015
0.320358 0.578707 0.240120
0.360292 0.580100 0.241116
0.397376 0.584066 0.249614
0.435280 0.588175 0.256542
0.472752 0.591352 0.255053
0.507112 0.597072 0.262052
0.554469 0.600640 0.271331
0.591969 0.606702 0.277727
0.000000 0.000000 0.069711
0.043918 0.000000 0.069696
0.088085 0.000000 0.070326
0.126040 0.000000 0.077326
0.164264 0.011870 0.084292
0.200086 0.025958 0.086280
0.232475 0.038752 0.088819
0.260566 0.050199 0.091014
0.290869 0.054219 0.095564
0.324690 0.056468 0.100537
0.357215 0.062784 0.103787
0.387590 0.067165 0.109887
0.422455 0.063516 0.112101
0.456786 0.072402 0.114720
0.490201 0.082035 0.125360
0.526841 0.076890 0.131142
0.000000 0.056685 0.070669
0.049459 0.054269 0.070696
0.085277 0.054108 0.076856
0.125999 0.054296 0.082014
0.163958 0.055906 0.085867
0.197789 0.063111 0.089902
0.227905 0.069112 0.090360
0.258031 0.072072 0.092925
0.291134 0.076347 0.097173
0.325514 0.080834 0.103124
0.356973 0.083043 0.108200
0.391636 0.087160 0.114986
0.421668 0.088947 0.115499
0.454413 0.093603 0.119999
0.490272 0.097171 0.125907
0.529027 0.102272 0.133821
0.000000 0.091595 0.082717
0.043223 0.091915 0.075070
0.080929 0.091867 0.082316
0.124173 0.093683 0.083685
0.161930 0.094338 0.086509
0.193125 0.096378 0.090317
0.225719 0.099534 0.093318
0.258903 0.102811 0.097065
0.291831 0.102987 0.100266
0.324027 0.105594 0.105393
0.354431 0.106857 0.109881
0.388478 0.110676 0.114295
0.422606 0.114585 0.117409
0.458726 0.113289 0.122576
0.491106 0.120173 0.130363
0.524260 0.121026 0.130210
0.000000 0.131779 0.093191
0.043592 0.133198 0.086627
0.084840 0.130880 0.089495
0.124797 0.128377 0.092454
0.157978 0.128499 0.091810
0.191032 0.129532 0.094873
0.222765 0.130917 0.095652
0.257121 0.131972 0.099261
0.288077 0.131972 0.103896
0.322822 0.132252 0.106427
0.355140 0.133766 0.109434
0.387205 0.135880 0.115741
0.420372 0.140069 0.119797
0.455810 0.143878 0.125706
0.491841 0.144835 0.128306
0.526124 0.146997 0.137130
0.000000 0.165731 0.096878
0.043640 0.163594 0.097566
0.084910 0.162851 0.097939
0.121939 0.161313 0.098846
0.156102 0.161230 0.100035
0.189949 0.162223 0.104826
0.222389 0.161719 0.103852
0.254142 0.161652 0.105023
0.288225 0.161652 0.110440
0.321295 0.162090 0.112076
0.354689 0.163774 0.114290
0.388794 0.165544 0.118306
0.421433 0.166003 0.121574
0.454679 0.170286 0.127539
0.488947 0.174112 0.136632
0.524641 0.175809 0.138683
0.000000 0.195393 0.104552
0.046081 0.195292 0.106543
0.086847 0.194002 0.107072
0.119693 0.195583 0.111082
0.155680 0.193184 0.109308
0.188360 0.192806 0.110135
0.220749 0.193837 0.111680
0.252006 0.193171 0.113076
0.286264 0.192207 0.115525
0.320087 0.194796 0.119486
0.352974 0.194498 0.120879
0.387423 0.195717 0.123413
0.422841 0.196427 0.126362
0.456689 0.199048 0.128720
0.492122 0.203729 0.138720
0.526739 0.209538 0.144866
0.000000 0.227550 0.115429
0.049069 0.226418 0.115274
0.087084 0.226764 0.115818
0.116574 0.227505 0.119246
0.152275 0.225826 0.117264
0.186236 0.225204 0.116989
0.220405 0.226944 0.121482
0.253126 0.227201 0.123527
0.283448 0.224848 0.123424
0.316468 0.226781 0.126344
0.351630 0.228038 0.129996
0.387693 0.228848 0.129776
0.422888 0.229211 0.131734
0.458720 0.232619 0.137170
0.491689 0.236047 0.143757
0.528016 0.239499 0.149698
0.000000 0.260893 0.124478
0.048531 0.259274 0.124033
0.086799 0.258322 0.123406
0.114720 0.259266 0.126171
0.151357 0.259328 0.127829
0.185110 0.259289 0.126670
0.218332 0.258716 0.127330
0.254680 0.258580 0.131191
0.287009 0.258435 0.133975
0.318878 0.260304 0.135335
0.351782 0.262082 0.138280
0.386287 0.263128 0.141380
0.421481 0.262487 0.141488
0.460512 0.267207 0.146282
0.494713 0.268417 0.149872
0.532459 0.272299 0.159420
0.000000 0.292603 0.134975
0.049660 0.292523 0.133301
0.081474 0.291597 0.132761
0.113574 0.293393 0.136104
0.151277 0.291851 0.137359
0.186061 0.293538 0.139970
0.218826 0.291882 0.136772
0.252359 0.291769 0.138868
0.287113 0.292514 0.142465
0.322219 0.294214 0.145330
0.355290 0.295338 0.147722
0.389318 0.298639 0.153800
0.423440 0.298793 0.154840
0.458203 0.302172 0.157197
0.497423 0.301727 0.161753
0.534193 0.308534 0.172751
0.000000 0.329379 0.150026
0.055217 0.327646 0.147260
0.085266 0.327701 0.146019
0.111611 0.327760 0.147306
0.149214 0.325793 0.146873
0.188912 0.328343 0.149936
0.222215 0.327559 0.149889
0.254857 0.328417 0.151318
0.287889 0.328493 0.153416
0.324041 0.329378 0.156532
0.358296 0.330414 0.159205
0.392269 0.334781 0.163702
0.426232 0.336264 0.168600
0.460409 0.338735 0.171074
0.500460 0.340930 0.176582
0.536516 0.345177 0.182178
0.000000 0.365223 0.159190
0.062165 0.364208 0.159777
0.085868 0.365998 0.159292
0.114212 0.365260 0.160435
0.150182 0.362927 0.159497
0.187738 0.363518 0.161110
0.222144 0.364571 0.162243
0.254802 0.363617 0.164527
0.289692 0.366693 0.167135
0.325828 0.367366 0.170177
0.361182 0.368243 0.172830
0.394649 0.371827 0.176744
0.428202 0.375943 0.181176
0.467650 0.377480 0.187415
0.505775 0.378738 0.188507
0.540587 0.381611 0.194901
0.043577 0.403073 0.172643
0.065664 0.403073 0.173275
0.085103 0.403743 0.173657
0.125965 0.403445 0.173957
0.156704 0.402027 0.173904
0.191370 0.400605 0.176671
0.225417 0.402687 0.179733
0.257868 0.404535 0.180973
0.293262 0.405808 0.183017
0.329010 0.406184 0.185711
0.363674 0.407714 0.188272
0.400846 0.412370 0.193578
0.435612 0.413386 0.194343
0.471104 0.416854 0.199724
0.507888 0.417589 0.205464
0.545622 0.422453 0.208234
0.048081 0.442884 0.192879
0.069335 0.442742 0.188875
0.095838 0.442734 0.192637
0.122750 0.442219 0.188596
0.153793 0.440864 0.189955
0.194670 0.442347 0.193243
0.230832 0.444486 0.195144
0.261852 0.447881 0.199435
0.295423 0.448001 0.198610
0.331248 0.446673 0.200540
0.371057 0.446167 0.204552
0.407152 0.449086 0.206735
0.444097 0.453156 0.212123
0.476602 0.455058 0.214266
0.517170 0.461755 0.224701
0.552288 0.465625 0.227491
0.053133 0.485180 0.209197
0.086017 0.480544 0.201977
0.106555 0.482988 0.209507
0.138433 0.484579 0.211272
0.166250 0.482313 0.210795
0.200086 0.483508 0.210176
0.237148 0.485642 0.213125
0.267568 0.486073 0.214160
0.299455 0.488615 0.215398
0.335910 0.489395 0.219548
0.375941 0.489983 0.220923
0.414352 0.493046 0.226757
0.451394 0.498490 0.231903
0.491830 0.501639 0.236865
0.530031 0.507999 0.243840
0.566364 0.508994 0.249308
0.066550 0.528325 0.230162
0.086678 0.527774 0.224653
0.105358 0.525563 0.223261
0.149198 0.525755 0.225359
0.180200 0.526368 0.226633
0.215649 0.529130 0.230463
0.244433 0.531124 0.232956
0.281405 0.532364 0.237279
0.312231 0.533934 0.240192
0.350652 0.535699 0.241997
0.389303 0.540477 0.247668
0.426085 0.540726 0.248603
0.460781 0.542516 0.252526
0.504410 0.545869 0.256370
0.540135 0.551603 0.269472
0.581750 0.554786 0.268232
0.089070 0.580034 0.254746
0.119898 0.576938 0.254521
0.147392 0.574908 0.252360
0.163649 0.577817 0.254332
0.191071 0.579985 0.252240
0.226638 0.579859 0.253037
0.257864 0.578871 0.254728
0.290060 0.579925 0.257645
0.320554 0.581469 0.260729
0.360832 0.583466 0.263958
0.399968 0.587744 0.268010
0.435911 0.589099 0.273491
0.470420 0.591402 0.277187
0.506808 0.596878 0.282571
0.554449 0.600813 0.286682
0.597606 0.606713 0.292816
0.000000 0.000000 0.111078
0.043581 0.008637 0.111666
0.083307 0.000000 0.110407
0.116514 0.000000 0.118590
0.161261 0.011182 0.125346
0.198416 0.029427 0.128657
0.229144 0.042685 0.129704
0.256409 0.048150 0.130937
0.289577 0.058004 0.135077
0.325157 0.058744 0.137930
0.356694 0.060184 0.138819
0.387442 0.066710 0.143139
0.420294 0.067773 0.144461
0.456082 0.073081 0.149328
0.487309 0.082035 0.155060
0.526403 0.077267 0.154097
0.000000 0.054684 0.114660
0.043261 0.059628 0.117468
0.080501 0.057168 0.120185
0.118294 0.056517 0.123886
0.158775 0.058227 0.127869
0.195239 0.063103 0.129676
0.226981 0.071166 0.132842
0.257450 0.076242 0.133402
0.289104 0.078930 0.134992
0.322521 0.080418 0.135241
0.355803 0.082680 0.137444
0.391146 0.085742 0.141875
0.423220 0.088525 0.146704
0.456376 0.095637 0.151947
0.490199 0.097443 0.153255
0.524250 0.097550 0.158767
0.000000 0.091595 0.121263
0.042700 0.091353 0.120845
0.074951 0.092074 0.124268
0.118024 0.093461 0.129251
0.156190 0.094381 0.128632
0.191997 0.097824 0.130947
0.223558 0.100389 0.132116
0.255302 0.101473 0.134120
0.290168 0.103923 0.136571
0.324558 0.105796 0.139012
0.354724 0.108510 0.141520
0.386231 0.111516 0.145784
0.420200 0.114872 0.147536
0.456025 0.111905 0.148572
0.492475 0.121600 0.157690
0.523590 0.123024 0.161423
0.000000 0.131703 0.130500
0.042210 0.131509 0.126631
0.070478 0.130986 0.130745
0.120476 0.128668 0.127379
0.155201 0.128533 0.128304
0.186719 0.129914 0.132697
0.219993 0.131244 0.135029
0.252912 0.131355 0.137521
0.287629 0.131355 0.139152
0.320321 0.132278 0.140366
0.353166 0.134823 0.143950
0.385238 0.137626 0.147395
0.420540 0.140918 0.149270
0.454252 0.144364 0.154177
0.489778 0.144943 0.159014
0.523883 0.145267 0.163373
0.000000 0.165454 0.133488
0.042149 0.163749 0.132914
0.069298 0.164619 0.135362
0.116258 0.160695 0.133193
0.151649 0.160203 0.133582
0.184996 0.162882 0.136802
0.218941 0.163252 0.137025
0.251927 0.163202 0.138565
0.286946 0.163254 0.140740
0.319225 0.162429 0.140919
0.353590 0.162901 0.146103
0.386949 0.165656 0.150300
0.422172 0.169317 0.154197
0.456061 0.173353 0.159750
0.488319 0.174655 0.163662
0.523898 0.175473 0.165287
0.000000 0.196190 0.137187
0.044005 0.196249 0.140195
0.077611 0.196645 0.137992
0.115788 0.193405 0.137439
0.150861 0.193380 0.139088
0.184379 0.193336 0.141320
0.216164 0.194131 0.143209
0.249625 0.194688 0.144525
0.285094 0.194828 0.146232
0.319222 0.195308 0.146843
0.352336 0.195952 0.148315
0.386456 0.198232 0.152846
0.421915 0.198274 0.154701
0.454871 0.201927 0.158758
0.490286 0.205035 0.168682
0.524868 0.207249 0.172701
0.000000 0.229091 0.146437
0.044371 0.228106 0.144089
0.072846 0.229833 0.144292
0.113266 0.225446 0.145610
0.148544 0.226101 0.145439
0.184215 0.226053 0.148393
0.217168 0.226283 0.148409
0.250383 0.227218 0.148736
0.284473 0.226771 0.151432
0.318435 0.226188 0.153404
0.352652 0.228170 0.156058
0.386463 0.230408 0.157599
0.421108 0.229716 0.161216
0.457271 0.231859 0.165037
0.491642 0.237653 0.171530
0.527723 0.238100 0.176069
0.000000 0.261080 0.154701
0.042053 0.259627 0.149896
0.067165 0.260331 0.152231
0.108487 0.258209 0.152209
0.146520 0.259234 0.153098
0.181449 0.258974 0.155990
0.216257 0.257948 0.153660
0.250370 0.258116 0.156497
0.284361 0.258342 0.157511
0.318063 0.258912 0.160109
0.352679 0.260320 0.163980
0.385575 0.261841 0.164537
0.420590 0.262231 0.168675
0.459747 0.265954 0.174540
0.493335 0.270536 0.179975
0.530574 0.272325 0.185770
0.000000 0.294075 0.163660
0.041813 0.293773 0.161394
0.064586 0.292494 0.162495
0.107226 0.292494 0.161157
0.145404 0.292965 0.161804
0.181387 0.293276 0.164841
0.214844 0.291253 0.163432
0.248503 0.291916 0.165443
0.284280 0.292745 0.167160
0.320060 0.293537 0.169641
0.353788 0.294184 0.171528
0.387072 0.297404 0.175692
0.423379 0.298388 0.177330
0.460504 0.301091 0.183515
0.496040 0.303665 0.189002
0.533905 0.307101 0.193673
0.000000 0.330488 0.172015
0.042170 0.328522 0.171665
0.067609 0.327351 0.171892
0.103315 0.326041 0.169829
0.142691 0.326777 0.171648
0.181467 0.328343 0.173647
0.218060 0.327559 0.174965
0.251917 0.328875 0.176707
0.287344 0.329677 0.178343
0.322211 0.329930 0.180111
0.356372 0.329610 0.181894
0.390904 0.334093 0.188163
0.426870 0.334749 0.191048
0.463152 0.336565 0.194512
0.498919 0.340774 0.199540
0.538606 0.345481 0.205228
0.000000 0.366745 0.185934
0.042475 0.364446 0.183354
0.072497 0.365736 0.184739
0.114036 0.363476 0.183921
0.143591 0.363503 0.184235
0.183645 0.364750 0.184406
0.219815 0.365801 0.187396
0.253687 0.365449 0.188572
0.290334 0.367068 0.192083
0.325308 0.366670 0.191435
0.360871 0.367245 0.195502
0.395075 0.371435 0.200357
0.428814 0.374998 0.206286
0.466725 0.375534 0.207805
0.503066 0.378794 0.211791
0.539399 0.380891 0.214690
0.000000 0.405421 0.198071
0.042212 0.405143 0.197900
0.070561 0.405158 0.201550
0.119860 0.402559 0.198963
0.151942 0.401402 0.196528
0.186879 0.402991 0.198187
0.220430 0.403643 0.201208
0.257520 0.403502 0.201998
0.295841 0.405016 0.205278
0.329187 0.406786 0.208859
0.364453 0.406974 0.211094
0.400120 0.410592 0.212762
0.434985 0.412940 0.217494
0.468274 0.414638 0.222561
0.507329 0.417551 0.224218
0.540894 0.419875 0.228622
0.000000 0.445259 0.212777
0.042462 0.443341 0.212946
0.071834 0.443137 0.217002
0.113455 0.442181 0.212903
0.154842 0.441415 0.214210
0.189901 0.444984 0.217910
0.225459 0.445103 0.217320
0.261020 0.446233 0.221171
0.295606 0.447789 0.222099
0.330612 0.446889 0.220986
0.369314 0.447467 0.225644
0.407235 0.452180 0.230645
0.442397 0.453912 0.235720
0.475702 0.456776 0.236898
0.516870 0.461862 0.246667
0.551192 0.465158 0.247428
0.018313 0.484895 0.225514
0.047541 0.485022 0.225832
0.099828 0.482988 0.227289
0.130255 0.484690 0.232681
0.163083 0.482793 0.231922
0.196359 0.484713 0.230740
0.236334 0.487781 0.234286
0.268490 0.487358 0.235796
0.300608 0.487565 0.237978
0.338028 0.489677 0.242237
0.370726 0.491373 0.242097
0.411823 0.495371 0.249450
0.452736 0.498920 0.257445
0.489980 0.500266 0.260458
0.529190 0.507571 0.269436
0.566357 0.511383 0.269875
0.054551 0.528272 0.248695
0.060387 0.528306 0.251186
0.085514 0.528122 0.252570
0.142341 0.528841 0.249180
0.179391 0.530254 0.248893
0.204990 0.529414 0.251388
0.236976 0.531236 0.255439
0.274350 0.532463 0.256830
0.313099 0.532708 0.259000
0.350843 0.534635 0.264029
0.384571 0.539005 0.271651
0.420195 0.542155 0.270363
0.457979 0.543116 0.273935
0.499176 0.547962 0.277931
0.539692 0.551767 0.286206
0.577003 0.555296 0.287483
0.098365 0.579654 0.275042
0.113501 0.577277 0.275088
0.144045 0.579707 0.275571
0.163229 0.580040 0.278701
0.192615 0.579405 0.278612
0.220696 0.577393 0.276686
0.253641 0.578146 0.275536
0.290622 0.579899 0.279956
0.325739 0.581660 0.283067
0.359370 0.581980 0.283597
0.395655 0.584458 0.284666
0.434879 0.590068 0.292831
0.470594 0.591535 0.294161
0.508865 0.594492 0.296032
0.554256 0.603182 0.308357
0.594848 0.606745 0.316281
0.000000 0.010527 0.150012
0.042825 0.020187 0.155145
0.075455 0.010527 0.155602
0.113069 0.009591 0.158691
0.154032 0.006067 0.160209
0.192083 0.028544 0.164302
0.224337 0.048081 0.167049
0.254159 0.054841 0.169333
0.287009 0.060242 0.171771
0.320753 0.061970 0.173694
0.353106 0.061970 0.172703
0.386145 0.069475 0.178461
0.419236 0.066461 0.178186
0.453178 0.073255 0.182478
0.485191 0.081534 0.186459
0.523269 0.079745 0.193513
0.000000 0.058610 0.154958
0.042222 0.059714 0.158234
0.069433 0.058988 0.158599
0.113398 0.053547 0.161562
0.155111 0.059810 0.164620
0.189030 0.062979 0.165758
0.220707 0.071550 0.166086
0.253613 0.078754 0.170003
0.284936 0.078851 0.171185
0.318547 0.081513 0.173445
0.352340 0.085110 0.173389
0.387538 0.087983 0.179753
0.419594 0.089119 0.182640
0.453337 0.096436 0.186124
0.487613 0.097689 0.186323
0.525309 0.098606 0.191779
0.000000 0.091088 0.160444
0.041642 0.090643 0.161743
0.063313 0.093522 0.161958
0.111223 0.092008 0.163937
0.152412 0.094662 0.166826
0.186217 0.097333 0.167710
0.217069 0.100164 0.167877
0.250025 0.103249 0.170806
0.285828 0.104608 0.171331
0.320020 0.107005 0.173368
0.352400 0.107692 0.177878
0.384555 0.110363 0.178464
0.419140 0.116213 0.182908
0.455203 0.116201 0.186106
0.490346 0.118005 0.189228
0.521356 0.123377 0.191431
0.000000 0.131222 0.162569
0.041819 0.132789 0.164072
0.064647 0.129587 0.164729
0.107788 0.130738 0.168333
0.147342 0.130781 0.168332
0.181894 0.131136 0.169190
0.216005 0.131399 0.172918
0.248174 0.132317 0.174924
0.282936 0.132560 0.175227
0.317019 0.132672 0.175764
0.350705 0.135246 0.177886
0.384916 0.136255 0.181738
0.421409 0.138501 0.185705
0.452423 0.143202 0.188740
0.489504 0.145768 0.192961
0.523773 0.148157 0.194274
0.000000 0.163487 0.168221
0.042560 0.163520 0.167167
0.071852 0.162091 0.167822
0.106127 0.162818 0.168919
0.146190 0.162566 0.170259
0.181806 0.162660 0.171439
0.215703 0.163689 0.174435
0.248128 0.162779 0.175590
0.282659 0.163101 0.177625
0.317459 0.162926 0.179137
0.351567 0.163259 0.178813
0.384033 0.165125 0.182805
0.418621 0.165920 0.187088
0.454924 0.170213 0.191460
0.487573 0.176769 0.196604
0.523444 0.177968 0.202217
0.000000 0.194958 0.172124
0.042603 0.195583 0.172251
0.071846 0.195785 0.173874
0.103768 0.193644 0.173389
0.147095 0.193502 0.175108
0.180621 0.192966 0.174757
0.213378 0.193996 0.175764
0.247885 0.193681 0.175995
0.281655 0.194384 0.179151
0.316021 0.195333 0.181602
0.349928 0.196102 0.183178
0.384045 0.197393 0.187966
0.417448 0.197948 0.189508
0.452555 0.199546 0.191540
0.489490 0.206395 0.197955
0.524896 0.209939 0.204877
0.000000 0.228386 0.177470
0.042222 0.227790 0.176064
0.067634 0.227539 0.178969
0.100827 0.226333 0.181011
0.142742 0.225059 0.179576
0.177073 0.225010 0.178200
0.213605 0.226200 0.180547
0.247657 0.227674 0.181852
0.281804 0.228106 0.184364
0.315524 0.228563 0.187118
0.350141 0.228387 0.188265
0.384299 0.230203 0.193445
0.417178 0.231091 0.195664
0.453963 0.233266 0.195792
0.491146 0.238244 0.202032
0.525655 0.239955 0.207955
0.000000 0.262097 0.183182
0.041949 0.260998 0.183542
0.064424 0.259328 0.183205
0.097392 0.259020 0.184356
0.138392 0.258458 0.184754
0.174615 0.259631 0.185645
0.212461 0.258056 0.185762
0.248133 0.259254 0.186883
