example_ofxGpuLutCube/bin/data/ofxGpuLutCube/LUT/U4 (twilight look).cube
LUT_3D_SIZE 6
0.000000 0.000000 0.000000
0.126109 0.000000 0.040975
0.230942 0.038531 0.051104
0.328737 0.057609 0.066817
0.423852 0.068010 0.084897
0.526863 0.076890 0.102558
0.000000 0.131779 0.049057
0.128389 0.130654 0.053493
0.226881 0.130311 0.058493
0.326385 0.130311 0.075198
0.422745 0.139983 0.096646
0.529226 0.147129 0.114388
0.032137 0.226283 0.087194
0.123379 0.225955 0.090051
0.221288 0.226283 0.095741
0.318987 0.224538 0.098002
0.422982 0.231631 0.115244
0.531552 0.239616 0.129136
0.030041 0.325815 0.123530
0.116576 0.328160 0.123411
0.222443 0.328251 0.131823
0.324864 0.330038 0.137490
0.427624 0.334827 0.145704
0.539266 0.345713 0.162215
0.063802 0.442688 0.170281
0.126676 0.439872 0.168099
0.230797 0.445071 0.176600
0.335071 0.445955 0.183142
0.446871 0.453320 0.193620
0.554722 0.467494 0.211672
0.110686 0.577133 0.234134
0.172576 0.579456 0.236918
0.260980 0.578902 0.237026
0.360292 0.580100 0.241116
0.472752 0.591352 0.255053
0.591969 0.606702 0.277727
0.000000 0.010527 0.150012
0.113069 0.009591 0.158691
0.224337 0.048081 0.167049
0.320753 0.061970 0.173694
0.419236 0.066461 0.178186
0.523269 0.079745 0.193513
0.000000 0.131222 0.162569
0.107788 0.130738 0.168333
0.216005 0.131399 0.172918
0.317019 0.132672 0.175764
0.421409 0.138501 0.185705
0.523773 0.148157 0.194274
0.000000 0.228386 0.177470
0.100827 0.226333 0.181011
0.213605 0.226200 0.180547
0.315524 0.228563 0.187118
0.417178 0.231091 0.195664
0.525655 0.239955 0.207955
0.000000 0.329905 0.200967
0.087191 0.327601 0.201827
0.210275 0.327711 0.205227
0.318435 0.329505 0.209762
0.423480 0.333823 0.218132
0.534316 0.344315 0.230601
0.000000 0.443179 0.241279
0.096693 0.442907 0.240102
0.219795 0.445707 0.243574
0.330716 0.446435 0.249504
0.440602 0.453622 0.259815
0.550804 0.465610 0.278362
0.066534 0.577133 0.295079
0.151017 0.580035 0.302483
0.247508 0.577387 0.300901
0.359770 0.585832 0.311555
0.471854 0.589976 0.320234
0.594836 0.606765 0.339591
0.000000 0.026529 0.271646
0.088535 0.031525 0.279474
0.205222 0.052306 0.278074
0.309271 0.064289 0.280990
0.412858 0.077180 0.293973
0.513826 0.086596 0.303748
0.000000 0.131900 0.283448
0.076220 0.132735 0.281493
0.197335 0.133901 0.283297
0.305370 0.135982 0.285436
0.411084 0.141676 0.297639
0.514755 0.153380 0.304704
0.000000 0.229183 0.285094
0.075803 0.227201 0.285761
0.190062 0.229127 0.290234
0.300449 0.229427 0.298213
0.409613 0.232839 0.304294
0.519246 0.242859 0.316165
0.000000 0.328737 0.304965
0.073790 0.328554 0.303667
0.182125 0.330422 0.308583
0.305263 0.331614 0.313496
0.411951 0.335997 0.319277
0.529294 0.345632 0.333653
0.000000 0.442688 0.332171
0.075339 0.443973 0.337273
0.184245 0.446268 0.340861
0.312732 0.448753 0.344481
0.428341 0.451612 0.353240
0.541393 0.465143 0.368154
0.000000 0.580058 0.391145
0.092119 0.580070 0.387728
0.225726 0.581639 0.393015
0.346088 0.587088 0.401260
0.458329 0.591856 0.411040
0.585348 0.606741 0.428148
0.000000 0.038531 0.391069
0.073658 0.051904 0.393274
0.162432 0.062459 0.394605
0.289599 0.071216 0.398753
0.397743 0.079493 0.400019
0.506116 0.093409 0.412851
0.000000 0.134966 0.394458
0.073658 0.135257 0.393290
0.150009 0.138840 0.399130
0.285166 0.139765 0.401278
0.396593 0.143807 0.405534
0.504656 0.154873 0.415549
0.000000 0.228151 0.401909
0.073658 0.228958 0.401525
0.134838 0.231091 0.403876
0.278398 0.231182 0.406120
0.396788 0.234987 0.413520
0.507330 0.244920 0.427361
0.000000 0.331208 0.411706
0.073658 0.330716 0.411290
0.136964 0.330488 0.416051
0.279470 0.333872 0.423121
0.395703 0.339281 0.436897
0.516000 0.348543 0.449301
0.000000 0.445464 0.444391
0.073658 0.447539 0.448059
0.136695 0.448182 0.448384
0.289999 0.450651 0.453766
0.414075 0.457849 0.464924
0.531775 0.470110 0.480227
0.000000 0.578362 0.492491
0.073658 0.580485 0.495598
0.175729 0.582850 0.499207
0.314716 0.589572 0.505626
0.447613 0.595852 0.518635
0.568206 0.608515 0.531451
0.000000 0.063192 0.512507
0.073658 0.068010 0.508793
0.116673 0.074499 0.513456
0.252048 0.078452 0.513209
0.376874 0.085243 0.518439
0.486593 0.094571 0.528448
0.000000 0.139641 0.512266
0.073658 0.141086 0.513031
0.116937 0.143528 0.516257
0.246749 0.145840 0.516083
0.374701 0.151538 0.522248
0.494159 0.161173 0.534122
0.000000 0.233683 0.520671
0.073658 0.232285 0.518024
0.116216 0.233899 0.520580
0.232481 0.235687 0.523354
0.371180 0.240298 0.532156
0.493475 0.246490 0.539851
0.000000 0.333409 0.530251
0.073658 0.332484 0.533084
0.116216 0.334118 0.534850
0.227063 0.338610 0.541143
0.375003 0.342857 0.549641
0.499177 0.352399 0.561120
0.000000 0.448520 0.554277
0.073658 0.448718 0.554813
0.116216 0.450275 0.560054
0.246812 0.453285 0.565241
0.390273 0.459675 0.578140
0.514698 0.473888 0.601344
0.000000 0.583036 0.610710
0.073658 0.581193 0.607609
0.118011 0.584274 0.611980
0.274433 0.591982 0.620522
0.418241 0.602132 0.637802
0.550943 0.612098 0.643578
0.000000 0.073919 0.624738
0.073658 0.082549 0.630052
0.116216 0.082035 0.628787
0.167564 0.087194 0.630672
0.343283 0.095722 0.641309
0.470663 0.110938 0.648376
0.000000 0.144909 0.627736
0.073658 0.148511 0.631855
0.116216 0.148525 0.631134
0.173226 0.153662 0.632932
0.344917 0.157088 0.639698
0.475313 0.167103 0.649651
0.000000 0.233846 0.633019
0.073658 0.236323 0.634897
0.116216 0.239232 0.638947
0.158822 0.242171 0.642255
0.343034 0.244300 0.648726
0.472361 0.255857 0.662578
0.000000 0.335201 0.649664
0.073658 0.336618 0.649581
0.116216 0.339533 0.652138
0.158790 0.343282 0.659908
0.336381 0.348241 0.666312
0.479516 0.355702 0.678718
0.000000 0.452076 0.679869
0.073658 0.449755 0.679311
0.116216 0.453074 0.679097
0.178331 0.456125 0.688368
0.346508 0.465281 0.698711
0.500134 0.478084 0.714899
0.000000 0.588950 0.722544
0.073658 0.588371 0.719668
0.116216 0.590248 0.729751
0.226523 0.594916 0.733390
0.386173 0.606181 0.750563
0.532624 0.618579 0.769888
