example_ofxGpuLutCube/bin/data/ofxGpuLutCube/LUT/U40 (hard sunset fade).cube
LUT_3D_SIZE 6
0.000000 0.003174 0.002289
0.041535 0.008698 0.005249
0.309453 0.000000 0.002869
0.677119 0.000000 0.000000
0.878538 0.000000 0.000000
0.981384 0.000000 0.000000
0.000000 0.055207 0.024689
0.037751 0.053376 0.026398
0.374487 0.027375 0.000000
0.697322 0.000000 0.000000
0.878691 0.000000 0.000000
0.974534 0.139614 0.000000
0.000000 0.317845 0.124361
0.043793 0.314946 0.109407
0.338750 0.294224 0.138247
0.667475 0.358831 0.000000
0.861021 0.380926 0.000000
0.951351 0.414616 0.000000
0.314641 0.590845 0.392981
0.327459 0.589166 0.377844
0.423682 0.579614 0.377203
0.587610 0.560540 0.402991
0.765377 0.593530 0.384161
0.902084 0.602086 0.296609
0.555413 0.705379 0.580621
0.563195 0.706630 0.579889
0.585534 0.707668 0.579004
0.651698 0.704005 0.591974
0.725307 0.699794 0.610498
0.803737 0.711783 0.617059
0.707398 0.780934 0.705947
0.702131 0.777752 0.699151
0.707732 0.778850 0.697673
0.726836 0.780507 0.703229
0.768311 0.782664 0.716462
0.810045 0.788584 0.735119
0.000000 0.014893 0.035859
0.044373 0.015503 0.037171
0.348791 0.000000 0.033417
0.691951 0.000000 0.007568
0.879637 0.000000 0.000000
0.979495 0.000000 0.000000
0.000000 0.083223 0.072480
0.091646 0.095735 0.078828
0.404608 0.052155 0.062013
0.706874 0.000000 0.008667
0.877348 0.008515 0.000000
0.972640 0.196086 0.000000
0.032105 0.356237 0.203922
0.212802 0.365057 0.219944
0.388098 0.346746 0.226108
0.690394 0.402075 0.120485
0.854856 0.414099 0.002930
0.948818 0.431427 0.000000
0.365423 0.602564 0.442664
0.408820 0.602533 0.446326
0.457984 0.595544 0.432074
0.601770 0.577722 0.450233
0.768368 0.607019 0.431678
0.899647 0.610642 0.354400
0.581353 0.710262 0.602838
0.590936 0.710445 0.603052
0.604120 0.711666 0.597528
0.659449 0.708095 0.607141
0.728145 0.703456 0.622187
0.806219 0.716243 0.626880
0.713696 0.782617 0.712632
0.709167 0.779682 0.706483
0.714214 0.780746 0.704637
0.730396 0.782218 0.707980
0.769176 0.783861 0.719538
0.810786 0.789482 0.737287
0.000000 0.045502 0.239933
0.127474 0.032258 0.246372
0.377386 0.000000 0.231540
0.696315 0.000000 0.239902
0.874754 0.000000 0.233524
0.963507 0.245506 0.213567
0.068269 0.186984 0.313481
0.203708 0.176730 0.316869
0.432959 0.144503 0.295781
0.707118 0.157046 0.292607
0.861570 0.263951 0.282170
0.953635 0.329447 0.241205
0.159518 0.434760 0.407782
0.288304 0.442176 0.411231
0.478096 0.457649 0.418616
0.692653 0.468360 0.401373
0.829801 0.482856 0.381537
0.924364 0.494004 0.352700
0.403418 0.627344 0.522118
0.457282 0.627863 0.528893
0.559014 0.629023 0.545953
0.634638 0.616388 0.544182
0.778317 0.636469 0.524102
0.882545 0.634362 0.493884
0.590051 0.718990 0.628077
0.610925 0.719539 0.633600
0.652583 0.721126 0.644404
0.675959 0.718990 0.640803
0.735866 0.712947 0.649348
0.813447 0.725788 0.647515
0.709639 0.786681 0.718672
0.712101 0.783963 0.716661
0.727667 0.784513 0.720522
0.738017 0.786530 0.719299
0.771427 0.787809 0.728258
0.813628 0.792977 0.744272
0.181674 0.176425 0.560327
0.308721 0.169375 0.559167
0.526238 0.117922 0.553246
0.689143 0.160647 0.522484
0.820493 0.357885 0.515038
0.912897 0.444709 0.517511
0.305577 0.346563 0.581415
0.379889 0.338537 0.579339
0.541741 0.308324 0.572198
0.687007 0.322484 0.543694
0.809628 0.436591 0.536950
0.902663 0.485023 0.531623
0.432929 0.554620 0.609552
0.482521 0.561944 0.610468
0.563287 0.548913 0.606104
0.675685 0.531395 0.587091
0.790402 0.563134 0.583642
0.878526 0.584595 0.581301
0.518791 0.659480 0.636347
0.546807 0.660212 0.636683
0.608087 0.662135 0.637201
0.679133 0.664118 0.636744
0.779416 0.663935 0.627527
0.864318 0.659419 0.609881
0.606195 0.734279 0.672419
0.622004 0.734615 0.674525
0.661341 0.735378 0.680018
0.714778 0.736385 0.690394
0.749355 0.728908 0.687404
0.828882 0.738861 0.676152
0.693009 0.794198 0.728985
0.693676 0.791851 0.725819
0.721525 0.792211 0.733115
0.755397 0.794206 0.743151
0.773488 0.795149 0.742858
0.819057 0.799438 0.756465
0.503319 0.469978 0.712245
0.536675 0.468940 0.711208
0.619074 0.460822 0.708034
0.736538 0.433906 0.701564
0.810178 0.481025 0.676387
0.853755 0.590067 0.665433
0.544335 0.549157 0.712612
0.567163 0.546014 0.711757
0.628717 0.534569 0.708980
0.727871 0.506767 0.702968
0.800259 0.531518 0.680995
0.846539 0.605905 0.667963
0.613642 0.651728 0.718502
0.626917 0.650660 0.717830
0.659144 0.643610 0.715297
0.718013 0.622278 0.709438
0.782162 0.618494 0.692744
0.838709 0.654636 0.687682
0.658930 0.712612 0.729274
0.669368 0.713802 0.729488
0.696040 0.717037 0.730098
0.724758 0.707759 0.725734
0.772427 0.692531 0.712001
0.837779 0.702333 0.709538
0.680415 0.753689 0.739254
0.688167 0.754421 0.739834
0.709224 0.756466 0.741451
0.738888 0.757870 0.741909
0.773770 0.756649 0.738888
0.841034 0.751487 0.726765
0.709264 0.805210 0.764760
0.709803 0.803809 0.762418
0.722832 0.805360 0.763270
0.748470 0.806976 0.765692
0.788950 0.809403 0.772487
0.829686 0.811833 0.777593
0.703964 0.686261 0.789308
0.711000 0.685402 0.789182
0.731388 0.681849 0.788567
0.768202 0.673112 0.787273
0.826082 0.653133 0.784602
0.859769 0.670671 0.769543
0.713049 0.702497 0.789944
0.718909 0.701335 0.789790
0.735668 0.696716 0.788903
0.766357 0.684167 0.786069
0.819607 0.659007 0.781347
0.854480 0.668038 0.764590
0.728768 0.733328 0.793149
0.733895 0.733000 0.792966
0.745653 0.728442 0.791895
0.769142 0.718035 0.789475
0.812709 0.696385 0.784943
0.849975 0.698261 0.771645
0.743871 0.767755 0.799198
0.746252 0.766494 0.799139
0.752792 0.761875 0.798893
0.772900 0.756476 0.797296
0.806067 0.740315 0.792848
0.846017 0.734620 0.782061
0.751457 0.795522 0.808586
0.754641 0.795797 0.808829
0.764367 0.796743 0.809923
0.782249 0.798336 0.811931
0.805912 0.790768 0.811583
0.849376 0.777322 0.801137
0.752242 0.830720 0.821930
0.753803 0.830262 0.821291
0.761063 0.831366 0.822123
0.775496 0.833748 0.823987
0.802011 0.838767 0.828531
0.862396 0.850085 0.840646
