example_ofxGpuLutCube/bin/data/ofxGpuLutCube/LUT/U40 (hard sunset fade).cube
LUT_3D_SIZE 16
0.000000 0.003174 0.002289
0.004150 0.003906 0.002991
0.014588 0.005859 0.004334
0.041535 0.008698 0.005249
0.094575 0.007630 0.005707
0.184451 0.000000 0.005402
0.309453 0.000000 0.002869
0.446876 0.000000 0.000000
0.573693 0.000000 0.000000
0.677119 0.000000 0.000000
0.759121 0.000000 0.000000
0.825284 0.000000 0.000000
0.878538 0.000000 0.000000
0.920226 0.000000 0.000000
0.954192 0.000000 0.000000
0.981384 0.000000 0.000000
0.000000 0.012268 0.008423
0.000000 0.012482 0.008789
0.012543 0.015625 0.006256
0.046662 0.017578 0.005768
0.103334 0.016541 0.005982
0.196628 0.000000 0.004944
0.321721 0.000000 0.001312
0.456428 0.000000 0.000000
0.580255 0.000000 0.000000
0.681239 0.000000 0.000000
0.761349 0.000000 0.000000
0.826566 0.000000 0.000000
0.878965 0.000000 0.000000
0.919982 0.000000 0.000000
0.953491 0.000000 0.000000
0.980320 0.000000 0.000000
0.000000 0.026673 0.014771
0.000000 0.026886 0.014679
0.006928 0.026215 0.015961
0.040986 0.031464 0.012757
0.121309 0.034546 0.005951
0.218479 0.017914 0.002716
0.342565 0.000000 0.000000
0.473152 0.000000 0.000000
0.591608 0.000000 0.000000
0.688014 0.000000 0.000000
0.765133 0.000000 0.000000
0.828428 0.000000 0.000000
0.879179 0.000000 0.000000
0.919219 0.000000 0.000000
0.951904 0.000000 0.000000
0.978189 0.000000 0.000000
0.000000 0.055207 0.024689
0.000000 0.055482 0.022797
0.009613 0.054932 0.023987
0.037751 0.053376 0.026398
0.099855 0.061707 0.021393
0.229252 0.064942 0.006500
0.374487 0.027375 0.000000
0.497353 0.000000 0.000000
0.607172 0.000000 0.000000
0.697322 0.000000 0.000000
0.770077 0.000000 0.000000
0.830289 0.000000 0.000000
0.878691 0.000000 0.000000
0.917235 0.000000 0.000000
0.949004 0.000000 0.000000
0.974534 0.139614 0.000000
0.000000 0.113252 0.041779
0.000000 0.113375 0.039063
0.000000 0.113100 0.037537
0.050355 0.110842 0.041108
0.108614 0.107393 0.046693
0.194614 0.115175 0.039338
0.354772 0.123659 0.003418
0.513268 0.111421 0.000000
0.624079 0.088777 0.000000
0.706142 0.073671 0.000000
0.773495 0.076600 0.000000
0.829984 0.090028 0.000000
0.875731 0.116518 0.000000
0.912840 0.152499 0.000000
0.943603 0.196933 0.000000
0.968589 0.247570 0.000000
0.000000 0.203311 0.073091
0.000000 0.203159 0.069123
0.000000 0.202853 0.062898
0.032227 0.201358 0.066773
0.143893 0.196262 0.073091
0.219425 0.188937 0.082002
0.308934 0.193301 0.079500
0.470161 0.220218 0.011536
0.606378 0.235599 0.000000
0.710964 0.247745 0.000000
0.773922 0.250858 0.000000
0.826780 0.258885 0.000000
0.870085 0.269291 0.000000
0.905974 0.284550 0.000000
0.936095 0.307012 0.000000
0.960718 0.336771 0.000000
0.000000 0.317845 0.124361
0.000000 0.317510 0.119905
0.000000 0.316838 0.111696
0.043793 0.314946 0.109407
0.155764 0.310765 0.116091
0.261173 0.302770 0.125856
0.338750 0.294224 0.138247
0.413092 0.292699 0.146700
0.555779 0.334478 0.075868
0.667475 0.358831 0.000000
0.755520 0.373388 0.000000
0.819059 0.378943 0.000000
0.861021 0.380926 0.000000
0.896971 0.385260 0.000000
0.926940 0.396307 0.000000
0.951351 0.414616 0.000000
0.028107 0.432746 0.205112
0.045197 0.432074 0.200565
0.066987 0.431220 0.192172
0.100832 0.429908 0.181369
0.182467 0.425971 0.187045
0.281865 0.419348 0.195010
0.372656 0.410864 0.206546
0.441260 0.402075 0.219944
0.494240 0.392584 0.239750
0.614221 0.433692 0.181979
0.711116 0.457649 0.114382
0.787106 0.469734 0.000000
0.845029 0.472419 0.000000
0.885222 0.471870 0.000000
0.916289 0.473610 0.000000
0.940308 0.481254 0.000000
0.194339 0.522881 0.300542
0.199191 0.522484 0.297154
0.205997 0.521569 0.289769
0.218082 0.520439 0.279637
0.255467 0.517479 0.276707
0.306828 0.512993 0.281407
0.395758 0.505303 0.289830
0.466438 0.497505 0.300420
0.521386 0.489754 0.312200
0.554711 0.474922 0.337407
0.659968 0.512505 0.297520
0.743618 0.533684 0.258061
0.807095 0.542992 0.215610
0.858305 0.545586 0.162783
0.901335 0.543450 0.079561
0.928647 0.544085 0.093579
0.314641 0.590845 0.392981
0.316747 0.590570 0.390112
0.321050 0.590143 0.385595
0.327459 0.589166 0.377844
0.339605 0.587671 0.369207
0.375647 0.584314 0.372595
0.423682 0.579614 0.377203
0.489326 0.573053 0.384588
0.543542 0.566674 0.393317
0.587610 0.560540 0.402991
0.613581 0.547662 0.423651
0.696773 0.576257 0.405432
0.765377 0.593530 0.384161
0.819425 0.602350 0.363287
0.864439 0.606104 0.339239
0.902084 0.602086 0.296609
0.415412 0.644678 0.473854
0.416907 0.644526 0.472358
0.419287 0.644129 0.469093
0.423407 0.643580 0.464302
0.428565 0.642725 0.457252
0.446876 0.640711 0.455665
0.472999 0.637751 0.458198
0.517754 0.633265 0.462654
0.566827 0.628016 0.468666
0.609003 0.623072 0.475746
0.644404 0.618463 0.483558
0.664271 0.607507 0.498909
0.724636 0.627008 0.495491
0.780453 0.641047 0.483345
0.825681 0.647974 0.469947
0.863750 0.649485 0.451457
0.506676 0.684382 0.543328
0.507530 0.684230 0.542138
0.508659 0.683925 0.540063
0.509972 0.683162 0.536187
0.512047 0.682216 0.530907
0.517327 0.680873 0.525719
0.533806 0.678401 0.526513
0.551904 0.675624 0.527642
0.590631 0.671351 0.531304
0.625727 0.666712 0.535088
0.656916 0.662226 0.539452
0.683650 0.657893 0.544274
0.698146 0.648341 0.554894
0.742214 0.661585 0.556970
0.790219 0.675502 0.551690
0.829586 0.684626 0.548427
0.555413 0.705379 0.580621
0.556451 0.705440 0.580163
0.559564 0.706111 0.580438
0.563195 0.706630 0.579889
0.568292 0.707301 0.579126
0.573266 0.707698 0.577081
0.585534 0.707668 0.579004
0.600488 0.706905 0.582055
0.621973 0.706020 0.586725
0.651698 0.704005 0.591974
0.679408 0.702541 0.598108
0.703853 0.700862 0.604028
0.725307 0.699794 0.610498
0.736751 0.693538 0.618830
0.767300 0.702235 0.623041
0.803737 0.711783 0.617059
0.624811 0.736294 0.634882
0.618524 0.733364 0.629206
0.616449 0.732143 0.626184
0.617273 0.731899 0.624628
0.620356 0.732326 0.623835
0.623651 0.732631 0.622400
0.629053 0.732967 0.621698
0.640162 0.732662 0.624323
0.652583 0.732570 0.627619
0.671962 0.731350 0.630915
0.694820 0.730190 0.635462
0.715663 0.728725 0.639582
0.734890 0.727657 0.644404
0.751278 0.725948 0.648066
0.759701 0.719814 0.653193
0.782239 0.725916 0.658933
0.668605 0.759060 0.671595
0.663844 0.756771 0.667170
0.661555 0.755489 0.664332
0.661494 0.755093 0.662715
0.663294 0.755215 0.661860
0.665492 0.755489 0.660761
0.668849 0.756069 0.659998
0.675715 0.756008 0.661036
0.684749 0.755978 0.663478
0.693874 0.755642 0.665583
0.712337 0.754788 0.669154
0.730220 0.753994 0.672938
0.747555 0.753780 0.677699
0.763058 0.753292 0.682002
0.776699 0.752651 0.685969
0.783075 0.747273 0.689232
0.707398 0.780934 0.705947
0.703846 0.779038 0.702459
0.702192 0.778028 0.700316
0.702131 0.777752 0.699151
0.703387 0.777905 0.698538
0.705191 0.778240 0.697984
0.707732 0.778850 0.697673
0.711517 0.779393 0.697806
0.718920 0.779906 0.700398
0.726836 0.780507 0.703229
0.737776 0.781164 0.706859
0.752941 0.781518 0.711067
0.768311 0.782664 0.716462
0.782757 0.783898 0.721883
0.796821 0.785885 0.728147
0.810045 0.788584 0.735119
0.000000 0.005707 0.010224
0.002411 0.006134 0.010071
0.013214 0.008118 0.010071
0.044862 0.009522 0.009705
0.100191 0.010834 0.010163
0.193179 0.000000 0.007996
0.318547 0.000000 0.003235
0.453834 0.000000 0.000000
0.578302 0.000000 0.000000
0.679805 0.000000 0.000000
0.760555 0.000000 0.000000
0.825864 0.000000 0.000000
0.878538 0.000000 0.000000
0.919890 0.000000 0.000000
0.953704 0.000000 0.000000
0.980805 0.000000 0.000000
0.000000 0.014496 0.013214
0.000275 0.016266 0.014282
0.015167 0.017762 0.013794
0.049866 0.019654 0.012848
0.109499 0.018524 0.011505
0.205081 0.000000 0.009064
0.329992 0.000000 0.003632
0.463020 0.000000 0.000000
0.584253 0.000000 0.000000
0.683497 0.000000 0.000000
0.762539 0.000000 0.000000
0.827054 0.000000 0.000000
0.878874 0.000000 0.000000
0.919585 0.000000 0.000000
0.952972 0.000000 0.000000
0.979770 0.000000 0.000000
0.000000 0.030457 0.020111
0.001953 0.031983 0.021149
0.011933 0.031281 0.021942
0.054597 0.036896 0.018097
0.128054 0.035615 0.014252
0.226413 0.018128 0.010254
0.350378 0.000000 0.003082
0.478950 0.000000 0.000000
0.595087 0.000000 0.000000
0.689906 0.000000 0.000000
0.766079 0.000000 0.000000
0.828611 0.000000 0.000000
0.878935 0.000000 0.000000
0.918761 0.000000 0.000000
0.951415 0.000000 0.000000
0.977670 0.000000 0.000000
0.000000 0.061677 0.032074
0.005493 0.063386 0.033021
0.014618 0.063661 0.031830
0.048310 0.061738 0.034791
0.118715 0.070741 0.027924
0.249760 0.069490 0.011963
0.380591 0.029877 0.000000
0.502464 0.000000 0.000000
0.610468 0.000000 0.000000
0.699031 0.000000 0.000000
0.770840 0.000000 0.000000
0.830259 0.000000 0.000000
0.878264 0.000000 0.000000
0.916686 0.000000 0.000000
0.948425 0.047120 0.000000
0.973985 0.154980 0.000000
0.000000 0.122194 0.054414
0.000000 0.124086 0.054475
0.007141 0.124025 0.049805
0.062257 0.122164 0.053132
0.123507 0.117983 0.058625
0.214572 0.126772 0.049958
0.372534 0.133425 0.011933
0.526207 0.120241 0.000000
0.626795 0.099794 0.000000
0.707942 0.088502 0.000000
0.774472 0.093324 0.000000
0.830167 0.113558 0.000000
0.875395 0.138460 0.000000
0.912352 0.169162 0.000000
0.943175 0.208225 0.000000
0.968162 0.255145 0.000000
0.000000 0.213016 0.089815
0.000000 0.213901 0.088350
0.000702 0.213993 0.081331
0.063050 0.212650 0.081819
0.158389 0.207401 0.088045
0.233585 0.199893 0.096223
0.325414 0.206363 0.091920
0.482521 0.233005 0.027100
0.613947 0.247501 0.000000
0.711635 0.256352 0.000000
0.773953 0.260136 0.000000
0.826413 0.268315 0.000000
0.869474 0.278538 0.000000
0.905669 0.291905 0.000000
0.935790 0.312718 0.000000
0.960444 0.341058 0.000000
0.000000 0.327520 0.146700
0.004395 0.327306 0.142336
0.027405 0.326665 0.134066
0.082704 0.325322 0.127504
0.170016 0.320958 0.133303
0.273014 0.313268 0.143099
0.349126 0.304448 0.154513
0.424445 0.305364 0.160800
0.563043 0.345037 0.095735
0.671839 0.368017 0.000000
0.758267 0.380926 0.000000
0.818418 0.385351 0.000000
0.860075 0.387335 0.000000
0.895995 0.391638 0.000000
0.926787 0.399573 0.000000
0.951169 0.417247 0.000000
0.100832 0.439429 0.226993
0.109468 0.438849 0.222507
0.122835 0.438300 0.215061
0.141543 0.436866 0.202213
0.203525 0.433356 0.204623
0.292027 0.426978 0.212467
0.380682 0.418219 0.222812
0.447883 0.409766 0.235691
0.501335 0.402106 0.252476
0.618769 0.441260 0.198734
0.713832 0.463569 0.137697
0.788205 0.474739 0.044617
0.845426 0.476753 0.000000
0.884001 0.476234 0.000000
0.913939 0.475074 0.000000
0.938533 0.476645 0.000000
0.223789 0.526757 0.318456
0.227573 0.526299 0.314641
0.234531 0.525536 0.308324
0.244907 0.524437 0.298344
0.272282 0.521874 0.291905
0.320714 0.517418 0.296269
0.402838 0.509972 0.303899
0.471839 0.502159 0.313848
0.525414 0.494606 0.324834
0.559503 0.481422 0.347814
0.662776 0.517510 0.309850
0.744839 0.537499 0.272557
0.807401 0.546258 0.233188
0.858213 0.548425 0.184360
0.900481 0.546197 0.117556
0.927068 0.546982 0.132632
0.331853 0.593286 0.405798
0.333745 0.592950 0.402960
0.337987 0.592462 0.398474
0.344335 0.591638 0.391363
0.352270 0.590356 0.381109
0.385901 0.587091 0.383642
0.429389 0.582544 0.387671
0.493751 0.576104 0.394751
0.546929 0.569757 0.402930
0.590295 0.563775 0.412177
0.615778 0.551263 0.431861
0.698390 0.579431 0.413550
0.765835 0.596063 0.393500
0.819333 0.604486 0.373266
0.863981 0.607843 0.349523
0.901596 0.603553 0.307315
0.426734 0.645991 0.482399
0.428016 0.645808 0.480873
0.430213 0.645441 0.477760
0.434058 0.644862 0.473030
0.439094 0.644068 0.466102
0.454383 0.642237 0.463050
0.479713 0.639338 0.465522
0.521447 0.635035 0.469551
0.569696 0.629938 0.475471
0.611170 0.624903 0.482063
0.645960 0.620386 0.489540
0.665492 0.609644 0.504326
0.724361 0.627314 0.497414
0.779690 0.640620 0.484565
0.825132 0.647730 0.471748
0.863411 0.649724 0.454587
0.514092 0.685084 0.548974
0.514946 0.684901 0.547997
0.515007 0.684199 0.545129
0.515801 0.683375 0.540948
0.518059 0.682429 0.535912
0.521386 0.681239 0.529717
0.537774 0.678798 0.530480
0.555047 0.675929 0.531334
0.591302 0.671321 0.533959
0.625696 0.666407 0.536889
0.656062 0.661524 0.540398
0.682338 0.656886 0.544488
0.696559 0.646937 0.554314
0.741024 0.660090 0.555383
0.789151 0.673640 0.549187
0.828820 0.682764 0.545834
0.563622 0.707118 0.586969
0.564324 0.707118 0.586358
0.566674 0.707515 0.586114
0.569451 0.707759 0.585016
0.573785 0.708186 0.583795
0.578302 0.708431 0.581506
0.589197 0.708461 0.582574
0.603845 0.707637 0.585504
0.623651 0.706630 0.589563
0.652735 0.704524 0.594354
0.680018 0.702846 0.600061
0.704067 0.701106 0.605646
0.725582 0.700191 0.612299
0.736873 0.693935 0.620264
0.767849 0.703029 0.624537
0.804286 0.712758 0.619219
0.628870 0.737209 0.638331
0.623285 0.734554 0.633173
0.621180 0.733364 0.630213
0.621820 0.733028 0.628473
0.624506 0.733364 0.627527
0.627436 0.733547 0.625818
0.631708 0.733730 0.624353
0.642298 0.733272 0.626520
0.654231 0.732998 0.629450
0.672541 0.731655 0.632349
0.695155 0.730373 0.636652
0.715877 0.728908 0.640681
0.735134 0.727901 0.645533
0.751522 0.726314 0.649287
0.760128 0.720394 0.654597
0.782909 0.726860 0.660458
0.671046 0.759701 0.673884
0.666682 0.757534 0.669734
0.664729 0.756435 0.667170
0.664698 0.756008 0.665522
0.666346 0.756130 0.664637
0.668330 0.756313 0.663447
0.671351 0.756771 0.662440
0.677333 0.756619 0.662867
0.685939 0.756344 0.664851
0.694728 0.755886 0.666712
0.712642 0.755001 0.670039
0.730404 0.754147 0.673671
0.747677 0.753902 0.678340
0.763180 0.753475 0.682704
0.776944 0.752956 0.686824
0.783470 0.747790 0.690298
0.708903 0.781454 0.707420
0.705596 0.779650 0.704176
0.703976 0.778672 0.702066
0.703975 0.778366 0.700931
0.705230 0.778578 0.700439
0.706972 0.778882 0.699793
0.709449 0.779461 0.699390
0.712772 0.779973 0.699213
0.719838 0.780363 0.701499
0.727540 0.780842 0.704177
0.737960 0.781407 0.707533
0.753003 0.781671 0.711557
0.768131 0.782605 0.716619
0.782546 0.783719 0.721830
0.796582 0.785707 0.728094
0.809867 0.788377 0.735069
0.000000 0.009979 0.019684
0.002258 0.010407 0.020447
0.010925 0.011292 0.019715
0.043336 0.012085 0.021241
0.108797 0.005219 0.020111
0.205509 0.000000 0.018708
0.331609 0.000000 0.014984
0.465370 0.000000 0.007355
0.586297 0.000000 0.000000
0.684840 0.000000 0.000000
0.763394 0.000000 0.000000
0.827085 0.000000 0.000000
0.878782 0.000000 0.000000
0.919554 0.000000 0.000000
0.953063 0.000000 0.000000
0.980104 0.000000 0.000000
0.000000 0.020020 0.022858
0.002502 0.020172 0.024537
0.015076 0.020569 0.024231
0.053162 0.021027 0.025208
0.120546 0.015747 0.023621
0.218296 0.000000 0.021912
0.343297 0.000000 0.016724
0.473915 0.000000 0.007202
0.592035 0.000000 0.000000
0.688472 0.000000 0.000000
0.765347 0.000000 0.000000
0.828122 0.000000 0.000000
0.878965 0.000000 0.000000
0.919158 0.000000 0.000000
0.952300 0.000000 0.000000
0.979008 0.000000 0.000000
0.000000 0.036042 0.029755
0.004242 0.037415 0.030762
0.020600 0.040406 0.032319
0.066560 0.041321 0.031617
0.137972 0.037659 0.029297
0.238773 0.016449 0.024781
0.362341 0.000000 0.017395
0.488380 0.000000 0.006470
0.601984 0.000000 0.000000
0.694423 0.000000 0.000000
0.768704 0.000000 0.000000
0.829740 0.000000 0.000000
0.878904 0.000000 0.000000
0.918242 0.000000 0.000000
0.950713 0.000000 0.000000
0.976969 0.052873 0.000000
0.000000 0.070192 0.044038
0.007446 0.072908 0.046204
0.031495 0.076783 0.049958
0.064881 0.075166 0.051484
0.150271 0.083650 0.041627
0.270481 0.074769 0.028168
0.390845 0.036042 0.017975
0.510338 0.000000 0.003449
0.616052 0.000000 0.000000
0.702571 0.000000 0.000000
0.772976 0.000000 0.000000
0.831022 0.000000 0.000000
0.877958 0.000000 0.000000
0.916075 0.000000 0.000000
0.947692 0.096834 0.000000
0.973343 0.174601 0.000000
0.000000 0.134035 0.070558
0.006683 0.136812 0.072938
0.048157 0.140322 0.075624
0.081239 0.139467 0.073823
0.146761 0.134646 0.079347
0.247562 0.145174 0.067659
0.401495 0.148318 0.029969
0.534142 0.133730 0.000000
0.630365 0.118898 0.000000
0.709957 0.113497 0.000000
0.775509 0.121340 0.000000
0.830198 0.140688 0.000000
0.874784 0.164889 0.000000
0.911772 0.190799 0.000000
0.942504 0.224338 0.000000
0.967581 0.265609 0.000000
0.000000 0.225803 0.109346
0.020050 0.228214 0.112245
0.077577 0.231510 0.115145
0.102998 0.230411 0.107179
0.180545 0.225559 0.112917
0.255802 0.218082 0.121065
0.351965 0.228428 0.113527
0.502464 0.252964 0.058930
0.626673 0.265690 0.000000
0.712306 0.270573 0.000000
0.773800 0.275303 0.000000
0.825589 0.283970 0.000000
0.868101 0.294316 0.000000
0.904234 0.306371 0.000000
0.935271 0.321477 0.000000
0.960046 0.347340 0.000000
0.010315 0.339269 0.169375
0.073243 0.341131 0.173312
0.118868 0.342657 0.173159
0.135622 0.341772 0.160250
0.193118 0.338201 0.163088
0.291051 0.330266 0.171756
0.365484 0.321630 0.182895
0.443214 0.326146 0.184665
0.575097 0.362554 0.128603
0.679408 0.382147 0.044465
0.762722 0.392920 0.000000
0.816953 0.395575 0.000000
0.858274 0.398169 0.000000
0.893919 0.402472 0.000000
0.925139 0.408637 0.000000
0.951031 0.420843 0.000000
0.130037 0.448493 0.251560
0.162997 0.449409 0.255283
0.186526 0.449561 0.252506
0.199252 0.448219 0.239963
0.236759 0.445319 0.235019
0.307836 0.439399 0.240940
0.393988 0.430915 0.250919
0.458473 0.422553 0.262394
0.513603 0.418158 0.274357
0.626307 0.453468 0.226352
0.718288 0.473426 0.174655
0.790188 0.482582 0.108705
0.846189 0.483711 0.000000
0.881621 0.483680 0.000000
0.911254 0.481605 0.000000
0.937267 0.480155 0.000000
0.249271 0.532586 0.340887
0.268711 0.533013 0.344213
0.276829 0.532311 0.338994
0.285405 0.531182 0.328985
0.299626 0.529381 0.317723
0.343633 0.525017 0.321324
0.414221 0.518120 0.327703
0.480598 0.510430 0.336492
0.532097 0.502983 0.346380
0.567742 0.492500 0.365209
0.667750 0.525963 0.330541
0.746975 0.544060 0.297185
0.807828 0.551690 0.261784
0.857908 0.553216 0.217777
0.897673 0.551385 0.176028
0.924290 0.552351 0.186059
0.354131 0.597284 0.424567
0.362097 0.597253 0.425086
0.365789 0.596704 0.420691
0.371283 0.595850 0.413916
0.378424 0.594751 0.404211
0.402991 0.591882 0.402289
0.438819 0.587793 0.405524
0.501244 0.581445 0.411902
0.552850 0.575189 0.419165
0.594842 0.569268 0.427649
0.619471 0.557366 0.445869
0.701595 0.585077 0.427375
0.766781 0.600397 0.408972
0.819272 0.608118 0.389837
0.863310 0.610895 0.366949
0.900774 0.606423 0.326887
0.445869 0.648371 0.497505
0.447089 0.648188 0.495979
0.449226 0.647791 0.492836
0.452674 0.647272 0.488411
0.457191 0.646479 0.481697
0.467292 0.645045 0.476143
0.491188 0.642206 0.478187
0.527886 0.638239 0.481788
0.574548 0.633143 0.486885
0.614893 0.628260 0.493080
0.648646 0.623743 0.500008
0.667628 0.613428 0.514031
0.726009 0.630732 0.505913
0.780270 0.643488 0.493751
0.825071 0.650233 0.481392
0.863048 0.651925 0.464563
0.526940 0.686305 0.558953
0.527764 0.686183 0.558068
0.527886 0.685512 0.555352
0.528710 0.684749 0.551446
0.530694 0.683864 0.546532
0.533684 0.682826 0.540551
0.546929 0.680598 0.539757
0.563134 0.677699 0.540185
0.595697 0.673274 0.542107
0.628870 0.668360 0.544732
0.658412 0.663416 0.547753
0.683864 0.658839 0.551324
0.697658 0.649195 0.560632
0.742397 0.662440 0.560571
0.789639 0.675380 0.554314
0.828977 0.684171 0.550719
0.573358 0.708461 0.594751
0.573968 0.708461 0.594110
0.575982 0.708766 0.593744
0.578607 0.708980 0.592554
0.582544 0.709377 0.591241
0.586694 0.709590 0.588861
0.595239 0.709743 0.588647
0.609277 0.708888 0.591333
0.627070 0.708003 0.594965
0.655451 0.705928 0.599451
0.682155 0.704250 0.604852
0.705715 0.702602 0.610193
0.726772 0.701564 0.616388
0.737789 0.695430 0.624018
0.768948 0.704646 0.627588
0.805022 0.714133 0.622301
0.634028 0.738064 0.642878
0.628779 0.735531 0.637995
0.626978 0.734371 0.635248
0.627588 0.734066 0.633570
0.629969 0.734340 0.632410
0.632654 0.734463 0.630640
0.636103 0.734707 0.628687
0.645930 0.734310 0.630426
0.657588 0.734005 0.633204
0.674495 0.732753 0.635889
0.696681 0.731380 0.639826
0.717098 0.729885 0.643702
0.736110 0.728878 0.648341
0.752224 0.727230 0.651911
0.760708 0.721340 0.657008
0.783941 0.728108 0.662537
0.674189 0.760281 0.676875
0.669978 0.758206 0.672877
0.668177 0.757107 0.670436
0.668238 0.756741 0.668910
0.669703 0.756832 0.667903
0.671687 0.756985 0.666682
0.674678 0.757443 0.665705
0.679713 0.757382 0.665492
0.688045 0.757046 0.667262
0.696620 0.756527 0.668971
0.713710 0.755703 0.672145
0.731258 0.754879 0.675776
0.748409 0.754574 0.680262
0.763790 0.754116 0.684474
0.777462 0.753597 0.688472
0.783928 0.748492 0.691977
0.710868 0.781914 0.709475
0.707562 0.780140 0.706292
0.706034 0.779193 0.704244
0.706065 0.778917 0.703141
0.707349 0.779159 0.702617
0.709030 0.779494 0.702031
0.711386 0.779981 0.701507
0.714065 0.780555 0.700871
0.721037 0.780914 0.703094
0.728676 0.781392 0.705649
0.738545 0.781988 0.708914
0.753465 0.782191 0.712787
0.768531 0.783064 0.717727
0.782854 0.784178 0.722844
0.796890 0.786107 0.728988
0.810204 0.788807 0.735872
0.000000 0.014893 0.035859
0.005005 0.014588 0.036713
0.021271 0.014038 0.038727
0.044373 0.015503 0.037171
0.103578 0.014923 0.041718
0.211673 0.000000 0.041962
0.348791 0.000000 0.033417
0.479225 0.000000 0.029450
0.596674 0.000000 0.019867
0.691951 0.000000 0.007568
0.767880 0.000000 0.000000
0.829770 0.000000 0.000000
0.879637 0.000000 0.000000
0.919371 0.000000 0.000000
0.952514 0.000000 0.000000
0.979495 0.000000 0.000000
0.000000 0.026246 0.044099
0.006500 0.026215 0.045197
0.025940 0.025330 0.047028
0.054688 0.026001 0.045594
0.119112 0.023346 0.048829
0.228977 0.000000 0.047150
0.359930 0.000000 0.041962
0.487648 0.000000 0.034180
0.602045 0.000000 0.023346
0.695094 0.000000 0.008637
0.769436 0.000000 0.000000
0.830442 0.000000 0.000000
0.879484 0.000000 0.000000
0.918822 0.000000 0.000000
0.951751 0.000000 0.000000
0.978399 0.000000 0.000000
0.001343 0.047150 0.054932
0.011627 0.049714 0.057008
0.031952 0.049958 0.059907
0.071015 0.048524 0.058991
0.145724 0.044221 0.060243
0.256687 0.010437 0.056214
0.378393 0.000000 0.051209
0.501488 0.000000 0.042817
0.610895 0.000000 0.027131
0.700343 0.000000 0.008972
0.772213 0.000000 0.000000
0.831388 0.000000 0.000000
0.879057 0.000000 0.000000
0.917571 0.000000 0.000000
0.950072 0.000000 0.000000
0.976297 0.103539 0.000000
0.000000 0.083223 0.072480
0.010040 0.085725 0.073701
0.040650 0.090059 0.076081
0.091646 0.095735 0.078828
0.178805 0.095033 0.075563
0.285710 0.084413 0.070558
0.404608 0.052155 0.062013
0.521050 0.000000 0.049622
0.623102 0.000000 0.030823
0.706874 0.000000 0.008667
0.775204 0.000000 0.000000
0.831693 0.000000 0.000000
0.877348 0.008515 0.000000
0.914794 0.087770 0.000000
0.946899 0.139498 0.000000
0.972640 0.196086 0.000000
0.000000 0.149142 0.096315
0.000000 0.152529 0.098390
0.058473 0.157534 0.103029
0.127535 0.163302 0.110567
0.179355 0.159335 0.113039
0.295872 0.170382 0.097841
0.433997 0.165957 0.074098
0.541955 0.155032 0.058289
0.634943 0.147372 0.035706
0.712184 0.149020 0.007752
0.776059 0.161135 0.000000
0.829465 0.180026 0.000000
0.872953 0.202670 0.000000
0.909361 0.225925 0.000000
0.940948 0.248722 0.000000
0.967082 0.278512 0.000000
0.000000 0.243290 0.139498
0.025788 0.246281 0.142824
0.100954 0.250889 0.149050
0.168795 0.256046 0.156466
0.208927 0.253330 0.152987
0.286076 0.245121 0.161013
0.391119 0.260472 0.147250
0.530755 0.279973 0.104524
0.641199 0.288304 0.049226
0.712673 0.291630 0.018128
0.772732 0.298222 0.000000
0.823545 0.307591 0.000000
0.865354 0.318120 0.000000
0.901122 0.329992 0.000000
0.932341 0.342290 0.000000
0.959714 0.355282 0.000000
0.032105 0.356237 0.203922
0.087800 0.358099 0.207370
0.152468 0.361425 0.213718
0.212802 0.365057 0.219944
0.238651 0.362646 0.209323
0.316197 0.355474 0.216159
0.388098 0.346746 0.226108
0.470100 0.356664 0.221744
0.592279 0.386908 0.176089
0.690394 0.402075 0.120485
0.765408 0.408759 0.051881
0.814145 0.410864 0.024537
0.854856 0.414099 0.002930
0.890227 0.418738 0.000000
0.921324 0.424659 0.000000
0.948818 0.431427 0.000000
0.150271 0.460700 0.283238
0.180697 0.461585 0.286473
0.226017 0.463264 0.292912
0.268681 0.464515 0.295659
0.281682 0.462776 0.280278
0.330358 0.457771 0.283696
0.413214 0.449226 0.292027
0.473762 0.441230 0.301976
