example_ofxGpuLutCube/bin/data/ofxGpuLutCube/LUT/U41 (pink sunset fade).cube
LUT_3D_SIZE 16
0.000000 0.000000 0.000000
0.042481 0.003601 0.005005
0.159243 0.007172 0.010895
0.291814 0.000000 0.010193
0.412360 0.000000 0.005463
0.532860 0.000000 0.000000
0.629297 0.000000 0.000000
0.715908 0.000000 0.000000
0.774899 0.069459 0.000000
0.816953 0.175235 0.026093
0.849332 0.254978 0.082521
0.874937 0.322820 0.136263
0.895048 0.381140 0.189487
0.911925 0.435248 0.248875
0.924956 0.482582 0.310460
0.933990 0.518460 0.362336
0.003113 0.029755 0.002258
0.034577 0.032715 0.011810
0.151797 0.053071 0.008484
0.281743 0.043030 0.005188
0.407233 0.005005 0.000000
0.525261 0.000000 0.000000
0.633204 0.000000 0.000000
0.716487 0.040620 0.000000
0.772335 0.134401 0.000977
0.814420 0.211612 0.043854
0.846311 0.278904 0.097078
0.871763 0.339300 0.147189
0.891722 0.391821 0.197574
0.908965 0.442908 0.255161
0.922545 0.488106 0.315373
0.932243 0.524648 0.369576
0.012207 0.070344 0.010193
0.039063 0.061311 0.017334
0.091981 0.076875 0.023621
0.255161 0.113558 0.008423
0.401709 0.111604 0.000000
0.531243 0.107973 0.000000
0.635584 0.121614 0.000000
0.713161 0.160037 0.001434
0.767880 0.208835 0.027344
0.810025 0.265324 0.075502
0.841306 0.317601 0.120699
0.866514 0.367010 0.166140
0.886473 0.411658 0.212619
0.904448 0.458106 0.269383
0.918608 0.499641 0.326909
0.928942 0.535429 0.382259
0.016388 0.116152 0.015686
0.052155 0.109133 0.022065
0.085176 0.100710 0.035828
0.174868 0.137179 0.044007
0.358862 0.188449 0.027893
0.529961 0.217838 0.011780
0.626123 0.229252 0.018738
0.702419 0.254398 0.039887
0.759213 0.288792 0.073701
0.800015 0.326848 0.112215
0.830869 0.363714 0.150332
0.856291 0.400855 0.190219
0.877806 0.437934 0.234226
0.896239 0.475441 0.283818
0.910735 0.509239 0.333562
0.922216 0.540993 0.384169
0.033967 0.163394 0.021241
0.071260 0.161440 0.028443
0.113771 0.159121 0.045380
0.151034 0.155245 0.071565
0.280461 0.215793 0.085420
0.475380 0.287785 0.088533
0.634791 0.344945 0.095033
0.710689 0.369055 0.116915
0.760067 0.389227 0.145174
0.798123 0.413428 0.179141
0.827939 0.437751 0.213474
0.853239 0.464668 0.251560
0.874632 0.493507 0.294804
0.892515 0.522942 0.342016
0.906462 0.550072 0.387823
0.916886 0.571705 0.426164
0.059236 0.215457 0.030640
0.093355 0.216281 0.039643
0.135897 0.215488 0.056062
0.179599 0.210819 0.080262
0.214420 0.207645 0.112276
0.375525 0.290196 0.129671
0.553674 0.370916 0.150942
0.682582 0.435492 0.181613
0.750912 0.468513 0.215549
0.787472 0.481422 0.242985
0.816922 0.495399 0.270665
0.842741 0.514061 0.304784
0.864408 0.534203 0.341253
0.882567 0.556207 0.381659
0.897215 0.577234 0.421454
0.908666 0.595754 0.456652
0.084871 0.266514 0.043183
0.114595 0.267918 0.052094
0.154849 0.267247 0.067231
0.200259 0.264378 0.088869
0.243107 0.260136 0.117281
0.291630 0.270207 0.151980
0.465278 0.366583 0.181552
0.615778 0.447730 0.220768
0.711116 0.500969 0.262669
0.774990 0.538537 0.308415
0.805600 0.548241 0.332708
0.831571 0.560754 0.361364
0.853300 0.574456 0.391547
0.871763 0.590204 0.425025
0.886931 0.606226 0.458778
0.899257 0.621604 0.490410
0.108736 0.311650 0.055634
0.135012 0.314488 0.063813
0.172671 0.315831 0.077882
0.218753 0.314763 0.097871
0.265263 0.311803 0.123476
0.304662 0.307378 0.154299
0.369329 0.332036 0.188876
0.528405 0.424781 0.228244
0.650843 0.498329 0.276890
0.728298 0.545678 0.328954
0.784604 0.581811 0.379126
0.819608 0.601343 0.414771
0.841337 0.610346 0.438911
0.859922 0.620722 0.464576
0.875486 0.631952 0.491249
0.888810 0.645639 0.521447
0.125063 0.341985 0.062715
0.145266 0.342199 0.069245
0.178622 0.343694 0.081117
0.221286 0.344274 0.099123
0.268528 0.344457 0.122530
0.314397 0.344121 0.151736
0.353704 0.344457 0.185977
0.439155 0.389410 0.227817
0.584253 0.482155 0.283452
0.684535 0.549279 0.346410
0.750332 0.594659 0.407141
0.798856 0.628962 0.459876
0.833310 0.653315 0.503502
0.851041 0.660182 0.523674
0.866423 0.668055 0.544732
0.879565 0.675548 0.563887
0.148898 0.381537 0.072755
0.165682 0.380926 0.078248
0.194308 0.381201 0.088411
0.233433 0.381384 0.104189
0.278264 0.381903 0.125643
0.325017 0.382513 0.152438
0.369696 0.384100 0.184604
0.408942 0.388403 0.221164
0.505669 0.446784 0.272831
0.629908 0.532555 0.339849
0.709194 0.589197 0.407477
0.765469 0.629816 0.464973
0.806851 0.660029 0.513817
0.837613 0.682826 0.555169
0.856870 0.693843 0.579980
0.870345 0.699493 0.596023
0.168154 0.417975 0.077607
0.183566 0.417639 0.083040
0.209293 0.417700 0.092622
0.245426 0.418219 0.107454
0.289250 0.419135 0.127718
0.335210 0.420417 0.152743
0.381476 0.422339 0.183658
0.423438 0.424903 0.218967
0.460121 0.430915 0.258854
0.562860 0.499702 0.321233
0.664454 0.574060 0.394873
0.729854 0.623102 0.460304
0.779110 0.660822 0.516625
0.815335 0.688441 0.562371
0.842435 0.708125 0.598108
0.861349 0.721056 0.624725
0.182223 0.453223 0.075624
0.196597 0.453101 0.081025
0.220706 0.453346 0.090852
0.255497 0.453803 0.105653
0.297124 0.454627 0.125521
0.342962 0.455818 0.150393
0.389776 0.457862 0.179995
0.434211 0.460548 0.214328
0.473793 0.464546 0.253300
0.507469 0.471839 0.296452
0.610376 0.546471 0.369909
0.692287 0.609918 0.446967
0.749355 0.654902 0.510246
0.792020 0.688624 0.561913
0.823789 0.712947 0.602747
0.846629 0.731106 0.636887
0.179873 0.477974 0.059846
0.194736 0.478767 0.065797
0.220645 0.480964 0.076875
0.256870 0.483772 0.094118
0.301427 0.487739 0.116670
0.350042 0.491859 0.144228
0.401404 0.497200 0.176547
0.451240 0.502800 0.213870
0.497993 0.510216 0.257267
0.537224 0.518242 0.304387
0.572961 0.532860 0.358404
0.664668 0.606592 0.449866
0.731991 0.663905 0.529320
0.777401 0.700557 0.582849
0.809720 0.725216 0.622004
0.832229 0.741319 0.650615
0.208835 0.534142 0.040467
0.213504 0.527520 0.045472
0.234501 0.525628 0.058900
0.269749 0.526818 0.079744
0.314885 0.530449 0.106172
0.365118 0.534630 0.137331
0.417762 0.539940 0.173373
0.469947 0.546014 0.213718
0.519310 0.554009 0.260136
0.560662 0.561608 0.308904
0.595575 0.570886 0.362066
0.626123 0.585962 0.422065
0.703059 0.652399 0.515251
0.756741 0.698299 0.579400
0.792142 0.726223 0.621546
0.816946 0.746012 0.654991
0.244022 0.589441 0.011536
0.245823 0.582391 0.014435
0.263584 0.579278 0.030426
0.297581 0.579522 0.061189
0.342565 0.582269 0.096529
0.393256 0.585962 0.134829
0.446876 0.591150 0.177279
0.498238 0.596399 0.222873
0.546197 0.602808 0.273167
0.587549 0.609308 0.325780
0.623011 0.616907 0.381567
0.650965 0.625360 0.437964
0.678462 0.643824 0.505669
0.742306 0.701137 0.584619
0.781308 0.735195 0.634272
0.805085 0.754924 0.667113
0.339011 0.660139 0.101450
0.328576 0.651971 0.076099
0.328421 0.645837 0.048917
0.359215 0.645628 0.082882
0.401026 0.647438 0.123267
0.448092 0.650285 0.167277
0.498237 0.654537 0.216315
0.547349 0.659484 0.269461
0.594174 0.666255 0.328124
0.636071 0.674024 0.389499
0.672106 0.683285 0.452175
0.701058 0.693189 0.512545
0.726712 0.707875 0.571503
0.754512 0.732769 0.632808
0.790039 0.765982 0.684032
0.809150 0.787237 0.720821
0.000641 0.010590 0.020447
0.053620 0.014557 0.030152
0.173556 0.006622 0.030426
0.293858 0.000000 0.026825
0.406256 0.000000 0.028443
0.521355 0.000000 0.027314
0.624414 0.000000 0.030121
0.707301 0.051209 0.043153
0.765377 0.140902 0.064088
0.808591 0.217105 0.096498
0.841764 0.283604 0.134066
0.867552 0.341802 0.174838
0.888029 0.392798 0.218204
0.905730 0.442390 0.270329
0.919677 0.486183 0.324468
0.929858 0.521486 0.373835
0.004456 0.044617 0.034821
0.063264 0.052552 0.036500
0.163027 0.062318 0.037263
0.282933 0.064149 0.036255
0.405310 0.052796 0.034302
0.523796 0.041596 0.034516
0.629419 0.067109 0.041657
0.709438 0.124269 0.055818
0.765530 0.184878 0.076997
0.808713 0.249241 0.109773
0.840635 0.307134 0.146731
0.865690 0.358892 0.186069
0.885771 0.404669 0.227298
0.903471 0.450752 0.277409
0.917510 0.492012 0.329747
0.928084 0.526984 0.379690
0.020172 0.096437 0.037690
0.063233 0.085054 0.045167
0.133852 0.106416 0.052613
0.288212 0.136019 0.048890
0.415381 0.139315 0.049378
0.537804 0.147768 0.054597
0.636500 0.167819 0.063478
0.710964 0.203098 0.078065
0.766659 0.249027 0.101747
0.806760 0.297459 0.133303
0.836637 0.341527 0.165835
0.861051 0.383734 0.201907
0.881315 0.423499 0.241306
0.899474 0.465370 0.290227
0.913939 0.503105 0.340703
0.924967 0.536037 0.389376
0.044129 0.142611 0.042664
0.081392 0.133974 0.051179
0.111269 0.123476 0.067384
0.213870 0.165774 0.077394
0.394415 0.216129 0.078218
0.539574 0.242435 0.081575
0.632502 0.258732 0.091798
0.706355 0.285893 0.109163
0.759670 0.318029 0.132326
0.798215 0.351446 0.161440
0.828367 0.383948 0.191348
0.853147 0.417426 0.225467
0.875059 0.453071 0.266484
0.893309 0.487190 0.310674
0.907713 0.517418 0.353948
0.919164 0.545214 0.396971
0.061494 0.180301 0.047303
0.094301 0.177005 0.055848
0.131167 0.171145 0.070375
0.162966 0.165621 0.094179
0.292668 0.225101 0.106691
0.474189 0.291203 0.116579
0.627222 0.346838 0.130739
0.698299 0.367620 0.149355
0.749538 0.389349 0.173007
0.788571 0.413489 0.201755
0.819669 0.438422 0.232547
0.846281 0.465888 0.268009
0.869017 0.495033 0.308721
0.887694 0.524010 0.352605
0.902464 0.550561 0.395697
0.913945 0.573039 0.433584
0.081758 0.227756 0.055177
0.111543 0.226566 0.063600
0.149783 0.222904 0.077516
0.189700 0.217319 0.099275
0.223209 0.215396 0.128359
0.384100 0.297734 0.146975
0.552941 0.372686 0.169741
0.677333 0.434577 0.201144
0.741604 0.463783 0.230930
0.778958 0.477699 0.256352
0.809995 0.493721 0.283604
0.836912 0.513542 0.316442
0.859495 0.534051 0.351019
0.878355 0.555505 0.388159
0.893645 0.576410 0.425849
0.905941 0.595958 0.461621
0.103487 0.277928 0.065736
0.130953 0.278172 0.073732
0.167880 0.275883 0.086732
0.211490 0.271702 0.106203
0.251286 0.266209 0.132113
0.302708 0.279423 0.163973
0.468055 0.369512 0.193301
0.612207 0.446052 0.231388
0.707515 0.499855 0.274205
0.769619 0.536095 0.318364
0.799649 0.545159 0.340215
0.826139 0.557946 0.366949
0.848753 0.572015 0.395636
0.867826 0.587823 0.427344
0.883787 0.603845 0.459327
0.896839 0.620553 0.492259
0.122042 0.318883 0.073640
0.146822 0.320165 0.081147
0.181338 0.319219 0.093019
0.224735 0.316716 0.110780
0.269169 0.313207 0.134646
0.307408 0.309056 0.163882
0.375097 0.337041 0.197818
0.530358 0.427466 0.238346
0.649744 0.498695 0.286442
0.725826 0.545037 0.336736
0.781674 0.580774 0.385534
0.815335 0.598627 0.418250
0.837766 0.608423 0.442115
0.856840 0.618830 0.466407
0.872953 0.629908 0.491585
0.886610 0.643050 0.519728
0.139406 0.352087 0.079774
0.158816 0.351965 0.086152
0.190433 0.351568 0.096803
0.231235 0.350713 0.112825
0.276463 0.349828 0.134737
0.321050 0.349004 0.162448
0.359503 0.349004 0.196139
0.445838 0.395453 0.237278
0.586481 0.485328 0.292607
0.684108 0.550286 0.354467
0.748806 0.594903 0.413550
0.797116 0.628992 0.465278
0.830686 0.652094 0.506065
0.848936 0.659663 0.526757
0.864836 0.668330 0.548394
0.878371 0.676790 0.568757
0.159915 0.387915 0.087343
0.176883 0.387457 0.092317
0.204135 0.387274 0.101839
0.242161 0.387030 0.116579
0.286351 0.387366 0.137026
0.332128 0.387518 0.163088
0.374823 0.388251 0.194034
0.412879 0.391791 0.229526
0.509331 0.450477 0.280247
0.629969 0.533440 0.345678
0.707881 0.588739 0.411475
0.764126 0.629328 0.468421
0.805539 0.659846 0.517052
0.836545 0.683192 0.558618
0.855650 0.693996 0.582696
0.869457 0.700340 0.599706
0.177218 0.422950 0.090455
0.192477 0.423194 0.095521
0.218082 0.423133 0.104250
0.253422 0.423255 0.118563
0.295659 0.423682 0.138003
0.340795 0.424018 0.162081
0.385382 0.425055 0.191501
0.425971 0.426917 0.225895
0.461402 0.432288 0.264469
0.563897 0.501152 0.326116
0.663874 0.574090 0.398444
0.728939 0.622644 0.462745
0.777951 0.660243 0.518334
0.814389 0.688106 0.564172
0.841703 0.708156 0.600122
0.860526 0.721087 0.626498
0.188571 0.456367 0.086824
0.202914 0.456367 0.091798
0.226352 0.456245 0.100679
0.260258 0.456580 0.114870
0.301610 0.457282 0.133974
0.346990 0.458473 0.158175
0.393317 0.460334 0.187320
0.437110 0.462715 0.220920
0.475563 0.466102 0.259220
0.507866 0.472541 0.300420
0.610346 0.546777 0.373083
0.691341 0.609277 0.448463
0.747890 0.653529 0.510277
0.790646 0.687098 0.561212
0.822660 0.711360 0.601404
0.845802 0.729850 0.635696
0.186801 0.482979 0.070832
0.201175 0.483650 0.076448
0.226474 0.485481 0.087312
0.261936 0.487678 0.103120
0.305669 0.491066 0.124697
0.354131 0.494789 0.151431
0.405280 0.500008 0.183719
0.454536 0.505455 0.220676
0.500389 0.512413 0.263127
0.539025 0.520043 0.309606
0.573816 0.533989 0.362402
0.665095 0.607599 0.453468
0.732235 0.664698 0.532280
0.777401 0.701167 0.585351
0.809781 0.726009 0.624720
0.832229 0.742445 0.653724
0.212528 0.537438 0.052949
0.218143 0.531304 0.056886
0.239200 0.529473 0.068940
0.273930 0.530510 0.088472
0.319097 0.533806 0.114076
0.368780 0.537560 0.144442
0.420844 0.542321 0.179507
0.472358 0.548028 0.219181
0.520684 0.555474 0.264652
0.561639 0.562676 0.312902
0.596033 0.571557 0.365240
0.626215 0.586419 0.424567
0.703426 0.653193 0.517876
0.756985 0.699001 0.581598
0.792386 0.727108 0.624079
0.817130 0.747049 0.657766
0.249851 0.592889 0.032136
0.247532 0.585168 0.025116
0.266148 0.582483 0.042054
0.300603 0.582757 0.070893
0.345586 0.585351 0.104555
0.395941 0.588678 0.141360
0.449165 0.593439 0.182956
0.499825 0.598260 0.227726
0.546990 0.603998 0.276890
0.587945 0.610071 0.328618
0.623133 0.617456 0.384039
0.651118 0.625788 0.440070
0.678462 0.644038 0.507164
0.742428 0.701503 0.586023
0.781399 0.735775 0.635920
0.805298 0.755685 0.669094
0.343118 0.662893 0.117638
0.333427 0.655111 0.095572
0.332948 0.649042 0.071089
0.359608 0.647775 0.089444
0.401903 0.649674 0.129420
0.449237 0.652487 0.172328
0.499288 0.656583 0.220963
0.548301 0.661284 0.273559
0.594848 0.667566 0.331213
0.636437 0.674998 0.392065
0.672259 0.683894 0.453982
0.700968 0.693464 0.513593
0.726258 0.707544 0.571518
0.754030 0.732290 0.632581
0.789768 0.765746 0.684018
0.809001 0.787181 0.721051
0.000000 0.034363 0.097841
0.065034 0.027771 0.097810
0.152926 0.024872 0.086732
0.283421 0.000000 0.078218
0.394263 0.000000 0.077882
0.503105 0.005554 0.084413
0.606622 0.060548 0.099367
0.689540 0.130129 0.116915
0.750790 0.190005 0.133181
0.796963 0.254887 0.158968
0.830838 0.313329 0.189792
0.857542 0.365545 0.224460
0.879179 0.411627 0.261204
0.898283 0.458137 0.307652
0.913298 0.498787 0.355962
0.924477 0.531795 0.400013
0.021973 0.074098 0.094881
0.079408 0.065766 0.093843
0.163668 0.068544 0.089693
0.274815 0.074464 0.089693
0.386999 0.080385 0.091371
0.506249 0.096803 0.100771
0.610468 0.126864 0.113161
0.692226 0.171084 0.125887
0.753201 0.224643 0.143771
0.797421 0.281956 0.170321
0.830076 0.333349 0.200351
0.856046 0.380377 0.233402
0.877379 0.422400 0.269017
0.896269 0.465614 0.313878
0.911284 0.503868 0.360327
0.922855 0.536649 0.404921
0.023987 0.124147 0.104189
0.092470 0.115084 0.097383
0.179416 0.134401 0.103182
0.283360 0.146334 0.106661
0.403784 0.158663 0.113191
0.522362 0.174746 0.121340
0.621027 0.198886 0.131289
0.696712 0.232822 0.143282
0.755428 0.278080 0.163699
0.796139 0.322484 0.188907
0.826688 0.363073 0.216037
0.851835 0.401648 0.246372
0.873503 0.439368 0.281224
0.892607 0.478187 0.324071
0.907958 0.513756 0.369207
0.919862 0.544815 0.413167
0.069490 0.170626 0.094514
0.111788 0.159487 0.097444
0.140505 0.150362 0.112520
0.255161 0.195651 0.123354
0.419501 0.238804 0.135012
0.529046 0.255375 0.142550
0.620783 0.274571 0.151980
0.696345 0.305241 0.168063
0.749966 0.336767 0.187442
0.788907 0.368994 0.211246
0.819486 0.400214 0.236759
0.844999 0.431403 0.265537
0.867979 0.465736 0.302251
0.886931 0.497475 0.340887
0.902068 0.525841 0.379217
0.914364 0.551945 0.417346
0.092592 0.201999 0.088716
0.123018 0.198489 0.096132
0.158206 0.192142 0.109468
0.187655 0.188357 0.130709
0.326757 0.251377 0.145266
0.494362 0.312016 0.162905
0.618494 0.353491 0.181460
0.689235 0.376471 0.197940
0.740932 0.399329 0.218601
0.780179 0.423865 0.243534
0.811643 0.448737 0.271061
0.839292 0.476326 0.303258
0.862638 0.504601 0.339971
0.881987 0.532494 0.379553
0.897520 0.557946 0.418250
0.909666 0.579670 0.453025
0.110018 0.247990 0.093050
0.137819 0.246830 0.100679
0.174807 0.242588 0.112825
0.212802 0.236423 0.132479
0.254917 0.242588 0.158328
0.410651 0.320348 0.180850
0.565667 0.389776 0.209110
0.681056 0.448707 0.244388
0.734829 0.469398 0.268681
0.772122 0.483894 0.290654
0.803555 0.500664 0.315862
0.830930 0.520531 0.345617
0.854032 0.540856 0.376776
0.873381 0.561822 0.410986
0.889311 0.582086 0.445045
0.902212 0.601361 0.478309
0.128756 0.295018 0.099184
0.154849 0.295262 0.106569
0.190280 0.292882 0.118074
0.233158 0.288243 0.135958
0.271550 0.282933 0.160372
0.329595 0.302373 0.190127
0.487037 0.387671 0.223270
0.620752 0.459510 0.264042
0.709377 0.509850 0.308141
0.764218 0.539635 0.345617
0.794369 0.549401 0.365820
0.821164 0.562371 0.390234
0.844083 0.576532 0.416449
0.863645 0.592126 0.445319
0.879973 0.608057 0.475257
0.893538 0.624674 0.506120
0.144930 0.333257 0.103212
0.168521 0.334691 0.110079
0.202060 0.333562 0.120790
0.244053 0.331029 0.137301
0.286778 0.327184 0.159365
0.323644 0.322942 0.187686
0.395972 0.355596 0.220768
0.543236 0.441352 0.263706
0.654658 0.508263 0.312688
0.727077 0.552728 0.363134
0.780819 0.587427 0.410101
0.811429 0.601587 0.436622
0.834073 0.611475 0.458289
0.853330 0.621942 0.480903
0.869688 0.632929 0.504295
0.883827 0.645709 0.530339
0.160067 0.364477 0.106203
0.178653 0.364080 0.111360
0.208621 0.363531 0.121248
0.248356 0.362676 0.136294
0.292546 0.361578 0.156924
0.335546 0.360510 0.183566
0.373053 0.361089 0.216281
0.461769 0.410315 0.258030
0.595239 0.495949 0.314336
0.686976 0.557214 0.375555
0.749416 0.600519 0.433082
0.796353 0.633753 0.482673
0.827634 0.654200 0.518578
0.846250 0.661982 0.537865
0.862516 0.670680 0.558221
0.876324 0.679169 0.577406
0.178195 0.398169 0.110811
0.194400 0.397681 0.115389
0.220859 0.397620 0.124086
0.257877 0.397253 0.138033
0.301152 0.397559 0.157717
0.345525 0.397559 0.182315
0.386755 0.398047 0.212345
0.422858 0.401129 0.247013
0.520806 0.461952 0.298558
0.635492 0.541131 0.363714
0.709773 0.593957 0.427680
0.764492 0.633570 0.482795
0.805081 0.663508 0.529808
0.835691 0.686336 0.569421
0.853910 0.695674 0.590326
0.867868 0.702079 0.606580
0.192447 0.431281 0.111452
0.207218 0.431586 0.116213
0.231998 0.431708 0.124727
0.266667 0.431708 0.137819
0.307958 0.431830 0.156008
0.352209 0.432105 0.179446
0.395758 0.433082 0.207797
0.435370 0.434974 0.241703
0.468879 0.439582 0.278935
0.571405 0.509392 0.341039
0.666896 0.579248 0.412543
0.730159 0.626551 0.474952
0.778195 0.663478 0.529107
0.814237 0.690761 0.573022
0.841215 0.710475 0.607691
0.859281 0.722500 0.632163
0.199680 0.462898 0.105653
0.213779 0.462837 0.110292
0.237064 0.462715 0.118471
0.270573 0.463050 0.131807
0.311192 0.463752 0.150118
0.355810 0.464973 0.173159
0.401648 0.466682 0.201663
0.444465 0.468818 0.234318
0.481910 0.471931 0.271763
0.512902 0.477790 0.311894
0.614771 0.552300 0.385046
0.693324 0.613062 0.458991
0.748775 0.656458 0.519310
0.790951 0.689387 0.568597
0.822507 0.713130 0.607416
0.845378 0.731499 0.641073
0.194797 0.488746 0.088228
0.209354 0.489326 0.093751
0.234012 0.490974 0.103304
0.269169 0.493019 0.118196
0.312718 0.496223 0.138857
0.360937 0.499825 0.164523
0.411536 0.504814 0.196078
0.460182 0.510033 0.232181
0.505486 0.516808 0.274235
0.543267 0.524437 0.320165
0.577173 0.538048 0.371954
0.667597 0.611322 0.462562
0.733608 0.667597 0.540002
0.778103 0.703273 0.591394
0.809964 0.727840 0.630182
0.832110 0.744034 0.658552
0.215763 0.541100 0.071168
0.222019 0.535302 0.073701
0.243168 0.533593 0.084352
0.278141 0.534600 0.102419
0.322942 0.537743 0.126223
0.372656 0.541314 0.155337
0.424659 0.545953 0.189517
0.476020 0.551659 0.228916
0.524132 0.558801 0.273747
0.564630 0.565789 0.321447
0.598413 0.574487 0.373053
0.627893 0.588952 0.431342
0.704677 0.655512 0.523980
0.757900 0.700893 0.586572
0.792752 0.728634 0.628534
0.817346 0.748453 0.661799
0.258762 0.598260 0.070954
0.251072 0.589227 0.053010
0.265415 0.585199 0.057527
0.300298 0.585473 0.082643
0.345922 0.587945 0.114107
0.396918 0.591241 0.149966
0.450660 0.595972 0.190890
0.501427 0.600549 0.235111
0.548241 0.606043 0.283360
0.589197 0.611963 0.334783
0.624353 0.619348 0.389807
0.652247 0.627619 0.445258
0.679347 0.645686 0.511528
0.743130 0.702937 0.589563
0.781857 0.736965 0.639246
0.805514 0.756754 0.672148
0.347739 0.666512 0.141955
0.338085 0.658868 0.121986
0.337625 0.652875 0.101124
0.355496 0.649585 0.095937
0.399097 0.651573 0.134651
0.447434 0.654356 0.177399
0.498245 0.658271 0.225485
0.547652 0.662909 0.277621
0.594558 0.669066 0.335114
0.636631 0.676438 0.395904
0.672664 0.685242 0.457454
0.701524 0.694721 0.516757
0.726570 0.708437 0.573797
0.754218 0.732999 0.634550
0.789894 0.766362 0.685865
0.809093 0.787797 0.722685
0.000000 0.062043 0.176730
0.053773 0.056031 0.172396
0.153201 0.038880 0.160250
0.254887 0.046143 0.147189
0.384253 0.021729 0.141299
0.491615 0.038361 0.144137
0.595727 0.089082 0.155459
0.678065 0.153780 0.171633
0.739803 0.220920 0.192111
0.784756 0.288548 0.221439
0.818448 0.343786 0.250401
0.845914 0.391577 0.280583
0.868742 0.434668 0.313481
0.888945 0.477485 0.354528
0.904906 0.514488 0.395972
0.917142 0.544731 0.433677
0.045441 0.109773 0.173342
0.092317 0.095491 0.164370
0.162661 0.085878 0.153597
0.261997 0.093507 0.150790
0.381445 0.085359 0.146456
0.497597 0.112459 0.158145
0.599481 0.147921 0.169253
0.679042 0.197116 0.184085
0.741115 0.256626 0.206638
0.784848 0.313787 0.233616
0.817685 0.361028 0.259770
0.844480 0.404364 0.288334
0.867216 0.444190 0.320348
0.887114 0.483650 0.359045
0.903105 0.518730 0.399176
0.915643 0.549125 0.437909
0.082643 0.148989 0.168093
0.123598 0.145663 0.166049
0.186648 0.144991 0.161196
0.285710 0.152193 0.164462
0.398077 0.167941 0.170504
0.510521 0.189792 0.179843
0.606958 0.219669 0.191318
0.683497 0.260349 0.207523
0.742336 0.305150 0.226719
0.783536 0.347906 0.249302
0.814633 0.386328 0.272892
0.840726 0.422431 0.298650
0.863767 0.458717 0.329870
0.883757 0.494575 0.367468
0.900053 0.527398 0.406409
0.912984 0.556161 0.444326
0.094484 0.209415 0.178988
0.144533 0.202701 0.170901
0.191135 0.196933 0.173861
0.309667 0.230594 0.186191
0.413916 0.246830 0.192599
0.517693 0.266239 0.201175
0.609369 0.290654 0.212802
0.683925 0.323125 0.228672
0.737911 0.355413 0.245975
0.777218 0.387823 0.267155
0.808286 0.418616 0.289708
0.834836 0.448890 0.314824
0.858854 0.481788 0.347570
0.878630 0.511467 0.380987
0.894713 0.537804 0.413519
0.907946 0.561975 0.446301
0.118471 0.239414 0.153994
0.149294 0.231052 0.148623
0.192721 0.223667 0.162539
0.237491 0.231540 0.180758
0.373632 0.287419 0.200046
0.524315 0.341192 0.224643
0.608972 0.361791 0.236698
0.679011 0.386877 0.253452
0.730648 0.411688 0.271977
0.769802 0.437232 0.294621
0.801785 0.462104 0.318242
0.830228 0.490181 0.348455
0.854307 0.517479 0.380713
0.874327 0.543999 0.415442
0.890684 0.568109 0.449104
0.903736 0.588502 0.478984
0.141054 0.280064 0.146670
0.170169 0.276677 0.150698
0.209140 0.272007 0.162142
0.246067 0.265232 0.179690
0.299596 0.281010 0.202274
0.447150 0.352300 0.230320
0.586206 0.415442 0.264012
0.679957 0.461158 0.296757
0.726192 0.476417 0.314855
0.763394 0.492561 0.334997
0.795041 0.510307 0.357824
0.822904 0.530327 0.384222
0.846616 0.550256 0.411719
0.866575 0.570672 0.441718
0.883207 0.590173 0.471656
0.896833 0.608935 0.501643
0.160983 0.320562 0.145571
0.186831 0.320714 0.152346
0.222599 0.318059 0.162875
0.264195 0.313542 0.179110
0.300572 0.307958 0.201877
0.368353 0.336095 0.230564
0.513725 0.414221 0.268040
0.632959 0.479103 0.310918
0.712398 0.524651 0.355291
0.756863 0.544518 0.382177
0.787167 0.555383 0.400366
0.814389 0.568994 0.422095
0.837705 0.583398 0.445563
0.857786 0.598779 0.471199
0.874662 0.614466 0.497963
0.888892 0.630599 0.525774
0.176394 0.355383 0.145113
0.199496 0.356939 0.151858
0.232090 0.355688 0.161563
0.272679 0.352636 0.176455
0.313725 0.348241 0.196994
0.347723 0.343816 0.223392
0.426551 0.382910 0.256565
0.561273 0.461952 0.302037
