example_ofxGpuLutCube/bin/data/ofxGpuLutCube/LUT/U41 (pink sunset fade).cube
LUT_3D_SIZE 6
0.000000 0.000000 0.000000
0.291814 0.000000 0.010193
0.629297 0.000000 0.000000
0.816953 0.175235 0.026093
0.895048 0.381140 0.189487
0.933990 0.518460 0.362336
0.016388 0.116152 0.015686
0.174868 0.137179 0.044007
0.626123 0.229252 0.018738
0.800015 0.326848 0.112215
0.877806 0.437934 0.234226
0.922216 0.540993 0.384169
0.084871 0.266514 0.043183
0.200259 0.264378 0.088869
0.465278 0.366583 0.181552
0.774990 0.538537 0.308415
0.853300 0.574456 0.391547
0.899257 0.621604 0.490410
0.148898 0.381537 0.072755
0.233433 0.381384 0.104189
0.369696 0.384100 0.184604
0.629908 0.532555 0.339849
0.806851 0.660029 0.513817
0.870345 0.699493 0.596023
0.179873 0.477974 0.059846
0.256870 0.483772 0.094118
0.401404 0.497200 0.176547
0.537224 0.518242 0.304387
0.731991 0.663905 0.529320
0.832229 0.741319 0.650615
0.339011 0.660139 0.101450
0.359215 0.645628 0.082882
0.498237 0.654537 0.216315
0.636071 0.674024 0.389499
0.726712 0.707875 0.571503
0.809150 0.787237 0.720821
0.000000 0.062043 0.176730
0.254887 0.046143 0.147189
0.595727 0.089082 0.155459
0.784756 0.288548 0.221439
0.868742 0.434668 0.313481
0.917142 0.544731 0.433677
0.094484 0.209415 0.178988
0.309667 0.230594 0.186191
0.609369 0.290654 0.212802
0.777218 0.387823 0.267155
0.858854 0.481788 0.347570
0.907946 0.561975 0.446301
0.160983 0.320562 0.145571
0.264195 0.313542 0.179110
0.513725 0.414221 0.268040
0.756863 0.544518 0.382177
0.837705 0.583398 0.445563
0.888892 0.630599 0.525774
0.205142 0.413977 0.145022
0.281437 0.413153 0.170382
0.405097 0.413123 0.241123
0.643519 0.552911 0.391669
0.804593 0.669337 0.548882
0.865517 0.704641 0.616722
0.205966 0.497169 0.112978
0.279240 0.500511 0.140169
0.420722 0.512016 0.214969
0.549737 0.531121 0.336187
0.735775 0.672175 0.551843
0.832022 0.746539 0.666007
0.354457 0.672152 0.176628
0.352842 0.653581 0.117429
0.495081 0.660541 0.231218
0.636646 0.678641 0.401434
0.727096 0.709973 0.577550
0.809249 0.788780 0.725454
0.012421 0.180636 0.387671
0.275059 0.162356 0.375036
0.557458 0.209110 0.356329
0.751553 0.331975 0.381964
0.836271 0.487434 0.458686
0.890045 0.586916 0.543657
0.253178 0.319005 0.391699
0.354589 0.291844 0.386206
0.579828 0.327459 0.386206
0.739986 0.423377 0.418097
0.826963 0.525780 0.482277
0.884168 0.595382 0.544122
0.318822 0.463691 0.412665
0.405921 0.448219 0.394507
0.609583 0.520256 0.462593
0.727993 0.560693 0.497536
0.813077 0.606683 0.543236
0.872414 0.649972 0.593635
0.353216 0.512657 0.344732
0.387396 0.492592 0.328099
0.491005 0.490211 0.384771
0.676356 0.606714 0.516258
0.804105 0.693477 0.623407
0.855955 0.714681 0.658269
0.318730 0.569268 0.289952
0.333196 0.550286 0.260258
0.460182 0.550072 0.307683
0.579156 0.565148 0.415564
0.746273 0.693538 0.604669
0.831799 0.759070 0.701608
0.388200 0.704401 0.341229
0.385805 0.688258 0.295591
0.457681 0.671765 0.247955
0.630607 0.689203 0.423008
0.728752 0.716945 0.594136
0.809961 0.793792 0.739299
0.258030 0.337835 0.554925
0.364996 0.333623 0.553399
0.582879 0.327184 0.557977
0.712795 0.433112 0.545037
0.806790 0.527428 0.572808
0.861584 0.621100 0.634053
0.382177 0.435889 0.566735
0.436011 0.421790 0.560632
0.592859 0.412390 0.562921
0.708125 0.482124 0.555535
0.799619 0.550469 0.580346
0.857363 0.627166 0.633232
0.463233 0.527642 0.558129
0.509331 0.535454 0.566247
0.598840 0.533928 0.570672
0.703578 0.565057 0.580743
0.790005 0.615991 0.615656
0.853938 0.668414 0.661955
0.521813 0.624659 0.595026
0.549065 0.621149 0.590265
0.595270 0.600000 0.573114
0.719600 0.672389 0.647913
0.792203 0.697414 0.673365
0.847763 0.721633 0.700627
0.513817 0.669917 0.568933
0.526360 0.663416 0.560052
0.520195 0.624018 0.483711
0.617517 0.618921 0.532952
0.761440 0.726406 0.679927
0.832871 0.779944 0.753407
0.476447 0.759047 0.579904
0.469598 0.749111 0.556131
0.486613 0.729178 0.488037
0.595207 0.708222 0.446671
0.731113 0.731801 0.622793
0.810747 0.801892 0.761533
0.473487 0.518853 0.687098
0.511406 0.518578 0.687678
0.606134 0.517998 0.690608
0.721920 0.534417 0.694301
0.787472 0.600458 0.687434
0.841807 0.656799 0.708139
0.517784 0.562310 0.691035
0.541131 0.557397 0.689174
0.617823 0.555779 0.693355
0.719203 0.563226 0.695644
0.783139 0.614710 0.689448
0.838110 0.659037 0.705627
0.561089 0.616693 0.685512
0.580926 0.617853 0.689174
0.628351 0.612177 0.695033
0.713100 0.613581 0.699062
0.779141 0.650690 0.701503
0.834723 0.690472 0.724330
0.589868 0.668910 0.700374
0.606836 0.671290 0.701808
0.647242 0.677028 0.705165
0.708583 0.676967 0.715602
0.777920 0.699916 0.724514
0.830457 0.735602 0.753410
0.611658 0.734768 0.729183
0.626215 0.736782 0.731563
0.664546 0.742947 0.738552
0.692897 0.719173 0.708431
0.785397 0.777615 0.778683
0.828814 0.787811 0.788544
0.613606 0.803006 0.754741
0.613792 0.799434 0.748554
0.632307 0.796114 0.741642
0.653579 0.784359 0.713537
0.723504 0.759717 0.671883
0.811466 0.814886 0.796162
0.640628 0.681556 0.801828
0.652410 0.681709 0.802411
0.686231 0.682228 0.804189
0.745632 0.684833 0.808503
0.808567 0.698808 0.810361
0.834465 0.737269 0.801539
0.650573 0.695344 0.802341
0.658509 0.693222 0.802635
0.687758 0.691603 0.803528
0.742494 0.690609 0.806559
0.803811 0.697655 0.806199
0.831464 0.731419 0.795782
0.659029 0.718211 0.801363
0.671978 0.720999 0.802976
0.693478 0.718081 0.805789
0.740604 0.717659 0.809604
0.799755 0.721562 0.810903
0.829142 0.750937 0.804527
0.665354 0.747536 0.805929
0.673803 0.748547 0.805841
0.693620 0.749238 0.807710
0.733932 0.750713 0.813933
0.792969 0.752709 0.818437
0.826029 0.775971 0.816002
0.679173 0.785264 0.820241
0.686667 0.785752 0.820426
0.707795 0.787672 0.821343
0.740755 0.791460 0.822820
0.782200 0.792872 0.829717
0.823519 0.807488 0.832496
0.688875 0.828400 0.835443
0.693281 0.827972 0.835135
0.711729 0.828567 0.836281
0.744757 0.829303 0.838094
0.787581 0.833098 0.843562
0.818482 0.842951 0.857465
