example_ofxGpuLutCube/bin/data/ofxGpuLutCube/LUT/U42 (pink sunset fade_2).cube
LUT_3D_SIZE 6
0.000000 0.000000 0.000000
0.296788 0.000000 0.010742
0.640101 0.000000 0.012757
0.825010 0.063722 0.087434
0.880278 0.309789 0.215518
0.880348 0.460711 0.371249
0.023041 0.119295 0.029023
0.259648 0.245548 0.189578
0.594995 0.243565 0.124025
0.792630 0.310796 0.178744
0.854734 0.401465 0.276616
0.863082 0.500736 0.408394
0.064698 0.232700 0.065248
0.236942 0.321691 0.132906
0.624903 0.602411 0.545983
0.728145 0.569116 0.447242
0.794888 0.567590 0.457801
0.814211 0.604051 0.531118
0.067384 0.297642 0.074037
0.122927 0.288579 0.065797
0.560082 0.573510 0.403967
0.702693 0.703090 0.683497
0.734279 0.691890 0.650477
0.764858 0.677951 0.630196
0.000000 0.332799 0.048890
0.044862 0.322118 0.034943
0.364324 0.496803 0.180514
0.689143 0.694789 0.634546
0.726589 0.737087 0.730343
0.734858 0.730619 0.715085
0.000000 0.476453 0.000000
0.000000 0.435888 0.000000
0.001143 0.419685 0.000000
0.636526 0.681339 0.501324
0.726628 0.738212 0.724122
0.735038 0.748863 0.745959
0.006317 0.043549 0.102327
0.260014 0.101961 0.167361
0.651667 0.000000 0.130617
0.811612 0.196170 0.199466
0.864988 0.360723 0.292180
0.869405 0.483969 0.414039
0.112398 0.198062 0.161807
0.307500 0.266880 0.220188
0.618189 0.290013 0.223117
0.785183 0.358160 0.269291
0.842893 0.438880 0.345800
0.854091 0.517471 0.443007
0.143008 0.308995 0.155154
0.273228 0.348638 0.190768
0.620417 0.594079 0.537469
0.719570 0.559075 0.451453
0.788296 0.573358 0.480659
0.809779 0.608810 0.544930
0.123781 0.350805 0.130434
0.164645 0.333043 0.113985
0.568322 0.580072 0.434211
0.702144 0.701961 0.682277
0.733333 0.690272 0.650324
0.763282 0.680415 0.637000
0.000671 0.371527 0.084932
0.069612 0.358465 0.070344
0.348913 0.488472 0.181186
0.689479 0.695613 0.639460
0.726802 0.737362 0.730709
0.735009 0.731044 0.716149
0.000000 0.501931 0.000178
0.000000 0.464240 0.000062
0.000741 0.447061 0.000000
0.626802 0.677836 0.483893
0.726569 0.738246 0.724161
0.735131 0.748987 0.746146
0.000000 0.101747 0.233616
0.248600 0.182406 0.326757
0.593194 0.329259 0.420935
0.805264 0.239994 0.358099
0.853788 0.395880 0.395056
0.852222 0.519024 0.487703
0.140902 0.227054 0.271946
0.337865 0.314519 0.363195
0.622736 0.380896 0.429389
0.788510 0.357946 0.377661
0.829252 0.471382 0.439002
0.841552 0.538827 0.499204
0.290990 0.417975 0.353429
0.399786 0.463142 0.391699
0.608576 0.563653 0.511681
0.716823 0.565332 0.502770
0.779080 0.589471 0.534356
0.802410 0.619338 0.576873
0.309789 0.490486 0.325628
0.331365 0.474311 0.302037
0.577722 0.589563 0.485573
0.701106 0.698939 0.679194
0.732570 0.685023 0.648798
0.761305 0.684513 0.650490
0.142855 0.475441 0.213443
0.173434 0.462745 0.194125
0.239445 0.423590 0.139315
0.686946 0.694667 0.643427
0.727230 0.737819 0.731502
0.735435 0.730953 0.716971
0.000000 0.562293 0.130699
0.000000 0.530340 0.091268
0.001000 0.509268 0.000597
0.564892 0.653793 0.375326
0.726087 0.738069 0.723721
0.735349 0.749388 0.746734
0.000000 0.175875 0.369574
0.238529 0.244419 0.440101
0.593530 0.450324 0.572229
0.709957 0.559258 0.605432
0.801022 0.532311 0.575525
0.826811 0.562980 0.573470
0.183200 0.281193 0.403723
0.321996 0.337804 0.463508
0.604913 0.513939 0.580682
0.709071 0.577691 0.608820
0.797665 0.540337 0.570153
0.823864 0.567237 0.570090
0.247776 0.381445 0.398871
0.362432 0.432471 0.444953
0.616358 0.589075 0.590784
0.716182 0.586816 0.592157
0.776699 0.593622 0.585321
0.795512 0.628685 0.615173
0.448615 0.562402 0.502922
0.504021 0.582330 0.527153
0.588586 0.611139 0.558404
0.694118 0.681910 0.660517
0.736080 0.677363 0.651759
0.763685 0.684457 0.663143
0.335119 0.578424 0.424231
0.378698 0.588220 0.435645
0.456428 0.593744 0.437690
0.663172 0.677058 0.615442
0.727108 0.737301 0.731228
0.736951 0.728760 0.715356
0.000000 0.620911 0.302501
0.000535 0.605826 0.272422
0.134893 0.616752 0.287769
0.311815 0.589039 0.148783
0.723084 0.735887 0.718366
0.735748 0.749973 0.747687
0.108553 0.274327 0.518456
0.288975 0.334112 0.560327
0.573022 0.507317 0.641230
0.700008 0.627253 0.685298
0.733730 0.675196 0.696071
0.765255 0.670672 0.688363
0.204318 0.333928 0.521447
0.325780 0.380072 0.560754
0.584497 0.541253 0.642206
0.699336 0.642603 0.686610
0.731167 0.681239 0.697383
0.766919 0.664178 0.681524
0.168795 0.355261 0.454841
0.329412 0.430152 0.521141
0.579004 0.572625 0.629664
0.696895 0.667597 0.688716
0.730373 0.688472 0.698604
0.763938 0.675667 0.685871
0.247654 0.479957 0.489296
0.326085 0.503105 0.511437
0.502068 0.564660 0.571679
0.695094 0.693019 0.694728
0.732296 0.692561 0.694789
0.759692 0.690696 0.690124
0.453803 0.623316 0.571710
0.497780 0.634363 0.587335
0.595026 0.664210 0.630396
0.673396 0.696040 0.674159
0.723598 0.730068 0.723232
0.741509 0.725280 0.716246
0.328165 0.675985 0.550242
0.320467 0.669678 0.537912
0.404184 0.677640 0.548264
0.513709 0.689161 0.561997
0.685488 0.715315 0.648851
0.736242 0.750981 0.749187
0.388549 0.473429 0.674139
0.466894 0.509061 0.684341
0.610175 0.600367 0.705344
0.704067 0.689101 0.726876
0.730594 0.714309 0.733952
0.738892 0.727599 0.735823
0.388858 0.486980 0.667776
0.456153 0.513283 0.679364
0.604196 0.601354 0.701688
0.700673 0.686749 0.724267
0.728763 0.710798 0.731210
0.738226 0.723074 0.732247
0.254073 0.468553 0.631068
0.394380 0.513476 0.653120
0.571344 0.594144 0.690848
0.695942 0.690092 0.722088
0.727926 0.719343 0.733446
0.737375 0.729543 0.735688
0.000000 0.426701 0.554960
0.000000 0.425672 0.557716
0.252222 0.496083 0.617076
0.662219 0.671164 0.708802
0.726998 0.728799 0.736507
0.736561 0.736460 0.739484
0.001690 0.603322 0.625207
0.002549 0.604925 0.628245
0.280452 0.612289 0.639790
0.503401 0.631884 0.662633
0.719364 0.729694 0.734008
0.737457 0.742152 0.743177
0.398482 0.714825 0.679194
0.411568 0.712971 0.677440
0.492755 0.714981 0.684374
0.611159 0.721569 0.701207
0.709575 0.738154 0.731144
0.736629 0.751813 0.750771
