example_ofxGpuLutCube/bin/data/ofxGpuLutCube/LUT/U42 (pink sunset fade_2).cube
LUT_3D_SIZE 16
0.000000 0.000000 0.000000
0.052064 0.010590 0.004334
0.168948 0.007752 0.008789
0.296788 0.000000 0.010742
0.418555 0.000000 0.010437
0.540490 0.000000 0.009308
0.640101 0.000000 0.012757
0.726497 0.000000 0.025391
0.784543 0.000000 0.052827
0.825010 0.063722 0.087434
0.852384 0.174014 0.126925
0.870024 0.248142 0.169650
0.880278 0.309789 0.215518
0.884916 0.367315 0.267521
0.884276 0.419440 0.322667
0.880348 0.460711 0.371249
0.010193 0.037354 0.011658
0.041962 0.047852 0.030793
0.139925 0.062715 0.024323
0.267674 0.053346 0.022522
0.397040 0.009400 0.021393
0.521233 0.000000 0.022004
0.634882 0.000000 0.028351
0.721736 0.000000 0.046632
0.778714 0.037476 0.072175
0.819944 0.141756 0.104768
0.847379 0.214389 0.141878
0.865202 0.275303 0.182589
0.875792 0.328038 0.226078
0.880919 0.380804 0.276860
0.880705 0.429664 0.330755
0.876898 0.470481 0.380847
0.016541 0.077607 0.020386
0.056001 0.086702 0.029267
0.127474 0.128054 0.094179
0.248142 0.143099 0.069429
0.366979 0.130129 0.056306
0.507958 0.121798 0.059602
0.623957 0.119326 0.068238
0.709438 0.139559 0.083314
0.767819 0.176516 0.104891
0.810452 0.226139 0.134798
0.838193 0.273228 0.168948
0.856504 0.318029 0.206577
0.867735 0.359808 0.246647
0.873594 0.405646 0.295720
0.874205 0.448524 0.347265
0.870700 0.486984 0.397358
0.023041 0.119295 0.029023
0.058076 0.123842 0.032258
0.140871 0.163607 0.081117
0.259648 0.245548 0.189578
0.387182 0.261234 0.153384
0.488624 0.243961 0.126741
0.594995 0.243565 0.124025
0.684749 0.258518 0.134707
0.748775 0.282200 0.153292
0.792630 0.310796 0.178744
0.821683 0.339452 0.207370
0.841581 0.369635 0.239750
0.854734 0.401465 0.276616
0.862211 0.435920 0.319585
0.864683 0.468513 0.363287
0.863082 0.500736 0.408394
0.037446 0.159640 0.041840
0.062409 0.158053 0.039307
0.144289 0.204623 0.080415
0.277287 0.283635 0.174807
0.429572 0.398627 0.320806
0.534691 0.411688 0.279118
0.609491 0.393194 0.239994
0.672145 0.378210 0.219120
0.733425 0.393439 0.233127
0.776272 0.410559 0.254734
0.805234 0.427070 0.278508
0.825437 0.446509 0.307927
0.838712 0.469062 0.342596
0.845945 0.494270 0.381933
0.848325 0.518944 0.420905
0.847873 0.540123 0.454531
0.052857 0.198398 0.055024
0.073854 0.197604 0.052674
0.136812 0.231662 0.077638
0.265049 0.310307 0.153323
0.423316 0.411414 0.289799
0.549737 0.517571 0.442176
0.618280 0.524163 0.404974
0.670527 0.510338 0.367529
0.711635 0.489815 0.335088
0.749966 0.486183 0.331792
0.780606 0.494575 0.348394
0.802884 0.506462 0.371862
0.817838 0.520592 0.399115
0.826780 0.537652 0.430762
0.830961 0.555413 0.462776
0.831867 0.572423 0.492263
0.064698 0.232700 0.065248
0.081880 0.231144 0.062623
0.122438 0.245701 0.071565
0.236942 0.321691 0.132906
0.400275 0.421546 0.248783
0.543969 0.523980 0.416754
0.624903 0.602411 0.545983
0.665431 0.602747 0.516472
0.698329 0.587457 0.479683
0.728145 0.569116 0.447242
0.754421 0.551232 0.420905
0.778225 0.558923 0.437934
0.794888 0.567590 0.457801
0.805600 0.578729 0.481575
0.811612 0.591180 0.506676
0.814211 0.604051 0.531118
0.070802 0.259953 0.071290
0.084596 0.258671 0.069215
0.106050 0.253941 0.064637
0.204318 0.323064 0.112764
0.361273 0.421332 0.211307
0.519341 0.520226 0.362615
0.614466 0.597681 0.518730
0.662135 0.648432 0.607385
0.687037 0.646204 0.584192
0.710323 0.635798 0.557977
0.732845 0.623255 0.534264
0.753811 0.610803 0.514458
0.771939 0.606012 0.510246
0.784543 0.612787 0.526452
0.792721 0.620630 0.544213
0.797344 0.629845 0.563398
0.071626 0.277562 0.073793
0.082856 0.274907 0.071382
0.101167 0.270420 0.067079
0.161807 0.305455 0.088411
0.300969 0.398932 0.166812
0.467750 0.500847 0.299596
0.592615 0.585962 0.461372
0.655360 0.645228 0.591180
0.686915 0.681209 0.652827
0.703243 0.680293 0.638636
0.719142 0.674525 0.622766
0.734829 0.666926 0.607752
0.749905 0.658320 0.593713
0.763912 0.650324 0.582300
0.773281 0.653834 0.591852
0.779234 0.659212 0.604209
0.067384 0.297642 0.074037
0.078065 0.294255 0.071534
0.094789 0.289403 0.067445
0.122927 0.288579 0.065797
0.246311 0.379187 0.129885
0.412970 0.482856 0.245121
0.560082 0.573510 0.403967
0.643732 0.637659 0.549706
0.682795 0.679469 0.643977
0.702693 0.703090 0.683497
0.712673 0.701717 0.673121
0.723201 0.697444 0.661616
0.734279 0.691890 0.650477
0.745327 0.686488 0.641321
0.755795 0.681727 0.634516
0.764858 0.677951 0.630196
0.051972 0.314336 0.069306
0.063508 0.311559 0.067048
0.080964 0.306249 0.062928
0.103120 0.298009 0.056367
0.185794 0.352422 0.089754
0.349706 0.460029 0.189761
0.516777 0.558160 0.342107
0.622553 0.628077 0.501427
0.676295 0.674006 0.614282
0.700282 0.702358 0.678950
0.712795 0.717494 0.703670
0.718898 0.715755 0.695552
0.726192 0.713100 0.687953
0.734005 0.709377 0.680171
0.742061 0.704921 0.672328
0.750279 0.699785 0.664170
0.017029 0.330602 0.058625
0.030304 0.327764 0.056641
0.053285 0.322637 0.052857
0.080079 0.314153 0.046448
0.115358 0.312596 0.043153
0.268956 0.424231 0.126558
0.452125 0.532738 0.266880
0.587274 0.612024 0.435523
0.660090 0.663905 0.572107
0.694606 0.696071 0.654139
0.710384 0.715877 0.699214
0.718746 0.726009 0.715328
0.722896 0.724392 0.708949
0.728145 0.722194 0.702846
0.734005 0.719600 0.697139
0.740107 0.717183 0.692577
0.000000 0.332799 0.048890
0.000000 0.330755 0.046784
0.012634 0.327916 0.041779
0.044862 0.322118 0.034943
0.078126 0.313787 0.025422
0.170138 0.371160 0.056397
0.364324 0.496803 0.180514
0.540459 0.594476 0.359045
0.641169 0.657374 0.528344
0.689143 0.694789 0.634546
0.711055 0.717220 0.691798
0.721187 0.730526 0.720272
0.726589 0.737087 0.730343
0.728908 0.735836 0.726131
0.731655 0.733761 0.721248
0.734858 0.730619 0.715085
0.000000 0.370550 0.018830
0.000000 0.358038 0.021180
0.000000 0.349920 0.019257
0.000000 0.342962 0.013977
0.024018 0.335302 0.005676
0.073091 0.324224 0.000000
0.251865 0.447639 0.081605
0.465370 0.566003 0.257298
0.605097 0.642512 0.454078
0.672908 0.686061 0.592767
0.704372 0.711879 0.670130
0.718471 0.726925 0.708461
0.725704 0.736507 0.728603
0.729183 0.740749 0.735225
0.730648 0.739437 0.731380
0.732581 0.737775 0.727573
0.000000 0.410498 0.000000
0.000000 0.394171 0.000000
0.000000 0.383581 0.000000
0.000000 0.375280 0.000000
0.000000 0.368261 0.000000
0.000824 0.358862 0.000000
0.114260 0.389593 0.000000
0.358618 0.529931 0.135042
0.550530 0.623499 0.352483
0.648219 0.676081 0.533501
0.694148 0.706325 0.640589
0.714626 0.723812 0.694881
0.724453 0.734737 0.721614
0.729397 0.741512 0.735561
0.731716 0.744320 0.739895
0.732622 0.743383 0.737267
0.000000 0.476453 0.000000
0.000000 0.455866 0.000000
0.000000 0.443584 0.000000
0.000000 0.435888 0.000000
0.000000 0.430832 0.000000
0.000008 0.424998 0.000000
0.001143 0.419685 0.000000
0.248764 0.510565 0.001350
0.507325 0.623016 0.268462
0.636526 0.681339 0.501324
0.693061 0.711733 0.634727
0.716318 0.728193 0.696240
0.726628 0.738212 0.724122
0.731541 0.744201 0.737615
0.734012 0.747885 0.744759
0.735038 0.748863 0.745959
0.004486 0.011627 0.017517
0.053651 0.025208 0.032807
0.199130 0.000000 0.031495
0.318151 0.000000 0.028229
0.425666 0.000000 0.037324
0.539483 0.000000 0.044129
0.642023 0.000000 0.054719
0.723903 0.000000 0.071717
0.779629 0.000000 0.092653
0.820310 0.126131 0.120821
0.847868 0.205509 0.154726
0.865415 0.268101 0.191836
0.876036 0.321721 0.232029
0.881376 0.374487 0.279606
0.881559 0.422980 0.330114
0.878327 0.463254 0.377125
0.015961 0.048005 0.033600
0.067628 0.066560 0.048249
0.168276 0.072053 0.048035
0.287541 0.066346 0.051789
0.410834 0.042176 0.055665
0.531243 0.001892 0.062257
0.639643 0.000000 0.073487
0.720699 0.036622 0.089174
0.776120 0.112337 0.109071
0.817288 0.182498 0.137331
0.843992 0.242405 0.169833
0.861326 0.294499 0.205478
0.871946 0.340703 0.243717
0.877592 0.388495 0.289464
0.878172 0.432929 0.338140
0.875121 0.472084 0.385393
0.031281 0.106233 0.051331
0.080537 0.111025 0.059174
0.158968 0.153140 0.116762
0.267887 0.157290 0.096376
0.394690 0.154513 0.093141
0.525383 0.152773 0.098634
0.633051 0.156832 0.107240
0.712520 0.177768 0.120272
0.770047 0.212833 0.139834
0.809689 0.255192 0.166262
0.835599 0.294469 0.195315
0.853025 0.333135 0.227543
0.864317 0.370825 0.263584
0.870512 0.412543 0.307836
0.871794 0.451545 0.354284
0.869316 0.487075 0.399815
0.050263 0.148257 0.059998
0.083162 0.148135 0.060029
0.171756 0.189883 0.116518
0.287907 0.267704 0.209079
0.403754 0.276005 0.176761
0.499977 0.258671 0.152255
0.608667 0.267918 0.155795
0.693172 0.284550 0.166964
0.752285 0.306310 0.183993
0.792874 0.331243 0.206516
0.820310 0.356695 0.231754
0.839353 0.383764 0.261082
0.852232 0.414801 0.296941
0.859434 0.446418 0.336461
0.862119 0.475715 0.375586
0.861182 0.504161 0.415345
0.061555 0.179477 0.065980
0.083803 0.177157 0.062379
0.162234 0.217075 0.102480
0.285863 0.289921 0.193545
0.421454 0.389410 0.313390
0.520684 0.399207 0.276707
0.597375 0.384222 0.243473
0.665522 0.377356 0.230137
0.727291 0.393042 0.243473
0.770871 0.409857 0.263066
0.800839 0.426978 0.286046
0.821988 0.447089 0.314519
0.836027 0.470069 0.348425
0.843900 0.494728 0.385901
0.846952 0.518761 0.423072
0.846680 0.540877 0.457364
0.072389 0.214694 0.074189
0.090455 0.212497 0.071077
0.148501 0.239414 0.092958
0.272190 0.313725 0.167453
0.424170 0.411719 0.300725
0.544182 0.510735 0.435248
0.610529 0.514885 0.398230
0.663050 0.501274 0.362829
0.705013 0.482002 0.332525
0.745510 0.482765 0.334203
0.777249 0.492927 0.351904
0.800259 0.505730 0.375372
0.815793 0.520073 0.401984
0.825406 0.536553 0.431800
0.830137 0.554040 0.462593
0.831134 0.572016 0.493017
0.079805 0.247105 0.080903
0.095644 0.245151 0.078004
0.130800 0.253025 0.082856
0.245762 0.326940 0.145388
0.404364 0.423621 0.259953
0.541711 0.522210 0.421057
0.620020 0.595941 0.537896
0.660395 0.595422 0.508141
0.694667 0.581567 0.474067
0.725032 0.564141 0.443305
0.751949 0.548516 0.420539
0.776272 0.556329 0.437171
0.793545 0.565209 0.456733
0.804837 0.576257 0.479774
0.811368 0.588647 0.504295
0.814057 0.602546 0.529916
0.082948 0.271244 0.084108
0.096315 0.269352 0.081483
0.116426 0.263676 0.076600
0.208103 0.324132 0.120607
0.360143 0.418555 0.216709
0.515496 0.516289 0.364172
0.611566 0.595026 0.518608
0.659693 0.645075 0.603082
0.684962 0.642725 0.579980
0.708522 0.632319 0.554009
0.731289 0.619654 0.530205
0.752529 0.607324 0.510674
0.770962 0.604303 0.509178
0.783963 0.611017 0.525017
0.792966 0.616724 0.538964
0.798676 0.623582 0.554131
0.081941 0.289097 0.084291
0.092805 0.286595 0.082338
0.110658 0.281224 0.077638
0.166293 0.309392 0.095430
0.305058 0.401343 0.174380
0.469764 0.501762 0.306279
0.592950 0.586267 0.465888
0.654749 0.644953 0.592706
0.686061 0.679896 0.651026
0.702327 0.678737 0.636683
0.718379 0.672877 0.620813
0.734218 0.665187 0.605768
0.749538 0.656550 0.591608
0.763729 0.648798 0.580652
0.772915 0.653712 0.592462
0.778716 0.659785 0.605816
0.076478 0.306889 0.083131
0.086854 0.303624 0.080568
0.102785 0.298497 0.076509
0.125795 0.291508 0.070619
0.250126 0.381842 0.136019
0.416083 0.484749 0.251713
0.560693 0.573816 0.408270
0.643366 0.637293 0.551354
0.682124 0.678828 0.643977
0.701991 0.702022 0.682094
0.712032 0.700404 0.671382
0.722744 0.696193 0.659937
0.733974 0.690822 0.649165
0.745144 0.685695 0.640436
0.755734 0.681056 0.633875
0.764586 0.678307 0.631276
0.060609 0.322850 0.077516
0.071778 0.319951 0.075074
0.087800 0.314519 0.070619
0.109926 0.306188 0.064179
0.187045 0.353185 0.093690
0.350744 0.460426 0.193729
0.516716 0.557671 0.345373
0.621912 0.627253 0.502342
0.675563 0.673274 0.614221
0.699825 0.701869 0.678645
0.712306 0.716762 0.702724
0.718532 0.714992 0.694514
0.725765 0.711818 0.686030
0.733730 0.707942 0.678004
0.742061 0.703700 0.670497
0.750400 0.698926 0.663064
0.023682 0.337530 0.066560
0.037751 0.334813 0.064424
0.059907 0.329198 0.060090
0.085237 0.320195 0.053254
0.113863 0.311101 0.045747
0.267124 0.422614 0.128542
0.450416 0.531212 0.268070
0.586084 0.610925 0.435828
0.658717 0.662501 0.570764
0.693568 0.694820 0.652583
0.709468 0.714839 0.697902
0.717922 0.724880 0.713802
0.722225 0.722988 0.706935
0.727565 0.720668 0.700435
0.733700 0.717861 0.694362
0.740104 0.715443 0.689800
0.000000 0.340856 0.053956
0.000000 0.338750 0.051759
0.014221 0.335515 0.047089
0.048249 0.329381 0.040620
0.081544 0.320409 0.030030
0.166842 0.369055 0.056977
0.362615 0.496040 0.181430
0.540368 0.594537 0.360906
0.641047 0.657313 0.529412
0.688991 0.694697 0.634943
0.710872 0.717037 0.691707
0.721065 0.730434 0.720241
0.726528 0.736995 0.730251
0.728817 0.735744 0.726009
0.731685 0.733791 0.721309
0.734918 0.730770 0.715448
0.000000 0.378302 0.023713
0.000000 0.365728 0.025574
0.000000 0.357824 0.023224
0.000000 0.350500 0.017121
0.024903 0.342535 0.008423
0.074769 0.330907 0.000000
0.247410 0.445777 0.080171
0.463111 0.565057 0.256443
0.603998 0.641810 0.453315
0.672480 0.685725 0.592432
0.704067 0.711635 0.669825
0.718379 0.726772 0.708339
0.725673 0.736538 0.728664
0.729213 0.740780 0.735256
0.730739 0.739467 0.731533
0.732672 0.737957 0.727817
0.000000 0.417365 0.000000
0.000000 0.401801 0.000000
0.000000 0.391669 0.000000
0.000000 0.383459 0.000000
0.000000 0.376043 0.000000
0.000000 0.366186 0.000000
0.104982 0.386023 0.000000
0.353368 0.528252 0.131289
0.548058 0.622431 0.349859
0.647120 0.675471 0.531975
0.693751 0.706081 0.640101
0.714473 0.723720 0.694697
0.724422 0.734707 0.721584
0.729397 0.741512 0.735622
0.731777 0.744350 0.739956
0.732683 0.743444 0.737418
0.000000 0.482746 0.000000
0.000000 0.463253 0.000000
0.000000 0.451037 0.000000
0.000000 0.443522 0.000000
0.000000 0.438856 0.000000
0.000000 0.432926 0.000000
0.001050 0.427293 0.000000
0.238741 0.507858 0.001313
0.503373 0.622038 0.263541
0.635306 0.681000 0.499209
0.692664 0.711579 0.634058
0.716165 0.728040 0.695966
0.726537 0.738121 0.723911
0.731512 0.744140 0.737526
0.734043 0.747855 0.744730
0.735009 0.748863 0.745930
0.008637 0.028168 0.058350
0.058503 0.040772 0.077211
0.150607 0.054871 0.095583
0.324620 0.000000 0.089204
0.442817 0.000000 0.067018
0.542321 0.000000 0.079042
0.639612 0.000000 0.096712
0.717525 0.000000 0.115541
0.773373 0.082643 0.133150
0.814817 0.168490 0.158816
0.842222 0.234287 0.188418
0.859770 0.290959 0.222019
0.870756 0.339727 0.258122
0.876555 0.389654 0.302770
0.877134 0.434852 0.349432
0.874385 0.472678 0.393210
0.021729 0.064881 0.071412
0.080781 0.083375 0.090852
0.180850 0.083009 0.100954
0.310430 0.049165 0.086061
0.418677 0.043671 0.091463
0.533989 0.038605 0.103059
0.635767 0.054444 0.115908
0.714595 0.096986 0.129702
0.771450 0.153567 0.148074
0.812009 0.213626 0.173465
0.838499 0.266545 0.202182
0.855894 0.314275 0.234714
0.866941 0.357153 0.269108
0.872892 0.402441 0.311955
0.873869 0.444068 0.356847
0.871301 0.480867 0.400867
0.051728 0.120058 0.095094
0.100313 0.135164 0.104005
0.176913 0.158572 0.127901
0.282109 0.162753 0.123842
0.407477 0.167025 0.129183
0.529564 0.170199 0.136324
0.631952 0.179202 0.145113
0.708827 0.200504 0.157076
0.766079 0.236637 0.175814
0.804868 0.275883 0.199130
0.830381 0.312993 0.225132
0.847959 0.348852 0.254032
0.859648 0.385077 0.287419
0.866148 0.424079 0.328130
0.867826 0.460914 0.371252
0.865802 0.494541 0.413671
0.082429 0.180026 0.109529
0.110567 0.174746 0.101991
0.195071 0.209415 0.152010
0.298741 0.272099 0.216037
0.402197 0.272831 0.191379
0.507500 0.269596 0.181277
0.610742 0.280034 0.186435
0.692622 0.298955 0.198734
0.749294 0.320470 0.214572
0.788937 0.344701 0.234897
0.815915 0.369482 0.257664
0.834806 0.395544 0.284245
0.847959 0.425574 0.317723
0.855497 0.455116 0.353857
0.858610 0.482643 0.389929
0.858217 0.509578 0.426456
0.094667 0.208103 0.105531
0.114168 0.205234 0.100649
0.182345 0.233738 0.131594
0.304570 0.305547 0.223819
0.426459 0.390692 0.316777
0.517266 0.394781 0.284306
0.591577 0.380133 0.255772
0.665492 0.384771 0.253666
0.725093 0.400488 0.266606
0.767483 0.417548 0.285191
0.797055 0.434760 0.306737
0.818235 0.455268 0.334112
0.832303 0.477699 0.365789
0.840421 0.501488 0.400793
0.843717 0.524743 0.435859
0.843808 0.546012 0.467884
0.100893 0.241428 0.107454
0.117250 0.238834 0.103609
0.164675 0.253605 0.116152
0.290166 0.327276 0.193454
0.435523 0.422553 0.325139
0.545525 0.510582 0.436530
0.607935 0.511559 0.401648
0.659480 0.498024 0.368902
0.701106 0.479561 0.340612
0.743343 0.487556 0.350774
0.774655 0.497932 0.367803
0.797330 0.510948 0.390295
0.812894 0.525139 0.415442
0.822538 0.541192 0.443458
0.827481 0.558282 0.472541
0.828781 0.575865 0.501440
0.104738 0.271489 0.109133
0.119051 0.269169 0.105837
0.141909 0.263401 0.099855
0.259617 0.337591 0.165621
0.415747 0.432288 0.281346
0.547662 0.528985 0.438727
0.620630 0.595697 0.538293
0.659052 0.593683 0.509300
0.692683 0.579553 0.476448
0.722683 0.562463 0.447120
0.750149 0.551781 0.432074
0.774197 0.559533 0.447791
0.791287 0.568475 0.466377
0.802670 0.579278 0.488075
0.809384 0.591485 0.511406
0.812285 0.605172 0.536060
0.103975 0.292638 0.107546
0.116732 0.290623 0.104829
0.135836 0.284886 0.099367
0.217960 0.332036 0.135958
0.370764 0.425910 0.234836
0.521630 0.521477 0.380529
0.613611 0.598230 0.528801
0.659815 0.644739 0.602960
0.684169 0.641718 0.580346
0.707454 0.631312 0.555200
0.730068 0.618891 0.532341
0.751278 0.606470 0.512871
0.769467 0.606378 0.515862
0.782467 0.612879 0.530755
0.791714 0.617762 0.542840
0.797666 0.624408 0.557281
0.100374 0.308171 0.104433
0.110964 0.305394 0.102113
0.127993 0.299565 0.097017
0.173495 0.315587 0.107210
0.313573 0.407233 0.188418
0.476326 0.506249 0.320592
0.595758 0.589197 0.476631
0.655818 0.646845 0.598566
0.686061 0.679683 0.650965
0.701961 0.678248 0.636835
0.717830 0.672389 0.621393
0.733669 0.664668 0.606531
0.748836 0.656123 0.592645
0.762966 0.649195 0.583093
0.771969 0.655024 0.596155
0.777831 0.661067 0.609085
0.094362 0.323705 0.100649
0.103182 0.320684 0.098054
0.117952 0.315251 0.093294
0.138918 0.306371 0.085847
0.256291 0.386175 0.146395
0.422278 0.488716 0.264103
0.564111 0.576593 0.419287
0.644800 0.639094 0.558038
0.682704 0.680079 0.647425
0.702052 0.702022 0.682185
0.711849 0.700160 0.671443
0.722530 0.695918 0.660212
0.733700 0.690639 0.649592
0.744900 0.685481 0.640986
0.755489 0.680873 0.634455
0.764040 0.679150 0.633579
0.077028 0.337530 0.092897
0.086336 0.334722 0.090303
0.101503 0.329625 0.085908
0.122377 0.320806 0.078767
0.188815 0.354772 0.100435
0.353674 0.462409 0.201907
0.519127 0.559442 0.353735
0.623316 0.628717 0.509087
0.676234 0.674311 0.617945
0.700191 0.702693 0.680690
0.712367 0.716762 0.702724
0.718441 0.714900 0.694606
0.725643 0.711666 0.686122
0.733608 0.707881 0.678279
0.741939 0.703609 0.670832
0.750278 0.698956 0.663552
0.038727 0.350774 0.080049
0.052064 0.347631 0.077363
0.071931 0.342107 0.073762
0.095949 0.332952 0.066194
0.121187 0.320653 0.056519
0.266331 0.422095 0.132906
0.451179 0.531792 0.273472
0.586725 0.611566 0.440803
0.659236 0.663203 0.574243
0.693812 0.695369 0.654536
0.709712 0.715267 0.699001
0.718013 0.724880 0.713893
0.722164 0.722988 0.707027
0.727565 0.720607 0.700557
0.733669 0.717708 0.694362
0.740104 0.715261 0.689769
0.000000 0.352880 0.065553
0.000000 0.350561 0.063203
0.022614 0.346990 0.058473
0.055390 0.340581 0.051087
0.088502 0.331548 0.040986
0.161288 0.365209 0.058106
0.358679 0.493996 0.182254
0.538903 0.593896 0.362432
0.641138 0.657618 0.532006
0.689204 0.695094 0.636805
0.711147 0.717464 0.692927
0.721340 0.730831 0.721004
0.726680 0.737179 0.730465
0.728908 0.735866 0.726223
0.731685 0.733883 0.721553
0.734979 0.730891 0.715753
0.000000 0.388739 0.035279
0.000000 0.376562 0.036713
0.000000 0.368566 0.032868
0.000000 0.360967 0.025452
0.028107 0.352758 0.015167
0.078798 0.340887 0.004242
0.237125 0.439857 0.076600
0.458045 0.562829 0.254032
0.602533 0.641260 0.453193
0.672267 0.685786 0.593439
0.704158 0.711910 0.670832
0.718502 0.727047 0.709041
0.725856 0.736782 0.729122
0.729305 0.740932 0.735439
0.730770 0.739590 0.731685
0.732733 0.738079 0.728060
0.000000 0.426337 0.000000
0.000000 0.410834 0.000183
0.000000 0.400793 0.000000
0.000000 0.392767 0.000000
0.000000 0.385199 0.000000
0.000000 0.375311 0.000000
0.084962 0.375250 0.000000
0.340764 0.522515 0.122316
0.543114 0.620325 0.344396
0.645808 0.674830 0.530388
0.693538 0.706050 0.640284
0.714534 0.723842 0.695155
0.724483 0.734890 0.721950
0.729488 0.741695 0.735866
0.731838 0.744442 0.740108
0.732774 0.743566 0.737571
0.000000 0.490388 0.000000
0.000000 0.471199 0.000002
0.000000 0.458983 0.000000
0.000000 0.451864 0.000000
0.000000 0.447225 0.000000
0.000000 0.441537 0.000000
0.000850 0.435253 0.000000
0.214716 0.498238 0.001223
0.493641 0.618482 0.250827
0.632393 0.679997 0.494148
0.691967 0.711307 0.632821
0.716015 0.728012 0.695820
0.726568 0.738153 0.724004
0.731513 0.744233 0.737679
0.734044 0.747916 0.744852
0.735069 0.748895 0.746022
0.006317 0.043549 0.102327
0.049531 0.055329 0.120821
0.139284 0.074403 0.141695
0.260014 0.101961 0.167361
0.437781 0.000000 0.161044
0.552880 0.000000 0.126589
0.651667 0.000000 0.130617
0.722591 0.000000 0.148501
0.774105 0.101137 0.170474
0.811612 0.196170 0.199466
0.837003 0.261418 0.228367
0.854124 0.314122 0.258671
0.864988 0.360723 0.292180
0.870665 0.407599 0.332982
0.871580 0.449104 0.374853
0.869405 0.483969 0.414039
0.038636 0.089357 0.121187
0.084077 0.098207 0.135286
0.160372 0.117830 0.151003
0.281407 0.126741 0.172335
0.435645 0.038117 0.151308
0.555261 0.000000 0.138643
0.646723 0.015930 0.150546
0.717494 0.100069 0.166384
0.770840 0.175479 0.188785
0.808133 0.239384 0.214969
0.833310 0.289799 0.241032
0.850217 0.335149 0.270146
0.861204 0.376867 0.302281
0.867063 0.419135 0.340978
0.868437 0.457465 0.381323
0.866321 0.491727 0.421144
0.065858 0.132906 0.133852
0.114351 0.147921 0.146975
0.191012 0.172885 0.169802
0.319738 0.150912 0.162753
0.436255 0.155154 0.165255
0.545586 0.164584 0.173037
0.638331 0.183597 0.183597
0.710414 0.216403 0.198398
0.763821 0.255406 0.216556
0.800717 0.294682 0.237919
0.825284 0.331273 0.261204
0.842405 0.366247 0.287236
0.854093 0.401953 0.318608
0.860685 0.438453 0.355383
0.862669 0.472847 0.394202
0.861098 0.504163 0.432451
0.112398 0.198062 0.161807
0.146609 0.209964 0.168978
0.212772 0.227573 0.186923
0.307500 0.266880 0.220188
0.409644 0.267185 0.210575
0.521324 0.277440 0.215366
0.618189 0.290013 0.223117
0.694179 0.310277 0.235813
0.747555 0.332952 0.250736
0.785183 0.358160 0.269291
0.811215 0.383459 0.290410
0.829862 0.409369 0.314794
0.842893 0.438880 0.345800
0.850462 0.466804 0.378332
0.853941 0.492500 0.410407
0.854091 0.517471 0.443007
0.122347 0.244938 0.160647
0.151949 0.246891 0.161624
0.194858 0.248844 0.161563
0.322759 0.322240 0.257755
0.429206 0.387366 0.317998
0.512932 0.384649 0.290959
0.590143 0.376898 0.273686
0.668116 0.393622 0.284001
0.724239 0.409430 0.296849
0.764584 0.426947 0.314488
0.793088 0.444617 0.334447
0.813840 0.465888 0.360815
0.827695 0.487892 0.390143
0.835813 0.510552 0.421729
0.839475 0.532555 0.453132
0.839958 0.552768 0.482227
0.139376 0.282139 0.160372
0.156619 0.279789 0.156771
0.182040 0.272923 0.147860
0.307073 0.341222 0.223789
0.448249 0.435279 0.354314
0.546014 0.508080 0.435950
0.604700 0.505241 0.404150
0.654932 0.491371 0.374884
0.700374 0.483894 0.361425
0.741451 0.494179 0.374060
0.771572 0.505089 0.390600
0.793698 0.518242 0.411444
0.808988 0.532311 0.434638
0.818692 0.547875 0.460060
0.823850 0.564263 0.486580
0.825511 0.581152 0.513212
0.143008 0.308995 0.155154
0.156283 0.306523 0.151431
0.177340 0.300053 0.144198
0.273228 0.348638 0.190768
0.428351 0.442390 0.308537
0.553857 0.536675 0.459724
0.620417 0.594079 0.537469
0.657008 0.589837 0.509300
0.689754 0.575738 0.478859
0.719570 0.559075 0.451453
0.748135 0.556420 0.448463
0.771542 0.564416 0.463447
0.788296 0.573358 0.480659
0.799680 0.583856 0.500664
0.806516 0.595727 0.522210
0.809779 0.608810 0.544930
0.139559 0.326635 0.147311
0.151217 0.325048 0.144778
0.169192 0.318914 0.138125
0.229648 0.341588 0.156893
0.382086 0.433997 0.258091
0.528649 0.527611 0.401556
0.615961 0.602228 0.541863
0.659510 0.643610 0.601984
