example_ofxGpuLutCube/bin/data/ofxGpuLutCube/LUT/U43 (pink sunset fade_3).cube
LUT_3D_SIZE 16
0.000000 0.000000 0.000000
0.054994 0.009216 0.005341
0.165927 0.004730 0.011261
0.271611 0.000000 0.016419
0.366186 0.000000 0.021057
0.468208 0.000000 0.026764
0.561151 0.000000 0.037263
0.660121 0.000000 0.055756
0.738705 0.000000 0.077821
0.800839 0.000000 0.103273
0.847440 0.015564 0.132113
0.880888 0.146670 0.164340
0.903624 0.222812 0.199435
0.918547 0.289494 0.241978
0.925475 0.349340 0.290166
0.926381 0.396563 0.335001
0.005829 0.042145 0.013367
0.047547 0.053712 0.033906
0.149691 0.062745 0.022889
0.256321 0.046479 0.024811
0.356481 0.007874 0.029084
0.457374 0.000000 0.036927
0.563195 0.000000 0.050782
0.661677 0.000000 0.069215
0.736721 0.000000 0.089387
0.798917 0.000000 0.113313
0.844602 0.107912 0.141054
0.877440 0.185336 0.172030
0.899962 0.245975 0.205814
0.915251 0.305638 0.247684
0.922576 0.361151 0.295262
0.923633 0.408283 0.342485
0.001984 0.088350 0.023621
0.040589 0.092287 0.029603
0.134920 0.136965 0.097963
0.246250 0.142611 0.065553
0.344274 0.118135 0.053529
0.459144 0.101778 0.063355
0.565393 0.083040 0.076356
0.659144 0.074983 0.091707
0.733303 0.094606 0.108888
0.795529 0.141543 0.131685
0.839628 0.191897 0.157473
0.871702 0.240208 0.186374
0.893828 0.285191 0.218387
0.909667 0.335241 0.260075
0.917327 0.383856 0.306889
0.918595 0.428148 0.355653
0.000000 0.133730 0.037110
0.018402 0.126162 0.032776
0.119326 0.165652 0.078676
0.255558 0.246189 0.186191
0.368078 0.252232 0.142733
0.457374 0.220096 0.110872
0.553338 0.207828 0.111696
0.647272 0.209903 0.122560
0.724941 0.223423 0.138094
0.784756 0.246616 0.157839
0.827787 0.272770 0.180087
0.859770 0.302647 0.206149
0.883543 0.334905 0.236790
0.899809 0.371557 0.274632
0.908690 0.407050 0.315404
0.911681 0.443698 0.360814
0.000000 0.176486 0.055848
0.011749 0.168643 0.049531
0.098146 0.200504 0.078370
0.239597 0.273075 0.161166
0.415564 0.390967 0.305882
0.518486 0.398352 0.252232
0.594079 0.367498 0.204715
0.661097 0.340337 0.178958
0.731350 0.349401 0.191440
0.785763 0.363012 0.209659
0.824949 0.377081 0.230777
0.854795 0.395178 0.256992
0.876280 0.417304 0.289403
0.890043 0.443366 0.328344
0.896941 0.469734 0.369177
0.899025 0.493119 0.406368
0.000000 0.220951 0.075532
0.006897 0.214572 0.069795
0.067292 0.223362 0.077241
0.202609 0.294774 0.142885
0.374548 0.390326 0.256229
0.547448 0.517418 0.425971
0.623102 0.521324 0.370794
0.681575 0.498207 0.318395
0.727230 0.464668 0.273075
0.772213 0.454841 0.267918
0.809873 0.459205 0.284642
0.839475 0.468574 0.308324
0.860624 0.480690 0.336797
0.874357 0.496986 0.371649
0.881682 0.515404 0.409064
0.884159 0.534106 0.444927
0.000000 0.265171 0.093782
0.000000 0.258091 0.088258
0.029999 0.242466 0.076875
0.156527 0.304417 0.126192
0.327245 0.399603 0.221256
0.510826 0.510765 0.371435
0.640101 0.618921 0.550011
0.688228 0.616297 0.501274
0.726925 0.590723 0.442115
0.761868 0.560143 0.389807
0.792691 0.530999 0.350134
0.821500 0.534661 0.370031
0.842161 0.540032 0.393957
0.855741 0.549493 0.423987
0.863462 0.561730 0.456428
0.866514 0.575931 0.489028
0.000000 0.305211 0.109133
0.000000 0.299565 0.104189
0.015686 0.284977 0.093599
0.105348 0.307378 0.110475
0.270298 0.400397 0.190951
0.459480 0.506920 0.318914
0.604974 0.599786 0.485115
0.684688 0.674311 0.628748
0.714595 0.668696 0.589471
0.744015 0.650263 0.544152
0.772824 0.627314 0.500877
0.799588 0.603235 0.462531
0.821256 0.591455 0.453620
0.835203 0.595361 0.475837
0.844083 0.601740 0.500450
0.848132 0.612073 0.529062
0.000000 0.333837 0.119295
0.000000 0.326513 0.113771
0.000000 0.313909 0.104707
0.036652 0.292241 0.090120
0.195926 0.378515 0.155032
0.381811 0.484230 0.262211
0.558038 0.585443 0.417731
0.662898 0.660639 0.580774
0.712245 0.712551 0.687587
0.730953 0.709499 0.664729
0.750912 0.698634 0.637110
0.771695 0.683650 0.608331
0.792264 0.666072 0.579156
0.812100 0.647791 0.551873
0.820920 0.649928 0.567895
0.825875 0.654611 0.586234
0.000000 0.373816 0.132967
0.000000 0.365728 0.127321
0.000000 0.352087 0.117800
0.009522 0.329473 0.102327
0.125338 0.363256 0.126589
0.308049 0.466590 0.217960
0.500694 0.571710 0.358251
0.633753 0.651606 0.526024
0.699977 0.703944 0.656306
0.727718 0.735561 0.724056
0.738369 0.732876 0.709194
0.750912 0.725612 0.690883
0.765347 0.715267 0.670680
0.780575 0.703761 0.651392
0.795651 0.691859 0.633753
0.807253 0.683672 0.625173
0.000000 0.415167 0.145785
0.000000 0.407904 0.140414
0.000000 0.394110 0.130098
0.000000 0.372045 0.114504
0.018616 0.343877 0.095491
0.227787 0.446998 0.175296
0.432471 0.556451 0.301701
0.592645 0.641535 0.467353
0.682124 0.697749 0.615808
0.720577 0.730129 0.705043
0.737240 0.749508 0.745235
0.743282 0.747036 0.734829
0.751247 0.742733 0.723842
0.760647 0.736477 0.711574
0.771389 0.728328 0.697658
0.783203 0.718449 0.681917
0.000000 0.460578 0.159121
0.000000 0.453254 0.153201
0.000000 0.440009 0.142824
0.000000 0.417945 0.125765
0.000000 0.386847 0.103761
0.120851 0.418158 0.127718
0.342718 0.531792 0.239048
0.533227 0.624903 0.395789
0.650996 0.687556 0.560540
0.708034 0.723873 0.673243
0.731685 0.744533 0.731136
0.742824 0.757504 0.757015
0.746700 0.755520 0.749477
0.752041 0.752438 0.741604
0.758602 0.748348 0.733364
0.765914 0.743817 0.725629
0.000000 0.480110 0.161929
0.000000 0.475044 0.157137
0.000000 0.467109 0.148623
0.000000 0.451514 0.133944
0.000000 0.428016 0.112856
0.000000 0.393439 0.085054
0.229038 0.500267 0.172396
0.461982 0.609644 0.325231
0.616602 0.683467 0.509972
0.695277 0.724422 0.649714
0.729061 0.746548 0.723964
0.742855 0.759152 0.755856
0.749783 0.767178 0.770809
0.751614 0.765743 0.766201
0.754330 0.763333 0.760678
0.757835 0.759646 0.753487
0.000000 0.558679 0.193393
0.000000 0.539513 0.179416
0.000000 0.524071 0.165652
0.000000 0.507317 0.148775
0.000000 0.485847 0.125887
0.000000 0.454231 0.095064
0.025574 0.461372 0.097414
0.355535 0.585046 0.239994
0.557824 0.670832 0.429847
0.666926 0.718105 0.598627
0.717464 0.742672 0.699458
0.738125 0.756435 0.744350
0.747463 0.765042 0.765225
0.752102 0.770352 0.775204
0.753170 0.768917 0.771267
0.754953 0.767135 0.767098
0.000000 0.617517 0.228794
0.000000 0.600397 0.210758
0.000000 0.585534 0.193210
0.000000 0.570489 0.173007
0.000000 0.552453 0.146761
0.000000 0.526970 0.112184
0.000000 0.492836 0.065858
0.198550 0.557244 0.141909
0.474861 0.656214 0.333196
0.625025 0.711604 0.530297
0.699916 0.739467 0.665797
0.731655 0.754513 0.730861
0.745052 0.763973 0.759213
0.751217 0.769711 0.772610
0.754208 0.773129 0.779110
0.754812 0.772132 0.776361
0.112331 0.677309 0.288766
0.023657 0.663995 0.266138
0.000000 0.653060 0.245871
0.000000 0.642758 0.223614
0.000000 0.631006 0.195616
0.000000 0.614528 0.157111
0.000000 0.592523 0.103231
0.001986 0.561746 0.009637
0.408725 0.665762 0.266335
0.604117 0.722148 0.503770
0.696139 0.746658 0.664317
0.732592 0.759347 0.734608
0.746744 0.767388 0.762657
0.752788 0.772279 0.775330
0.755598 0.775274 0.781800
0.756501 0.776192 0.783507
0.005890 0.010956 0.019379
0.056916 0.025544 0.036408
0.181094 0.004028 0.045502
0.277897 0.000000 0.038270
0.364508 0.000000 0.051087
0.461006 0.000000 0.061097
0.560174 0.000000 0.074403
0.655970 0.000000 0.090303
0.732082 0.000000 0.107301
0.795499 0.000000 0.128969
0.842741 0.083894 0.153933
0.876005 0.170352 0.182010
0.899016 0.233799 0.212894
0.914885 0.294835 0.251682
0.922759 0.350713 0.295872
0.924481 0.397785 0.339832
0.018189 0.055177 0.041474
0.069978 0.069642 0.052338
0.164248 0.069947 0.051759
0.262821 0.063172 0.057496
0.360327 0.043183 0.064454
0.461524 0.007813 0.073762
0.565209 0.000000 0.087282
0.659480 0.000000 0.101869
0.734066 0.000000 0.117983
0.797208 0.067353 0.139315
0.842313 0.145357 0.163638
0.874144 0.206271 0.190768
0.896361 0.258122 0.220157
0.911986 0.312261 0.258335
0.919951 0.362982 0.301549
0.921884 0.408512 0.346173
0.026886 0.117617 0.064027
0.064271 0.113283 0.059358
0.160098 0.156924 0.119722
0.258061 0.152102 0.092836
0.360662 0.140414 0.091341
0.470771 0.131075 0.099977
0.572747 0.120180 0.110018
0.662959 0.118746 0.121950
0.738338 0.138705 0.137667
0.797055 0.175631 0.157748
0.838407 0.214878 0.179263
0.868833 0.255161 0.204166
0.890929 0.295415 0.232792
0.906737 0.341283 0.270542
0.914916 0.385351 0.312749
0.917091 0.426562 0.357404
0.023651 0.160861 0.072999
0.046418 0.147951 0.061158
0.147951 0.186496 0.111513
0.276738 0.262852 0.203708
0.379614 0.262303 0.164828
0.465858 0.231144 0.134951
0.566369 0.229465 0.140963
0.658564 0.234195 0.151095
0.731899 0.247044 0.164614
0.787808 0.267247 0.181888
0.828702 0.290196 0.201572
0.859251 0.316808 0.225254
0.882719 0.348730 0.255406
0.898253 0.382391 0.290715
0.906767 0.414740 0.327886
0.910000 0.446917 0.367857
0.019867 0.193698 0.081605
0.040009 0.184756 0.073518
0.116060 0.207858 0.097810
0.246250 0.273930 0.176272
0.401007 0.375769 0.295903
0.497261 0.379706 0.249058
0.575280 0.353582 0.208621
0.648737 0.335637 0.191043
0.720638 0.345342 0.202274
0.776669 0.358923 0.218692
0.817990 0.374029 0.238468
0.849668 0.393347 0.263645
0.872740 0.416571 0.295171
0.887541 0.442359 0.332006
0.895262 0.468299 0.371130
0.897800 0.493013 0.409168
0.013733 0.234714 0.095796
0.033051 0.226291 0.088472
0.081025 0.226932 0.089845
0.208957 0.293858 0.153841
0.373144 0.386023 0.263951
0.536858 0.505821 0.416052
0.610010 0.506767 0.362432
0.668757 0.483772 0.313176
0.716030 0.451972 0.271153
0.764248 0.447913 0.271611
0.804257 0.455055 0.288914
0.835416 0.465827 0.312352
0.857755 0.478645 0.340002
0.872404 0.494423 0.372686
0.880522 0.512596 0.408392
0.883362 0.532869 0.445736
0.003265 0.277958 0.110750
0.023011 0.270359 0.104372
0.052430 0.252995 0.091707
0.164492 0.306432 0.136019
0.329900 0.398108 0.229282
0.506462 0.505455 0.374273
0.631800 0.608576 0.537407
0.679896 0.604822 0.488441
0.720638 0.581292 0.433722
0.756374 0.551965 0.384466
0.788144 0.526177 0.350652
0.817960 0.530205 0.369604
0.839719 0.536217 0.392889
0.854337 0.545586 0.421363
0.862913 0.557733 0.452766
0.866266 0.573443 0.487208
0.000000 0.314733 0.122408
0.006409 0.307866 0.116854
0.036347 0.291814 0.105348
0.110872 0.305241 0.116457
0.268589 0.394415 0.194430
0.452674 0.499001 0.318669
0.599756 0.593988 0.482948
0.680812 0.669123 0.621851
0.711421 0.663325 0.582544
0.741268 0.644770 0.537530
0.770413 0.621607 0.494301
0.797543 0.597833 0.456672
0.819577 0.588556 0.452338
0.834257 0.592493 0.473793
0.844053 0.596796 0.494118
0.849703 0.604198 0.517397
0.000000 0.346410 0.132357
0.000000 0.338140 0.126223
0.016205 0.323796 0.116121
0.051179 0.299901 0.099855
0.199680 0.379004 0.160861
0.382879 0.483284 0.267308
0.557733 0.584192 0.421515
0.661952 0.659419 0.582238
0.711025 0.710597 0.684901
0.729824 0.707240 0.661524
0.750118 0.696193 0.633783
0.771115 0.681025 0.604791
0.791989 0.663264 0.575372
0.811978 0.645380 0.549035
0.820279 0.649744 0.569116
0.825023 0.655485 0.588996
0.000000 0.382788 0.143557
0.000000 0.375128 0.138277
0.000000 0.360601 0.127749
0.026490 0.337987 0.111940
0.129335 0.364172 0.131289
0.310948 0.467140 0.223056
0.500572 0.570642 0.361608
0.632868 0.650324 0.527306
0.698817 0.702571 0.655604
0.726894 0.734188 0.722103
0.737667 0.731228 0.706691
0.750576 0.723873 0.688167
0.765225 0.713741 0.668421
0.780606 0.702419 0.649622
0.795743 0.690852 0.632746
0.806619 0.684236 0.627217
0.000000 0.423438 0.156039
0.000000 0.416052 0.150149
0.000000 0.402380 0.139834
0.000000 0.380194 0.123720
0.027771 0.347875 0.101595
0.228611 0.446174 0.178439
0.431159 0.554467 0.303593
0.591272 0.639704 0.467811
0.680934 0.696315 0.615076
0.719875 0.729183 0.704158
0.736690 0.748653 0.744106
0.742885 0.746120 0.733486
0.750942 0.741329 0.721584
0.760678 0.734890 0.708888
0.771633 0.726894 0.695277
0.783477 0.717407 0.680443
0.000000 0.466773 0.168093
0.000000 0.459571 0.162112
0.000000 0.445624 0.151125
0.000000 0.423774 0.134218
0.000000 0.392432 0.111421
0.119265 0.415503 0.129274
0.339788 0.529168 0.239628
0.531212 0.622950 0.395758
0.649104 0.685542 0.558587
0.706813 0.722438 0.671168
0.730739 0.743374 0.729519
0.742123 0.756497 0.755612
0.746090 0.754299 0.747555
0.751705 0.750973 0.739162
0.758633 0.746578 0.730312
0.766277 0.741956 0.722366
0.000000 0.490852 0.171969
0.000000 0.485695 0.167178
0.000000 0.476661 0.157870
0.000000 0.460121 0.142275
0.000000 0.435492 0.120363
0.000000 0.400458 0.092103
0.226566 0.498939 0.173098
0.461006 0.609247 0.326665
0.616205 0.683131 0.510887
0.695064 0.724147 0.650050
0.728847 0.746304 0.723842
0.742763 0.759030 0.755856
0.749722 0.767086 0.770718
0.751614 0.765652 0.766110
0.754299 0.763333 0.760708
0.757834 0.759798 0.753849
0.000000 0.567010 0.204654
0.000000 0.548852 0.189975
0.000000 0.533562 0.175692
0.000000 0.516686 0.157748
0.000000 0.494728 0.134005
0.000000 0.462715 0.102876
0.008057 0.458534 0.095979
0.351232 0.583337 0.238682
0.556237 0.669978 0.429084
0.666163 0.717556 0.597925
0.717128 0.742336 0.699092
0.738003 0.756283 0.744259
0.747433 0.765042 0.765316
0.752102 0.770352 0.775265
0.753231 0.768978 0.771359
0.754983 0.767256 0.767341
0.000000 0.623316 0.239292
0.000000 0.607416 0.221714
0.000000 0.593774 0.204593
0.000000 0.579095 0.183749
0.000000 0.561181 0.156802
0.000000 0.535424 0.120943
0.000000 0.501030 0.074006
0.189548 0.555383 0.138918
0.470832 0.654871 0.330388
0.623346 0.710933 0.528496
0.699306 0.739193 0.665064
0.731533 0.754421 0.730739
0.744991 0.763912 0.759213
0.751186 0.769741 0.772671
0.754208 0.773159 0.779171
0.754843 0.772193 0.776482
0.138919 0.681446 0.300050
0.075955 0.668899 0.277698
0.005015 0.658611 0.257616
0.000000 0.648736 0.235382
0.000000 0.637499 0.207197
0.000000 0.621470 0.168316
0.000000 0.599826 0.114763
0.001896 0.569129 0.023022
0.402249 0.664751 0.261684
0.602016 0.721870 0.501486
0.695559 0.746535 0.663432
0.732349 0.759255 0.734304
0.746623 0.767296 0.762445
0.752757 0.772219 0.775239
0.755598 0.775244 0.781770
0.756501 0.776192 0.783508
0.013764 0.028016 0.069245
0.062348 0.041657 0.082887
0.146792 0.055421 0.097749
0.269841 0.016205 0.101381
0.361059 0.000000 0.086305
0.451606 0.000000 0.091768
0.549065 0.000000 0.108553
0.642878 0.000000 0.125185
0.721279 0.000000 0.139467
0.787716 0.024231 0.159121
0.835996 0.124178 0.181277
0.870268 0.193606 0.206882
0.894194 0.250675 0.234989
0.910918 0.308934 0.272068
0.919188 0.362127 0.313909
0.921182 0.407386 0.355814
0.024292 0.065522 0.083192
0.080873 0.083253 0.093782
0.161379 0.087190 0.103548
0.263188 0.061677 0.093477
0.352392 0.056245 0.097932
0.452705 0.048157 0.109957
0.553338 0.030243 0.122469
0.646876 0.017029 0.134951
0.726009 0.048310 0.149691
0.790127 0.112093 0.168917
0.835874 0.171054 0.190372
0.868681 0.224674 0.214694
0.891844 0.273045 0.242039
0.908202 0.324926 0.278325
0.916472 0.373480 0.318883
0.918678 0.417380 0.361574
0.067933 0.135927 0.113680
0.097566 0.134951 0.109285
0.166964 0.153872 0.126619
0.256229 0.150790 0.119966
0.357946 0.150759 0.126192
0.463600 0.146700 0.134554
0.563836 0.141390 0.143282
0.653498 0.142519 0.153079
0.731594 0.162570 0.168032
0.790585 0.195163 0.185428
0.832486 0.231235 0.204685
0.863615 0.268864 0.226902
0.886839 0.307774 0.253910
0.903044 0.351537 0.289128
0.911589 0.394171 0.329229
0.914036 0.434113 0.371768
0.084932 0.188388 0.126925
0.091005 0.175357 0.108949
0.166903 0.197147 0.141085
0.277806 0.259342 0.206973
0.369665 0.251804 0.176699
0.462562 0.237522 0.164157
0.560906 0.237369 0.169833
0.653773 0.244938 0.179873
0.726375 0.257969 0.192081
0.782498 0.277623 0.207248
0.823667 0.300206 0.224979
0.854704 0.325841 0.246159
0.878935 0.357702 0.274937
0.894865 0.389837 0.307469
0.903685 0.420783 0.342199
0.907310 0.451932 0.379844
0.072908 0.217807 0.121889
0.083528 0.208408 0.111788
0.133455 0.217166 0.121981
0.260166 0.281376 0.199832
0.399054 0.371008 0.296239
0.487526 0.369085 0.255375
0.563439 0.343481 0.219883
0.644160 0.338811 0.214572
0.715663 0.349157 0.225223
0.771695 0.363409 0.240299
0.813504 0.379004 0.258854
0.845884 0.399451 0.283207
0.869383 0.422766 0.312902
0.884428 0.448157 0.347753
0.892302 0.474067 0.385290
0.894960 0.498721 0.421968
0.064271 0.257847 0.129641
0.076387 0.249607 0.121767
0.096437 0.234806 0.108980
0.223758 0.301183 0.174319
0.382696 0.391577 0.284001
0.534142 0.501335 0.414954
0.603449 0.498604 0.364904
0.661769 0.475532 0.319158
0.709316 0.444282 0.279515
0.760647 0.449775 0.289952
0.800961 0.458045 0.306615
0.832273 0.469429 0.328893
0.854795 0.482582 0.355230
0.869596 0.498695 0.386481
0.877806 0.516960 0.420752
0.880736 0.537354 0.456796
0.053407 0.299107 0.139651
0.066987 0.291386 0.132845
0.085176 0.274083 0.119020
0.176516 0.311833 0.151980
0.340032 0.402716 0.246372
0.512200 0.509361 0.390661
0.630304 0.606073 0.536645
0.676692 0.600305 0.488716
0.716854 0.576471 0.436133
0.752651 0.547387 0.388769
0.785458 0.527733 0.365087
0.815335 0.532280 0.383246
0.837095 0.538781 0.405280
0.851835 0.548363 0.432441
0.860502 0.560784 0.462715
0.864007 0.576676 0.496100
0.037140 0.333684 0.147280
0.052705 0.326848 0.141360
0.072663 0.311101 0.129274
0.120455 0.308934 0.128267
0.277409 0.397833 0.208103
0.458961 0.501732 0.332769
0.602258 0.596124 0.494789
0.679866 0.667506 0.620874
0.709834 0.660853 0.582391
0.739467 0.642329 0.538659
0.768490 0.619471 0.496986
0.795804 0.595392 0.459388
0.817380 0.590387 0.462409
0.832181 0.594354 0.482460
0.842252 0.598047 0.500603
0.848174 0.605358 0.522748
0.019532 0.363378 0.153994
0.033875 0.355291 0.147829
0.055665 0.340490 0.136568
0.078309 0.316228 0.118959
0.207462 0.381476 0.171542
0.388952 0.485420 0.278965
0.561181 0.585870 0.432807
0.662959 0.660548 0.589410
0.710567 0.709865 0.684504
0.729152 0.706081 0.661341
0.749264 0.695003 0.634241
0.770291 0.679866 0.605737
0.791257 0.662043 0.576410
0.810239 0.646906 0.555749
0.818601 0.651453 0.575219
0.823344 0.657405 0.594646
0.003510 0.398199 0.163577
0.013336 0.390295 0.157351
0.034211 0.376074 0.146365
0.060060 0.353338 0.129763
0.134829 0.365698 0.139254
0.316258 0.468910 0.232547
0.504570 0.572198 0.371618
0.634607 0.651362 0.535210
0.699458 0.703456 0.660121
0.726741 0.733944 0.722042
0.737331 0.730709 0.706569
0.750179 0.723323 0.688441
0.764858 0.713161 0.668849
0.780270 0.701900 0.650294
0.795499 0.690303 0.633326
0.805378 0.685499 0.631271
0.000000 0.437263 0.173861
0.000000 0.430549 0.168338
0.002289 0.416632 0.157290
0.027222 0.394385 0.140108
0.056764 0.361944 0.116854
0.230869 0.446113 0.184695
0.433722 0.555108 0.311040
0.593011 0.640375 0.474983
0.681666 0.696864 0.619562
0.720119 0.729610 0.706447
0.736599 0.748501 0.744076
0.742733 0.745876 0.733577
0.750790 0.741024 0.721675
0.760525 0.734585 0.709071
0.771511 0.726650 0.695644
0.783385 0.717194 0.680960
0.000000 0.479347 0.185336
0.000000 0.472480 0.179385
0.000000 0.458320 0.167605
0.000000 0.436500 0.149783
0.006897 0.405402 0.126070
0.116884 0.412818 0.132265
0.339849 0.528527 0.244114
0.532158 0.622950 0.401038
0.649897 0.685847 0.562982
0.707027 0.722652 0.673548
0.730861 0.743618 0.730648
0.742092 0.756497 0.755673
0.746029 0.754177 0.747585
0.751644 0.750851 0.739223
0.758541 0.746395 0.730312
0.766276 0.741682 0.722336
0.000000 0.504021 0.188632
0.000000 0.498207 0.182681
0.000000 0.489052 0.173129
0.000000 0.472419 0.157107
0.000000 0.447822 0.134340
0.000000 0.412665 0.105043
0.220157 0.495186 0.173556
0.458106 0.607630 0.327642
0.615839 0.682795 0.513268
0.695369 0.724331 0.652277
0.729122 0.746609 0.725216
0.742947 0.759335 0.756588
0.749752 0.767208 0.770932
0.751614 0.765743 0.766323
0.754299 0.763363 0.760952
0.757834 0.759858 0.754155
0.000000 0.576959 0.221836
0.000000 0.559686 0.206760
0.000000 0.545251 0.192081
0.000000 0.528496 0.173373
0.000000 0.506523 0.148440
0.000000 0.474678 0.116609
0.000000 0.452125 0.093294
0.342901 0.580102 0.236149
0.553307 0.668849 0.428138
0.665797 0.717464 0.598993
0.717281 0.742489 0.700191
0.738155 0.756466 0.744961
0.747555 0.765194 0.765743
0.752163 0.770443 0.775387
0.753231 0.769070 0.771511
0.755074 0.767347 0.767523
0.000000 0.631098 0.257023
0.000000 0.615717 0.238407
0.000000 0.602686 0.221225
0.000000 0.588525 0.199802
0.000000 0.571069 0.172641
0.000000 0.545983 0.136019
0.000000 0.512322 0.089448
0.166995 0.549096 0.131960
0.463264 0.652338 0.325200
0.620996 0.710109 0.526299
0.698848 0.739071 0.665034
0.731472 0.754482 0.731106
0.745113 0.764034 0.759548
0.751278 0.769863 0.772946
0.754269 0.773220 0.779294
0.754904 0.772283 0.776635
0.171458 0.686538 0.317479
0.120368 0.674632 0.294633
0.074656 0.664743 0.274339
0.027977 0.655387 0.252070
0.000000 0.644758 0.224063
0.000000 0.629431 0.185538
0.000000 0.608217 0.132532
0.001670 0.578040 0.048935
0.386977 0.661221 0.250544
0.597098 0.720865 0.495346
0.694376 0.746292 0.661983
0.732136 0.759226 0.734187
0.746624 0.767328 0.762569
0.752758 0.772281 0.775363
0.755659 0.775275 0.781862
0.756533 0.776222 0.783570
0.014771 0.044190 0.118044
0.061738 0.056275 0.129305
0.133944 0.074128 0.139345
0.234501 0.099397 0.159060
0.354498 0.061189 0.161776
0.445350 0.000000 0.147982
0.546685 0.000000 0.138735
0.638056 0.000000 0.153048
0.716579 0.000000 0.170535
0.781796 0.071717 0.192660
0.829801 0.152468 0.214359
0.864652 0.214145 0.237827
0.889342 0.268864 0.264347
0.906371 0.324559 0.299321
0.914733 0.375189 0.338109
0.916968 0.418423 0.376964
0.045350 0.085878 0.132082
0.091035 0.097383 0.138155
0.149386 0.113649 0.145632
0.241703 0.126406 0.163272
0.349310 0.090303 0.157717
0.452888 0.039704 0.146670
0.550866 0.013947 0.152407
0.640620 0.024781 0.165621
0.720699 0.077974 0.183536
0.783932 0.138643 0.203403
0.829709 0.191501 0.222904
0.862974 0.241978 0.245396
0.887144 0.289342 0.271214
0.903624 0.339300 0.304845
0.912078 0.385626 0.342596
0.914434 0.428015 0.382507
0.074983 0.135348 0.145357
0.111177 0.140932 0.147158
0.170260 0.159335 0.159396
0.263951 0.149020 0.161685
0.362432 0.143343 0.160006
0.462043 0.143252 0.167300
0.558282 0.145327 0.176455
0.648096 0.155703 0.188663
0.725216 0.177218 0.202396
0.784146 0.209293 0.218509
0.826444 0.244938 0.235874
0.858122 0.281712 0.256138
0.882200 0.321324 0.282109
0.898650 0.363745 0.314794
0.907317 0.404944 0.352209
0.909975 0.443465 0.391697
0.137118 0.216617 0.185336
0.150881 0.210269 0.177951
0.175723 0.204074 0.167117
0.274296 0.244724 0.205509
0.361578 0.236698 0.191714
0.460670 0.238987 0.196506
0.558068 0.241917 0.203250
0.648798 0.250980 0.213260
0.720699 0.264744 0.224399
0.776638 0.285496 0.238285
0.818112 0.309300 0.254795
0.849851 0.335821 0.274357
0.874540 0.368231 0.301610
0.890562 0.399878 0.331640
0.899687 0.429664 0.363561
0.903554 0.459605 0.398156
0.133394 0.251041 0.181704
0.138430 0.246006 0.171633
0.147311 0.227237 0.150423
0.272190 0.287724 0.225315
0.392370 0.359594 0.293339
0.474159 0.350072 0.259342
0.552575 0.331426 0.236484
0.640894 0.341283 0.244541
0.711421 0.352514 0.254917
0.766995 0.367803 0.269078
0.808621 0.384863 0.286290
0.841672 0.407202 0.310063
0.865202 0.430884 0.338018
0.880217 0.456336 0.370550
0.888151 0.481910 0.405463
0.891022 0.505975 0.439634
0.124239 0.294804 0.182620
0.131594 0.285679 0.173251
0.140291 0.267460 0.155459
0.235233 0.306645 0.197147
0.392065 0.396765 0.307591
0.528099 0.492226 0.411048
0.594354 0.484627 0.365393
0.652094 0.460609 0.324254
0.705379 0.444678 0.304234
0.756924 0.452430 0.315679
0.797055 0.462013 0.331609
0.828367 0.474464 0.352789
0.850797 0.488441 0.377600
0.865629 0.504784 0.406683
0.873930 0.523156 0.438697
0.877012 0.543459 0.472506
0.117037 0.332525 0.185855
0.123995 0.324712 0.178286
0.132753 0.307225 0.162509
0.186099 0.315404 0.170840
0.349279 0.406195 0.267185
0.517601 0.512810 0.410864
0.626764 0.600610 0.533165
0.671412 0.591730 0.486732
0.711269 0.567742 0.437751
0.747250 0.538933 0.393042
0.782010 0.530205 0.386358
0.811704 0.535729 0.403540
0.833463 0.542962 0.424537
0.848264 0.552850 0.449683
0.857023 0.565515 0.477974
0.860709 0.581195 0.509108
0.106081 0.364294 0.188083
0.112856 0.358068 0.181918
0.121492 0.341558 0.167697
0.131868 0.313939 0.145602
0.286107 0.400214 0.225528
0.465522 0.503960 0.351049
0.604395 0.597864 0.509270
0.677913 0.664240 0.618280
