example_ofxGpuLutCube/bin/data/ofxGpuLutCube/LUT/U43 (pink sunset fade_3).cube
LUT_3D_SIZE 6
0.000000 0.000000 0.000000
0.271611 0.000000 0.016419
0.561151 0.000000 0.037263
0.800839 0.000000 0.103273
0.903624 0.222812 0.199435
0.926381 0.396563 0.335001
0.000000 0.133730 0.037110
0.255558 0.246189 0.186191
0.553338 0.207828 0.111696
0.784756 0.246616 0.157839
0.883543 0.334905 0.236790
0.911681 0.443698 0.360814
0.000000 0.265171 0.093782
0.156527 0.304417 0.126192
0.640101 0.618921 0.550011
0.761868 0.560143 0.389807
0.842161 0.540032 0.393957
0.866514 0.575931 0.489028
0.000000 0.373816 0.132967
0.009522 0.329473 0.102327
0.500694 0.571710 0.358251
0.727718 0.735561 0.724056
0.765347 0.715267 0.670680
0.807253 0.683672 0.625173
0.000000 0.480110 0.161929
0.000000 0.451514 0.133944
0.229038 0.500267 0.172396
0.695277 0.724422 0.649714
0.749783 0.767178 0.770809
0.757835 0.759646 0.753487
0.112331 0.677309 0.288766
0.000000 0.642758 0.223614
0.000000 0.592523 0.103231
0.604117 0.722148 0.503770
0.746744 0.767388 0.762657
0.756501 0.776192 0.783507
0.014771 0.044190 0.118044
0.234501 0.099397 0.159060
0.546685 0.000000 0.138735
0.781796 0.071717 0.192660
0.889342 0.268864 0.264347
0.916968 0.418423 0.376964
0.137118 0.216617 0.185336
0.274296 0.244724 0.205509
0.558068 0.241917 0.203250
0.776638 0.285496 0.238285
0.874540 0.368231 0.301610
0.903554 0.459605 0.398156
0.117037 0.332525 0.185855
0.186099 0.315404 0.170840
0.626764 0.600610 0.533165
0.747250 0.538933 0.393042
0.833463 0.542962 0.424537
0.860709 0.581195 0.509108
0.084718 0.423133 0.196445
0.105562 0.378271 0.159274
0.509056 0.573663 0.385657
0.726558 0.733425 0.721859
0.764340 0.712245 0.669551
0.803684 0.687302 0.637261
0.000000 0.523186 0.215335
0.000000 0.491249 0.181857
0.206851 0.487465 0.172702
0.695552 0.724453 0.655177
0.749905 0.767300 0.771145
0.757834 0.759919 0.754489
0.216801 0.693962 0.345253
0.111938 0.665254 0.279254
0.000000 0.620502 0.160632
0.587800 0.718852 0.483748
0.746595 0.767389 0.762726
0.756562 0.776284 0.783693
0.046754 0.105623 0.248936
0.233463 0.167758 0.299931
0.530175 0.271244 0.373205
0.761624 0.184939 0.357458
0.880369 0.271885 0.359838
0.901386 0.450829 0.458481
0.147585 0.208927 0.272282
0.296361 0.274266 0.325536
0.553491 0.328496 0.385657
0.761990 0.267552 0.348699
0.862394 0.381384 0.395880
0.891059 0.477964 0.466013
0.356939 0.472511 0.416663
0.384894 0.454749 0.394995
0.590692 0.540581 0.483986
0.732540 0.527581 0.457771
0.819974 0.554345 0.497200
0.849527 0.594086 0.557242
0.360082 0.554131 0.409155
0.324315 0.517357 0.350683
0.510857 0.569268 0.429999
0.723659 0.727871 0.716396
0.763912 0.702358 0.664240
0.797443 0.693154 0.660504
0.297551 0.619806 0.389990
0.273045 0.596796 0.348241
0.212192 0.504570 0.222690
0.690578 0.720974 0.657649
0.750057 0.767483 0.771786
0.758107 0.759372 0.754978
0.417933 0.726785 0.505100
0.346783 0.710104 0.442364
0.255262 0.678678 0.320475
0.488371 0.695444 0.367482
0.745808 0.767150 0.762284
0.756687 0.776531 0.784128
0.126406 0.182254 0.387701
0.264988 0.230655 0.432593
0.554376 0.381079 0.541833
0.721736 0.502953 0.593378
0.824826 0.484291 0.576837
0.865961 0.517421 0.575738
0.215366 0.269322 0.417029
0.325353 0.313481 0.453651
0.571771 0.454139 0.555322
0.717098 0.538079 0.600214
0.819303 0.493263 0.569024
0.863476 0.521640 0.566989
0.282139 0.395178 0.437629
0.351507 0.412451 0.451606
0.586481 0.552300 0.569329
0.713954 0.551598 0.578729
0.808316 0.546929 0.566918
0.837532 0.602847 0.611537
0.570886 0.657069 0.626551
0.591394 0.658534 0.629053
0.577356 0.621088 0.571740
0.711299 0.700465 0.685298
0.765225 0.683925 0.663111
0.795725 0.691807 0.680580
0.581170 0.706844 0.641596
0.580194 0.702541 0.632624
0.546410 0.678553 0.572107
0.643763 0.692500 0.606104
0.749477 0.766537 0.771115
0.759833 0.755782 0.752026
0.606489 0.751627 0.677713
0.583089 0.747001 0.657269
0.572468 0.738915 0.626832
0.409351 0.701580 0.396369
0.741710 0.765113 0.756896
0.756933 0.776900 0.784837
0.247898 0.288060 0.565209
0.357061 0.330541 0.594659
0.576440 0.468269 0.662318
0.714137 0.602258 0.707271
0.759701 0.675135 0.721370
0.790008 0.677092 0.716333
0.288060 0.340826 0.571740
0.382574 0.379339 0.596735
0.586664 0.511833 0.664851
0.712612 0.626398 0.709285
0.755550 0.684352 0.722988
0.791941 0.668290 0.708154
0.241978 0.371618 0.521202
0.354314 0.425147 0.565972
0.578393 0.557855 0.652430
0.707942 0.665156 0.711940
0.750546 0.699336 0.726467
0.786669 0.684204 0.714362
0.432258 0.589532 0.625025
0.464881 0.592584 0.627649
0.537957 0.596826 0.631464
0.704677 0.703944 0.720272
0.749111 0.704921 0.722133
0.782818 0.700888 0.717901
0.669734 0.737087 0.732082
0.680812 0.739132 0.735378
0.705867 0.744900 0.744381
0.707240 0.735775 0.731930
0.744564 0.757565 0.761501
0.763541 0.748662 0.750763
0.710447 0.765136 0.758316
0.707068 0.763729 0.755296
0.708493 0.762924 0.753451
0.703131 0.759131 0.742476
0.681491 0.747452 0.675610
0.757240 0.777478 0.785847
0.483913 0.496193 0.735560
0.536019 0.527837 0.740583
0.640147 0.609454 0.751463
0.722713 0.702982 0.763865
0.751182 0.732489 0.769031
0.760132 0.749488 0.770669
0.480941 0.511215 0.732687
0.532802 0.540068 0.737625
0.636534 0.614828 0.748722
0.719467 0.701197 0.761527
0.749195 0.728377 0.766257
0.759709 0.744321 0.766999
0.389377 0.499644 0.714878
0.481532 0.541882 0.725553
0.617995 0.622020 0.742818
0.716342 0.709458 0.760472
0.747616 0.739813 0.768588
0.758242 0.752260 0.770778
0.230367 0.540426 0.701900
0.252037 0.529449 0.697996
0.423043 0.549322 0.710407
0.691989 0.699788 0.752909
0.746192 0.751816 0.771865
0.756932 0.760554 0.774851
0.586687 0.716896 0.752168
0.595366 0.716627 0.751929
0.619702 0.716065 0.751512
0.650721 0.710583 0.748682
0.739699 0.755129 0.770975
0.757167 0.767459 0.778968
0.709712 0.769356 0.773734
0.711484 0.769082 0.773521
0.720902 0.769522 0.774634
0.735398 0.771147 0.777418
0.750559 0.774595 0.782420
0.756999 0.777468 0.786472
