example_ofxGpuLutCube/bin/data/ofxGpuLutCube/LUT/U44 (pink sunset fade_4).cube
LUT_3D_SIZE 6
0.000000 0.000000 0.000000
0.359716 0.000000 0.014008
0.699672 0.000000 0.026673
0.876738 0.208255 0.119936
0.934295 0.400153 0.263157
0.937377 0.529267 0.432044
0.020722 0.135592 0.036805
0.314122 0.298711 0.240726
0.647120 0.295872 0.155795
0.840574 0.384039 0.217716
0.908446 0.472450 0.324346
0.921025 0.561829 0.465403
0.060304 0.241642 0.073976
0.254978 0.346990 0.153506
0.674891 0.660304 0.617884
0.780056 0.622522 0.502495
0.851682 0.621118 0.510185
0.873228 0.658067 0.590423
0.052003 0.298650 0.078523
0.115328 0.290623 0.070832
0.596094 0.614343 0.445563
0.752926 0.765042 0.758663
0.786679 0.751034 0.720699
0.820910 0.735082 0.697304
0.000000 0.339727 0.049409
0.013703 0.328649 0.034302
0.385626 0.526146 0.196414
0.736995 0.754299 0.702419
0.778683 0.799161 0.802762
0.787163 0.792781 0.788352
0.000000 0.555899 0.000000
0.000000 0.513314 0.000000
0.063290 0.506460 0.000000
0.692553 0.749877 0.578624
0.779450 0.801167 0.798156
0.787897 0.810366 0.816719
0.000000 0.052247 0.129915
0.317479 0.128145 0.210880
0.702296 0.000000 0.165072
0.859648 0.287144 0.240940
0.918364 0.437995 0.343053
0.926496 0.548501 0.474686
0.127901 0.230350 0.193393
0.354620 0.313970 0.267124
0.663905 0.344762 0.264775
0.832029 0.424933 0.314702
0.896941 0.503227 0.396826
0.912006 0.576386 0.500618
0.144717 0.324163 0.168917
0.292271 0.374243 0.214115
0.668727 0.649744 0.606073
0.770016 0.610590 0.504601
0.844572 0.625635 0.533410
0.868462 0.662546 0.604870
0.110414 0.354376 0.135103
0.154849 0.334173 0.117342
0.604028 0.621241 0.476600
0.752316 0.763790 0.757259
0.785672 0.749264 0.720455
0.818820 0.738123 0.705200
0.000000 0.380194 0.085512
0.037415 0.366064 0.069886
0.367773 0.516747 0.195590
0.737331 0.755123 0.707576
0.778958 0.799466 0.803220
0.787316 0.793207 0.789386
0.000000 0.579735 0.000123
0.000000 0.541233 0.000000
0.080908 0.533370 0.000000
0.683916 0.746825 0.561442
0.779361 0.801202 0.798224
0.787990 0.810490 0.816905
0.000000 0.115480 0.266453
0.289616 0.213535 0.377478
0.645289 0.373663 0.476173
0.860472 0.280125 0.389410
0.907256 0.464179 0.450294
0.908979 0.580165 0.551019
0.152010 0.250462 0.302617
0.378637 0.355566 0.411139
0.669886 0.417548 0.473396
0.833524 0.421942 0.427405
0.883421 0.530022 0.493660
0.898829 0.596927 0.560686
0.308843 0.449195 0.386572
0.424598 0.497230 0.427100
0.652857 0.614954 0.573449
0.765133 0.614221 0.555901
0.834501 0.641566 0.591455
0.859752 0.674471 0.641056
0.304479 0.506462 0.336614
0.327611 0.486824 0.309361
0.612421 0.630793 0.529808
0.751278 0.760769 0.754330
0.784939 0.744015 0.719203
0.815779 0.743432 0.721059
0.107027 0.490486 0.215885
0.149416 0.476722 0.195529
0.240360 0.441596 0.143740
0.734463 0.754025 0.711788
0.779538 0.800076 0.804135
0.787772 0.793299 0.790362
0.000000 0.633744 0.172201
0.000000 0.602256 0.122899
0.089684 0.589192 0.019331
0.630256 0.725490 0.453661
0.778940 0.801116 0.797874
0.788238 0.810860 0.817401
0.000000 0.191928 0.403388
0.264408 0.270054 0.483253
0.636866 0.490333 0.629358
0.762295 0.605585 0.669947
0.861357 0.572900 0.629114
0.886424 0.616484 0.635427
0.193851 0.303685 0.437842
0.349401 0.368597 0.506737
0.646998 0.555505 0.638697
0.763485 0.617273 0.668940
0.857877 0.580407 0.621149
0.879423 0.626471 0.637288
0.259312 0.406653 0.430243
0.384680 0.463508 0.482979
0.655482 0.632380 0.648005
0.768826 0.626093 0.643275
0.830320 0.647364 0.648066
0.850354 0.687138 0.684942
0.467353 0.597314 0.543206
0.521141 0.617060 0.565942
0.610925 0.644770 0.593530
0.743832 0.742733 0.734737
0.788113 0.735317 0.721340
0.816937 0.745025 0.736068
0.325444 0.610285 0.448219
0.374823 0.621546 0.459754
0.456672 0.622827 0.451423
0.707424 0.733303 0.678035
0.779599 0.799802 0.804105
0.789471 0.791381 0.789205
0.000000 0.689961 0.364950
0.000000 0.674533 0.329003
0.192086 0.684505 0.340290
0.408005 0.669077 0.208539
0.776028 0.799328 0.793276
0.788668 0.811415 0.818262
0.100099 0.292912 0.559686
0.308415 0.358495 0.608026
0.613977 0.546624 0.705806
0.750820 0.674739 0.755856
0.786648 0.732296 0.767697
0.820983 0.726167 0.757451
0.205722 0.355688 0.562005
0.342596 0.405890 0.607782
0.624628 0.582483 0.707362
0.749599 0.692622 0.757351
0.783719 0.738796 0.768978
0.822584 0.720008 0.750793
0.151553 0.369177 0.480049
0.333135 0.452338 0.557427
0.614008 0.613764 0.691585
0.745937 0.721462 0.759335
0.783719 0.744137 0.768582
0.818506 0.733665 0.756115
0.245090 0.509697 0.525750
0.333562 0.534905 0.551415
0.527550 0.603632 0.623102
0.742977 0.750851 0.765682
0.784970 0.749508 0.763943
0.811469 0.754176 0.764899
0.466773 0.667842 0.622858
0.515312 0.680903 0.641138
0.625879 0.716793 0.692256
0.715572 0.753079 0.740719
0.775998 0.793362 0.797482
0.793907 0.788205 0.790157
0.363372 0.743403 0.625241
0.356815 0.737063 0.612451
0.441899 0.745796 0.622780
0.556051 0.758371 0.635778
0.740542 0.783292 0.732987
0.789283 0.812301 0.819576
0.403296 0.507913 0.742844
0.490475 0.545254 0.754719
0.648769 0.644815 0.778225
0.754395 0.747964 0.799451
0.783235 0.774513 0.805670
0.791788 0.789162 0.807384
0.403325 0.523915 0.735936
0.476983 0.550149 0.749313
0.641965 0.646388 0.774505
0.751090 0.746253 0.797204
0.781342 0.771615 0.803448
0.791151 0.785307 0.804538
0.246078 0.508264 0.693785
0.408045 0.553652 0.719773
0.604851 0.639347 0.763424
0.746084 0.750210 0.795210
0.780413 0.780805 0.805564
0.790267 0.791782 0.807738
0.000000 0.486022 0.622163
0.000000 0.483720 0.624623
0.247508 0.541718 0.681706
0.709071 0.729149 0.782707
0.779455 0.790843 0.808474
0.789871 0.798051 0.810935
0.001672 0.670907 0.705101
0.010200 0.671815 0.708024
0.318534 0.677341 0.719230
0.542776 0.693709 0.741371
0.772092 0.792674 0.806850
0.790801 0.803753 0.814149
0.460514 0.784263 0.760694
0.473614 0.782591 0.759362
0.550598 0.783929 0.765264
0.666909 0.789162 0.780374
0.762671 0.802198 0.805511
0.789761 0.813194 0.821037
