example_ofxGpuLutCube/bin/data/ofxGpuLutCube/LUT/U44 (pink sunset fade_4).cube
LUT_3D_SIZE 16
0.000000 0.000000 0.000000
0.065553 0.014008 0.006226
0.214817 0.003998 0.011841
0.359716 0.000000 0.014008
0.486122 0.000000 0.014069
0.606470 0.000000 0.016876
0.699672 0.000000 0.026673
0.781277 0.000000 0.049653
0.836698 0.108675 0.081849
0.876738 0.208255 0.119936
0.904753 0.284459 0.163943
0.923156 0.347356 0.212161
0.934295 0.400153 0.263157
0.940002 0.449287 0.320958
0.940429 0.493812 0.380621
0.937377 0.529267 0.432044
0.011688 0.046113 0.015381
0.055573 0.063722 0.045716
0.177737 0.080812 0.033295
0.323003 0.071839 0.031861
0.460121 0.031861 0.032105
0.583856 0.000000 0.037568
0.693111 0.003296 0.051209
0.775265 0.101961 0.074067
0.829618 0.179019 0.102174
0.870756 0.251347 0.138155
0.899046 0.314031 0.180148
0.917876 0.368231 0.226047
0.929625 0.414343 0.273869
0.936034 0.459693 0.329656
0.937011 0.501701 0.388312
0.934081 0.537503 0.441305
0.014069 0.092531 0.025086
0.067323 0.105898 0.039033
0.162325 0.163577 0.128878
0.299504 0.177371 0.094728
0.424964 0.162203 0.078187
0.567681 0.166140 0.084138
0.679713 0.183810 0.096040
0.760708 0.219211 0.113466
0.817044 0.262425 0.137179
0.860136 0.314031 0.171359
0.888975 0.360388 0.209201
0.908751 0.402197 0.250919
0.921447 0.439338 0.294743
0.928923 0.479347 0.348547
0.930785 0.517082 0.404150
0.928156 0.551677 0.457597
0.020722 0.135592 0.036805
0.063783 0.141360 0.041810
0.166842 0.194553 0.105196
0.314122 0.298711 0.240726
0.446174 0.311650 0.193973
0.545556 0.290806 0.158938
0.647120 0.295872 0.155795
0.733059 0.319951 0.168154
0.795773 0.351110 0.189456
0.840574 0.384039 0.217716
0.871336 0.414313 0.248875
0.893217 0.443336 0.284337
0.908446 0.472450 0.324346
0.917723 0.503197 0.370642
0.921599 0.532341 0.417365
0.921025 0.561829 0.465403
0.036622 0.174411 0.052186
0.064973 0.172152 0.048676
0.161990 0.230961 0.099611
0.321386 0.329503 0.214450
0.490455 0.460975 0.387243
0.590234 0.470924 0.336889
0.660578 0.450599 0.288243
0.720058 0.434699 0.260136
0.780789 0.454139 0.276127
0.825284 0.474006 0.299474
0.856291 0.491554 0.325597
0.878721 0.510704 0.357275
0.893980 0.532006 0.394476
0.902678 0.555474 0.436744
0.906035 0.578668 0.478248
0.906216 0.598488 0.513552
0.051270 0.210819 0.064973
0.074067 0.209079 0.061952
0.145998 0.251011 0.092683
0.294896 0.345464 0.182010
0.473182 0.462745 0.342016
0.602838 0.576349 0.512322
0.668299 0.579980 0.468666
0.719661 0.565087 0.424598
0.760739 0.544213 0.385260
0.800076 0.541192 0.379004
0.832731 0.550958 0.396765
0.857176 0.563653 0.422065
0.873960 0.577569 0.451179
0.884215 0.594232 0.485176
0.889158 0.611719 0.519829
0.890608 0.628095 0.551130
0.060304 0.241642 0.073976
0.078584 0.239506 0.071290
0.123995 0.257420 0.082002
0.254978 0.346990 0.153506
0.438453 0.462379 0.287999
0.591638 0.575921 0.476753
0.674891 0.660304 0.617884
0.715511 0.658930 0.583062
0.748989 0.642023 0.540581
0.780056 0.622522 0.502495
0.807767 0.604273 0.471504
0.833524 0.611933 0.488502
0.851682 0.621118 0.510185
0.863523 0.632502 0.536309
0.870207 0.645106 0.563775
0.873228 0.658067 0.590423
0.063722 0.265690 0.078798
0.078553 0.264042 0.076478
0.101564 0.258244 0.071138
0.212284 0.339788 0.127047
0.388098 0.452766 0.239414
0.560113 0.564172 0.410040
0.660761 0.650660 0.582147
0.711482 0.707301 0.680415
0.737362 0.703517 0.652766
0.762264 0.691463 0.621912
0.786526 0.677333 0.593500
0.809293 0.663691 0.569940
0.828916 0.657984 0.563378
0.842527 0.665064 0.581476
0.851316 0.673243 0.601404
0.855938 0.683697 0.624033
0.061036 0.280552 0.079835
0.074006 0.277409 0.077241
0.093721 0.272221 0.072816
0.160067 0.313420 0.097475
0.315343 0.420417 0.185183
0.499733 0.535668 0.333318
0.633906 0.632593 0.513573
0.702815 0.701320 0.658747
0.736904 0.742214 0.727687
0.753933 0.740352 0.711238
0.771115 0.733181 0.692409
0.788388 0.724086 0.674403
0.805142 0.714137 0.657588
0.820829 0.704921 0.643732
0.830716 0.708339 0.653864
0.836668 0.714291 0.668065
0.052003 0.298650 0.078523
0.064973 0.295018 0.076326
0.083680 0.289494 0.071962
0.115328 0.290623 0.070832
0.251072 0.392950 0.141512
0.436042 0.510613 0.268864
0.596094 0.614343 0.445563
0.688014 0.689631 0.608484
0.731716 0.738918 0.715755
0.752926 0.765042 0.758663
0.763180 0.762936 0.747066
0.774441 0.757687 0.733822
0.786679 0.751034 0.720699
0.799069 0.744594 0.709834
0.810849 0.739010 0.701595
0.820910 0.735082 0.697304
0.027741 0.314946 0.072602
0.042939 0.311681 0.070436
0.064637 0.305913 0.065797
0.090181 0.296788 0.059388
0.181399 0.359442 0.096101
0.362921 0.481392 0.204685
0.546990 0.593256 0.373053
0.663111 0.675776 0.550591
0.723140 0.730831 0.679896
0.749813 0.763302 0.752316
0.763516 0.779568 0.777798
0.769680 0.777340 0.769100
0.777340 0.774136 0.760769
0.785763 0.770047 0.752438
0.794766 0.765286 0.744259
0.803860 0.760090 0.736191
0.000000 0.333227 0.060975
0.000671 0.329931 0.058686
0.026154 0.324437 0.054902
0.061646 0.315160 0.047761
0.104067 0.315953 0.045808
0.273350 0.440650 0.135348
0.478004 0.563287 0.289342
0.624079 0.655726 0.475776
0.704585 0.718044 0.630304
0.743313 0.756008 0.724971
0.760891 0.777829 0.773129
0.770230 0.788388 0.789212
0.774319 0.786526 0.782650
0.779751 0.784176 0.776486
0.785946 0.781491 0.770779
0.792503 0.779044 0.766338
0.000000 0.339727 0.049409
0.000000 0.337774 0.047272
0.000000 0.334783 0.042084
0.013703 0.328649 0.034302
0.058686 0.320012 0.024292
0.167483 0.386175 0.059419
0.385626 0.526146 0.196414
0.576349 0.636561 0.393622
0.684504 0.710597 0.581262
0.736995 0.754299 0.702419
0.761196 0.778744 0.764858
0.772732 0.792569 0.793179
0.778683 0.799161 0.802762
0.780880 0.797757 0.798550
0.783749 0.795682 0.793881
0.787163 0.792781 0.788352
0.000000 0.392432 0.014588
0.000000 0.377478 0.017456
0.000000 0.368627 0.015076
0.000000 0.361181 0.008759
0.000000 0.353735 0.000000
0.052705 0.342840 0.000000
0.270146 0.481117 0.089937
0.505516 0.609583 0.288060
0.649287 0.695766 0.503563
0.720546 0.745907 0.657679
0.754269 0.773770 0.743435
0.769863 0.789242 0.782254
0.777920 0.798856 0.801389
0.781796 0.802976 0.807553
0.783139 0.801602 0.803861
0.785133 0.800091 0.800416
0.000000 0.455909 0.000000
0.000000 0.436286 0.000000
0.000000 0.423713 0.000000
0.000000 0.415198 0.000000
0.000000 0.408881 0.000000
0.000000 0.400732 0.000000
0.126253 0.436744 0.000000
0.411109 0.583368 0.163455
0.601556 0.680842 0.404120
0.697841 0.738064 0.598474
0.744564 0.769619 0.714992
0.766140 0.786893 0.770230
0.776822 0.797452 0.795346
0.782193 0.803861 0.808042
0.784634 0.806424 0.811826
0.785450 0.805518 0.809408
0.000000 0.555899 0.000000
0.000000 0.533556 0.000000
0.000000 0.520197 0.000000
0.000000 0.513314 0.000000
0.000000 0.510108 0.000000
0.000000 0.507308 0.000000
0.063290 0.506460 0.000000
0.338266 0.592099 0.001635
0.579018 0.694075 0.339314
0.692553 0.749877 0.578624
0.745561 0.777535 0.714509
0.768768 0.792210 0.773250
0.779450 0.801167 0.798156
0.784519 0.806519 0.809975
0.787052 0.809718 0.815995
0.787897 0.810366 0.816719
0.004028 0.013794 0.022675
0.072328 0.031250 0.048219
0.254124 0.000000 0.039429
0.379644 0.000000 0.041535
0.489815 0.000000 0.056458
0.601587 0.000000 0.066957
0.699336 0.000000 0.081361
0.776699 0.068696 0.100893
0.830167 0.162295 0.124331
0.870939 0.240299 0.155947
0.899413 0.306371 0.194034
0.917967 0.361700 0.235935
0.929747 0.408423 0.280156
0.936400 0.453864 0.332311
0.937774 0.495491 0.386969
0.935447 0.530704 0.437002
0.016327 0.061158 0.046876
0.087343 0.087190 0.069245
0.207797 0.093782 0.068055
0.341924 0.092012 0.073182
0.471809 0.078767 0.078981
0.591699 0.071870 0.088045
0.695613 0.101411 0.101808
0.772549 0.158053 0.119844
0.825956 0.217288 0.142275
0.867521 0.280247 0.174014
0.895293 0.335668 0.210880
0.913756 0.382910 0.250675
0.925628 0.423529 0.292210
0.932616 0.465126 0.342229
0.934417 0.503716 0.394873
0.932301 0.538218 0.445056
0.033570 0.128542 0.067506
0.097749 0.135439 0.078645
0.198825 0.192630 0.155581
0.320165 0.194003 0.126528
0.452888 0.192355 0.121584
0.584070 0.202060 0.128634
0.687190 0.221042 0.139162
0.762631 0.253300 0.154055
0.818692 0.294652 0.176486
0.859129 0.339025 0.206119
0.886198 0.378241 0.238010
0.905089 0.414343 0.273442
0.917998 0.447883 0.312352
0.925811 0.484352 0.360479
0.928374 0.518914 0.410498
0.926863 0.550788 0.458749
0.054414 0.169375 0.074800
0.094423 0.169711 0.075349
0.203067 0.225650 0.147127
0.344305 0.323064 0.263005
0.462745 0.328008 0.220493
0.556756 0.307713 0.187778
0.660182 0.322545 0.191470
0.741238 0.347143 0.204593
0.799405 0.374701 0.223728
0.841062 0.403082 0.248447
0.870268 0.429755 0.275975
0.891234 0.455634 0.307622
0.906279 0.483955 0.346136
0.915129 0.512413 0.388769
0.919036 0.538811 0.430640
0.919096 0.564764 0.472394
0.064027 0.197055 0.078828
0.088502 0.193240 0.074250
0.181247 0.244694 0.123995
0.329412 0.335027 0.234531
0.479225 0.448402 0.376104
0.574456 0.455177 0.330663
0.647120 0.439185 0.289860
0.712062 0.432013 0.270695
0.773495 0.451637 0.285527
0.818875 0.471382 0.307347
0.851164 0.489937 0.332311
0.874815 0.509972 0.363134
0.891020 0.531945 0.399481
0.900481 0.555138 0.439826
0.904631 0.577844 0.479683
0.905054 0.598721 0.515832
0.072328 0.228580 0.085573
0.091981 0.225162 0.081666
0.158572 0.259617 0.109071
0.301884 0.348363 0.196872
0.472389 0.461769 0.352148
0.596155 0.567956 0.502922
0.659510 0.569451 0.459815
0.710933 0.554681 0.417578
0.753109 0.535088 0.380865
0.794614 0.536584 0.380377
0.828733 0.548272 0.399329
0.854154 0.561944 0.424689
0.871702 0.576379 0.453254
0.882628 0.592615 0.485420
0.888304 0.609766 0.518730
0.889965 0.627229 0.551360
0.076356 0.257481 0.090547
0.093935 0.254582 0.087343
0.133791 0.265293 0.093996
0.263706 0.352392 0.166659
0.441474 0.463569 0.298466
0.588647 0.573144 0.479927
0.669062 0.652613 0.608087
0.709499 0.650416 0.572961
0.744564 0.635035 0.533196
0.776150 0.616693 0.497230
0.804471 0.599817 0.468879
0.831083 0.608637 0.486793
0.850034 0.618128 0.508019
0.862577 0.629480 0.533379
0.869963 0.642023 0.560235
0.873075 0.656163 0.588544
0.076081 0.277897 0.092042
0.090364 0.275273 0.089174
0.112123 0.268589 0.083864
0.215274 0.340002 0.134798
0.386389 0.449317 0.244755
0.555352 0.559289 0.410620
0.657191 0.647028 0.580774
0.708675 0.703243 0.675166
0.734890 0.699336 0.647517
0.760037 0.687251 0.616785
0.784634 0.673030 0.588403
0.807675 0.659510 0.564935
0.827756 0.655756 0.561517
0.841825 0.662867 0.579248
0.851377 0.669520 0.596155
0.857118 0.677980 0.615310
0.071595 0.292760 0.090944
0.084108 0.289586 0.088411
0.103273 0.283360 0.083131
0.164981 0.317388 0.104463
0.319219 0.422675 0.192691
0.501335 0.536278 0.339940
0.633936 0.632624 0.517845
0.702052 0.700801 0.660121
0.735866 0.740658 0.725673
0.752956 0.738460 0.708797
0.770321 0.731228 0.689937
0.787778 0.722011 0.671809
0.804746 0.712001 0.654810
0.820615 0.703151 0.641627
0.830289 0.708186 0.654505
0.836120 0.714955 0.669913
0.061006 0.308629 0.087984
0.073793 0.304814 0.085054
0.092012 0.299046 0.080964
0.117861 0.293034 0.075593
0.254215 0.395392 0.147219
0.438849 0.512383 0.275608
0.596368 0.614435 0.449775
0.687373 0.689082 0.609949
0.730831 0.738094 0.715633
0.752071 0.763821 0.757046
0.762448 0.761410 0.745022
0.773953 0.756252 0.731807
0.786374 0.749813 0.719081
0.798917 0.743648 0.708675
0.810880 0.738247 0.700862
0.820547 0.735558 0.698536
0.036072 0.323674 0.080751
0.050355 0.320592 0.078157
0.071107 0.314549 0.073640
0.096651 0.305180 0.066499
0.183047 0.360510 0.100069
0.364019 0.481788 0.208988
0.546685 0.592584 0.376043
0.662043 0.674678 0.551354
0.722347 0.729885 0.679652
0.749233 0.762692 0.751949
0.762966 0.778775 0.776822
0.769223 0.776455 0.768002
0.776913 0.772885 0.758968
0.785580 0.768704 0.750484
0.794766 0.764126 0.742580
0.803951 0.759352 0.735269
0.000000 0.340093 0.068421
0.006226 0.336828 0.066011
0.031983 0.330968 0.061921
0.067201 0.321355 0.054688
0.102388 0.313787 0.048096
0.271519 0.438819 0.137209
0.475715 0.561578 0.290166
0.622858 0.654566 0.476204
0.703395 0.716732 0.629358
0.742367 0.754879 0.723629
0.760128 0.776883 0.772061
0.769497 0.787411 0.787991
0.773648 0.785336 0.781003
0.779202 0.782773 0.774472
0.785672 0.779873 0.768368
0.792530 0.777456 0.763927
0.000000 0.348638 0.055085
0.000000 0.346166 0.052491
0.000000 0.342870 0.047608
0.015686 0.336156 0.039673
0.061799 0.326635 0.028809
0.163455 0.383642 0.059846
0.383948 0.525353 0.197086
0.575891 0.636439 0.394965
0.684108 0.710445 0.582055
0.736843 0.754177 0.702846
0.761044 0.778592 0.764858
0.772610 0.792508 0.793179
0.778653 0.799069 0.802670
0.780850 0.797665 0.798459
0.783749 0.795712 0.793973
0.787254 0.792933 0.788685
0.000000 0.400610 0.019287
0.000000 0.386328 0.021332
0.000000 0.377020 0.018372
0.000000 0.369329 0.011719
0.000000 0.361517 0.001465
0.054749 0.349920 0.000000
0.265080 0.478950 0.087800
0.502800 0.608453 0.286748
0.648066 0.695003 0.502647
0.720089 0.745480 0.657313
0.753994 0.773526 0.743191
0.769741 0.789181 0.782223
0.777981 0.798856 0.801480
0.781796 0.803006 0.807584
0.783200 0.801633 0.804013
0.785163 0.800243 0.800660
0.000000 0.463172 0.000000
0.000000 0.444587 0.000000
0.000000 0.432807 0.000000
0.000000 0.424598 0.000000
0.000000 0.417792 0.000000
0.000000 0.409125 0.000000
0.115633 0.433783 0.000000
0.406012 0.581842 0.159243
0.599420 0.679774 0.401526
0.696925 0.737453 0.597040
0.744228 0.769314 0.714412
0.765988 0.786831 0.770138
0.776730 0.797452 0.795377
0.782193 0.803891 0.808103
0.784665 0.806485 0.811887
0.785510 0.805579 0.809530
0.000000 0.562255 0.000000
0.000000 0.540981 0.000000
0.000000 0.528113 0.000000
0.000000 0.521565 0.000000
0.000000 0.518658 0.000000
0.000000 0.515852 0.000000
0.073275 0.514557 0.000000
0.330449 0.590845 0.001592
0.575945 0.693400 0.334333
0.691427 0.749629 0.576465
0.745225 0.777411 0.713838
0.768646 0.792089 0.773008
0.779358 0.801077 0.798005
0.784459 0.806459 0.809885
0.787021 0.809688 0.815996
0.787897 0.810336 0.816720
0.005402 0.033936 0.078462
0.076997 0.052247 0.107698
0.194278 0.071138 0.129549
0.385657 0.000000 0.111574
0.501946 0.000000 0.092287
0.599878 0.000000 0.106661
0.693202 0.018128 0.127443
0.767422 0.127352 0.148745
0.821866 0.196841 0.168154
0.864103 0.267247 0.196628
0.892760 0.327184 0.230533
0.911894 0.378424 0.267857
0.924285 0.421790 0.307225
0.931518 0.465583 0.356359
0.933379 0.505058 0.406958
0.931537 0.538685 0.453426
0.021027 0.080110 0.093721
0.102541 0.106325 0.121187
0.222690 0.103120 0.129000
0.360754 0.080446 0.113832
0.474281 0.087098 0.119936
0.589715 0.105592 0.133639
0.688136 0.141787 0.148470
0.763851 0.189883 0.164401
0.819455 0.245365 0.185000
0.861051 0.302953 0.213260
0.888945 0.353735 0.245548
0.907866 0.397711 0.280919
0.920500 0.436011 0.318639
0.927977 0.475959 0.365454
0.930236 0.512596 0.414099
0.928574 0.545649 0.460658
0.061921 0.146731 0.122072
0.119905 0.162356 0.130007
0.213840 0.194766 0.164584
0.328923 0.197848 0.156466
0.461494 0.207584 0.162478
0.584131 0.220218 0.170748
0.682887 0.241306 0.181003
0.756741 0.272099 0.193973
0.813443 0.313970 0.215396
0.853330 0.355444 0.241306
0.880430 0.392340 0.269749
0.899687 0.426246 0.301061
0.913268 0.458839 0.337102
0.921447 0.493538 0.381353
0.924468 0.526513 0.427771
0.923350 0.557269 0.473030
0.093019 0.207370 0.132601
0.124636 0.198947 0.122133
0.228763 0.247196 0.187198
0.351843 0.324346 0.267674
0.457038 0.322087 0.234531
0.559564 0.317540 0.219059
0.659571 0.334356 0.225162
0.739010 0.360388 0.238987
0.795499 0.386908 0.256535
0.836484 0.414069 0.278386
0.865446 0.439796 0.303258
0.886625 0.464546 0.331548
0.902007 0.492439 0.367773
0.911284 0.519310 0.406561
0.915587 0.544457 0.445014
0.916191 0.569292 0.483476
0.101503 0.229282 0.122683
0.122347 0.225223 0.117281
0.203372 0.262669 0.155856
0.347906 0.350744 0.267124
0.481758 0.447608 0.377508
0.568933 0.448981 0.337163
0.639857 0.433478 0.301335
0.710506 0.438880 0.295872
0.770443 0.458076 0.310277
0.815000 0.477546 0.330327
0.847135 0.495979 0.353704
0.870970 0.516503 0.383246
0.887358 0.538262 0.417365
0.897032 0.560845 0.455116
0.901366 0.583154 0.492683
0.902121 0.603517 0.526869
0.103517 0.258396 0.121401
0.121187 0.254612 0.116670
0.175814 0.274449 0.133333
0.320684 0.362310 0.225010
0.483314 0.472541 0.377844
0.596490 0.566796 0.502861
0.656062 0.565301 0.462043
0.706630 0.550652 0.422950
0.748623 0.531731 0.388281
0.792172 0.540398 0.397559
0.825895 0.552514 0.416022
0.851133 0.566369 0.440070
0.868711 0.580835 0.467170
0.879759 0.596796 0.497444
0.885618 0.613642 0.528954
0.887491 0.630984 0.560284
0.103059 0.283726 0.120089
0.118776 0.280583 0.116640
0.144869 0.276280 0.111757
0.278172 0.362921 0.187564
0.453071 0.472572 0.321294
0.593927 0.579706 0.497627
0.669337 0.652125 0.608148
0.707942 0.648249 0.573602
0.742245 0.632685 0.535393
0.773526 0.614527 0.500694
0.802548 0.602686 0.480812
0.828794 0.611597 0.497902
0.847715 0.621057 0.518120
0.860349 0.632227 0.542138
0.867857 0.644678 0.567803
0.871150 0.658818 0.595237
0.098360 0.300816 0.116579
0.112367 0.298222 0.113344
0.132357 0.290990 0.106722
0.225772 0.348272 0.150393
0.396704 0.456550 0.263218
0.560937 0.564385 0.427192
0.659236 0.650416 0.591455
0.708644 0.702754 0.674830
0.734066 0.698146 0.647700
0.758877 0.686061 0.617914
0.783200 0.672145 0.590539
0.806302 0.658595 0.567285
0.826139 0.657740 0.568780
0.840177 0.664729 0.585565
0.849973 0.670802 0.600793
0.855895 0.679050 0.619102
0.090944 0.312657 0.111452
0.102693 0.309209 0.108278
0.120729 0.302831 0.102998
0.172885 0.323827 0.116274
0.327886 0.428443 0.206821
0.508171 0.541192 0.355291
0.636805 0.635859 0.529412
0.703029 0.702876 0.666407
0.735866 0.740414 0.725521
0.752590 0.737942 0.708949
0.769711 0.730709 0.690608
0.787137 0.721523 0.672724
0.804044 0.711513 0.655879
0.819944 0.703059 0.643366
0.829129 0.709682 0.658686
0.835021 0.716479 0.673702
0.079652 0.325811 0.105440
0.090822 0.322454 0.102419
0.107515 0.316197 0.097566
0.129580 0.306340 0.089448
0.260655 0.399969 0.157839
0.445197 0.516381 0.288029
0.599878 0.617456 0.461128
0.688869 0.691066 0.617182
0.731502 0.739498 0.719387
0.752224 0.763821 0.757137
0.762295 0.761196 0.745174
0.773709 0.755978 0.732174
0.786099 0.749569 0.719570
0.798611 0.743496 0.709377
0.810605 0.738155 0.701595
0.819851 0.736615 0.701262
0.054780 0.338903 0.095613
0.066865 0.335851 0.092988
0.085328 0.329900 0.088167
0.108980 0.320287 0.080812
0.184024 0.361639 0.106264
0.366430 0.483406 0.216861
0.549157 0.594537 0.385016
0.663539 0.676387 0.558495
0.722957 0.731044 0.683742
0.749722 0.763607 0.754055
0.762997 0.778744 0.776852
0.769162 0.776394 0.768154
0.776791 0.772793 0.759182
0.785458 0.768612 0.750820
0.794614 0.764096 0.743069
0.803829 0.759383 0.735817
0.002869 0.353521 0.081727
0.018708 0.350347 0.079133
0.044862 0.343938 0.074434
0.076783 0.334508 0.067475
0.107118 0.321294 0.056886
0.269627 0.437629 0.140902
0.476326 0.562127 0.295689
0.623590 0.655360 0.481605
0.703914 0.717464 0.633234
0.742702 0.755489 0.725826
0.760433 0.777401 0.773190
0.769558 0.787472 0.788083
0.773678 0.785336 0.781125
0.779171 0.782742 0.774624
0.785641 0.779812 0.768490
0.792500 0.777365 0.764018
0.000000 0.360784 0.066255
0.000000 0.358404 0.063691
0.000000 0.354833 0.058717
0.022889 0.347936 0.051057
0.068025 0.338323 0.039094
0.156222 0.378973 0.060121
0.378241 0.522393 0.196872
0.574182 0.635584 0.396338
0.684108 0.710628 0.584497
0.737118 0.754635 0.704860
0.761288 0.779019 0.766049
0.772885 0.792935 0.793912
0.778805 0.799222 0.802914
0.780911 0.797818 0.798703
0.783810 0.795804 0.794186
0.787254 0.793085 0.788989
0.000000 0.411475 0.032074
0.000000 0.397314 0.032807
0.000000 0.388281 0.028901
0.000000 0.380621 0.020752
0.000000 0.372320 0.009064
0.059174 0.360357 0.000000
0.252567 0.472236 0.082673
0.497292 0.605921 0.283391
0.646418 0.694240 0.502068
0.719875 0.745632 0.658412
0.754086 0.773770 0.744167
0.769924 0.789425 0.782864
0.778103 0.799130 0.801877
0.781918 0.803128 0.807736
0.783230 0.801755 0.804166
0.785255 0.800334 0.800872
0.000000 0.472206 0.000000
0.000000 0.453956 0.000000
0.000000 0.442298 0.000000
0.000000 0.434119 0.000000
0.000000 0.427283 0.000000
0.000000 0.418647 0.000000
0.088289 0.422431 0.000000
0.392767 0.576318 0.148653
0.594446 0.677516 0.395209
0.695338 0.736751 0.595056
0.743893 0.769284 0.714443
0.766049 0.786954 0.770504
0.776883 0.797574 0.795712
0.782315 0.804044 0.808316
0.784756 0.806577 0.812009
0.785572 0.805701 0.809682
0.000000 0.569325 0.000000
0.000000 0.548417 0.000000
0.000000 0.535912 0.000000
0.000000 0.529516 0.000000
0.000000 0.526970 0.000000
0.000000 0.524195 0.000000
0.076325 0.522360 0.000000
0.304274 0.582270 0.001487
0.567707 0.690296 0.321369
0.688873 0.748685 0.571399
0.744497 0.777230 0.712630
0.768526 0.792090 0.772922
0.779391 0.801108 0.798099
0.784521 0.806552 0.810008
0.787053 0.809749 0.816088
0.787928 0.810398 0.816782
0.000000 0.052247 0.129915
0.059419 0.069093 0.155825
0.173922 0.094270 0.181857
0.317479 0.128145 0.210880
0.499031 0.000000 0.191592
0.615625 0.000000 0.149264
0.702296 0.000000 0.165072
0.770626 0.113344 0.184543
0.821164 0.207889 0.208713
0.859648 0.287144 0.240940
0.886778 0.347417 0.273136
0.905699 0.396002 0.306554
0.918364 0.437995 0.343053
0.925719 0.479652 0.387610
0.927855 0.516869 0.433173
0.926496 0.548501 0.474686
0.043061 0.107851 0.150546
0.103243 0.121004 0.170077
0.194858 0.144717 0.188998
0.335698 0.151400 0.209842
0.493935 0.062806 0.177066
0.607233 0.065309 0.173190
0.696101 0.127535 0.186679
0.764462 0.193118 0.203830
0.817319 0.261692 0.228733
0.856016 0.322698 0.257786
0.882994 0.371374 0.286534
0.901762 0.413642 0.318273
0.914641 0.451362 0.353246
0.922301 0.489021 0.395453
0.924895 0.523552 0.439033
0.923686 0.555004 0.481360
0.077455 0.158328 0.164340
0.136507 0.177096 0.180789
0.227512 0.207675 0.208713
0.366674 0.187686 0.197696
0.485451 0.200168 0.202731
0.595544 0.219028 0.211032
0.685908 0.246921 0.222477
0.756069 0.286473 0.238773
0.809812 0.329137 0.259068
0.848203 0.370336 0.282597
0.874662 0.406714 0.307805
0.893889 0.439460 0.335760
0.907744 0.471992 0.369482
0.916167 0.504967 0.409277
0.919341 0.536553 0.451362
0.918676 0.565738 0.492180
0.127901 0.230350 0.193393
0.167971 0.243870 0.200900
0.246433 0.265110 0.224430
0.354620 0.313970 0.267124
0.456947 0.311589 0.251041
0.569299 0.325780 0.256168
0.663905 0.344762 0.264775
0.738521 0.370947 0.278660
0.792447 0.397467 0.294652
0.832029 0.424933 0.314702
0.860349 0.450813 0.337346
0.881529 0.475502 0.363134
0.896941 0.503227 0.396826
0.906279 0.529015 0.431678
0.910979 0.552911 0.465919
0.912006 0.576386 0.500618
0.135012 0.274266 0.186069
0.165164 0.272831 0.184268
0.217044 0.277958 0.188296
0.365484 0.366796 0.303258
0.480964 0.441169 0.375128
0.562097 0.436561 0.341680
0.634760 0.426062 0.316686
0.711727 0.446601 0.327794
0.768856 0.465553 0.341802
0.811612 0.485267 0.360876
0.842893 0.503899 0.382452
0.866575 0.525414 0.411170
0.882719 0.546990 0.442451
0.892424 0.568902 0.476631
0.897002 0.590356 0.510796
0.898210 0.609783 0.541794
0.146242 0.303746 0.179171
0.164431 0.299779 0.173739
0.191043 0.291142 0.163577
0.337987 0.376440 0.257176
0.494789 0.484443 0.407721
0.595544 0.562921 0.500603
0.651850 0.557855 0.462837
0.701259 0.542840 0.427527
0.746456 0.534051 0.408270
0.789914 0.546227 0.421881
0.822721 0.558770 0.439704
0.847440 0.572869 0.462196
0.864744 0.587243 0.487098
0.875761 0.602991 0.514946
0.881895 0.619287 0.543816
0.884070 0.636116 0.572790
0.144717 0.324163 0.168917
0.158755 0.321172 0.164553
0.180484 0.313024 0.156039
0.292271 0.374243 0.214115
0.465126 0.482124 0.349248
0.599573 0.587274 0.519463
0.668727 0.649744 0.606073
0.705318 0.643763 0.572778
0.738888 0.628260 0.537133
0.770016 0.610590 0.504601
0.800290 0.607111 0.498329
0.825925 0.616236 0.514580
0.844572 0.625635 0.533410
0.857206 0.636683 0.555535
0.864866 0.648859 0.579400
0.868462 0.662546 0.604870
0.136049 0.337041 0.157412
0.148531 0.334813 0.154360
0.166903 0.327184 0.146731
0.237186 0.357733 0.171481
0.407904 0.464607 0.287053
0.567864 0.570703 0.449134
0.661402 0.654597 0.605158
0.708125 0.701320 0.673518
