example_ofxGpuLutCube/bin/data/ofxGpuLutCube/LUT/U45 (super bright).cube
LUT_3D_SIZE 16
0.008515 0.024964 0.021515
0.050263 0.029633 0.020966
0.138460 0.029999 0.019440
0.238987 0.013947 0.015625
0.338720 0.000000 0.009644
0.453162 0.000000 0.000000
0.562676 0.000000 0.000000
0.680598 0.000000 0.000000
0.778347 0.000000 0.000000
0.862425 0.000000 0.000000
0.930541 0.000000 0.000000
0.986114 0.000000 0.000000
1.000000 0.122652 0.000000
1.000000 0.198672 0.000000
1.000000 0.256352 0.000000
1.000000 0.295991 0.000000
0.000000 0.074189 0.036103
0.037507 0.077119 0.027314
0.129061 0.083223 0.017029
0.227512 0.076020 0.009491
0.329656 0.054505 0.000519
0.441138 0.005615 0.000000
0.564630 0.000000 0.000000
0.681727 0.000000 0.000000
0.775631 0.000000 0.000000
0.860227 0.000000 0.000000
0.927550 0.000000 0.000000
0.982513 0.097353 0.000000
1.000000 0.170932 0.000000
1.000000 0.230106 0.000000
1.000000 0.279332 0.000000
1.000000 0.316403 0.000000
0.000000 0.135927 0.046326
0.000000 0.132021 0.041413
0.083467 0.136324 0.024018
0.204990 0.144198 0.007416
0.315435 0.134524 0.000000
0.440742 0.117739 0.000000
0.564477 0.089998 0.000000
0.676753 0.057069 0.000000
0.770809 0.044892 0.000000
0.856870 0.082673 0.000000
0.922972 0.130892 0.000000
0.977142 0.179355 0.000000
1.000000 0.224613 0.000000
1.000000 0.274388 0.000000
1.000000 0.317998 0.000000
1.000000 0.349570 0.000000
0.000000 0.206943 0.063508
0.000000 0.203159 0.059754
0.000000 0.205356 0.046326
0.152529 0.213443 0.015778
0.301518 0.225345 0.000000
0.427497 0.216953 0.000000
0.547326 0.204196 0.000000
0.660426 0.194858 0.000000
0.760403 0.196506 0.000000
0.844755 0.211368 0.000000
0.909819 0.231449 0.000000
0.963806 0.257267 0.000000
1.000000 0.287572 0.000000
1.000000 0.321965 0.000000
1.000000 0.353948 0.000000
1.000000 0.384071 0.000000
0.000000 0.286534 0.090059
0.000000 0.289250 0.087373
0.000000 0.296757 0.083040
0.060609 0.307042 0.053285
0.256748 0.316777 0.000000
0.435950 0.335576 0.000000
0.562371 0.327276 0.000000
0.676692 0.324559 0.000000
0.773068 0.326909 0.000000
0.853544 0.336095 0.000000
0.916197 0.346349 0.000000
0.969970 0.361883 0.000000
1.000000 0.382055 0.000000
1.000000 0.405188 0.000000
1.000000 0.426734 0.000000
1.000000 0.443049 0.000000
0.000000 0.381994 0.125338
0.000000 0.388434 0.124910
0.000000 0.395392 0.121950
0.000000 0.400885 0.109102
0.186893 0.407935 0.062745
0.371313 0.414008 0.000000
0.552728 0.437354 0.000000
0.668696 0.436011 0.000000
0.764614 0.436133 0.000000
0.842924 0.437903 0.000000
0.904875 0.439429 0.000000
0.959960 0.447059 0.000000
1.000000 0.457740 0.000000
1.000000 0.471687 0.000000
1.000000 0.485573 0.000000
1.000000 0.496811 0.000000
0.000000 0.479652 0.168643
0.000000 0.485389 0.169284
0.000000 0.490059 0.167086
0.000000 0.493324 0.161349
0.121187 0.499031 0.137423
0.329839 0.506401 0.085023
0.499428 0.512627 0.000000
0.661952 0.536706 0.000000
0.752193 0.530632 0.000000
0.827878 0.526452 0.000000
0.891691 0.524559 0.000000
0.947814 0.526818 0.000000
0.995972 0.530938 0.000000
1.000000 0.538293 0.000000
1.000000 0.546166 0.000000
1.000000 0.553175 0.000000
0.000000 0.564721 0.217655
0.000000 0.572045 0.221012
0.000000 0.577722 0.221592
0.000000 0.581048 0.218723
0.103426 0.582727 0.212222
0.309850 0.585016 0.176333
0.460029 0.585077 0.120912
0.597070 0.586023 0.002594
0.734157 0.607111 0.000000
0.810025 0.601770 0.000000
0.875090 0.598169 0.000000
0.932036 0.597284 0.000000
0.980926 0.597223 0.000000
1.000000 0.598901 0.000000
1.000000 0.601495 0.000000
1.000000 0.608263 0.000000
0.000000 0.621271 0.257572
0.000000 0.622889 0.257450
0.000000 0.627558 0.259037
0.000000 0.631647 0.258549
0.106722 0.636042 0.257084
0.294926 0.640558 0.245518
0.438575 0.646265 0.214511
0.566857 0.650996 0.169223
0.685756 0.656031 0.095125
0.805539 0.677943 0.000000
0.871244 0.675227 0.000000
0.927642 0.673121 0.000000
0.976165 0.670893 0.000000
1.000000 0.669276 0.000000
1.000000 0.668299 0.000000
1.000000 0.666850 0.000000
0.000000 0.690455 0.319738
0.000000 0.689723 0.317937
0.000000 0.690883 0.317815
0.000000 0.692378 0.317144
0.195926 0.694606 0.316136
0.325231 0.697230 0.314702
0.441535 0.702022 0.298222
0.552056 0.706416 0.269657
0.657984 0.711025 0.231662
0.756619 0.715023 0.176425
0.858244 0.733913 0.075502
0.912535 0.729397 0.000000
0.960540 0.725429 0.000000
1.000000 0.723110 0.000000
1.000000 0.721218 0.000000
1.000000 0.722154 0.000000
0.000000 0.747250 0.385626
0.000000 0.746883 0.384680
0.083345 0.746975 0.383917
0.201083 0.747585 0.383307
0.296025 0.748806 0.383032
0.382483 0.750301 0.382422
0.466499 0.752560 0.379492
0.555016 0.755642 0.358373
0.643885 0.758877 0.331884
0.730037 0.761563 0.296513
0.812161 0.764187 0.249332
0.898955 0.779660 0.177615
0.946441 0.775387 0.146609
0.991058 0.773953 0.110445
1.000000 0.773892 0.047883
1.000000 0.774194 0.000479
0.243717 0.795193 0.453864
0.260044 0.794766 0.452766
0.291356 0.794888 0.452461
0.336797 0.795438 0.452705
0.390845 0.796201 0.452918
0.450080 0.797330 0.453315
0.512078 0.798703 0.453651
0.577234 0.800839 0.445045
0.647761 0.803433 0.425513
0.720058 0.806119 0.400885
0.791897 0.808865 0.369757
0.861936 0.811826 0.330266
0.938537 0.826596 0.276738
0.981445 0.824063 0.260716
1.000000 0.822965 0.242802
1.000000 0.822391 0.217272
0.417700 0.841611 0.536065
0.426673 0.841764 0.536309
0.443030 0.842100 0.536797
0.467720 0.842557 0.537377
0.500237 0.843259 0.538262
0.538689 0.844083 0.539300
0.581659 0.845243 0.540520
0.627314 0.846677 0.541802
0.677607 0.849027 0.528801
0.732174 0.851499 0.510643
0.789548 0.854032 0.488136
0.848264 0.856535 0.460304
0.907317 0.859281 0.426093
0.971832 0.870359 0.381018
1.000000 0.868345 0.365454
1.000000 0.866834 0.352613
0.547784 0.883848 0.621332
0.551995 0.883696 0.620844
0.560815 0.883818 0.620905
0.575616 0.884092 0.621393
0.595850 0.884642 0.622278
0.620966 0.885344 0.623407
0.650080 0.886259 0.624720
0.682246 0.887449 0.626215
0.717067 0.889036 0.624292
0.755917 0.891264 0.611566
0.798795 0.893523 0.595941
0.844663 0.895750 0.576287
0.892790 0.898009 0.551690
0.942290 0.900175 0.520226
0.997131 0.908324 0.479957
0.999971 0.907055 0.463974
0.648035 0.921172 0.701015
0.650538 0.921050 0.700649
0.656001 0.921141 0.700710
0.665187 0.921386 0.701106
0.678096 0.921843 0.701869
0.694667 0.922423 0.702907
0.714382 0.923217 0.704250
0.736660 0.924193 0.705684
0.761318 0.925353 0.707362
0.788083 0.927153 0.701869
0.818570 0.929229 0.691157
0.852415 0.931395 0.677913
0.889342 0.933562 0.661616
0.928801 0.935668 0.640925
0.970550 0.937682 0.614588
0.999705 0.943453 0.580357
0.734112 0.955645 0.776789
0.735618 0.955583 0.776573
0.739116 0.955674 0.776665
0.745009 0.955919 0.777091
0.753447 0.956316 0.777854
0.764399 0.956835 0.778862
0.777617 0.957538 0.780174
0.792976 0.958424 0.781699
0.810233 0.959463 0.783559
0.828991 0.960750 0.785045
0.849629 0.962855 0.779016
0.873141 0.965083 0.771633
0.899523 0.967400 0.762739
0.928559 0.969748 0.751715
0.960247 0.972125 0.738249
0.993949 0.974515 0.721754
0.000000 0.041993 0.065553
0.055879 0.035523 0.073426
0.140597 0.030152 0.060853
0.239109 0.013550 0.052125
0.332311 0.000000 0.045838
0.442176 0.000000 0.031037
0.560082 0.000000 0.011749
0.675288 0.000000 0.000000
0.770901 0.000000 0.000000
0.857176 0.000000 0.000000
0.926543 0.000000 0.000000
0.981598 0.000946 0.000000
1.000000 0.127047 0.000000
1.000000 0.203616 0.000000
1.000000 0.263340 0.000000
1.000000 0.302254 0.000000
0.000000 0.089723 0.084840
0.040406 0.084627 0.080293
0.130129 0.083253 0.069581
0.225681 0.078645 0.058961
0.327794 0.062867 0.046693
0.441566 0.020569 0.030152
0.564813 0.000000 0.008362
0.678431 0.000000 0.000000
0.773037 0.000000 0.000000
0.860288 0.000000 0.000000
0.927306 0.000000 0.000000
0.980896 0.099336 0.000000
1.000000 0.168399 0.000000
1.000000 0.229801 0.000000
1.000000 0.281712 0.000000
1.000000 0.321019 0.000000
0.000000 0.148898 0.102296
0.000000 0.147524 0.093843
0.097261 0.148104 0.076234
0.215274 0.149813 0.059205
0.327398 0.141115 0.044709
0.450599 0.125490 0.024933
0.571496 0.099123 0.000000
0.681147 0.071168 0.000000
0.778836 0.065827 0.000000
0.861753 0.097017 0.000000
0.924407 0.137453 0.000000
0.976074 0.180697 0.000000
1.000000 0.223606 0.000000
1.000000 0.271122 0.000000
1.000000 0.313664 0.000000
1.000000 0.349769 0.000000
0.000000 0.224247 0.127687
0.000000 0.221256 0.112917
0.008026 0.219364 0.102937
0.168826 0.225284 0.074159
0.314275 0.233341 0.041444
0.441138 0.224887 0.010986
0.561334 0.212924 0.000000
0.674342 0.205539 0.000000
0.771328 0.207553 0.000000
0.851621 0.220462 0.000000
0.914427 0.238865 0.000000
0.966766 0.262730 0.000000
1.000000 0.293797 0.000000
1.000000 0.326207 0.000000
1.000000 0.355352 0.000000
1.000000 0.382151 0.000000
0.000000 0.293858 0.149264
0.000000 0.295598 0.132143
0.000000 0.296544 0.126772
0.081514 0.301091 0.107301
0.250584 0.306889 0.067018
0.417456 0.322423 0.002991
0.544518 0.316930 0.000000
0.660853 0.314794 0.000000
0.758389 0.316930 0.000000
0.840879 0.325963 0.000000
0.906065 0.337713 0.000000
0.962249 0.354650 0.000000
1.000000 0.376440 0.000000
1.000000 0.399908 0.000000
1.000000 0.421820 0.000000
1.000000 0.439646 0.000000
0.000000 0.384710 0.174380
0.000000 0.387823 0.160922
0.000000 0.389593 0.156802
0.000000 0.392004 0.149142
0.191012 0.399420 0.115572
0.364935 0.405554 0.056886
0.537346 0.425330 0.000000
0.652613 0.423499 0.000000
0.750149 0.424445 0.000000
0.830472 0.427161 0.000000
0.895811 0.431495 0.000000
0.953002 0.440833 0.000000
1.000000 0.452430 0.000000
1.000000 0.466346 0.000000
1.000000 0.480537 0.000000
1.000000 0.493468 0.000000
0.000000 0.482643 0.210056
0.000000 0.486793 0.200473
0.000000 0.488228 0.197086
0.000000 0.489570 0.191073
0.137606 0.492897 0.172732
0.326696 0.498543 0.131838
0.488319 0.502159 0.057465
0.646296 0.523888 0.000000
0.740352 0.520714 0.000000
0.818357 0.518151 0.000000
0.883238 0.516838 0.000000
0.940185 0.519493 0.000000
0.989471 0.524437 0.000000
1.000000 0.532097 0.000000
1.000000 0.540398 0.000000
1.000000 0.549281 0.000000
0.000000 0.562829 0.248051
0.000000 0.567681 0.242588
0.000000 0.569360 0.240696
0.000000 0.570703 0.236545
0.112734 0.571618 0.229984
0.303319 0.574609 0.201419
0.452155 0.576776 0.156283
0.589014 0.578790 0.082490
0.725338 0.599573 0.000000
0.802121 0.594720 0.000000
0.867857 0.591455 0.000000
0.925566 0.591119 0.000000
0.975708 0.592065 0.000000
1.000000 0.594141 0.000000
1.000000 0.599573 0.000000
1.000000 0.608486 0.000000
0.000000 0.626947 0.286656
0.000000 0.627985 0.281651
0.000000 0.629572 0.280827
0.000000 0.631403 0.278843
0.136416 0.634058 0.276005
0.300999 0.637659 0.266941
0.439338 0.643366 0.238651
0.564935 0.647974 0.198611
0.681910 0.652399 0.138857
0.800504 0.673610 0.006409
0.866361 0.671107 0.000000
0.923247 0.669306 0.000000
0.972229 0.667353 0.000000
1.000000 0.666804 0.000000
1.000000 0.667079 0.000000
1.000000 0.667290 0.000000
0.000000 0.691188 0.339574
0.000000 0.691157 0.335943
0.000000 0.691493 0.334997
0.000000 0.692622 0.333928
0.217838 0.694606 0.333013
0.335973 0.696651 0.331121
0.444007 0.700069 0.315740
0.551080 0.703731 0.288212
0.654810 0.707698 0.252140
0.752346 0.711208 0.201938
0.853056 0.729397 0.123445
0.908141 0.725521 0.080385
0.957183 0.722621 0.000000
1.000000 0.721218 0.000000
1.000000 0.720424 0.000000
1.000000 0.722449 0.000000
0.000000 0.747433 0.400366
0.018433 0.747799 0.399481
0.135775 0.747829 0.398627
0.225467 0.748043 0.397528
0.309392 0.748592 0.396338
0.389746 0.749264 0.394476
0.468544 0.750423 0.391547
0.553948 0.752987 0.370520
0.641505 0.756069 0.344701
0.726802 0.758602 0.310582
0.808408 0.760952 0.265782
0.895140 0.776303 0.201389
0.944793 0.774441 0.180789
0.990082 0.773953 0.154788
1.000000 0.773983 0.115023
1.000000 0.774376 0.027647
0.258885 0.794308 0.463142
0.275761 0.794156 0.462623
0.305425 0.794491 0.462745
0.348150 0.795041 0.462898
0.399664 0.795895 0.463203
0.457069 0.797024 0.463600
0.517296 0.798428 0.464149
0.580621 0.800565 0.457038
0.649561 0.803220 0.438117
0.720668 0.805936 0.414313
0.791806 0.808713 0.384588
0.861448 0.811673 0.346929
0.937530 0.826261 0.297124
0.980407 0.823880 0.282353
1.000000 0.822904 0.266026
1.000000 0.822421 0.242550
0.426673 0.841398 0.544121
0.435401 0.841520 0.544366
0.451148 0.841825 0.544762
0.474861 0.842313 0.545312
0.506371 0.842954 0.546197
0.543877 0.843839 0.547234
0.585931 0.845029 0.548486
0.630701 0.846494 0.549798
0.679713 0.848844 0.538109
0.733303 0.851347 0.520623
0.789975 0.853910 0.498817
0.848081 0.856504 0.471901
0.906706 0.859098 0.438270
0.971160 0.870451 0.395636
1.000000 0.868376 0.381170
1.000000 0.867016 0.368813
0.552300 0.883665 0.626825
0.556542 0.883513 0.626398
0.565270 0.883635 0.626459
0.579706 0.883940 0.626917
0.599634 0.884489 0.627832
0.624201 0.885191 0.628931
0.652857 0.886137 0.630213
0.684565 0.887297 0.631739
0.718746 0.888914 0.630549
0.757015 0.891142 0.618158
0.799344 0.893431 0.602838
0.844785 0.895689 0.583764
0.892576 0.897978 0.559991
0.941802 0.900206 0.529534
0.996490 0.908446 0.490578
0.999965 0.907177 0.475562
0.650507 0.921050 0.704646
0.653040 0.920958 0.704311
0.658381 0.921050 0.704402
0.667506 0.921294 0.704799
0.680323 0.921752 0.705592
0.696590 0.922332 0.706600
0.716091 0.923156 0.707881
0.738216 0.924102 0.709316
0.762539 0.925261 0.710964
0.789059 0.927031 0.706111
0.819150 0.929198 0.695613
0.852689 0.931365 0.682673
0.889372 0.933532 0.666651
0.928588 0.935668 0.646418
0.970153 0.937713 0.620691
0.999701 0.943544 0.587367
0.735315 0.955583 0.779000
0.736941 0.955522 0.778786
0.740318 0.955644 0.778877
0.746241 0.955888 0.779334
0.754587 0.956285 0.780067
0.765444 0.956834 0.781104
0.778571 0.957538 0.782356
0.793838 0.958423 0.783911
0.810971 0.959463 0.785680
0.829666 0.960688 0.787535
0.850088 0.962855 0.781569
0.873445 0.965053 0.774279
0.899644 0.967400 0.765417
0.928528 0.969718 0.754610
0.960062 0.972125 0.741361
0.993738 0.974516 0.725116
0.000000 0.073793 0.176883
0.000000 0.049561 0.165469
0.124056 0.037507 0.141787
0.215030 0.030457 0.111391
0.318578 0.000000 0.099184
0.426001 0.000000 0.094179
0.543206 0.000000 0.084199
0.657862 0.000000 0.067506
0.757046 0.000000 0.034668
0.848447 0.000000 0.000000
0.919738 0.000000 0.000000
0.976440 0.002777 0.000000
1.000000 0.125368 0.000000
1.000000 0.202884 0.000000
1.000000 0.262028 0.000000
1.000000 0.305928 0.000000
0.000000 0.130068 0.171145
0.000000 0.106477 0.159304
0.115633 0.086275 0.143252
0.207248 0.084230 0.123964
0.309697 0.069215 0.115877
0.425299 0.041993 0.105196
0.546441 0.000000 0.090639
0.661585 0.000000 0.067811
0.762997 0.000000 0.031800
0.852537 0.000000 0.000000
0.920989 0.000000 0.000000
0.975982 0.099825 0.000000
1.000000 0.167666 0.000000
1.000000 0.229496 0.000000
1.000000 0.280797 0.000000
1.000000 0.321946 0.000000
0.000000 0.165743 0.164034
0.000000 0.157870 0.156588
0.097932 0.150210 0.150729
0.203067 0.148501 0.138643
0.313939 0.144320 0.126650
0.435920 0.131807 0.112123
0.557214 0.109010 0.092927
0.668177 0.082002 0.066346
0.770504 0.075746 0.025757
0.854612 0.100526 0.000000
0.918517 0.139132 0.000000
0.971344 0.180728 0.000000
1.000000 0.224063 0.000000
1.000000 0.270817 0.000000
1.000000 0.312963 0.000000
1.000000 0.348252 0.000000
0.000000 0.223972 0.176028
0.000000 0.221653 0.174319
0.057191 0.222660 0.167239
0.173983 0.226200 0.147433
0.308537 0.229801 0.127687
0.432074 0.222721 0.110384
0.551324 0.212619 0.089326
0.667201 0.207004 0.060517
0.764370 0.208743 0.013001
0.845731 0.220829 0.000000
0.909422 0.239048 0.000000
0.962585 0.262913 0.000000
1.000000 0.294408 0.000000
1.000000 0.325750 0.000000
1.000000 0.354223 0.000000
1.000000 0.379964 0.000000
0.000000 0.293523 0.194675
0.000000 0.295842 0.194675
0.000000 0.299016 0.182315
0.107851 0.301274 0.171695
0.256962 0.306798 0.141268
0.412329 0.317815 0.110414
0.538170 0.313359 0.082094
0.653590 0.311620 0.044587
0.751583 0.314397 0.000000
0.834897 0.324010 0.000000
0.901122 0.336492 0.000000
0.958984 0.355169 0.000000
1.000000 0.377264 0.000000
1.000000 0.400977 0.000000
1.000000 0.422736 0.000000
1.000000 0.440199 0.000000
0.000000 0.385473 0.226108
0.000000 0.388800 0.226932
0.000000 0.392065 0.208133
0.000000 0.393683 0.202152
0.207645 0.399115 0.179599
0.369757 0.405097 0.140932
0.533318 0.421363 0.090486
0.648066 0.420050 0.043702
0.745693 0.421576 0.000000
0.825925 0.424689 0.000000
0.892302 0.430365 0.000000
0.950042 0.440711 0.000000
0.999756 0.452949 0.000000
1.000000 0.467292 0.000000
1.000000 0.481453 0.000000
1.000000 0.494444 0.000000
0.000000 0.481453 0.266178
0.000000 0.486000 0.262913
0.000000 0.489082 0.242588
0.000000 0.490455 0.237736
0.171481 0.492683 0.226963
0.337346 0.498421 0.194400
0.492012 0.501976 0.147280
0.643427 0.521050 0.076112
0.736934 0.518029 0.006531
0.815000 0.516075 0.000000
0.880308 0.515373 0.000000
0.937499 0.518761 0.000000
0.987121 0.524376 0.000000
1.000000 0.532341 0.000000
1.000000 0.540978 0.000000
1.000000 0.550224 0.000000
0.000000 0.561089 0.302586
0.000000 0.566613 0.295445
0.000000 0.569665 0.279789
0.000000 0.570977 0.276280
0.164889 0.571618 0.270390
0.318517 0.573907 0.249760
0.457832 0.576165 0.212894
0.590448 0.578271 0.161746
0.722896 0.597436 0.081239
0.799680 0.593164 0.016052
0.865507 0.590509 0.000000
0.923461 0.590387 0.000000
0.973632 0.591730 0.000000
1.000000 0.593988 0.000000
1.000000 0.600610 0.000000
1.000000 0.609463 0.000000
0.000000 0.625696 0.333867
0.000000 0.627039 0.325414
0.000000 0.629511 0.313512
0.000000 0.631342 0.311833
0.183841 0.633875 0.309697
0.319890 0.637049 0.305180
0.447425 0.642725 0.280735
0.567742 0.647486 0.247227
0.682399 0.651911 0.201266
0.798123 0.672145 0.137484
0.864012 0.670069 0.105440
0.921019 0.668605 0.052003
0.970123 0.667018 0.000000
1.000000 0.666987 0.000000
1.000000 0.667689 0.000000
1.000000 0.668142 0.000000
0.000000 0.689448 0.379187
0.000000 0.690150 0.371832
0.000000 0.691524 0.362768
0.113283 0.692744 0.362127
0.252232 0.694850 0.361608
0.356054 0.696834 0.360143
0.454322 0.699916 0.348974
0.555932 0.703700 0.324102
0.656550 0.707698 0.292546
0.752468 0.711208 0.250462
0.850950 0.728359 0.193668
0.906096 0.724849 0.167453
0.955322 0.722347 0.131960
1.000000 0.721340 0.078798
1.000000 0.720943 0.000000
1.000000 0.723088 0.000000
0.161074 0.745724 0.432715
0.164401 0.746883 0.427710
0.190585 0.747677 0.421637
0.259831 0.747982 0.420630
0.332555 0.748501 0.419471
0.406256 0.749203 0.417945
0.480171 0.750454 0.416510
0.560418 0.753109 0.398566
0.644282 0.756069 0.374517
0.727474 0.758480 0.343359
0.807828 0.760739 0.302983
0.893095 0.775540 0.250126
0.943114 0.774350 0.234562
0.988525 0.774075 0.214786
1.000000 0.774380 0.187320
1.000000 0.774894 0.143753
0.312871 0.792721 0.488502
0.313054 0.793149 0.483955
0.328710 0.793881 0.480598
0.367437 0.794491 0.480873
0.415686 0.795346 0.481270
0.469368 0.796567 0.481819
0.526909 0.798062 0.482521
0.586938 0.800137 0.477974
0.653101 0.802945 0.460121
0.722133 0.805814 0.437995
0.791928 0.808682 0.410529
0.860746 0.811704 0.375952
0.935943 0.825956 0.331762
0.978729 0.823911 0.319463
1.000000 0.823117 0.304448
1.000000 0.822785 0.283692
0.452735 0.840116 0.562799
0.453742 0.840696 0.559869
0.464393 0.841245 0.558434
0.486976 0.841733 0.559014
0.516808 0.842466 0.559869
0.552758 0.843412 0.560937
0.593194 0.844663 0.562280
0.636408 0.846189 0.563684
0.683558 0.848539 0.554437
0.735470 0.851164 0.538018
0.790799 0.853819 0.517601
0.847898 0.856474 0.492103
0.905913 0.859251 0.460548
0.970001 0.870634 0.420813
1.000000 0.868528 0.407965
1.000000 0.867290 0.396061
0.565515 0.882811 0.639277
0.565423 0.882994 0.636652
0.572747 0.883207 0.636042
0.586572 0.883543 0.636530
0.605829 0.884123 0.637385
0.629755 0.884855 0.638453
0.657588 0.885832 0.639826
0.688563 0.887053 0.641352
0.721889 0.888640 0.641566
0.759091 0.890959 0.629786
0.800473 0.893309 0.615259
0.845151 0.895659 0.597131
0.892210 0.898009 0.574578
0.940978 0.900267 0.545861
0.995361 0.908629 0.509117
0.999954 0.907299 0.495446
0.657252 0.920531 0.712612
0.657160 0.920684 0.710719
0.662409 0.920775 0.710719
0.671351 0.921080 0.711177
0.683864 0.921538 0.711940
0.699794 0.922148 0.712947
0.718990 0.922972 0.714260
0.740780 0.923980 0.715694
0.764767 0.925139 0.717281
0.790707 0.926909 0.713588
0.820249 0.929076 0.703517
0.853239 0.931304 0.691005
0.889433 0.933532 0.675654
0.928252 0.935698 0.656245
0.969451 0.937774 0.631495
0.999695 0.943726 0.599560
0.738524 0.955397 0.783642
0.738947 0.955428 0.782656
0.742383 0.955550 0.782777
0.748183 0.955795 0.783204
0.756465 0.956223 0.783967
0.767199 0.956772 0.784974
0.780201 0.957475 0.786227
0.795344 0.958362 0.787721
0.812292 0.959431 0.789459
0.830830 0.960657 0.791447
0.850945 0.962764 0.786180
0.873965 0.965021 0.779075
0.899857 0.967370 0.770492
0.928494 0.969779 0.759905
0.959844 0.972156 0.747029
0.993317 0.974578 0.731275
0.000000 0.102998 0.272190
0.000000 0.067292 0.258549
0.050782 0.054688 0.232944
0.195193 0.036713 0.207736
0.288426 0.033326 0.171664
0.404730 0.000000 0.160433
0.531518 0.000000 0.152010
0.648829 0.000000 0.150546
0.749538 0.000000 0.136049
0.840482 0.000000 0.121279
0.912627 0.000000 0.095644
0.970764 0.036805 0.053712
1.000000 0.138949 0.000000
1.000000 0.211460 0.000000
1.000000 0.267185 0.000000
1.000000 0.307852 0.000000
0.000000 0.162997 0.261662
0.000000 0.132845 0.245640
0.047395 0.100252 0.227390
0.190829 0.087190 0.208499
0.283604 0.088441 0.179751
0.409522 0.051698 0.174105
0.536919 0.000000 0.164706
0.650080 0.000000 0.158053
0.754330 0.000000 0.143923
0.844175 0.000000 0.125551
0.913756 0.021668 0.096529
0.970153 0.115358 0.053040
1.000000 0.178653 0.000000
1.000000 0.236942 0.000000
1.000000 0.285283 0.000000
1.000000 0.324076 0.000000
0.000000 0.204959 0.246525
0.000000 0.195834 0.235142
0.053223 0.172061 0.227756
0.189273 0.150240 0.217899
0.294072 0.150607 0.202029
0.421271 0.132326 0.194400
0.542596 0.118196 0.185458
0.657099 0.099855 0.170291
0.760189 0.094606 0.151186
0.845792 0.114046 0.127047
0.911223 0.149020 0.096193
0.965484 0.188724 0.049500
1.000000 0.232090 0.000000
1.000000 0.276829 0.000000
1.000000 0.317266 0.000000
1.000000 0.350258 0.000000
0.000000 0.247105 0.243290
0.000000 0.240116 0.237278
0.048859 0.233219 0.231693
0.175814 0.226841 0.228458
0.296422 0.225864 0.217472
0.418158 0.221622 0.204196
0.540398 0.214786 0.188937
0.656611 0.210391 0.172061
0.754788 0.211887 0.150881
0.837552 0.224063 0.125093
0.902678 0.243259 0.093172
0.957641 0.267582 0.043915
1.000000 0.299962 0.000000
1.000000 0.330632 0.000000
1.000000 0.357519 0.000000
1.000000 0.381508 0.000000
0.000000 0.291722 0.241825
0.000000 0.293828 0.243015
0.013489 0.296849 0.244572
0.144472 0.301854 0.239994
0.262058 0.306371 0.220035
0.406256 0.312139 0.201022
0.530480 0.308965 0.184634
0.645563 0.309087 0.168521
0.744045 0.313146 0.147860
0.828092 0.323796 0.123018
0.895171 0.337713 0.092042
0.954864 0.358740 0.045563
1.000000 0.381628 0.000000
1.000000 0.405310 0.000000
1.000000 0.426673 0.000000
1.000000 0.443109 0.000000
0.000000 0.384924 0.273594
0.000000 0.387915 0.275792
0.000000 0.390661 0.276524
0.099825 0.395117 0.264530
0.228183 0.398108 0.252842
0.375525 0.404334 0.222965
0.528771 0.416052 0.194614
0.642725 0.415747 0.172671
0.739803 0.417945 0.147829
0.820523 0.422919 0.123964
0.887541 0.430640 0.095430
0.946105 0.442176 0.052461
0.996368 0.455360 0.000000
1.000000 0.470253 0.000000
1.000000 0.484413 0.000000
1.000000 0.497405 0.000000
0.000000 0.478767 0.310369
0.000000 0.482918 0.312749
0.000000 0.485725 0.313603
0.038758 0.489937 0.295384
0.215702 0.491524 0.289433
0.350195 0.496986 0.267124
0.495796 0.500938 0.231876
0.638544 0.516320 0.194217
0.731807 0.514214 0.167910
0.810300 0.513298 0.137819
0.875944 0.514092 0.105776
0.933684 0.518791 0.070253
0.983825 0.525383 0.004944
1.000000 0.534081 0.000000
1.000000 0.543145 0.000000
1.000000 0.552450 0.000000
0.000000 0.558831 0.346777
0.000000 0.563897 0.350896
0.000000 0.566369 0.352087
0.027924 0.569909 0.327977
0.218906 0.570275 0.322759
0.339178 0.571710 0.311162
0.464576 0.574395 0.280919
0.591913 0.577020 0.242405
