example_ofxGpuLutCube/bin/data/ofxGpuLutCube/LUT/U45 (super bright).cube
LUT_3D_SIZE 6
0.008515 0.024964 0.021515
0.238987 0.013947 0.015625
0.562676 0.000000 0.000000
0.862425 0.000000 0.000000
1.000000 0.122652 0.000000
1.000000 0.295991 0.000000
0.000000 0.206943 0.063508
0.152529 0.213443 0.015778
0.547326 0.204196 0.000000
0.844755 0.211368 0.000000
1.000000 0.287572 0.000000
1.000000 0.384071 0.000000
0.000000 0.479652 0.168643
0.000000 0.493324 0.161349
0.499428 0.512627 0.000000
0.827878 0.526452 0.000000
0.995972 0.530938 0.000000
1.000000 0.553175 0.000000
0.000000 0.690455 0.319738
0.000000 0.692378 0.317144
0.441535 0.702022 0.298222
0.756619 0.715023 0.176425
0.960540 0.725429 0.000000
1.000000 0.722154 0.000000
0.417700 0.841611 0.536065
0.467720 0.842557 0.537377
0.581659 0.845243 0.540520
0.732174 0.851499 0.510643
0.907317 0.859281 0.426093
1.000000 0.866834 0.352613
0.734112 0.955645 0.776789
0.745009 0.955919 0.777091
0.777617 0.957538 0.780174
0.828991 0.960750 0.785045
0.899523 0.967400 0.762739
0.993949 0.974515 0.721754
0.000000 0.102998 0.272190
0.195193 0.036713 0.207736
0.531518 0.000000 0.152010
0.840482 0.000000 0.121279
1.000000 0.138949 0.000000
1.000000 0.307852 0.000000
0.000000 0.247105 0.243290
0.175814 0.226841 0.228458
0.540398 0.214786 0.188937
0.837552 0.224063 0.125093
1.000000 0.299962 0.000000
1.000000 0.381508 0.000000
0.000000 0.478767 0.310369
0.038758 0.489937 0.295384
0.495796 0.500938 0.231876
0.810300 0.513298 0.137819
0.983825 0.525383 0.004944
1.000000 0.552450 0.000000
0.158358 0.686213 0.430915
0.195407 0.692226 0.401434
0.469276 0.699214 0.394995
0.752316 0.711116 0.312810
0.952422 0.722194 0.229679
1.000000 0.724123 0.102601
0.491646 0.837919 0.591363
0.504204 0.840787 0.579187
0.603998 0.843992 0.582696
0.738827 0.850828 0.563592
0.905028 0.859861 0.495064
1.000000 0.867745 0.435576
0.746333 0.954752 0.792757
0.751078 0.955640 0.789223
0.782602 0.957383 0.792185
0.832518 0.960655 0.797332
0.900251 0.967400 0.778304
0.992715 0.974672 0.740699
0.000000 0.203189 0.491646
0.000000 0.121065 0.456489
0.468208 0.000000 0.413397
0.795590 0.000000 0.377142
1.000000 0.156374 0.372259
1.000000 0.366237 0.356304
0.000000 0.379919 0.481056
0.000000 0.309270 0.463050
0.493477 0.218479 0.437812
0.794461 0.241489 0.406592
0.985504 0.341741 0.407294
1.000000 0.416832 0.346201
0.000000 0.509270 0.475471
0.150515 0.507927 0.477546
0.502190 0.492409 0.475654
0.780484 0.507408 0.457435
0.961791 0.537041 0.431098
1.000000 0.569168 0.379044
0.256291 0.680842 0.542412
0.373144 0.683803 0.548363
0.542626 0.694270 0.550469
0.748318 0.708522 0.519219
0.936004 0.721492 0.483894
1.000000 0.730363 0.447970
0.533318 0.833524 0.665034
0.580529 0.834318 0.671626
0.645624 0.840757 0.666621
0.753536 0.849058 0.667109
0.900053 0.861540 0.626886
0.999931 0.869930 0.587826
0.762130 0.953124 0.824678
0.781300 0.953063 0.829962
0.791835 0.957098 0.820172
0.839580 0.960769 0.825086
0.901854 0.967492 0.814921
0.990127 0.975289 0.784150
0.000000 0.335454 0.664302
0.000000 0.257176 0.654719
0.337163 0.162387 0.631739
0.745388 0.010986 0.615778
0.947295 0.289342 0.583886
1.000000 0.442401 0.605874
0.000000 0.482826 0.672053
0.000000 0.419562 0.659754
0.362158 0.292302 0.642359
0.746914 0.245090 0.624628
0.936797 0.384619 0.596094
1.000000 0.494265 0.615897
0.000000 0.607416 0.655421
0.130983 0.605188 0.656123
0.457679 0.550256 0.654902
0.739040 0.491646 0.645228
0.919310 0.557733 0.638209
1.000000 0.624676 0.664100
0.270878 0.709560 0.676417
0.376898 0.708064 0.677913
0.560601 0.704494 0.682307
0.738491 0.698787 0.687495
0.912230 0.720821 0.689235
1.000000 0.741604 0.678584
0.528985 0.829892 0.741054
0.567529 0.830900 0.743618
0.660182 0.834653 0.751461
0.772061 0.845182 0.762264
0.893034 0.860929 0.750393
0.999800 0.871445 0.731570
0.697458 0.956695 0.839939
0.713931 0.956819 0.840495
0.785816 0.956712 0.855290
0.847466 0.961122 0.864213
0.905224 0.967828 0.865723
0.987417 0.976554 0.843103
0.000000 0.503105 0.818448
0.000000 0.455482 0.817319
0.127260 0.329717 0.812039
0.686793 0.233982 0.798184
0.935210 0.270298 0.794369
1.000000 0.500596 0.761319
0.000000 0.590021 0.819577
0.000000 0.549889 0.815732
0.193332 0.419501 0.815030
0.682918 0.342138 0.799954
0.924712 0.359991 0.792569
0.999942 0.547614 0.765963
0.010285 0.696712 0.810086
0.266361 0.684688 0.809903
0.453193 0.631952 0.809171
0.665492 0.529290 0.802274
0.905730 0.532128 0.798947
0.999784 0.654188 0.786512
0.359228 0.780697 0.817502
0.426001 0.779171 0.817899
0.557488 0.772610 0.817044
0.706203 0.735042 0.818296
0.886351 0.701503 0.816648
0.999650 0.765946 0.824849
0.538262 0.857969 0.840940
0.571283 0.857053 0.841459
0.653468 0.854765 0.843076
0.767361 0.853941 0.848478
0.883055 0.853208 0.854551
0.999670 0.873880 0.861145
0.704060 0.957177 0.898492
0.719217 0.957207 0.899227
0.761850 0.958547 0.901711
0.827853 0.961904 0.906011
0.912969 0.968966 0.918363
0.986045 0.978865 0.910662
0.351980 0.703715 0.949685
0.372676 0.683554 0.950539
0.435872 0.609935 0.953770
0.688361 0.549260 0.952585
0.919163 0.484133 0.950173
1.000000 0.561740 0.945647
0.451956 0.742070 0.947936
0.460336 0.723889 0.948102
0.496520 0.661473 0.950351
0.689475 0.594649 0.951774
0.911112 0.533087 0.949444
1.000000 0.593060 0.945230
0.520115 0.804338 0.944690
0.568489 0.799869 0.944921
0.615615 0.767217 0.946981
0.692313 0.689608 0.951875
0.892071 0.638451 0.950157
1.000000 0.667487 0.947084
0.555163 0.876613 0.948043
0.579704 0.874932 0.947982
0.641262 0.858299 0.949282
0.750348 0.824368 0.951751
0.866203 0.758089 0.954300
0.999820 0.762345 0.952081
0.648833 0.931533 0.959822
0.665070 0.930555 0.959853
0.709440 0.927745 0.959975
0.779144 0.922254 0.960126
0.870528 0.893961 0.962401
0.999449 0.867131 0.962862
0.744307 0.988696 0.977114
0.754585 0.988328 0.977266
0.784541 0.987466 0.977787
0.835051 0.986092 0.978864
0.903354 0.984580 0.980747
0.988125 0.984081 0.984490
