example_ofxGpuLutCube/bin/data/ofxGpuLutCube/LUT/U46 (bright warm).cube
LUT_3D_SIZE 6
0.000000 0.000000 0.000000
0.094697 0.000000 0.002228
0.284123 0.000000 0.000000
0.541527 0.000000 0.000000
0.766049 0.000000 0.000000
0.961139 0.000000 0.000000
0.000000 0.084382 0.006897
0.104494 0.097292 0.000000
0.345006 0.082185 0.000000
0.583124 0.000000 0.000000
0.785855 0.000000 0.000000
0.967723 0.000000 0.000000
0.000000 0.288396 0.000000
0.000000 0.299992 0.000000
0.369543 0.347051 0.000000
0.652735 0.349859 0.000000
0.835111 0.335698 0.000000
0.991204 0.349773 0.000000
0.000000 0.523796 0.000000
0.000000 0.522576 0.000000
0.253513 0.560632 0.000000
0.612146 0.616571 0.000000
0.836179 0.626978 0.000000
0.999519 0.615842 0.000000
0.000000 0.732479 0.000000
0.000000 0.736507 0.000000
0.161013 0.758236 0.000000
0.522606 0.794705 0.000000
0.800351 0.832181 0.000000
0.983640 0.811262 0.000000
0.000000 0.933741 0.243995
0.000000 0.924923 0.215225
0.256778 0.929018 0.226418
0.515003 0.943952 0.153542
0.750749 0.960464 0.000000
0.999048 0.971861 0.000000
0.000000 0.015015 0.098878
0.106600 0.000000 0.091615
0.258274 0.000000 0.078706
0.520867 0.000000 0.059876
0.749569 0.000000 0.042451
0.952840 0.000000 0.000078
0.000000 0.098451 0.093477
0.098695 0.096742 0.096437
0.321874 0.061433 0.083711
0.564446 0.000000 0.062440
0.774594 0.000000 0.021668
0.960817 0.000000 0.000000
0.000000 0.310124 0.088136
0.000000 0.306340 0.091676
0.369085 0.344244 0.003479
0.646662 0.334874 0.000000
0.824277 0.316869 0.000000
0.985568 0.331335 0.000000
0.000000 0.537102 0.055421
0.000000 0.534966 0.063081
0.258946 0.559838 0.000000
0.610956 0.615564 0.000000
0.833890 0.623011 0.000000
0.999507 0.612516 0.000000
0.000000 0.743130 0.054566
0.000000 0.744045 0.069551
0.166171 0.758297 0.065217
0.519860 0.794766 0.000000
0.799008 0.832395 0.000000
0.985087 0.811806 0.000000
0.000000 0.936740 0.302577
0.000000 0.928723 0.279538
0.249981 0.930513 0.304000
0.509812 0.945042 0.254339
0.746642 0.960833 0.071121
0.999041 0.972170 0.000000
0.000000 0.042206 0.289708
0.000000 0.000000 0.292149
0.344518 0.000000 0.298650
0.470985 0.000000 0.231968
0.711177 0.000000 0.225528
0.934252 0.000000 0.198138
0.000000 0.134157 0.288365
0.000000 0.085542 0.300389
0.361303 0.000000 0.312108
0.500816 0.000000 0.249149
0.735866 0.000000 0.231479
0.938272 0.000000 0.194316
0.000000 0.323857 0.301884
0.000000 0.330694 0.310521
0.357488 0.343633 0.335332
0.591516 0.311101 0.302770
0.787076 0.282536 0.266423
0.965652 0.279030 0.226310
0.000000 0.563256 0.337041
0.071931 0.568017 0.348333
0.295720 0.564630 0.329198
0.602228 0.616419 0.299382
0.822416 0.618616 0.290074
0.986612 0.600311 0.240720
0.000000 0.760433 0.310582
0.000000 0.761654 0.316899
0.195804 0.764736 0.334600
0.504753 0.793606 0.323796
0.790463 0.833158 0.263584
0.982362 0.811197 0.158958
0.000000 0.942911 0.423023
0.000000 0.935759 0.403658
0.229593 0.935978 0.421959
0.487292 0.945909 0.428289
0.732436 0.962505 0.358629
0.998968 0.974108 0.049944
0.000000 0.040650 0.504814
0.000000 0.000000 0.510796
0.222477 0.000000 0.530877
0.609613 0.000000 0.554742
0.693294 0.000000 0.449714
0.886703 0.000000 0.455524
0.000000 0.139467 0.507866
0.000000 0.082307 0.516045
0.198367 0.000000 0.537163
0.616754 0.000000 0.562829
0.703731 0.000000 0.460792
0.890779 0.000000 0.451270
0.000000 0.329808 0.499184
0.000000 0.329229 0.505730
0.086763 0.280034 0.548821
0.616022 0.281437 0.582818
0.719753 0.239597 0.489387
0.927514 0.101138 0.459609
0.000000 0.568200 0.541344
0.000000 0.573327 0.548516
0.200717 0.588006 0.570733
0.568048 0.620081 0.617426
0.765316 0.579309 0.563500
0.952767 0.540680 0.499022
0.000000 0.776608 0.570642
0.000000 0.779751 0.577203
0.304326 0.787778 0.600183
0.488075 0.791287 0.592981
0.763882 0.833860 0.595850
0.966086 0.811676 0.557974
0.000000 0.948747 0.646528
0.000000 0.945131 0.607454
0.148181 0.947769 0.586684
0.454713 0.949199 0.615164
0.700577 0.963528 0.602160
0.989154 0.977132 0.523039
0.000000 0.063783 0.754421
0.000000 0.000000 0.758267
0.000000 0.000000 0.768795
0.537743 0.000000 0.790158
0.833890 0.000000 0.807675
0.897812 0.000000 0.713417
0.000000 0.156100 0.753384
0.000000 0.089570 0.757076
0.000000 0.000000 0.769528
0.528496 0.000000 0.791135
0.833036 0.000000 0.808927
0.890670 0.000000 0.704674
0.000000 0.354467 0.734493
0.000000 0.330938 0.742702
0.000000 0.226566 0.766140
0.486854 0.157931 0.791440
0.822812 0.165164 0.813352
0.901575 0.082593 0.719408
0.000000 0.570489 0.738033
0.000000 0.566522 0.739742
0.000000 0.551141 0.744442
0.307225 0.491005 0.787045
0.780850 0.551446 0.819821
0.896878 0.462269 0.728602
0.000000 0.788022 0.765743
0.000000 0.789944 0.769192
0.000000 0.795651 0.780056
0.386725 0.805020 0.798978
0.729549 0.835752 0.842100
0.919221 0.779551 0.779526
0.000000 0.961639 0.803478
0.000000 0.957403 0.797427
0.070275 0.958986 0.803741
0.479928 0.960644 0.815568
0.664279 0.963424 0.807277
0.972223 0.981645 0.804153
0.000000 0.173156 0.985659
0.000000 0.075653 0.987222
0.000000 0.000000 0.989099
0.464284 0.000000 0.991520
0.831482 0.000000 0.995158
0.999999 0.000000 0.996090
0.000000 0.201555 0.986506
0.000000 0.121830 0.987850
0.000000 0.000000 0.988674
0.423581 0.000000 0.987435
0.812715 0.000000 0.986849
0.999958 0.000000 0.984255
0.000000 0.418056 0.981998
0.000000 0.380863 0.984171
0.000000 0.212054 0.989453
0.285738 0.000171 0.990738
0.791719 0.000000 0.990039
0.999887 0.000000 0.989009
0.000000 0.679036 0.970571
0.000000 0.660053 0.972507
0.000000 0.581122 0.980157
0.000000 0.402969 0.990175
0.714193 0.365473 0.990767
0.999192 0.435310 0.987934
0.000000 0.859464 0.969202
0.000000 0.855412 0.969808
0.000000 0.842248 0.972137
0.000000 0.808106 0.976226
0.466689 0.710885 0.986918
0.985623 0.763121 0.984573
0.000000 0.999409 0.970156
0.000000 0.999351 0.968780
0.000000 0.999308 0.969545
0.002620 0.999212 0.971309
0.515374 0.996701 0.975783
0.980972 0.991027 0.991659
