example_ofxGpuLutCube/bin/data/ofxGpuLutCube/LUT/U46 (bright warm).cube
LUT_3D_SIZE 16
0.000000 0.000000 0.000000
0.009216 0.000000 0.000366
0.057191 0.000000 0.001526
0.094697 0.000000 0.002228
0.142000 0.000000 0.002411
0.206607 0.000000 0.001160
0.284123 0.000000 0.000000
0.370733 0.000000 0.000000
0.457465 0.000000 0.000000
0.541527 0.000000 0.000000
0.620172 0.000000 0.000000
0.694392 0.000000 0.000000
0.766049 0.000000 0.000000
0.834226 0.000000 0.000000
0.899535 0.000000 0.000000
0.961139 0.000000 0.000000
0.000000 0.017456 0.001404
0.019257 0.017792 0.000000
0.061341 0.013581 0.000000
0.098543 0.013855 0.000000
0.149050 0.009766 0.000000
0.216098 0.000000 0.000000
0.296086 0.000000 0.000000
0.382238 0.000000 0.000000
0.467262 0.000000 0.000000
0.549401 0.000000 0.000000
0.626459 0.000000 0.000000
0.699367 0.000000 0.000000
0.769558 0.000000 0.000000
0.836790 0.000000 0.000000
0.901366 0.000000 0.000000
0.963061 0.000000 0.000000
0.000000 0.047456 0.002686
0.014069 0.047089 0.001007
0.056703 0.050416 0.000000
0.107546 0.050660 0.000000
0.165988 0.044831 0.000000
0.237095 0.031495 0.000000
0.317479 0.004883 0.000000
0.400916 0.000000 0.000000
0.483131 0.000000 0.000000
0.563500 0.000000 0.000000
0.637903 0.000000 0.000000
0.708461 0.000000 0.000000
0.776272 0.000000 0.000000
0.841978 0.000000 0.000000
0.905150 0.000000 0.000000
0.966361 0.000000 0.000000
0.000000 0.084382 0.006897
0.011078 0.084230 0.006622
0.043885 0.089387 0.001129
0.104494 0.097292 0.000000
0.182467 0.102907 0.000000
0.262425 0.096773 0.000000
0.345006 0.082185 0.000000
0.426520 0.055360 0.000000
0.506584 0.007843 0.000000
0.583124 0.000000 0.000000
0.653498 0.000000 0.000000
0.720912 0.000000 0.000000
0.785855 0.000000 0.000000
0.848234 0.000000 0.000000
0.908415 0.000000 0.000000
0.967723 0.000000 0.000000
0.000000 0.138674 0.006622
0.000000 0.137881 0.007538
0.012024 0.145174 0.001862
0.087190 0.155245 0.000000
0.179782 0.167636 0.000000
0.284215 0.177249 0.000000
0.373907 0.170779 0.000000
0.466133 0.158480 0.000000
0.542565 0.141115 0.000000
0.614466 0.120729 0.000000
0.680262 0.099458 0.000000
0.744015 0.081239 0.000000
0.805173 0.071595 0.000000
0.864317 0.075013 0.000000
0.921752 0.091737 0.000000
0.977404 0.116814 0.000000
0.000000 0.209201 0.000000
0.000000 0.209384 0.000000
0.000000 0.214176 0.000000
0.038148 0.224613 0.000000
0.155520 0.237827 0.000000
0.271977 0.252781 0.000000
0.390875 0.265385 0.000000
0.481178 0.259678 0.000000
0.567834 0.250889 0.000000
0.644068 0.240208 0.000000
0.704982 0.229252 0.000000
0.763973 0.222782 0.000000
0.820554 0.220706 0.000000
0.875944 0.223941 0.000000
0.930510 0.232578 0.000000
0.984350 0.246084 0.000000
0.000000 0.288396 0.000000
0.000000 0.288670 0.000000
0.000000 0.290043 0.000000
0.000000 0.299992 0.000000
0.113069 0.313237 0.000000
0.241184 0.329290 0.000000
0.369543 0.347051 0.000000
0.492927 0.362799 0.000000
0.575708 0.356085 0.000000
0.652735 0.349859 0.000000
0.724086 0.344976 0.000000
0.782437 0.339086 0.000000
0.835111 0.335698 0.000000
0.887205 0.336492 0.000000
0.939117 0.341283 0.000000
0.991204 0.349773 0.000000
0.000000 0.369055 0.000000
0.000000 0.369848 0.000000
0.000000 0.369879 0.000000
0.000000 0.377661 0.000000
0.011353 0.389776 0.000000
0.201358 0.404242 0.000000
0.330724 0.420508 0.000000
0.458808 0.438911 0.000000
0.577539 0.457496 0.000000
0.652033 0.452247 0.000000
0.721340 0.448219 0.000000
0.786526 0.445472 0.000000
0.846952 0.443366 0.000000
0.896239 0.439979 0.000000
0.945678 0.440223 0.000000
0.994804 0.442549 0.000000
0.000000 0.444007 0.000000
0.000000 0.443824 0.000000
0.000000 0.443854 0.000000
0.000000 0.447791 0.000000
0.000000 0.459236 0.000000
0.145815 0.473365 0.000000
0.290562 0.489967 0.000000
0.417456 0.508476 0.000000
0.539818 0.529076 0.000000
0.651331 0.551202 0.000000
0.719448 0.547295 0.000000
0.783536 0.544152 0.000000
0.844205 0.541588 0.000000
0.902464 0.539757 0.000000
0.955413 0.537469 0.000000
0.999554 0.535716 0.000000
0.000000 0.523796 0.000000
0.000000 0.523125 0.000000
0.000000 0.522698 0.000000
0.000000 0.522576 0.000000
0.000000 0.532555 0.000000
0.063996 0.545281 0.000000
0.253513 0.560632 0.000000
0.383215 0.577844 0.000000
0.501579 0.596704 0.000000
0.612146 0.616571 0.000000
0.713527 0.635370 0.000000
0.776272 0.630915 0.000000
0.836179 0.626978 0.000000
0.894499 0.624292 0.000000
0.951873 0.622156 0.000000
0.999519 0.615842 0.000000
0.000000 0.605463 0.000000
0.000000 0.605066 0.000000
0.000000 0.604425 0.000000
0.000000 0.603693 0.000000
0.000000 0.609674 0.000000
0.000000 0.620203 0.000000
0.219821 0.632746 0.000000
0.355169 0.646815 0.000000
0.470069 0.662226 0.000000
0.575189 0.678462 0.000000
0.675319 0.695399 0.000000
0.769131 0.709499 0.000000
0.828977 0.704799 0.000000
0.885710 0.699275 0.000000
0.940093 0.692805 0.000000
0.991455 0.684980 0.000000
0.000000 0.684413 0.000000
0.000000 0.683955 0.000000
0.000000 0.683223 0.000000
0.000000 0.681636 0.000000
0.000000 0.682338 0.000000
0.000000 0.689448 0.000000
0.188174 0.698360 0.000000
0.328801 0.708614 0.000000
0.440497 0.720546 0.000000
0.540642 0.732631 0.000000
0.635706 0.745357 0.000000
0.727962 0.758053 0.000000
0.815488 0.767453 0.000000
0.873045 0.760678 0.000000
0.928344 0.754513 0.000000
0.982637 0.748803 0.000000
0.000000 0.732479 0.000000
0.000000 0.732876 0.000000
0.000000 0.734798 0.000000
0.000000 0.736507 0.000000
0.000000 0.738979 0.000000
0.000000 0.747402 0.000000
0.161013 0.758236 0.000000
0.310704 0.769314 0.000000
0.423224 0.782254 0.000000
0.522606 0.794705 0.000000
0.617334 0.808133 0.000000
0.708675 0.820340 0.000000
0.800351 0.832181 0.000000
0.885191 0.836515 0.000000
0.938140 0.824918 0.000000
0.983640 0.811262 0.000000
0.000000 0.814694 0.000000
0.000000 0.806332 0.000000
0.000000 0.802762 0.000000
0.000000 0.802060 0.000000
0.000000 0.803555 0.000000
0.000000 0.807858 0.000000
0.152438 0.815824 0.000000
0.299809 0.824521 0.000000
0.409125 0.834684 0.000000
0.504051 0.843656 0.000000
0.594171 0.853361 0.000000
0.680720 0.861936 0.000000
0.767300 0.870237 0.000000
0.853117 0.875944 0.000000
0.932128 0.875242 0.000000
0.981193 0.861556 0.000000
0.000000 0.875944 0.102358
0.000000 0.869322 0.069825
0.000000 0.865599 0.052033
0.000000 0.864225 0.053223
0.000000 0.864591 0.069886
0.000000 0.865995 0.079805
0.181094 0.871946 0.045686
0.307683 0.877867 0.000000
0.407630 0.884642 0.000000
0.496498 0.890929 0.000000
0.581048 0.897612 0.000000
0.663478 0.903960 0.000000
0.746639 0.910643 0.000000
0.829892 0.915526 0.000000
0.913970 0.918669 0.000000
0.987659 0.914259 0.000000
0.000000 0.933741 0.243995
0.000000 0.928720 0.224152
0.000000 0.925934 0.215032
0.000000 0.924923 0.215225
0.000000 0.925108 0.222643
0.136351 0.925544 0.233225
0.256778 0.929018 0.226418
0.350343 0.933398 0.209556
0.435123 0.938602 0.187682
0.515003 0.943952 0.153542
0.593376 0.949578 0.094203
0.670910 0.954808 0.000000
0.750749 0.960464 0.000000
0.831856 0.964984 0.000000
0.916235 0.968974 0.000000
0.999048 0.971861 0.000000
0.000000 0.001801 0.017212
0.011749 0.000000 0.017273
0.052430 0.000000 0.011719
0.090761 0.000000 0.011139
0.137514 0.000000 0.014160
0.202487 0.000000 0.014252
0.281895 0.000000 0.012512
0.368048 0.000000 0.009644
0.454108 0.000000 0.005005
0.537804 0.000000 0.000000
0.616663 0.000000 0.000000
0.690791 0.000000 0.000000
0.762478 0.000000 0.000000
0.830930 0.000000 0.000000
0.896361 0.000000 0.000000
0.958689 0.000000 0.000000
0.000000 0.020111 0.017670
0.017395 0.017395 0.017395
0.053773 0.017639 0.016632
0.092897 0.018097 0.015869
0.144564 0.014374 0.014923
0.212741 0.000916 0.013825
0.293431 0.000000 0.011780
0.379004 0.000000 0.007965
0.463722 0.000000 0.002899
0.546746 0.000000 0.000000
0.623987 0.000000 0.000000
0.696651 0.000000 0.000000
0.766720 0.000000 0.000000
0.834043 0.000000 0.000000
0.898466 0.000000 0.000000
0.960493 0.000000 0.000000
0.006165 0.049683 0.023529
0.018402 0.048096 0.021271
0.054871 0.050385 0.016571
0.103548 0.050446 0.015015
0.161624 0.046052 0.014099
0.233494 0.031830 0.011872
0.314092 0.002747 0.008545
0.398138 0.000000 0.003815
0.481605 0.000000 0.000000
0.561852 0.000000 0.000000
0.635737 0.000000 0.000000
0.705898 0.000000 0.000000
0.773953 0.000000 0.000000
0.839536 0.000000 0.000000
0.902525 0.000000 0.000000
0.963585 0.000000 0.000000
0.000000 0.089906 0.023804
0.011261 0.088014 0.023987
0.042237 0.090883 0.020874
0.104402 0.098360 0.012116
0.181094 0.101076 0.006561
0.262272 0.093416 0.003754
0.343175 0.077516 0.000000
0.425483 0.047883 0.000000
0.505791 0.000000 0.000000
0.581994 0.000000 0.000000
0.652399 0.000000 0.000000
0.719753 0.000000 0.000000
0.785367 0.000000 0.000000
0.847807 0.000000 0.000000
0.907744 0.000000 0.000000
0.966508 0.000000 0.000000
0.000000 0.143954 0.020661
0.000000 0.143130 0.021118
0.011780 0.145327 0.018738
0.084993 0.154635 0.008606
0.177554 0.165682 0.000000
0.279271 0.172061 0.000000
0.369299 0.164858 0.000000
0.459388 0.151705 0.000000
0.536034 0.133669 0.000000
0.608423 0.111971 0.000000
0.675044 0.088258 0.000000
0.739651 0.067079 0.000000
0.801633 0.054810 0.000000
0.861265 0.057282 0.000000
0.919158 0.075288 0.000000
0.975595 0.103930 0.000000
0.000000 0.213931 0.008270
0.000000 0.213474 0.009522
0.000000 0.213565 0.009125
0.036561 0.223453 0.000000
0.153628 0.236484 0.000000
0.270420 0.250950 0.000000
0.386969 0.260655 0.000000
0.477058 0.253941 0.000000
0.564141 0.244663 0.000000
0.638270 0.233280 0.000000
0.700313 0.222507 0.000000
0.760220 0.216098 0.000000
0.817350 0.213993 0.000000
0.873075 0.217044 0.000000
0.927947 0.225620 0.000000
0.982572 0.239609 0.000000
0.000000 0.292943 0.000000
0.000000 0.292821 0.000000
0.000000 0.291539 0.000000
0.000000 0.299626 0.000000
0.112734 0.312291 0.000000
0.239780 0.327794 0.000000
0.367742 0.344671 0.000000
0.488930 0.358160 0.000000
0.572686 0.351446 0.000000
0.650050 0.345037 0.000000
0.721736 0.340002 0.000000
0.778775 0.333776 0.000000
0.831968 0.330327 0.000000
0.884306 0.331121 0.000000
0.936522 0.335973 0.000000
0.989274 0.345098 0.000000
0.000000 0.372107 0.000000
0.000000 0.372290 0.000000
0.000000 0.371435 0.000000
0.000000 0.375616 0.000000
0.013825 0.387457 0.000000
0.199680 0.401984 0.000000
0.328954 0.418616 0.000000
0.457191 0.437018 0.000000
0.575219 0.454108 0.000000
0.649928 0.448615 0.000000
0.719478 0.444495 0.000000
0.784787 0.441932 0.000000
0.844388 0.439521 0.000000
0.893889 0.436286 0.000000
0.940948 0.433570 0.000000
0.987294 0.432965 0.000000
0.000000 0.448157 0.000000
0.000000 0.447700 0.000000
0.000000 0.447089 0.000000
0.000000 0.447700 0.000000
0.000000 0.458808 0.000000
0.147066 0.472755 0.000000
0.290471 0.489296 0.000000
0.416632 0.507683 0.000000
0.539178 0.528008 0.000000
0.649836 0.549035 0.000000
0.718196 0.544976 0.000000
0.782406 0.541863 0.000000
0.843107 0.539361 0.000000
0.901671 0.537865 0.000000
0.954284 0.535637 0.000000
0.999543 0.534308 0.000000
0.000000 0.526452 0.000000
0.000000 0.525780 0.000000
0.000000 0.525170 0.000000
0.000000 0.524132 0.000000
0.000000 0.532525 0.000000
0.069001 0.545068 0.000000
0.253513 0.560052 0.000000
0.382788 0.577081 0.000000
0.500664 0.595666 0.000000
0.611200 0.615351 0.000000
0.712032 0.633417 0.000000
0.775051 0.629053 0.000000
0.835203 0.625513 0.000000
0.893858 0.622980 0.000000
0.951385 0.621027 0.000000
0.999514 0.615105 0.000000
0.000000 0.607446 0.000000
0.000000 0.607172 0.000000
0.000000 0.606592 0.000000
0.000000 0.605646 0.000000
0.000000 0.609430 0.000000
0.000000 0.619715 0.000000
0.220584 0.631952 0.000000
0.354650 0.645869 0.000000
0.469093 0.661250 0.000000
0.574182 0.677455 0.000000
0.674281 0.694362 0.000000
0.768368 0.708217 0.000000
0.826078 0.701442 0.000000
0.882628 0.695705 0.000000
0.937743 0.690028 0.000000
0.990283 0.683231 0.000000
0.000000 0.685328 0.000000
0.000000 0.684932 0.000000
0.000000 0.683314 0.000000
0.000000 0.681514 0.000000
0.000000 0.680751 0.000000
0.000000 0.687984 0.000000
0.187350 0.697017 0.000000
0.327459 0.707057 0.000000
0.438270 0.718196 0.000000
0.538140 0.729702 0.000000
0.632502 0.741756 0.000000
0.724392 0.754147 0.000000
0.811398 0.762966 0.000000
0.868528 0.756039 0.000000
0.923613 0.749813 0.000000
0.978450 0.744586 0.000000
0.000000 0.736812 0.000000
0.000000 0.736995 0.000000
0.000000 0.738247 0.000000
0.000000 0.739223 0.000000
0.000000 0.740780 0.000000
0.000000 0.747799 0.000000
0.162478 0.758633 0.000000
0.310765 0.769589 0.000000
0.422644 0.782040 0.000000
0.521630 0.794217 0.000000
0.616114 0.807309 0.000000
0.707454 0.819516 0.000000
0.799649 0.831693 0.000000
0.884428 0.835874 0.000000
0.937957 0.824826 0.000000
0.984394 0.811654 0.000000
0.000000 0.817014 0.000000
0.000000 0.809293 0.000000
0.000000 0.805814 0.000000
0.000000 0.804929 0.000000
0.000000 0.806027 0.000000
0.000000 0.809079 0.000000
0.154238 0.816526 0.000000
0.299687 0.824857 0.000000
0.408270 0.834531 0.000000
0.502892 0.843259 0.000000
0.592859 0.852720 0.000000
0.679561 0.861357 0.000000
0.766567 0.869932 0.000000
0.852842 0.875914 0.000000
0.932372 0.875395 0.000000
0.982012 0.862071 0.000000
0.000000 0.877379 0.128389
0.000000 0.871183 0.103792
0.000000 0.867857 0.092592
0.000000 0.866606 0.093660
0.000000 0.866819 0.104616
0.000000 0.867430 0.116793
0.182650 0.872984 0.093202
0.307988 0.878538 0.043580
0.406897 0.884825 0.000000
0.495308 0.890867 0.000000
0.579919 0.897398 0.000000
0.662470 0.903716 0.000000
0.745754 0.910369 0.000000
0.829313 0.915404 0.000000
0.913939 0.918791 0.000000
0.988202 0.914531 0.000000
0.000000 0.934783 0.257096
0.000000 0.930008 0.238934
0.000000 0.927315 0.230362
0.000000 0.926337 0.230977
0.000000 0.926580 0.237975
0.143783 0.927040 0.248189
0.258334 0.930055 0.244538
0.350981 0.934220 0.228180
0.434904 0.939147 0.206776
0.514508 0.944314 0.175476
0.592548 0.949697 0.124447
0.669812 0.954715 0.000000
0.749410 0.960069 0.000000
0.830491 0.964530 0.000000
0.915117 0.968552 0.000000
0.999042 0.971530 0.000000
0.000000 0.006439 0.054231
0.000000 0.000214 0.053681
0.061463 0.000000 0.050507
0.081514 0.000000 0.040620
0.125673 0.000000 0.043854
0.192905 0.000000 0.042145
0.274052 0.000000 0.036011
0.359777 0.000000 0.036988
0.445930 0.000000 0.030915
0.530571 0.000000 0.024323
0.609888 0.000000 0.015656
0.684749 0.000000 0.005646
0.757412 0.000000 0.000000
0.827146 0.000000 0.000000
0.893431 0.000000 0.000000
0.956606 0.000000 0.000000
0.000000 0.027680 0.052338
0.005859 0.017975 0.052186
0.057221 0.015656 0.049287
0.082155 0.018402 0.044587
0.134981 0.011872 0.044190
0.205112 0.000000 0.040436
0.285100 0.000000 0.040650
0.370367 0.000000 0.036072
0.456153 0.000000 0.029450
0.539544 0.000000 0.022278
0.617334 0.000000 0.013031
0.690761 0.000000 0.002075
0.761929 0.000000 0.000000
0.830350 0.000000 0.000000
0.895628 0.000000 0.000000
0.958471 0.000000 0.000000
0.000000 0.052979 0.049348
0.015717 0.051453 0.049622
0.050690 0.049928 0.050019
0.095583 0.047883 0.047883
0.153048 0.041993 0.045747
0.224887 0.025910 0.042878
0.305608 0.000000 0.038392
0.389807 0.000000 0.032837
0.474403 0.000000 0.025757
0.554803 0.000000 0.017182
0.629328 0.000000 0.006928
0.700343 0.000000 0.000000
0.769558 0.000000 0.000000
0.835904 0.000000 0.000000
0.899748 0.000000 0.000000
0.961564 0.000000 0.000000
0.000366 0.093294 0.054383
0.018555 0.093385 0.055543
0.044160 0.091920 0.052461
0.102876 0.097536 0.044434
0.177035 0.095918 0.040589
0.254276 0.086824 0.036835
0.334691 0.068910 0.030823
0.417945 0.033509 0.023438
0.498665 0.000000 0.015137
0.575372 0.000000 0.004730
0.646387 0.000000 0.000000
0.714504 0.000000 0.000000
0.781338 0.000000 0.000000
0.844419 0.000000 0.000000
0.904997 0.000000 0.000000
0.964336 0.000000 0.000000
0.000000 0.151003 0.053162
0.000000 0.150423 0.050141
0.014832 0.148531 0.051301
0.083253 0.154818 0.043519
0.177554 0.165103 0.025818
0.275975 0.166873 0.014405
0.366735 0.157870 0.009155
0.451575 0.143404 0.001404
0.528893 0.123598 0.000000
0.601953 0.099580 0.000000
0.669337 0.071717 0.000000
0.735164 0.043793 0.000000
0.798062 0.023316 0.000000
0.858335 0.022797 0.000000
0.916960 0.045350 0.000000
0.974063 0.081152 0.000000
0.000000 0.221439 0.041138
0.000000 0.221042 0.041810
0.000000 0.219547 0.043549
0.038453 0.224002 0.036500
0.152560 0.236667 0.014954
0.270787 0.250706 0.000000
0.384527 0.256413 0.000000
0.475227 0.248417 0.000000
0.562524 0.238285 0.000000
0.632441 0.225345 0.000000
0.695430 0.214115 0.000000
0.756283 0.207370 0.000000
0.814267 0.204685 0.000000
0.870512 0.207675 0.000000
0.925963 0.216220 0.000000
0.981252 0.230602 0.000000
0.000000 0.299748 0.022797
0.000000 0.299657 0.023651
0.000000 0.298375 0.025422
0.000000 0.300023 0.021973
0.113100 0.312718 0.000000
0.239567 0.328008 0.000000
0.368353 0.344549 0.000000
0.487251 0.354650 0.000000
0.571313 0.347204 0.000000
0.648920 0.340337 0.000000
0.719600 0.334783 0.000000
0.775387 0.327886 0.000000
0.829221 0.324620 0.000000
0.882017 0.325353 0.000000
0.934691 0.330236 0.000000
0.988047 0.339572 0.000000
0.000000 0.378058 0.000000
0.000000 0.378210 0.000000
0.000000 0.377447 0.000458
0.000000 0.375860 0.003601
0.024292 0.387640 0.000000
0.200595 0.402167 0.000000
0.328923 0.418738 0.000000
0.457679 0.436927 0.000000
0.573877 0.451484 0.000000
0.648951 0.445624 0.000000
0.718807 0.441566 0.000000
0.784329 0.438911 0.000000
0.841886 0.435706 0.000000
0.891814 0.432471 0.000000
0.938476 0.428748 0.000000
0.985246 0.428113 0.000000
0.000000 0.453346 0.000000
0.000000 0.452827 0.000000
0.000000 0.452094 0.000000
0.000000 0.450690 0.000000
0.000000 0.458747 0.000000
0.150851 0.472816 0.000000
0.291203 0.489326 0.000000
0.416663 0.507652 0.000000
0.539330 0.527947 0.000000
0.648859 0.547234 0.000000
0.717433 0.543145 0.000000
0.781796 0.540032 0.000000
0.842679 0.537652 0.000000
0.901427 0.536248 0.000000
0.952758 0.533532 0.000000
0.999528 0.532414 0.000000
0.000000 0.530510 0.000000
0.000000 0.530053 0.000000
0.000000 0.529381 0.000000
0.000000 0.528313 0.000000
0.000000 0.532555 0.000000
0.080171 0.545068 0.000000
0.255619 0.560052 0.000000
0.382910 0.577142 0.000000
0.500511 0.595758 0.000000
0.611261 0.615442 0.000000
0.711238 0.632288 0.000000
0.774502 0.627924 0.000000
0.834775 0.624414 0.000000
0.893553 0.621973 0.000000
0.951202 0.620050 0.000000
0.999512 0.614219 0.000000
0.000000 0.610590 0.000000
0.000000 0.610376 0.000000
0.000000 0.609827 0.000000
0.000000 0.608881 0.000000
0.000000 0.609094 0.000000
0.000000 0.619440 0.000000
0.222843 0.631830 0.000000
0.355047 0.645808 0.000000
0.468727 0.661219 0.000000
0.573693 0.677455 0.000000
0.674159 0.694270 0.000000
0.767605 0.707485 0.000000
0.825406 0.700526 0.000000
0.882231 0.694942 0.000000
0.937713 0.689387 0.000000
0.990525 0.682740 0.000000
0.000000 0.687373 0.000000
0.000000 0.687068 0.000000
0.000000 0.685542 0.000000
0.000000 0.683864 0.000000
0.000000 0.682063 0.000000
0.000000 0.687953 0.000000
0.190219 0.697047 0.000000
0.328130 0.707057 0.000000
0.437903 0.718166 0.000000
0.537346 0.729671 0.000000
0.631922 0.741695 0.000000
0.724147 0.754086 0.000000
0.811124 0.762539 0.000000
0.868070 0.755550 0.000000
0.923247 0.749111 0.000000
0.978264 0.743824 0.000000
0.000000 0.739681 0.000000
0.000000 0.739773 0.000000
0.000000 0.740749 0.000000
0.000000 0.741604 0.000000
0.000000 0.743069 0.000000
0.000000 0.747951 0.000000
0.164126 0.758694 0.000000
0.310796 0.769680 0.000000
0.422309 0.782254 0.000000
0.521172 0.794522 0.000000
0.615625 0.807736 0.000000
0.707271 0.820005 0.000000
0.799680 0.832181 0.000000
0.884550 0.836057 0.000000
0.937987 0.824887 0.000000
0.984757 0.811745 0.000000
0.000000 0.818509 0.059358
0.000000 0.811154 0.025696
0.000000 0.807858 0.015717
0.000000 0.807034 0.021790
0.000000 0.807919 0.041444
0.000000 0.809354 0.052827
0.154330 0.816800 0.004822
0.299321 0.825193 0.000000
0.407416 0.834897 0.000000
0.502190 0.843656 0.000000
0.592187 0.853147 0.000000
0.679042 0.861753 0.000000
0.766201 0.870298 0.000000
0.852934 0.876280 0.000000
0.932555 0.875517 0.000000
0.982497 0.862284 0.000000
0.000000 0.878325 0.161837
0.000000 0.872343 0.142031
0.000000 0.869169 0.133333
0.000000 0.867948 0.134218
0.000000 0.868132 0.142428
0.000000 0.868498 0.153384
0.180514 0.873350 0.143038
0.306401 0.878904 0.114626
0.405249 0.885008 0.064790
0.493843 0.891081 0.000000
0.578759 0.897704 0.000000
0.661555 0.904082 0.000000
0.745205 0.910735 0.000000
0.829068 0.915801 0.000000
0.914183 0.919188 0.000000
0.988718 0.914747 0.000000
0.000000 0.935608 0.275529
0.000000 0.930926 0.258169
0.000000 0.928265 0.250227
0.000000 0.927347 0.250809
0.000000 0.927651 0.257992
0.145717 0.928108 0.267316
0.255835 0.930362 0.269237
0.348941 0.934526 0.254753
0.433045 0.939421 0.235855
0.512862 0.944618 0.208530
0.591116 0.950032 0.168407
0.668595 0.955020 0.089550
0.748377 0.960344 0.000000
0.829763 0.964775 0.000000
0.914697 0.968798 0.000000
0.999043 0.971745 0.000000
0.000000 0.015015 0.098878
0.000000 0.006165 0.098024
0.044221 0.000000 0.095735
0.106600 0.000000 0.091615
0.121279 0.000000 0.074617
0.175570 0.000000 0.077394
0.258274 0.000000 0.078706
0.346899 0.000000 0.074830
0.435554 0.000000 0.066438
0.520867 0.000000 0.059876
0.599237 0.000000 0.062348
0.675319 0.000000 0.054139
0.749569 0.000000 0.042451
0.820890 0.000000 0.026856
0.888426 0.000000 0.007813
0.952840 0.000000 0.000078
0.000000 0.035615 0.096712
0.000000 0.020203 0.096620
0.046479 0.013977 0.094575
0.103975 0.010681 0.091432
0.126986 0.013642 0.078218
0.188205 0.001373 0.080598
0.270909 0.000000 0.079316
0.358221 0.000000 0.073854
0.446235 0.000000 0.064485
0.528466 0.000000 0.067903
0.606653 0.000000 0.061311
0.681392 0.000000 0.052552
0.754452 0.000000 0.039826
0.824247 0.000000 0.023102
0.890684 0.000000 0.002960
0.954796 0.000000 0.000030
0.000000 0.064912 0.094209
0.000000 0.062470 0.094026
0.027985 0.048707 0.095583
0.103731 0.042939 0.093721
0.139132 0.041993 0.085328
0.210727 0.023011 0.084535
0.292973 0.000000 0.079561
0.378424 0.000000 0.075013
0.462257 0.000000 0.073762
0.543481 0.000000 0.067201
0.618921 0.000000 0.058930
0.691188 0.000000 0.048249
0.762264 0.000000 0.033661
0.830045 0.000000 0.015686
0.895018 0.000000 0.000000
0.957982 0.000000 0.000000
0.000000 0.098451 0.093477
0.000000 0.098116 0.093599
0.032654 0.097841 0.094423
0.098695 0.096742 0.096437
0.165560 0.091981 0.092927
0.240726 0.081636 0.088777
0.321874 0.061433 0.083711
0.405524 0.021515 0.077974
0.486732 0.000000 0.071107
0.564446 0.000000 0.062440
0.636469 0.000000 0.052613
0.706050 0.000000 0.039002
0.774594 0.000000 0.021668
0.838895 0.000000 0.001190
0.900603 0.000000 0.000000
0.960817 0.000000 0.000000
0.000000 0.154055 0.096864
0.000000 0.155062 0.097810
0.033509 0.156863 0.100343
0.088685 0.155825 0.097322
0.176455 0.164492 0.086519
0.271397 0.160983 0.081941
0.358160 0.149935 0.077760
0.439582 0.134249 0.070436
0.517754 0.112428 0.061402
0.591699 0.084901 0.050538
0.660182 0.049470 0.036774
0.727687 0.009918 0.019226
0.791989 0.000000 0.000000
0.853391 0.000000 0.000000
0.912963 0.000000 0.000000
0.971123 0.033717 0.000000
0.000000 0.230259 0.106325
0.000000 0.231205 0.105776
0.000000 0.230655 0.094667
0.056062 0.227817 0.096468
0.152438 0.236637 0.086061
0.271214 0.250217 0.062593
0.381140 0.250736 0.047059
0.472267 0.241794 0.042145
0.554253 0.229801 0.033051
0.623133 0.216098 0.018189
0.687251 0.204196 0.002533
0.749569 0.196414 0.000000
0.808713 0.192874 0.000000
0.866056 0.194858 0.000000
0.922423 0.202701 0.000000
0.978649 0.217082 0.000000
0.000000 0.310124 0.088136
0.000000 0.309880 0.088136
0.000000 0.308629 0.089540
0.000000 0.306340 0.091676
0.118776 0.312535 0.083192
0.239506 0.327947 0.055604
0.369085 0.344244 0.003479
0.484230 0.349981 0.000000
0.568658 0.341955 0.000000
0.646662 0.334874 0.000000
0.712428 0.327092 0.000000
0.769497 0.320226 0.000000
0.824277 0.316869 0.000000
0.878019 0.317540 0.000000
0.931518 0.322332 0.000000
0.985568 0.331335 0.000000
0.000000 0.387152 0.077455
0.000000 0.387549 0.078676
0.000000 0.386572 0.080415
0.000000 0.384558 0.083040
0.048768 0.387243 0.077821
0.203647 0.401953 0.046296
0.328801 0.418585 0.000000
0.458106 0.436622 0.000000
