example_ofxGpuLutCube/bin/data/ofxGpuLutCube/LUT/U47 (bright warm_1).cube
LUT_3D_SIZE 6
0.099550 0.083040 0.050233
0.155673 0.080812 0.049897
0.335302 0.050965 0.047181
0.640009 0.000000 0.025940
0.894316 0.000000 0.000000
1.000000 0.000000 0.000000
0.104433 0.139467 0.054475
0.155184 0.146761 0.051545
0.354101 0.151797 0.028626
0.645258 0.119265 0.000000
0.891752 0.090578 0.000000
1.000000 0.170190 0.000000
0.000000 0.352209 0.000000
0.142947 0.345830 0.005493
0.374609 0.400671 0.000000
0.662654 0.418891 0.000000
0.875090 0.397925 0.000000
0.999998 0.425106 0.000000
0.000000 0.621576 0.000000
0.138643 0.616541 0.000000
0.393622 0.626459 0.000000
0.659846 0.672633 0.000000
0.883940 0.687861 0.000000
0.999838 0.642842 0.000000
0.311101 0.815549 0.161654
0.374975 0.813504 0.179019
0.504601 0.807156 0.221836
0.675105 0.825162 0.249393
0.851896 0.849668 0.282994
0.999651 0.858691 0.291070
0.588063 0.957662 0.512795
0.608652 0.955729 0.516883
0.671157 0.953548 0.544518
0.758344 0.954730 0.581683
0.858284 0.964347 0.607255
0.962829 0.974467 0.637672
0.114565 0.081880 0.111727
0.176150 0.079683 0.116640
0.380072 0.013733 0.123873
0.663935 0.000000 0.130068
0.906157 0.000000 0.126284
1.000000 0.000000 0.130420
0.095705 0.153353 0.119020
0.169131 0.154330 0.121065
0.378058 0.145357 0.121096
0.666285 0.087404 0.114961
0.902800 0.058106 0.104280
1.000000 0.178321 0.106945
0.000000 0.381811 0.109102
0.155001 0.374426 0.119875
0.391516 0.408301 0.110994
0.667842 0.403388 0.011261
0.885435 0.396124 0.000000
1.000000 0.426462 0.000000
0.000000 0.635462 0.120577
0.180758 0.630213 0.134859
0.409949 0.628351 0.160525
0.665400 0.674647 0.158022
0.882261 0.684016 0.062898
0.999831 0.634954 0.000000
0.332586 0.820096 0.274418
0.391974 0.817594 0.284215
0.516258 0.810971 0.312657
0.678035 0.824796 0.343328
0.850767 0.849973 0.379522
0.999611 0.858186 0.381670
0.592493 0.958552 0.547535
0.612867 0.956713 0.551163
0.674296 0.954530 0.575399
0.760421 0.954390 0.612136
0.858615 0.964193 0.636778
0.961783 0.974561 0.665854
0.153750 0.069276 0.326513
0.246372 0.049866 0.334356
0.459541 0.000000 0.360632
0.770687 0.000000 0.378119
0.955474 0.000000 0.374517
1.000000 0.155686 0.408504
0.087587 0.146273 0.340703
0.225101 0.149355 0.347601
0.463478 0.118044 0.368902
0.759182 0.061189 0.380224
0.934691 0.162722 0.386572
1.000000 0.307111 0.425198
0.000000 0.416419 0.367010
0.000000 0.418830 0.369451
0.422644 0.422248 0.376837
0.683986 0.423499 0.377813
0.893828 0.436805 0.382361
1.000000 0.469663 0.398858
0.000000 0.668910 0.360845
0.173892 0.665522 0.374670
0.457221 0.649928 0.410040
0.672847 0.678828 0.437079
0.872831 0.667994 0.382116
0.999789 0.636782 0.328393
0.366461 0.831907 0.463874
0.422339 0.829313 0.469001
0.540642 0.822019 0.484016
0.683253 0.822782 0.511406
0.847410 0.850858 0.553338
0.992466 0.854979 0.538001
0.595828 0.961618 0.624676
0.616135 0.959810 0.626960
0.677025 0.957413 0.644311
0.762840 0.954700 0.676640
0.859034 0.964067 0.701928
0.959961 0.975144 0.728677
0.244694 0.000000 0.614893
0.342016 0.000000 0.619348
0.547692 0.000000 0.631128
0.784665 0.000000 0.660975
0.975891 0.000000 0.650965
1.000000 0.250641 0.643354
0.210117 0.135134 0.620417
0.322057 0.122805 0.624628
0.540703 0.067353 0.635431
0.779171 0.000000 0.662715
0.966217 0.215152 0.657588
1.000000 0.381472 0.652595
0.000000 0.371344 0.625574
0.160739 0.374151 0.629755
0.497322 0.416876 0.639948
0.742550 0.440223 0.662104
0.934356 0.528954 0.679011
1.000000 0.564997 0.675130
0.000000 0.685725 0.648585
0.000000 0.684993 0.649805
0.426978 0.683345 0.653407
0.679591 0.683284 0.661494
0.861448 0.680995 0.659358
0.999607 0.686552 0.662270
0.257542 0.854215 0.631250
0.355901 0.851896 0.636744
0.529961 0.845060 0.654078
0.698909 0.830442 0.683497
0.844877 0.852598 0.719081
0.984473 0.841914 0.676025
0.534113 0.972143 0.697667
0.572004 0.969671 0.706144
0.673228 0.964433 0.738622
0.762494 0.960762 0.757576
0.858690 0.963843 0.783307
0.959059 0.976441 0.808724
0.429084 0.000000 0.841794
0.494881 0.000000 0.843076
0.644038 0.000000 0.846769
0.825895 0.000000 0.852873
0.990936 0.000000 0.867918
1.000000 0.281961 0.830315
0.415473 0.098360 0.842069
0.483680 0.083803 0.843381
0.635431 0.042115 0.846677
0.816922 0.061707 0.852232
0.979278 0.201083 0.866300
1.000000 0.401118 0.831560
0.342931 0.403967 0.839384
0.433478 0.415412 0.839933
0.595636 0.423529 0.842741
0.780148 0.444831 0.847868
0.943420 0.493904 0.860868
0.999993 0.598218 0.841653
0.109041 0.640223 0.835721
0.268193 0.639338 0.835508
0.479011 0.638422 0.834897
0.719905 0.674250 0.840970
0.894285 0.702480 0.855406
0.999684 0.768834 0.863274
0.213352 0.858640 0.842832
0.320592 0.857725 0.843229
0.502342 0.855436 0.844450
0.684688 0.852445 0.846433
0.845487 0.853147 0.852079
0.971750 0.849156 0.847938
0.473352 0.984294 0.819647
0.511317 0.982613 0.821292
0.610275 0.979427 0.829695
0.733653 0.974645 0.844280
0.858514 0.968158 0.869023
0.961077 0.979014 0.894080
0.622947 0.000000 0.992742
0.658892 0.000000 0.992715
0.749197 0.000000 0.992603
0.871624 0.100005 0.992132
0.998892 0.230109 0.990903
1.000000 0.346061 0.992135
0.617012 0.226464 0.991100
0.652444 0.230756 0.991042
0.740838 0.246977 0.990656
0.860861 0.283272 0.989486
0.987016 0.346169 0.987732
1.000000 0.422781 0.988742
0.586601 0.484080 0.985608
0.622139 0.486676 0.985459
0.710553 0.494468 0.985009
0.831035 0.511172 0.984106
0.958263 0.540410 0.982936
1.000000 0.583733 0.984512
0.450622 0.637751 0.982745
0.506790 0.644531 0.982234
0.658199 0.685307 0.978779
0.788085 0.696043 0.978233
0.919481 0.710826 0.978074
0.999999 0.738086 0.980097
0.446674 0.831020 0.978217
0.489465 0.830833 0.978033
0.590270 0.830426 0.977665
0.718199 0.829745 0.976926
0.875885 0.850486 0.976312
0.998487 0.869250 0.979007
0.477425 0.991429 0.978704
0.510796 0.990666 0.978613
0.597617 0.989083 0.978835
0.714748 0.986836 0.979342
0.840425 0.984939 0.980573
0.968639 0.985038 0.983860
