example_ofxGpuLutCube/bin/data/ofxGpuLutCube/LUT/U47 (bright warm_1).cube
LUT_3D_SIZE 16
0.099550 0.083040 0.050233
0.108125 0.082399 0.050446
0.128878 0.081270 0.050629
0.155673 0.080812 0.049897
0.194553 0.078614 0.049592
0.254063 0.071534 0.049073
0.335302 0.050965 0.047181
0.432868 0.000671 0.043153
0.537926 0.000000 0.036133
0.640009 0.000000 0.025940
0.732631 0.000000 0.013001
0.817197 0.000000 0.000000
0.894316 0.000000 0.000000
0.962951 0.000000 0.000000
1.000000 0.000000 0.000000
1.000000 0.000000 0.000000
0.099245 0.093660 0.049989
0.109133 0.094118 0.049134
0.130068 0.094057 0.047883
0.157992 0.092439 0.047669
0.197604 0.090700 0.048066
0.258030 0.085603 0.047517
0.339086 0.070985 0.045045
0.435859 0.033967 0.040406
0.540154 0.000000 0.032227
0.641199 0.000000 0.021210
0.732937 0.000000 0.007263
0.817166 0.000000 0.000000
0.894041 0.000000 0.000000
0.962402 0.000000 0.000000
1.000000 0.000000 0.000000
1.000000 0.000000 0.000000
0.102296 0.111543 0.052186
0.110750 0.111421 0.052674
0.126650 0.113832 0.051087
0.157992 0.115846 0.048280
0.202823 0.112856 0.045441
0.264408 0.110903 0.044068
0.345373 0.103975 0.040467
0.441230 0.086641 0.033906
0.543847 0.050538 0.023529
0.643061 0.000000 0.010864
0.733425 0.000000 0.000000
0.816983 0.000000 0.000000
0.893248 0.000000 0.000000
0.961212 0.000000 0.000000
1.000000 0.000000 0.000000
1.000000 0.034533 0.000000
0.104433 0.139467 0.054475
0.113344 0.138491 0.055573
0.127932 0.140871 0.054688
0.155184 0.146761 0.051545
0.206271 0.156039 0.044648
0.273503 0.156435 0.036957
0.354101 0.151797 0.028626
0.448646 0.147066 0.018860
0.548516 0.136019 0.005676
0.645258 0.119265 0.000000
0.733639 0.101656 0.000000
0.816373 0.089418 0.000000
0.891752 0.090578 0.000000
0.959136 0.107759 0.000000
1.000000 0.136080 0.000000
1.000000 0.170190 0.000000
0.098756 0.187961 0.051270
0.110597 0.186709 0.052888
0.128542 0.186160 0.054322
0.157839 0.194522 0.049775
0.205631 0.206546 0.040589
0.283513 0.226566 0.021454
0.369024 0.228244 0.004883
0.458228 0.221317 0.000000
0.551843 0.214694 0.000000
0.645319 0.211063 0.000000
0.731655 0.207279 0.000000
0.813077 0.208103 0.000000
0.887449 0.214054 0.000000
0.954284 0.225498 0.000000
1.000000 0.241825 0.000000
1.000000 0.263035 0.000000
0.067262 0.261082 0.033783
0.088441 0.259861 0.035431
0.118288 0.257633 0.039063
0.156252 0.262669 0.035615
0.208377 0.277012 0.021790
0.280980 0.295354 0.000885
0.385138 0.326604 0.000000
0.478462 0.325383 0.000000
0.566247 0.315496 0.000000
0.645655 0.299474 0.000000
0.728328 0.298405 0.000000
0.808835 0.303136 0.000000
0.882261 0.310521 0.000000
0.948547 0.320256 0.000000
1.000000 0.332433 0.000000
1.000000 0.347146 0.000000
0.000000 0.352209 0.000000
0.009552 0.350958 0.000000
0.080720 0.348760 0.000000
0.142947 0.345830 0.005493
0.205478 0.360235 0.000000
0.281987 0.378576 0.000000
0.374609 0.400671 0.000000
0.492287 0.435279 0.000000
0.584375 0.432593 0.000000
0.662654 0.418891 0.000000
0.733547 0.402960 0.000000
0.802152 0.390784 0.000000
0.875090 0.397925 0.000000
0.940978 0.406226 0.000000
0.999786 0.415045 0.000000
0.999998 0.425106 0.000000
0.000000 0.449348 0.000000
0.000000 0.448066 0.000000
0.000000 0.445869 0.000000
0.117342 0.442512 0.000000
0.198672 0.446693 0.000000
0.281743 0.463050 0.000000
0.373571 0.482521 0.000000
0.475013 0.504082 0.000000
0.591333 0.535149 0.000000
0.677363 0.534874 0.000000
0.747311 0.520500 0.000000
0.811887 0.505211 0.000000
0.872251 0.490120 0.000000
0.932464 0.484779 0.000000
0.991638 0.490974 0.000000
0.999916 0.497350 0.000000
0.000000 0.540459 0.000000
0.000000 0.539422 0.000000
0.000000 0.537407 0.000000
0.102266 0.534234 0.000000
0.200839 0.529686 0.000000
0.286809 0.541314 0.000000
0.376959 0.556725 0.000000
0.472297 0.574151 0.000000
0.571038 0.593164 0.000000
0.675288 0.618128 0.000000
0.759365 0.624903 0.000000
0.821347 0.610285 0.000000
0.878813 0.594934 0.000000
0.932555 0.579553 0.000000
0.983795 0.565118 0.000000
0.999838 0.565239 0.000000
0.000000 0.621576 0.000000
0.000000 0.620783 0.000000
0.000000 0.619226 0.000000
0.138643 0.616541 0.000000
0.228061 0.612818 0.000000
0.308263 0.613764 0.000000
0.393622 0.626459 0.000000
0.481758 0.640742 0.000000
0.570764 0.656214 0.000000
0.659846 0.672633 0.000000
0.747951 0.689631 0.000000
0.829831 0.702998 0.000000
0.883940 0.687861 0.000000
0.934874 0.672297 0.000000
0.983764 0.657374 0.000000
0.999838 0.642842 0.000000
0.000000 0.696529 0.000000
0.072816 0.695827 0.000000
0.144594 0.694484 0.000000
0.214145 0.692317 0.000000
0.283055 0.689235 0.000000
0.349798 0.685176 0.000000
0.423316 0.692042 0.000000
0.500969 0.703029 0.000000
0.579644 0.715053 0.000000
0.658747 0.727993 0.000000
0.736934 0.741268 0.000000
0.813169 0.754665 0.000000
0.886503 0.768612 0.000000
0.934203 0.753445 0.000000
0.980072 0.738064 0.000000
0.999801 0.723410 0.000000
0.205753 0.762509 0.033387
0.225620 0.761929 0.040650
0.256809 0.760830 0.052552
0.300023 0.758877 0.068452
0.350011 0.756222 0.087587
0.404028 0.752773 0.108705
0.461189 0.751492 0.126711
0.526848 0.759487 0.129305
0.594537 0.768399 0.133059
0.663142 0.777829 0.138003
0.731350 0.787686 0.143862
0.798550 0.797787 0.151400
0.864073 0.808103 0.160098
0.929412 0.822416 0.193362
0.973266 0.808530 0.128206
0.999733 0.795176 0.012068
0.311101 0.815549 0.161654
0.322850 0.815183 0.164309
0.344121 0.814633 0.170382
0.374975 0.813504 0.179019
0.414008 0.811978 0.190646
0.457679 0.809812 0.204929
0.504601 0.807156 0.221836
0.557977 0.810575 0.232242
0.615991 0.817685 0.240604
0.675105 0.825162 0.249393
0.734859 0.833188 0.259800
0.793851 0.841337 0.270939
0.851896 0.849668 0.282994
0.908324 0.857633 0.294499
0.965057 0.869780 0.326207
0.999651 0.858691 0.291070
0.410132 0.868193 0.277043
0.415473 0.866758 0.275334
0.428565 0.865690 0.277256
0.450446 0.864591 0.282780
0.479866 0.863340 0.291569
0.514488 0.861631 0.302617
0.553124 0.859648 0.316289
0.594720 0.858183 0.330999
0.642634 0.863432 0.339513
0.692073 0.868833 0.348272
0.742641 0.874693 0.358465
0.793271 0.880644 0.368719
0.843656 0.886778 0.379706
0.893187 0.892668 0.390112
0.941802 0.898253 0.399512
0.991381 0.908163 0.426069
0.496956 0.914366 0.387427
0.500328 0.913298 0.385779
0.509636 0.912383 0.386999
0.525628 0.911498 0.391363
0.547845 0.910521 0.398596
0.575158 0.909270 0.408270
0.606592 0.907866 0.420661
0.640558 0.906188 0.434882
0.677699 0.907500 0.446143
0.717617 0.911284 0.454139
0.759091 0.915404 0.463020
0.801389 0.919677 0.472297
0.844144 0.924224 0.482521
0.886717 0.928618 0.492256
0.928954 0.932860 0.501244
0.970255 0.936485 0.507800
0.588063 0.957662 0.512795
0.590242 0.956896 0.511479
0.596861 0.956282 0.512730
0.608652 0.955729 0.516883
0.625431 0.955116 0.523753
0.646521 0.954348 0.532883
0.671157 0.953548 0.544518
0.698507 0.952685 0.558407
0.727942 0.951912 0.574502
0.758344 0.954730 0.581683
0.790542 0.957793 0.589596
0.823898 0.960947 0.597876
0.858284 0.964347 0.607255
0.893062 0.967744 0.616657
0.928138 0.971140 0.626838
0.962829 0.974467 0.637672
0.099519 0.083558 0.062074
0.113558 0.081300 0.062684
0.132296 0.080415 0.060517
0.157382 0.082582 0.061799
0.195193 0.082704 0.064881
0.256687 0.073884 0.064912
0.339208 0.050690 0.063935
0.437324 0.000000 0.060883
0.542504 0.000000 0.055543
0.644068 0.000000 0.047578
0.736110 0.000000 0.035889
0.820127 0.000000 0.021363
0.896757 0.000000 0.004913
0.964904 0.000000 0.000000
1.000000 0.000000 0.000000
1.000000 0.000000 0.000000
0.097871 0.095430 0.062959
0.111208 0.095216 0.062959
0.129915 0.095644 0.063569
0.157321 0.095308 0.063844
0.198520 0.093751 0.064057
0.260655 0.087373 0.063722
0.343114 0.070405 0.061921
0.440467 0.028901 0.058381
0.544701 0.000000 0.052155
0.645167 0.000000 0.042542
0.736294 0.000000 0.030304
0.820005 0.000000 0.014496
0.896300 0.000000 0.000000
0.964263 0.000000 0.000000
1.000000 0.000000 0.000000
1.000000 0.000000 0.000000
0.103243 0.114443 0.062867
0.114443 0.113619 0.065339
0.129061 0.115023 0.065187
0.159823 0.116060 0.063050
0.204166 0.114687 0.061738
0.267094 0.111910 0.060365
0.349279 0.102907 0.057679
0.445624 0.083345 0.052491
0.547967 0.041016 0.043763
0.646693 0.000000 0.031891
0.736568 0.000000 0.018250
0.819852 0.000000 0.000977
0.895506 0.000000 0.000000
0.962982 0.000000 0.000000
1.000000 0.000000 0.000000
1.000000 0.032056 0.000000
0.106722 0.143282 0.066377
0.116335 0.142428 0.067292
0.131197 0.142733 0.068330
0.158114 0.148531 0.065644
0.209079 0.156313 0.060029
0.276280 0.154635 0.053162
0.358129 0.151003 0.046601
0.452888 0.144808 0.037568
0.552514 0.131960 0.025696
0.648859 0.112947 0.011444
0.736721 0.092988 0.000000
0.818967 0.080201 0.000000
0.893645 0.081636 0.000000
0.960571 0.101015 0.000000
1.000000 0.131563 0.000000
1.000000 0.169178 0.000000
0.099092 0.193118 0.063416
0.111604 0.192203 0.064729
0.131716 0.190280 0.067018
0.161196 0.197055 0.063935
0.209171 0.208865 0.057038
0.287205 0.226871 0.040803
0.372320 0.226383 0.023804
0.461311 0.217319 0.008270
0.556634 0.212955 0.000000
0.649866 0.208164 0.000000
0.735409 0.204135 0.000000
0.816281 0.204776 0.000000
0.889921 0.211002 0.000000
0.956176 0.222812 0.000000
1.000000 0.240146 0.000000
1.000000 0.262413 0.000000
0.064424 0.266636 0.049042
0.087556 0.265568 0.051087
0.119661 0.263706 0.054170
0.158999 0.265476 0.054719
0.211765 0.279484 0.043091
0.284703 0.297490 0.022797
0.388312 0.326513 0.000000
0.481239 0.323613 0.000000
0.568566 0.312230 0.000000
0.648219 0.296056 0.000000
0.732021 0.296971 0.000000
0.811765 0.301549 0.000000
0.884642 0.308873 0.000000
0.950408 0.318853 0.000000
1.000000 0.331334 0.000000
1.000000 0.346713 0.000000
0.000000 0.357549 0.011444
0.004456 0.356451 0.013977
0.081086 0.354314 0.019013
0.146181 0.350988 0.026856
0.208774 0.362310 0.014618
0.285496 0.380713 0.000000
0.378149 0.402625 0.000000
0.495918 0.436866 0.000000
0.586175 0.431434 0.000000
0.664027 0.416571 0.000000
0.734829 0.399817 0.000000
0.805020 0.390204 0.000000
0.877409 0.397162 0.000000
0.942840 0.405371 0.000000
1.000000 0.414435 0.000000
1.000000 0.424828 0.000000
0.000000 0.454047 0.000000
0.000000 0.452796 0.000000
0.000000 0.450690 0.000000
0.121096 0.447395 0.000000
0.203128 0.448493 0.000000
0.285130 0.464698 0.000000
0.376562 0.483986 0.000000
0.477882 0.505364 0.000000
0.593744 0.536217 0.000000
0.678218 0.533959 0.000000
0.748226 0.519158 0.000000
0.812680 0.503380 0.000000
0.872953 0.487556 0.000000
0.934051 0.484413 0.000000
0.992096 0.489876 0.000000
0.999921 0.495767 0.000000
0.000000 0.543481 0.000000
0.000000 0.542504 0.000000
0.000000 0.540673 0.000000
0.109316 0.537530 0.000000
0.206180 0.533043 0.000000
0.290471 0.542199 0.000000
0.379919 0.557519 0.000000
0.474678 0.574914 0.000000
0.573083 0.593896 0.000000
0.677729 0.619654 0.000000
0.759701 0.624292 0.000000
0.821622 0.609461 0.000000
0.879149 0.593713 0.000000
0.932860 0.577905 0.000000
0.984131 0.562982 0.000000
0.999841 0.564885 0.000000
0.000000 0.624018 0.000000
0.000000 0.623163 0.000000
0.007385 0.621576 0.000000
0.146975 0.618982 0.000000
0.234195 0.615167 0.000000
0.312230 0.614191 0.000000
0.396460 0.626886 0.000000
0.483955 0.641291 0.000000
0.572442 0.656794 0.000000
0.661128 0.673121 0.000000
0.749569 0.690822 0.000000
0.829801 0.702602 0.000000
0.883879 0.687373 0.000000
0.934844 0.671565 0.000000
0.983764 0.656275 0.000000
0.999838 0.641531 0.000000
0.020935 0.698116 0.000000
0.087739 0.697383 0.000000
0.152956 0.696040 0.000000
0.220645 0.693904 0.000000
0.288243 0.690791 0.015015
0.354314 0.686793 0.050050
0.426123 0.692226 0.057343
0.502800 0.703273 0.051026
0.581109 0.715389 0.044526
0.659815 0.728298 0.038941
0.737636 0.741604 0.035309
0.813596 0.755032 0.034546
0.885649 0.767788 0.045930
0.933288 0.752499 0.000000
0.979400 0.737179 0.000000
0.999794 0.722556 0.000000
0.212284 0.763577 0.087617
0.231601 0.762966 0.091402
0.262211 0.761654 0.098360
0.304051 0.759731 0.108522
0.353521 0.757046 0.121889
0.407080 0.753597 0.138796
0.462898 0.751247 0.155306
0.528161 0.759243 0.158572
0.595300 0.768032 0.162753
0.663264 0.777401 0.167727
0.731136 0.787198 0.173983
0.798032 0.797299 0.181552
0.863279 0.807584 0.190158
0.928130 0.821439 0.218662
0.972045 0.807584 0.160403
0.999720 0.794290 0.078738
0.315831 0.816709 0.186374
0.327703 0.816251 0.188968
0.348394 0.815610 0.193698
0.378607 0.814420 0.201083
0.416876 0.812741 0.211307
0.460212 0.810513 0.224399
0.506859 0.807858 0.239902
0.559228 0.810513 0.250828
0.616815 0.817533 0.259007
0.675563 0.825040 0.267979
0.734920 0.833036 0.278325
0.793729 0.841245 0.289433
0.851652 0.849668 0.302007
0.907897 0.857633 0.313512
0.964355 0.869902 0.345006
0.999644 0.858663 0.309325
0.412818 0.868803 0.292241
0.418341 0.867430 0.290745
0.431342 0.866361 0.292607
0.453071 0.865232 0.297734
0.482124 0.863981 0.305974
0.516472 0.862211 0.316411
0.554742 0.860136 0.329137
0.595605 0.858091 0.343572
0.643214 0.863279 0.352087
0.692409 0.868650 0.360967
0.742763 0.874510 0.370916
0.793240 0.880491 0.381353
0.843503 0.886748 0.392554
0.892882 0.892699 0.403326
0.941375 0.898375 0.413184
0.990682 0.908375 0.439832
0.498756 0.914702 0.397803
0.502251 0.913695 0.396246
0.511437 0.912840 0.397650
0.527489 0.911925 0.401831
0.549584 0.910948 0.408789
0.576654 0.909667 0.418097
0.607813 0.908232 0.429877
0.641505 0.906493 0.443580
0.678309 0.907378 0.455055
0.718013 0.911162 0.462898
0.759335 0.915251 0.471717
0.801450 0.919585 0.481147
0.844053 0.924132 0.491402
0.886503 0.928588 0.501152
0.928649 0.932891 0.510491
0.969859 0.936607 0.517349
0.589169 0.957846 0.519455
0.591530 0.957141 0.518260
0.597997 0.956529 0.519454
0.609880 0.955945 0.523544
0.626506 0.955331 0.530229
0.647412 0.954623 0.539175
0.671954 0.953824 0.550502
0.699211 0.952899 0.563963
0.728493 0.952063 0.579728
0.758770 0.954698 0.587269
0.790817 0.957731 0.595031
0.824019 0.960917 0.603223
0.858283 0.964255 0.612268
0.892939 0.967653 0.621550
0.927923 0.971080 0.631734
0.962584 0.974408 0.642511
0.105653 0.082918 0.082368
0.118288 0.081575 0.082765
0.137758 0.080934 0.083894
0.164309 0.080537 0.080873
0.208560 0.078462 0.082734
0.269749 0.069398 0.085481
0.349859 0.041779 0.087953
0.445991 0.000000 0.087770
0.551141 0.000000 0.084871
0.651392 0.000000 0.080598
0.742245 0.000000 0.074800
0.825315 0.000000 0.067231
0.900755 0.000000 0.058076
0.967742 0.000000 0.047303
1.000000 0.000000 0.037812
1.000000 0.000000 0.033612
0.103304 0.093538 0.083314
0.117006 0.095766 0.083680
0.136049 0.095552 0.084260
0.164797 0.095064 0.082826
0.206912 0.093568 0.084718
0.268711 0.085664 0.086885
0.350927 0.064515 0.087526
0.449226 0.012085 0.085725
0.552941 0.000000 0.082277
0.652461 0.000000 0.077241
0.742458 0.000000 0.070649
0.825132 0.000000 0.062318
0.900359 0.000000 0.051820
0.967132 0.000000 0.039643
1.000000 0.000000 0.029297
1.000000 0.000000 0.024342
0.102022 0.116854 0.084230
0.113497 0.116823 0.084504
0.132601 0.116884 0.085023
0.162417 0.116945 0.085328
0.208103 0.115724 0.085512
0.273503 0.110719 0.085359
0.357153 0.098695 0.083833
0.454322 0.072602 0.080964
0.556420 0.017273 0.076478
0.654017 0.000000 0.070130
0.742702 0.000000 0.062013
0.824887 0.000000 0.051301
0.899504 0.000000 0.037964
0.965850 0.000000 0.023590
1.000000 0.000000 0.012421
1.000000 0.034564 0.007254
0.101259 0.148959 0.081819
0.114260 0.148775 0.083680
0.135927 0.147402 0.087312
0.162722 0.151095 0.086885
0.214939 0.154879 0.082185
0.282872 0.151614 0.078004
0.366308 0.148257 0.075135
0.461524 0.139193 0.070466
0.560845 0.122896 0.063203
0.656001 0.101015 0.054444
0.742794 0.077577 0.042634
0.823941 0.063264 0.026947
0.897520 0.066987 0.010895
0.963439 0.091890 0.000000
1.000000 0.128511 0.000000
1.000000 0.169692 0.000000
0.092378 0.202090 0.082673
0.109712 0.201083 0.084749
0.134249 0.199069 0.086793
0.165621 0.200595 0.088136
0.214847 0.212070 0.083345
0.292821 0.225620 0.072511
0.377966 0.221378 0.059022
0.468421 0.212650 0.046021
0.564782 0.208835 0.033845
0.656794 0.202914 0.020050
0.741360 0.198581 0.004822
0.821134 0.199100 0.000000
0.893736 0.205722 0.000000
0.958892 0.219211 0.000000
1.000000 0.238315 0.000000
1.000000 0.262546 0.000000
0.052399 0.276585 0.074891
0.080873 0.275486 0.076356
0.119478 0.273381 0.079530
0.164126 0.270085 0.084230
0.216983 0.282902 0.077943
0.290593 0.300450 0.065644
0.392737 0.325322 0.037079
0.485115 0.319493 0.006897
0.571771 0.305333 0.000000
0.654810 0.293919 0.000000
0.737697 0.294377 0.000000
0.816403 0.298680 0.000000
0.888304 0.306279 0.000000
0.953002 0.316838 0.000000
1.000000 0.330144 0.000000
1.000000 0.346640 0.000000
0.000000 0.367010 0.052796
0.000000 0.365728 0.055329
0.079438 0.363622 0.059998
0.150546 0.360174 0.067323
0.214481 0.365393 0.066529
0.290715 0.383337 0.049683
0.383459 0.404944 0.018799
0.501244 0.438453 0.000000
0.588312 0.428229 0.000000
0.665675 0.411658 0.000000
0.736202 0.393317 0.000000
0.809293 0.389105 0.000000
0.880797 0.396063 0.000000
0.945251 0.404242 0.000000
1.000000 0.413703 0.000000
1.000000 0.424760 0.000000
0.000000 0.461982 0.014343
0.000000 0.460578 0.018280
0.000000 0.458534 0.025238
0.127596 0.455207 0.037720
0.210452 0.450813 0.053742
0.290745 0.466804 0.033448
0.381415 0.485786 0.003754
0.481941 0.506920 0.000000
0.597406 0.537438 0.000000
0.679133 0.531792 0.000000
0.748959 0.516045 0.000000
0.813352 0.499123 0.000000
0.873594 0.482368 0.000000
0.936339 0.483833 0.000000
0.993500 0.489174 0.000000
0.999935 0.495276 0.000000
0.000000 0.549584 0.000000
0.000000 0.548486 0.000000
0.000000 0.546593 0.001282
0.121706 0.543389 0.015503
0.215885 0.538872 0.037049
0.297307 0.543450 0.039429
0.384955 0.558679 0.016938
0.478614 0.575982 0.000000
0.576043 0.594965 0.000000
0.681605 0.622034 0.000000
0.759762 0.622827 0.000000
0.821653 0.607446 0.000000
0.879240 0.591180 0.000000
0.933043 0.574731 0.000000
0.984710 0.559777 0.000000
0.999847 0.564611 0.000000
0.000000 0.628412 0.000000
0.000000 0.627558 0.002747
0.040284 0.625971 0.012940
0.160769 0.623316 0.029694
0.244724 0.619501 0.052613
0.319158 0.614801 0.075837
0.401587 0.627527 0.065858
0.487556 0.641871 0.053559
0.574945 0.657404 0.036194
0.662928 0.673762 0.016083
0.752010 0.692561 0.000000
0.829282 0.701503 0.000000
0.883391 0.686122 0.000000
0.934417 0.670008 0.000000
0.983551 0.654322 0.000000
0.999835 0.639125 0.000000
0.061311 0.701076 0.064210
0.110780 0.700282 0.068605
0.168338 0.698939 0.076143
0.231907 0.696834 0.087953
0.297276 0.693751 0.102937
0.362219 0.689662 0.120027
0.430854 0.692348 0.129671
0.506126 0.703395 0.129854
0.583307 0.715633 0.130526
0.661250 0.728634 0.132448
0.738460 0.742000 0.135531
0.813779 0.755489 0.140963
0.884459 0.767025 0.145113
0.932341 0.751705 0.056153
0.978698 0.736263 0.000000
0.999787 0.721459 0.000000
0.223697 0.765438 0.147372
0.241917 0.764858 0.149844
0.271336 0.763577 0.154086
0.312139 0.761624 0.161563
0.360723 0.758938 0.171359
0.413123 0.755520 0.183871
0.466957 0.751400 0.199130
0.530907 0.759121 0.203250
0.597162 0.768002 0.208377
0.664454 0.777462 0.214420
0.731777 0.787320 0.221683
0.798184 0.797482 0.229953
0.862943 0.807828 0.239475
0.926848 0.820920 0.262608
0.970916 0.807095 0.211643
0.999709 0.793741 0.151459
0.322698 0.818021 0.223972
0.334234 0.817594 0.226078
0.354314 0.816922 0.230106
0.384131 0.815702 0.236301
0.421790 0.813993 0.245060
0.464546 0.811734 0.256260
0.510613 0.809079 0.269963
0.561303 0.810269 0.281407
0.618341 0.817380 0.289891
0.676570 0.824979 0.299229
0.735470 0.833066 0.310124
0.793881 0.841367 0.321386
0.851377 0.849821 0.334173
0.907195 0.857908 0.346136
0.963134 0.870176 0.376776
0.999631 0.858514 0.339342
0.416907 0.869535 0.317449
0.422187 0.868254 0.316075
0.435248 0.867185 0.317876
0.456580 0.866087 0.322423
0.485328 0.864775 0.329808
0.519341 0.862974 0.339300
0.557214 0.860899 0.351080
0.597559 0.858457 0.364996
0.644404 0.863035 0.374243
0.693263 0.868528 0.383154
0.743252 0.874418 0.393378
0.793393 0.880491 0.404089
0.843320 0.886778 0.415564
0.892424 0.892821 0.426490
0.940581 0.898558 0.436683
0.989436 0.908558 0.463331
0.501244 0.915129 0.415045
0.504753 0.914122 0.413642
0.513939 0.913268 0.414923
0.529778 0.912413 0.418952
0.551690 0.911406 0.425422
0.578607 0.910124 0.434211
0.609644 0.908690 0.445502
0.643122 0.906920 0.458534
0.679286 0.907134 0.470588
0.718746 0.910948 0.478614
0.759884 0.915099 0.487648
0.801755 0.919463 0.497139
0.844083 0.924102 0.507378
0.886259 0.928588 0.517296
0.928161 0.932952 0.526543
0.969129 0.936729 0.533583
0.590613 0.958122 0.530595
0.592854 0.957418 0.529341
0.599412 0.956804 0.530563
0.611141 0.956222 0.534531
0.627766 0.955668 0.541001
0.648520 0.954930 0.549548
0.672970 0.954100 0.560357
0.700043 0.953176 0.573236
0.729258 0.952332 0.588494
0.759473 0.954575 0.597094
0.791306 0.957638 0.604828
0.824384 0.960855 0.612929
0.858404 0.964254 0.621945
0.892906 0.967653 0.631138
0.927768 0.971081 0.641140
0.962275 0.974469 0.651739
0.114565 0.081880 0.111727
0.125734 0.081697 0.112306
0.145907 0.081239 0.113741
0.176150 0.079683 0.116640
0.215457 0.076814 0.114595
0.297398 0.054047 0.120607
0.380072 0.013733 0.123873
0.474403 0.000000 0.126223
0.571923 0.000000 0.127901
0.663935 0.000000 0.130068
0.751095 0.000000 0.129763
0.832517 0.000000 0.128023
0.906157 0.000000 0.126284
0.971527 0.000000 0.125063
1.000000 0.000000 0.125948
1.000000 0.000000 0.130420
0.113649 0.095949 0.113649
0.125032 0.095979 0.114412
0.145510 0.095338 0.115419
0.175906 0.093996 0.117891
0.218936 0.090517 0.116854
0.295445 0.074830 0.120943
0.378393 0.044800 0.123720
0.472236 0.000000 0.126040
0.568902 0.000000 0.128145
0.663111 0.000000 0.129030
0.751186 0.000000 0.127230
0.832303 0.000000 0.125246
0.905730 0.000000 0.123079
0.970855 0.000000 0.121859
1.000000 0.000000 0.122347
1.000000 0.000000 0.126757
0.106630 0.114534 0.115846
0.117739 0.114656 0.116609
0.141482 0.116945 0.117739
0.174716 0.116304 0.119478
0.225254 0.113588 0.119326
0.292851 0.106233 0.121614
0.374914 0.090639 0.124361
0.467720 0.058473 0.127047
0.568261 0.000000 0.126162
0.664576 0.000000 0.124208
0.751492 0.000000 0.122042
0.831968 0.000000 0.119417
0.904723 0.000000 0.116670
0.969574 0.000000 0.114931
1.000000 0.000000 0.115145
1.000000 0.060758 0.119767
0.095705 0.153353 0.119020
0.108705 0.153689 0.119509
0.131746 0.154025 0.120119
0.169131 0.154330 0.121065
0.222019 0.154208 0.121309
0.292393 0.151949 0.121645
0.378058 0.145357 0.121096
0.474128 0.132570 0.119631
0.572778 0.112520 0.117708
0.666285 0.087404 0.114961
0.751400 0.063111 0.111604
0.830869 0.048920 0.107820
0.902800 0.058106 0.104280
0.967010 0.091218 0.101808
1.000000 0.133364 0.101900
1.000000 0.178321 0.106945
0.067872 0.211704 0.113802
0.089296 0.211826 0.114656
0.123842 0.211643 0.117067
0.173007 0.209049 0.124483
0.222873 0.216129 0.124361
0.301091 0.221469 0.116091
0.386938 0.213077 0.107332
0.481025 0.210025 0.104616
0.576471 0.204593 0.100954
0.666865 0.198184 0.097017
0.749783 0.194064 0.092653
0.827817 0.195560 0.086732
0.898802 0.203738 0.081086
0.962463 0.219150 0.077028
1.000000 0.240726 0.077058
1.000000 0.267163 0.083675
0.000000 0.289860 0.108125
0.033448 0.289891 0.110201
0.112978 0.288396 0.119844
0.169589 0.284581 0.124392
0.224887 0.287388 0.126711
0.299077 0.304509 0.121370
0.399176 0.322118 0.107546
0.490852 0.311406 0.087373
0.576593 0.293889 0.067933
0.664363 0.292699 0.061402
0.745693 0.293339 0.053590
0.822782 0.297520 0.043549
0.893126 0.305486 0.033448
0.956420 0.316960 0.026764
1.000000 0.331701 0.027253
1.000000 0.349526 0.039671
0.000000 0.381811 0.109102
0.000000 0.380377 0.110994
0.071015 0.378149 0.114351
0.155001 0.374426 0.119875
0.224369 0.369238 0.127413
0.298650 0.387121 0.121004
0.391516 0.408301 0.110994
0.504936 0.435462 0.091188
0.591119 0.422553 0.054444
0.667842 0.403388 0.011261
0.738918 0.384619 0.000000
0.815396 0.389349 0.000000
0.885435 0.396124 0.000000
0.948516 0.404547 0.000000
1.000000 0.414649 0.000000
1.000000 0.426462 0.000000
0.000000 0.474220 0.100618
0.000000 0.472938 0.102876
0.000000 0.470741 0.107149
0.136141 0.467231 0.113832
0.222293 0.462257 0.123079
0.300114 0.469703 0.123964
0.388830 0.488502 0.115480
0.488380 0.509270 0.103059
