example_ofxGpuLutCube/bin/data/ofxGpuLutCube/LUT/U48 (bright contrasty).cube
LUT_3D_SIZE 6
0.000000 0.000000 0.000000
0.114015 0.000000 0.001709
0.321202 0.000000 0.000000
0.594903 0.000000 0.000000
0.820493 0.000000 0.000000
0.997392 0.034383 0.000000
0.000000 0.089998 0.003693
0.120363 0.106905 0.000000
0.379828 0.102693 0.000000
0.632380 0.054994 0.000000
0.829831 0.084413 0.000000
0.995227 0.204203 0.000000
0.000000 0.291630 0.000000
0.000000 0.310307 0.000000
0.409949 0.370123 0.000000
0.696071 0.394415 0.000000
0.873472 0.402502 0.000000
0.999679 0.432378 0.000000
0.000000 0.528557 0.000000
0.000000 0.530419 0.000000
0.316594 0.577539 0.000000
0.657588 0.642145 0.000000
0.865690 0.655421 0.000000
0.999687 0.651952 0.000000
0.000000 0.754208 0.000000
0.000000 0.754208 0.000000
0.293980 0.776455 0.000000
0.583246 0.809659 0.000000
0.836881 0.842649 0.000000
0.999611 0.827565 0.000000
0.283487 0.946108 0.408782
0.315645 0.942273 0.397391
0.442162 0.946274 0.393376
0.611708 0.956089 0.351577
0.802004 0.965538 0.231884
0.999399 0.968985 0.000000
0.000000 0.000000 0.131594
0.125582 0.000000 0.102815
0.288701 0.000000 0.075135
0.565393 0.000000 0.057954
0.801877 0.000000 0.005005
0.989116 0.000000 0.000000
0.000000 0.108553 0.109621
0.116030 0.107332 0.102113
0.353918 0.082612 0.081941
0.612512 0.000000 0.044770
0.820920 0.000458 0.000000
0.988849 0.167657 0.000000
0.000000 0.322850 0.091676
0.029603 0.314824 0.092744
0.404242 0.362921 0.000000
0.685939 0.375036 0.000000
0.860288 0.382971 0.000000
0.999583 0.419284 0.000000
0.000000 0.550042 0.053773
0.000000 0.544091 0.057374
0.317174 0.576806 0.000000
0.654658 0.639643 0.000000
0.862028 0.650782 0.000000
0.999668 0.651326 0.000000
0.000000 0.764157 0.123384
0.000000 0.762478 0.127413
0.294255 0.775723 0.105653
0.579858 0.809445 0.000000
0.834989 0.843137 0.000000
0.999594 0.828234 0.000000
0.297034 0.947556 0.458212
0.327826 0.944060 0.448242
0.442875 0.946059 0.455103
0.608974 0.955964 0.422299
0.797797 0.965478 0.331627
0.999364 0.969075 0.001535
0.000000 0.000000 0.385199
0.073579 0.000000 0.357305
0.367346 0.000000 0.317357
0.499245 0.000000 0.240513
0.761898 0.000000 0.228305
0.965490 0.000000 0.225027
0.000000 0.084779 0.377966
0.000000 0.079500 0.360632
0.386725 0.005097 0.332952
0.537682 0.000000 0.261082
0.781888 0.000000 0.231632
0.967408 0.000272 0.221439
0.000000 0.344366 0.357641
0.000000 0.350866 0.359228
0.387091 0.360723 0.357580
0.633509 0.344182 0.319097
0.824582 0.349889 0.279423
0.988901 0.390968 0.242853
0.000000 0.598566 0.383886
0.175418 0.597498 0.389929
0.341894 0.581994 0.353948
0.643000 0.640742 0.326085
0.847623 0.649073 0.320226
0.999537 0.650827 0.303860
0.000000 0.786282 0.387030
0.000000 0.784390 0.387366
0.312596 0.778927 0.387701
0.564050 0.807340 0.376104
0.823423 0.844572 0.339818
0.994975 0.830120 0.298043
0.315501 0.951274 0.565428
0.343018 0.948150 0.556841
0.444667 0.947281 0.566077
0.597395 0.954852 0.561906
0.785085 0.965416 0.514334
0.999248 0.969616 0.360294
0.000000 0.000000 0.645380
0.000000 0.000000 0.635950
0.359289 0.000000 0.618921
0.641779 0.000000 0.593347
0.730526 0.000000 0.484535
0.924439 0.000000 0.486138
0.000000 0.036652 0.654505
0.000000 0.023346 0.642542
0.355138 0.000000 0.626276
0.648188 0.000000 0.601068
0.736904 0.000000 0.493538
0.926460 0.000000 0.482684
0.000000 0.302312 0.642145
0.000000 0.299382 0.642817
0.312657 0.307683 0.637873
0.645350 0.313725 0.619409
0.746761 0.298161 0.521263
0.950388 0.293626 0.498110
0.000000 0.613581 0.642298
0.000000 0.616693 0.643580
0.318975 0.626032 0.647395
0.604181 0.644434 0.653285
0.789609 0.625727 0.610224
0.961493 0.624665 0.570912
0.129580 0.818204 0.664759
0.259342 0.817502 0.667201
0.441047 0.814603 0.673823
0.550835 0.802701 0.641291
0.793637 0.845121 0.649256
0.967783 0.836688 0.639369
0.445098 0.954842 0.741063
0.417065 0.954236 0.718342
0.462016 0.955027 0.701744
0.586696 0.953938 0.708432
0.764093 0.964642 0.695808
0.979645 0.970435 0.641812
0.000000 0.000000 0.847013
0.000000 0.000000 0.844877
0.336553 0.000000 0.839384
0.646815 0.000000 0.833433
0.858549 0.000000 0.822080
0.922226 0.000000 0.742338
0.000000 0.000000 0.850523
0.000000 0.000000 0.846708
0.318212 0.000000 0.842222
0.644160 0.000000 0.834775
0.854551 0.000000 0.821103
0.917373 0.000000 0.738991
0.000000 0.203983 0.848173
0.000000 0.183871 0.847868
0.235630 0.241794 0.842466
0.620691 0.236881 0.834775
0.840604 0.281010 0.823026
0.918329 0.309800 0.750232
0.000000 0.556603 0.841398
0.000000 0.554742 0.841581
0.000000 0.546319 0.840757
0.547326 0.579919 0.835874
0.799771 0.607507 0.825620
0.904440 0.569582 0.761880
0.000000 0.823148 0.833982
0.000000 0.824399 0.834409
0.282353 0.828489 0.835599
0.562951 0.836484 0.837675
0.770321 0.848356 0.841001
0.931141 0.824368 0.810396
0.409433 0.968470 0.845775
0.439448 0.966551 0.844346
0.538096 0.965230 0.846289
0.664698 0.962740 0.848657
0.751179 0.961950 0.831824
0.963712 0.971750 0.823623
0.000000 0.000000 0.971965
0.000000 0.000000 0.971566
0.398287 0.000000 0.970461
0.670792 0.000000 0.968981
0.889233 0.000000 0.966402
0.999999 0.000000 0.960349
0.000000 0.000000 0.972864
0.000000 0.000000 0.972243
0.367717 0.000000 0.970557
0.661168 0.000000 0.968098
0.880158 0.000000 0.963600
0.999999 0.000000 0.955863
0.000000 0.020116 0.975013
0.000000 0.061989 0.974303
0.267844 0.126283 0.971423
0.632190 0.117359 0.968094
0.862346 0.207886 0.962108
0.999901 0.343813 0.953346
0.000000 0.407684 0.973237
0.000000 0.386746 0.973966
0.000000 0.323754 0.975513
0.535475 0.510209 0.962394
0.811920 0.556863 0.955067
0.999193 0.615124 0.945938
0.000000 0.765690 0.955617
0.000000 0.763844 0.955584
0.000000 0.759885 0.955302
0.258816 0.757786 0.954134
0.739500 0.805109 0.945321
0.976878 0.820656 0.938059
0.001278 0.972058 0.936711
0.002390 0.971500 0.936277
0.275463 0.971156 0.935665
0.545497 0.971082 0.934658
0.760513 0.971835 0.933507
0.963312 0.973849 0.932484
