example_ofxGpuLutCube/bin/data/ofxGpuLutCube/LUT/U48 (bright contrasty).cube
LUT_3D_SIZE 16
0.000000 0.000000 0.000000
0.012207 0.000000 0.000275
0.069337 0.000000 0.001404
0.114015 0.000000 0.001709
0.169131 0.000000 0.000000
0.241032 0.000000 0.000000
0.321202 0.000000 0.000000
0.413550 0.000000 0.000000
0.505150 0.000000 0.000000
0.594903 0.000000 0.000000
0.677821 0.000000 0.000000
0.753079 0.000000 0.000000
0.820493 0.000000 0.000000
0.884642 0.000000 0.000000
0.944640 0.000000 0.000000
0.997392 0.034383 0.000000
0.000000 0.019409 0.001617
0.023102 0.020081 0.000000
0.070771 0.018830 0.000000
0.117647 0.019165 0.000000
0.176486 0.013489 0.000000
0.248386 0.000000 0.000000
0.333806 0.000000 0.000000
0.425757 0.000000 0.000000
0.514549 0.000000 0.000000
0.602350 0.000000 0.000000
0.683284 0.000000 0.000000
0.756558 0.000000 0.000000
0.821927 0.000000 0.000000
0.885222 0.000000 0.000000
0.944732 0.000000 0.000000
0.998571 0.087980 0.000000
0.000000 0.052094 0.001495
0.017945 0.051453 0.000000
0.066041 0.055940 0.000000
0.124697 0.058778 0.000000
0.191775 0.053956 0.000000
0.270390 0.043000 0.000000
0.356054 0.021637 0.000000
0.444007 0.000000 0.000000
0.529900 0.000000 0.000000
0.616114 0.000000 0.000000
0.693233 0.000000 0.000000
0.763058 0.000000 0.000000
0.825589 0.000000 0.000000
0.887755 0.000000 0.000000
0.946136 0.080690 0.000000
0.999461 0.147702 0.000000
0.000000 0.089998 0.003693
0.014038 0.089998 0.002472
0.053986 0.096468 0.000000
0.120363 0.106905 0.000000
0.205600 0.115053 0.000000
0.290227 0.112032 0.000000
0.379828 0.102693 0.000000
0.465736 0.089631 0.000000
0.551293 0.072328 0.000000
0.632380 0.054994 0.000000
0.704128 0.046571 0.000000
0.769192 0.057313 0.000000
0.829831 0.084413 0.000000
0.888182 0.122347 0.000000
0.942626 0.162661 0.000000
0.995227 0.204203 0.000000
0.000000 0.143343 0.002564
0.000000 0.144076 0.001923
0.024048 0.154055 0.000000
0.105379 0.167086 0.000000
0.205203 0.182803 0.000000
0.316960 0.196414 0.000000
0.410620 0.194614 0.000000
0.508049 0.191257 0.000000
0.594873 0.186221 0.000000
0.669703 0.184390 0.000000
0.734890 0.186099 0.000000
0.794949 0.194186 0.000000
0.852262 0.210117 0.000000
0.907317 0.232700 0.000000
0.959045 0.258396 0.000000
0.999590 0.283926 0.000000
0.000000 0.212680 0.000000
0.000000 0.213504 0.000000
0.000000 0.222599 0.000000
0.071748 0.235508 0.000000
0.182437 0.251225 0.000000
0.302831 0.269810 0.000000
0.428443 0.289067 0.000000
0.524071 0.290959 0.000000
0.613611 0.291722 0.000000
0.694820 0.293980 0.000000
0.755062 0.293462 0.000000
0.810697 0.297978 0.000000
0.863279 0.307286 0.000000
0.914519 0.321599 0.000000
0.963531 0.339025 0.000000
0.999635 0.357485 0.000000
0.000000 0.291630 0.000000
0.000000 0.292668 0.000000
0.000000 0.298009 0.000000
0.000000 0.310307 0.000000
0.152804 0.326513 0.000000
0.277867 0.346685 0.000000
0.409949 0.370123 0.000000
0.538262 0.394141 0.000000
0.620813 0.393530 0.000000
0.696071 0.394415 0.000000
0.763027 0.395636 0.000000
0.824735 0.399481 0.000000
0.873472 0.402502 0.000000
0.921294 0.409949 0.000000
0.967895 0.420142 0.000000
0.999679 0.432378 0.000000
0.000000 0.373175 0.000000
0.000000 0.375616 0.000000
0.000000 0.378729 0.000000
0.000000 0.390692 0.000000
0.106111 0.405432 0.000000
0.248905 0.422400 0.000000
0.374823 0.441352 0.000000
0.502678 0.463752 0.000000
0.620905 0.488655 0.000000
0.692592 0.487709 0.000000
0.758022 0.487617 0.000000
0.818967 0.489326 0.000000
0.874937 0.491524 0.000000
0.925078 0.494118 0.000000
0.968963 0.497322 0.000000
0.999690 0.505284 0.000000
0.000000 0.443824 0.000000
0.000000 0.443397 0.000000
0.000000 0.443671 0.000000
0.000000 0.454383 0.000000
0.000000 0.469398 0.000000
0.209964 0.487404 0.000000
0.341772 0.508415 0.000000
0.466957 0.531640 0.000000
0.587304 0.557458 0.000000
0.694545 0.582605 0.000000
0.759487 0.582086 0.000000
0.819394 0.581781 0.000000
0.874632 0.581353 0.000000
0.926635 0.581292 0.000000
0.976318 0.582147 0.000000
0.999763 0.582449 0.000000
0.000000 0.528557 0.000000
0.000000 0.526726 0.000000
0.000000 0.525353 0.000000
0.000000 0.530419 0.000000
0.000000 0.542962 0.000000
0.174899 0.558709 0.000000
0.316594 0.577539 0.000000
0.438392 0.597620 0.000000
0.551751 0.619532 0.000000
0.657588 0.642145 0.000000
0.753445 0.661830 0.000000
0.811276 0.658442 0.000000
0.865690 0.655421 0.000000
0.918273 0.653895 0.000000
0.968658 0.652949 0.000000
0.999687 0.651952 0.000000
0.000000 0.612207 0.000000
0.000000 0.610956 0.000000
0.000000 0.609247 0.000000
0.000000 0.609979 0.000000
0.000000 0.619715 0.000000
0.147616 0.631800 0.000000
0.298283 0.646143 0.000000
0.416602 0.662013 0.000000
0.523217 0.679438 0.000000
0.622553 0.697292 0.000000
0.717311 0.715328 0.000000
0.803616 0.728176 0.000000
0.858549 0.724025 0.000000
0.911040 0.720882 0.000000
0.961639 0.718044 0.000000
0.999616 0.715053 0.000000
0.000000 0.690089 0.000000
0.000000 0.688991 0.000000
0.000000 0.687556 0.000000
0.000000 0.685389 0.000000
0.000000 0.691981 0.000000
0.135225 0.700740 0.000000
0.287846 0.711269 0.000000
0.400793 0.723232 0.000000
0.501213 0.736599 0.000000
0.594873 0.750332 0.000000
0.684504 0.764401 0.000000
0.771695 0.778164 0.000000
0.852018 0.786160 0.000000
0.905486 0.780941 0.000000
0.956115 0.776791 0.000000
0.999561 0.773166 0.000000
0.000000 0.754208 0.000000
0.000000 0.754055 0.000000
0.000000 0.754391 0.000000
0.000000 0.754208 0.000000
0.000000 0.758877 0.000000
0.155062 0.766812 0.000000
0.293980 0.776455 0.000000
0.399603 0.786770 0.000000
0.494514 0.798245 0.000000
0.583246 0.809659 0.000000
0.669276 0.821439 0.000000
0.753048 0.832364 0.000000
0.836881 0.842649 0.000000
0.911925 0.845029 0.000000
0.961089 0.835935 0.000000
0.999611 0.827565 0.000000
0.000000 0.831113 0.079103
0.000000 0.826932 0.058503
0.000000 0.824796 0.051637
0.000000 0.823789 0.055848
0.002380 0.825223 0.056062
0.209049 0.830716 0.021241
0.317876 0.837308 0.000000
0.410193 0.844572 0.000000
0.496010 0.852689 0.000000
0.577111 0.860380 0.000000
0.656580 0.868376 0.000000
0.734554 0.875608 0.000000
0.812924 0.882353 0.000000
0.891173 0.887510 0.000000
0.960601 0.885588 0.000000
0.999606 0.874138 0.000000
0.000000 0.892058 0.244938
0.000000 0.889006 0.233890
0.029664 0.887144 0.229252
0.128054 0.886137 0.229801
0.203281 0.885771 0.234409
0.287327 0.889189 0.226017
0.365270 0.893553 0.215000
0.439307 0.898131 0.197543
0.512078 0.903227 0.172671
0.583398 0.908171 0.131899
0.654810 0.913237 0.050965
0.726436 0.917998 0.000000
0.799496 0.922545 0.000000
0.873259 0.925963 0.000000
0.947845 0.928130 0.000000
0.999478 0.922934 0.000000
0.283487 0.946108 0.408782
0.281433 0.944054 0.399729
0.291942 0.942857 0.396087
0.315645 0.942273 0.397391
0.348091 0.942118 0.402271
0.391531 0.943602 0.400194
0.442162 0.946274 0.393376
0.495926 0.949281 0.383202
0.552774 0.952656 0.370203
0.611708 0.956089 0.351577
0.672938 0.959523 0.325207
0.736165 0.962593 0.286780
0.802004 0.965538 0.231884
0.869753 0.967627 0.124990
0.939898 0.968917 0.000000
0.999399 0.968985 0.000000
0.000000 0.000000 0.017823
0.017426 0.000000 0.019959
0.064271 0.000000 0.013428
0.109926 0.000000 0.011078
0.163607 0.001068 0.012390
0.235447 0.000000 0.009857
0.319371 0.000000 0.005921
0.410529 0.000000 0.000000
0.500145 0.000000 0.000000
0.589807 0.000000 0.000000
0.673243 0.000000 0.000000
0.748257 0.000000 0.000000
0.815183 0.000000 0.000000
0.879545 0.000000 0.000000
0.939544 0.000000 0.000000
0.993625 0.002206 0.000000
0.000000 0.020111 0.020386
0.022217 0.019959 0.018311
0.064851 0.020966 0.015900
0.111818 0.022339 0.014069
0.171908 0.017884 0.011841
0.246159 0.003723 0.008484
0.332280 0.000000 0.004273
0.422522 0.000000 0.000000
0.510979 0.000000 0.000000
0.600305 0.000000 0.000000
0.681239 0.000000 0.000000
0.753750 0.000000 0.000000
0.818387 0.000000 0.000000
0.881346 0.000000 0.000000
0.940185 0.000000 0.000000
0.994538 0.066469 0.000000
0.007324 0.056947 0.023682
0.023377 0.053773 0.020294
0.066194 0.057893 0.014130
0.123415 0.059236 0.011749
0.190982 0.055512 0.009155
0.269871 0.043549 0.005097
0.355169 0.018189 0.000000
0.443030 0.000000 0.000000
0.531762 0.000000 0.000000
0.616938 0.000000 0.000000
0.692378 0.000000 0.000000
0.760708 0.000000 0.000000
0.823117 0.000000 0.000000
0.884581 0.000000 0.000000
0.942046 0.058595 0.000000
0.995735 0.133220 0.000000
0.000000 0.100587 0.021515
0.014038 0.097047 0.021668
0.053162 0.100740 0.016724
0.123293 0.110231 0.006439
0.207828 0.114870 0.000000
0.294408 0.110414 0.000000
0.382300 0.099916 0.000000
0.469642 0.085054 0.000000
0.554894 0.065400 0.000000
0.634607 0.044068 0.000000
0.705623 0.032563 0.000000
0.770016 0.043305 0.000000
0.831632 0.075502 0.000000
0.889403 0.116152 0.000000
0.942962 0.156344 0.000000
0.993871 0.197615 0.000000
0.000000 0.151492 0.016297
0.000000 0.149844 0.017060
0.023743 0.153750 0.012848
0.102419 0.164523 0.001434
0.199496 0.177615 0.000000
0.306249 0.187564 0.000000
0.400580 0.185672 0.000000
0.498787 0.181735 0.000000
0.582818 0.176059 0.000000
0.658686 0.173068 0.000000
0.725856 0.174594 0.000000
0.787808 0.183291 0.000000
0.846647 0.200229 0.000000
0.902373 0.223423 0.000000
0.954711 0.250126 0.000000
0.999547 0.277498 0.000000
0.000000 0.219333 0.003906
0.000000 0.218387 0.004425
0.000000 0.220249 0.001495
0.069795 0.231968 0.000000
0.178592 0.247196 0.000000
0.298222 0.265141 0.000000
0.419501 0.280430 0.000000
0.514305 0.281224 0.000000
0.604578 0.281651 0.000000
0.686641 0.283726 0.000000
0.747219 0.283818 0.000000
0.804471 0.289494 0.000000
0.858152 0.299504 0.000000
0.909667 0.313970 0.000000
0.959106 0.331792 0.000000
0.999591 0.352065 0.000000
0.000000 0.298558 0.000000
0.000000 0.298589 0.000000
0.000000 0.297429 0.000000
0.000000 0.308629 0.000000
0.151064 0.323613 0.000000
0.273716 0.342412 0.000000
0.403571 0.363684 0.000000
0.529046 0.384558 0.000000
0.613733 0.385016 0.000000
0.690150 0.386481 0.000000
0.757687 0.387823 0.000000
0.818357 0.391485 0.000000
0.867918 0.394995 0.000000
0.916106 0.402777 0.000000
0.963134 0.413428 0.000000
0.999631 0.427296 0.000000
0.000000 0.377234 0.000000
0.000000 0.378058 0.000000
0.000000 0.375860 0.000000
0.000000 0.384833 0.000000
0.103578 0.398901 0.000000
0.243626 0.416175 0.000000
0.369848 0.435981 0.000000
0.498054 0.458656 0.000000
0.615686 0.482246 0.000000
0.687892 0.481300 0.000000
0.753689 0.481300 0.000000
0.814969 0.483467 0.000000
0.871611 0.486305 0.000000
0.920989 0.488808 0.000000
0.965393 0.492592 0.000000
0.999654 0.500644 0.000000
0.000000 0.451972 0.000000
0.000000 0.450904 0.000000
0.000000 0.449165 0.000000
0.000000 0.454414 0.000000
0.002564 0.468269 0.000000
0.209232 0.485725 0.000000
0.340215 0.506554 0.000000
0.464851 0.529534 0.000000
0.585168 0.554681 0.000000
0.691615 0.578759 0.000000
0.756710 0.578180 0.000000
0.816739 0.578088 0.000000
0.872221 0.577752 0.000000
0.924804 0.578607 0.000000
0.975311 0.580407 0.000000
0.999753 0.581767 0.000000
0.000000 0.533043 0.000000
0.000000 0.531579 0.000000
0.000000 0.529534 0.000000
0.000000 0.530877 0.000000
0.000000 0.543175 0.000000
0.176059 0.558404 0.000000
0.315282 0.576287 0.000000
0.436652 0.595666 0.000000
0.549340 0.616999 0.000000
0.655085 0.639185 0.000000
0.750423 0.658045 0.000000
0.808682 0.655055 0.000000
0.863737 0.652796 0.000000
0.916808 0.652033 0.000000
0.967864 0.651698 0.000000
0.999679 0.651667 0.000000
0.000000 0.615381 0.000000
0.000000 0.614679 0.000000
0.000000 0.612879 0.000000
0.000000 0.610529 0.000000
0.000000 0.619684 0.000000
0.148043 0.631067 0.000000
0.296971 0.644556 0.000000
0.414618 0.659876 0.000000
0.521050 0.677150 0.000000
0.620386 0.694911 0.000000
0.714992 0.712795 0.000000
0.801541 0.725582 0.000000
0.856626 0.721889 0.000000
0.909575 0.719142 0.000000
0.960540 0.716793 0.000000
0.999605 0.714346 0.000000
0.000000 0.691493 0.000000
0.000000 0.690547 0.000000
0.000000 0.688869 0.000000
0.000000 0.686549 0.000000
0.000000 0.691096 0.000000
0.135988 0.699886 0.000000
0.287175 0.710536 0.000000
0.399756 0.722469 0.000000
0.499855 0.735409 0.000000
0.593256 0.748898 0.000000
0.682673 0.762722 0.000000
0.769894 0.776364 0.000000
0.849973 0.784085 0.000000
0.903288 0.778897 0.000000
0.953857 0.774746 0.000000
0.999539 0.771393 0.000000
0.000000 0.757168 0.000000
0.000000 0.756863 0.000000
0.000000 0.756893 0.000000
0.000000 0.756313 0.000000
0.000000 0.759060 0.000000
0.156222 0.766873 0.000000
0.294285 0.776516 0.000000
0.399420 0.786801 0.000000
0.493874 0.798093 0.000000
0.582422 0.809384 0.000000
0.668330 0.821042 0.000000
0.752163 0.831968 0.000000
0.836210 0.842344 0.000000
0.911376 0.844694 0.000000
0.960815 0.835935 0.000000
0.999608 0.827777 0.000000
0.000000 0.832578 0.115969
0.000000 0.828702 0.102388
0.000000 0.826658 0.097414
0.000000 0.825559 0.099001
0.014008 0.825834 0.103548
0.210849 0.831113 0.083131
0.318181 0.837461 0.047822
0.409949 0.844572 0.000000
0.495216 0.852537 0.000000
0.576226 0.860136 0.000000
0.655573 0.868009 0.000000
0.733700 0.875303 0.000000
0.812253 0.882200 0.000000
0.890776 0.887480 0.000000
0.960449 0.885649 0.000000
0.999604 0.874410 0.000000
0.000000 0.892821 0.261112
0.000000 0.890013 0.251438
0.056245 0.888334 0.247379
0.139071 0.887358 0.247776
0.209903 0.886900 0.252079
0.288975 0.889616 0.246067
0.365942 0.893858 0.235691
0.439246 0.898314 0.219455
0.511467 0.903197 0.196811
0.582574 0.908049 0.161654
0.653834 0.913085 0.103487
0.725612 0.917845 0.000000
0.798703 0.922423 0.000000
0.872618 0.925902 0.000000
0.947539 0.928191 0.000000
0.999475 0.922994 0.000000
0.287022 0.946539 0.418793
0.285300 0.944608 0.410297
0.296044 0.943442 0.406813
0.319230 0.942889 0.408055
0.351420 0.942764 0.412932
0.393150 0.943879 0.413024
0.443197 0.946550 0.406303
0.496439 0.949464 0.396321
0.552738 0.952745 0.383284
0.611336 0.956148 0.365047
0.672324 0.959522 0.339660
0.735341 0.962531 0.302280
0.801090 0.965355 0.249558
0.868841 0.967415 0.155234
0.939110 0.968736 0.000000
0.999391 0.968864 0.000000
0.000000 0.000000 0.066499
0.010559 0.000000 0.066407
0.075013 0.000000 0.057832
0.095308 0.000000 0.044129
0.149477 0.000000 0.042725
0.222721 0.000000 0.035401
0.306584 0.000000 0.033722
0.397101 0.000000 0.028565
0.487587 0.000000 0.019135
0.579522 0.000000 0.007141
0.664240 0.000000 0.000000
0.740871 0.000000 0.000000
0.809445 0.000000 0.000000
0.875853 0.000000 0.000000
0.936889 0.000000 0.000000
0.992118 0.000000 0.000000
0.000000 0.017517 0.067903
0.021973 0.017151 0.061402
0.069001 0.017243 0.054139
0.097322 0.021088 0.046235
0.158694 0.012329 0.041993
0.233860 0.000000 0.039887
0.318883 0.000000 0.034913
0.408820 0.000000 0.027008
0.500145 0.000000 0.016419
0.590600 0.000000 0.002777
0.672511 0.000000 0.000000
0.746548 0.000000 0.000000
0.813138 0.000000 0.000000
0.877775 0.000000 0.000000
0.937591 0.000000 0.000000
0.992971 0.032177 0.000000
0.000000 0.058930 0.057496
0.019287 0.057191 0.054810
0.060914 0.056428 0.052674
0.113313 0.055024 0.048646
0.178805 0.050172 0.044800
0.256962 0.036652 0.039368
0.342473 0.009552 0.031403
0.430549 0.000000 0.021729
0.521599 0.000000 0.009461
0.607507 0.000000 0.000000
0.684138 0.000000 0.000000
0.754025 0.000000 0.000000
0.818448 0.000000 0.000000
0.880949 0.000000 0.000000
0.939452 0.020478 0.000000
0.994047 0.115830 0.000000
0.000000 0.106142 0.057801
0.025025 0.104280 0.057801
0.055268 0.101320 0.053193
0.120943 0.108919 0.042847
0.202213 0.108797 0.036591
0.286198 0.102266 0.030091
0.370428 0.090883 0.020569
0.459541 0.073274 0.008606
0.545403 0.047333 0.000000
0.626001 0.017700 0.000000
0.698207 0.002228 0.000000
0.764004 0.009003 0.000000
0.827298 0.047913 0.000000
0.885893 0.096010 0.000000
0.940063 0.141329 0.000000
0.991605 0.185379 0.000000
0.000000 0.160830 0.052338
0.000000 0.159396 0.049561
0.029572 0.156405 0.049531
0.100984 0.164401 0.038941
0.199069 0.176577 0.018524
0.301701 0.181491 0.003418
0.396338 0.178042 0.000000
0.491188 0.172488 0.000000
0.573480 0.165377 0.000000
0.650385 0.161288 0.000000
0.718990 0.162051 0.000000
0.782925 0.171603 0.000000
0.842985 0.189181 0.000000
0.899565 0.213596 0.000000
0.952697 0.241581 0.000000
0.999527 0.270676 0.000000
0.000000 0.229679 0.039460
0.000000 0.228794 0.039887
0.000000 0.226017 0.040558
0.072175 0.232425 0.029786
0.177920 0.247166 0.005219
0.298192 0.264256 0.000000
0.415839 0.275486 0.000000
0.511254 0.275029 0.000000
0.601953 0.274723 0.000000
0.679957 0.274784 0.000000
0.742031 0.275608 0.000000
0.800320 0.281621 0.000000
0.854978 0.292180 0.000000
0.907134 0.307408 0.000000
0.957214 0.326116 0.000000
0.999572 0.347325 0.000000
0.000000 0.308232 0.019837
0.000000 0.308263 0.020508
0.000000 0.305486 0.021637
0.000000 0.309117 0.012421
0.151583 0.324071 0.000000
0.273442 0.342718 0.000000
0.404150 0.363439 0.000000
0.526818 0.380713 0.000000
0.611688 0.380255 0.000000
0.688472 0.381384 0.000000
0.756497 0.382940 0.000000
0.814786 0.385779 0.000000
0.864958 0.389837 0.000000
0.913725 0.397955 0.000000
0.961273 0.409308 0.000000
0.999613 0.424021 0.000000
0.000000 0.386084 0.000000
0.000000 0.387030 0.000000
0.000000 0.384771 0.000000
0.000000 0.385321 0.000000
0.108003 0.399176 0.000000
0.244114 0.416327 0.000000
0.369512 0.436042 0.000000
0.498238 0.458350 0.000000
0.614099 0.479377 0.000000
0.686763 0.478340 0.000000
0.752834 0.478370 0.000000
0.814298 0.480537 0.000000
0.871031 0.483619 0.000000
0.918853 0.485603 0.000000
0.963653 0.489754 0.000000
0.999637 0.498153 0.000000
0.000000 0.460029 0.000000
0.000000 0.458839 0.000000
0.000000 0.456947 0.000000
0.000000 0.454749 0.000000
0.015442 0.468574 0.000000
0.210605 0.485969 0.000000
0.340307 0.506645 0.000000
0.464485 0.529534 0.000000
0.585168 0.554498 0.000000
0.690455 0.576959 0.000000
0.755795 0.576379 0.000000
0.816007 0.576196 0.000000
0.871519 0.576104 0.000000
0.924346 0.577295 0.000000
0.975036 0.579492 0.000000
0.999750 0.580972 0.000000
0.000000 0.539544 0.000000
0.000000 0.538323 0.000000
0.000000 0.536339 0.000000
0.000000 0.533562 0.000000
0.000000 0.543755 0.000000
0.179324 0.558984 0.000000
0.316167 0.576623 0.000000
0.436286 0.596063 0.000000
0.549126 0.617273 0.000000
0.655116 0.639399 0.000000
0.749447 0.656916 0.000000
0.807950 0.653895 0.000000
0.863188 0.651789 0.000000
0.916381 0.651240 0.000000
0.967559 0.651240 0.000000
0.999676 0.651390 0.000000
0.000000 0.620447 0.000000
0.000000 0.619867 0.000000
0.000000 0.618189 0.000000
0.000000 0.615442 0.000000
0.000000 0.619745 0.000000
0.152468 0.631189 0.000000
0.297765 0.644800 0.000000
0.414496 0.660273 0.000000
0.520409 0.677394 0.000000
0.619745 0.694942 0.000000
0.714748 0.712734 0.000000
0.801144 0.725063 0.000000
0.856016 0.721370 0.000000
0.909117 0.718746 0.000000
0.960235 0.716548 0.000000
0.999602 0.714222 0.000000
0.000000 0.694881 0.000000
0.000000 0.693996 0.000000
0.000000 0.692317 0.000000
0.000000 0.689998 0.000000
0.000000 0.690822 0.000000
0.139193 0.699763 0.000000
0.287999 0.710475 0.000000
0.399512 0.722377 0.000000
0.499153 0.735409 0.000000
0.592401 0.748928 0.000000
0.682002 0.762753 0.000000
0.769497 0.776425 0.000000
0.849577 0.783810 0.000000
0.902770 0.778653 0.000000
0.953429 0.774472 0.000000
0.999534 0.771209 0.000000
0.000000 0.760037 0.000000
0.000000 0.759731 0.000000
0.000000 0.759579 0.003937
0.000000 0.758907 0.010407
0.000000 0.758785 0.016388
0.158297 0.766690 0.000000
0.294194 0.776333 0.000000
0.398779 0.786648 0.000000
0.493019 0.798062 0.000000
0.581598 0.809476 0.000000
0.667536 0.821225 0.000000
0.751553 0.832242 0.000000
0.835874 0.842649 0.000000
0.911009 0.844755 0.000000
0.960388 0.836057 0.000000
0.999604 0.827960 0.000000
0.000000 0.834073 0.162600
0.000000 0.830350 0.151980
0.000000 0.828428 0.148653
0.000000 0.827298 0.149599
0.041382 0.826719 0.154238
0.211582 0.830900 0.144686
0.317967 0.837308 0.126558
0.409125 0.844480 0.098573
0.494362 0.852506 0.047730
0.575189 0.860166 0.000000
0.654566 0.868101 0.000000
0.732784 0.875425 0.000000
0.811429 0.882383 0.000000
0.890318 0.887633 0.000000
0.959991 0.885618 0.000000
0.999600 0.874621 0.000000
0.003204 0.893584 0.286534
0.010254 0.890867 0.277317
0.078767 0.889220 0.273503
0.149966 0.888304 0.273899
0.216922 0.887785 0.277562
0.288884 0.889403 0.276127
0.365393 0.893736 0.267582
0.438514 0.898192 0.253788
0.510338 0.903075 0.234653
0.581323 0.907988 0.206729
0.652674 0.913085 0.165713
0.724392 0.917906 0.091218
0.797635 0.922545 0.000000
0.871733 0.926055 0.000000
0.946990 0.928344 0.000000
0.999470 0.923026 0.000000
0.291072 0.946970 0.434516
0.289361 0.945039 0.426206
0.300076 0.943935 0.422875
0.322934 0.943382 0.424028
0.354814 0.943256 0.428928
0.393753 0.943756 0.432297
0.443312 0.946428 0.426109
0.496099 0.949372 0.416816
0.552122 0.952654 0.404752
0.610479 0.956117 0.388037
0.671285 0.959491 0.364997
0.734180 0.962561 0.330988
0.799841 0.965387 0.283094
0.867624 0.967477 0.204964
0.938108 0.968798 0.000000
0.999381 0.968955 0.000000
0.000000 0.000000 0.131594
0.000000 0.000000 0.128328
0.071595 0.000000 0.116793
0.125582 0.000000 0.102815
0.140291 0.000000 0.079347
0.201022 0.000000 0.078370
0.288701 0.000000 0.075135
0.381353 0.000000 0.065675
0.472663 0.000000 0.062928
0.565393 0.000000 0.057954
0.651575 0.000000 0.046204
0.730373 0.000000 0.028046
0.801877 0.000000 0.005005
0.870298 0.000000 0.000000
0.932738 0.000000 0.000000
0.989116 0.000000 0.000000
0.000000 0.009308 0.129335
0.014252 0.014069 0.120516
0.069490 0.013184 0.110964
0.121523 0.010651 0.100435
0.145602 0.015473 0.082185
0.214847 0.001282 0.081788
0.302281 0.000000 0.076143
0.393439 0.000000 0.064942
0.485176 0.000000 0.066377
0.576532 0.000000 0.057984
0.659876 0.000000 0.044068
0.736294 0.000000 0.024109
0.805997 0.000000 0.000366
0.872282 0.000000 0.000000
0.933471 0.000000 0.000000
0.990059 0.000000 0.000000
0.000000 0.058747 0.119142
0.000000 0.054597 0.114351
0.053498 0.051911 0.108644
0.121431 0.048707 0.101656
0.159762 0.049928 0.089876
0.239261 0.029358 0.085969
0.325628 0.000000 0.078706
0.414679 0.000000 0.075593
0.506035 0.000000 0.066743
0.593286 0.000000 0.054749
0.671778 0.000000 0.037751
0.743984 0.000000 0.015808
0.811460 0.000000 0.000000
0.875700 0.000000 0.000000
0.935454 0.000000 0.000000
0.991136 0.085895 0.000000
0.000000 0.108553 0.109621
0.000000 0.107240 0.106996
0.047395 0.106813 0.104372
0.116030 0.107332 0.102113
0.188418 0.103700 0.096407
0.268132 0.096315 0.089754
0.353918 0.082612 0.081941
0.443610 0.060853 0.072663
0.530266 0.025513 0.060761
0.612512 0.000000 0.044770
0.686732 0.000000 0.023865
0.755367 0.000000 0.000000
0.820920 0.000458 0.000000
0.880888 0.062928 0.000000
0.936248 0.118471 0.000000
0.988849 0.167657 0.000000
0.000000 0.167391 0.103700
0.000000 0.167483 0.104036
0.055024 0.167575 0.105348
0.106355 0.164370 0.099702
0.197116 0.175265 0.086213
0.295354 0.174990 0.079164
0.388861 0.169619 0.072480
0.476295 0.161837 0.060090
0.559808 0.153079 0.043336
0.638300 0.146822 0.021637
0.708919 0.146365 0.000000
0.775662 0.156069 0.000000
0.837339 0.174136 0.000000
0.895140 0.199802 0.000000
0.949248 0.229465 0.000000
0.999492 0.260192 0.000000
0.000000 0.242741 0.112459
0.000000 0.243076 0.111391
0.000000 0.240940 0.098573
0.086305 0.235569 0.098116
0.177310 0.246677 0.084382
0.297734 0.263401 0.056733
0.411536 0.269291 0.032227
0.507286 0.267643 0.018921
0.598505 0.266361 0.002106
0.669703 0.263645 0.000000
0.733761 0.264836 0.000000
0.793759 0.271305 0.000000
0.849760 0.282444 0.000000
0.903014 0.298436 0.000000
0.954009 0.317876 0.000000
0.999540 0.340354 0.000000
0.000000 0.322850 0.091676
0.000000 0.322667 0.092531
0.000000 0.319860 0.092836
0.029603 0.314824 0.092744
0.154940 0.323674 0.079377
0.272679 0.342321 0.046326
0.404242 0.362921 0.000000
0.522881 0.375372 0.000000
0.608362 0.374121 0.000000
0.685939 0.375036 0.000000
0.754696 0.377111 0.000000
0.809018 0.378180 0.000000
0.860288 0.382971 0.000000
0.909941 0.391821 0.000000
0.958343 0.403876 0.000000
0.999583 0.419284 0.000000
0.000000 0.399786 0.079927
0.000000 0.400977 0.081300
0.000000 0.398627 0.081941
0.000000 0.393744 0.082673
0.116976 0.398657 0.070253
0.244602 0.415900 0.029480
0.368292 0.435554 0.000000
0.498054 0.457771 0.000000
