example_ofxGpuLutCube/bin/data/ofxGpuLutCube/LUT/U49 (bright greenish teal).cube
LUT_3D_SIZE 6
0.078798 0.074861 0.049287
0.215915 0.092561 0.051484
0.428473 0.122286 0.045960
0.654749 0.193240 0.079103
0.807034 0.310887 0.194064
0.915627 0.465404 0.373965
0.100313 0.136934 0.067262
0.152773 0.138949 0.078157
0.392035 0.198154 0.057649
0.630854 0.260105 0.102449
0.782712 0.343297 0.204166
0.896897 0.473408 0.369697
0.182193 0.307622 0.141390
0.290410 0.314549 0.188968
0.389899 0.344427 0.218906
0.631922 0.411505 0.198062
0.780270 0.467536 0.299596
0.890835 0.559971 0.447848
0.342931 0.488808 0.292119
0.417029 0.489204 0.330205
0.507439 0.494453 0.390845
0.588037 0.535485 0.421424
0.756374 0.595331 0.448096
0.878184 0.646828 0.522078
0.510399 0.629694 0.465003
0.557488 0.635523 0.496010
0.629175 0.645747 0.541772
0.689967 0.665461 0.590021
0.752346 0.699001 0.622370
0.865748 0.735469 0.642583
0.711158 0.778290 0.665911
0.714445 0.767500 0.661550
0.759639 0.771629 0.688563
0.812360 0.782108 0.725495
0.868515 0.809015 0.766393
0.942073 0.846849 0.816769
0.067903 0.088411 0.078767
0.142702 0.079072 0.085817
0.356176 0.092897 0.104128
0.600885 0.196963 0.154574
0.775570 0.319524 0.244175
0.898453 0.471751 0.399293
0.063355 0.148562 0.100343
0.165408 0.162448 0.114260
0.363134 0.192935 0.126955
0.604334 0.264439 0.174624
0.767330 0.359503 0.261723
0.883165 0.479211 0.394886
0.098848 0.312902 0.157198
0.250187 0.323339 0.193454
0.372137 0.337621 0.234531
0.603449 0.395300 0.223606
0.758206 0.460517 0.322484
0.878430 0.557437 0.458838
0.283177 0.496407 0.285679
0.386725 0.497505 0.330571
0.505089 0.500237 0.398047
0.580621 0.533196 0.429084
0.747463 0.591272 0.453803
0.874890 0.649369 0.536177
0.493904 0.639612 0.468086
0.541527 0.641840 0.494911
0.627924 0.651240 0.548486
0.690700 0.667323 0.596735
0.752651 0.700954 0.627863
0.868905 0.738480 0.648765
0.700212 0.782474 0.663745
0.706292 0.772485 0.660980
0.759398 0.776305 0.693060
0.813758 0.785398 0.728664
0.868918 0.809816 0.768879
0.942883 0.847661 0.818690
0.000000 0.142275 0.193057
0.101778 0.073457 0.183749
0.285252 0.071992 0.179324
0.576928 0.140963 0.250675
0.743801 0.323003 0.326207
0.871254 0.497659 0.466545
0.000000 0.205173 0.203677
0.088380 0.161288 0.190768
0.314641 0.158877 0.210330
0.564050 0.239170 0.265843
0.725765 0.381903 0.353796
0.860152 0.496619 0.454713
0.000000 0.314122 0.238804
0.105470 0.326116 0.253269
0.387152 0.373877 0.312993
0.565454 0.398871 0.329992
0.729580 0.471077 0.399878
0.864401 0.567100 0.504228
0.160098 0.503410 0.346471
0.279728 0.507988 0.357031
0.478431 0.523522 0.416754
0.577661 0.543389 0.464820
0.739101 0.590814 0.479042
0.868509 0.654129 0.568499
0.427741 0.650599 0.474922
0.477546 0.654139 0.491524
0.601526 0.663813 0.552270
0.692683 0.674128 0.611139
0.754269 0.706661 0.642725
0.875505 0.742691 0.659718
0.652153 0.791374 0.651219
0.658640 0.782345 0.646135
0.733306 0.783672 0.685918
0.811836 0.792660 0.733640
0.871238 0.812997 0.777285
0.948250 0.852181 0.827269
0.000000 0.223972 0.357397
0.000000 0.125612 0.357305
0.276066 0.032288 0.342596
0.517906 0.064454 0.360815
0.749111 0.287236 0.436835
0.866768 0.489002 0.523641
0.000000 0.262150 0.375769
0.000000 0.207645 0.356115
0.261540 0.141390 0.355138
0.522728 0.187503 0.375616
0.733059 0.346838 0.444129
0.849272 0.496629 0.516911
0.000000 0.374029 0.376837
0.000000 0.375280 0.381048
0.292760 0.357794 0.397223
0.540337 0.377081 0.427344
0.712032 0.467842 0.479713
0.843971 0.575721 0.561472
0.000000 0.516930 0.443580
0.084627 0.520134 0.449744
0.372747 0.534203 0.473274
0.588434 0.572045 0.526024
0.722164 0.595758 0.546502
0.864085 0.655391 0.609807
0.258946 0.669337 0.541985
0.344884 0.671473 0.547173
0.500511 0.677852 0.564202
0.673152 0.692531 0.620691
0.753689 0.712825 0.662409
0.884216 0.745729 0.675850
0.531568 0.806492 0.649881
0.543544 0.798264 0.641239
0.646501 0.799029 0.668989
0.781870 0.805692 0.730672
0.872936 0.817484 0.789472
0.957488 0.859898 0.842265
0.000000 0.327611 0.559533
0.000000 0.279057 0.561089
0.000000 0.026581 0.564019
0.525261 0.000000 0.560113
0.742885 0.207370 0.568811
0.878492 0.469592 0.611647
0.000000 0.327520 0.572930
0.000000 0.278416 0.565576
0.000000 0.124422 0.565362
0.515129 0.145907 0.561761
0.730251 0.286046 0.567376
0.861871 0.480834 0.603455
0.000000 0.453620 0.562982
0.000000 0.435096 0.559777
0.000000 0.382879 0.558953
0.493721 0.358770 0.567254
0.716640 0.436805 0.583825
0.858732 0.565608 0.633068
0.000000 0.577417 0.588678
0.000000 0.576349 0.588861
0.186191 0.572564 0.588006
0.522545 0.564782 0.601831
0.718868 0.588586 0.626307
0.863202 0.656455 0.672161
0.000000 0.698116 0.635676
0.159457 0.698329 0.638483
0.404944 0.700649 0.647913
0.596612 0.708278 0.666804
0.759548 0.729244 0.702327
0.890159 0.747998 0.722347
0.317924 0.825250 0.714214
0.347167 0.819191 0.708137
0.480695 0.822509 0.721120
0.652213 0.825343 0.733975
0.848828 0.834001 0.791259
0.971303 0.871614 0.866253
0.000000 0.438789 0.758609
0.000000 0.438775 0.758734
0.000000 0.289306 0.766296
0.349846 0.000000 0.773881
0.767287 0.126695 0.771634
0.936879 0.455855 0.764474
0.000000 0.441665 0.763741
0.000000 0.440606 0.762320
0.000000 0.283628 0.766945
0.330041 0.000697 0.767515
0.746337 0.209954 0.754547
0.911591 0.444376 0.742274
0.000000 0.449236 0.770445
0.000000 0.460391 0.771124
0.000000 0.392069 0.771362
0.250617 0.292329 0.771738
0.734819 0.410896 0.760274
0.908116 0.542423 0.758561
0.000000 0.629097 0.780813
0.000000 0.626298 0.780884
0.000000 0.603142 0.780611
0.339131 0.574310 0.770963
0.706174 0.576758 0.772660
0.905823 0.644143 0.781173
0.000000 0.766297 0.806693
0.000000 0.765942 0.807195
0.000169 0.763197 0.807442
0.298723 0.756073 0.802996
0.702596 0.736997 0.804559
0.925435 0.755753 0.827025
0.000000 0.878454 0.839447
0.000000 0.876713 0.836390
0.003632 0.877205 0.837960
0.426667 0.869526 0.841368
0.711205 0.867751 0.856067
0.975099 0.897583 0.916696
