example_ofxGpuLutCube/bin/data/ofxGpuLutCube/LUT/U49 (bright greenish teal).cube
LUT_3D_SIZE 16
0.078798 0.074861 0.049287
0.094148 0.078553 0.051240
0.149599 0.085389 0.052308
0.215915 0.092561 0.051484
0.279850 0.100282 0.049775
0.356970 0.110414 0.047303
0.428473 0.122286 0.045960
0.514275 0.140383 0.048524
0.587518 0.163790 0.058503
0.654749 0.193240 0.079103
0.713313 0.228519 0.109804
0.763577 0.268223 0.149081
0.807034 0.310887 0.194064
0.848722 0.361730 0.251072
0.886320 0.417487 0.316289
0.915627 0.465404 0.373965
0.083833 0.086946 0.053712
0.093263 0.087861 0.055848
0.132387 0.098024 0.053834
0.191897 0.106874 0.052857
0.259312 0.115389 0.051026
0.335027 0.125490 0.049195
0.423438 0.139925 0.048219
0.510643 0.158816 0.051881
0.581598 0.179416 0.062867
0.651087 0.207431 0.083619
0.709499 0.240360 0.114504
0.759243 0.277165 0.152804
0.802152 0.316533 0.195590
0.844297 0.365637 0.251865
0.882597 0.420203 0.316564
0.914351 0.470810 0.378107
0.090974 0.107973 0.059236
0.104646 0.103853 0.063416
0.115206 0.106722 0.063844
0.170626 0.123201 0.057313
0.237369 0.135378 0.052888
0.325383 0.151553 0.051759
0.415503 0.168032 0.052369
0.499733 0.185275 0.058015
0.573022 0.204379 0.070130
0.645808 0.231388 0.092775
0.703822 0.260563 0.123232
0.753017 0.293339 0.159487
0.795285 0.328344 0.200015
0.838926 0.375494 0.256016
0.877897 0.427924 0.320317
0.911917 0.480011 0.385033
0.100313 0.136934 0.067262
0.118776 0.132967 0.072969
0.133455 0.130922 0.078645
0.152773 0.138949 0.078157
0.226780 0.163821 0.068086
0.308324 0.182406 0.055299
0.392035 0.198154 0.057649
0.477394 0.216007 0.065156
0.558770 0.236759 0.079713
0.630854 0.260105 0.102449
0.688472 0.283940 0.130739
0.737423 0.311223 0.164187
0.782712 0.343297 0.204166
0.825376 0.383307 0.254459
0.862394 0.426246 0.309361
0.896897 0.473408 0.369697
0.113893 0.176669 0.079622
0.139528 0.178073 0.088869
0.167514 0.180240 0.099611
0.191562 0.186709 0.108461
0.221408 0.198795 0.109468
0.315953 0.232853 0.100465
0.411688 0.255589 0.081910
0.498329 0.274662 0.084352
0.576257 0.293614 0.105806
0.645869 0.315587 0.134066
0.700832 0.336889 0.165560
0.750057 0.363165 0.203586
0.795529 0.395575 0.249393
0.837247 0.435004 0.303899
0.873381 0.476234 0.360571
0.902687 0.511689 0.408881
0.140108 0.236057 0.102846
0.172152 0.241825 0.117098
0.207523 0.245060 0.130556
0.239506 0.243931 0.147097
0.265721 0.253849 0.151980
0.298344 0.264652 0.153536
0.394965 0.300938 0.150515
0.497993 0.329808 0.136812
0.575250 0.345617 0.128298
0.640711 0.362890 0.158206
0.693568 0.379431 0.190127
0.743526 0.402838 0.229099
0.788113 0.430274 0.273045
0.829099 0.464088 0.324620
0.865599 0.500420 0.378180
0.897050 0.534591 0.427245
0.182193 0.307622 0.141390
0.215274 0.313451 0.156802
0.254093 0.316075 0.173281
0.290410 0.314549 0.188968
0.320470 0.313146 0.210117
0.353368 0.331334 0.212863
0.389899 0.344427 0.218906
0.478309 0.378302 0.221683
0.567956 0.400488 0.205753
0.631922 0.411505 0.198062
0.686610 0.424720 0.217014
0.736507 0.444587 0.256931
0.780270 0.467536 0.299596
0.820645 0.496162 0.348486
0.857328 0.527825 0.399054
0.890835 0.559971 0.447848
0.235843 0.377081 0.189822
0.268040 0.385382 0.207370
0.310185 0.391058 0.229435
0.346807 0.390967 0.245151
0.380377 0.388373 0.263645
0.403754 0.388495 0.277867
0.429389 0.399634 0.275273
0.458015 0.406409 0.277775
0.530114 0.433326 0.281895
0.612207 0.456550 0.273533
0.672847 0.469978 0.272709
0.726406 0.483650 0.281621
0.769467 0.502037 0.322667
0.808682 0.524346 0.366522
0.844663 0.549554 0.411597
0.881342 0.581307 0.462294
0.274601 0.420294 0.225620
0.295598 0.421881 0.235874
0.332830 0.427314 0.257023
0.368780 0.429603 0.273991
0.405493 0.431556 0.293706
0.437415 0.433234 0.316991
0.465064 0.444892 0.332311
0.496193 0.461769 0.339269
0.528222 0.474372 0.349859
0.592462 0.502678 0.364904
0.665949 0.527428 0.367773
0.725429 0.545037 0.375982
0.772305 0.558221 0.387427
0.812558 0.575189 0.418189
0.848783 0.597131 0.460548
0.882591 0.619036 0.498827
0.342931 0.488808 0.292119
0.357427 0.487312 0.298314
0.384833 0.488441 0.313573
0.417029 0.489204 0.330205
0.448646 0.489631 0.345892
0.479957 0.490883 0.365850
0.507439 0.494453 0.390845
0.533135 0.509697 0.401038
0.561059 0.525078 0.410681
0.588037 0.535485 0.421424
0.638972 0.558495 0.437751
0.702083 0.579461 0.440833
0.756374 0.595331 0.448096
0.800687 0.610163 0.463478
0.843137 0.627008 0.484871
0.878184 0.646828 0.522078
0.411536 0.549279 0.361456
0.422583 0.548516 0.366796
0.443214 0.548119 0.378210
0.471931 0.548333 0.394781
0.497871 0.548333 0.407477
0.524865 0.548516 0.423194
0.550408 0.550042 0.442664
0.570642 0.553613 0.461555
0.593439 0.568139 0.468452
0.615198 0.578943 0.475746
0.637812 0.587152 0.484230
0.678553 0.604547 0.497292
0.735164 0.624750 0.503838
0.788693 0.642908 0.514885
0.831571 0.658228 0.531029
0.871150 0.672882 0.548220
0.477760 0.601892 0.430274
0.485481 0.601007 0.434119
0.500877 0.600488 0.442695
0.523949 0.599939 0.456367
0.544366 0.598901 0.466011
0.565789 0.597864 0.476692
0.587640 0.597650 0.490303
0.606989 0.598352 0.505821
0.624079 0.604517 0.518303
0.643580 0.615869 0.523125
0.661769 0.624018 0.529351
0.680964 0.630579 0.536797
0.715541 0.645869 0.550896
0.767666 0.665492 0.559564
0.819059 0.684199 0.572564
0.864649 0.702085 0.591145
0.510399 0.629694 0.465003
0.518944 0.630274 0.470130
0.534997 0.632929 0.481056
0.557488 0.635523 0.496010
0.582361 0.639155 0.512200
0.604852 0.641840 0.525414
0.629175 0.645747 0.541772
0.651362 0.649470 0.558892
0.671809 0.654963 0.578424
0.689967 0.665461 0.590021
0.711879 0.679225 0.600275
0.731014 0.689143 0.610437
0.752346 0.699001 0.622370
0.782132 0.712062 0.635828
0.826169 0.726314 0.640620
0.865748 0.735469 0.642583
0.597681 0.693690 0.553796
0.590051 0.684932 0.543847
0.594751 0.681453 0.544396
0.609491 0.681209 0.553094
0.631098 0.683589 0.567407
0.649317 0.685512 0.577661
0.669612 0.688289 0.590295
0.689723 0.691493 0.604273
0.709712 0.696254 0.620752
0.725307 0.700099 0.636194
0.742977 0.711452 0.644373
0.760983 0.721553 0.651789
0.778592 0.730098 0.660914
0.794766 0.735775 0.667842
0.818601 0.744808 0.677790
0.857848 0.756501 0.680932
0.654810 0.736355 0.610803
0.648066 0.728969 0.602533
0.649928 0.724971 0.601190
0.660334 0.723842 0.606653
0.677394 0.724971 0.617578
0.693416 0.726314 0.626520
0.711208 0.728878 0.637171
0.728847 0.731167 0.648341
0.746914 0.734432 0.661463
0.762600 0.737423 0.674617
0.777279 0.743069 0.687037
0.793790 0.752865 0.694331
0.812741 0.763333 0.703853
0.829587 0.771115 0.712673
0.846281 0.777371 0.720851
0.866493 0.783957 0.728314
0.711158 0.778290 0.665911
0.704866 0.771901 0.658547
0.706094 0.768478 0.657266
0.714445 0.767500 0.661550
0.728634 0.768176 0.670391
0.743961 0.769458 0.679543
0.759639 0.771629 0.688563
0.776312 0.774069 0.698917
0.794469 0.777787 0.711587
0.812360 0.782108 0.725495
0.829759 0.787633 0.741269
0.846813 0.796341 0.753730
0.868515 0.809015 0.766393
0.890466 0.820784 0.779806
0.914622 0.833204 0.796595
0.942073 0.846849 0.816769
0.078767 0.077302 0.053407
0.091341 0.076265 0.056214
0.137514 0.079408 0.061830
0.191196 0.086641 0.062776
0.250156 0.096101 0.064240
0.325170 0.106722 0.064576
0.408942 0.121309 0.066804
0.495338 0.141207 0.071992
0.569207 0.165072 0.081514
0.641260 0.195926 0.100465
0.702876 0.231846 0.128420
0.753231 0.270268 0.162753
0.796719 0.310033 0.202090
0.839231 0.359045 0.254307
0.877256 0.412055 0.314458
0.908708 0.461060 0.372134
0.076905 0.089082 0.058595
0.093660 0.090455 0.060365
0.125246 0.095888 0.062348
0.177005 0.103090 0.064363
0.241825 0.111879 0.064912
0.319860 0.123537 0.065888
0.410010 0.139620 0.068910
0.495888 0.159396 0.075044
0.570214 0.181521 0.086122
0.644373 0.212497 0.106722
0.703883 0.246006 0.134829
0.752712 0.281559 0.168673
0.794644 0.318303 0.206332
0.836667 0.364935 0.257328
0.874357 0.415534 0.315496
0.907138 0.465384 0.374773
0.081880 0.114199 0.065461
0.103395 0.112947 0.067750
0.119692 0.112886 0.071015
0.171359 0.124971 0.065675
0.238285 0.136812 0.066987
0.323857 0.152743 0.069429
0.412177 0.169741 0.073610
0.495674 0.188357 0.081056
0.574945 0.211276 0.095125
0.645869 0.238712 0.117189
0.700862 0.266697 0.143526
0.747616 0.297124 0.174533
0.789639 0.330938 0.211429
0.832334 0.375463 0.262333
0.870359 0.423835 0.319707
0.903956 0.472478 0.378955
0.089235 0.149081 0.072755
0.116274 0.145907 0.078248
0.141634 0.141573 0.087373
0.160006 0.147921 0.087434
0.233768 0.170291 0.078431
0.314427 0.186740 0.071717
0.399390 0.203586 0.077668
0.486641 0.223575 0.088350
0.566064 0.244694 0.103700
0.634760 0.267735 0.125734
0.690394 0.291600 0.151431
0.737881 0.318364 0.182528
0.784421 0.352758 0.222995
0.825895 0.391760 0.270726
0.861418 0.431891 0.320806
0.893625 0.473887 0.373709
0.097597 0.182895 0.080415
0.128603 0.183322 0.090242
0.163363 0.181735 0.102083
0.185458 0.181796 0.111055
0.209354 0.190585 0.110048
0.295293 0.220523 0.102205
0.387488 0.242435 0.087587
0.475166 0.262730 0.095705
0.554406 0.282811 0.114534
0.625879 0.305241 0.139223
0.684627 0.328252 0.169039
0.736904 0.355840 0.204990
0.785458 0.389776 0.249454
0.828367 0.428992 0.301976
0.865751 0.469886 0.356451
0.897384 0.508030 0.407329
0.122255 0.239231 0.102693
0.155123 0.241032 0.114046
0.197147 0.241062 0.129976
0.229587 0.238254 0.143832
0.255497 0.245792 0.151217
0.286748 0.256748 0.152926
0.377569 0.289158 0.148287
0.476173 0.315587 0.135714
0.554498 0.332494 0.132296
0.621942 0.350835 0.159670
0.679561 0.370459 0.190646
0.732113 0.395331 0.228702
0.778683 0.423682 0.271427
0.820554 0.456825 0.320104
0.857847 0.492714 0.371862
0.891595 0.529649 0.423647
0.167056 0.312322 0.142031
0.200473 0.315557 0.155215
0.246525 0.316106 0.175235
0.283238 0.312261 0.188418
0.313451 0.308904 0.206943
0.342779 0.323156 0.209964
0.374914 0.332769 0.212924
0.460334 0.364416 0.213718
0.551812 0.388647 0.201175
0.618341 0.401282 0.194308
0.673976 0.415167 0.215457
0.724544 0.435035 0.252628
0.770169 0.458503 0.293553
0.811398 0.486946 0.340581
0.849058 0.518334 0.389837
0.884709 0.553139 0.441320
0.219394 0.376226 0.186526
0.250034 0.380774 0.200809
0.291691 0.382238 0.220523
0.331060 0.380072 0.236240
0.364874 0.376593 0.252934
0.390021 0.376226 0.269657
0.417670 0.389929 0.269413
0.447333 0.398016 0.272679
0.519768 0.424964 0.276493
0.602380 0.448157 0.268132
0.662776 0.461128 0.266514
0.716609 0.475257 0.277317
0.761379 0.494820 0.318181
0.801297 0.516991 0.360327
0.837552 0.541619 0.403723
0.873506 0.571620 0.451550
0.270603 0.429267 0.231266
0.291844 0.429541 0.240574
0.326635 0.430823 0.257755
0.365972 0.431281 0.276432
0.401312 0.430701 0.293431
0.433509 0.431342 0.315404
0.460883 0.441627 0.331914
0.491524 0.458320 0.338354
0.522515 0.469947 0.347662
0.586786 0.497780 0.361364
0.660151 0.522179 0.363775
0.719356 0.539635 0.371496
0.766842 0.552667 0.382300
0.808011 0.571283 0.416114
0.845823 0.595056 0.460426
0.881595 0.619408 0.501379
0.336217 0.491402 0.292699
0.351598 0.490608 0.299657
0.379004 0.490639 0.313481
0.415167 0.491371 0.333196
0.447395 0.491493 0.348547
0.478553 0.491646 0.367102
0.504784 0.493172 0.389593
0.529107 0.506218 0.399329
0.556054 0.520745 0.407538
0.582300 0.530449 0.417060
0.632929 0.552697 0.431891
0.696834 0.574212 0.435554
0.751888 0.591119 0.444160
0.797391 0.607050 0.460761
0.840757 0.625360 0.485115
0.877405 0.647084 0.524347
0.406287 0.551049 0.361578
0.418891 0.551202 0.368231
0.439948 0.550683 0.379431
0.470283 0.550530 0.397223
0.496498 0.549523 0.409247
0.522759 0.548302 0.423194
0.547082 0.548058 0.440314
0.566827 0.550134 0.459174
0.588952 0.564202 0.465431
0.610559 0.574823 0.472114
0.632563 0.582513 0.479896
0.673976 0.600092 0.492653
0.730983 0.620478 0.499275
0.785092 0.639124 0.510704
0.828580 0.655207 0.527855
0.869458 0.671250 0.546799
0.471656 0.601740 0.428016
0.480323 0.601221 0.432532
0.495399 0.599939 0.440223
0.518364 0.599207 0.453468
0.541283 0.598383 0.465339
0.563470 0.597314 0.476173
0.585809 0.597192 0.489723
0.605249 0.597406 0.504784
0.621332 0.602167 0.516747
0.639918 0.612726 0.520409
0.657496 0.620172 0.525475
0.676051 0.626093 0.531975
0.710323 0.640742 0.544884
0.762295 0.660121 0.553063
0.813474 0.678401 0.565179
0.859337 0.696619 0.584304
0.511925 0.634211 0.469581
0.520043 0.634546 0.474342
0.535332 0.636316 0.484199
0.557214 0.638148 0.498085
0.582605 0.640986 0.514549
0.604974 0.643214 0.527184
0.629480 0.647028 0.543420
0.651698 0.650477 0.560174
0.671748 0.655482 0.579034
0.689448 0.665156 0.590417
0.710842 0.678523 0.600092
0.729854 0.688350 0.610040
0.751308 0.698299 0.622065
0.781338 0.711574 0.635554
0.826200 0.726467 0.641230
0.866806 0.736467 0.644312
0.597406 0.696010 0.555718
0.590814 0.687984 0.546838
0.595789 0.684627 0.547539
0.610437 0.684169 0.555901
0.632685 0.686183 0.570703
0.650660 0.687648 0.580407
0.670375 0.689815 0.592157
0.690120 0.692531 0.605463
0.709621 0.696681 0.621149
0.724941 0.700099 0.636042
0.742092 0.710872 0.644160
0.760220 0.721035 0.651606
0.778103 0.729854 0.660975
0.794614 0.735866 0.668299
0.819059 0.745327 0.678676
0.859030 0.757624 0.682664
0.654078 0.738033 0.611810
0.648096 0.731075 0.604242
0.650752 0.727535 0.603540
0.661250 0.726497 0.609033
0.678370 0.727382 0.619806
0.695064 0.728603 0.629297
0.712459 0.730678 0.639368
0.729702 0.732509 0.649928
0.747097 0.735103 0.662135
0.762509 0.737697 0.674830
0.776944 0.742916 0.687282
0.793362 0.752621 0.694423
0.812284 0.763119 0.703853
0.829343 0.771023 0.712825
0.846494 0.777676 0.721492
0.867281 0.784685 0.729499
0.710425 0.779666 0.666587
0.704775 0.773585 0.659713
0.706132 0.770286 0.658528
0.714756 0.769309 0.662994
0.729158 0.770133 0.671953
0.745399 0.771385 0.681898
0.760981 0.773399 0.690700
0.777529 0.775623 0.700715
0.795286 0.778882 0.712801
0.812904 0.782895 0.726373
0.829997 0.788084 0.741635
0.846568 0.796248 0.753852
0.867543 0.808408 0.765819
0.889286 0.820028 0.778901
0.913476 0.832452 0.795665
0.941142 0.846251 0.815995
0.076570 0.080720 0.060456
0.085725 0.076692 0.066499
0.115419 0.077455 0.069703
0.173312 0.079072 0.077882
0.228489 0.083253 0.076875
0.288121 0.100160 0.080812
0.373754 0.116579 0.087434
0.462013 0.138460 0.095644
0.542565 0.162387 0.106050
0.621759 0.196078 0.125093
0.687282 0.233402 0.150576
0.740230 0.272740 0.182589
0.786221 0.313146 0.218936
0.831785 0.363836 0.270115
0.871336 0.416785 0.327977
0.904450 0.465730 0.383539
0.071382 0.095827 0.070863
0.088350 0.091310 0.070069
0.113985 0.091035 0.071260
0.159365 0.096925 0.076326
0.211948 0.105348 0.079011
0.288090 0.118379 0.084352
0.377142 0.134646 0.090822
0.465431 0.154543 0.098787
0.548455 0.179934 0.111116
0.626368 0.212467 0.131380
0.689143 0.247227 0.156771
0.740352 0.283604 0.187655
0.785122 0.321447 0.223087
0.829526 0.369482 0.272648
0.868650 0.420081 0.328771
0.902881 0.469902 0.386145
0.074250 0.113802 0.075441
0.090669 0.112642 0.075319
0.120821 0.117647 0.080079
0.159976 0.121950 0.081025
0.219913 0.132174 0.084657
0.298955 0.146548 0.089784
0.386297 0.163821 0.096345
0.471046 0.183139 0.104952
0.556573 0.208988 0.120119
0.629725 0.237827 0.140383
0.687251 0.266972 0.164065
0.735927 0.298344 0.192752
0.781125 0.334081 0.228244
0.825284 0.379034 0.276616
0.864744 0.427466 0.331975
0.899639 0.475988 0.389048
0.075502 0.148318 0.086183
0.096742 0.146609 0.084871
0.133425 0.149294 0.091005
0.160220 0.151797 0.097108
0.223911 0.165835 0.088685
0.298192 0.179965 0.092470
0.380926 0.197055 0.099397
0.470649 0.219364 0.111849
0.550713 0.241642 0.127291
0.621118 0.266087 0.147402
0.678645 0.291447 0.170993
0.727718 0.319066 0.199527
0.776608 0.354955 0.238621
0.818967 0.394110 0.283574
0.855467 0.433783 0.330846
0.888671 0.475085 0.381120
0.085512 0.182925 0.091615
0.105257 0.184573 0.092958
0.148318 0.187198 0.104067
0.185702 0.184848 0.119142
0.208469 0.192996 0.119142
0.290074 0.218662 0.111818
0.375006 0.235874 0.102358
0.461067 0.256992 0.116945
0.540917 0.278294 0.134768
0.613336 0.302037 0.158358
0.674006 0.326635 0.185733
0.728695 0.356756 0.221408
0.778683 0.391699 0.264012
0.822721 0.431434 0.314214
0.861204 0.472572 0.366918
0.894076 0.511109 0.416467
0.097230 0.241123 0.108888
0.121584 0.244205 0.112459
0.177188 0.245884 0.130159
0.226963 0.244419 0.149386
0.254398 0.247074 0.160678
0.284855 0.258427 0.161837
0.373480 0.288334 0.157015
0.466712 0.311223 0.146090
0.544640 0.328557 0.152071
0.612390 0.347753 0.176913
0.671687 0.369360 0.206790
0.725093 0.395453 0.243320
0.772854 0.424720 0.283940
0.815457 0.458473 0.330968
0.853696 0.494789 0.381262
0.888743 0.532177 0.431808
0.129915 0.313695 0.140719
0.165255 0.317754 0.150851
0.221866 0.318822 0.171328
0.277562 0.317937 0.194247
0.313420 0.313848 0.211765
0.342199 0.324773 0.219150
0.373754 0.334630 0.221744
0.457404 0.364324 0.221225
0.545220 0.385931 0.209964
0.612299 0.398199 0.202548
0.667475 0.413764 0.229892
0.718685 0.434668 0.265293
0.764920 0.458839 0.304753
0.806973 0.487556 0.349584
0.845274 0.519493 0.397559
0.882103 0.554782 0.448196
0.185397 0.378119 0.182559
0.221378 0.383215 0.196902
0.269718 0.384588 0.216556
0.324437 0.384649 0.241459
0.362371 0.380346 0.257420
0.389441 0.377111 0.276982
0.416632 0.390906 0.276493
0.445594 0.398932 0.279545
0.517845 0.425055 0.282292
0.599634 0.447791 0.275090
0.658808 0.460090 0.273716
0.712123 0.474891 0.288975
0.757259 0.494820 0.327947
0.797421 0.517235 0.368536
0.834165 0.541741 0.409827
0.870662 0.571773 0.456264
0.246128 0.431922 0.228641
0.270359 0.432013 0.237797
0.309117 0.433021 0.254887
0.359777 0.434882 0.281346
0.398260 0.434150 0.297978
0.432563 0.434394 0.319158
0.460273 0.442359 0.337926
0.490578 0.459236 0.344244
0.521141 0.470680 0.353155
0.585199 0.498085 0.366003
0.658106 0.522210 0.368872
0.716426 0.538994 0.376410
0.764218 0.552026 0.386419
0.805203 0.571801 0.423377
0.843687 0.595941 0.466468
0.880214 0.620716 0.506969
0.318486 0.493538 0.290501
0.335576 0.493050 0.297673
0.365698 0.493111 0.311711
0.407538 0.494331 0.334630
0.445258 0.495094 0.353338
0.478004 0.494972 0.371435
0.505364 0.496101 0.393103
0.528923 0.507286 0.404730
0.555718 0.521935 0.412696
0.581567 0.531518 0.421851
0.631922 0.553063 0.435187
0.695521 0.574243 0.438788
0.749905 0.591028 0.447761
0.795926 0.607080 0.464118
0.839170 0.626032 0.490425
0.876392 0.647997 0.529052
0.393133 0.552850 0.359625
0.407416 0.553216 0.366857
0.429603 0.552941 0.378119
0.462074 0.552819 0.396185
0.494118 0.552209 0.413214
0.521538 0.550958 0.426795
0.547143 0.550652 0.443793
0.567498 0.551781 0.463203
0.588708 0.564996 0.469337
0.610101 0.575555 0.475532
0.631678 0.582910 0.482673
0.673213 0.600427 0.494911
0.730282 0.620752 0.501518
0.784482 0.639490 0.513329
0.827848 0.655604 0.530449
0.869239 0.671738 0.549303
0.461860 0.603052 0.426001
0.471260 0.602594 0.430610
0.487098 0.601373 0.438483
0.511467 0.600671 0.452094
0.539483 0.600397 0.468208
0.562432 0.599512 0.478950
0.585504 0.599207 0.492287
0.605493 0.599359 0.507042
0.621515 0.602869 0.519677
0.639643 0.613245 0.523095
0.657160 0.620722 0.527947
0.675685 0.626581 0.534234
0.710048 0.641138 0.546563
0.762051 0.660395 0.554650
0.813199 0.678431 0.566552
0.858791 0.696559 0.585405
0.506249 0.636713 0.469856
0.514488 0.636957 0.474434
0.529961 0.638453 0.483925
0.552209 0.640162 0.497749
0.580957 0.643091 0.516777
0.604273 0.645289 0.529778
0.629145 0.648829 0.545678
0.651789 0.652125 0.562097
0.672419 0.657038 0.580804
0.689998 0.666072 0.592950
0.711452 0.679530 0.602564
0.730404 0.689418 0.612421
0.751888 0.699428 0.624414
0.781918 0.712398 0.637293
0.826719 0.727199 0.642878
0.867627 0.737321 0.646110
0.592615 0.697536 0.555016
0.586419 0.689815 0.546563
0.592004 0.686641 0.547631
0.607050 0.686183 0.556023
0.629786 0.687984 0.570672
0.650263 0.689509 0.582574
0.670222 0.691554 0.594141
0.690455 0.694209 0.607355
0.710292 0.698207 0.622858
0.725917 0.701564 0.637690
0.742763 0.711788 0.646265
0.760830 0.721920 0.653468
0.778622 0.730678 0.662745
0.795071 0.736629 0.669978
0.819699 0.745998 0.680018
0.860125 0.758536 0.684278
0.649805 0.739223 0.610834
0.644129 0.732479 0.603510
0.647242 0.729000 0.603082
0.658137 0.727993 0.608698
0.675746 0.728817 0.619501
0.694545 0.730129 0.630884
0.712337 0.732296 0.641016
0.729915 0.733974 0.651453
0.747372 0.736263 0.663355
0.762997 0.738796 0.675929
0.777584 0.743679 0.688899
0.794003 0.753353 0.696040
0.812955 0.763851 0.705348
0.830014 0.771786 0.714321
0.847227 0.778439 0.722927
0.868194 0.785539 0.731054
0.706878 0.780827 0.665701
0.701292 0.774807 0.658950
0.702954 0.771570 0.657919
0.712007 0.770623 0.662506
0.726896 0.771477 0.671679
0.744940 0.772820 0.683183
0.760678 0.774685 0.691864
0.777440 0.776786 0.701758
0.795440 0.779951 0.713781
0.813361 0.783904 0.727321
0.830669 0.789029 0.742588
0.847178 0.796860 0.755197
0.868063 0.808899 0.766953
0.889775 0.820549 0.779943
0.913967 0.832943 0.796616
0.941755 0.846773 0.816976
0.067903 0.088411 0.078767
0.072084 0.081331 0.083803
0.109560 0.075624 0.085328
0.142702 0.079072 0.085817
0.210971 0.079133 0.098451
0.277348 0.083497 0.101045
0.356176 0.092897 0.104128
0.433631 0.131197 0.119142
0.518700 0.159152 0.132876
0.600885 0.196963 0.154574
0.670375 0.236210 0.179599
0.726467 0.277012 0.209140
0.775570 0.319524 0.244175
0.823026 0.371344 0.293278
0.863920 0.423774 0.347387
0.898453 0.471751 0.399293
0.061311 0.104372 0.090669
0.079683 0.094606 0.086793
0.106722 0.089143 0.085451
0.141085 0.091829 0.086732
0.201785 0.096315 0.096712
0.274907 0.103609 0.102663
0.354131 0.119173 0.109102
0.436652 0.149264 0.123445
0.525719 0.178347 0.139803
0.606989 0.213260 0.161135
0.672908 0.249241 0.184939
0.726619 0.287297 0.213565
0.774868 0.327886 0.248142
0.820859 0.376379 0.295232
0.861418 0.426459 0.347417
0.897038 0.475615 0.401468
0.062684 0.123384 0.092927
0.082124 0.119448 0.090089
0.108827 0.114809 0.091859
0.150057 0.115602 0.095918
0.207675 0.124422 0.103151
0.278355 0.135958 0.109224
0.359228 0.158755 0.121401
0.448157 0.180117 0.133303
0.535698 0.206851 0.149660
0.611048 0.237095 0.169162
0.671565 0.268070 0.191318
0.722530 0.300908 0.217533
0.771206 0.339391 0.252415
0.816922 0.384985 0.298192
0.857603 0.433356 0.350134
0.893768 0.481093 0.403852
0.063355 0.148562 0.100343
0.082460 0.146700 0.099275
0.111910 0.149050 0.102083
0.165408 0.162448 0.114260
0.215488 0.165255 0.113680
0.281895 0.176028 0.118135
0.363134 0.192935 0.126955
0.451637 0.214878 0.140261
0.532158 0.238041 0.155795
0.604334 0.264439 0.174624
0.664393 0.291600 0.196811
0.716182 0.321477 0.223819
0.767330 0.359503 0.261723
0.811154 0.398993 0.303532
0.848692 0.438544 0.347845
0.883165 0.479211 0.394886
0.060121 0.180331 0.108492
0.078370 0.183322 0.110719
0.115999 0.187289 0.112062
0.176028 0.195804 0.124605
0.209964 0.199496 0.133730
0.283360 0.215152 0.124483
0.361547 0.230564 0.130282
0.446387 0.252018 0.145022
0.525963 0.274601 0.162631
0.599420 0.299779 0.184604
0.661555 0.326177 0.210452
0.719142 0.359258 0.245396
0.770382 0.395758 0.285832
0.815518 0.436103 0.333410
0.855070 0.477150 0.382879
0.889331 0.515142 0.429407
0.063874 0.241733 0.127993
0.094179 0.244694 0.130037
0.137636 0.247868 0.133547
0.206241 0.253330 0.152316
0.255131 0.250919 0.174380
0.284550 0.262760 0.175814
0.371588 0.288914 0.169894
0.457527 0.305516 0.159396
0.532830 0.324590 0.179110
0.601282 0.345678 0.202884
0.661921 0.369207 0.230716
0.716457 0.397009 0.265171
0.765316 0.427466 0.303838
0.808957 0.461799 0.348272
0.848203 0.498177 0.395422
0.884580 0.535807 0.444065
0.098848 0.312902 0.157198
0.129152 0.317296 0.161563
0.174197 0.320287 0.167697
0.250187 0.323339 0.193454
0.309483 0.321324 0.218540
0.340612 0.326543 0.232212
0.372137 0.337621 0.234531
0.454597 0.364660 0.232090
0.536645 0.382330 0.222232
0.603449 0.395300 0.223606
0.659174 0.412909 0.251743
0.711086 0.435157 0.285039
0.758206 0.460517 0.322484
0.801205 0.489815 0.364782
0.840543 0.522087 0.410407
0.878430 0.557437 0.458838
0.152712 0.378851 0.192386
0.180758 0.385046 0.200015
0.221988 0.387640 0.208774
0.295964 0.388281 0.237644
0.354589 0.386053 0.263310
0.388678 0.381689 0.282353
0.414710 0.392096 0.286656
0.443275 0.400671 0.289952
