example_ofxGpuLutCube/bin/data/ofxGpuLutCube/LUT/U5 (neutral contrasty look).cube
LUT_3D_SIZE 16
0.027787 0.000000 0.001355
0.117025 0.000000 0.017951
0.167635 0.000000 0.051538
0.217327 0.000000 0.090964
0.252182 0.000000 0.123052
0.273370 0.067459 0.153148
0.298562 0.129865 0.186069
0.332646 0.168226 0.220894
0.381759 0.206591 0.252193
0.448076 0.241880 0.284840
0.554227 0.279864 0.334513
0.692841 0.314263 0.378550
0.810829 0.337260 0.397726
0.954916 0.389425 0.532225
1.000000 0.434170 0.607915
1.000000 0.443816 0.629149
0.060866 0.096790 0.002437
0.106862 0.085918 0.004883
0.163613 0.066240 0.027878
0.211397 0.053693 0.077657
0.247665 0.058207 0.115358
0.271991 0.093003 0.150888
0.298064 0.137470 0.185304
0.333178 0.172446 0.221023
0.382318 0.209119 0.252273
0.448809 0.243742 0.285063
0.555214 0.281493 0.334751
0.693742 0.315844 0.378675
0.811526 0.338790 0.397822
0.955487 0.389736 0.532579
1.000000 0.434362 0.607850
1.000000 0.444072 0.629056
0.094084 0.152384 0.008026
0.115310 0.151134 0.003455
0.164576 0.143956 0.000000
0.207683 0.131172 0.059149
0.241869 0.126969 0.106930
0.267495 0.138283 0.146853
0.296592 0.161719 0.183655
0.336073 0.191584 0.222220
0.385783 0.222730 0.253052
0.453593 0.254796 0.286687
0.562203 0.292203 0.336319
0.699909 0.326137 0.379259
0.816972 0.350902 0.399026
0.958409 0.397173 0.535106
1.000000 0.435982 0.607061
1.000000 0.445677 0.628462
0.129729 0.201550 0.039804
0.140269 0.200776 0.037327
0.173803 0.197445 0.025811
0.211621 0.190876 0.019943
0.243351 0.183108 0.096492
0.268095 0.183233 0.148967
0.301341 0.199560 0.188506
0.341478 0.221450 0.225314
0.393498 0.248018 0.255556
0.465780 0.278725 0.291842
0.579516 0.316432 0.340431
0.715510 0.350208 0.380061
0.831172 0.377109 0.406774
0.964187 0.427641 0.540968
1.000000 0.453727 0.605878
1.000000 0.460085 0.627394
0.163318 0.239768 0.072708
0.167829 0.239296 0.072784
0.188784 0.236816 0.074132
0.219418 0.233074 0.080413
0.249654 0.229961 0.095509
0.278907 0.231150 0.144272
0.313839 0.243006 0.195686
0.355324 0.260383 0.232659
0.407656 0.281823 0.260802
0.486888 0.313385 0.300306
0.607394 0.353042 0.347293
0.736886 0.385690 0.379745
0.855070 0.416491 0.422402
0.971609 0.468339 0.549388
1.000022 0.494476 0.607716
1.000003 0.500134 0.629391
0.194502 0.272795 0.112189
0.196792 0.272582 0.112614
0.210168 0.271693 0.115273
0.236661 0.272259 0.122842
0.265298 0.275488 0.134892
0.295555 0.280271 0.150428
0.333208 0.289781 0.191099
0.376288 0.304589 0.239053
0.432993 0.325512 0.269462
0.520019 0.359082 0.310131
0.647323 0.401944 0.358552
0.762417 0.429833 0.378381
0.885899 0.467996 0.447019
0.980514 0.517066 0.559462
0.999857 0.541156 0.610541
0.999847 0.546934 0.632846
0.235405 0.322540 0.153258
0.236857 0.322648 0.153516
0.246153 0.323366 0.155586
0.264929 0.324187 0.160901
0.289161 0.326710 0.169743
0.318599 0.333289 0.181490
0.358953 0.344927 0.198708
0.409936 0.361964 0.231195
0.475121 0.385331 0.277327
0.572152 0.421761 0.319848
0.699805 0.465621 0.368807
0.792312 0.483428 0.378838
0.918263 0.530341 0.473748
0.989390 0.574015 0.570530
0.999843 0.595886 0.616371
0.999681 0.600454 0.638400
0.275004 0.382296 0.194321
0.275889 0.382325 0.194355
0.281888 0.382534 0.195376
0.296764 0.383647 0.199541
0.319217 0.387113 0.206780
0.351838 0.396971 0.216611
0.395745 0.413959 0.226719
0.455860 0.435464 0.236445
0.533715 0.464120 0.260136
0.643080 0.505473 0.323595
0.743250 0.531611 0.361453
0.831676 0.550726 0.393830
0.937505 0.598091 0.494677
0.993833 0.634822 0.579326
0.999641 0.654159 0.624618
0.999599 0.658074 0.646782
0.319050 0.463290 0.235412
0.319587 0.463139 0.235335
0.324235 0.463140 0.235291
0.336492 0.463721 0.237190
0.359440 0.468120 0.241976
0.397444 0.480713 0.247525
0.449558 0.500108 0.251855
0.518180 0.530013 0.257077
0.611691 0.567700 0.268364
0.708953 0.597698 0.292278
0.787980 0.608179 0.348582
0.876099 0.632200 0.419949
0.952261 0.672495 0.515705
0.995857 0.698795 0.587354
0.999563 0.714810 0.634214
0.999560 0.717815 0.657193
0.367397 0.567193 0.272318
0.367867 0.567014 0.272106
0.371418 0.565435 0.270705
0.385074 0.565211 0.268325
0.414730 0.571948 0.268703
0.457821 0.584664 0.268695
0.521888 0.610618 0.272312
0.599607 0.644801 0.282964
0.682602 0.675180 0.293714
0.760566 0.689845 0.300996
0.836110 0.702724 0.340581
0.909455 0.720396 0.430536
0.964118 0.746311 0.530333
0.997766 0.764964 0.600585
0.999611 0.774435 0.645796
0.999608 0.776259 0.669111
0.427235 0.685604 0.294857
0.427782 0.685570 0.294740
0.433195 0.686094 0.293921
0.450612 0.688085 0.291259
0.483570 0.693385 0.288904
0.530795 0.706933 0.293139
0.597353 0.733097 0.306029
0.667465 0.754638 0.318771
0.733876 0.766256 0.329406
0.797377 0.774208 0.346587
0.864361 0.781866 0.374734
0.926682 0.800638 0.445659
0.973988 0.818665 0.533638
0.999134 0.829276 0.617094
0.999631 0.832345 0.662422
0.999631 0.832708 0.685189
0.490481 0.796674 0.328390
0.491040 0.796716 0.328357
0.495790 0.796919 0.328011
0.511313 0.797832 0.326910
0.545273 0.804266 0.328137
0.593433 0.815544 0.336648
0.650928 0.828243 0.349145
0.708923 0.834101 0.361182
0.766069 0.837519 0.377747
0.820421 0.838513 0.396902
0.876516 0.843026 0.426491
0.934981 0.865742 0.498589
0.979324 0.880661 0.572579
0.999773 0.886669 0.626319
0.999712 0.885774 0.684681
0.999765 0.885260 0.711544
0.546761 0.879539 0.376416
0.547201 0.879530 0.376459
0.551368 0.879785 0.376654
0.564913 0.880463 0.377435
0.593660 0.882128 0.379269
0.637473 0.884050 0.382435
0.686448 0.886791 0.393687
0.737337 0.888330 0.408811
0.783125 0.881590 0.417894
0.830485 0.878198 0.435697
0.885614 0.888428 0.478060
0.936789 0.911841 0.547988
0.978573 0.926902 0.623480
0.999647 0.934480 0.669933
0.999843 0.931412 0.706496
0.999843 0.929770 0.736661
0.609302 0.913414 0.434615
0.609680 0.913417 0.434658
0.612680 0.913421 0.435020
0.622944 0.913445 0.436378
0.646122 0.915349 0.441362
0.681792 0.918548 0.448397
0.724458 0.920833 0.455540
0.760417 0.915038 0.455552
0.793470 0.901855 0.450269
0.836322 0.900242 0.469449
0.890805 0.919986 0.526219
0.937557 0.944103 0.596230
0.975705 0.962623 0.674163
0.998755 0.972180 0.721757
0.999827 0.967489 0.752022
0.999827 0.965977 0.761369
0.697092 0.929445 0.520464
0.697248 0.929455 0.520462
0.698986 0.929561 0.520525
0.704984 0.929782 0.520953
0.718544 0.929983 0.522099
0.740698 0.931912 0.526169
0.769098 0.931198 0.527040
0.795331 0.921993 0.519401
0.825804 0.917416 0.523431
0.861777 0.920874 0.542197
0.908873 0.949604 0.604767
0.946697 0.972394 0.676266
0.977872 0.987925 0.732248
0.998312 0.995176 0.768332
0.999875 0.992055 0.794431
0.999875 0.991416 0.799732
0.817588 0.967507 0.675445
0.817677 0.967445 0.675372
0.818386 0.967371 0.675431
0.821319 0.967424 0.675856
0.827975 0.967030 0.676869
0.838062 0.966627 0.679728
0.852165 0.966052 0.685243
0.869851 0.965407 0.692533
0.890003 0.964823 0.701719
0.914829 0.974076 0.728476
0.937776 0.981147 0.754289
0.959725 0.987316 0.778604
0.979183 0.993147 0.800738
0.997772 0.999025 0.820397
0.999947 0.999870 0.829442
0.999947 0.999863 0.832483
0.010836 0.000000 0.110340
0.091087 0.000000 0.093677
0.160335 0.000000 0.078538
0.214770 0.000000 0.099553
0.251340 0.000000 0.126635
0.273073 0.067893 0.154485
0.298465 0.129962 0.186786
0.332542 0.168265 0.221308
0.381719 0.206595 0.252435
0.448015 0.241883 0.284979
0.554221 0.279862 0.334709
0.692842 0.314262 0.378688
0.810826 0.337258 0.397782
0.954917 0.389423 0.532346
1.000000 0.434189 0.608079
1.000000 0.443866 0.629254
0.034792 0.088914 0.088989
0.090761 0.080358 0.079390
0.160947 0.063337 0.068831
0.210132 0.052324 0.089308
0.246937 0.057553 0.119117
0.271752 0.092982 0.152364
0.297941 0.137531 0.186043
0.333104 0.172500 0.221479
0.382235 0.209117 0.252524
0.448769 0.243729 0.285236
0.555209 0.281499 0.334943
0.693722 0.315825 0.378771
0.811488 0.338779 0.397933
0.955453 0.389732 0.532675
1.000000 0.434380 0.607967
1.000000 0.444072 0.629147
0.083131 0.151735 0.044187
0.109050 0.150276 0.043031
0.163174 0.142785 0.049736
0.207214 0.130288 0.075309
0.241641 0.126681 0.111540
0.267309 0.138223 0.148350
0.296578 0.161761 0.184447
0.336012 0.191567 0.222634
0.385715 0.222733 0.253326
0.453575 0.254785 0.286828
0.562286 0.292220 0.336491
0.699914 0.326113 0.379364
0.816872 0.350892 0.399064
0.958409 0.397159 0.535186
1.000000 0.436011 0.607209
1.000000 0.445702 0.628630
0.126205 0.201780 0.040673
0.137901 0.200964 0.038154
0.173251 0.197530 0.025811
0.211335 0.190871 0.032334
0.243151 0.182821 0.105254
0.268063 0.183214 0.150712
0.301388 0.199607 0.189396
0.341428 0.221480 0.225778
0.393500 0.247985 0.255773
0.465764 0.278718 0.292021
0.579507 0.316441 0.340562
0.715486 0.350150 0.380153
0.831101 0.377093 0.406799
0.964187 0.427593 0.540974
1.000000 0.453694 0.605994
1.000000 0.460111 0.627493
0.162054 0.239895 0.072652
0.166825 0.239409 0.072759
0.188320 0.236873 0.074078
0.219295 0.233106 0.080359
0.249635 0.229903 0.098958
0.278993 0.231199 0.145795
0.313787 0.243070 0.196817
0.355271 0.260412 0.233151
0.407627 0.281802 0.261056
0.486865 0.313383 0.300486
0.607389 0.353042 0.347508
0.736847 0.385646 0.379844
0.855143 0.416481 0.422504
0.971569 0.468336 0.549435
1.000022 0.494479 0.607873
1.000003 0.500135 0.629492
0.193956 0.272805 0.112108
0.196290 0.272655 0.112548
0.209837 0.271700 0.115258
0.236539 0.272262 0.122777
0.265220 0.275472 0.134889
0.295503 0.280274 0.150415
0.333118 0.289771 0.192122
0.376252 0.304604 0.239762
0.432919 0.325463 0.269752
0.520009 0.359040 0.310336
0.647321 0.401941 0.358696
0.762406 0.429799 0.378457
0.885897 0.467993 0.447137
0.980514 0.517071 0.559589
0.999857 0.541158 0.610622
0.999847 0.546895 0.632967
0.235125 0.322504 0.153178
0.236549 0.322630 0.153439
0.245968 0.323350 0.155524
0.264842 0.324160 0.160839
0.289103 0.326677 0.169727
0.318602 0.333289 0.181488
0.358913 0.344916 0.198691
0.409831 0.361881 0.231889
0.475012 0.385226 0.277884
0.572137 0.421752 0.320151
0.699812 0.465648 0.369064
0.792388 0.483357 0.378959
0.918280 0.530334 0.473884
0.989384 0.573991 0.570661
0.999843 0.595887 0.616463
0.999681 0.600455 0.638497
0.274827 0.382291 0.194319
0.275702 0.382319 0.194344
0.281729 0.382529 0.195361
0.296664 0.383643 0.199509
0.319160 0.387099 0.206747
0.351814 0.396968 0.216605
0.395711 0.413957 0.226714
0.455805 0.435455 0.236439
0.533440 0.463959 0.261694
0.643071 0.505479 0.324060
0.743208 0.531577 0.361746
0.831642 0.550606 0.393899
0.937486 0.598046 0.494802
0.993833 0.634813 0.579486
0.999641 0.654152 0.624694
0.999599 0.658119 0.646916
0.318911 0.463285 0.235411
0.319475 0.463161 0.235337
0.324151 0.463137 0.235313
0.336390 0.463718 0.237168
0.359437 0.468114 0.241944
0.397364 0.480708 0.247523
0.449546 0.500102 0.251853
0.518134 0.530001 0.257076
0.611650 0.567686 0.268350
0.708913 0.597693 0.292318
0.787840 0.608020 0.349135
0.876005 0.632078 0.420043
0.952193 0.672416 0.515850
0.995857 0.698795 0.587534
0.999563 0.714797 0.634308
0.999560 0.717814 0.657307
0.367314 0.567350 0.272351
0.367747 0.567097 0.272161
0.371313 0.565502 0.270721
0.384928 0.565173 0.268335
0.414654 0.571926 0.268700
0.457751 0.584618 0.268691
0.521862 0.610582 0.272313
0.599570 0.644797 0.282962
0.682554 0.675180 0.293715
0.760508 0.689842 0.301000
0.836076 0.702720 0.340566
0.909449 0.720322 0.430905
0.964098 0.746309 0.530594
0.997746 0.764962 0.600761
0.999611 0.774434 0.645980
0.999608 0.776257 0.669216
0.427188 0.685711 0.294926
0.427661 0.685591 0.294762
0.433059 0.686085 0.293966
0.450485 0.688073 0.291244
0.483489 0.693376 0.288900
0.530788 0.706924 0.293133
0.597326 0.733039 0.305977
0.667416 0.754578 0.318761
0.733853 0.766257 0.329401
0.797377 0.774208 0.346587
0.864361 0.781866 0.374734
0.926652 0.800638 0.445647
0.973917 0.818584 0.534281
0.999119 0.829261 0.617344
0.999631 0.832342 0.662553
0.999631 0.832707 0.685338
0.490326 0.796653 0.328407
0.490948 0.796698 0.328380
0.495642 0.796894 0.328010
0.511104 0.797837 0.326948
0.545248 0.804240 0.328126
0.593348 0.815466 0.336616
0.650871 0.828251 0.349136
0.708832 0.834104 0.361183
0.766025 0.837513 0.377717
0.820389 0.838510 0.396875
0.876620 0.843022 0.426489
0.934922 0.865744 0.498551
0.979324 0.880627 0.572579
0.999773 0.886715 0.626399
0.999712 0.885754 0.684800
0.999765 0.885257 0.711606
0.546639 0.879542 0.376402
0.547170 0.879533 0.376454
0.551237 0.879788 0.376663
0.564781 0.880457 0.377424
0.593573 0.882151 0.379281
0.637434 0.883943 0.382382
0.686424 0.886807 0.393690
0.737295 0.888319 0.408789
0.783126 0.881601 0.417900
0.830454 0.878193 0.435687
0.885614 0.888428 0.478060
0.936783 0.911797 0.547986
0.978573 0.926902 0.623478
0.999647 0.934480 0.669931
0.999843 0.931410 0.706516
0.999843 0.929766 0.736740
0.609221 0.913412 0.434594
0.609609 0.913432 0.434641
0.612577 0.913440 0.435027
0.622846 0.913441 0.436364
0.646061 0.915336 0.441331
0.681778 0.918530 0.448387
0.724359 0.920839 0.455554
0.760417 0.915037 0.455565
0.793472 0.901870 0.450274
0.836280 0.900236 0.469430
0.890728 0.919956 0.526153
0.937529 0.944105 0.596225
0.975643 0.962568 0.674148
0.998743 0.972180 0.721753
0.999827 0.967490 0.751994
0.999827 0.965976 0.761403
0.697088 0.929442 0.520493
0.697259 0.929452 0.520493
0.698987 0.929559 0.520517
0.704914 0.929779 0.520945
0.718443 0.929980 0.522091
0.740629 0.931899 0.526240
0.769053 0.931184 0.527021
0.795320 0.922015 0.519402
0.825798 0.917414 0.523429
0.861759 0.920870 0.542167
0.908874 0.949604 0.604752
0.946660 0.972388 0.676262
0.977872 0.987924 0.732237
0.998312 0.995167 0.768325
0.999875 0.992055 0.794431
0.999875 0.991416 0.799732
0.817576 0.967495 0.675427
0.817608 0.967435 0.675380
0.818386 0.967372 0.675443
0.821427 0.967415 0.675854
0.827946 0.967026 0.676852
0.838062 0.966627 0.679728
0.852165 0.966052 0.685266
0.869851 0.965407 0.692533
0.890003 0.964823 0.701719
0.914792 0.974070 0.728461
0.937776 0.981147 0.754288
0.959697 0.987317 0.778602
0.979183 0.993147 0.800738
0.997772 0.999025 0.820397
0.999947 0.999870 0.829442
0.999947 0.999863 0.832483
0.000000 0.000000 0.147318
0.000000 0.000000 0.147467
0.125572 0.000000 0.138886
0.200703 0.000000 0.134065
0.245105 0.000000 0.146417
0.270780 0.069431 0.163980
0.297576 0.130625 0.192274
0.331958 0.168493 0.224926
0.381349 0.206594 0.254416
0.447698 0.241734 0.286388
0.554410 0.279792 0.336134
0.692784 0.314114 0.379551
0.810434 0.337067 0.398396
0.954824 0.389395 0.533075
1.000000 0.434309 0.608999
1.000000 0.444052 0.630120
0.000000 0.071072 0.147210
0.000000 0.071139 0.147404
0.129974 0.058307 0.138286
0.200887 0.045760 0.130944
0.241835 0.054073 0.141333
0.269698 0.093008 0.162086
0.297181 0.137882 0.191579
0.332485 0.172726 0.225110
0.381850 0.209090 0.254488
0.448411 0.243580 0.286620
0.555377 0.281485 0.336346
0.693604 0.315682 0.379623
0.811236 0.338601 0.398535
0.955285 0.389704 0.533440
1.000000 0.434515 0.608889
1.000000 0.444224 0.630026
0.039223 0.144118 0.140182
0.040378 0.144057 0.140682
0.141730 0.135451 0.130136
0.202604 0.124689 0.125612
0.239641 0.124923 0.137126
0.266117 0.137860 0.158718
0.296457 0.161885 0.190382
0.335434 0.191565 0.226262
0.385391 0.222633 0.255326
0.453255 0.254630 0.288263
0.562290 0.292188 0.337937
0.699893 0.325971 0.380205
0.816729 0.350710 0.399733
0.958523 0.397108 0.535993
1.000000 0.436108 0.608191
1.000000 0.445856 0.629480
0.102191 0.200172 0.092900
0.113021 0.199536 0.092478
0.164415 0.195270 0.089848
0.207985 0.187518 0.111303
0.241693 0.181108 0.137110
0.268156 0.183458 0.162222
0.301782 0.200045 0.195940
0.340950 0.221526 0.229738
0.393165 0.247809 0.257860
0.465593 0.278535 0.293538
0.579653 0.316326 0.342016
0.715265 0.350018 0.380976
0.830823 0.376864 0.407360
0.964136 0.427462 0.541737
1.000000 0.453693 0.606975
1.000000 0.460056 0.628371
0.148121 0.240583 0.081581
0.154989 0.239941 0.081674
0.183870 0.236827 0.082914
0.217878 0.232763 0.089933
0.249168 0.229589 0.117032
0.279871 0.231848 0.166161
0.314028 0.243405 0.204618
0.354962 0.260450 0.237310
0.407362 0.281675 0.263380
0.486614 0.313147 0.302141
0.607518 0.352931 0.349038
0.736644 0.385403 0.380625
0.854972 0.416283 0.423252
0.971622 0.468215 0.550300
1.000022 0.494450 0.608852
1.000003 0.500112 0.630356
0.187920 0.273303 0.111568
0.191124 0.273067 0.111899
0.207078 0.271908 0.114715
0.235225 0.272213 0.122368
0.264717 0.275443 0.134586
0.295097 0.280252 0.150176
0.332139 0.289582 0.201612
0.375757 0.304407 0.244541
0.432476 0.325170 0.272326
0.519817 0.358887 0.312341
0.647274 0.401818 0.360438
0.762146 0.429438 0.379254
0.885862 0.467836 0.448079
0.980426 0.516857 0.560418
0.999857 0.541193 0.611600
0.999847 0.546942 0.633854
0.231751 0.322309 0.152958
0.233469 0.322429 0.153094
0.243994 0.323232 0.155056
0.263929 0.324145 0.160573
0.288607 0.326636 0.169524
0.318242 0.333180 0.181432
0.358533 0.344809 0.199556
0.409119 0.361412 0.236252
0.473972 0.384349 0.281909
0.572115 0.421615 0.322938
0.699794 0.465596 0.371213
0.792002 0.482905 0.379699
0.918263 0.530086 0.474818
0.989289 0.573888 0.571677
0.999845 0.595898 0.617503
0.999673 0.600471 0.639361
0.273077 0.382290 0.194241
0.273992 0.382314 0.194285
0.280460 0.382476 0.195121
0.295866 0.383591 0.199272
0.318626 0.387008 0.206569
0.351446 0.396802 0.216462
0.395444 0.413821 0.226624
0.455522 0.435378 0.236405
0.532465 0.462932 0.269132
0.642890 0.505146 0.328742
0.742929 0.531351 0.364377
0.831038 0.550019 0.394814
0.937234 0.597751 0.495951
0.993893 0.634784 0.580662
0.999641 0.654219 0.625684
0.999599 0.658160 0.647746
0.317861 0.463575 0.235581
0.318429 0.463465 0.235504
0.323145 0.463112 0.235291
0.335774 0.463635 0.237023
0.358810 0.467936 0.241834
0.396880 0.480546 0.247464
0.449166 0.499898 0.251830
0.517778 0.529902 0.257055
0.611365 0.567668 0.268262
0.708721 0.597607 0.293914
0.787034 0.607068 0.353311
0.875306 0.631259 0.421375
0.951965 0.672193 0.517146
0.995947 0.698796 0.588902
0.999565 0.714790 0.635296
0.999560 0.717811 0.658158
0.366468 0.567777 0.272684
0.366951 0.567529 0.272530
0.370534 0.565849 0.271054
0.384051 0.564990 0.268415
0.413951 0.571725 0.268709
0.457190 0.584471 0.268692
0.521377 0.610390 0.272288
0.599239 0.644685 0.282917
0.682194 0.675105 0.293713
0.760477 0.689830 0.300973
0.835901 0.702702 0.340482
0.909027 0.719825 0.434247
0.964132 0.746291 0.533067
0.997728 0.764948 0.602260
0.999605 0.774422 0.647007
0.999608 0.776246 0.670120
0.426414 0.686348 0.295407
0.426821 0.686012 0.295153
0.431872 0.685985 0.294150
0.449427 0.688021 0.291396
0.482798 0.693225 0.288902
0.530009 0.706464 0.292987
0.596856 0.732852 0.305883
0.667089 0.754497 0.318704
0.733729 0.766259 0.329401
0.797321 0.774188 0.346544
0.864363 0.781848 0.374691
0.926671 0.800638 0.445565
0.973791 0.818150 0.539050
0.999066 0.829186 0.619056
0.999631 0.832306 0.663688
0.999631 0.832677 0.686206
0.489229 0.796638 0.328535
0.489813 0.796650 0.328431
0.494576 0.796862 0.328079
0.510160 0.797744 0.326959
0.544442 0.804139 0.328082
0.592733 0.815229 0.336436
0.650393 0.828196 0.349114
0.708578 0.834117 0.361143
0.765900 0.837476 0.377665
0.820263 0.838522 0.396848
0.876404 0.842981 0.426388
0.934822 0.865760 0.498438
0.979140 0.880572 0.573189
0.999833 0.886618 0.627693
0.999712 0.885633 0.686016
0.999765 0.885272 0.712398
0.545643 0.879536 0.376380
0.546138 0.879490 0.376373
0.550306 0.879826 0.376599
0.563945 0.880360 0.377385
0.592893 0.882143 0.379251
0.636933 0.883887 0.382309
0.686079 0.886783 0.393576
0.736979 0.888288 0.408713
0.782927 0.881679 0.417889
0.830332 0.878178 0.435630
0.885411 0.888336 0.477887
0.936729 0.911841 0.547897
0.978526 0.926898 0.623449
0.999637 0.934482 0.669913
0.999843 0.931405 0.706936
0.999843 0.929638 0.737612
0.608620 0.913454 0.434611
0.608882 0.913418 0.434630
0.611910 0.913430 0.434956
0.622212 0.913412 0.436293
0.645463 0.915292 0.441183
0.681373 0.918525 0.448382
0.724071 0.920816 0.455469
0.760342 0.915029 0.455624
0.793317 0.901867 0.450257
0.836155 0.900213 0.469392
0.890625 0.919885 0.526006
0.937493 0.944183 0.596146
0.975589 0.962613 0.674073
0.998726 0.972175 0.721756
0.999827 0.967491 0.751953
0.999827 0.966026 0.761662
0.696696 0.929466 0.520516
0.696862 0.929447 0.520490
0.698581 0.929538 0.520495
0.704538 0.929751 0.520890
0.718242 0.930015 0.522108
0.740489 0.931783 0.526110
0.768896 0.931214 0.527114
0.795264 0.922115 0.519420
0.825631 0.917445 0.523399
0.861636 0.920793 0.542081
0.908745 0.949571 0.604575
0.946583 0.972323 0.676178
0.977995 0.987857 0.732265
0.998307 0.995161 0.768308
0.999875 0.992103 0.794451
0.999875 0.991416 0.799732
0.817350 0.967481 0.675424
0.817488 0.967487 0.675408
0.818300 0.967352 0.675405
0.821195 0.967401 0.675809
0.827766 0.967016 0.676861
0.837937 0.966640 0.679692
0.852190 0.965998 0.685199
0.869744 0.965423 0.692509
0.890002 0.964816 0.701650
0.914702 0.974063 0.728332
0.937747 0.981147 0.754265
0.959620 0.987243 0.778532
0.979155 0.993037 0.800735
0.997767 0.999019 0.820396
0.999947 0.999870 0.829441
0.999947 0.999863 0.832483
0.000000 0.000000 0.182584
0.000000 0.000000 0.182691
0.062050 0.008237 0.183724
0.169781 0.000000 0.178935
0.229267 0.000000 0.175674
0.264373 0.073637 0.184259
0.295508 0.131543 0.206832
0.331613 0.169289 0.235757
0.380155 0.206645 0.260976
0.446765 0.241380 0.291090
0.554311 0.279565 0.340701
0.692740 0.313623 0.382398
0.809651 0.336376 0.400084
0.954618 0.389363 0.535776
1.000000 0.434719 0.612428
1.000000 0.444573 0.633057
0.000000 0.065961 0.184320
0.000000 0.066038 0.184367
0.061955 0.062695 0.185405
0.171288 0.052849 0.178934
0.229259 0.056542 0.174123
0.263455 0.092782 0.182923
0.295437 0.138322 0.206494
0.332105 0.173285 0.235979
0.380623 0.209022 0.261071
0.447445 0.243185 0.291318
0.555346 0.281260 0.340953
0.693554 0.315162 0.382542
0.810434 0.337923 0.400180
0.955022 0.389648 0.535976
1.000000 0.434951 0.612303
1.000000 0.444771 0.633027
0.000000 0.132870 0.189119
0.000000 0.132863 0.189192
0.069984 0.131275 0.188620
0.178072 0.123036 0.177328
0.232308 0.123041 0.174173
0.263201 0.138201 0.182873
0.295781 0.162223 0.206499
0.334787 0.191718 0.237259
0.384165 0.222267 0.261901
0.452128 0.254093 0.292905
0.562747 0.292035 0.342928
0.699721 0.325377 0.383154
0.815824 0.349941 0.401310
0.958122 0.396908 0.538575
1.000000 0.436585 0.611589
1.000000 0.446371 0.632500
0.047285 0.189808 0.185593
0.047222 0.189784 0.185732
0.090597 0.188308 0.184207
0.190252 0.180220 0.173670
0.236856 0.177830 0.175355
0.267954 0.184232 0.188324
0.302719 0.201218 0.213096
0.340587 0.222056 0.241372
0.392080 0.247222 0.264513
0.464884 0.277982 0.298410
0.580085 0.316066 0.347000
0.714856 0.349370 0.383847
0.829689 0.375915 0.408396
0.963839 0.427011 0.544437
1.000000 0.453587 0.610364
1.000000 0.459988 0.631379
0.125089 0.232744 0.159219
0.125617 0.232709 0.159349
0.145506 0.231140 0.159585
0.210216 0.226758 0.160286
0.247561 0.227872 0.173810
0.280955 0.232739 0.197849
0.314915 0.244584 0.223568
0.353796 0.260104 0.247769
0.406504 0.281283 0.270720
0.485742 0.312540 0.307500
0.607817 0.352575 0.354306
0.736181 0.384565 0.383360
0.854168 0.415522 0.425423
0.971153 0.467706 0.552985
1.000022 0.494462 0.612277
1.000003 0.500111 0.633438
0.165566 0.274810 0.112610
0.166622 0.274720 0.112531
0.187500 0.272903 0.120423
0.231728 0.271818 0.141038
0.264987 0.275937 0.162852
0.296512 0.281349 0.192663
0.330650 0.289440 0.232300
0.374195 0.303465 0.256289
0.431359 0.324486 0.280525
0.519222 0.358348 0.318703
0.647184 0.401384 0.366138
0.761143 0.428308 0.381960
0.885639 0.467216 0.451248
0.980160 0.516361 0.563132
0.999857 0.541336 0.615182
0.999847 0.547141 0.636999
0.215383 0.324706 0.155539
0.217274 0.324334 0.155155
0.234985 0.322601 0.153715
0.260435 0.324017 0.159497
0.286765 0.326473 0.168874
0.316788 0.332772 0.181894
0.356380 0.344088 0.210916
0.405425 0.358616 0.257534
0.471149 0.382106 0.292691
0.571603 0.421104 0.331263
0.699430 0.464823 0.377144
0.790293 0.481411 0.382298
0.917596 0.529237 0.478099
0.989357 0.573600 0.575132
0.999817 0.595938 0.620989
0.999642 0.600608 0.642403
0.266740 0.384066 0.195212
0.267686 0.383645 0.195005
0.275121 0.382393 0.194568
0.292845 0.383349 0.198463
0.316879 0.386753 0.206046
0.349953 0.396366 0.216081
0.394364 0.413343 0.226397
0.454118 0.434683 0.239020
