example_ofxGpuLutCube/bin/data/ofxGpuLutCube/LUT/U5 (neutral contrasty look).cube
LUT_3D_SIZE 6
0.027787 0.000000 0.001355
0.217327 0.000000 0.090964
0.298562 0.129865 0.186069
0.448076 0.241880 0.284840
0.810829 0.337260 0.397726
1.000000 0.443816 0.629149
0.129729 0.201550 0.039804
0.211621 0.190876 0.019943
0.301341 0.199560 0.188506
0.465780 0.278725 0.291842
0.831172 0.377109 0.406774
1.000000 0.460085 0.627394
0.235405 0.322540 0.153258
0.264929 0.324187 0.160901
0.358953 0.344927 0.198708
0.572152 0.421761 0.319848
0.918263 0.530341 0.473748
0.999681 0.600454 0.638400
0.367397 0.567193 0.272318
0.385074 0.565211 0.268325
0.521888 0.610618 0.272312
0.760566 0.689845 0.300996
0.964118 0.746311 0.530333
0.999608 0.776259 0.669111
0.546761 0.879539 0.376416
0.564913 0.880463 0.377435
0.686448 0.886791 0.393687
0.830485 0.878198 0.435697
0.978573 0.926902 0.623480
0.999843 0.929770 0.736661
0.817588 0.967507 0.675445
0.821319 0.967424 0.675856
0.852165 0.966052 0.685243
0.914829 0.974076 0.728476
0.979183 0.993147 0.800738
0.999947 0.999863 0.832483
0.000000 0.000000 0.182584
0.169781 0.000000 0.178935
0.295508 0.131543 0.206832
0.446765 0.241380 0.291090
0.809651 0.336376 0.400084
1.000000 0.444573 0.633057
0.047285 0.189808 0.185593
0.190252 0.180220 0.173670
0.302719 0.201218 0.213096
0.464884 0.277982 0.298410
0.829689 0.375915 0.408396
1.000000 0.459988 0.631379
0.215383 0.324706 0.155539
0.260435 0.324017 0.159497
0.356380 0.344088 0.210916
0.571603 0.421104 0.331263
0.917596 0.529237 0.478099
0.999642 0.600608 0.642403
0.363321 0.569460 0.274086
0.381133 0.565201 0.268942
0.519713 0.609739 0.272113
0.759829 0.689819 0.300884
0.963739 0.745861 0.540356
0.999608 0.776203 0.673237
0.542232 0.879363 0.376209
0.561036 0.880402 0.377213
0.684889 0.886757 0.393293
0.830018 0.878212 0.435434
0.978440 0.926801 0.623249
0.999843 0.929610 0.740707
0.816742 0.967529 0.675358
0.820492 0.967458 0.675769
0.851618 0.966035 0.685097
0.914579 0.973954 0.728120
0.979268 0.993069 0.800652
0.999947 0.999863 0.832483
0.051769 0.113365 0.264026
0.052191 0.114154 0.264204
0.275265 0.176077 0.294917
0.446204 0.236549 0.344951
0.800367 0.325432 0.420381
1.000010 0.451895 0.672770
0.088596 0.182767 0.272018
0.089071 0.182933 0.272258
0.288653 0.224297 0.309186
0.463504 0.273809 0.355773
0.817207 0.365223 0.423835
1.000010 0.458957 0.671941
0.183482 0.330182 0.326191
0.183381 0.330351 0.326863
0.353623 0.355631 0.360999
0.570313 0.418245 0.402387
0.906552 0.516495 0.506084
0.999649 0.602694 0.683267
0.330229 0.580516 0.335328
0.331910 0.580103 0.336309
0.479110 0.576458 0.330477
0.729914 0.653948 0.411645
0.955194 0.731939 0.589388
0.999616 0.776043 0.711235
0.499852 0.902759 0.401993
0.517608 0.889224 0.386680
0.665761 0.885947 0.388961
0.823963 0.878336 0.432736
0.974213 0.922322 0.634320
0.999827 0.927629 0.771604
0.805833 0.968145 0.675118
0.810345 0.967993 0.675229
0.846043 0.966450 0.683075
0.911612 0.972830 0.725228
0.978034 0.992783 0.799560
0.999947 0.999864 0.832552
0.164267 0.211728 0.372966
0.164373 0.211907 0.373189
0.165371 0.213930 0.375282
0.460004 0.297866 0.509895
0.841174 0.321310 0.587122
1.000000 0.473693 0.772989
0.172806 0.242335 0.387338
0.172902 0.242435 0.387479
0.173841 0.243819 0.389311
0.476535 0.328318 0.527488
0.855493 0.354859 0.595582
1.000000 0.481808 0.774298
0.223735 0.373960 0.472464
0.223804 0.374057 0.472611
0.224519 0.374981 0.474665
0.575020 0.468615 0.607720
0.915554 0.516696 0.658522
0.999765 0.606885 0.783184
0.297695 0.652269 0.646286
0.297592 0.652366 0.646707
0.302094 0.654155 0.651733
0.734502 0.698081 0.679313
0.951990 0.734964 0.721565
0.999708 0.775155 0.796817
0.500329 0.929212 0.657327
0.500384 0.929354 0.658056
0.545712 0.924236 0.656877
0.831556 0.895932 0.665817
0.965212 0.915814 0.771659
0.999827 0.921906 0.830974
0.764798 0.970439 0.674332
0.764803 0.970452 0.674395
0.814456 0.969739 0.684744
0.902528 0.972427 0.728642
0.974197 0.992164 0.812951
0.999947 0.999791 0.862521
0.248810 0.312590 0.573440
0.248835 0.312733 0.573595
0.249389 0.313889 0.575495
0.308685 0.324545 0.617443
0.835203 0.417364 0.877355
0.996998 0.563762 0.905295
0.253888 0.333066 0.590523
0.253950 0.333179 0.590672
0.254424 0.334150 0.592455
0.314207 0.345876 0.634161
0.842083 0.421336 0.883725
0.999011 0.568774 0.907000
0.281446 0.461823 0.703651
0.281505 0.461894 0.703913
0.281825 0.462630 0.705475
0.354373 0.478316 0.747922
0.873185 0.578365 0.909680
0.999774 0.622607 0.916178
0.331618 0.699363 0.864323
0.331651 0.699377 0.864301
0.332110 0.699564 0.865395
0.436406 0.711554 0.886267
0.918483 0.770491 0.921417
0.999817 0.772271 0.915848
0.509675 0.934136 0.919768
0.509751 0.934157 0.919892
0.510251 0.933928 0.921188
0.607782 0.931256 0.925983
0.952591 0.927859 0.916010
0.999947 0.906847 0.908117
0.788456 1.000000 0.907913
0.788453 1.000000 0.908063
0.787987 1.000000 0.909046
0.873105 1.000041 0.911817
0.971195 0.999989 0.909408
1.000006 0.999824 0.903622
0.324544 0.428994 0.878219
0.324547 0.429045 0.878236
0.324657 0.429484 0.878652
0.325003 0.431209 0.879784
0.552955 0.428181 0.964085
0.977585 0.622630 0.993885
0.327581 0.444167 0.888051
0.327582 0.444183 0.888059
0.327639 0.444616 0.888438
0.327979 0.446104 0.889240
0.554412 0.432151 0.970801
0.978763 0.626639 0.994884
0.353249 0.548678 0.950746
0.353255 0.548719 0.950679
0.353304 0.548904 0.950867
0.353537 0.549633 0.951276
0.574476 0.548808 0.991554
0.991262 0.662277 0.999772
0.431131 0.730298 0.999931
0.431131 0.730298 0.999931
0.431162 0.730398 0.999938
0.431356 0.730683 0.999964
0.634876 0.740483 0.999786
0.999584 0.765501 0.999861
0.565053 0.915342 0.999946
0.565054 0.915342 0.999946
0.565356 0.915320 0.999946
0.566277 0.915256 0.999946
0.771294 0.911888 0.999762
0.999650 0.878222 0.999846
0.734518 0.999767 0.999573
0.734519 0.999767 0.999573
0.734612 0.999767 0.999580
0.734741 0.999767 0.999605
0.861288 0.999794 0.999668
0.995746 0.987894 0.963765
