example_ofxGpuLutCube/bin/data/ofxGpuLutCube/LUT/U50 (warm sunset teal).cube
LUT_3D_SIZE 16
0.112062 0.086885 0.057252
0.123018 0.087037 0.057893
0.245182 0.080842 0.055695
0.372259 0.077302 0.045411
0.461463 0.079713 0.035035
0.543603 0.090028 0.029664
0.605982 0.109682 0.036683
0.668910 0.147585 0.065614
0.715602 0.192355 0.105959
0.753323 0.242252 0.152712
0.784024 0.295140 0.204044
0.811337 0.347265 0.256901
0.836790 0.396307 0.308721
0.865171 0.447486 0.364965
0.896239 0.495827 0.420233
0.925605 0.532279 0.463438
0.114443 0.096040 0.058595
0.124758 0.096223 0.060304
0.207980 0.107668 0.054627
0.328099 0.115053 0.046143
0.428992 0.117433 0.037873
0.515862 0.124331 0.033967
0.596521 0.143404 0.045808
0.661677 0.176486 0.077241
0.708186 0.213077 0.114656
0.747799 0.258885 0.160952
0.779171 0.306706 0.210391
0.806668 0.354986 0.261112
0.832120 0.399969 0.309667
0.860838 0.449836 0.365270
0.892485 0.497353 0.420203
0.924238 0.536101 0.466459
0.122377 0.133639 0.062898
0.147189 0.123629 0.070192
0.164858 0.125551 0.069673
0.276219 0.148623 0.054444
0.389899 0.155673 0.042145
0.495644 0.170047 0.043336
0.580499 0.189456 0.061738
0.646204 0.214633 0.092622
0.696162 0.244266 0.128450
0.739193 0.285191 0.175235
0.771206 0.326390 0.221530
0.799344 0.368414 0.268498
0.824857 0.408698 0.314031
0.854887 0.456764 0.369085
0.887388 0.502373 0.422827
0.921710 0.542284 0.471349
0.140291 0.187411 0.073274
0.176516 0.177523 0.084352
0.201785 0.168673 0.096315
0.231449 0.178988 0.092195
0.344335 0.207706 0.075502
0.462623 0.216373 0.056397
0.548211 0.231724 0.074708
0.619287 0.253452 0.105837
0.677424 0.281254 0.144839
0.722713 0.313725 0.187716
0.755947 0.346502 0.229679
0.784787 0.381415 0.272435
0.812650 0.418738 0.317296
0.842069 0.460151 0.366918
0.872251 0.499001 0.413855
0.905546 0.536631 0.460262
0.173190 0.245609 0.096376
0.215274 0.244572 0.113680
0.255619 0.244541 0.130556
0.286229 0.246769 0.144198
0.319432 0.257969 0.142000
0.423072 0.291234 0.136873
0.537194 0.307500 0.127901
0.619776 0.317754 0.142672
0.675837 0.341314 0.184329
0.720180 0.369024 0.228305
0.753658 0.396918 0.269902
0.784451 0.428840 0.313542
0.815183 0.463996 0.359258
0.847593 0.501884 0.407843
0.880888 0.536645 0.452491
0.912068 0.563414 0.487387
0.222904 0.316228 0.137179
0.263432 0.320226 0.157534
0.304082 0.321324 0.175875
0.338445 0.316838 0.194583
0.363104 0.322057 0.200534
0.391669 0.329595 0.198703
0.476173 0.359960 0.203037
0.584283 0.385199 0.206027
0.659174 0.390814 0.215061
0.706355 0.408698 0.251804
0.740230 0.430823 0.291600
0.772976 0.458778 0.334539
0.804623 0.488716 0.377295
0.837949 0.521355 0.422034
0.872374 0.552483 0.463996
0.906604 0.578285 0.498983
0.281132 0.386908 0.191440
0.312535 0.390661 0.209140
0.349157 0.391302 0.228122
0.381994 0.387396 0.243076
0.408759 0.383062 0.262730
0.433845 0.395605 0.265110
0.460517 0.403296 0.267033
0.525170 0.427283 0.276219
0.617731 0.448920 0.278813
0.679133 0.455146 0.290745
0.727230 0.463844 0.311925
0.761135 0.488258 0.354833
0.793881 0.513909 0.395453
0.828061 0.542199 0.437232
0.863706 0.569879 0.476722
0.900929 0.594442 0.511271
0.334295 0.445747 0.246708
0.360021 0.451453 0.263676
0.395178 0.454414 0.285740
0.423621 0.452735 0.298924
0.450019 0.448493 0.313695
0.467811 0.444190 0.327337
0.486061 0.451850 0.321965
0.505577 0.453986 0.320226
0.552514 0.469795 0.328038
0.634638 0.494392 0.338201
0.693294 0.505913 0.354437
0.743740 0.516533 0.374731
0.781491 0.535210 0.408240
0.815427 0.558892 0.446509
0.850553 0.582391 0.482490
0.891673 0.608102 0.519758
0.366155 0.479255 0.281987
0.381994 0.479652 0.291081
0.410163 0.482460 0.309636
0.438331 0.483070 0.325078
0.465400 0.482979 0.340642
0.489204 0.482094 0.358221
0.507774 0.487098 0.371588
0.528710 0.498451 0.373999
0.549737 0.505119 0.379065
0.588312 0.520562 0.392462
0.660822 0.547753 0.411322
0.720150 0.565545 0.432776
0.770199 0.579370 0.455085
0.817655 0.593805 0.479347
0.855863 0.614435 0.512810
0.894778 0.633077 0.542147
0.417700 0.528252 0.340703
0.427588 0.526787 0.345617
0.446967 0.526787 0.357702
0.470771 0.526452 0.371954
0.492744 0.525658 0.383246
0.515007 0.525078 0.397528
0.534661 0.525902 0.415259
0.551232 0.533654 0.423682
0.570153 0.543847 0.428077
0.588159 0.549371 0.433234
0.615991 0.559930 0.445167
0.680079 0.585168 0.463569
0.740505 0.603662 0.482155
0.792447 0.619654 0.505455
0.845640 0.635218 0.529259
0.892289 0.652470 0.556904
0.464118 0.570153 0.395483
0.471443 0.569299 0.399512
0.485573 0.568536 0.407996
0.506310 0.568078 0.421515
0.524132 0.567285 0.430213
0.542992 0.566400 0.441016
0.561303 0.566155 0.454566
0.575616 0.566278 0.469490
0.590295 0.574975 0.473579
0.605310 0.581842 0.476844
0.620203 0.585901 0.480873
0.642573 0.593194 0.489235
0.702449 0.618280 0.508263
0.766812 0.640101 0.528679
0.823423 0.657862 0.552087
0.878349 0.673724 0.575683
0.507530 0.606043 0.446937
0.512871 0.605219 0.449744
0.523369 0.604578 0.456123
0.539239 0.603754 0.466407
0.554711 0.602564 0.474617
0.569848 0.601312 0.482277
0.585382 0.600366 0.491951
0.599359 0.599847 0.503044
0.610834 0.601617 0.513787
0.623896 0.609064 0.515862
0.637171 0.614710 0.518791
0.651148 0.618647 0.522454
0.672511 0.625940 0.530510
0.730587 0.650935 0.550256
0.797635 0.674800 0.572442
0.861928 0.695858 0.598365
0.533837 0.629053 0.478523
0.539300 0.629267 0.482185
0.549798 0.630579 0.489876
0.564691 0.631861 0.500511
0.582269 0.633753 0.512840
0.597375 0.635004 0.521721
0.614099 0.636927 0.532677
0.629816 0.638727 0.544335
0.644831 0.641657 0.558251
0.657923 0.647364 0.568048
0.674678 0.657710 0.574304
0.690242 0.665278 0.580621
0.707942 0.672480 0.588464
0.729366 0.679622 0.596582
0.784970 0.701747 0.614527
0.848176 0.720418 0.630267
0.586938 0.678614 0.542382
0.584192 0.672358 0.536767
0.588464 0.669825 0.537835
0.599145 0.669490 0.544335
0.615137 0.671015 0.555749
0.628840 0.672084 0.563287
0.644160 0.673640 0.572473
0.659968 0.675441 0.583032
0.676020 0.678340 0.595789
0.689204 0.680537 0.608362
0.703334 0.688228 0.616175
0.719570 0.697139 0.621149
0.735317 0.704158 0.627558
0.750790 0.708858 0.632532
0.769650 0.713619 0.637903
0.822522 0.733529 0.654490
0.627314 0.719539 0.590173
0.624323 0.713619 0.584802
0.627192 0.710414 0.584619
0.635981 0.709438 0.589410
0.649989 0.710140 0.598596
0.664179 0.711116 0.607019
0.679103 0.712856 0.615503
0.694514 0.714321 0.624811
0.710689 0.716579 0.635981
0.725338 0.718563 0.647608
0.738827 0.721553 0.660792
0.754513 0.730587 0.666438
0.773892 0.740841 0.673945
0.791531 0.748287 0.681147
0.809964 0.754452 0.688075
0.827911 0.757896 0.692214
0.674415 0.765946 0.643106
0.670911 0.760177 0.637735
0.673357 0.757123 0.637370
0.681572 0.756237 0.641709
0.694976 0.756818 0.650079
0.710647 0.757946 0.659771
0.725721 0.759776 0.667922
0.742341 0.761876 0.677472
0.760812 0.765131 0.689397
0.779751 0.768958 0.702958
0.798889 0.774033 0.718710
0.817719 0.781465 0.733480
0.843049 0.795405 0.745641
0.871293 0.809408 0.758976
0.903472 0.824122 0.776447
0.942806 0.840877 0.798504
0.112184 0.087343 0.059327
0.119966 0.086641 0.061219
0.214084 0.072358 0.071077
0.326543 0.069978 0.067597
0.414984 0.080751 0.067811
0.502159 0.097963 0.070497
0.580743 0.129702 0.083558
0.647181 0.171115 0.108766
0.696834 0.212650 0.139254
0.738979 0.260807 0.179812
0.772213 0.310399 0.225803
0.800320 0.357092 0.271580
0.826383 0.400702 0.316686
0.855436 0.448554 0.368536
0.886778 0.493721 0.419532
0.917837 0.530777 0.463039
0.108644 0.097353 0.064942
0.124880 0.098177 0.065217
0.186954 0.103883 0.068574
0.293462 0.109895 0.069978
0.396246 0.116670 0.070039
0.491005 0.131899 0.074220
0.576379 0.160647 0.091066
0.643427 0.195987 0.117372
0.693843 0.232822 0.148226
0.737697 0.279088 0.190463
0.770260 0.323857 0.234257
0.798093 0.366857 0.278111
0.823606 0.407050 0.320623
0.852659 0.452491 0.370611
0.883665 0.496010 0.420447
0.916084 0.533761 0.465071
0.104524 0.144137 0.074189
0.143862 0.137575 0.076814
0.172213 0.134615 0.081209
0.275944 0.147646 0.071748
0.382208 0.159945 0.073610
0.485176 0.179782 0.084169
0.569635 0.204135 0.103975
0.636072 0.232517 0.130709
0.690669 0.266911 0.165377
0.733303 0.305730 0.205509
0.764309 0.342382 0.244907
0.791714 0.379065 0.284520
0.817807 0.416022 0.325414
0.847684 0.459724 0.375006
0.879301 0.501305 0.423499
0.912687 0.538376 0.467972
0.118593 0.205081 0.083742
0.170016 0.196628 0.094087
0.214481 0.185397 0.110048
0.240940 0.190707 0.108705
0.352911 0.216434 0.097017
0.463783 0.224247 0.088869
0.547662 0.245548 0.112551
0.619532 0.271611 0.143069
0.676234 0.300511 0.178439
0.719661 0.331548 0.215976
0.752438 0.362402 0.253483
0.781094 0.394903 0.291997
0.810452 0.432349 0.336095
0.840299 0.470680 0.381445
0.870146 0.505638 0.423651
0.901658 0.538419 0.463834
0.147005 0.252689 0.097932
0.198123 0.250401 0.115328
0.248753 0.244907 0.134401
0.277379 0.239597 0.147829
0.304997 0.247471 0.143069
0.405463 0.277989 0.138216
0.517113 0.294285 0.132937
0.599695 0.310460 0.152621
0.658473 0.335515 0.190127
0.705531 0.363775 0.230900
0.741299 0.392645 0.271183
0.773831 0.425208 0.313603
0.805966 0.461433 0.359594
0.839017 0.498573 0.406317
0.872770 0.533165 0.450019
0.906065 0.561777 0.486727
0.202029 0.319158 0.136812
0.242802 0.318975 0.153384
0.291997 0.316167 0.174807
0.327581 0.309728 0.190768
0.352789 0.312932 0.199649
0.380896 0.321050 0.197818
0.464179 0.349645 0.200198
0.569329 0.372992 0.203159
0.646204 0.379095 0.210819
0.693050 0.400946 0.250370
0.729732 0.425330 0.290715
0.763790 0.454475 0.333532
0.796262 0.484840 0.375738
0.829648 0.516747 0.418708
0.864134 0.547692 0.459815
0.900299 0.575578 0.496947
0.267735 0.390600 0.192111
0.299046 0.392187 0.207401
0.342290 0.390600 0.229862
0.375158 0.384863 0.242435
0.402411 0.378759 0.259678
0.425269 0.387549 0.262364
0.449226 0.392920 0.261418
0.514214 0.416236 0.268620
0.607263 0.439765 0.274357
0.670985 0.447089 0.286076
0.717922 0.457343 0.308965
0.752163 0.481636 0.350347
0.785245 0.507591 0.390509
0.819394 0.535576 0.431098
0.854917 0.563470 0.470344
0.893650 0.590299 0.507400
0.321050 0.444892 0.243076
0.345708 0.447517 0.257176
0.379095 0.446937 0.275639
0.411505 0.443793 0.290593
0.438758 0.438758 0.304265
0.458167 0.433997 0.320287
0.478004 0.443702 0.316716
0.498177 0.447211 0.315923
0.546441 0.463722 0.323613
0.628809 0.488136 0.333532
0.687068 0.499275 0.349065
0.737545 0.509667 0.368872
0.774472 0.530114 0.404456
0.808316 0.553674 0.441962
0.843626 0.577447 0.477821
0.883687 0.602765 0.514212
0.364202 0.485695 0.287327
0.379736 0.485206 0.295537
0.405676 0.484993 0.310521
0.435889 0.483986 0.327214
0.462104 0.482124 0.340429
0.486213 0.480537 0.356939
0.504936 0.484413 0.371283
0.525505 0.495796 0.373297
0.545830 0.501701 0.377264
0.584985 0.517388 0.390173
0.657252 0.544182 0.408545
0.715908 0.561608 0.429877
0.765774 0.575250 0.451667
0.812894 0.591241 0.478065
0.852445 0.613336 0.513024
0.893595 0.633851 0.544415
0.413031 0.530083 0.341131
0.423835 0.529076 0.346654
0.442908 0.528191 0.357702
0.469490 0.527703 0.374304
0.491737 0.526726 0.385168
0.513848 0.525444 0.398474
0.532708 0.524804 0.414313
0.548333 0.531121 0.422339
0.566674 0.540612 0.425788
0.584192 0.545678 0.430060
0.612329 0.555993 0.441260
0.676570 0.581445 0.459937
0.736873 0.600641 0.479805
0.789517 0.617456 0.504082
0.843717 0.633967 0.528893
0.891363 0.653001 0.558804
0.460487 0.571313 0.395483
0.469001 0.571099 0.400549
0.483070 0.570275 0.408820
0.504112 0.569329 0.422034
0.522942 0.567987 0.431586
0.541436 0.566186 0.441169
0.558984 0.564752 0.452888
0.573083 0.564141 0.466926
0.587304 0.572107 0.471168
0.602136 0.578851 0.474037
0.616724 0.582605 0.477577
0.639216 0.590021 0.486030
0.699611 0.615625 0.505699
0.764096 0.637812 0.526635
0.820890 0.656031 0.550744
0.876904 0.672800 0.575398
0.503105 0.605951 0.445075
0.509209 0.605341 0.448463
0.519554 0.604364 0.454444
0.535698 0.603326 0.464515
0.552819 0.602289 0.474434
0.568353 0.601007 0.482033
0.584100 0.600122 0.491707
0.598260 0.599329 0.502525
0.609186 0.600183 0.512932
0.621759 0.607172 0.514366
0.634485 0.612329 0.516655
0.648005 0.615869 0.519738
0.668910 0.622675 0.527123
0.726711 0.647456 0.546410
0.792996 0.670832 0.568048
0.856836 0.692072 0.594151
0.533928 0.631739 0.481239
0.539300 0.631830 0.484596
0.549523 0.632654 0.491676
0.563989 0.633478 0.501640
0.582116 0.634913 0.514427
0.597223 0.635889 0.522911
0.613977 0.637781 0.533806
0.629908 0.639429 0.545281
0.644770 0.641962 0.558679
0.657557 0.647181 0.568505
0.673823 0.657191 0.574334
0.689326 0.664698 0.580529
0.707057 0.671931 0.588373
0.728664 0.679255 0.596643
0.785336 0.702052 0.615320
0.849629 0.721389 0.631968
0.586053 0.680323 0.543450
0.583825 0.674525 0.538415
0.588220 0.672053 0.539544
0.599023 0.671595 0.545983
0.615015 0.672786 0.557000
0.629358 0.673610 0.565148
0.644434 0.674739 0.573816
0.660060 0.676234 0.583917
0.675837 0.678645 0.596155
0.688869 0.680598 0.608362
0.702602 0.687800 0.616175
0.718898 0.696712 0.621057
0.734890 0.703944 0.627771
0.750607 0.708949 0.632990
0.770047 0.714107 0.638849
0.824037 0.734651 0.656192
0.626215 0.720851 0.590692
0.623713 0.715328 0.585809
0.626856 0.712459 0.585962
0.636011 0.711513 0.590967
0.650050 0.712093 0.600000
0.664973 0.712917 0.609033
0.679805 0.714321 0.617243
0.695003 0.715419 0.626062
0.710719 0.717128 0.636561
0.725216 0.718807 0.647822
0.738613 0.721553 0.660914
0.754147 0.730373 0.666590
0.773526 0.740658 0.674037
0.791226 0.748226 0.681392
0.810147 0.754696 0.688685
0.828789 0.758594 0.693369
0.673287 0.767228 0.643413
0.670180 0.761734 0.638470
0.672779 0.758745 0.638230
0.681301 0.757890 0.642661
0.694885 0.758561 0.651121
0.711561 0.759687 0.661664
0.726604 0.761422 0.669723
0.743192 0.763277 0.678995
0.761386 0.766134 0.690461
0.780173 0.769716 0.703715
0.799159 0.774486 0.719104
0.817472 0.781373 0.733693
0.842049 0.794799 0.745188
0.869961 0.808652 0.758192
0.902055 0.823369 0.775608
0.941544 0.840219 0.797759
0.111391 0.087922 0.070344
0.121004 0.087068 0.078309
0.162905 0.080201 0.083406
0.277043 0.055512 0.101137
0.372320 0.050813 0.096345
0.452216 0.108888 0.106020
0.540826 0.146273 0.123018
0.613031 0.189883 0.146670
0.670008 0.230655 0.172732
0.719173 0.279728 0.210788
0.755550 0.326543 0.251225
0.785855 0.370550 0.292485
0.813993 0.411658 0.333745
0.845823 0.458442 0.383551
0.879240 0.501488 0.431647
0.912504 0.536958 0.472767
0.103487 0.100221 0.090547
0.124636 0.095613 0.084840
0.160220 0.095888 0.083375
0.250034 0.099214 0.094301
0.343175 0.119203 0.100740
0.445838 0.142397 0.113161
0.536980 0.173892 0.130678
0.611109 0.210300 0.153231
0.670710 0.250248 0.181949
0.719142 0.295750 0.219730
0.754299 0.338781 0.258854
0.784054 0.379492 0.298528
0.811917 0.417884 0.337743
0.843381 0.461952 0.385351
0.876371 0.503288 0.432044
0.910905 0.539544 0.474463
0.097444 0.137301 0.095521
0.123659 0.133608 0.092287
0.173342 0.141085 0.096712
0.248966 0.147982 0.100679
0.346746 0.162753 0.110018
0.447974 0.184390 0.122744
0.537194 0.212345 0.141421
0.609186 0.242527 0.164096
0.670130 0.280888 0.196841
0.716060 0.319432 0.232578
0.749538 0.354803 0.267216
0.778683 0.389654 0.303044
0.807248 0.426123 0.341985
0.838712 0.467872 0.388373
0.872251 0.507683 0.434089
0.907449 0.543365 0.476477
0.091554 0.202487 0.111116
0.134615 0.196811 0.107240
0.200198 0.195346 0.115572
0.239292 0.194766 0.124392
0.340978 0.209079 0.116182
0.437995 0.223880 0.124575
0.523278 0.248020 0.145388
0.599695 0.279271 0.174594
0.658839 0.309636 0.205539
0.704952 0.341344 0.239628
0.739498 0.372168 0.273716
0.769589 0.403357 0.308598
0.800870 0.440528 0.350744
0.831907 0.476997 0.392920
0.863005 0.510246 0.432288
0.895786 0.541547 0.470205
0.126833 0.251530 0.117891
0.161593 0.251011 0.119356
0.226719 0.250340 0.136812
0.276646 0.243229 0.157900
0.302190 0.249302 0.155856
0.401862 0.276707 0.152407
0.506859 0.286534 0.148135
0.582727 0.312322 0.178714
0.643336 0.339666 0.212863
0.692378 0.369238 0.250217
0.729824 0.398718 0.287633
0.764096 0.432166 0.328862
0.797635 0.467842 0.372442
0.831907 0.504112 0.416938
0.867094 0.537804 0.458778
0.902171 0.565690 0.494036
0.172885 0.320500 0.144839
0.203983 0.321721 0.150210
0.268681 0.320165 0.173983
0.323125 0.315221 0.197360
0.350622 0.313085 0.210513
0.377813 0.321904 0.208103
0.462013 0.349920 0.210788
0.562219 0.370092 0.215549
0.635248 0.380560 0.229313
0.682612 0.404120 0.266758
0.720607 0.430030 0.305547
0.755520 0.459388 0.346258
0.789059 0.489601 0.386694
0.823453 0.520958 0.427863
0.859220 0.551171 0.467292
0.896987 0.578786 0.503442
0.234501 0.391852 0.189609
0.267796 0.393866 0.202152
0.318883 0.392157 0.224369
0.369421 0.388647 0.248325
0.400946 0.382391 0.264439
0.423560 0.388037 0.271305
0.447303 0.394018 0.269963
0.513359 0.417548 0.276799
0.602472 0.438666 0.283543
0.666468 0.445991 0.294255
0.710445 0.460212 0.321447
0.745144 0.484749 0.360937
0.778958 0.510613 0.399390
0.813901 0.538415 0.438605
0.850462 0.565942 0.476539
0.890585 0.592620 0.512870
0.295720 0.446296 0.238926
0.323888 0.449256 0.253178
0.361242 0.448707 0.271641
0.405921 0.446662 0.295537
0.435706 0.441230 0.308293
0.457496 0.435798 0.324132
0.476417 0.444099 0.322881
0.496162 0.447700 0.322179
0.545953 0.464851 0.329564
0.627161 0.488808 0.340337
0.684077 0.499611 0.356023
0.734768 0.509819 0.374701
0.769345 0.532311 0.412268
0.803677 0.555566 0.448310
0.839750 0.579156 0.483040
0.880597 0.603991 0.518223
0.347204 0.487404 0.284764
0.364111 0.486824 0.292821
0.392279 0.486488 0.307622
0.430213 0.486000 0.330114
0.459297 0.484077 0.344030
0.484810 0.482399 0.360082
0.503990 0.484565 0.376013
0.524285 0.496040 0.377813
0.544274 0.502068 0.381689
0.584649 0.518364 0.394446
0.656336 0.544762 0.413123
0.713619 0.561852 0.434394
0.763760 0.575402 0.455634
0.809384 0.592737 0.483558
0.849882 0.614801 0.517754
0.892059 0.635467 0.548783
0.401099 0.531395 0.339147
0.412940 0.530541 0.344945
0.433387 0.529778 0.356085
0.462593 0.529473 0.373999
0.489906 0.528893 0.389075
0.512871 0.527520 0.401801
0.532494 0.526604 0.417029
0.547967 0.531579 0.426459
0.566094 0.541192 0.429572
0.583368 0.546227 0.433692
0.612177 0.556847 0.444404
0.676051 0.582025 0.463172
0.735470 0.601007 0.483314
0.788571 0.617884 0.507225
0.843412 0.634485 0.531914
0.890151 0.654305 0.562732
0.451972 0.572473 0.394049
0.461341 0.572442 0.399390
0.476387 0.571649 0.407843
0.498299 0.570703 0.421057
0.521294 0.569574 0.434516
0.540337 0.567742 0.443824
0.558679 0.566278 0.455451
0.573388 0.565698 0.469215
0.586969 0.572503 0.474311
0.601556 0.579217 0.476631
0.615930 0.582727 0.479774
0.638483 0.590326 0.488197
0.699672 0.616205 0.508141
0.764309 0.638422 0.529168
0.820798 0.656611 0.553552
0.877386 0.673470 0.578024
0.496651 0.606775 0.443580
0.503136 0.606195 0.447059
0.513939 0.605219 0.453040
0.530663 0.604242 0.463233
0.551324 0.603540 0.476600
0.567346 0.602258 0.484138
0.583551 0.601282 0.493568
0.598077 0.600397 0.504082
0.609186 0.600549 0.515068
0.621454 0.607385 0.516350
0.634150 0.612604 0.518425
0.647639 0.616144 0.521447
0.668574 0.623072 0.528801
0.727108 0.648035 0.548241
0.793393 0.671290 0.569757
0.856930 0.692319 0.596012
0.529778 0.633295 0.481056
0.535119 0.633387 0.484382
0.545342 0.634089 0.491157
0.560296 0.634760 0.501122
0.579706 0.636194 0.514824
0.596429 0.637201 0.524712
0.613458 0.639002 0.535363
0.629694 0.640528 0.546624
0.644984 0.643030 0.560021
0.657801 0.647761 0.570489
0.674006 0.657771 0.576318
0.689662 0.665461 0.582483
0.707362 0.672755 0.590356
0.729000 0.680018 0.598505
0.786465 0.702998 0.617243
0.851242 0.722395 0.634071
0.582116 0.681422 0.542718
0.580072 0.675868 0.537896
0.585046 0.673487 0.539361
0.596094 0.673030 0.545800
0.612329 0.674098 0.556725
0.628656 0.674952 0.566705
0.644007 0.676020 0.575250
0.659968 0.677485 0.585382
0.676081 0.679866 0.597559
0.689448 0.681697 0.609674
0.703059 0.688441 0.617914
0.719173 0.697322 0.622766
0.735256 0.704616 0.629358
0.750973 0.709560 0.634485
0.770535 0.714748 0.640345
0.825704 0.735776 0.658080
0.622461 0.721828 0.589746
0.620020 0.716457 0.585046
0.623560 0.713710 0.585351
0.633021 0.712764 0.590448
0.647395 0.713313 0.599542
0.664240 0.714199 0.610315
0.679377 0.715633 0.618555
0.694850 0.716670 0.627314
0.710719 0.718166 0.637598
0.725460 0.719722 0.648768
0.739193 0.722499 0.661921
0.754574 0.731014 0.668116
0.774044 0.741329 0.675502
0.791867 0.748928 0.682826
0.810819 0.755428 0.690120
0.829792 0.759446 0.694923
0.669533 0.768356 0.642437
0.666517 0.762894 0.637526
0.669423 0.759936 0.637408
0.678280 0.759111 0.641991
0.692291 0.759841 0.650692
0.709892 0.761028 0.661948
0.725996 0.762674 0.670733
0.742828 0.764437 0.679944
0.761326 0.767202 0.691377
0.780417 0.770752 0.704632
0.799709 0.775463 0.720020
0.818081 0.781983 0.735038
0.842537 0.795320 0.746441
0.870541 0.809233 0.759355
0.902727 0.823921 0.776680
0.942428 0.840860 0.798951
0.101778 0.088472 0.114504
0.112856 0.087007 0.119905
0.165805 0.078218 0.116854
0.219120 0.068299 0.115053
0.326604 0.042054 0.133639
0.423774 0.052888 0.137270
0.512139 0.116060 0.148379
0.580957 0.207034 0.183505
0.644923 0.250523 0.210117
0.697627 0.300694 0.245975
0.736446 0.346380 0.282872
0.768948 0.388220 0.320134
0.799863 0.427985 0.358495
0.834195 0.471901 0.404181
0.869688 0.511894 0.448188
0.905309 0.544766 0.485833
0.095033 0.097292 0.135073
0.124941 0.091859 0.122591
0.163119 0.090700 0.114290
0.212284 0.090730 0.112703
0.310857 0.089235 0.128817
0.415717 0.113619 0.141146
0.504723 0.169314 0.160006
0.579156 0.226078 0.190127
0.646052 0.270054 0.219699
0.697444 0.316106 0.254765
0.735592 0.357031 0.289433
0.767483 0.395544 0.324559
0.798337 0.433448 0.362066
0.831907 0.474586 0.405310
0.867063 0.513115 0.448035
0.903893 0.547044 0.487161
0.089174 0.139406 0.133883
0.120546 0.132021 0.125338
0.163729 0.129397 0.122866
0.224399 0.133364 0.124910
0.315435 0.150240 0.138369
0.412634 0.181704 0.154055
0.501762 0.224582 0.179721
0.580896 0.258701 0.203403
0.645319 0.297673 0.233097
0.695247 0.335576 0.264591
0.731502 0.370245 0.295567
0.762600 0.403998 0.328069
0.794095 0.440223 0.365026
0.827726 0.479469 0.407355
0.863249 0.516838 0.449409
0.900471 0.550133 0.488444
0.080873 0.192660 0.140322
0.117281 0.188479 0.136233
0.168399 0.190494 0.136995
0.246708 0.209232 0.150851
0.322423 0.214878 0.153902
0.408850 0.231388 0.165499
0.496071 0.257237 0.184817
0.574701 0.289464 0.210819
0.636622 0.321111 0.238621
0.685817 0.353674 0.268894
0.723049 0.384710 0.299931
0.755306 0.415991 0.332189
0.788785 0.452613 0.371832
0.821500 0.487160 0.410590
0.854429 0.518425 0.446693
0.889174 0.547762 0.481558
0.076387 0.247837 0.148684
0.117250 0.249332 0.149355
0.180545 0.250431 0.148928
0.262272 0.255863 0.165011
0.302586 0.256077 0.175296
0.397955 0.272251 0.170779
0.486366 0.289006 0.183871
0.562280 0.318181 0.212711
0.624720 0.347356 0.243503
0.675868 0.378119 0.276890
0.715389 0.408301 0.311040
0.751553 0.443153 0.351232
0.786679 0.477913 0.391699
0.822660 0.512505 0.432807
0.859556 0.544610 0.471687
0.896597 0.571077 0.504543
0.134920 0.320500 0.171176
0.172946 0.321630 0.173373
0.224308 0.321874 0.177401
0.299779 0.322972 0.200168
0.349889 0.317082 0.224247
0.375921 0.325444 0.223819
0.463111 0.351904 0.226474
0.556176 0.365179 0.230442
0.619806 0.385168 0.256931
0.668696 0.410834 0.291630
0.708400 0.437751 0.327337
0.744411 0.467384 0.365576
0.779294 0.497078 0.403296
0.815122 0.527459 0.441688
0.852415 0.556725 0.478828
0.892296 0.583312 0.512953
0.208652 0.390326 0.207004
0.236301 0.393042 0.212192
0.276188 0.393408 0.219486
0.343633 0.392676 0.246464
0.395727 0.388037 0.271000
0.420813 0.388647 0.283452
0.444556 0.396002 0.282200
0.513207 0.419409 0.288304
0.596582 0.437201 0.296086
0.661494 0.444190 0.305699
0.699855 0.465492 0.340764
0.735500 0.490394 0.377813
0.770474 0.516106 0.413825
0.806607 0.543450 0.450813
0.844663 0.570214 0.486610
0.886448 0.596167 0.521128
0.271641 0.446479 0.246738
0.293553 0.450355 0.254765
0.325383 0.450721 0.264103
0.381811 0.448890 0.290562
0.428473 0.444953 0.313573
0.455390 0.439033 0.328466
0.473732 0.443946 0.331792
0.493538 0.448463 0.330968
