example_ofxGpuLutCube/bin/data/ofxGpuLutCube/LUT/U50 (warm sunset teal).cube
LUT_3D_SIZE 6
0.112062 0.086885 0.057252
0.372259 0.077302 0.045411
0.605982 0.109682 0.036683
0.753323 0.242252 0.152712
0.836790 0.396307 0.308721
0.925605 0.532279 0.463438
0.140291 0.187411 0.073274
0.231449 0.178988 0.092195
0.548211 0.231724 0.074708
0.722713 0.313725 0.187716
0.812650 0.418738 0.317296
0.905546 0.536631 0.460262
0.281132 0.386908 0.191440
0.381994 0.387396 0.243076
0.460517 0.403296 0.267033
0.679133 0.455146 0.290745
0.793881 0.513909 0.395453
0.900929 0.594442 0.511271
0.417700 0.528252 0.340703
0.470771 0.526452 0.371954
0.534661 0.525902 0.415259
0.588159 0.549371 0.433234
0.740505 0.603662 0.482155
0.892289 0.652470 0.556904
0.533837 0.629053 0.478523
0.564691 0.631861 0.500511
0.614099 0.636927 0.532677
0.657923 0.647364 0.568048
0.707942 0.672480 0.588464
0.848176 0.720418 0.630267
0.674415 0.765946 0.643106
0.681572 0.756237 0.641709
0.725721 0.759776 0.667922
0.779751 0.768958 0.702958
0.843049 0.795405 0.745641
0.942806 0.840877 0.798504
0.101778 0.088472 0.114504
0.219120 0.068299 0.115053
0.512139 0.116060 0.148379
0.697627 0.300694 0.245975
0.799863 0.427985 0.358495
0.905309 0.544766 0.485833
0.080873 0.192660 0.140322
0.246708 0.209232 0.150851
0.496071 0.257237 0.184817
0.685817 0.353674 0.268894
0.788785 0.452613 0.371832
0.889174 0.547762 0.481558
0.208652 0.390326 0.207004
0.343633 0.392676 0.246464
0.444556 0.396002 0.282200
0.661494 0.444190 0.305699
0.770474 0.516106 0.413825
0.886448 0.596167 0.521128
0.379461 0.533135 0.335210
0.447974 0.531365 0.370611
0.531579 0.529168 0.420691
0.582177 0.547265 0.439307
0.733974 0.601953 0.489143
0.888335 0.656249 0.568795
0.521080 0.635218 0.479438
0.552667 0.635920 0.498848
0.612116 0.640620 0.537407
0.658045 0.648585 0.573510
0.707912 0.674006 0.593500
0.853708 0.723890 0.637243
0.662602 0.769972 0.640332
0.672419 0.760849 0.640343
0.724290 0.764262 0.671805
0.780599 0.772306 0.705943
0.843481 0.796296 0.748548
0.944010 0.842051 0.801058
0.000000 0.087434 0.293431
0.226261 0.043946 0.271397
0.411627 0.000000 0.246281
0.650660 0.231662 0.307958
0.755642 0.458350 0.425727
0.876487 0.573993 0.537832
0.000000 0.179141 0.291905
0.209628 0.163821 0.266209
0.418952 0.192569 0.267948
0.627710 0.336889 0.334447
0.738216 0.497078 0.449256
0.865090 0.571216 0.528219
0.070710 0.371893 0.305638
0.243351 0.381262 0.312932
0.452094 0.426734 0.353918
0.608392 0.469062 0.395117
0.734218 0.539940 0.473243
0.870722 0.610633 0.557722
0.308537 0.537469 0.380438
0.377264 0.538048 0.389197
0.509117 0.544091 0.434089
0.577844 0.553582 0.467109
0.731899 0.605249 0.514977
0.880752 0.664614 0.597058
0.476478 0.642695 0.482887
0.507958 0.644282 0.494972
0.589807 0.649409 0.538659
0.658503 0.654536 0.583551
0.708644 0.678523 0.607080
0.868619 0.730667 0.652707
0.614350 0.778863 0.627882
0.624834 0.770513 0.625236
0.695146 0.771831 0.662957
0.777031 0.780106 0.710855
0.846000 0.799803 0.758134
0.951969 0.847719 0.811614
0.000000 0.087709 0.442542
0.142916 0.041444 0.434333
0.406958 0.000000 0.420356
0.594293 0.070314 0.408667
0.738705 0.357305 0.448951
0.853360 0.549284 0.558826
0.000000 0.118837 0.452857
0.168704 0.116945 0.434577
0.396948 0.149020 0.418341
0.581598 0.234348 0.413764
0.721248 0.413581 0.461433
0.838514 0.560317 0.558126
0.033631 0.350744 0.437171
0.231266 0.360723 0.435401
0.414069 0.386877 0.433631
0.564996 0.421332 0.443763
0.698299 0.520043 0.503441
0.845296 0.622707 0.601665
0.236515 0.525414 0.468849
0.312932 0.528679 0.471168
0.446082 0.541802 0.482673
0.583642 0.574548 0.516533
0.712642 0.615167 0.563378
0.874967 0.674601 0.637373
0.376226 0.655665 0.533654
0.421363 0.656397 0.537285
0.517510 0.659571 0.549340
0.638849 0.669184 0.591089
0.706905 0.683375 0.625696
0.892930 0.740058 0.682573
0.505811 0.793415 0.631921
0.521379 0.785895 0.624924
0.607069 0.787539 0.647146
0.739729 0.794734 0.706336
0.848142 0.806370 0.770843
0.966184 0.857832 0.830879
0.000000 0.091188 0.586725
0.000000 0.061097 0.584375
0.333623 0.000000 0.579431
0.566796 0.000000 0.574151
0.735073 0.242283 0.559380
0.836314 0.464426 0.583071
0.000000 0.073304 0.596857
0.000000 0.030518 0.590326
0.345312 0.000000 0.582544
0.559350 0.168032 0.569787
0.717708 0.322362 0.556176
0.821413 0.484566 0.580582
0.000000 0.297215 0.582635
0.086702 0.312657 0.577020
0.370214 0.350439 0.568231
0.547478 0.395361 0.562737
0.691218 0.458106 0.564874
0.823057 0.560864 0.613906
0.111238 0.507469 0.589197
0.241794 0.513085 0.587579
0.407172 0.525719 0.582238
0.557397 0.551873 0.583490
0.681697 0.578576 0.596551
0.845707 0.650773 0.665070
0.310399 0.654261 0.619104
0.360784 0.655970 0.620264
0.465949 0.661769 0.625269
0.581994 0.674006 0.637812
0.711849 0.699001 0.666651
0.906661 0.753620 0.738140
0.320569 0.809904 0.707248
0.350065 0.804459 0.700681
0.445241 0.810202 0.708227
0.598091 0.816036 0.714998
0.813228 0.827587 0.772622
0.982785 0.869766 0.858564
0.000000 0.128399 0.755587
0.000000 0.127362 0.754823
0.047366 0.081030 0.752475
0.494700 0.000000 0.751634
0.742043 0.001318 0.753287
0.910227 0.393702 0.740269
0.000000 0.130569 0.760247
0.000000 0.127544 0.758020
0.061835 0.080789 0.752929
0.490811 0.000000 0.748235
0.726117 0.136489 0.738771
0.883537 0.406314 0.720060
0.000000 0.134962 0.766964
0.000000 0.135504 0.767744
0.002458 0.101237 0.765586
0.485124 0.229924 0.756265
0.715956 0.390431 0.741268
0.878202 0.504108 0.735258
0.000000 0.387560 0.781875
0.000000 0.379559 0.781904
0.002597 0.366340 0.778511
0.486264 0.498770 0.758830
0.702816 0.550954 0.752742
0.878791 0.598560 0.758659
0.000000 0.654655 0.804804
0.000846 0.653435 0.805210
0.003585 0.656020 0.804531
0.439316 0.669248 0.796970
0.685171 0.682737 0.791934
0.907909 0.712078 0.810512
0.000733 0.836385 0.848275
0.001814 0.834391 0.844919
0.003435 0.838546 0.846821
0.386908 0.842901 0.850129
0.651916 0.855956 0.865357
0.959475 0.915276 0.936355
