example_ofxGpuLutCube/bin/data/ofxGpuLutCube/LUT/U6 (saturation teal orange).cube
LUT_3D_SIZE 16
0.146086 0.135147 0.127593
0.170856 0.130631 0.122299
0.199339 0.126592 0.120938
0.231967 0.128300 0.127397
0.275029 0.141178 0.145147
0.336124 0.166569 0.174090
0.423369 0.197736 0.212170
0.511480 0.212946 0.243185
0.580197 0.212713 0.250435
0.643825 0.195451 0.240995
0.698767 0.142949 0.210505
0.760078 0.000000 0.148132
0.820512 0.000000 0.000000
0.869611 0.000000 0.000000
0.898974 0.000000 0.000000
0.902451 0.000000 0.000000
0.153742 0.151499 0.122399
0.168218 0.149053 0.119054
0.197897 0.139953 0.118609
0.231567 0.135538 0.126823
0.275167 0.145003 0.145156
0.336326 0.168250 0.174127
0.423397 0.198639 0.212071
0.511482 0.213641 0.243094
0.580201 0.213339 0.250318
0.643912 0.196130 0.240887
0.698767 0.144322 0.210339
0.760052 0.000000 0.147711
0.820598 0.000000 0.000000
0.869683 0.000000 0.000000
0.899107 0.000000 0.000000
0.902545 0.000000 0.000000
0.166121 0.175072 0.121561
0.171403 0.175093 0.120259
0.193107 0.172983 0.117409
0.229611 0.164034 0.125026
0.275483 0.164034 0.145197
0.338187 0.179221 0.174265
0.423604 0.205280 0.211351
0.511494 0.218933 0.242384
0.580097 0.218125 0.249375
0.644093 0.201562 0.239913
0.699012 0.154450 0.208779
0.760421 0.025138 0.144359
0.821063 0.000000 0.000000
0.870053 0.000000 0.000000
0.899281 0.000000 0.000000
0.902713 0.000000 0.000000
0.181130 0.203820 0.129541
0.183073 0.203731 0.129346
0.195628 0.203710 0.128571
0.227613 0.202338 0.130246
0.276919 0.201131 0.146952
0.340103 0.207490 0.173854
0.424456 0.224604 0.208946
0.511382 0.235243 0.239570
0.580198 0.233167 0.246124
0.644976 0.218447 0.236274
0.699412 0.180494 0.202959
0.761627 0.079193 0.131178
0.822136 0.000000 0.000000
0.871494 0.000000 0.000000
0.900630 0.000000 0.000000
0.903607 0.000000 0.000000
0.202388 0.243350 0.144957
0.203455 0.243307 0.144977
0.211622 0.243186 0.145099
0.236226 0.244770 0.146890
0.281484 0.247632 0.156027
0.345675 0.252175 0.176108
0.426423 0.259931 0.205587
0.511420 0.265340 0.232540
0.582381 0.262046 0.238662
0.646926 0.248201 0.226492
0.701257 0.217309 0.187303
0.764299 0.161078 0.109115
0.825096 0.092861 0.000000
0.874490 0.026543 0.000000
0.902962 0.000000 0.000000
0.905180 0.000000 0.000000
0.234710 0.299950 0.168565
0.235488 0.299915 0.168564
0.241121 0.299350 0.168428
0.259128 0.298234 0.168662
0.295042 0.301835 0.172739
0.354508 0.307080 0.183928
0.432360 0.310569 0.203549
0.514968 0.312267 0.222838
0.587337 0.304334 0.222724
0.650239 0.289468 0.203156
0.705294 0.264145 0.141391
0.769539 0.224057 0.081763
0.830369 0.200347 0.000000
0.879727 0.170293 0.000000
0.906568 0.163409 0.000000
0.907638 0.178872 0.000000
0.276608 0.375603 0.193971
0.277188 0.375455 0.193912
0.281689 0.374358 0.193280
0.295287 0.371065 0.192613
0.323126 0.367877 0.192602
0.369047 0.370924 0.195615
0.440059 0.374722 0.202387
0.519958 0.371410 0.205936
0.591293 0.361700 0.192216
0.653671 0.344513 0.146115
0.713211 0.320993 0.108953
0.779086 0.287563 0.037855
0.839804 0.264775 0.000000
0.888368 0.254544 0.000000
0.911611 0.258030 0.000000
0.912236 0.260315 0.000000
0.316970 0.461110 0.215476
0.317479 0.460995 0.215331
0.321917 0.459930 0.214331
0.335858 0.456547 0.211722
0.359453 0.449456 0.208500
0.393171 0.439275 0.201933
0.449206 0.445027 0.198008
0.524346 0.439571 0.180492
0.593741 0.425870 0.129696
0.656044 0.407200 0.101306
0.721941 0.389142 0.048039
0.791206 0.369609 0.000000
0.852708 0.346239 0.000000
0.900802 0.329031 0.000000
0.920079 0.337097 0.000000
0.920371 0.337578 0.000000
0.342789 0.529947 0.216226
0.343314 0.529973 0.216140
0.347463 0.529692 0.215120
0.361716 0.528823 0.211059
0.387224 0.525106 0.202877
0.421993 0.519689 0.194508
0.467460 0.511886 0.174742
0.526921 0.508358 0.125815
0.591730 0.491600 0.078923
0.660519 0.475586 0.009661
0.733639 0.463141 0.000000
0.805938 0.453179 0.000000
0.870223 0.445402 0.000000
0.918252 0.444563 0.000000
0.929766 0.452583 0.000000
0.929845 0.453136 0.000000
0.358712 0.587146 0.197193
0.359181 0.587141 0.196999
0.362909 0.587003 0.195180
0.375860 0.586186 0.188284
0.402169 0.585662 0.168984
0.437875 0.584203 0.145809
0.481083 0.574208 0.111516
0.531827 0.565567 0.072617
0.592581 0.558556 0.013524
0.668407 0.547885 0.000000
0.747927 0.541469 0.000000
0.824069 0.538334 0.000000
0.890811 0.537383 0.000000
0.934114 0.541197 0.000000
0.940327 0.546794 0.000000
0.940602 0.548586 0.000000
0.367501 0.638974 0.149191
0.367901 0.638994 0.148647
0.371588 0.639128 0.143643
0.384266 0.639610 0.122844
0.409467 0.638406 0.083346
0.443704 0.631228 0.078358
0.487681 0.626513 0.042043
0.541463 0.622197 0.000000
0.603705 0.622357 0.000000
0.678363 0.625402 0.000000
0.765133 0.622077 0.000000
0.845997 0.625036 0.000000
0.912439 0.629048 0.000000
0.946507 0.633608 0.000000
0.950658 0.636751 0.000000
0.950900 0.638394 0.000000
0.374053 0.691450 0.025854
0.374387 0.691435 0.025756
0.377435 0.691189 0.025883
0.388292 0.689955 0.025253
0.412473 0.687252 0.018648
0.451038 0.683397 0.000000
0.498216 0.681435 0.000000
0.554900 0.681745 0.000000
0.621099 0.686351 0.000000
0.697834 0.695066 0.000000
0.783413 0.703054 0.000000
0.867833 0.708754 0.000000
0.927634 0.715591 0.000000
0.958020 0.719360 0.000000
0.960802 0.721779 0.000000
0.961113 0.723447 0.000000
0.379162 0.740407 0.000000
0.379565 0.740391 0.000000
0.382600 0.740122 0.000000
0.393112 0.739522 0.000000
0.416487 0.738347 0.000000
0.456567 0.736220 0.000000
0.510266 0.735714 0.000000
0.569230 0.738580 0.000000
0.639185 0.745567 0.000000
0.718673 0.758022 0.000000
0.802558 0.773791 0.000000
0.887021 0.783913 0.000000
0.940829 0.790963 0.000000
0.967997 0.793300 0.000000
0.969757 0.795114 0.000000
0.969939 0.796702 0.000000
0.383172 0.783275 0.000000
0.383554 0.783268 0.000000
0.386602 0.783188 0.000000
0.397132 0.782994 0.000000
0.420806 0.782330 0.000000
0.460075 0.781470 0.000000
0.519210 0.781498 0.000000
0.581637 0.785748 0.000000
0.654169 0.794867 0.000000
0.735884 0.810034 0.000000
0.821949 0.825302 0.000000
0.899721 0.841252 0.000000
0.950660 0.848832 0.000000
0.974910 0.849618 0.000000
0.976182 0.850850 0.000000
0.976369 0.852167 0.000000
0.385641 0.813768 0.000000
0.386060 0.813763 0.000000
0.389044 0.813756 0.000000
0.399666 0.813602 0.000000
0.423635 0.813386 0.000000
0.463731 0.813078 0.000000
0.522899 0.814041 0.000000
0.590432 0.818902 0.000000
0.664572 0.829205 0.000000
0.747549 0.844898 0.000000
0.834093 0.861024 0.000000
0.907404 0.877935 0.000000
0.956598 0.886022 0.000000
0.979186 0.885770 0.000000
0.979609 0.886522 0.000000
0.979756 0.887763 0.000000
0.387203 0.830608 0.000000
0.387589 0.830605 0.000000
0.390651 0.830607 0.000000
0.401200 0.830614 0.000000
0.425300 0.830627 0.000000
0.465645 0.830810 0.000000
0.524864 0.832220 0.000000
0.595277 0.837166 0.000000
0.670190 0.847921 0.000000
0.753762 0.863764 0.000000
0.840597 0.880720 0.000000
0.912394 0.895173 0.000000
0.959435 0.905263 0.000000
0.981048 0.904030 0.000000
0.981414 0.904813 0.000000
0.981523 0.906025 0.000000
0.131593 0.134754 0.156170
0.153216 0.127142 0.147591
0.195754 0.118840 0.133761
0.230948 0.127159 0.132210
0.274823 0.140601 0.147122
0.336093 0.166436 0.175035
0.423225 0.197590 0.212731
0.511310 0.212796 0.243620
0.580080 0.212613 0.250883
0.643758 0.195310 0.241454
0.698733 0.142607 0.211213
0.760047 0.000000 0.149696
0.820512 0.000000 0.000000
0.869611 0.000000 0.000000
0.898974 0.000000 0.000000
0.902544 0.000000 0.000000
0.137753 0.150264 0.145795
0.154658 0.144950 0.139987
0.194915 0.136661 0.129758
0.230568 0.134713 0.131618
0.274914 0.144513 0.147081
0.336282 0.168135 0.175032
0.423233 0.198482 0.212646
0.511360 0.213503 0.243571
0.580063 0.213248 0.250741
0.643823 0.196025 0.241353
0.698734 0.144023 0.211045
0.760084 0.000000 0.149283
0.820589 0.000000 0.000000
0.869675 0.000000 0.000000
0.899084 0.000000 0.000000
0.902582 0.000000 0.000000
0.164874 0.174981 0.122668
0.170298 0.174797 0.122106
0.191724 0.172014 0.122662
0.228905 0.163495 0.129157
0.275252 0.163823 0.147133
0.338109 0.179102 0.175247
0.423452 0.205124 0.211966
0.511354 0.218805 0.242823
0.580013 0.218020 0.249869
0.644069 0.201488 0.240413
0.698933 0.154225 0.209537
0.760458 0.024843 0.146032
0.820982 0.000000 0.000000
0.870030 0.000000 0.000000
0.899311 0.000000 0.000000
0.902732 0.000000 0.000000
0.180779 0.203928 0.129617
0.182749 0.203852 0.129450
0.195404 0.203817 0.128681
0.227419 0.202387 0.130776
0.276737 0.200995 0.148472
0.340000 0.207421 0.174821
0.424254 0.224470 0.209538
0.511303 0.235136 0.239988
0.580115 0.233107 0.246604
0.644905 0.218369 0.236777
0.699396 0.180342 0.203738
0.761557 0.078963 0.133089
0.822124 0.000000 0.000000
0.871483 0.000000 0.000000
0.900554 0.000000 0.000000
0.903464 0.000000 0.000000
0.202228 0.243396 0.144989
0.203331 0.243387 0.145019
0.211467 0.243273 0.145107
0.236124 0.244825 0.146891
0.281373 0.247656 0.156258
0.345553 0.252117 0.176898
0.426304 0.259850 0.206160
0.511311 0.265249 0.233014
0.582293 0.261976 0.239142
0.646891 0.248157 0.227104
0.701249 0.217254 0.188294
0.764204 0.160863 0.110190
0.825096 0.092652 0.000000
0.874455 0.026221 0.000000
0.902999 0.000000 0.000000
0.905181 0.000000 0.000000
0.234629 0.300054 0.168576
0.235380 0.299958 0.168569
0.241078 0.299460 0.168440
0.259014 0.298278 0.168665
0.294933 0.301837 0.172740
0.354484 0.307139 0.183923
0.432241 0.310541 0.204060
0.514827 0.312218 0.223412
0.587267 0.304292 0.223323
0.650176 0.289447 0.203969
0.705294 0.264100 0.143198
0.769539 0.223986 0.081780
0.830354 0.200290 0.000000
0.879653 0.170142 0.000000
0.906568 0.163011 0.000000
0.907637 0.178654 0.000000
0.276500 0.375638 0.194024
0.277108 0.375549 0.193931
0.281618 0.374449 0.193341
0.295242 0.371101 0.192660
0.323041 0.367876 0.192607
0.369011 0.370936 0.195635
0.439994 0.374715 0.202482
0.519839 0.371413 0.206278
0.591229 0.361689 0.193178
0.653614 0.344508 0.147378
0.713209 0.320949 0.109027
0.779014 0.287516 0.038036
0.839797 0.264745 0.000000
0.888283 0.254499 0.000000
0.911606 0.257955 0.000000
0.912288 0.260240 0.000000
0.316854 0.461168 0.215496
0.317394 0.461065 0.215373
0.321846 0.459988 0.214349
0.335777 0.456601 0.211740
0.359466 0.449511 0.208507
0.393143 0.439335 0.201935
0.449178 0.445084 0.198007
0.524274 0.439639 0.180493
0.593690 0.425922 0.129703
0.655987 0.407215 0.101342
0.721888 0.389158 0.048102
0.791159 0.369566 0.000000
0.852644 0.346233 0.000000
0.900832 0.328957 0.000000
0.920087 0.337038 0.000000
0.920368 0.337547 0.000000
0.342712 0.530038 0.216295
0.343250 0.530007 0.216144
0.347378 0.529735 0.215131
0.361659 0.528923 0.211114
0.387202 0.525167 0.202907
0.421958 0.519708 0.194465
0.467408 0.511908 0.174761
0.526887 0.508396 0.125905
0.591722 0.491618 0.078927
0.660511 0.475629 0.009667
0.733662 0.463142 0.000000
0.805871 0.453215 0.000000
0.870173 0.445402 0.000000
0.918186 0.444490 0.000000
0.929774 0.452578 0.000000
0.929841 0.453091 0.000000
0.358633 0.587191 0.197233
0.359089 0.587152 0.197016
0.362817 0.587015 0.195202
0.375740 0.586232 0.188327
0.402102 0.585700 0.169019
0.437822 0.584254 0.145808
0.481009 0.574258 0.111525
0.531841 0.565602 0.072623
0.592563 0.558568 0.013532
0.668349 0.547938 0.000000
0.747927 0.541469 0.000000
0.824019 0.538299 0.000000
0.890700 0.537385 0.000000
0.934144 0.541188 0.000000
0.940327 0.546794 0.000000
0.940602 0.548586 0.000000
0.367410 0.638974 0.149266
0.367862 0.639027 0.148701
0.371449 0.639138 0.143736
0.384168 0.639620 0.122942
0.409385 0.638430 0.083286
0.443657 0.631230 0.078385
0.487665 0.626568 0.042066
0.541463 0.622197 0.000000
0.603706 0.622404 0.000000
0.678330 0.625465 0.000000
0.765052 0.622077 0.000000
0.845984 0.625036 0.000000
0.912384 0.629099 0.000000
0.946507 0.633608 0.000000
0.950658 0.636751 0.000000
0.950904 0.638424 0.000000
0.373920 0.691545 0.025771
0.374298 0.691447 0.025732
0.377417 0.691203 0.025856
0.388209 0.690000 0.025192
0.412440 0.687255 0.018665
0.450956 0.683400 0.000000
0.498142 0.681457 0.000000
0.554894 0.681756 0.000000
0.621077 0.686423 0.000000
0.697808 0.695107 0.000000
0.783391 0.703113 0.000000
0.867834 0.708839 0.000000
0.927608 0.715644 0.000000
0.958035 0.719360 0.000000
0.960805 0.721838 0.000000
0.961051 0.723448 0.000000
0.379126 0.740426 0.000000
0.379516 0.740414 0.000000
0.382555 0.740194 0.000000
0.393024 0.739612 0.000000
0.416486 0.738349 0.000000
0.456494 0.736221 0.000000
0.510224 0.735713 0.000000
0.569157 0.738604 0.000000
0.639164 0.745639 0.000000
0.718621 0.757983 0.000000
0.802567 0.773807 0.000000
0.887003 0.783951 0.000000
0.940772 0.791016 0.000000
0.967983 0.793303 0.000000
0.969757 0.795114 0.000000
0.969939 0.796702 0.000000
0.383076 0.783349 0.000000
0.383459 0.783343 0.000000
0.386500 0.783201 0.000000
0.397118 0.783065 0.000000
0.420751 0.782391 0.000000
0.460016 0.781470 0.000000
0.519122 0.781497 0.000000
0.581605 0.785842 0.000000
0.654121 0.794867 0.000000
0.735793 0.810096 0.000000
0.821863 0.825327 0.000000
0.899647 0.841331 0.000000
0.950629 0.848831 0.000000
0.974896 0.849621 0.000000
0.976205 0.850850 0.000000
0.976370 0.852167 0.000000
0.385556 0.813769 0.000000
0.385966 0.813764 0.000000
0.389009 0.813770 0.000000
0.399633 0.813617 0.000000
0.423596 0.813404 0.000000
0.463654 0.813122 0.000000
0.522890 0.814094 0.000000
0.590409 0.818842 0.000000
0.664523 0.829210 0.000000
0.747532 0.844914 0.000000
0.834097 0.861116 0.000000
0.907380 0.878015 0.000000
0.956556 0.885997 0.000000
0.979182 0.885791 0.000000
0.979611 0.886538 0.000000
0.979757 0.887757 0.000000
0.387134 0.830608 0.000000
0.387520 0.830606 0.000000
0.390591 0.830665 0.000000
0.401123 0.830615 0.000000
0.425233 0.830671 0.000000
0.465587 0.830811 0.000000
0.524779 0.832260 0.000000
0.595265 0.837166 0.000000
0.670127 0.847916 0.000000
0.753682 0.863756 0.000000
0.840597 0.880720 0.000000
0.912366 0.895215 0.000000
0.959378 0.905282 0.000000
0.981050 0.904124 0.000000
0.981414 0.904814 0.000000
0.981523 0.906026 0.000000
0.108294 0.134476 0.193201
0.108096 0.134945 0.193235
0.161099 0.115500 0.177260
0.222618 0.114854 0.156402
0.272663 0.136442 0.159551
0.335640 0.164975 0.182079
0.421982 0.196140 0.217123
0.510236 0.211694 0.247093
0.579252 0.211619 0.254320
0.643257 0.194349 0.245236
0.698328 0.140340 0.216521
0.759714 0.000000 0.161447
0.820355 0.000000 0.034236
0.869437 0.000000 0.000000
0.898974 0.000000 0.000000
0.902719 0.000000 0.000000
0.106206 0.146647 0.191625
0.106083 0.146813 0.191708
0.162331 0.129563 0.174176
0.222642 0.125591 0.155416
0.272691 0.141023 0.159506
0.335931 0.166781 0.182130
0.422038 0.197080 0.217018
0.510234 0.212413 0.247020
0.579250 0.212305 0.254222
0.643310 0.195057 0.245144
0.698329 0.141789 0.216330
0.759754 0.000000 0.161149
0.820430 0.000000 0.033512
0.869463 0.000000 0.000000
0.899046 0.000000 0.000000
0.902632 0.000000 0.000000
0.123059 0.175860 0.174228
0.130482 0.174297 0.172215
0.170565 0.166119 0.160082
0.222829 0.159612 0.151165
0.273235 0.161921 0.159174
0.337441 0.178038 0.182282
0.422182 0.203849 0.216338
0.510171 0.217813 0.246253
0.579178 0.217148 0.253322
0.643555 0.200573 0.244163
0.698446 0.152296 0.214934
0.760089 0.022689 0.158233
0.820802 0.000000 0.027246
0.869899 0.000000 0.000000
0.899271 0.000000 0.000000
0.902951 0.000000 0.000000
0.175727 0.203403 0.138205
0.177761 0.203218 0.138071
0.191816 0.202544 0.137318
0.224670 0.200694 0.143717
0.275065 0.199759 0.159264
0.338914 0.206577 0.181675
0.422988 0.223478 0.214057
0.510031 0.234269 0.243344
0.579430 0.232401 0.250267
0.644341 0.217684 0.240698
0.698996 0.179231 0.209569
0.761290 0.076924 0.146850
0.822115 0.000000 0.006962
0.871329 0.000000 0.000000
0.900518 0.000000 0.000000
0.903684 0.000000 0.000000
0.201038 0.243973 0.145516
0.202134 0.243935 0.145552
0.210364 0.243737 0.145858
0.235131 0.245015 0.148217
0.280345 0.247546 0.160101
0.344556 0.251500 0.183059
0.425107 0.259125 0.210906
0.510264 0.264606 0.236711
0.581684 0.261490 0.242961
0.646357 0.247639 0.231556
0.701026 0.216601 0.195639
0.764120 0.159376 0.119634
0.824929 0.091227 0.000000
0.874387 0.023930 0.000000
0.902949 0.000000 0.000000
0.905424 0.000000 0.000000
0.233895 0.300604 0.168756
0.234606 0.300535 0.168755
0.240387 0.300014 0.168629
0.258454 0.298820 0.168842
0.294372 0.302138 0.172751
0.353795 0.307415 0.184592
0.431159 0.310067 0.208450
0.513942 0.311787 0.227754
0.586616 0.303884 0.227969
0.649739 0.289096 0.210119
0.705034 0.263706 0.156691
0.769298 0.223516 0.082792
0.830177 0.199546 0.000000
0.879529 0.168896 0.000000
0.906643 0.159719 0.000000
0.907708 0.176908 0.000000
0.275897 0.376306 0.194330
0.276523 0.376156 0.194204
0.281055 0.375064 0.193598
0.294797 0.371731 0.192795
0.322628 0.368339 0.192711
0.368596 0.371137 0.195616
0.439454 0.374783 0.203382
0.519061 0.371188 0.210459
0.590586 0.361449 0.200157
0.653247 0.344233 0.156723
0.712900 0.320659 0.109295
0.778888 0.287212 0.038751
0.839557 0.264444 0.000000
0.888217 0.254108 0.000000
0.911735 0.257192 0.000000
0.912354 0.259698 0.000000
0.316247 0.461719 0.215751
0.316792 0.461516 0.215611
0.321234 0.460509 0.214570
0.335309 0.457113 0.211842
0.359095 0.449990 0.208619
0.392899 0.439762 0.202036
0.448703 0.445359 0.197996
0.523814 0.439942 0.180833
0.593258 0.425948 0.136021
0.655656 0.407246 0.101606
0.721650 0.389013 0.048400
0.791001 0.369353 0.000000
0.852564 0.345957 0.000000
0.900710 0.328588 0.000000
0.920316 0.336508 0.000000
0.920445 0.337028 0.000000
0.342047 0.530238 0.216410
0.342544 0.530228 0.216293
0.346764 0.529907 0.215263
0.361027 0.529159 0.211274
0.386771 0.525418 0.202940
0.421600 0.519964 0.194518
0.467103 0.512115 0.174802
0.526558 0.508723 0.125978
0.591409 0.491923 0.078904
0.660201 0.475829 0.009699
0.733350 0.463240 0.000000
0.805719 0.453288 0.000000
0.869960 0.445452 0.000000
0.917870 0.444235 0.000000
0.929711 0.452345 0.000000
0.929942 0.452854 0.000000
0.358000 0.587372 0.197431
0.358503 0.587366 0.197249
0.362201 0.587179 0.195437
0.375164 0.586407 0.188587
0.401565 0.585847 0.169311
0.437475 0.584472 0.145857
0.480776 0.574505 0.111532
0.531535 0.565780 0.072617
0.592274 0.558817 0.013613
0.668035 0.548173 0.000000
0.747613 0.541669 0.000000
0.823898 0.538420 0.000000
0.890501 0.537496 0.000000
0.934145 0.541177 0.000000
0.940364 0.546800 0.000000
0.940729 0.548470 0.000000
0.366809 0.639170 0.149691
0.367239 0.639168 0.149144
0.370841 0.639287 0.144373
0.383580 0.639715 0.123690
0.408863 0.638626 0.083234
0.443304 0.631428 0.078313
0.487355 0.626772 0.042519
0.541171 0.622435 0.000000
0.603463 0.622604 0.000000
0.678068 0.625577 0.000000
0.764817 0.622311 0.000000
0.845777 0.625269 0.000000
0.912274 0.629251 0.000000
0.946469 0.633717 0.000000
0.950676 0.636854 0.000000
0.950898 0.638492 0.000000
0.373440 0.691716 0.024718
0.373798 0.691700 0.024880
0.376880 0.691367 0.025082
0.387750 0.690190 0.024659
0.411945 0.687566 0.018524
0.450520 0.683637 0.000000
0.497850 0.681626 0.000000
0.554639 0.681875 0.000000
0.620821 0.686559 0.000000
0.697475 0.695418 0.000000
0.783178 0.703274 0.000000
0.867689 0.708997 0.000000
0.927534 0.715851 0.000000
0.958001 0.719462 0.000000
0.960900 0.721957 0.000000
0.961009 0.723601 0.000000
0.378640 0.740527 0.000000
0.378997 0.740468 0.000000
0.382014 0.740427 0.000000
0.392568 0.739803 0.000000
0.415964 0.738562 0.000000
0.456094 0.736297 0.000000
0.509907 0.735724 0.000000
0.568948 0.738647 0.000000
0.638826 0.745847 0.000000
0.718376 0.758089 0.000000
0.802305 0.773870 0.000000
0.886711 0.784064 0.000000
0.940748 0.791134 0.000000
0.967951 0.793522 0.000000
0.969803 0.795297 0.000000
0.969985 0.796935 0.000000
0.382598 0.783581 0.000000
0.383004 0.783574 0.000000
0.386017 0.783411 0.000000
0.396658 0.783177 0.000000
0.420305 0.782549 0.000000
0.459594 0.781778 0.000000
0.518696 0.781722 0.000000
0.581310 0.786012 0.000000
0.653824 0.794933 0.000000
0.735540 0.810228 0.000000
0.821662 0.825470 0.000000
0.899406 0.841508 0.000000
0.950545 0.849111 0.000000
0.974960 0.849931 0.000000
0.976249 0.851071 0.000000
0.976409 0.852420 0.000000
0.385046 0.813868 0.000000
0.385437 0.813863 0.000000
0.388476 0.813837 0.000000
0.399100 0.813796 0.000000
0.423115 0.813622 0.000000
0.463175 0.813335 0.000000
0.522489 0.814241 0.000000
0.590110 0.819022 0.000000
0.664266 0.829358 0.000000
0.747144 0.845032 0.000000
0.833849 0.861235 0.000000
0.907071 0.878218 0.000000
0.956333 0.886271 0.000000
0.979200 0.885869 0.000000
0.979660 0.886566 0.000000
0.979782 0.888020 0.000000
0.386658 0.830749 0.000000
0.387056 0.830770 0.000000
0.390048 0.830748 0.000000
0.400647 0.830769 0.000000
0.424742 0.830868 0.000000
0.465062 0.830913 0.000000
0.524384 0.832251 0.000000
0.594974 0.837238 0.000000
0.669835 0.848028 0.000000
0.753344 0.863919 0.000000
0.840361 0.880858 0.000000
0.912161 0.895380 0.000000
0.959285 0.905349 0.000000
0.981037 0.904381 0.000000
0.981389 0.905096 0.000000
0.981558 0.906275 0.000000
0.095590 0.137366 0.224833
0.095571 0.137513 0.224883
0.104908 0.133682 0.224024
0.179235 0.110976 0.207430
0.258677 0.121988 0.190981
0.332512 0.159695 0.202917
0.417838 0.191162 0.230911
0.506750 0.207877 0.259262
0.576678 0.208167 0.265777
0.641404 0.190502 0.257818
0.696830 0.131946 0.232304
0.758817 0.000000 0.191260
0.819216 0.000000 0.118895
0.868963 0.000000 0.036062
0.898854 0.000000 0.000000
0.903204 0.000000 0.000000
0.095113 0.144098 0.224324
0.095051 0.144201 0.224336
0.103071 0.138898 0.224000
0.178574 0.113086 0.207934
0.259029 0.125791 0.190879
0.332515 0.161830 0.202775
0.417898 0.192054 0.230784
0.506749 0.208618 0.259169
0.576677 0.208824 0.265695
0.641441 0.191282 0.257725
0.696834 0.133430 0.232182
0.758905 0.000000 0.190977
0.819331 0.000000 0.118205
0.868905 0.000000 0.035391
0.898955 0.000000 0.000000
0.903082 0.000000 0.000000
0.093901 0.169936 0.221569
0.093848 0.169970 0.221670
0.102242 0.168136 0.221251
0.180242 0.155370 0.204727
0.261891 0.157567 0.189200
0.332723 0.173721 0.202184
0.418244 0.199198 0.229970
0.506656 0.214284 0.258282
0.576636 0.213956 0.264889
0.641661 0.197102 0.256856
0.697043 0.145024 0.231046
0.759234 0.009889 0.188952
0.819785 0.000000 0.112725
0.869417 0.000000 0.029451
0.899302 0.000000 0.000000
0.903370 0.000000 0.000000
0.120810 0.205989 0.204398
0.121150 0.205968 0.204544
0.135693 0.204144 0.202888
0.205513 0.195053 0.186850
0.267570 0.195573 0.187207
0.334630 0.203330 0.201366
0.418787 0.219840 0.227726
0.506375 0.231264 0.255235
0.577232 0.230001 0.262129
0.642450 0.215070 0.253645
0.697666 0.175006 0.226987
0.760390 0.068746 0.181880
0.821342 0.000000 0.093889
0.870756 0.000000 0.009010
0.900378 0.000000 0.000000
0.904093 0.000000 0.000000
0.194561 0.242071 0.167052
0.195664 0.241920 0.167022
0.204462 0.240855 0.167128
0.229912 0.240548 0.170548
0.275423 0.244387 0.183041
0.340824 0.248872 0.202063
0.421070 0.256652 0.225297
0.506668 0.262253 0.248678
0.579531 0.259580 0.255492
0.644456 0.245756 0.245492
0.699940 0.214209 0.216454
0.763237 0.153829 0.161778
0.824422 0.085644 0.052405
0.873926 0.010438 0.000000
0.903005 0.000000 0.000000
0.905992 0.000000 0.000000
0.231352 0.302554 0.169412
0.232023 0.302533 0.169411
0.237887 0.301980 0.169305
0.256370 0.300221 0.170344
0.291905 0.301521 0.178812
0.350292 0.305893 0.199292
0.427493 0.308338 0.222858
0.510673 0.310056 0.240934
0.584253 0.302401 0.242552
0.647987 0.287649 0.228242
0.704351 0.262094 0.190934
0.768704 0.221627 0.107854
0.829849 0.196792 0.000000
0.879191 0.163865 0.000000
0.906985 0.146748 0.000000
0.908316 0.170093 0.000000
0.273735 0.378570 0.195253
0.274391 0.378365 0.195144
0.279139 0.377252 0.194471
0.293308 0.373637 0.193342
0.321300 0.369874 0.193065
0.367038 0.371645 0.196816
0.436918 0.374149 0.210533
0.515920 0.369915 0.226371
0.588078 0.360480 0.220062
0.651741 0.343300 0.185524
0.712198 0.319680 0.124928
0.778140 0.285971 0.041435
0.839014 0.263265 0.000000
0.887804 0.252702 0.000000
0.912004 0.254434 0.000000
0.912897 0.257678 0.000000
0.313954 0.463135 0.216375
0.314517 0.463072 0.216297
0.318995 0.462301 0.215427
0.333669 0.458789 0.212345
0.357937 0.451703 0.208947
0.392070 0.441235 0.202338
0.447406 0.446091 0.197985
0.522078 0.440603 0.186980
