example_ofxGpuLutCube/bin/data/ofxGpuLutCube/LUT/U6 (saturation teal orange).cube
LUT_3D_SIZE 6
0.146086 0.135147 0.127593
0.231967 0.128300 0.127397
0.423369 0.197736 0.212170
0.643825 0.195451 0.240995
0.820512 0.000000 0.000000
0.902451 0.000000 0.000000
0.181130 0.203820 0.129541
0.227613 0.202338 0.130246
0.424456 0.224604 0.208946
0.644976 0.218447 0.236274
0.822136 0.000000 0.000000
0.903607 0.000000 0.000000
0.276608 0.375603 0.193971
0.295287 0.371065 0.192613
0.440059 0.374722 0.202387
0.653671 0.344513 0.146115
0.839804 0.264775 0.000000
0.912236 0.260315 0.000000
0.358712 0.587146 0.197193
0.375860 0.586186 0.188284
0.481083 0.574208 0.111516
0.668407 0.547885 0.000000
0.890811 0.537383 0.000000
0.940602 0.548586 0.000000
0.379162 0.740407 0.000000
0.393112 0.739522 0.000000
0.510266 0.735714 0.000000
0.718673 0.758022 0.000000
0.940829 0.790963 0.000000
0.969939 0.796702 0.000000
0.387203 0.830608 0.000000
0.401200 0.830614 0.000000
0.524864 0.832220 0.000000
0.753762 0.863764 0.000000
0.959435 0.905263 0.000000
0.981523 0.906025 0.000000
0.095590 0.137366 0.224833
0.179235 0.110976 0.207430
0.417838 0.191162 0.230911
0.641404 0.190502 0.257818
0.819216 0.000000 0.118895
0.903204 0.000000 0.000000
0.120810 0.205989 0.204398
0.205513 0.195053 0.186850
0.418787 0.219840 0.227726
0.642450 0.215070 0.253645
0.821342 0.000000 0.093889
0.904093 0.000000 0.000000
0.273735 0.378570 0.195253
0.293308 0.373637 0.193342
0.436918 0.374149 0.210533
0.651741 0.343300 0.185524
0.839014 0.263265 0.000000
0.912897 0.257678 0.000000
0.355867 0.588012 0.198227
0.373127 0.587126 0.189491
0.479784 0.575433 0.111652
0.667039 0.549046 0.000000
0.889740 0.537631 0.000000
0.940875 0.548444 0.000000
0.376857 0.741166 0.000000
0.390860 0.740434 0.000000
0.508617 0.736330 0.000000
0.717470 0.758620 0.000000
0.940147 0.791854 0.000000
0.970123 0.797516 0.000000
0.384844 0.831315 0.000000
0.398948 0.831331 0.000000
0.522878 0.832830 0.000000
0.752475 0.864230 0.000000
0.958810 0.906033 0.000000
0.981670 0.906854 0.000000
0.160774 0.204712 0.385865
0.161179 0.205571 0.386758
0.285473 0.186015 0.374704
0.614895 0.119191 0.376250
0.809254 0.000000 0.338128
0.907303 0.000000 0.313940
0.160256 0.226834 0.384856
0.160693 0.227557 0.385776
0.291188 0.215056 0.373102
0.617008 0.158878 0.372844
0.811527 0.000000 0.334264
0.908276 0.000000 0.308786
0.193945 0.382315 0.385368
0.196196 0.381731 0.386780
0.370528 0.348807 0.340594
0.627225 0.325499 0.342947
0.831372 0.241446 0.285245
0.919383 0.213240 0.262616
0.332114 0.574989 0.244848
0.349043 0.572636 0.242307
0.455462 0.558361 0.235738
0.650208 0.549709 0.218171
0.882471 0.537814 0.146157
0.945529 0.542006 0.139214
0.355269 0.748842 0.000000
0.369433 0.748189 0.000000
0.493069 0.743327 0.000000
0.706449 0.763956 0.000000
0.933364 0.796590 0.000000
0.973304 0.803238 0.000000
0.362597 0.837525 0.000000
0.377273 0.837627 0.000000
0.504254 0.839117 0.000000
0.740782 0.868568 0.000000
0.951129 0.912425 0.000000
0.983091 0.913447 0.000000
0.225051 0.261107 0.604965
0.225112 0.261414 0.605437
0.225106 0.264214 0.609681
0.412402 0.175041 0.586686
0.713798 0.000000 0.596749
0.868434 0.000000 0.607101
0.223950 0.273027 0.602483
0.223939 0.273303 0.602963
0.223870 0.275730 0.607352
0.414403 0.207192 0.586124
0.719682 0.000000 0.595335
0.873760 0.000000 0.605984
0.202752 0.363162 0.588885
0.202658 0.363262 0.589665
0.215992 0.362434 0.592746
0.440422 0.332117 0.583342
0.769158 0.150853 0.582727
0.908590 0.000000 0.590661
0.149066 0.553594 0.543443
0.147486 0.553963 0.545093
0.255851 0.545294 0.545471
0.560879 0.538546 0.542702
0.856807 0.493248 0.525798
0.965389 0.457237 0.521234
0.302698 0.720065 0.363294
0.315010 0.718507 0.361864
0.437087 0.710418 0.345644
0.667102 0.760607 0.371012
0.917121 0.804653 0.380489
0.986014 0.812744 0.410294
0.282321 0.823670 0.328054
0.299416 0.820210 0.325506
0.440305 0.812094 0.310501
0.699645 0.868358 0.328546
0.932696 0.920339 0.344950
0.989009 0.931055 0.394780
0.154575 0.239053 0.788271
0.153948 0.239217 0.788569
0.147859 0.240749 0.791513
0.297059 0.147307 0.796692
0.514956 0.055484 0.807218
0.693539 0.000000 0.834921
0.149415 0.253699 0.786863
0.148737 0.253841 0.787296
0.142506 0.255272 0.790271
0.293157 0.146533 0.800810
0.519269 0.050456 0.809797
0.697800 0.000000 0.837031
0.107152 0.350856 0.775929
0.106843 0.351000 0.776219
0.104008 0.352091 0.779583
0.298133 0.314324 0.791595
0.552005 0.000000 0.823214
0.734584 0.000000 0.855710
0.000000 0.529338 0.738867
0.000000 0.529539 0.740070
0.000000 0.530975 0.751240
0.302512 0.523078 0.786515
0.631424 0.465471 0.844063
0.817099 0.347924 0.877645
0.000000 0.753577 0.727648
0.000000 0.754041 0.729066
0.000000 0.759236 0.743297
0.349940 0.775075 0.778625
0.797986 0.804114 0.841316
0.988888 0.773910 0.835246
0.119675 0.854768 0.674839
0.116378 0.855546 0.676875
0.079706 0.862541 0.694611
0.525142 0.878851 0.724360
0.876821 0.939882 0.770498
0.997496 0.957991 0.808868
0.045407 0.201583 0.849749
0.045399 0.202190 0.849748
0.045396 0.207104 0.849630
0.161885 0.140227 0.856757
0.435514 0.137093 0.860079
0.627984 0.000000 0.874539
0.044617 0.222987 0.849550
0.044593 0.223360 0.849550
0.044381 0.227165 0.849544
0.158142 0.165042 0.859235
0.436629 0.136339 0.863341
0.631583 0.000000 0.877847
0.000000 0.336725 0.850128
0.000000 0.336987 0.850122
0.000000 0.339076 0.850175
0.150192 0.301107 0.869067
0.445959 0.132274 0.884231
0.667015 0.000000 0.903088
0.000000 0.535113 0.844357
0.000000 0.535327 0.845394
0.000000 0.536271 0.854666
0.151735 0.524390 0.884688
0.477359 0.448343 0.920924
0.740070 0.308145 0.937061
0.000000 0.760316 0.834778
0.000000 0.760781 0.835890
0.000000 0.765299 0.846397
0.139708 0.786780 0.895247
0.577294 0.789229 0.969339
0.868864 0.744083 0.989766
0.000000 0.880738 0.824460
0.000000 0.881254 0.825866
0.000000 0.886371 0.838293
0.165750 0.911660 0.883220
0.663752 0.953093 0.959111
0.931357 0.952845 0.988851
