example_ofxGpuLutCube/bin/data/ofxGpuLutCube/LUT/U7 (desaturated yellow).cube
LUT_3D_SIZE 16
0.043066 0.000000 0.000000
0.052432 0.000000 0.000000
0.057772 0.000000 0.000000
0.061946 0.000000 0.000000
0.065480 0.000000 0.000000
0.069032 0.000000 0.000000
0.072104 0.000000 0.000000
0.074949 0.000000 0.000000
0.077572 0.000000 0.000000
0.080078 0.000000 0.000000
0.082265 0.000000 0.000000
0.084786 0.000000 0.000000
0.087482 0.000000 0.000000
0.090080 0.000000 0.000000
0.092858 0.000000 0.000000
0.094168 0.000000 0.000000
0.052519 0.063714 0.000000
0.062689 0.055799 0.000000
0.068445 0.045561 0.000000
0.070892 0.038515 0.000000
0.072778 0.033754 0.000000
0.074812 0.029801 0.000000
0.076838 0.027394 0.000000
0.078826 0.025340 0.000000
0.080891 0.023632 0.000000
0.083076 0.021901 0.000000
0.085208 0.021044 0.000000
0.087552 0.020135 0.000000
0.090012 0.019167 0.000000
0.092422 0.019162 0.000000
0.094983 0.019157 0.000000
0.096296 0.020109 0.000000
0.064738 0.083823 0.000000
0.071014 0.080592 0.000000
0.078840 0.073754 0.000000
0.083539 0.066789 0.000000
0.086111 0.061272 0.000000
0.088121 0.056670 0.000000
0.089729 0.053079 0.000000
0.091419 0.049837 0.000000
0.093020 0.047366 0.000000
0.094572 0.045503 0.000000
0.096224 0.044051 0.000000
0.097985 0.042599 0.000000
0.099776 0.041733 0.000000
0.101709 0.041089 0.000000
0.103713 0.040921 0.000000
0.104831 0.040844 0.000000
0.076621 0.103221 0.012480
0.080831 0.101374 0.012468
0.088555 0.096518 0.014737
0.095420 0.090070 0.014714
0.100015 0.084005 0.014698
0.103159 0.078943 0.014687
0.105544 0.074623 0.012396
0.107420 0.071326 0.009279
0.109088 0.068431 0.009273
0.110656 0.066162 0.009265
0.112071 0.064145 0.009258
0.113588 0.062738 0.009248
0.115084 0.061405 0.009239
0.116606 0.060390 0.009228
0.118153 0.059760 0.012302
0.119039 0.059386 0.012292
0.088672 0.122267 0.037511
0.091691 0.121108 0.037486
0.099195 0.117895 0.036809
0.106856 0.113042 0.037591
0.113096 0.107429 0.037913
0.117819 0.101814 0.037456
0.121116 0.097016 0.036901
0.123809 0.092839 0.036340
0.125924 0.089421 0.035771
0.127664 0.086589 0.035596
0.129231 0.084124 0.034988
0.130702 0.082152 0.034802
0.132001 0.080629 0.034819
0.133268 0.079388 0.035377
0.134524 0.078387 0.035533
0.135219 0.078005 0.035774
0.102577 0.140473 0.053646
0.104876 0.139741 0.053631
0.111461 0.137682 0.053478
0.119889 0.134840 0.053346
0.126825 0.130658 0.053482
0.132301 0.125763 0.053691
0.136304 0.120752 0.053685
0.139323 0.116056 0.053300
0.141901 0.111702 0.052986
0.143863 0.108280 0.052502
0.145525 0.105360 0.052097
0.147070 0.102723 0.051842
0.148457 0.100567 0.051665
0.149642 0.098795 0.051649
0.150859 0.097264 0.051632
0.151368 0.096668 0.051624
0.118375 0.156418 0.067720
0.119935 0.155947 0.067810
0.124830 0.154516 0.067847
0.132055 0.152517 0.067600
0.138790 0.149715 0.067537
0.144224 0.146150 0.067735
0.148687 0.142094 0.067879
0.152291 0.138025 0.067831
0.155210 0.134159 0.067625
0.157701 0.130361 0.067288
0.159763 0.126967 0.066806
0.161483 0.124087 0.066534
0.162985 0.121545 0.066237
0.164338 0.119368 0.065999
0.165585 0.117394 0.065809
0.166187 0.116441 0.065802
0.131451 0.169609 0.079738
0.132540 0.169294 0.079752
0.135910 0.168134 0.079967
0.141476 0.166468 0.079895
0.147953 0.164524 0.079518
0.153495 0.161834 0.079551
0.158133 0.158657 0.079723
0.162169 0.155154 0.079795
0.165490 0.151716 0.079760
0.168210 0.148382 0.079647
0.170681 0.145135 0.079306
0.172732 0.142165 0.078956
0.174456 0.139529 0.078639
0.175962 0.137285 0.078465
0.177330 0.135212 0.078292
0.177991 0.134228 0.078163
0.142029 0.180451 0.091083
0.142786 0.180202 0.091083
0.145351 0.179329 0.091087
0.149672 0.177773 0.091234
0.155296 0.176354 0.090896
0.161115 0.174522 0.090386
0.165726 0.171936 0.090533
0.169784 0.169135 0.090748
0.173378 0.166054 0.090748
0.176427 0.163006 0.090748
0.179035 0.160060 0.090725
0.181465 0.157189 0.090425
0.183518 0.154518 0.090134
0.185336 0.152023 0.089868
0.186851 0.149975 0.089719
0.187509 0.149050 0.089615
0.150963 0.190110 0.100978
0.151569 0.189875 0.101020
0.153579 0.189197 0.101133
0.157122 0.187912 0.101133
0.161807 0.186370 0.101101
0.167186 0.184986 0.100628
0.172208 0.183053 0.100429
0.176330 0.180699 0.100518
0.179997 0.178156 0.100650
0.183292 0.175434 0.100663
0.186155 0.172729 0.100663
0.188628 0.170081 0.100671
0.190979 0.167486 0.100436
0.193073 0.165020 0.100179
0.194905 0.162751 0.099969
0.195598 0.161781 0.099933
0.159418 0.199432 0.109864
0.159860 0.199337 0.109864
0.161479 0.198801 0.110004
0.164452 0.197715 0.110004
0.168449 0.196233 0.110004
0.173172 0.194913 0.109864
0.178267 0.193481 0.109405
0.182702 0.191576 0.109317
0.186472 0.189355 0.109434
0.189930 0.186974 0.109581
0.193058 0.184445 0.109581
0.195801 0.181989 0.109581
0.198210 0.179554 0.109691
0.200502 0.177214 0.109464
0.202534 0.174958 0.109232
0.203240 0.174177 0.109151
0.168220 0.209460 0.118547
0.168588 0.209307 0.118547
0.169948 0.208869 0.118568
0.172426 0.208024 0.118673
0.175865 0.206663 0.118680
0.179993 0.205176 0.118680
0.184714 0.204031 0.118418
0.189502 0.202606 0.118060
0.193488 0.200687 0.118076
0.197055 0.198591 0.118170
0.200297 0.196329 0.118301
0.203308 0.193977 0.118340
0.205970 0.191667 0.118370
0.208296 0.189471 0.118494
0.210392 0.187483 0.118641
0.211060 0.186881 0.118653
0.177626 0.220476 0.127532
0.177969 0.220355 0.127531
0.179053 0.220002 0.127532
0.181274 0.219262 0.127546
0.184378 0.218134 0.127670
0.188121 0.216619 0.127659
0.192445 0.215458 0.127581
0.197103 0.214254 0.127191
0.201540 0.212729 0.126827
0.205258 0.210925 0.127046
0.208694 0.208978 0.127286
0.211875 0.207048 0.127789
0.214912 0.205041 0.128395
0.217663 0.203057 0.128975
0.219815 0.201285 0.129409
0.220338 0.200861 0.129540
0.188884 0.234208 0.137540
0.189164 0.234142 0.137539
0.190184 0.233845 0.137629
0.192159 0.233256 0.137723
0.195003 0.232296 0.137804
0.198592 0.231044 0.137854
0.202671 0.229656 0.137930
0.207236 0.228827 0.138160
0.212022 0.227952 0.138514
0.216392 0.226754 0.139085
0.220188 0.225249 0.139893
0.223637 0.223527 0.140567
0.226870 0.221742 0.141238
0.229952 0.219747 0.141816
0.232285 0.218072 0.142237
0.232684 0.217824 0.142301
0.202097 0.250499 0.149174
0.202367 0.250447 0.149193
0.203282 0.250184 0.149279
0.205101 0.249771 0.149448
0.207761 0.249065 0.149762
0.211155 0.248272 0.150337
0.215159 0.247153 0.151037
0.219534 0.246307 0.151698
0.224296 0.245597 0.152242
0.229031 0.244627 0.152664
0.233218 0.243341 0.153299
0.236934 0.241691 0.154038
0.240369 0.239949 0.154662
0.243556 0.238111 0.155263
0.245967 0.236597 0.155665
0.246098 0.236495 0.155696
0.215833 0.268328 0.162166
0.216086 0.268289 0.162167
0.216933 0.268166 0.162302
0.218629 0.267806 0.162594
0.221103 0.267285 0.163016
0.224287 0.266597 0.163555
0.228093 0.265554 0.164188
0.232314 0.264393 0.164835
0.236898 0.263632 0.165488
0.241754 0.262859 0.165909
0.246449 0.261765 0.166277
0.250348 0.260298 0.167087
0.254066 0.258668 0.167837
0.257559 0.256868 0.168450
0.259805 0.255703 0.168896
0.259805 0.255703 0.168896
0.050022 0.096852 0.138703
0.080461 0.076800 0.105395
0.118570 0.021534 0.060018
0.118739 0.036601 0.050414
0.118929 0.041094 0.046088
0.119087 0.042914 0.043143
0.119673 0.042680 0.041125
0.120138 0.042804 0.039797
0.120627 0.043015 0.038870
0.121311 0.043420 0.038222
0.122130 0.043570 0.037558
0.122973 0.044236 0.037524
0.123940 0.044827 0.037489
0.125178 0.045524 0.037463
0.127103 0.046295 0.037823
0.127950 0.047130 0.037804
0.056566 0.104990 0.111707
0.087809 0.087120 0.082740
0.113682 0.064639 0.051795
0.117671 0.056036 0.036899
0.119991 0.055105 0.036036
0.120755 0.052806 0.034235
0.121271 0.051142 0.033500
0.121701 0.050206 0.033014
0.122252 0.049485 0.032767
0.122901 0.049057 0.032767
0.123638 0.049046 0.032840
0.124436 0.049203 0.033281
0.125383 0.049378 0.033660
0.126364 0.049874 0.034010
0.127710 0.050590 0.034795
0.128449 0.051255 0.035043
0.075391 0.109009 0.058512
0.089471 0.107243 0.053196
0.107171 0.100449 0.033377
0.114886 0.088911 0.032058
0.118368 0.081093 0.030343
0.120409 0.075494 0.029058
0.121719 0.071550 0.028394
0.122806 0.068336 0.027708
0.124547 0.066953 0.028721
0.126660 0.066574 0.030698
0.128520 0.066376 0.032406
0.129727 0.065741 0.032851
0.130942 0.065242 0.033565
0.132086 0.065097 0.034202
0.133072 0.064883 0.034963
0.133591 0.064845 0.035418
0.081717 0.127687 0.044581
0.091925 0.124909 0.040838
0.106839 0.118572 0.040755
0.116647 0.110393 0.041082
0.122459 0.102471 0.040481
0.126139 0.095740 0.039324
0.128501 0.090776 0.038613
0.130310 0.086699 0.037919
0.131719 0.083466 0.037188
0.132974 0.080954 0.036675
0.134105 0.079156 0.036826
0.135514 0.077957 0.037061
0.137464 0.077959 0.038555
0.139487 0.078221 0.040206
0.141228 0.078370 0.041456
0.142116 0.078548 0.041959
0.097490 0.138641 0.051575
0.101755 0.137350 0.051875
0.112245 0.133820 0.051563
0.122254 0.128870 0.051740
0.129273 0.122696 0.051851
0.134092 0.116518 0.051502
0.137488 0.110968 0.051018
0.140045 0.106181 0.050267
0.141986 0.102334 0.049744
0.143599 0.099028 0.049177
0.144937 0.096323 0.048864
0.146116 0.094161 0.048478
0.147246 0.092479 0.048564
0.148794 0.091624 0.049167
0.150681 0.091689 0.050401
0.151616 0.091672 0.050989
0.110741 0.151130 0.062739
0.113381 0.150413 0.062833
0.120733 0.148188 0.062781
0.130020 0.145297 0.062392
0.137139 0.141061 0.062669
0.142778 0.136110 0.062828
0.146888 0.131070 0.062696
0.150092 0.126199 0.062225
0.152712 0.121759 0.061703
0.154622 0.118174 0.061323
0.156260 0.115023 0.060934
0.157739 0.112265 0.060487
0.159006 0.109868 0.060232
0.160113 0.107884 0.060062
0.161306 0.106434 0.060196
0.162164 0.106107 0.060721
0.123702 0.163088 0.073423
0.125375 0.162611 0.073611
0.130353 0.161032 0.073757
0.137805 0.158950 0.073492
0.144940 0.156100 0.073289
0.150559 0.152443 0.073537
0.155125 0.148359 0.073583
0.158861 0.144254 0.073484
0.161855 0.140291 0.073252
0.164408 0.136561 0.072750
0.166487 0.133199 0.072400
0.168182 0.130277 0.071978
0.169682 0.127684 0.071693
0.171012 0.125387 0.071372
0.172180 0.123331 0.071247
0.172741 0.122371 0.071139
0.134682 0.173773 0.083833
0.135738 0.173443 0.083853
0.139281 0.172269 0.083901
0.144941 0.170542 0.083936
0.151599 0.168600 0.083502
0.157412 0.165839 0.083435
0.162101 0.162589 0.083613
0.166233 0.159073 0.083733
0.169598 0.155555 0.083702
0.172358 0.152216 0.083477
0.174887 0.148961 0.083147
0.176922 0.145969 0.082859
0.178659 0.143364 0.082558
0.180163 0.141086 0.082294
0.181571 0.139030 0.081977
0.182193 0.138030 0.081850
0.144100 0.183271 0.093910
0.144882 0.183028 0.093903
0.147519 0.182104 0.093938
0.151911 0.180505 0.094082
0.157647 0.178992 0.093753
0.163613 0.177154 0.093236
0.168372 0.174541 0.093367
0.172481 0.171701 0.093525
0.176062 0.168666 0.093587
0.179152 0.165576 0.093587
0.181810 0.162564 0.093529
0.184269 0.159697 0.093164
0.186386 0.157025 0.092886
0.188211 0.154526 0.092618
0.189711 0.152450 0.092426
0.190422 0.151526 0.092288
0.152421 0.192128 0.102916
0.153048 0.191904 0.102933
0.155067 0.191231 0.102985
0.158711 0.189907 0.103019
0.163447 0.188315 0.102985
0.168947 0.186903 0.102579
0.174034 0.184955 0.102328
0.178219 0.182622 0.102387
0.181939 0.180007 0.102515
0.185266 0.177265 0.102552
0.188176 0.174524 0.102552
0.190695 0.171859 0.102528
0.193060 0.169305 0.102299
0.195163 0.166829 0.102050
0.196993 0.164525 0.101820
0.197700 0.163588 0.101751
0.160542 0.201051 0.111210
0.161038 0.200897 0.111289
0.162683 0.200369 0.111346
0.165693 0.199293 0.111346
0.169755 0.197803 0.111426
0.174468 0.196425 0.111289
0.179655 0.194977 0.110797
0.184136 0.193098 0.110675
0.187966 0.190861 0.110853
0.191435 0.188461 0.110931
0.194606 0.185894 0.110931
0.197409 0.183411 0.111016
0.199823 0.180969 0.111039
0.202106 0.178612 0.110816
0.204175 0.176346 0.110595
0.204881 0.175538 0.110508
0.169103 0.210670 0.119532
0.169498 0.210554 0.119532
0.170866 0.210107 0.119553
0.173356 0.209226 0.119646
0.176866 0.207885 0.119660
0.181009 0.206381 0.119660
0.185750 0.205172 0.119422
0.190574 0.203754 0.119035
0.194600 0.201841 0.119052
0.198199 0.199698 0.119149
0.201476 0.197445 0.119278
0.204493 0.195099 0.119301
0.207146 0.192790 0.119383
0.209510 0.190587 0.119612
0.211659 0.188594 0.119759
0.212328 0.187972 0.119771
0.178306 0.221439 0.128216
0.178610 0.221341 0.128252
0.179806 0.220968 0.128274
0.182008 0.220218 0.128290
0.185107 0.219120 0.128410
0.188918 0.217595 0.128394
0.193221 0.216413 0.128323
0.197937 0.215192 0.127924
0.202420 0.213683 0.127588
0.206158 0.211881 0.127806
0.209611 0.209935 0.128120
0.212859 0.208067 0.128738
0.215930 0.206042 0.129339
0.218657 0.204015 0.129902
0.220845 0.202242 0.130337
0.221375 0.201823 0.130459
0.189400 0.234954 0.138032
0.189684 0.234921 0.138071
0.190727 0.234569 0.138132
0.192700 0.233989 0.138224
0.195592 0.233059 0.138299
0.199171 0.231783 0.138356
0.203294 0.230415 0.138498
0.207864 0.229605 0.138820
0.212707 0.228720 0.139153
0.217106 0.227549 0.139756
0.220881 0.226018 0.140539
0.224396 0.224293 0.141241
0.227598 0.222464 0.141880
0.230732 0.220483 0.142459
0.233054 0.218796 0.142874
0.233425 0.218523 0.142938
0.202293 0.250791 0.149373
0.202561 0.250745 0.149376
0.203481 0.250517 0.149503
0.205281 0.250063 0.149649
0.208004 0.249398 0.150014
0.211386 0.248557 0.150574
0.215412 0.247472 0.151271
0.219761 0.246625 0.151932
0.224527 0.245924 0.152494
0.229297 0.244947 0.152913
0.233462 0.243647 0.153577
0.237204 0.241988 0.154263
0.240671 0.240245 0.154918
0.243856 0.238390 0.155476
0.246245 0.236876 0.155908
0.246397 0.236772 0.155923
0.215835 0.268330 0.162168
0.216070 0.268292 0.162168
0.216934 0.268168 0.162303
0.218592 0.267852 0.162596
0.221076 0.267289 0.163017
0.224248 0.266600 0.163557
0.228096 0.265556 0.164189
0.232315 0.264395 0.164837
0.236867 0.263693 0.165490
0.241730 0.262861 0.165911
0.246450 0.261766 0.166288
0.250349 0.260300 0.167089
0.254068 0.258669 0.167838
0.257560 0.256869 0.168452
0.259806 0.255658 0.168897
0.259807 0.255638 0.168897
0.060133 0.175887 0.248683
0.076518 0.166431 0.237886
0.123814 0.127118 0.168636
0.166160 0.084600 0.110429
0.174195 0.087551 0.099849
0.172633 0.096521 0.095862
0.173207 0.097625 0.092480
0.174154 0.097970 0.090121
0.174883 0.098395 0.088439
0.175362 0.098700 0.087402
0.175794 0.098948 0.086630
0.176153 0.099292 0.086088
0.176536 0.099697 0.085628
0.176924 0.100012 0.085400
0.177295 0.100412 0.085160
0.177514 0.100654 0.085136
0.036669 0.189190 0.251006
0.077606 0.172985 0.228363
0.131217 0.124113 0.148366
0.168679 0.091039 0.106757
0.173857 0.093229 0.098217
0.173500 0.097423 0.093959
0.174227 0.098212 0.090933
0.175030 0.098585 0.088978
0.175544 0.098933 0.087658
0.175989 0.099191 0.086682
0.176345 0.099519 0.085996
0.176661 0.099817 0.085571
0.176997 0.100119 0.085203
0.177350 0.100440 0.084949
0.177743 0.100884 0.084839
0.177952 0.101102 0.084815
0.092191 0.173853 0.189250
0.109909 0.156708 0.164575
0.142706 0.132103 0.117632
0.160899 0.124581 0.097679
0.174325 0.115459 0.081183
0.176631 0.110744 0.080207
0.177480 0.109075 0.079361
0.178164 0.108275 0.079468
0.178537 0.107657 0.079550
0.178726 0.107230 0.079756
0.178998 0.106876 0.079896
0.179216 0.106736 0.080177
0.179461 0.106578 0.080416
0.179723 0.106540 0.080670
0.180053 0.106618 0.080922
0.180239 0.106619 0.081039
0.118100 0.152689 0.113755
0.124790 0.151067 0.109662
0.140518 0.149049 0.102126
0.156468 0.147222 0.088863
0.165617 0.139296 0.082081
0.171493 0.131447 0.077655
0.174841 0.125938 0.074357
0.177011 0.122155 0.074537
0.178803 0.120134 0.075608
0.180742 0.119417 0.077017
0.182047 0.118794 0.078063
0.182645 0.118148 0.079191
0.183115 0.117680 0.080048
0.183566 0.117329 0.080805
0.184011 0.117073 0.081445
0.184257 0.116972 0.081808
0.114443 0.168759 0.095538
0.122394 0.167825 0.094577
0.138652 0.165565 0.090296
0.153442 0.161103 0.086833
0.162968 0.155028 0.085005
0.169843 0.148689 0.080960
0.173768 0.142584 0.080065
0.176564 0.137424 0.079243
0.178711 0.133303 0.078641
0.180456 0.130016 0.078291
0.182328 0.128049 0.078885
0.184194 0.126925 0.079851
0.185760 0.126310 0.081060
0.186811 0.125724 0.082177
0.187515 0.125233 0.083209
0.187830 0.124969 0.083693
0.126962 0.177481 0.091006
0.130854 0.176643 0.091060
0.140797 0.174045 0.090874
0.152993 0.170804 0.089495
0.162449 0.166892 0.087562
0.169371 0.161639 0.086676
0.174021 0.156315 0.086495
0.177744 0.151340 0.085894
0.180553 0.146841 0.085235
0.182684 0.143273 0.084737
0.184491 0.140015 0.084033
0.185975 0.137339 0.083694
0.187498 0.135234 0.083707
0.189505 0.134436 0.084737
0.191148 0.133879 0.085891
0.191934 0.133654 0.086367
0.136813 0.183928 0.094538
0.139067 0.183497 0.094282
0.145492 0.181681 0.094163
0.154617 0.179028 0.093567
0.163564 0.176064 0.092669
0.170276 0.172114 0.092782
0.175424 0.167803 0.092807
0.179587 0.163427 0.092691
0.182935 0.159289 0.092385
0.185703 0.155477 0.091823
0.187895 0.152106 0.091406
0.189675 0.149281 0.090923
0.191270 0.146768 0.090443
0.192666 0.144572 0.090189
0.194225 0.143018 0.090364
0.195012 0.142416 0.090646
0.145379 0.190274 0.099681
0.146776 0.189854 0.099698
0.151060 0.188529 0.099875
0.157744 0.186157 0.099989
0.165493 0.183952 0.099533
0.172426 0.181167 0.099189
0.177541 0.177770 0.099357
0.182025 0.174097 0.099360
0.185633 0.170434 0.099360
0.188732 0.166943 0.099073
0.191503 0.163492 0.098596
0.193682 0.160482 0.098296
0.195530 0.157863 0.097972
0.197160 0.155546 0.097575
0.198577 0.153452 0.097166
0.199251 0.152456 0.097050
0.152914 0.196609 0.106298
0.153877 0.196327 0.106315
0.156940 0.195368 0.106375
0.162096 0.193527 0.106496
0.168449 0.191510 0.106381
0.175199 0.189572 0.105776
0.180549 0.186913 0.105776
0.185066 0.183890 0.105895
0.189009 0.180629 0.105929
0.192331 0.177413 0.105895
0.195186 0.174334 0.105814
0.197781 0.171363 0.105425
0.199998 0.168590 0.105148
0.201865 0.166127 0.104865
0.203513 0.164044 0.104765
0.204269 0.163054 0.104579
0.160330 0.203756 0.113055
0.161016 0.203542 0.113076
0.163350 0.202801 0.113089
0.167455 0.201391 0.113194
0.172711 0.199475 0.113192
0.178635 0.197866 0.112904
0.184355 0.195929 0.112504
0.189034 0.193415 0.112583
0.193062 0.190711 0.112678
0.196671 0.187795 0.112685
0.199782 0.184906 0.112757
0.202482 0.182158 0.112753
0.205017 0.179481 0.112546
0.207179 0.176993 0.112413
0.209098 0.174674 0.112264
0.209832 0.173783 0.112203
0.167984 0.211681 0.119878
0.168543 0.211508 0.119941
0.170361 0.210960 0.119982
0.173633 0.209831 0.120087
0.178098 0.208081 0.120132
0.183085 0.206488 0.120132
0.188729 0.204995 0.119612
0.193704 0.203017 0.119393
0.197863 0.200651 0.119579
0.201584 0.198190 0.119691
0.204988 0.195570 0.119949
0.207928 0.193026 0.120081
0.210454 0.190477 0.120171
0.212978 0.188057 0.120125
0.215156 0.185841 0.120206
0.215919 0.185122 0.120284
0.176460 0.221114 0.127658
0.176911 0.221001 0.127656
0.178398 0.220518 0.127702
0.181165 0.219616 0.127762
0.185037 0.218207 0.127825
0.189559 0.216452 0.127819
0.194666 0.215148 0.127607
0.199920 0.213700 0.127226
0.204349 0.211804 0.127310
0.208206 0.209648 0.127626
0.211741 0.207488 0.128062
0.215053 0.205202 0.128607
0.218029 0.202950 0.129143
0.220659 0.200697 0.129646
0.223022 0.198654 0.129946
0.223748 0.198012 0.130010
0.186050 0.232404 0.136029
0.186406 0.232271 0.136029
0.187678 0.231921 0.136068
0.190099 0.231197 0.136160
0.193594 0.230063 0.136314
0.197785 0.228601 0.136424
0.202565 0.227287 0.136634
0.207708 0.226213 0.136592
0.212714 0.224951 0.136841
0.216935 0.223361 0.137652
0.220846 0.221579 0.138480
0.224349 0.219569 0.139154
0.227623 0.217439 0.139780
0.230514 0.215250 0.140306
0.232857 0.213350 0.140696
0.233397 0.212878 0.140813
0.197695 0.246392 0.145993
0.197987 0.246335 0.146003
0.199130 0.246032 0.146124
0.201255 0.245433 0.146270
0.204410 0.244556 0.146474
0.208347 0.243505 0.147023
0.212847 0.242276 0.147705
0.217733 0.241454 0.148393
0.222907 0.240602 0.148823
0.227669 0.239330 0.149399
0.231702 0.237663 0.150191
0.235491 0.235783 0.150923
0.238949 0.233796 0.151553
0.242150 0.231693 0.152095
0.244608 0.229926 0.152492
0.245007 0.229601 0.152545
0.210127 0.261901 0.157220
0.210380 0.261846 0.157269
0.211408 0.261686 0.157451
0.213342 0.261308 0.157820
0.216202 0.260696 0.158319
0.219836 0.259830 0.158939
0.224139 0.258653 0.159613
0.228760 0.257601 0.160332
0.233754 0.256821 0.160864
0.238861 0.255801 0.161284
0.243275 0.254419 0.161925
0.247172 0.252686 0.162613
0.250829 0.250805 0.163279
0.254227 0.248823 0.163855
0.256728 0.247203 0.164326
0.256899 0.247069 0.164372
0.223118 0.278747 0.169587
0.223384 0.278715 0.169682
0.224252 0.278531 0.169835
0.226018 0.278254 0.170178
0.228671 0.277688 0.170658
0.232051 0.276962 0.171267
0.236133 0.275932 0.171952
0.240668 0.274753 0.172675
0.245366 0.273913 0.173369
0.250486 0.273074 0.173778
0.255522 0.272047 0.174090
0.259683 0.270492 0.174835
0.263596 0.268831 0.175530
0.267382 0.267020 0.176198
0.269776 0.265762 0.176612
0.269777 0.265762 0.176613
0.109580 0.210492 0.296809
0.111562 0.208657 0.295164
0.125816 0.196213 0.278255
0.154721 0.168425 0.217127
0.199537 0.120491 0.146866
0.213271 0.122106 0.138406
0.208611 0.131273 0.132186
0.207181 0.134915 0.128385
0.209039 0.136196 0.126236
0.210365 0.137072 0.124624
0.211329 0.137692 0.123420
0.212117 0.138298 0.122477
0.212690 0.138660 0.121697
0.213176 0.139014 0.121183
0.213571 0.139343 0.120817
0.213746 0.139473 0.120686
0.093599 0.224969 0.307492
0.096549 0.223280 0.305485
0.123531 0.201209 0.278567
0.159065 0.167197 0.208233
0.199704 0.127472 0.144720
0.212465 0.124449 0.137325
0.208322 0.132455 0.131428
0.207921 0.135488 0.127947
0.209683 0.136693 0.125922
0.210916 0.137505 0.124356
0.211793 0.138090 0.123113
0.212502 0.138572 0.122253
0.213074 0.138991 0.121591
0.213511 0.139318 0.121076
0.213834 0.139634 0.120768
0.214014 0.139794 0.120610
0.040466 0.250680 0.324097
0.054632 0.247485 0.318922
0.115867 0.218035 0.273305
0.168986 0.159315 0.170235
0.198174 0.141499 0.137854
0.206899 0.141061 0.131130
0.208936 0.137907 0.127758
0.210842 0.137963 0.125578
0.212086 0.138725 0.123919
0.212921 0.139245 0.122709
0.213557 0.139661 0.121765
0.214011 0.140010 0.121151
0.214375 0.140286 0.120766
0.214657 0.140529 0.120450
0.214931 0.140771 0.120233
0.215104 0.140842 0.120145
0.110389 0.234349 0.259868
0.123173 0.223630 0.243021
0.153991 0.185990 0.187380
0.177466 0.162597 0.144891
0.190789 0.161118 0.135536
0.199627 0.158244 0.127302
0.207212 0.153557 0.120066
0.213882 0.149977 0.118286
0.215703 0.147647 0.115759
0.216069 0.147039 0.115597
0.216270 0.146657 0.115800
0.216528 0.146355 0.116068
0.216691 0.146151 0.116226
0.216852 0.146018 0.116407
0.217068 0.145914 0.116674
0.217154 0.145914 0.116754
0.155234 0.183939 0.156086
0.158536 0.179486 0.150325
0.166513 0.175982 0.141456
0.176005 0.175956 0.137688
0.186182 0.174629 0.132843
0.195461 0.171802 0.125970
0.203083 0.167245 0.120071
0.209808 0.162603 0.114105
0.214504 0.159665 0.110220
0.216328 0.157837 0.111472
0.217293 0.156379 0.112854
0.217845 0.155250 0.113878
0.218251 0.154366 0.114741
0.218618 0.153660 0.115447
0.218931 0.153093 0.116065
0.219082 0.152890 0.116318
0.153363 0.192382 0.140491
0.155339 0.191149 0.138552
0.162588 0.189768 0.136620
0.173316 0.187736 0.133945
0.184189 0.186153 0.129665
0.193387 0.183186 0.125468
0.200663 0.179100 0.120971
0.207299 0.174850 0.115140
0.211159 0.170838 0.111552
0.213686 0.167203 0.111268
0.216297 0.164672 0.111731
0.218801 0.163254 0.112981
0.220001 0.161920 0.114418
0.220735 0.160826 0.115606
0.221213 0.159913 0.116633
0.221462 0.159517 0.117077
0.153656 0.202182 0.135688
0.155606 0.201460 0.134482
0.162587 0.200130 0.133124
0.173089 0.197930 0.131008
0.183834 0.195628 0.128038
0.192635 0.193290 0.125176
0.199936 0.189950 0.121163
0.206073 0.186170 0.115998
0.210138 0.181722 0.116018
0.213305 0.177844 0.115980
0.215805 0.174587 0.115882
0.217909 0.171844 0.115797
0.219997 0.169741 0.115992
0.222054 0.168270 0.116774
0.223770 0.167251 0.117895
0.224445 0.166762 0.118475
0.159640 0.209964 0.132171
0.161321 0.209664 0.132059
0.166432 0.208716 0.131639
0.174656 0.206782 0.130523
0.184159 0.204443 0.128320
0.193173 0.202621 0.125202
0.200040 0.199803 0.121134
0.205631 0.195809 0.120156
