example_ofxGpuLutCube/bin/data/ofxGpuLutCube/LUT/U7 (desaturated yellow).cube
LUT_3D_SIZE 6
0.043066 0.000000 0.000000
0.061946 0.000000 0.000000
0.072104 0.000000 0.000000
0.080078 0.000000 0.000000
0.087482 0.000000 0.000000
0.094168 0.000000 0.000000
0.076621 0.103221 0.012480
0.095420 0.090070 0.014714
0.105544 0.074623 0.012396
0.110656 0.066162 0.009265
0.115084 0.061405 0.009239
0.119039 0.059386 0.012292
0.118375 0.156418 0.067720
0.132055 0.152517 0.067600
0.148687 0.142094 0.067879
0.157701 0.130361 0.067288
0.162985 0.121545 0.066237
0.166187 0.116441 0.065802
0.150963 0.190110 0.100978
0.157122 0.187912 0.101133
0.172208 0.183053 0.100429
0.183292 0.175434 0.100663
0.190979 0.167486 0.100436
0.195598 0.161781 0.099933
0.177626 0.220476 0.127532
0.181274 0.219262 0.127546
0.192445 0.215458 0.127581
0.205258 0.210925 0.127046
0.214912 0.205041 0.128395
0.220338 0.200861 0.129540
0.215833 0.268328 0.162166
0.218629 0.267806 0.162594
0.228093 0.265554 0.164188
0.241754 0.262859 0.165909
0.254066 0.258668 0.167837
0.259805 0.255703 0.168896
0.109580 0.210492 0.296809
0.154721 0.168425 0.217127
0.208611 0.131273 0.132186
0.210365 0.137072 0.124624
0.212690 0.138660 0.121697
0.213746 0.139473 0.120686
0.110389 0.234349 0.259868
0.177466 0.162597 0.144891
0.207212 0.153557 0.120066
0.216069 0.147039 0.115597
0.216691 0.146151 0.116226
0.217154 0.145914 0.116754
0.153656 0.202182 0.135688
0.173089 0.197930 0.131008
0.199936 0.189950 0.121163
0.213305 0.177844 0.115980
0.219997 0.169741 0.115992
0.224445 0.166762 0.118475
0.174849 0.227650 0.133581
0.183200 0.224451 0.131129
0.204591 0.217868 0.130728
0.219888 0.209762 0.133013
0.229772 0.200810 0.134078
0.235267 0.194641 0.134241
0.204178 0.258842 0.154156
0.208923 0.257429 0.154637
0.223918 0.253704 0.156982
0.241069 0.249511 0.158980
0.253154 0.242527 0.161063
0.259625 0.237296 0.162051
0.240452 0.305499 0.188417
0.243577 0.304604 0.188662
0.255025 0.302139 0.190569
0.271131 0.298656 0.192812
0.286012 0.293758 0.194783
0.292839 0.290114 0.195974
0.277041 0.382063 0.541988
0.288415 0.374120 0.535105
0.304465 0.344317 0.450976
0.405539 0.261723 0.300447
0.394790 0.281846 0.284738
0.399092 0.281895 0.275953
0.226780 0.448565 0.573150
0.246167 0.432327 0.556381
0.311832 0.347804 0.425080
0.405631 0.286412 0.299189
0.399451 0.283822 0.282427
0.402628 0.283064 0.274027
0.193773 0.493548 0.522470
0.257962 0.435782 0.453850
0.351569 0.336749 0.322837
0.387538 0.330398 0.299473
0.413386 0.313607 0.276401
0.415166 0.293263 0.260301
0.306865 0.381000 0.319183
0.312351 0.376363 0.314847
0.344321 0.374369 0.310171
0.382319 0.369342 0.299928
0.413391 0.354320 0.279011
0.425106 0.336070 0.260653
0.310708 0.418188 0.314056
0.317815 0.416531 0.312611
0.349223 0.416048 0.309555
0.390305 0.412890 0.296818
0.418286 0.398416 0.283360
0.432631 0.387279 0.283704
0.329883 0.461690 0.306601
0.336192 0.460637 0.303543
0.364341 0.461177 0.305429
0.404976 0.458949 0.310585
0.438507 0.450987 0.312849
0.452113 0.443743 0.314373
0.630812 0.675713 0.892943
0.630812 0.675713 0.892943
0.649875 0.675571 0.880982
0.675148 0.662769 0.835150
0.803447 0.537476 0.664588
0.778538 0.558916 0.629288
0.610113 0.703092 0.891855
0.610113 0.703092 0.891855
0.648992 0.684745 0.880263
0.675149 0.672228 0.826223
0.807980 0.543738 0.659693
0.777167 0.562968 0.628046
0.543234 0.771355 0.884142
0.545978 0.771414 0.883825
0.597142 0.747366 0.872816
0.706230 0.683974 0.758383
0.782342 0.597573 0.642666
0.776403 0.581122 0.615834
0.529516 0.812236 0.831040
0.554997 0.800717 0.816787
0.655099 0.746593 0.751274
0.726565 0.693129 0.674831
0.747883 0.659578 0.632606
0.771045 0.608632 0.578886
0.660542 0.761360 0.678944
0.664179 0.760017 0.676431
0.677531 0.752669 0.666353
0.699101 0.736668 0.647261
0.724618 0.703473 0.607895
0.743051 0.651062 0.538064
0.625185 0.804861 0.653032
0.629359 0.803120 0.650228
0.642933 0.794580 0.636607
0.664572 0.773642 0.603277
0.695020 0.734310 0.555091
0.722302 0.717230 0.557732
0.851355 0.875430 0.990997
0.851355 0.875430 0.990997
0.858441 0.868303 0.991073
0.869462 0.861632 0.982728
0.890682 0.853158 0.959339
0.925575 0.834175 0.916936
0.846191 0.881259 0.991062
0.846191 0.881259 0.991062
0.857564 0.870126 0.991186
0.867187 0.865505 0.982716
0.889009 0.856678 0.958581
0.932169 0.832545 0.911290
0.832467 0.897628 0.991356
0.832467 0.897628 0.991356
0.842065 0.891026 0.989228
0.863249 0.875563 0.981460
0.888480 0.868467 0.948467
0.963684 0.817988 0.889859
0.811212 0.927639 0.983342
0.811361 0.927494 0.983280
0.816916 0.925186 0.981369
0.843266 0.906911 0.974010
0.907789 0.877056 0.911807
0.968220 0.833594 0.868723
0.806024 0.952593 0.959977
0.810338 0.950606 0.957375
0.834392 0.938675 0.941531
0.879827 0.916230 0.909826
0.918867 0.894418 0.876577
0.950492 0.871883 0.849004
0.865478 0.945741 0.893309
0.865761 0.946080 0.892302
0.868532 0.946174 0.886251
0.876910 0.944313 0.874319
0.898901 0.935657 0.845771
0.929385 0.915799 0.777705
0.961810 0.969774 0.991809
0.961810 0.969774 0.991809
0.962340 0.969474 0.991823
0.965736 0.966071 0.991901
0.968776 0.963671 0.991793
0.978944 0.955890 0.990777
0.961175 0.970785 0.991834
0.961175 0.970785 0.991834
0.961546 0.970506 0.991845
0.965629 0.966372 0.991839
0.969019 0.963870 0.991827
0.979184 0.956000 0.990745
0.960024 0.973866 0.991623
0.960024 0.973866 0.991623
0.960270 0.973382 0.991628
0.965592 0.968083 0.991803
0.969376 0.964791 0.991765
0.979533 0.957262 0.990539
0.958354 0.978561 0.991427
0.958354 0.978561 0.991427
0.958960 0.977834 0.991432
0.962784 0.974106 0.991491
0.970166 0.966895 0.991418
0.978975 0.961880 0.989890
0.956914 0.985214 0.991019
0.956916 0.985190 0.991021
0.957458 0.984807 0.991031
0.959192 0.982862 0.991036
0.967839 0.974897 0.990996
0.980183 0.968133 0.984706
0.961782 0.991412 0.987958
0.961769 0.991534 0.987662
0.962780 0.991049 0.986889
0.964984 0.990162 0.984546
0.972894 0.986840 0.976681
0.988112 0.982312 0.957421
