example_ofxGpuLutCube/bin/data/ofxGpuLutCube/LUT/U8 (clear sharpen teal orange).cube
LUT_3D_SIZE 6
0.000000 0.004302 0.030035
0.249370 0.000000 0.118613
0.367742 0.034595 0.177192
0.521528 0.171658 0.248191
0.734998 0.316253 0.379030
0.869001 0.456878 0.481525
0.032951 0.221739 0.013867
0.231369 0.233483 0.099947
0.369253 0.220786 0.115805
0.528075 0.261746 0.219228
0.742829 0.361304 0.365798
0.872633 0.472026 0.467132
0.091060 0.321675 0.041191
0.112272 0.322023 0.050535
0.353816 0.354977 0.115293
0.526824 0.386577 0.121546
0.754887 0.461495 0.327393
0.873120 0.533084 0.448574
0.157357 0.432369 0.094166
0.157357 0.432369 0.094166
0.321076 0.465391 0.110235
0.531072 0.530282 0.181155
0.747530 0.593846 0.344972
0.869789 0.617925 0.429062
0.190112 0.538047 0.169130
0.190112 0.538047 0.169130
0.190112 0.538047 0.169130
0.544063 0.670547 0.258871
0.739979 0.740967 0.410252
0.856666 0.725028 0.461474
0.313101 0.769699 0.333000
0.313101 0.769699 0.333000
0.313101 0.769699 0.333000
0.434998 0.809164 0.367259
0.733018 0.851190 0.460556
0.843184 0.842427 0.497288
0.000000 0.087512 0.289149
0.108208 0.109979 0.277867
0.354283 0.072507 0.256752
0.540699 0.180966 0.315549
0.752245 0.331259 0.427513
0.869285 0.464041 0.502486
0.000000 0.246676 0.285690
0.108934 0.208340 0.252410
0.369048 0.223863 0.241782
0.551016 0.264910 0.288008
0.760908 0.372047 0.411435
0.871705 0.478311 0.488643
0.087092 0.305501 0.118410
0.088356 0.303820 0.124960
0.361283 0.362540 0.186725
0.549039 0.397014 0.267294
0.767321 0.471016 0.384318
0.874133 0.536617 0.471380
0.157357 0.432369 0.094166
0.157357 0.432369 0.094166
0.309930 0.463143 0.110151
0.529991 0.530041 0.180704
0.757141 0.599577 0.374311
0.874070 0.616224 0.439084
0.190112 0.538047 0.169078
0.190112 0.538047 0.169078
0.190112 0.538047 0.169078
0.538881 0.668774 0.255420
0.739006 0.740522 0.409308
0.856598 0.725226 0.461473
0.313101 0.769699 0.332976
0.313101 0.769699 0.332976
0.313101 0.769699 0.332976
0.431142 0.809647 0.366957
0.730794 0.850889 0.459183
0.842873 0.842669 0.497494
0.034595 0.137876 0.446799
0.059939 0.136051 0.446726
0.238153 0.215700 0.466060
0.557606 0.317123 0.518320
0.794128 0.402305 0.571401
0.861009 0.488109 0.566902
0.000000 0.266869 0.453969
0.000000 0.267050 0.454747
0.239175 0.275005 0.472768
0.571511 0.357500 0.511309
0.803736 0.430368 0.562320
0.864253 0.502226 0.557040
0.000000 0.406230 0.464879
0.000000 0.406929 0.467243
0.257704 0.402222 0.464165
0.595671 0.457120 0.494485
0.815578 0.513799 0.538631
0.870705 0.545998 0.531569
0.165263 0.416036 0.301818
0.165377 0.417980 0.305412
0.257481 0.464158 0.349901
0.599564 0.602376 0.458125
0.800777 0.639291 0.539995
0.872022 0.617996 0.511112
0.213845 0.552001 0.249803
0.215927 0.554078 0.252928
0.223303 0.561449 0.266563
0.546072 0.705769 0.364581
0.760552 0.762335 0.496212
0.864972 0.722410 0.493052
0.313116 0.769579 0.332947
0.313116 0.769579 0.332947
0.313116 0.769579 0.332947
0.410687 0.808689 0.363261
0.721174 0.853415 0.455248
0.844736 0.846217 0.497505
0.243103 0.289553 0.706248
0.243620 0.290020 0.706895
0.348921 0.334796 0.749105
0.568760 0.492984 0.856725
0.794817 0.656362 0.849982
0.831452 0.558389 0.672867
0.169778 0.367789 0.723029
0.170657 0.368160 0.723681
0.340024 0.380214 0.757964
0.561664 0.526421 0.860648
0.793627 0.657652 0.837822
0.832787 0.560449 0.666789
0.096009 0.529282 0.766627
0.097419 0.529572 0.767281
0.186612 0.540034 0.788291
0.568374 0.616718 0.864682
0.796145 0.665803 0.789148
0.841127 0.574225 0.639284
0.127740 0.723443 0.816256
0.132473 0.724084 0.817666
0.151847 0.727050 0.824436
0.577958 0.755523 0.836531
0.785371 0.687045 0.722691
0.856381 0.616227 0.589419
0.333648 0.753003 0.615996
0.333053 0.755657 0.619515
0.332089 0.766572 0.633374
0.544929 0.800553 0.676396
0.772608 0.776379 0.661053
0.853538 0.709134 0.583256
0.459544 0.853980 0.557813
0.460447 0.854306 0.558964
0.464423 0.855444 0.563785
0.480666 0.863453 0.573150
0.721346 0.874097 0.591317
0.849452 0.853122 0.543020
0.487843 0.528627 0.933961
0.488220 0.528979 0.934179
0.489773 0.530560 0.934870
0.666276 0.642245 0.952204
0.803218 0.757364 0.954583
0.889962 0.822282 0.941166
0.487117 0.561190 0.936416
0.487449 0.561516 0.936615
0.489068 0.562718 0.937212
0.663936 0.656403 0.952757
0.803228 0.767264 0.954731
0.889380 0.823814 0.941268
0.491702 0.658635 0.944437
0.492157 0.658832 0.944606
0.494024 0.659723 0.945055
0.661467 0.704648 0.954132
0.805392 0.803336 0.954750
0.887207 0.831855 0.941232
0.509241 0.784823 0.954280
0.509728 0.784872 0.954369
0.511715 0.785119 0.954849
0.632990 0.800861 0.957591
0.812739 0.847326 0.953502
0.895198 0.845766 0.919258
0.570038 0.907477 0.957245
0.571002 0.907361 0.957310
0.575234 0.906922 0.958131
0.627469 0.906511 0.958513
0.806927 0.896362 0.939535
0.836673 0.729956 0.736332
0.663903 0.957308 0.872685
0.665750 0.957205 0.873900
0.673778 0.956985 0.878735
0.687622 0.956217 0.886794
0.732234 0.933007 0.845887
0.825638 0.832342 0.669149
0.663485 0.723483 0.965738
0.663485 0.723483 0.965738
0.663485 0.723483 0.965738
0.718361 0.751885 0.962151
0.797421 0.770583 0.957275
0.892644 0.812451 0.951389
0.661639 0.734012 0.965762
0.661639 0.734012 0.965762
0.661639 0.734012 0.965762
0.718508 0.756535 0.962194
0.796385 0.773788 0.957371
0.891620 0.812076 0.951528
0.665965 0.770962 0.965490
0.665965 0.770962 0.965490
0.665965 0.770962 0.965490
0.714917 0.778445 0.962283
0.790969 0.787957 0.957662
0.886790 0.810867 0.951765
0.672073 0.825481 0.965209
0.672073 0.825481 0.965209
0.672073 0.825481 0.965209
0.686239 0.824570 0.964199
0.778769 0.812825 0.958490
0.869873 0.808150 0.953080
0.658665 0.883242 0.966124
0.659073 0.883155 0.966123
0.660120 0.882840 0.965991
0.660879 0.882692 0.965961
0.733475 0.867986 0.961489
0.848327 0.838232 0.954224
0.792724 0.951770 0.957657
0.792845 0.951768 0.957648
0.793435 0.951675 0.957649
0.794731 0.951673 0.957652
0.809616 0.949637 0.956723
0.813839 0.946160 0.956370
