example_ofxGpuLutCube/bin/data/ofxGpuLutCube/LUT/U8 (clear sharpen teal orange).cube
LUT_3D_SIZE 16
0.000000 0.004302 0.030035
0.140939 0.012996 0.074040
0.204670 0.000000 0.095086
0.249370 0.000000 0.118613
0.289967 0.000000 0.137332
0.325175 0.000000 0.154222
0.367742 0.034595 0.177192
0.412587 0.080163 0.199163
0.463637 0.122480 0.222992
0.521528 0.171658 0.248191
0.586240 0.216579 0.281166
0.659671 0.263955 0.328169
0.734998 0.316253 0.379030
0.806650 0.374931 0.431135
0.852969 0.428175 0.467521
0.869001 0.456878 0.481525
0.022066 0.127964 0.011691
0.122963 0.126048 0.062358
0.199867 0.108928 0.091510
0.255086 0.090459 0.112483
0.293168 0.080608 0.123886
0.328889 0.082355 0.141742
0.369403 0.094152 0.166273
0.414133 0.116351 0.191826
0.465329 0.150156 0.217571
0.523079 0.188572 0.244065
0.587970 0.226795 0.277742
0.661390 0.269965 0.324965
0.736221 0.318089 0.376166
0.807390 0.375304 0.429389
0.853253 0.428360 0.465899
0.869345 0.457116 0.480281
0.027777 0.178305 0.012048
0.085163 0.179870 0.040818
0.185334 0.187148 0.081772
0.246845 0.179310 0.106562
0.291055 0.165242 0.115936
0.330929 0.158061 0.119172
0.371143 0.164974 0.138694
0.416438 0.179476 0.172244
0.467914 0.199887 0.204333
0.525600 0.225062 0.235524
0.591242 0.254915 0.271299
0.664617 0.292194 0.319686
0.739810 0.336559 0.371037
0.810860 0.387631 0.423652
0.854714 0.433114 0.459598
0.870619 0.459222 0.475310
0.032951 0.221739 0.013867
0.032951 0.221739 0.013867
0.155218 0.227855 0.069315
0.231369 0.233483 0.099947
0.281358 0.227594 0.113322
0.324728 0.221812 0.116385
0.369253 0.220786 0.115805
0.417194 0.227810 0.132115
0.469667 0.242004 0.176457
0.528075 0.261746 0.219228
0.594721 0.287234 0.260544
0.667833 0.320373 0.311674
0.742829 0.361304 0.365798
0.812844 0.408610 0.419887
0.856302 0.449954 0.453585
0.872633 0.472026 0.467132
0.046587 0.258255 0.021524
0.046587 0.258255 0.021524
0.085623 0.259146 0.038914
0.211796 0.267057 0.092479
0.270291 0.271909 0.111251
0.316830 0.269330 0.115623
0.363403 0.270138 0.115026
0.413558 0.274864 0.113459
0.469007 0.284418 0.132056
0.530614 0.300389 0.186130
0.598040 0.322802 0.241635
0.671874 0.353077 0.298216
0.746851 0.391080 0.357548
0.814614 0.433792 0.413859
0.856699 0.470374 0.448637
0.872958 0.489434 0.462574
0.066759 0.289131 0.030029
0.066759 0.289131 0.030029
0.066759 0.289131 0.030029
0.164305 0.296510 0.073373
0.261330 0.305387 0.108395
0.308238 0.311956 0.114600
0.358368 0.313087 0.115242
0.408944 0.318557 0.112209
0.465597 0.328197 0.107330
0.529329 0.342600 0.154047
0.600495 0.361685 0.215413
0.676644 0.389305 0.278794
0.751172 0.424688 0.345357
0.816337 0.462466 0.404749
0.856696 0.493828 0.441617
0.873179 0.509849 0.456895
0.091060 0.321675 0.041191
0.091060 0.321675 0.041191
0.091060 0.321675 0.041191
0.112272 0.322023 0.050535
0.228709 0.336326 0.097346
0.306697 0.345351 0.114054
0.353816 0.354977 0.115293
0.406528 0.361253 0.112316
0.462973 0.371435 0.107447
0.526824 0.386577 0.121546
0.598105 0.405424 0.191961
0.678444 0.430490 0.261976
0.754887 0.461495 0.327393
0.817325 0.494804 0.392682
0.856333 0.520480 0.431884
0.873120 0.533084 0.448574
0.116666 0.355760 0.052407
0.116666 0.355760 0.052407
0.116666 0.355760 0.052407
0.116666 0.355760 0.052407
0.179666 0.362955 0.079796
0.291284 0.379882 0.110966
0.354593 0.391249 0.115018
0.403743 0.405491 0.112480
0.463235 0.416476 0.107962
0.527276 0.432060 0.135017
0.597047 0.451415 0.187063
0.676578 0.475616 0.254115
0.752957 0.501917 0.313905
0.817613 0.529605 0.376516
0.855127 0.549211 0.417871
0.872476 0.558375 0.436714
0.140292 0.392545 0.070574
0.140292 0.392545 0.070574
0.140292 0.392545 0.070574
0.140292 0.392545 0.070574
0.150768 0.393786 0.074110
0.255469 0.413866 0.102733
0.346324 0.428382 0.114332
0.408733 0.444385 0.112038
0.462636 0.464819 0.120702
0.529374 0.480055 0.158289
0.599850 0.499445 0.198127
0.676915 0.523514 0.267956
0.749192 0.547514 0.327509
0.812614 0.569072 0.379766
0.852620 0.581249 0.411935
0.871070 0.586953 0.432112
0.157357 0.432369 0.094166
0.157357 0.432369 0.094166
0.157357 0.432369 0.094166
0.157357 0.432369 0.094166
0.157357 0.432369 0.094166
0.200055 0.440967 0.101809
0.321076 0.465391 0.110235
0.406779 0.485310 0.116094
0.471456 0.506915 0.147237
0.531072 0.530282 0.181155
0.603130 0.549494 0.220801
0.677718 0.571980 0.281580
0.747530 0.593846 0.344972
0.808180 0.612370 0.396507
0.847408 0.617619 0.419386
0.869789 0.617925 0.429062
0.170946 0.470274 0.117774
0.170946 0.470274 0.117774
0.170946 0.470274 0.117774
0.170946 0.470274 0.117774
0.170946 0.470274 0.117774
0.170946 0.470274 0.117774
0.276860 0.498506 0.116454
0.393503 0.526643 0.132895
0.476627 0.551026 0.173744
0.541569 0.575339 0.204110
0.603938 0.604080 0.248215
0.677852 0.622555 0.300524
0.745736 0.641359 0.363073
0.804163 0.656158 0.412643
0.842849 0.657897 0.434046
0.865882 0.651874 0.437624
0.180940 0.504084 0.142895
0.180940 0.504084 0.142895
0.180940 0.504084 0.142895
0.180940 0.504084 0.142895
0.180940 0.504084 0.142895
0.180940 0.504084 0.142895
0.232026 0.521335 0.155107
0.359150 0.567744 0.168173
0.466283 0.594791 0.193235
0.549498 0.623615 0.232899
0.615278 0.649355 0.278874
0.677169 0.674794 0.326450
0.742873 0.690996 0.385545
0.798237 0.698790 0.426529
0.837787 0.698165 0.447325
0.861937 0.688346 0.450013
0.190112 0.538047 0.169130
0.190112 0.538047 0.169130
0.190112 0.538047 0.169130
0.190112 0.538047 0.169130
0.190112 0.538047 0.169130
0.190112 0.538047 0.169130
0.190112 0.538047 0.169130
0.310101 0.598170 0.204224
0.447698 0.641063 0.216369
0.544063 0.670547 0.258871
0.623456 0.697980 0.310262
0.684321 0.720674 0.358224
0.739979 0.740967 0.410252
0.791992 0.742650 0.442159
0.831975 0.738152 0.460419
0.856666 0.725028 0.461474
0.216933 0.592294 0.205713
0.216933 0.592294 0.205713
0.216933 0.592294 0.205713
0.216933 0.592294 0.205713
0.216933 0.592294 0.205713
0.216933 0.592294 0.205713
0.216933 0.592294 0.205713
0.251953 0.611220 0.217217
0.390436 0.682552 0.260388
0.530338 0.719181 0.284931
0.618145 0.744402 0.336208
0.689239 0.765998 0.389430
0.741072 0.778148 0.427987
0.785351 0.785624 0.458003
0.826095 0.779854 0.475535
0.851574 0.762804 0.473726
0.261881 0.676287 0.264565
0.261881 0.676287 0.264565
0.261881 0.676287 0.264565
0.261881 0.676287 0.264565
0.261881 0.676287 0.264565
0.261881 0.676287 0.264565
0.261881 0.676287 0.264565
0.267486 0.679633 0.266674
0.357624 0.727980 0.299386
0.491582 0.767201 0.328608
0.604629 0.790165 0.361179
0.681761 0.805643 0.406738
0.740437 0.814976 0.446514
0.784617 0.820439 0.473661
0.821341 0.820739 0.491012
0.847396 0.803036 0.486470
0.313101 0.769699 0.333000
0.313101 0.769699 0.333000
0.313101 0.769699 0.333000
0.313101 0.769699 0.333000
0.313101 0.769699 0.333000
0.313101 0.769699 0.333000
0.313101 0.769699 0.333000
0.313101 0.769699 0.333000
0.342614 0.789789 0.346065
0.434998 0.809164 0.367259
0.581259 0.836510 0.395559
0.663887 0.842877 0.421074
0.733018 0.851190 0.460556
0.782403 0.854948 0.487963
0.819933 0.855210 0.503976
0.843184 0.842427 0.497288
0.000000 0.053738 0.184319
0.067018 0.056578 0.171634
0.147512 0.054564 0.133325
0.225967 0.012068 0.137216
0.281605 0.000000 0.156770
0.322866 0.000000 0.171681
0.368595 0.031987 0.190733
0.414295 0.079396 0.209599
0.465452 0.123250 0.230548
0.523251 0.172391 0.254512
0.588080 0.217503 0.287865
0.661228 0.264987 0.333659
0.736552 0.317516 0.383572
0.807874 0.376163 0.434722
0.853191 0.429057 0.469932
0.869098 0.457514 0.483486
0.000000 0.130313 0.165529
0.073688 0.124381 0.154564
0.163432 0.106511 0.122633
0.236331 0.090009 0.129611
0.290369 0.078909 0.144376
0.328350 0.080435 0.159857
0.371226 0.093003 0.181226
0.416249 0.115685 0.202581
0.467336 0.150008 0.225207
0.525029 0.188710 0.250288
0.589851 0.227359 0.283896
0.663094 0.270840 0.330227
0.737684 0.319480 0.380785
0.808355 0.376557 0.432996
0.853557 0.429264 0.468399
0.869439 0.457731 0.482206
0.024248 0.180995 0.094263
0.059736 0.180038 0.096719
0.170750 0.179022 0.098943
0.239277 0.173807 0.117453
0.290853 0.163699 0.131178
0.331667 0.157821 0.137560
0.373611 0.164476 0.158495
0.418715 0.179044 0.185620
0.470119 0.199631 0.213252
0.527639 0.225104 0.241995
0.593137 0.255250 0.277007
0.666394 0.292816 0.324758
0.741518 0.337563 0.375306
0.811896 0.388786 0.427320
0.855055 0.434050 0.462168
0.870706 0.459833 0.477308
0.034893 0.221713 0.027194
0.034661 0.221701 0.030034
0.148180 0.226995 0.067469
0.230583 0.233779 0.101137
0.283015 0.227604 0.117791
0.326539 0.221645 0.125904
0.371428 0.221414 0.132702
0.419244 0.228339 0.154386
0.471870 0.242236 0.189282
0.530092 0.261987 0.227174
0.596690 0.287642 0.266562
0.669709 0.321052 0.316964
0.744476 0.362204 0.370082
0.814028 0.409589 0.423325
0.856676 0.450736 0.455955
0.872684 0.472613 0.469211
0.046587 0.258255 0.021524
0.046587 0.258255 0.021524
0.083926 0.259059 0.038168
0.209296 0.266829 0.091534
0.270155 0.271901 0.111220
0.317738 0.269470 0.115676
0.365674 0.270780 0.121447
0.415719 0.275655 0.131289
0.471045 0.285121 0.156775
0.532708 0.300875 0.199536
0.600150 0.323364 0.248840
0.673655 0.353814 0.304109
0.748173 0.391866 0.361965
0.815692 0.434669 0.417465
0.857201 0.471030 0.451118
0.873004 0.489896 0.464470
0.066759 0.289131 0.030029
0.066759 0.289131 0.030029
0.066759 0.289131 0.030029
0.162758 0.296199 0.072593
0.260414 0.305292 0.108086
0.308019 0.311888 0.114582
0.358166 0.313095 0.115242
0.410600 0.319155 0.114411
0.467877 0.329248 0.130541
0.531275 0.343348 0.177038
0.602280 0.362342 0.226367
0.678411 0.390090 0.285456
0.752487 0.425527 0.350415
0.817429 0.463348 0.408554
0.857150 0.494465 0.444349
0.873157 0.510233 0.458916
0.091010 0.321675 0.041191
0.091010 0.321675 0.041191
0.091010 0.321675 0.041191
0.109421 0.321669 0.049312
0.226583 0.336072 0.096669
0.306092 0.345282 0.113990
0.353544 0.354900 0.115293
0.406399 0.361227 0.112345
0.463695 0.371715 0.111495
0.528831 0.387251 0.140530
0.600771 0.406291 0.213209
0.680125 0.431385 0.271584
0.756183 0.462364 0.333865
0.818419 0.495703 0.397157
0.856753 0.521038 0.434987
0.873291 0.533406 0.450906
0.116666 0.355760 0.052407
0.116666 0.355760 0.052407
0.116666 0.355760 0.052407
0.116666 0.355760 0.052407
0.176736 0.362532 0.078635
0.290383 0.379731 0.110841
0.354228 0.391170 0.115012
0.403558 0.405432 0.112482
0.463087 0.416387 0.107928
0.527017 0.432000 0.134926
0.598874 0.451913 0.188621
0.678961 0.476504 0.263022
0.754583 0.502935 0.323675
0.818756 0.530367 0.382040
0.855774 0.549661 0.422058
0.872717 0.558542 0.440483
0.140292 0.392545 0.070574
0.140292 0.392545 0.070574
0.140292 0.392545 0.070574
0.140292 0.392545 0.070574
0.147359 0.393598 0.073272
0.254064 0.413796 0.102535
0.345672 0.428251 0.114324
0.408548 0.444309 0.112093
0.462508 0.464714 0.120629
0.529193 0.479977 0.158217
0.599757 0.499410 0.198055
0.677173 0.523515 0.268177
0.750826 0.547890 0.328767
0.813963 0.569265 0.380774
0.853286 0.581024 0.412460
0.871503 0.586719 0.432677
0.157357 0.432369 0.094166
0.157357 0.432369 0.094166
0.157357 0.432369 0.094166
0.157357 0.432369 0.094166
0.157357 0.432369 0.094166
0.198938 0.440526 0.101795
0.320124 0.465212 0.110170
0.406237 0.485168 0.116039
0.471240 0.506825 0.147104
0.530960 0.530236 0.181057
0.603048 0.549469 0.220707
0.677659 0.571923 0.281434
0.747471 0.593822 0.344987
0.808844 0.612478 0.397039
0.848037 0.617400 0.419439
0.870217 0.617735 0.429462
0.170946 0.470274 0.117774
0.170946 0.470274 0.117774
0.170946 0.470274 0.117774
0.170946 0.470274 0.117774
0.170946 0.470274 0.117774
0.170946 0.470274 0.117774
0.275596 0.498049 0.116581
0.392888 0.526497 0.132586
0.476213 0.550943 0.173578
0.541448 0.575261 0.203999
0.603801 0.604009 0.248074
0.677645 0.622482 0.300352
0.745585 0.641371 0.362978
0.804180 0.656149 0.412561
0.842978 0.657851 0.434058
0.866298 0.651709 0.437631
0.180934 0.504039 0.142894
0.180934 0.504039 0.142894
0.180934 0.504039 0.142894
0.180934 0.504039 0.142894
0.180934 0.504039 0.142894
0.180934 0.504039 0.142894
0.231193 0.520965 0.154971
0.357948 0.567368 0.168003
0.465788 0.594666 0.193059
0.549237 0.623492 0.232732
0.615153 0.649335 0.278780
0.676970 0.674731 0.326356
0.742891 0.691032 0.385488
0.798250 0.698779 0.426497
0.837750 0.698098 0.447339
0.861873 0.688398 0.450007
0.190112 0.538047 0.169130
0.190112 0.538047 0.169130
0.190112 0.538047 0.169130
0.190112 0.538047 0.169130
0.190112 0.538047 0.169130
0.190112 0.538047 0.169130
0.190112 0.538047 0.169130
0.309071 0.597519 0.203915
0.446984 0.640875 0.216329
0.543679 0.670435 0.258584
0.623303 0.697945 0.310117
0.684193 0.720632 0.358085
0.739873 0.740906 0.410201
0.791928 0.742656 0.442115
0.831906 0.738150 0.460412
0.856753 0.725029 0.461468
0.216933 0.592294 0.205713
0.216933 0.592294 0.205713
0.216933 0.592294 0.205713
0.216933 0.592294 0.205713
0.216933 0.592294 0.205713
0.216933 0.592294 0.205713
0.216933 0.592294 0.205713
0.251491 0.610952 0.217065
0.389088 0.682073 0.260192
0.529881 0.718998 0.284721
0.617772 0.744291 0.336013
0.689150 0.765928 0.389322
0.740858 0.778131 0.427963
0.785324 0.785590 0.458003
0.825986 0.779893 0.475519
0.851521 0.762811 0.473750
0.261881 0.676287 0.264565
0.261881 0.676287 0.264565
0.261881 0.676287 0.264565
0.261881 0.676287 0.264565
0.261881 0.676287 0.264565
0.261881 0.676287 0.264565
0.261881 0.676287 0.264565
0.267292 0.679454 0.266594
0.356982 0.727780 0.299175
0.490729 0.766987 0.328422
0.604230 0.790020 0.360927
0.681538 0.805588 0.406557
0.740437 0.814981 0.446472
0.784531 0.820435 0.473632
0.821332 0.820738 0.491016
0.847395 0.803075 0.486498
0.313101 0.769699 0.333000
0.313101 0.769699 0.333000
0.313101 0.769699 0.333000
0.313101 0.769699 0.333000
0.313101 0.769699 0.333000
0.313101 0.769699 0.333000
0.313101 0.769699 0.333000
0.313101 0.769699 0.333000
0.341437 0.788978 0.345494
0.434685 0.809167 0.367276
0.580813 0.836519 0.395544
0.663652 0.842876 0.420935
0.732720 0.851159 0.460397
0.782304 0.854970 0.487901
0.819848 0.855179 0.503916
0.843183 0.842429 0.497288
0.000000 0.076456 0.241754
0.009564 0.070810 0.243112
0.074562 0.089562 0.235630
0.150630 0.083629 0.196263
0.235746 0.053477 0.184668
0.311594 0.021558 0.204254
0.366092 0.023757 0.220196
0.419160 0.078529 0.236639
0.471350 0.125417 0.253406
0.529039 0.175069 0.275185
0.594198 0.220639 0.308869
0.666627 0.268570 0.351363
0.741680 0.321834 0.398750
0.812168 0.380794 0.447691
0.854928 0.432578 0.479114
0.869195 0.459742 0.490079
0.000000 0.132859 0.243455
0.000000 0.129661 0.244334
0.080876 0.115898 0.227616
0.153704 0.110934 0.190876
0.244689 0.093245 0.182173
0.320710 0.078821 0.197913
0.372978 0.093854 0.213569
0.422665 0.117605 0.230203
0.473874 0.150838 0.247795
0.531280 0.189737 0.270505
0.596394 0.229708 0.304289
0.668689 0.274276 0.347999
0.742796 0.324133 0.396224
0.812546 0.381040 0.445887
0.855045 0.432689 0.477368
0.869380 0.459905 0.488694
0.000000 0.199890 0.235303
0.000000 0.200011 0.236385
0.085386 0.172263 0.209903
0.164687 0.153791 0.174964
0.253438 0.158545 0.175735
0.325434 0.157860 0.189508
0.378321 0.162521 0.201192
0.426143 0.176924 0.217723
0.477250 0.198897 0.237164
0.534530 0.225275 0.261972
0.600046 0.256757 0.296659
0.672620 0.295226 0.341625
0.746993 0.341106 0.389859
0.815731 0.393019 0.439733
0.856162 0.437421 0.471031
0.870532 0.461909 0.483706
0.031335 0.228454 0.168435
0.030390 0.228804 0.170012
0.077243 0.220353 0.165748
0.184234 0.205876 0.143078
0.259256 0.214942 0.162865
0.324658 0.220633 0.179610
0.376283 0.222972 0.189733
0.426147 0.229550 0.201965
0.479135 0.242813 0.221529
0.537301 0.262896 0.250066
0.603165 0.289280 0.286738
0.675889 0.323484 0.334452
0.749900 0.365374 0.384601
0.818021 0.412980 0.434971
0.857752 0.453152 0.463909
0.872682 0.474676 0.476287
0.053634 0.255028 0.093148
0.053831 0.254783 0.094114
0.073624 0.254017 0.096361
0.181498 0.256690 0.106497
0.262307 0.268391 0.134103
0.319806 0.271201 0.158654
0.372071 0.273573 0.175619
0.422735 0.278338 0.189448
0.477801 0.287352 0.206224
0.539498 0.302546 0.231902
0.606787 0.325148 0.270722
0.679672 0.356431 0.322848
0.753115 0.394881 0.376836
0.819669 0.437881 0.429525
0.858242 0.473019 0.459023
0.873424 0.491332 0.470822
0.066901 0.287291 0.055258
0.066961 0.287211 0.055782
0.067215 0.286926 0.057656
0.154190 0.292704 0.078353
0.254739 0.303534 0.113566
0.308911 0.313486 0.126548
0.363521 0.316296 0.141797
0.418356 0.323004 0.170709
0.475038 0.332429 0.192929
0.537705 0.345760 0.221828
0.608439 0.364864 0.255708
0.684212 0.392895 0.306830
0.756870 0.428409 0.366252
0.821095 0.466448 0.421598
0.858425 0.496388 0.453025
0.873691 0.511471 0.465644
0.091157 0.321660 0.041363
0.091000 0.321660 0.041915
0.090797 0.321662 0.043255
0.090528 0.321679 0.045190
0.218723 0.335391 0.094235
0.304518 0.345345 0.115638
0.354072 0.355722 0.120919
0.408932 0.362919 0.129443
0.469669 0.374734 0.158574
0.536612 0.390659 0.208989
0.607508 0.409256 0.250390
0.685223 0.434651 0.298073
0.759956 0.465358 0.353125
0.822229 0.498664 0.411278
0.858189 0.522961 0.444838
0.873646 0.534542 0.458392
0.116666 0.355760 0.052407
0.116666 0.355760 0.052407
0.116666 0.355760 0.052407
0.116666 0.355760 0.052407
0.164579 0.362108 0.073630
0.286775 0.379261 0.110255
0.352883 0.390839 0.114988
0.403187 0.405350 0.113089
0.463449 0.416913 0.118454
0.530367 0.433493 0.158789
0.606468 0.455053 0.237443
0.684989 0.480234 0.295423
0.758418 0.506232 0.347834
0.822175 0.533422 0.399808
0.857217 0.551356 0.434013
0.873331 0.559427 0.449583
0.140292 0.392545 0.070574
0.140292 0.392545 0.070574
0.140292 0.392545 0.070574
0.140292 0.392545 0.070574
0.146704 0.393506 0.073006
0.249055 0.413328 0.101810
0.343412 0.427824 0.114262
0.407873 0.444059 0.112160
0.461954 0.464433 0.120295
0.528799 0.479977 0.159050
0.600644 0.499956 0.200188
0.681461 0.525590 0.281147
0.756191 0.550423 0.344535
0.818329 0.570929 0.391695
0.855047 0.580807 0.417902
0.872824 0.586248 0.437156
0.157357 0.432369 0.094166
0.157357 0.432369 0.094166
0.157357 0.432369 0.094166
0.157357 0.432369 0.094166
0.157357 0.432369 0.094166
0.194863 0.439149 0.101626
0.316840 0.464468 0.110179
0.404420 0.484590 0.116020
0.470562 0.506565 0.146659
0.530356 0.529950 0.180794
0.602444 0.549340 0.220267
0.677489 0.571914 0.281316
0.749133 0.594513 0.347187
0.812502 0.613711 0.401258
0.850040 0.616724 0.420179
0.871872 0.617191 0.430768
0.170946 0.470274 0.117774
0.170946 0.470274 0.117774
0.170946 0.470274 0.117774
0.170946 0.470274 0.117774
0.170946 0.470274 0.117774
0.170946 0.470274 0.117774
0.270869 0.496478 0.116727
0.390652 0.525920 0.131616
0.474492 0.550306 0.172736
0.540918 0.575013 0.203634
0.603341 0.603703 0.247715
0.677195 0.622329 0.299834
0.745241 0.641304 0.362614
0.804108 0.656159 0.412597
0.844076 0.657640 0.434309
0.867837 0.651118 0.437680
0.180930 0.504010 0.142894
0.180930 0.504010 0.142894
0.180930 0.504010 0.142894
0.180930 0.504010 0.142894
0.180930 0.504010 0.142894
0.180930 0.504010 0.142894
0.228103 0.519628 0.154436
0.353718 0.566306 0.167375
0.463868 0.594069 0.192378
0.548292 0.623148 0.232098
0.614665 0.649114 0.278445
0.676586 0.674519 0.326032
0.742520 0.690942 0.385120
0.797995 0.698766 0.426326
0.837743 0.698080 0.447315
0.862439 0.688280 0.450038
0.190112 0.538047 0.169130
0.190112 0.538047 0.169130
0.190112 0.538047 0.169130
0.190112 0.538047 0.169130
0.190112 0.538047 0.169130
0.190112 0.538047 0.169130
0.190112 0.538047 0.169130
0.305314 0.595265 0.202710
0.444245 0.640117 0.216147
0.542059 0.669915 0.257534
0.622682 0.697745 0.309689
0.683776 0.720635 0.357733
0.739659 0.740734 0.409886
0.791543 0.742647 0.441948
0.831749 0.738204 0.460349
0.856676 0.725092 0.461454
0.216933 0.592294 0.205713
0.216933 0.592294 0.205713
0.216933 0.592294 0.205713
0.216933 0.592294 0.205713
0.216933 0.592294 0.205713
0.216933 0.592294 0.205713
0.216933 0.592294 0.205713
0.249807 0.609993 0.216493
0.384152 0.680407 0.259262
0.528107 0.718540 0.284026
0.616526 0.743848 0.335153
0.688474 0.765800 0.388891
0.740620 0.778054 0.427717
0.785095 0.785540 0.457889
0.825930 0.779961 0.475458
0.851445 0.762856 0.473757
0.261881 0.676287 0.264565
0.261881 0.676287 0.264565
0.261881 0.676287 0.264565
0.261881 0.676287 0.264565
0.261881 0.676287 0.264565
0.261881 0.676287 0.264565
0.261881 0.676287 0.264565
0.266621 0.679071 0.266308
0.354709 0.726953 0.298502
0.487750 0.766108 0.327926
0.602848 0.789599 0.360211
0.680583 0.805452 0.405945
0.740019 0.814918 0.446279
0.784349 0.820412 0.473511
0.821118 0.820786 0.490968
0.847281 0.803212 0.486599
0.313101 0.769699 0.333000
0.313101 0.769699 0.333000
0.313101 0.769699 0.333000
0.313101 0.769699 0.333000
0.313101 0.769699 0.333000
0.313101 0.769699 0.333000
0.313101 0.769699 0.333000
0.313101 0.769699 0.333000
0.336827 0.785671 0.343322
0.433517 0.809292 0.367169
0.578905 0.836441 0.395341
0.662594 0.842758 0.420455
0.732097 0.851109 0.460004
0.782061 0.854941 0.487831
0.819734 0.855200 0.503904
0.843074 0.842458 0.497417
0.000000 0.087512 0.289149
0.000000 0.087515 0.289265
0.058299 0.083091 0.288120
0.108208 0.109979 0.277867
0.157981 0.120582 0.252596
0.261689 0.100855 0.236160
0.354283 0.072507 0.256752
0.422513 0.084089 0.276575
0.481806 0.130974 0.294026
0.540699 0.180966 0.315549
0.605806 0.227625 0.345878
0.676994 0.276317 0.384494
0.752245 0.331259 0.427513
0.820214 0.390510 0.472845
0.857932 0.439526 0.496748
0.869285 0.464041 0.502486
0.000000 0.132336 0.289573
0.000000 0.132336 0.289675
0.052068 0.119623 0.289103
0.107385 0.128404 0.278079
0.161480 0.134452 0.249588
0.264270 0.124474 0.234920
0.359622 0.109971 0.253816
0.428956 0.125564 0.271916
0.485127 0.159415 0.288208
0.543252 0.195950 0.310558
0.608142 0.236554 0.342155
0.679067 0.282129 0.381435
0.753556 0.334105 0.425311
0.820663 0.390793 0.471331
0.857978 0.439611 0.495249
0.869442 0.464178 0.501320
0.000000 0.196244 0.290547
0.000000 0.196240 0.290694
0.039832 0.190097 0.290051
0.110136 0.165286 0.268117
0.169033 0.164437 0.238542
0.268420 0.167529 0.229489
0.365174 0.168948 0.247863
0.436017 0.174822 0.260031
0.489874 0.198605 0.276155
0.547770 0.226983 0.299675
0.612781 0.260729 0.332274
0.683953 0.301212 0.373445
0.757657 0.349585 0.418448
0.823674 0.402361 0.464969
0.858868 0.444250 0.488749
0.870301 0.466113 0.496595
0.000000 0.246676 0.285690
0.000000 0.246619 0.286033
0.025351 0.244399 0.285209
0.108934 0.208340 0.252410
0.180402 0.188566 0.216677
0.276222 0.208675 0.221470
0.369048 0.223863 0.241782
0.436296 0.231019 0.251239
0.492074 0.243942 0.263522
0.551016 0.264910 0.288008
0.616117 0.292606 0.322072
0.687808 0.328407 0.365541
0.760908 0.372047 0.411435
0.825995 0.420131 0.457519
0.859918 0.458386 0.479898
0.871705 0.478311 0.488643
0.027661 0.272707 0.234920
0.027590 0.272820 0.235575
0.030945 0.272677 0.237428
0.109567 0.236043 0.209935
0.190077 0.223298 0.195210
0.286001 0.252441 0.212049
0.372373 0.273248 0.233827
0.433429 0.281691 0.245466
0.489979 0.291288 0.256894
0.551823 0.306703 0.277107
0.619234 0.329434 0.308935
0.691420 0.361853 0.355803
0.763417 0.401197 0.404277
0.827224 0.444247 0.451791
0.860245 0.476825 0.473382
0.872930 0.493631 0.481332
0.076269 0.274720 0.158722
0.076128 0.274873 0.159427
0.075549 0.275422 0.162000
0.103624 0.268038 0.158548
0.209406 0.270967 0.161276
0.295357 0.305490 0.189829
0.371331 0.320808 0.219367
0.429907 0.328333 0.237642
0.487839 0.337397 0.250876
0.549965 0.351241 0.272137
0.619330 0.370543 0.300531
0.695133 0.398973 0.343454
0.765947 0.434183 0.394498
0.828038 0.472447 0.444699
0.860316 0.499852 0.468120
0.873676 0.513543 0.476976
0.087092 0.305501 0.118410
0.087067 0.305362 0.119025
0.087433 0.304843 0.121094
0.088356 0.303820 0.124960
0.183923 0.312277 0.130711
0.300078 0.344670 0.167583
0.361283 0.362540 0.186725
0.422082 0.371322 0.208840
0.483938 0.381992 0.237471
0.549039 0.397014 0.267294
0.618880 0.415954 0.298235
0.694752 0.441500 0.339147
0.767321 0.471016 0.384318
0.828617 0.504144 0.435471
0.859975 0.526003 0.461018
0.874133 0.536617 0.471380
0.105859 0.355169 0.076988
0.105571 0.354856 0.077876
0.104838 0.353522 0.080817
0.103264 0.350624 0.086190
0.152094 0.355670 0.095092
0.281124 0.381526 0.128915
0.355813 0.395408 0.153207
0.410699 0.411659 0.172899
