example_ofxGpuLutCube/bin/data/ofxGpuLutCube/LUT/U9 (warm faded greenish).cube
LUT_3D_SIZE 6
0.000000 0.000000 0.133101
0.209024 0.000000 0.130031
0.342744 0.000000 0.126031
0.503774 0.058228 0.121110
0.679937 0.089511 0.115271
0.829420 0.112309 0.108366
0.000000 0.225621 0.126140
0.226162 0.234505 0.121272
0.364212 0.244491 0.115474
0.532357 0.255441 0.108613
0.708727 0.267098 0.100681
0.852624 0.279291 0.091499
0.064186 0.372719 0.115668
0.247658 0.385424 0.108918
0.390979 0.399145 0.101022
0.565146 0.413864 0.091827
0.738839 0.429163 0.081061
0.876167 0.444892 0.067706
0.118560 0.556744 0.101347
0.272097 0.573147 0.092144
0.421488 0.589814 0.081419
0.599544 0.606598 0.068212
0.767822 0.623108 0.050288
0.898516 0.639020 0.015659
0.155260 0.744598 0.081781
0.298137 0.758800 0.068691
0.453638 0.772513 0.050890
0.632993 0.785497 0.015300
0.793614 0.797487 0.000000
0.918288 0.808592 0.000000
0.185530 0.890893 0.051827
0.324301 0.901504 0.014423
0.484964 0.911622 0.001440
0.662811 0.920901 0.000000
0.815183 0.929183 0.000000
0.934339 0.936562 0.000000
0.000000 0.000000 0.267826
0.211809 0.000000 0.265613
0.346247 0.016881 0.262879
0.508701 0.071454 0.259683
0.685089 0.098366 0.256140
0.833605 0.119604 0.252307
0.000000 0.228750 0.262972
0.229901 0.238069 0.259787
0.368831 0.248426 0.256244
0.538266 0.259627 0.252421
0.714380 0.271529 0.248343
0.857188 0.283906 0.244136
0.077651 0.377275 0.256359
0.252026 0.390284 0.252547
0.396437 0.404427 0.248501
0.571514 0.419437 0.244284
0.744408 0.434960 0.239978
0.880530 0.450695 0.235685
0.126105 0.562719 0.248616
0.276860 0.579201 0.244423
0.427387 0.595997 0.240134
0.605982 0.612714 0.235833
0.772895 0.629028 0.231592
0.902454 0.644671 0.227480
0.161282 0.749868 0.240256
0.303023 0.763857 0.235974
0.459602 0.777389 0.231717
0.638859 0.789996 0.227581
0.798096 0.801703 0.223662
0.921667 0.812287 0.220033
0.190651 0.894889 0.231902
0.329090 0.905303 0.227732
0.490535 0.915058 0.223801
0.667814 0.923937 0.220136
0.818666 0.931918 0.216829
0.937010 0.938841 0.213985
0.000000 0.000000 0.399624
0.214781 0.000000 0.396727
0.350062 0.045704 0.393267
0.513812 0.082390 0.389293
0.690305 0.106618 0.385045
0.837890 0.126616 0.380394
0.000000 0.232018 0.393383
0.233761 0.241740 0.389442
0.373676 0.252433 0.385183
0.544214 0.263921 0.380558
0.720000 0.276010 0.375781
0.861526 0.288548 0.370912
0.088727 0.381893 0.385314
0.256503 0.395408 0.380739
0.402026 0.409861 0.375929
0.577880 0.425041 0.371105
0.749917 0.440725 0.366176
0.884792 0.456567 0.361362
0.133326 0.568752 0.376080
0.281661 0.585337 0.371238
0.433383 0.602136 0.366345
0.612264 0.618756 0.361472
0.777889 0.634881 0.356791
0.906260 0.650110 0.352364
0.167100 0.754979 0.366491
0.307918 0.768886 0.361660
0.465603 0.782078 0.356933
0.644663 0.794460 0.352506
0.802246 0.805755 0.348339
0.924801 0.815955 0.344538
0.195689 0.898817 0.357117
0.333825 0.909001 0.352681
0.495959 0.918386 0.348454
0.672610 0.927075 0.344680
0.821889 0.934763 0.341319
0.939117 0.941074 0.338470
0.000000 0.000000 0.556739
0.217972 0.000000 0.553236
0.354014 0.062175 0.549105
0.519137 0.091976 0.544448
0.695693 0.114271 0.539437
0.842234 0.133281 0.534027
0.012106 0.235470 0.549251
0.237766 0.245570 0.544679
0.378640 0.256566 0.539624
0.550327 0.268273 0.534221
0.725652 0.280580 0.528617
0.866032 0.293254 0.522914
0.098625 0.386763 0.539756
0.261039 0.400578 0.534395
0.407710 0.415367 0.528833
0.584334 0.430755 0.523083
0.755316 0.446500 0.517390
0.888974 0.462312 0.511744
0.140100 0.574752 0.529002
0.286539 0.591486 0.523337
0.439406 0.608253 0.517586
0.618555 0.624747 0.511889
0.782656 0.640629 0.506475
0.910016 0.655515 0.501286
0.172777 0.760218 0.517741
0.312880 0.773843 0.512094
0.471457 0.786706 0.506643
0.650250 0.798695 0.501409
0.806300 0.809571 0.496585
0.927828 0.819255 0.492243
0.200520 0.902584 0.506827
0.338520 0.912491 0.501573
0.501260 0.921638 0.496744
0.677195 0.929986 0.492401
0.824996 0.937185 0.488515
0.941276 0.943031 0.485322
0.000000 0.000000 0.714918
0.221335 0.024895 0.711594
0.358194 0.074604 0.707696
0.524564 0.100683 0.703283
0.701221 0.121564 0.698516
0.846581 0.139745 0.693456
0.036317 0.239027 0.707773
0.241881 0.249524 0.703477
0.383767 0.260778 0.698650
0.556530 0.272733 0.693571
0.731121 0.285197 0.688359
0.870278 0.297947 0.682963
0.107500 0.391700 0.698922
0.265679 0.405893 0.693795
0.413444 0.420926 0.688500
0.590747 0.436502 0.683093
0.760591 0.452322 0.677656
0.892999 0.468122 0.672364
0.146681 0.580907 0.688710
0.291386 0.597646 0.683303
0.445406 0.614345 0.677895
0.624717 0.630682 0.672567
0.787483 0.646257 0.667356
0.913636 0.660733 0.662441
0.178252 0.765295 0.678035
0.317748 0.778655 0.672713
0.477260 0.791192 0.667525
0.655737 0.802838 0.662550
0.810220 0.813370 0.658016
0.930697 0.822477 0.653843
0.205265 0.906364 0.667702
0.343131 0.915993 0.662759
0.506369 0.924854 0.658160
0.681529 0.932621 0.654021
0.827805 0.939435 0.650416
0.943198 0.944961 0.647558
0.000000 0.000000 0.844610
0.224844 0.050786 0.841911
0.362554 0.085064 0.838606
0.530231 0.108744 0.835100
0.706679 0.128444 0.831324
0.851087 0.145914 0.827263
0.058314 0.242736 0.838741
0.246125 0.253547 0.835317
0.389006 0.265097 0.831441
0.562771 0.277239 0.827369
0.736857 0.289821 0.823177
0.874644 0.302657 0.818972
0.115702 0.396789 0.831464
0.270342 0.411341 0.827476
0.419305 0.426594 0.823346
0.597173 0.442288 0.819106
0.765915 0.458123 0.814909
0.897111 0.473795 0.810682
0.152971 0.587018 0.823487
0.296317 0.603793 0.819275
0.451416 0.620341 0.814981
0.630788 0.636437 0.810844
0.792027 0.651693 0.806730
0.917076 0.665772 0.802878
0.183645 0.770331 0.815023
0.322562 0.783328 0.810868
0.482990 0.795589 0.806866
0.661022 0.806848 0.803040
0.813919 0.816834 0.799519
0.933465 0.825635 0.796537
0.209843 0.909929 0.807026
0.347550 0.919288 0.803219
0.511313 0.927831 0.799692
0.685503 0.935336 0.796529
0.830381 0.941518 0.793926
0.944997 0.946599 0.791798
