example_ofxGpuLutCube/bin/data/ofxGpuLutCube/LUT/U9 (warm faded greenish).cube
LUT_3D_SIZE 16
0.000000 0.000000 0.133101
0.092652 0.000000 0.132181
0.160779 0.000000 0.131105
0.209024 0.000000 0.130031
0.252845 0.000000 0.128809
0.296658 0.000000 0.127513
0.342744 0.000000 0.126031
0.392556 0.013425 0.124505
0.446548 0.041975 0.122846
0.503774 0.058228 0.121110
0.562860 0.070402 0.119267
0.622185 0.080599 0.117302
0.679937 0.089511 0.115271
0.734433 0.097651 0.113074
0.784045 0.105184 0.110802
0.829420 0.112309 0.108366
0.000000 0.114740 0.131195
0.101847 0.118482 0.130095
0.166405 0.122286 0.128863
0.214157 0.126371 0.127509
0.258146 0.130440 0.126073
0.302415 0.134629 0.124545
0.349257 0.138939 0.122921
0.399964 0.143208 0.121171
0.454807 0.147638 0.119308
0.512734 0.152043 0.117386
0.572241 0.156464 0.115339
0.631670 0.160945 0.113104
0.689342 0.165445 0.110871
0.743104 0.169837 0.108438
0.792256 0.174288 0.105957
0.836982 0.178782 0.103293
0.000000 0.176728 0.128915
0.111317 0.179557 0.127558
0.172641 0.182465 0.126134
0.219904 0.185677 0.124619
0.264063 0.188879 0.122962
0.308859 0.192249 0.121245
0.356366 0.195683 0.119410
0.408056 0.199273 0.117447
0.463737 0.202922 0.115381
0.522225 0.206668 0.113200
0.582156 0.210445 0.110936
0.641607 0.214327 0.108560
0.698969 0.218250 0.106024
0.752119 0.222234 0.103363
0.800650 0.226233 0.100663
0.844788 0.230306 0.097712
0.000000 0.225621 0.126140
0.121059 0.228450 0.124654
0.179410 0.231405 0.123015
0.226162 0.234505 0.121272
0.270490 0.237724 0.119487
0.315851 0.241078 0.117567
0.364212 0.244491 0.115474
0.416774 0.248048 0.113280
0.473279 0.251719 0.111010
0.532357 0.255441 0.108613
0.592491 0.259247 0.106114
0.651922 0.263133 0.103510
0.708727 0.267098 0.100681
0.761321 0.271117 0.097830
0.809027 0.275193 0.094768
0.852624 0.279291 0.091499
0.000000 0.272279 0.123054
0.130855 0.275390 0.121333
0.186609 0.278582 0.119509
0.232927 0.281902 0.117587
0.277489 0.285413 0.115510
0.323377 0.289004 0.113378
0.372599 0.292691 0.111121
0.426113 0.296549 0.108720
0.483321 0.300455 0.106214
0.542997 0.304448 0.103599
0.603262 0.308538 0.100867
0.662504 0.312690 0.097907
0.718757 0.316997 0.094860
0.770541 0.321287 0.091594
0.817571 0.325656 0.088227
0.860483 0.330068 0.084716
0.025782 0.320544 0.119608
0.140612 0.324019 0.117638
0.194186 0.327695 0.115578
0.240122 0.331441 0.113470
0.284928 0.335382 0.111167
0.331454 0.339397 0.108793
0.381554 0.343570 0.106260
0.435925 0.347835 0.103695
0.493874 0.352194 0.100947
0.553933 0.356656 0.098004
0.614305 0.361181 0.094968
0.673233 0.365828 0.091754
0.728800 0.370539 0.088328
0.779780 0.375342 0.084726
0.825990 0.380168 0.080907
0.868469 0.385006 0.076801
0.064186 0.372719 0.115668
0.150360 0.376868 0.113545
0.202042 0.381047 0.111310
0.247658 0.385424 0.108918
0.292755 0.389913 0.106375
0.339965 0.394456 0.103774
0.390979 0.399145 0.101022
0.446183 0.404002 0.098122
0.504778 0.408855 0.095071
0.565146 0.413864 0.091827
0.625508 0.418943 0.088458
0.683992 0.424010 0.084897
0.738839 0.429163 0.081061
0.788829 0.434428 0.076867
0.834387 0.439672 0.072499
0.876167 0.444892 0.067706
0.086496 0.430153 0.111400
0.160028 0.434841 0.108962
0.210177 0.439564 0.106478
0.255537 0.444457 0.103848
0.300983 0.449433 0.101104
0.348927 0.454594 0.098261
0.400824 0.459781 0.095151
0.456856 0.464988 0.091981
0.515983 0.470396 0.088592
0.576567 0.475757 0.084951
0.636785 0.481218 0.081140
0.694740 0.486622 0.077101
0.748737 0.492158 0.072636
0.797769 0.497681 0.067868
0.842496 0.503188 0.062585
0.883838 0.508607 0.056641
0.103806 0.492046 0.106582
0.169558 0.497231 0.103925
0.218416 0.502382 0.101174
0.263716 0.507693 0.098321
0.309542 0.513037 0.095322
0.358188 0.518540 0.092055
0.411003 0.524011 0.088665
0.467789 0.529583 0.085147
0.527379 0.535149 0.081257
0.588079 0.540745 0.077167
0.648009 0.546425 0.072878
0.705345 0.551990 0.068099
0.758444 0.557603 0.062797
0.806496 0.563198 0.056708
0.850500 0.568739 0.049897
0.891303 0.574159 0.041653
0.118560 0.556744 0.101347
0.179032 0.562208 0.098424
0.226851 0.567656 0.095372
0.272097 0.573147 0.092144
0.318372 0.578617 0.088835
0.367857 0.584237 0.085185
0.421488 0.589814 0.081419
0.478946 0.595401 0.077335
0.538850 0.601021 0.073019
0.599544 0.606598 0.068212
0.659144 0.612185 0.062944
0.715642 0.617708 0.056982
0.767822 0.623108 0.050288
0.814974 0.628471 0.041936
0.858338 0.633856 0.030134
0.898516 0.639020 0.015659
0.131813 0.622073 0.095482
0.188328 0.627433 0.092277
0.235340 0.632952 0.088950
0.280675 0.638382 0.085322
0.327401 0.643811 0.081571
0.377661 0.649293 0.077494
0.432122 0.654660 0.073181
0.490159 0.660143 0.068353
0.550365 0.665583 0.063191
0.610939 0.670810 0.057199
0.670077 0.676114 0.050483
0.725845 0.681251 0.042256
0.776861 0.686329 0.030653
0.823130 0.691305 0.015639
0.865741 0.696223 0.002676
0.905542 0.700980 0.001248
0.143941 0.685449 0.089031
0.197499 0.690571 0.085466
0.243921 0.695828 0.081646
0.289321 0.701045 0.077596
0.336650 0.706160 0.073321
0.387669 0.711217 0.068490
0.442862 0.716261 0.063362
0.501390 0.721267 0.057496
0.561686 0.726255 0.050768
0.622113 0.731059 0.042456
0.680561 0.735768 0.031230
0.735501 0.740491 0.015455
0.785474 0.744987 0.002869
0.830870 0.749364 0.000194
0.872908 0.753706 0.000000
0.912066 0.757767 0.000000
0.155260 0.744598 0.081781
0.206607 0.749437 0.077879
0.252505 0.754223 0.073348
0.298137 0.758800 0.068691
0.345986 0.763401 0.063528
0.397749 0.768013 0.057671
0.453638 0.772513 0.050890
0.512591 0.776863 0.042781
0.572968 0.781181 0.031657
0.632993 0.785497 0.015300
0.690857 0.789566 0.003151
0.744710 0.793586 0.000785
0.793614 0.797487 0.000000
0.838230 0.801367 0.000000
0.879632 0.804994 0.000000
0.918288 0.808592 0.000000
0.165926 0.798031 0.073580
0.215491 0.802280 0.068944
0.261021 0.806569 0.063740
0.306915 0.810838 0.057792
0.355398 0.814945 0.051190
0.407844 0.819007 0.043155
0.464379 0.823033 0.032225
0.523479 0.826809 0.014082
0.583844 0.830691 0.004031
0.643455 0.834400 0.000782
0.700517 0.838062 0.000000
0.753497 0.841595 0.000000
0.801471 0.845024 0.000000
0.845238 0.848303 0.000000
0.885934 0.851522 0.000000
0.924190 0.854645 0.000000
0.175984 0.846472 0.063883
0.224219 0.850370 0.058047
0.269519 0.854228 0.051543
0.315663 0.857991 0.043446
0.364737 0.861816 0.032581
0.417896 0.865426 0.014712
0.474799 0.868938 0.004475
0.534140 0.872491 0.002296
0.594375 0.875943 0.000504
0.653426 0.879307 0.000000
0.709800 0.882473 0.000000
0.761631 0.885635 0.000000
0.808668 0.888716 0.000000
0.851627 0.891591 0.000000
0.891735 0.894245 0.000000
0.929550 0.896920 0.000000
0.185530 0.890893 0.051827
0.232719 0.894506 0.043816
0.277881 0.898005 0.033334
0.324301 0.901504 0.014423
0.373958 0.904945 0.004426
0.427729 0.908274 0.003197
0.484964 0.911622 0.001440
0.544468 0.914828 0.000164
0.604317 0.917900 0.000000
0.662811 0.920901 0.000000
0.718312 0.923731 0.000000
0.769160 0.926490 0.000000
0.815183 0.929183 0.000000
0.857566 0.931761 0.000000
0.897089 0.934247 0.000000
0.934339 0.936562 0.000000
0.000000 0.000000 0.184327
0.094339 0.000000 0.183645
0.161832 0.000000 0.182824
0.209930 0.000000 0.181992
0.253807 0.000000 0.181076
0.297722 0.000000 0.180085
0.343875 0.000000 0.178994
0.393923 0.024154 0.177917
0.448003 0.048664 0.176749
0.505373 0.062981 0.175483
0.564628 0.074168 0.174196
0.623936 0.083900 0.172889
0.681642 0.092556 0.171476
0.735973 0.100462 0.169989
0.785737 0.107867 0.168480
0.830726 0.114727 0.166974
0.000000 0.116031 0.182903
0.103511 0.119797 0.182015
0.167565 0.123764 0.181108
0.215178 0.127860 0.180101
0.259200 0.131969 0.179042
0.303604 0.136153 0.177961
0.350499 0.140525 0.176782
0.401385 0.144866 0.175511
0.456384 0.149235 0.174228
0.514374 0.153646 0.172915
0.574057 0.158115 0.171493
0.633508 0.162559 0.170077
0.691002 0.167009 0.168546
0.744762 0.171485 0.167013
0.793801 0.175969 0.165447
0.838512 0.180446 0.163795
0.000000 0.177737 0.181114
0.113129 0.180571 0.180134
0.173850 0.183647 0.179067
0.221029 0.186830 0.178002
0.265229 0.190107 0.176820
0.310114 0.193511 0.175599
0.357807 0.197018 0.174266
0.409627 0.200593 0.172982
0.465441 0.204279 0.171556
0.524094 0.208057 0.170097
0.584050 0.211851 0.168599
0.643560 0.215790 0.167045
0.700649 0.219712 0.165525
0.753816 0.223690 0.163898
0.802093 0.227685 0.162187
0.846246 0.231793 0.160505
0.000000 0.226624 0.179111
0.122865 0.229519 0.178010
0.180722 0.232510 0.176880
0.227418 0.235667 0.175627
0.271770 0.238951 0.174321
0.317209 0.242311 0.173016
0.365738 0.245784 0.171610
0.418480 0.249394 0.170182
0.475090 0.253055 0.168663
0.534313 0.256831 0.167124
0.594510 0.260676 0.165556
0.653833 0.264559 0.163942
0.710593 0.268559 0.162249
0.762932 0.272579 0.160539
0.810616 0.276691 0.158814
0.854194 0.280853 0.157018
0.000000 0.273373 0.176912
0.132687 0.276503 0.175667
0.187993 0.279769 0.174391
0.234251 0.283202 0.173037
0.278845 0.286723 0.171649
0.324873 0.290349 0.170197
0.374245 0.294099 0.168751
0.427920 0.297935 0.167179
0.485272 0.301932 0.165609
0.544921 0.305944 0.163969
0.605302 0.310021 0.162306
0.664507 0.314262 0.160603
0.720580 0.318558 0.158853
0.772256 0.322861 0.157114
0.819098 0.327277 0.155295
0.862005 0.331688 0.153490
0.033447 0.321825 0.174433
0.142454 0.325355 0.173095
0.195618 0.329046 0.171698
0.241505 0.332878 0.170240
0.286348 0.336854 0.168794
0.333020 0.340923 0.167250
0.383301 0.345105 0.165653
0.437793 0.349413 0.164036
0.495859 0.353829 0.162367
0.555946 0.358340 0.160650
0.616358 0.362875 0.158941
0.675223 0.367574 0.157163
0.730744 0.372336 0.155350
0.781370 0.377121 0.153529
0.827475 0.381952 0.151717
0.869910 0.386776 0.149792
0.069017 0.374260 0.171709
0.152144 0.378372 0.170289
0.203551 0.382646 0.168841
0.249113 0.387006 0.167291
0.294291 0.391552 0.165690
0.341624 0.396173 0.164062
0.392803 0.400910 0.162423
0.448142 0.405755 0.160748
0.506813 0.410683 0.159008
0.567238 0.415724 0.157214
0.627593 0.420767 0.155401
0.685986 0.425929 0.153594
0.740635 0.431108 0.151750
0.790493 0.436326 0.149847
0.835858 0.441580 0.147913
0.877710 0.446823 0.146057
0.089982 0.431816 0.168867
0.161813 0.436532 0.167317
0.211677 0.441344 0.165755
0.257045 0.446274 0.164125
0.302604 0.451326 0.162479
0.350602 0.456451 0.160779
0.402729 0.461681 0.159069
0.458840 0.466940 0.157276
0.518103 0.472346 0.155475
0.578702 0.477771 0.153662
0.638838 0.483209 0.151800
0.696763 0.488676 0.149930
0.750540 0.494150 0.148011
0.799429 0.499705 0.146076
0.844073 0.505191 0.144150
0.885347 0.510642 0.142186
0.106693 0.493915 0.165807
0.171345 0.499102 0.164191
0.220006 0.504352 0.162529
0.265252 0.509645 0.160856
0.311164 0.515078 0.159137
0.359982 0.520543 0.157351
0.412971 0.526018 0.155534
0.469817 0.531576 0.153715
0.529552 0.537220 0.151849
0.590244 0.542853 0.149965
0.650077 0.548466 0.148083
0.707310 0.554057 0.146149
0.760161 0.559624 0.144200
0.808168 0.565269 0.142222
0.852064 0.570733 0.140283
0.892752 0.576124 0.138351
0.121186 0.558747 0.162579
0.180758 0.564180 0.160905
0.228418 0.569607 0.159183
0.273680 0.575125 0.157420
0.320026 0.580642 0.155628
0.369642 0.586263 0.153791
0.423451 0.591883 0.151902
0.480984 0.597462 0.150031
0.541020 0.603076 0.148123
0.601670 0.608613 0.146213
0.661178 0.614229 0.144259
0.717632 0.619687 0.142301
0.769469 0.625092 0.140371
0.816490 0.630546 0.138386
0.859648 0.635780 0.136376
0.899838 0.640949 0.134407
0.134124 0.624045 0.159248
0.190104 0.629470 0.157477
0.236935 0.634925 0.155661
0.282256 0.640345 0.153860
0.329120 0.645777 0.151960
0.379509 0.651306 0.150094
0.434146 0.656717 0.148221
0.492242 0.662149 0.146274
0.552504 0.667475 0.144322
0.613037 0.672737 0.142375
0.672032 0.678019 0.140402
0.727620 0.683059 0.138429
0.778495 0.688154 0.136452
0.824583 0.693079 0.134454
0.867114 0.697950 0.132486
0.906829 0.702651 0.130507
0.146113 0.687310 0.155742
0.199240 0.692510 0.153924
0.245530 0.697825 0.152028
0.290968 0.702900 0.150150
0.338389 0.708088 0.148261
0.389543 0.713153 0.146333
0.444882 0.718255 0.144387
0.503505 0.723157 0.142433
0.563845 0.727989 0.140480
0.624197 0.732784 0.138487
0.682571 0.737428 0.136509
0.737343 0.742080 0.134543
0.787015 0.746523 0.132553
0.832261 0.750882 0.130573
0.874187 0.755120 0.128614
0.913272 0.759190 0.126644
0.157274 0.746334 0.152110
0.208263 0.751167 0.150236
0.254103 0.755912 0.148317
0.299747 0.760431 0.146390
0.347723 0.765070 0.144481
0.399633 0.769691 0.142493
0.455662 0.774145 0.140539
0.514599 0.778561 0.138542
0.575013 0.782780 0.136581
0.634935 0.786998 0.134566
0.692739 0.791149 0.132595
0.746469 0.795064 0.130628
0.795152 0.798958 0.128665
0.839607 0.802784 0.126693
0.880831 0.806344 0.124763
0.919485 0.809851 0.122847
0.167807 0.799548 0.148394
0.217119 0.803872 0.146447
0.262664 0.808190 0.144507
0.308557 0.812246 0.142547
0.357118 0.816325 0.140620
0.409761 0.820404 0.138602
0.466261 0.824443 0.136664
0.525518 0.828239 0.134693
0.585826 0.832114 0.132664
0.645331 0.835790 0.130712
0.702304 0.839337 0.128721
0.755021 0.842899 0.126733
0.802792 0.846234 0.124827
0.846482 0.849568 0.122889
0.887055 0.852640 0.121009
0.925198 0.855700 0.119187
0.177796 0.847829 0.144597
0.225816 0.851737 0.142668
0.271103 0.855526 0.140673
0.317300 0.859342 0.138693
0.366472 0.863068 0.136708
0.419723 0.866781 0.134732
0.476773 0.870272 0.132720
0.536135 0.873707 0.130748
0.596236 0.877203 0.128808
0.655284 0.880406 0.126830
0.711438 0.883598 0.124881
0.763019 0.886673 0.122951
0.809941 0.889685 0.121085
0.852908 0.892677 0.119237
0.892816 0.895193 0.117440
0.930495 0.897860 0.115617
0.187213 0.892251 0.140744
0.234284 0.895888 0.138771
0.279410 0.899246 0.136840
0.325896 0.902727 0.134819
0.375657 0.906223 0.132826
0.429534 0.909448 0.130860
0.486846 0.912756 0.128860
0.546321 0.915865 0.126915
0.606137 0.918979 0.124977
0.664527 0.921903 0.123051
0.719857 0.924746 0.121134
0.770419 0.927556 0.119308
0.816329 0.930227 0.117472
0.858601 0.932695 0.115734
0.898006 0.935063 0.114007
0.935218 0.937341 0.112380
0.000000 0.000000 0.227085
0.095983 0.000000 0.226421
0.162800 0.000000 0.225712
0.210878 0.000000 0.224898
0.254742 0.000000 0.224038
0.298747 0.000000 0.223172
0.345088 0.002781 0.222218
0.395253 0.035534 0.221152
0.449521 0.054357 0.220101
0.507015 0.067378 0.218952
0.566287 0.077996 0.217833
0.625657 0.087259 0.216607
0.683351 0.095533 0.215375
0.737499 0.103174 0.214114
0.787113 0.110459 0.212797
0.832272 0.117205 0.211438
0.000000 0.117475 0.225728
0.105339 0.121253 0.224949
0.168652 0.125275 0.224070
0.216191 0.129308 0.223194
0.260278 0.133531 0.222208
0.304754 0.137766 0.221191
0.351815 0.142109 0.220142
0.402906 0.146454 0.219019
0.458028 0.150857 0.217868
0.516215 0.155278 0.216630
0.575869 0.159726 0.215418
0.635310 0.164215 0.214165
0.692783 0.168635 0.212834
0.746462 0.173118 0.211488
0.795389 0.177646 0.210103
0.839973 0.182052 0.208716
0.000000 0.178746 0.224080
0.114914 0.181701 0.223212
0.175111 0.184821 0.222244
0.222166 0.187994 0.221231
0.266398 0.191343 0.220149
0.311389 0.194785 0.219058
0.359214 0.198339 0.217915
0.411233 0.201958 0.216728
0.467205 0.205628 0.215452
0.525961 0.209432 0.214166
0.585947 0.213275 0.212881
0.645428 0.217184 0.211525
0.702536 0.221147 0.210169
0.755508 0.225170 0.208752
0.803774 0.229191 0.207350
0.847727 0.233280 0.205866
0.000000 0.227699 0.222274
0.124679 0.230591 0.221272
0.182037 0.233664 0.220208
0.228652 0.236856 0.219108
0.273049 0.240167 0.217952
0.318594 0.243571 0.216741
0.367245 0.247100 0.215487
0.420180 0.250724 0.214226
0.476952 0.254439 0.212931
0.536264 0.258215 0.211565
0.596496 0.262082 0.210216
0.655852 0.266034 0.208804
0.712493 0.270042 0.207363
0.764725 0.274103 0.205934
0.812165 0.278224 0.204443
0.855619 0.282378 0.202964
0.000000 0.274477 0.220269
0.134494 0.277690 0.219133
0.189382 0.281008 0.217992
0.235565 0.284472 0.216765
0.280206 0.288033 0.215537
0.326354 0.291714 0.214273
0.375881 0.295485 0.212973
0.429702 0.299393 0.211621
0.487227 0.303361 0.210259
0.546933 0.307435 0.208838
0.607356 0.311585 0.207428
0.666465 0.315808 0.205971
0.722471 0.320125 0.204499
0.773877 0.324492 0.203034
0.820608 0.328890 0.201528
0.863452 0.333356 0.200040
0.043064 0.323077 0.218045
0.144247 0.326711 0.216808
0.197095 0.330417 0.215600
0.242898 0.334346 0.214326
0.287811 0.338318 0.213014
0.334561 0.342459 0.211667
0.385037 0.346685 0.210317
0.439705 0.351015 0.208881
0.497898 0.355491 0.207476
0.558019 0.359999 0.206020
0.618435 0.364605 0.204557
0.677254 0.369300 0.203053
0.732555 0.374072 0.201574
0.783097 0.378876 0.200064
0.829031 0.383672 0.198546
0.871392 0.388605 0.197002
0.073563 0.375767 0.215610
0.153964 0.379912 0.214367
0.205047 0.384238 0.213072
0.250576 0.388680 0.211730
0.295799 0.393214 0.210366
0.343252 0.397901 0.208943
0.394607 0.402714 0.207528
0.450109 0.407516 0.206091
0.508932 0.412499 0.204591
0.569401 0.417566 0.203103
0.629685 0.422641 0.201616
0.688027 0.427804 0.200113
0.742621 0.433037 0.198560
0.792180 0.438261 0.197052
0.837323 0.443556 0.195513
0.879030 0.448757 0.194010
0.093348 0.433580 0.213084
0.163590 0.438310 0.211756
0.213213 0.443171 0.210385
0.258554 0.448100 0.208972
0.304150 0.453199 0.207571
0.352336 0.458378 0.206128
0.404596 0.463593 0.204642
0.460864 0.468921 0.203189
0.520174 0.474304 0.201690
0.580839 0.479773 0.200154
0.640945 0.485186 0.198639
0.698689 0.490691 0.197084
0.752373 0.496148 0.195588
0.801065 0.501715 0.194021
0.845473 0.507154 0.192491
0.886690 0.512632 0.190967
0.109542 0.495830 0.210414
0.173101 0.501010 0.209019
0.221543 0.506289 0.207588
0.266802 0.511618 0.206160
0.312834 0.517130 0.204699
0.361725 0.522543 0.203231
0.414862 0.528083 0.201706
0.471923 0.533687 0.200208
0.531609 0.539299 0.198680
0.592348 0.544926 0.197157
0.652145 0.550483 0.195625
0.709262 0.556055 0.194057
0.761904 0.561676 0.192550
0.809652 0.567229 0.191003
0.853470 0.572718 0.189479
0.894029 0.578096 0.187964
0.123652 0.560658 0.207651
0.182496 0.566154 0.206206
0.229999 0.571653 0.204766
0.275252 0.577170 0.203292
0.321727 0.582728 0.201767
0.371419 0.588326 0.200238
0.425433 0.593911 0.198711
0.483079 0.599513 0.197219
0.543201 0.605160 0.195673
0.603851 0.610687 0.194115
0.663211 0.616192 0.192606
0.719449 0.621710 0.191041
0.771162 0.627092 0.189503
0.817992 0.632451 0.187988
0.861056 0.637672 0.186514
0.901180 0.642801 0.185034
0.136393 0.625997 0.204799
0.191803 0.631451 0.203312
0.238528 0.636883 0.201813
0.283878 0.642352 0.200293
0.330823 0.647835 0.198781
0.381368 0.653318 0.197247
0.436114 0.658705 0.195733
0.494356 0.664069 0.194189
0.554628 0.669408 0.192642
0.615117 0.674687 0.191099
0.674012 0.679846 0.189573
0.729477 0.685023 0.188019
0.780089 0.689955 0.186548
0.826047 0.694901 0.185064
0.868538 0.699767 0.183574
0.908019 0.704366 0.182152
0.148236 0.689226 0.201868
0.200935 0.694479 0.200365
0.247118 0.699659 0.198835
0.292596 0.704786 0.197310
0.340095 0.709840 0.195781
0.391418 0.714884 0.194225
0.446891 0.719988 0.192701
0.505564 0.724876 0.191165
0.565938 0.729803 0.189623
0.626207 0.734493 0.188122
0.684500 0.739160 0.186604
0.738971 0.743688 0.185115
0.788636 0.748221 0.183641
0.833708 0.752452 0.182187
0.875377 0.756764 0.180707
0.914568 0.760650 0.179334
0.159293 0.748083 0.198874
0.209935 0.752908 0.197375
0.255688 0.757534 0.195826
0.301385 0.762200 0.194285
0.349492 0.766781 0.192746
0.401514 0.771294 0.191180
0.457625 0.775722 0.189645
0.516685 0.780075 0.188131
0.577031 0.784400 0.186658
0.636910 0.788533 0.185135
0.694547 0.792598 0.183672
0.748102 0.796581 0.182187
0.796604 0.800416 0.180786
0.840913 0.804143 0.179393
0.882008 0.807643 0.178019
0.920545 0.811105 0.176704
0.169696 0.801256 0.195880
0.218764 0.805389 0.194325
0.264234 0.809614 0.192770
0.310171 0.813833 0.191251
0.358866 0.817907 0.189710
0.411601 0.821866 0.188202
0.468276 0.825876 0.186681
0.527502 0.829735 0.185183
0.587795 0.833520 0.183705
0.647256 0.837147 0.182260
0.703999 0.840735 0.180841
0.756625 0.844131 0.179431
0.804114 0.847550 0.178061
0.847694 0.850648 0.176723
0.888215 0.853738 0.175426
0.926222 0.856735 0.174169
0.179589 0.849335 0.192874
0.227400 0.853162 0.191325
0.272712 0.857050 0.189749
0.318912 0.860738 0.188260
0.368200 0.864369 0.186783
0.421589 0.868089 0.185252
0.478693 0.871511 0.183772
0.538078 0.875063 0.182308
0.598164 0.878314 0.180866
0.657061 0.881601 0.179485
0.712997 0.884771 0.178107
0.764528 0.887899 0.176741
0.811207 0.890769 0.175476
0.853949 0.893498 0.174189
0.893853 0.896280 0.172980
0.931373 0.898848 0.171818
0.188984 0.893517 0.189811
0.235819 0.897091 0.188354
0.280945 0.900600 0.186819
0.327534 0.904021 0.185305
0.377383 0.907390 0.183855
0.431313 0.910758 0.182354
0.488690 0.913938 0.180928
0.548119 0.917111 0.179553
0.607925 0.919975 0.178180
0.666155 0.923090 0.176837
0.721278 0.925764 0.175501
0.771831 0.928490 0.174264
0.817617 0.931006 0.173004
0.859655 0.933492 0.171847
0.898842 0.935946 0.170765
0.936149 0.938149 0.169690
0.000000 0.000000 0.267826
0.097671 0.000000 0.267181
0.163863 0.000000 0.266431
0.211809 0.000000 0.265613
0.255733 0.000000 0.264735
0.299845 0.000000 0.263824
0.346247 0.016881 0.262879
0.396644 0.043696 0.261831
0.451096 0.059474 0.260779
0.508701 0.071454 0.259683
0.568068 0.081508 0.258543
0.627432 0.090295 0.257329
0.685089 0.098366 0.256140
0.739174 0.105842 0.254860
0.788620 0.112887 0.253594
0.833605 0.119604 0.252307
0.000000 0.118814 0.266466
0.107074 0.122704 0.265626
0.169857 0.126744 0.264762
0.217272 0.130844 0.263862
0.261370 0.135071 0.262897
0.305942 0.139329 0.261895
0.353131 0.143670 0.260804
0.404421 0.148059 0.259728
0.459690 0.152455 0.258580
0.517939 0.156934 0.257378
0.577682 0.161367 0.256173
0.637182 0.165817 0.254916
0.694579 0.170310 0.253644
0.748192 0.174756 0.252312
0.796938 0.179249 0.250981
0.841406 0.183664 0.249627
0.000000 0.179815 0.264778
0.116764 0.182809 0.263891
0.176384 0.185952 0.262939
0.223319 0.189177 0.261946
0.267567 0.192612 0.260848
0.312665 0.196043 0.259764
0.360702 0.199636 0.258614
0.412868 0.203316 0.257426
0.468955 0.207008 0.256209
0.527868 0.210846 0.254955
0.587911 0.214702 0.253667
0.647352 0.218637 0.252361
0.704358 0.222630 0.251039
0.757269 0.226648 0.249680
0.805347 0.230663 0.248311
0.849137 0.234783 0.246913
0.000000 0.228750 0.262972
0.126505 0.231720 0.261966
0.183405 0.234800 0.260905
0.229901 0.238069 0.259787
0.274356 0.241397 0.258638
0.320000 0.244855 0.257473
0.368831 0.248426 0.256244
0.421907 0.252071 0.254995
0.478832 0.255807 0.253715
0.538266 0.259627 0.252421
0.598494 0.263537 0.251081
0.657792 0.267502 0.249702
0.714380 0.271529 0.248343
0.766444 0.275616 0.246962
0.813786 0.279712 0.245535
0.857188 0.283906 0.244136
0.002780 0.275654 0.260925
0.136340 0.278886 0.259827
0.190805 0.282244 0.258686
0.236920 0.285753 0.257497
0.281578 0.289380 0.256307
0.327838 0.293084 0.255030
0.377524 0.296892 0.253764
0.431531 0.300822 0.252447
0.489164 0.304862 0.251125
0.549074 0.308932 0.249780
0.609446 0.313114 0.248393
0.668470 0.317393 0.247007
0.724423 0.321729 0.245583
0.775593 0.326110 0.244192
0.822126 0.330533 0.242778
0.865014 0.334998 0.241343
0.050638 0.324409 0.258728
0.146085 0.328055 0.257547
0.198558 0.331868 0.256341
0.244326 0.335800 0.255064
0.289259 0.339811 0.253808
0.336169 0.343996 0.252499
0.386793 0.348251 0.251183
0.441612 0.352595 0.249825
0.499929 0.357112 0.248435
0.560132 0.361696 0.247047
0.620528 0.366330 0.245640
0.679279 0.371033 0.244244
0.734488 0.375817 0.242815
0.784865 0.380625 0.241392
0.830599 0.385540 0.239941
0.872760 0.390429 0.238507
0.077651 0.377275 0.256359
0.155782 0.381452 0.255110
0.206552 0.385851 0.253855
0.252026 0.390284 0.252547
0.297345 0.394902 0.251222
0.344930 0.399626 0.249872
0.396437 0.404427 0.248501
0.452124 0.409395 0.247089
0.510999 0.414367 0.245682
0.571514 0.419437 0.244284
0.631772 0.424546 0.242862
0.689983 0.429699 0.241426
0.744408 0.434960 0.239978
0.793816 0.440174 0.238543
0.838975 0.445452 0.237107
0.880530 0.450695 0.235685
0.096615 0.435312 0.253861
0.165376 0.440079 0.252579
0.214718 0.444966 0.251252
0.260062 0.449965 0.249924
0.305760 0.455067 0.248541
0.354096 0.460276 0.247155
0.406474 0.465547 0.245739
0.462931 0.470892 0.244342
