example_ofxGpuLutCube/bin/data/ofxGpuLutCube/LUT/V1 (green drama fade).cube
LUT_3D_SIZE 6
0.050980 0.109804 0.090196
0.109804 0.110588 0.091765
0.513725 0.021961 0.075294
0.893334 0.000000 0.038431
0.993726 0.003138 0.132549
0.992196 0.218981 0.289882
0.044706 0.141176 0.095687
0.137255 0.195765 0.072000
0.676706 0.239216 0.007686
0.933961 0.207529 0.013020
0.994824 0.220079 0.167373
0.999961 0.329922 0.336055
0.002353 0.335686 0.055686
0.047059 0.360941 0.032941
0.618980 0.558118 0.005490
0.946039 0.566588 0.062588
1.000000 0.503373 0.312471
0.995294 0.532478 0.445953
0.000000 0.556862 0.002353
0.029177 0.553412 0.004235
0.465882 0.658039 0.016314
0.821961 0.803138 0.164706
0.997804 0.770667 0.429020
1.000000 0.731835 0.571568
0.254117 0.763922 0.159216
0.302275 0.759373 0.169882
0.437490 0.775843 0.217726
0.674824 0.866510 0.343215
0.940549 0.923451 0.489882
0.999992 0.883255 0.658620
0.505294 0.940823 0.458118
0.518651 0.947122 0.479968
0.554149 0.950996 0.498792
0.693804 0.965945 0.566306
0.882204 0.971655 0.645772
0.999727 0.968665 0.736627
0.050196 0.105882 0.132549
0.122196 0.108392 0.132079
0.386824 0.049255 0.164863
0.804236 0.006274 0.217883
0.999216 0.199843 0.319216
0.998408 0.384000 0.433513
0.021490 0.157176 0.119373
0.120032 0.170698 0.146949
0.517051 0.196235 0.184533
0.862776 0.237553 0.252580
0.999843 0.343027 0.352219
0.994409 0.453996 0.460539
0.000627 0.359843 0.133490
0.044047 0.360596 0.143341
0.593819 0.532769 0.170635
0.917427 0.572235 0.353882
0.998494 0.571702 0.465475
0.999959 0.600130 0.550952
0.010039 0.566117 0.150117
0.142306 0.568878 0.156173
0.452549 0.634855 0.207749
0.809945 0.793255 0.352973
0.998902 0.788298 0.539420
0.997785 0.772534 0.652205
0.306353 0.758275 0.240000
0.341961 0.758902 0.250635
0.441318 0.769631 0.275702
0.677145 0.860172 0.407718
0.940392 0.920910 0.554604
0.999994 0.899946 0.709972
0.507733 0.943160 0.496525
0.521892 0.945385 0.504180
0.571454 0.947120 0.519598
0.693761 0.958695 0.584139
0.883928 0.970692 0.669393
0.999114 0.971655 0.759499
0.000000 0.109804 0.329412
0.220392 0.077961 0.345255
0.461177 0.010667 0.339922
0.704471 0.001569 0.358902
0.933647 0.253961 0.442510
0.997647 0.491286 0.566831
0.001883 0.240941 0.326745
0.075482 0.180424 0.345757
0.466259 0.159059 0.353788
0.724863 0.215247 0.388612
0.930290 0.398965 0.485647
0.998748 0.554256 0.596028
0.000628 0.390588 0.295843
0.060079 0.410729 0.321632
0.497694 0.459545 0.406212
0.787639 0.542933 0.506228
0.961286 0.618102 0.594259
0.997191 0.686613 0.671225
0.195137 0.589961 0.330196
0.337506 0.592439 0.359623
0.463028 0.598149 0.389239
0.778102 0.767216 0.543812
0.982933 0.809788 0.703121
0.998569 0.823492 0.763126
0.397490 0.763137 0.386196
0.430620 0.761161 0.394165
0.495341 0.766619 0.413616
0.668078 0.837113 0.510526
0.925333 0.923169 0.681506
0.999969 0.911244 0.801484
0.528212 0.944769 0.554000
0.547539 0.947722 0.564262
0.589556 0.946516 0.577090
0.682689 0.951882 0.618231
0.883171 0.963070 0.731078
0.987427 0.970125 0.817763
0.003922 0.104314 0.570981
0.216470 0.054588 0.570353
0.614274 0.001569 0.602510
0.788706 0.000628 0.568471
0.886745 0.186981 0.549333
0.992965 0.434807 0.622557
0.002510 0.243608 0.562510
0.016439 0.191090 0.572267
0.573898 0.114510 0.596016
0.778572 0.164078 0.571482
0.873035 0.327968 0.561412
0.999953 0.503357 0.644653
0.002823 0.495529 0.526745
0.003075 0.488471 0.539671
0.466134 0.431027 0.583373
0.733365 0.462306 0.588988
0.859357 0.534525 0.613208
0.998474 0.662157 0.701793
0.124863 0.603608 0.480157
0.287027 0.611169 0.497443
0.503655 0.628392 0.543843
0.713506 0.696439 0.647937
0.910243 0.780455 0.754635
0.999944 0.827200 0.802463
0.359686 0.768313 0.477333
0.416627 0.772110 0.492737
0.545129 0.779608 0.556580
0.637616 0.794227 0.597114
0.910714 0.911874 0.786792
0.991002 0.924872 0.880093
0.555600 0.946322 0.641019
0.580254 0.945544 0.656125
0.625666 0.947598 0.668432
0.699553 0.951686 0.694152
0.877791 0.961449 0.795203
0.981913 0.969271 0.885255
0.003138 0.128627 0.783530
0.170039 0.090824 0.788235
0.586510 0.002981 0.797961
0.863686 0.003451 0.809725
0.965490 0.179294 0.762510
0.999953 0.396392 0.718392
0.001882 0.238902 0.775686
0.003294 0.228267 0.780016
0.552784 0.192470 0.794102
0.839780 0.196047 0.808251
0.955639 0.318086 0.760220
0.999242 0.462734 0.718966
0.000000 0.540235 0.752784
0.029647 0.510369 0.756988
0.443263 0.437396 0.773490
0.780330 0.463310 0.797302
0.921380 0.516110 0.763671
0.993815 0.594937 0.758133
0.001883 0.710902 0.715764
0.003827 0.708769 0.724926
0.373365 0.694557 0.738824
0.659012 0.654714 0.779702
0.871592 0.694933 0.787419
0.967791 0.748533 0.800497
0.268236 0.794667 0.656941
0.333145 0.792219 0.658886
0.481349 0.796235 0.686965
0.641475 0.807655 0.729757
0.857067 0.871090 0.845522
0.974334 0.915109 0.913440
0.480141 0.952572 0.678847
0.509608 0.954017 0.689821
0.587373 0.954206 0.728127
0.735600 0.951541 0.789612
0.851480 0.955509 0.838386
0.965584 0.964643 0.935685
0.000000 0.289725 0.960470
0.288063 0.285687 0.968219
0.576447 0.276133 0.958243
0.801671 0.302737 0.965223
0.999223 0.337420 0.965937
0.996156 0.454353 0.901843
0.005475 0.373757 0.962878
0.260671 0.372560 0.963958
0.561799 0.372330 0.959123
0.783802 0.391666 0.963587
0.999994 0.419273 0.968643
0.996816 0.511662 0.914087
0.194635 0.581043 0.952580
0.280649 0.557940 0.949906
0.500017 0.527995 0.955275
0.736394 0.540762 0.955501
0.980295 0.566546 0.955426
0.998431 0.625506 0.911059
0.077678 0.783482 0.916534
0.243703 0.773347 0.931382
0.463757 0.743716 0.939266
0.648551 0.690311 0.939697
0.919617 0.715785 0.958380
1.000000 0.753568 0.921325
0.006212 0.922172 0.921922
0.170892 0.917786 0.926022
0.375126 0.908370 0.926127
0.572584 0.891421 0.933898
0.820064 0.848706 0.938560
0.992666 0.879922 0.937098
0.500512 0.987959 0.877688
0.528802 0.980948 0.875692
0.606691 0.982446 0.885112
0.733311 0.973975 0.907019
0.887218 0.971544 0.942438
0.956941 0.976121 0.960515
