example_ofxGpuLutCube/bin/data/ofxGpuLutCube/LUT/V1 (green drama fade).cube
LUT_3D_SIZE 16
0.050980 0.109804 0.090196
0.061177 0.108235 0.100392
0.075294 0.107451 0.101177
0.109804 0.110588 0.091765
0.196079 0.100392 0.087843
0.325490 0.090196 0.082353
0.513725 0.021961 0.075294
0.684706 0.003138 0.060392
0.807059 0.000000 0.050980
0.893334 0.000000 0.038431
0.964706 0.000000 0.050980
0.996078 0.002353 0.086275
0.993726 0.003138 0.132549
0.996862 0.006274 0.173334
0.996078 0.114510 0.235294
0.992196 0.218981 0.289882
0.058824 0.105882 0.094902
0.058667 0.112784 0.089098
0.075922 0.114039 0.095686
0.137412 0.111529 0.091294
0.225725 0.116706 0.092236
0.371765 0.117647 0.078431
0.552157 0.062902 0.059608
0.706196 0.002196 0.046118
0.819765 0.002196 0.033568
0.902902 0.003922 0.031216
0.967843 0.000000 0.050980
0.992157 0.004236 0.083294
0.998745 0.002823 0.140706
0.993726 0.058039 0.189647
0.997490 0.158118 0.237647
0.997631 0.244965 0.298471
0.057255 0.119216 0.098823
0.056471 0.123608 0.086745
0.079530 0.130510 0.089569
0.146667 0.148706 0.085177
0.277490 0.160471 0.082510
0.442353 0.158432 0.060392
0.606431 0.141334 0.045961
0.744000 0.098510 0.025725
0.843765 0.063373 0.013176
0.912627 0.050039 0.025568
0.981176 0.043137 0.051764
0.994823 0.054275 0.095059
0.997333 0.104000 0.142902
0.996706 0.156706 0.189961
0.998431 0.217569 0.253490
0.993749 0.282768 0.307913
0.044706 0.141176 0.095687
0.051451 0.147451 0.090510
0.072628 0.157490 0.081412
0.137255 0.195765 0.072000
0.293176 0.238902 0.050510
0.495686 0.252549 0.022745
0.676706 0.239216 0.007686
0.794196 0.228392 0.000000
0.871373 0.213333 0.002510
0.933961 0.207529 0.013020
0.990588 0.203137 0.061176
0.997961 0.197961 0.110745
0.994824 0.220079 0.167373
0.996706 0.242667 0.221961
0.998431 0.285333 0.276078
0.999961 0.329922 0.336055
0.014117 0.189020 0.100392
0.023059 0.186353 0.089255
0.044392 0.203294 0.086275
0.124079 0.243451 0.073098
0.280470 0.308079 0.018824
0.505098 0.365490 0.001569
0.687373 0.369255 0.003765
0.813020 0.353726 0.005176
0.897726 0.329882 0.003294
0.959216 0.319686 0.027922
0.997647 0.311373 0.094118
1.000000 0.307451 0.151216
0.999686 0.317333 0.205647
0.996549 0.331765 0.252706
0.999059 0.359686 0.308392
0.991435 0.402840 0.351145
0.000000 0.250980 0.078431
0.000000 0.259608 0.080784
0.007843 0.261961 0.077647
0.095686 0.299608 0.061961
0.253333 0.367059 0.018824
0.474510 0.443137 0.007843
0.673725 0.482353 0.003137
0.803137 0.487843 0.000000
0.890981 0.472157 0.003138
0.974118 0.441568 0.051765
1.000000 0.415686 0.156863
1.000000 0.411765 0.197647
0.996862 0.406275 0.265098
1.000000 0.421960 0.315294
0.997647 0.441568 0.352156
0.992235 0.466510 0.384157
0.002353 0.335686 0.055686
0.000941 0.333020 0.049412
0.000000 0.335843 0.058039
0.047059 0.360941 0.032941
0.221333 0.422118 0.003294
0.414118 0.493333 0.000000
0.618980 0.558118 0.005490
0.761725 0.592000 0.005961
0.870275 0.593883 0.002196
0.946039 0.566588 0.062588
0.997647 0.532549 0.198431
0.998117 0.513098 0.263686
1.000000 0.503373 0.312471
0.998745 0.508392 0.355765
0.997176 0.519373 0.399059
0.995294 0.532478 0.445953
0.001569 0.419608 0.009412
0.004078 0.415686 0.017255
0.000628 0.417255 0.026510
0.000628 0.427294 0.014588
0.185726 0.470118 0.005333
0.366274 0.529412 0.000784
0.559216 0.593412 0.003137
0.712314 0.661490 0.000157
0.836549 0.689098 0.000157
0.925490 0.674980 0.088471
0.989020 0.650981 0.214902
0.993098 0.620235 0.301961
0.999372 0.600000 0.363137
1.000000 0.592471 0.418353
0.999686 0.595451 0.456784
0.999992 0.599168 0.479985
0.001569 0.485490 0.003138
0.007216 0.492235 0.004079
0.000628 0.487530 0.002039
0.003138 0.490039 0.005177
0.143687 0.520941 0.000941
0.334902 0.567059 0.000784
0.502745 0.621647 0.003137
0.645804 0.682823 0.000157
0.767530 0.738039 0.000157
0.883451 0.755922 0.094745
0.967059 0.741961 0.268235
0.998745 0.712471 0.341490
0.999372 0.692235 0.392627
1.000000 0.674667 0.455373
0.999686 0.672628 0.500079
0.999992 0.671356 0.542478
0.000000 0.556862 0.002353
0.003294 0.553569 0.002824
0.004706 0.559058 0.005490
0.029177 0.553412 0.004235
0.145883 0.565961 0.009569
0.312941 0.603137 0.014118
0.465882 0.658039 0.016314
0.595765 0.712627 0.040157
0.705568 0.759059 0.101020
0.821961 0.803138 0.164706
0.935686 0.810196 0.274510
0.985725 0.797647 0.359215
0.997804 0.770667 0.429020
0.999059 0.752471 0.481098
1.000000 0.741647 0.530039
1.000000 0.731835 0.571568
0.003922 0.619608 0.003922
0.006274 0.625098 0.018039
0.049412 0.623529 0.014902
0.127843 0.623529 0.033725
0.192157 0.627451 0.057255
0.309804 0.643137 0.066667
0.436078 0.692549 0.085490
0.561569 0.734118 0.140392
0.661961 0.781176 0.181177
0.750588 0.821177 0.243137
0.866667 0.858824 0.290196
0.963922 0.853333 0.370196
0.995294 0.843922 0.458039
0.992157 0.825098 0.511373
1.000000 0.800784 0.554510
1.000000 0.792196 0.611334
0.134118 0.693333 0.080784
0.150274 0.693177 0.087529
0.184784 0.688627 0.089098
0.216157 0.692392 0.095372
0.261020 0.692863 0.107451
0.317647 0.694118 0.120784
0.438118 0.735372 0.157647
0.537255 0.767373 0.200314
0.618824 0.807530 0.243608
0.708235 0.843765 0.299451
0.802353 0.875294 0.346667
0.909176 0.892549 0.393098
0.981490 0.895373 0.454745
0.996549 0.874039 0.542588
0.998118 0.858039 0.593725
0.999953 0.838604 0.627255
0.254117 0.763922 0.159216
0.262274 0.757961 0.160470
0.277804 0.754980 0.161098
0.302275 0.759373 0.169882
0.336627 0.757177 0.182274
0.369412 0.760784 0.192157
0.437490 0.775843 0.217726
0.526118 0.806588 0.252549
0.600784 0.836706 0.294588
0.674824 0.866510 0.343215
0.757647 0.893333 0.381961
0.854431 0.910117 0.434196
0.940549 0.923451 0.489882
0.993882 0.920313 0.541961
0.999216 0.901961 0.613961
0.999992 0.883255 0.658620
0.341961 0.823530 0.237647
0.350745 0.820079 0.253961
0.363137 0.824628 0.255843
0.377569 0.821490 0.257098
0.399373 0.825569 0.255686
0.425882 0.823530 0.270588
0.459451 0.827921 0.288000
0.521098 0.849255 0.320941
0.588235 0.874353 0.355451
0.657883 0.897882 0.400314
0.729412 0.912156 0.429020
0.814274 0.927686 0.483765
0.893490 0.936627 0.530039
0.966902 0.951059 0.564549
0.995451 0.939608 0.613961
0.993780 0.927113 0.677255
0.418824 0.887059 0.345882
0.428079 0.888000 0.354039
0.430588 0.889569 0.353255
0.442510 0.887686 0.360157
0.457412 0.890039 0.363294
0.481568 0.890196 0.379608
0.497726 0.889255 0.376157
0.533961 0.895843 0.401412
0.594196 0.912157 0.428392
0.658510 0.925804 0.460706
0.731765 0.935686 0.501961
0.802196 0.944784 0.532392
0.867922 0.951843 0.570667
0.929412 0.956236 0.604549
0.981647 0.960000 0.643451
0.988306 0.961553 0.685192
0.505294 0.940823 0.458118
0.494502 0.947859 0.469028
0.506164 0.950227 0.476831
0.518651 0.947122 0.479968
0.516447 0.948604 0.475341
0.536863 0.937020 0.497255
0.554149 0.950996 0.498792
0.584714 0.949467 0.512988
0.628667 0.955804 0.531780
0.693804 0.965945 0.566306
0.756588 0.968392 0.591608
0.819513 0.968454 0.614368
0.882204 0.971655 0.645772
0.929388 0.974730 0.674008
0.970212 0.972471 0.700040
0.999727 0.968665 0.736627
0.060392 0.107451 0.099608
0.062431 0.110431 0.097255
0.071843 0.108235 0.087530
0.103216 0.106353 0.094431
0.170823 0.101020 0.094118
0.288628 0.092549 0.101961
0.472471 0.022275 0.087686
0.652078 0.000941 0.098353
0.785098 0.002196 0.092706
0.880784 0.000000 0.091765
0.950588 0.000000 0.112157
0.987451 0.003451 0.134745
0.997490 0.006118 0.180706
0.994980 0.082039 0.227137
0.998118 0.185725 0.273725
1.000000 0.263843 0.326760
0.054745 0.112627 0.098196
0.062275 0.109270 0.101271
0.079812 0.112784 0.097412
0.118337 0.114039 0.098918
0.197271 0.115796 0.094212
0.326431 0.106039 0.095686
0.510902 0.054369 0.092078
0.678055 0.000126 0.088314
0.802039 0.002384 0.086683
0.883733 0.000816 0.093898
0.958274 0.003294 0.112627
0.995984 0.006024 0.148831
0.998965 0.046965 0.189333
0.995827 0.138823 0.231874
0.997929 0.215749 0.283263
0.998447 0.280704 0.332740
0.055373 0.122510 0.106980
0.052330 0.121851 0.101177
0.083169 0.133239 0.101773
0.141020 0.135749 0.097506
0.249004 0.148016 0.094714
0.394039 0.145882 0.083921
0.567686 0.126996 0.079937
0.718776 0.083827 0.074008
0.820172 0.050447 0.080910
0.899702 0.053710 0.092674
0.966902 0.077333 0.123294
0.995357 0.109302 0.151341
0.996831 0.152596 0.203859
0.999090 0.204925 0.245898
0.999121 0.261239 0.293679
0.999512 0.315894 0.343698
0.043451 0.147608 0.095687
0.045051 0.148204 0.097788
0.069365 0.157459 0.096251
0.132235 0.187576 0.100016
0.277239 0.222180 0.080157
0.476863 0.229961 0.057569
0.653396 0.218855 0.059106
0.765333 0.213584 0.054055
0.848157 0.206306 0.074510
0.919153 0.210321 0.097067
0.983843 0.212236 0.130196
0.996110 0.224878 0.176063
0.998337 0.246212 0.220800
0.999090 0.282980 0.267859
0.999121 0.320596 0.317396
0.997046 0.367344 0.365024
0.015059 0.192471 0.097569
0.023529 0.195294 0.097475
0.041318 0.202918 0.096031
0.112345 0.238431 0.089004
0.275200 0.297977 0.052957
0.482824 0.351373 0.018353
0.675765 0.354667 0.015686
0.806243 0.341490 0.036486
0.885427 0.333835 0.074761
0.945223 0.326431 0.121255
0.990902 0.323922 0.164549
0.996047 0.327310 0.204235
0.999341 0.340173 0.250855
0.997333 0.362510 0.298416
0.997019 0.389772 0.346165
0.997937 0.419448 0.392602
0.000000 0.261177 0.080784
0.003765 0.263059 0.086588
0.004392 0.262118 0.083608
0.089098 0.294745 0.082353
0.242981 0.359216 0.037333
0.459608 0.439216 0.003137
0.660078 0.478431 0.001255
0.791530 0.482666 0.008314
0.886274 0.467608 0.069176
0.964863 0.436863 0.154667
0.996863 0.428235 0.201568
0.997961 0.427137 0.253333
0.994353 0.427922 0.295215
0.998745 0.442353 0.340392
0.995137 0.461176 0.383529
0.997655 0.483741 0.433388
0.003765 0.337882 0.070902
0.001412 0.341427 0.070274
0.000000 0.342525 0.072816
0.042039 0.359216 0.065412
0.208377 0.415153 0.025475
0.411608 0.486431 0.000000
0.612267 0.550494 0.001318
0.759686 0.591875 0.000502
0.866730 0.588988 0.044800
0.943875 0.564298 0.163326
0.998588 0.537255 0.245020
0.996800 0.525365 0.312627
0.999874 0.519216 0.353851
0.997239 0.524486 0.390996
0.996517 0.536282 0.423435
0.999054 0.548795 0.462819
0.000471 0.419608 0.040784
0.002133 0.419796 0.046400
0.000000 0.419608 0.042635
0.003263 0.422745 0.046902
0.171482 0.467106 0.020988
0.362196 0.525020 0.002824
0.552439 0.592345 0.000502
0.705349 0.656847 0.003200
0.827074 0.685584 0.039341
0.920784 0.674071 0.180392
0.984941 0.651137 0.265569
0.999498 0.629616 0.344910
0.999090 0.608031 0.401192
0.999090 0.603513 0.451263
0.998494 0.609035 0.475420
1.000000 0.613454 0.501509
0.000471 0.491765 0.018196
0.004518 0.492706 0.022181
0.000251 0.494024 0.023686
0.000502 0.495655 0.031969
0.139106 0.512910 0.025632
0.328314 0.563294 0.019137
0.495467 0.620204 0.018196
0.644235 0.682447 0.025286
0.768973 0.740298 0.056408
0.876235 0.754761 0.180016
0.965490 0.739608 0.298824
0.997239 0.718463 0.363859
0.997584 0.700517 0.424032
0.997082 0.686463 0.478620
0.998368 0.680063 0.521349
0.998124 0.681884 0.558544
0.001412 0.558275 0.025569
0.002039 0.558180 0.027984
0.004455 0.558619 0.032847
0.046620 0.558996 0.040502
0.154886 0.564612 0.051577
0.307294 0.599216 0.058666
0.459514 0.651263 0.076549
0.594980 0.704314 0.113066
0.700267 0.760157 0.159247
0.816000 0.801914 0.209631
0.927059 0.814118 0.303529
0.980988 0.796957 0.387137
0.997835 0.775278 0.447435
0.998588 0.759466 0.502902
0.999623 0.746510 0.553349
0.998748 0.741051 0.593975
0.000000 0.624314 0.064313
0.018980 0.624941 0.060078
0.081882 0.622118 0.061333
0.142117 0.623372 0.073255
0.205647 0.624000 0.085647
0.298039 0.644706 0.101961
0.443765 0.686588 0.131294
0.565490 0.736941 0.172392
0.651451 0.782118 0.218196
0.754510 0.822118 0.272628
0.859608 0.857255 0.313726
0.958431 0.861490 0.391843
0.998745 0.841569 0.476392
0.998117 0.822745 0.534117
0.998588 0.806588 0.573490
0.998447 0.792259 0.614667
0.152000 0.690667 0.114196
0.167906 0.692016 0.112878
0.193945 0.688533 0.115168
0.229710 0.691043 0.125459
0.272188 0.690823 0.135153
0.320470 0.695529 0.147608
0.435357 0.726620 0.179702
0.538572 0.766274 0.220518
0.622526 0.805176 0.270337
0.703969 0.840220 0.314855
0.801725 0.872314 0.365647
0.907953 0.892235 0.415184
0.981741 0.895341 0.477867
0.997427 0.878024 0.559184
0.996737 0.858949 0.603639
0.996991 0.847867 0.641055
0.263843 0.760314 0.181490
0.274698 0.756549 0.182149
0.293145 0.757553 0.192439
0.310337 0.759059 0.189553
0.342212 0.760125 0.198494
0.374274 0.758431 0.202980
0.437020 0.771137 0.223278
0.526023 0.805427 0.270588
0.602447 0.833663 0.313380
0.680345 0.864565 0.358557
0.761098 0.892235 0.405019
0.853333 0.910525 0.455937
0.941239 0.920094 0.496188
0.994070 0.918463 0.554165
0.997365 0.904282 0.628612
0.999496 0.892320 0.666499
0.353569 0.821176 0.257412
0.363545 0.825820 0.258071
0.369945 0.828078 0.267859
0.383121 0.825569 0.272502
0.403200 0.826510 0.278682
0.432000 0.823059 0.290196
0.459859 0.826604 0.301208
0.517239 0.850353 0.330573
0.589647 0.873067 0.366839
0.659388 0.894557 0.405741
0.730353 0.911058 0.452078
0.813302 0.924832 0.492831
0.889537 0.940172 0.528941
0.960941 0.943059 0.574368
1.000000 0.938416 0.623091
0.999534 0.924910 0.693203
0.424157 0.886274 0.354510
0.428361 0.890416 0.358274
0.434039 0.886902 0.362322
0.443577 0.888784 0.366337
0.462086 0.889631 0.366996
0.475451 0.889725 0.378196
0.499922 0.893239 0.385726
0.534086 0.896565 0.402353
0.592063 0.912126 0.437616
0.658290 0.923984 0.470557
0.727059 0.936941 0.507922
0.800282 0.947953 0.544063
0.867577 0.955012 0.579106
0.929067 0.956643 0.613490
0.983184 0.961569 0.655404
0.996059 0.951498 0.688886
0.501404 0.940886 0.472134
0.499886 0.946463 0.476157
0.512425 0.946888 0.473300
0.516127 0.946945 0.478257
0.527216 0.947589 0.484846
0.540698 0.944808 0.493373
0.561277 0.950689 0.504902
0.579719 0.949492 0.512842
0.630599 0.953326 0.542288
0.687932 0.964723 0.566684
0.754235 0.966118 0.589263
0.816913 0.969425 0.620811
0.880616 0.970084 0.651671
0.927782 0.970116 0.679354
0.974130 0.967677 0.708185
0.999867 0.963937 0.742126
0.056471 0.109020 0.113726
0.067765 0.109804 0.111843
0.073255 0.105882 0.104471
0.102117 0.111529 0.109490
0.163765 0.103372 0.116079
0.258823 0.094902 0.129412
0.418196 0.027922 0.127843
0.603137 0.004079 0.127216
0.745568 0.004706 0.133490
0.856941 0.003138 0.159529
0.927059 0.000000 0.181176
0.985725 0.012863 0.205647
0.999843 0.096314 0.247687
0.998588 0.186667 0.284706
0.995294 0.262118 0.328784
0.998376 0.321223 0.370737
0.044078 0.116235 0.111686
0.058447 0.113223 0.107106
0.073631 0.112188 0.108204
0.108016 0.116204 0.106196
0.171483 0.114384 0.113317
0.280784 0.105882 0.123921
0.451043 0.058227 0.124706
0.627639 0.003639 0.128314
0.768815 0.000753 0.143373
0.862180 0.001506 0.155733
0.940235 0.009412 0.180235
0.987263 0.072847 0.211953
0.994761 0.152784 0.251263
0.996518 0.221302 0.295310
0.997553 0.280376 0.338573
0.998075 0.340810 0.375655
0.050353 0.124549 0.106823
0.051388 0.127843 0.106729
0.078996 0.129286 0.116078
0.122667 0.135435 0.115953
0.205773 0.136973 0.118149
0.343373 0.139294 0.126588
0.505882 0.115922 0.122039
0.673506 0.071780 0.130730
0.789710 0.040408 0.138008
0.876581 0.074667 0.168126
0.945412 0.126118 0.193412
0.993098 0.170572 0.223969
0.999718 0.216910 0.266133
0.994698 0.267357 0.304032
1.000000 0.316894 0.354290
0.993788 0.366767 0.388370
0.045961 0.149020 0.116235
0.048000 0.155075 0.108361
0.068832 0.156643 0.112063
0.127561 0.178855 0.118965
0.253585 0.205114 0.113757
0.429961 0.215216 0.117804
0.601757 0.205898 0.120910
0.731859 0.197396 0.128596
0.824470 0.202667 0.156957
0.897286 0.219106 0.175279
0.961098 0.237177 0.205960
0.995231 0.262306 0.244674
0.997710 0.290573 0.274165
0.996204 0.324957 0.329631
0.997490 0.366212 0.371859
0.991899 0.408857 0.408405
0.014588 0.200470 0.102902
0.020047 0.202918 0.109302
0.041600 0.204455 0.111466
0.106102 0.228424 0.110713
0.256188 0.288345 0.093992
0.465412 0.334745 0.082667
0.654149 0.332235 0.102996
0.785914 0.326933 0.139577
0.859325 0.329569 0.174463
0.920596 0.333302 0.201851
0.978510 0.338980 0.240628
0.998431 0.353945 0.270776
0.999059 0.371796 0.319623
0.997176 0.398776 0.357773
0.999153 0.426729 0.393223
0.997972 0.454236 0.438753
0.003138 0.272157 0.105883
0.002353 0.269647 0.098823
0.005647 0.268863 0.107137
0.075294 0.287686 0.108392
0.223530 0.350118 0.084235
0.452549 0.423529 0.043137
0.650196 0.466353 0.049255
0.779294 0.470902 0.115451
0.874667 0.460863 0.186353
0.952157 0.446588 0.242667
0.994510 0.444706 0.276079
0.999529 0.446588 0.324078
0.992941 0.462275 0.353098
0.994823 0.475451 0.387608
1.000000 0.493177 0.428392
0.993788 0.512024 0.457827
0.003765 0.344784 0.093333
0.002008 0.344815 0.094902
0.001129 0.349553 0.094274
0.028361 0.355702 0.096157
0.193067 0.405585 0.084423
0.394196 0.476863 0.048784
0.600345 0.546824 0.024188
0.755859 0.584282 0.073600
0.850981 0.585663 0.175498
0.937631 0.565208 0.262525
0.990275 0.549020 0.323451
0.996141 0.544282 0.368188
0.996862 0.541961 0.405616
0.999623 0.546855 0.433098
0.998933 0.560471 0.463404
0.999978 0.572466 0.499507
0.002667 0.422432 0.084078
0.003389 0.427827 0.084549
0.001380 0.424878 0.080847
0.006274 0.428016 0.086494
0.157647 0.458478 0.084330
0.350118 0.515922 0.075451
0.540298 0.586447 0.051545
0.698698 0.649318 0.066824
0.822682 0.682321 0.174243
0.910431 0.671121 0.265004
0.975843 0.657569 0.342588
0.997364 0.637208 0.402635
0.996988 0.623278 0.455278
0.997490 0.623530 0.483890
0.998400 0.625977 0.510400
0.991750 0.640664 0.537892
0.002667 0.492078 0.070902
0.004392 0.496722 0.078023
0.001380 0.497537 0.083231
0.016314 0.502180 0.082353
0.141083 0.509427 0.092361
0.326275 0.555451 0.099922
0.494745 0.611043 0.106886
0.640722 0.676423 0.130447
0.762698 0.734024 0.179137
0.874667 0.753819 0.271906
0.958902 0.744785 0.359530
0.994729 0.722416 0.412424
0.998996 0.708110 0.471341
0.995984 0.695812 0.520031
0.996266 0.694369 0.552816
0.999801 0.700321 0.591112
0.000000 0.560470 0.079216
0.001537 0.563169 0.089066
0.014808 0.561098 0.089537
0.084204 0.560596 0.093051
0.165396 0.565490 0.105035
0.305882 0.594823 0.113255
0.459325 0.646023 0.143624
0.590871 0.701208 0.181176
0.700173 0.753537 0.224596
0.816220 0.799906 0.278432
0.918902 0.812078 0.352314
0.980267 0.798714 0.434918
0.999906 0.778761 0.495749
0.999278 0.767090 0.540800
0.999404 0.756737 0.581710
0.997823 0.753114 0.618279
0.035294 0.625098 0.101961
0.072314 0.624941 0.111373
0.125020 0.627608 0.110745
0.169569 0.630745 0.124549
0.218353 0.629961 0.130353
0.298039 0.634510 0.141177
0.436078 0.680784 0.176470
0.560314 0.733177 0.210667
0.657569 0.772079 0.263373
0.754980 0.817726 0.308863
0.865098 0.854118 0.356079
0.953098 0.859294 0.431686
0.999372 0.842980 0.512941
0.998745 0.830432 0.557490
0.997490 0.812236 0.607372
0.999937 0.804000 0.649067
0.177569 0.690980 0.152314
0.197678 0.689192 0.151655
0.215435 0.694149 0.151372
0.249317 0.692015 0.158776
0.290008 0.691545 0.167717
0.327686 0.694902 0.173490
0.430620 0.723514 0.207027
0.536753 0.761694 0.251388
0.624973 0.803231 0.293929
0.707451 0.840439 0.347733
0.804078 0.871686 0.389177
0.906070 0.892455 0.443357
0.977537 0.892894 0.510651
0.998619 0.875827 0.587827
0.999122 0.862714 0.628580
0.994552 0.853043 0.656491
0.280628 0.758902 0.205490
0.288470 0.755733 0.207717
0.301051 0.758400 0.211231
0.317365 0.760408 0.214745
0.353067 0.760157 0.217663
0.379921 0.760000 0.233882
0.437930 0.770008 0.253741
0.523262 0.801035 0.289914
0.602573 0.832534 0.336847
0.676392 0.867075 0.376973
0.765333 0.886275 0.429020
0.855028 0.906478 0.473976
0.938259 0.922792 0.521224
0.991717 0.923545 0.574933
1.000000 0.905819 0.648628
1.000000 0.892455 0.691098
0.357804 0.822902 0.272000
0.370165 0.822870 0.288910
0.380863 0.824784 0.285270
0.396173 0.819263 0.285271
0.411796 0.826416 0.291827
0.433255 0.824000 0.296000
0.466416 0.827357 0.310086
0.519498 0.845208 0.339608
0.582745 0.868173 0.381522
0.656188 0.895184 0.424031
0.730196 0.908863 0.461020
0.814243 0.927812 0.503717
0.893082 0.934463 0.551843
0.961098 0.944251 0.590494
0.999122 0.941835 0.646871
0.999987 0.923237 0.707223
0.433098 0.886745 0.364549
0.436706 0.886745 0.374714
0.440376 0.891859 0.378478
0.450918 0.890353 0.383498
0.463090 0.889851 0.380612
0.477333 0.888157 0.388549
0.501176 0.892894 0.393004
0.534588 0.894839 0.412047
0.592941 0.913286 0.450698
0.656408 0.925521 0.477929
0.727059 0.938824 0.518431
0.801851 0.948172 0.551780
0.864000 0.953475 0.590086
0.932769 0.958117 0.631749
0.977537 0.959372 0.665914
0.996177 0.953344 0.706530
0.501522 0.949404 0.477702
0.504598 0.945508 0.480055
0.514927 0.947261 0.481015
0.521854 0.943534 0.489122
0.531297 0.946802 0.493967
0.555451 0.947922 0.500384
0.564583 0.949586 0.514472
0.588283 0.951183 0.515096
0.631671 0.955663 0.548985
0.688196 0.963658 0.568466
0.762800 0.965365 0.602596
0.819051 0.974257 0.626326
0.880094 0.968232 0.652383
0.929211 0.968903 0.698168
0.971405 0.967325 0.727232
0.996006 0.971593 0.747011
0.050196 0.105882 0.132549
0.074040 0.106039 0.136941
0.100863 0.102745 0.129568
0.122196 0.108392 0.132079
0.152471 0.107765 0.134275
0.233726 0.104313 0.151373
0.386824 0.049255 0.164863
0.559216 0.005333 0.179922
0.699137 0.005961 0.193726
0.804236 0.006274 0.217883
0.895686 0.000000 0.243921
0.960628 0.118902 0.277804
0.999216 0.199843 0.319216
0.992941 0.277647 0.356235
0.996549 0.335529 0.394667
0.998408 0.384000 0.433513
0.040314 0.118745 0.134902
0.058322 0.113600 0.129569
0.092079 0.111058 0.135059
0.119937 0.114070 0.133051
0.154917 0.114510 0.139419
0.245020 0.111529 0.147765
0.402102 0.071153 0.170259
0.567780 0.008659 0.180392
0.714980 0.001757 0.197459
0.819639 0.010918 0.218855
0.902588 0.077176 0.251137
0.963168 0.165333 0.283859
0.993506 0.235482 0.326306
0.997772 0.295467 0.357302
0.999310 0.348769 0.404079
0.997498 0.394256 0.443401
0.023372 0.137726 0.142588
0.040470 0.136878 0.133961
0.074980 0.132173 0.140047
0.121161 0.132298 0.133898
0.173271 0.136220 0.145380
0.273098 0.134275 0.153569
0.431216 0.119812 0.168094
0.602855 0.080314 0.182181
0.737631 0.070526 0.201506
0.839561 0.114196 0.233380
0.916549 0.171294 0.261804
0.971137 0.228424 0.296376
0.999843 0.285427 0.331639
0.999843 0.329349 0.370039
0.997490 0.380518 0.410886
0.998732 0.419510 0.447959
0.021490 0.157176 0.119373
0.035576 0.163608 0.126055
0.058792 0.164549 0.132016
0.120032 0.170698 0.146949
0.218071 0.184282 0.153035
0.347137 0.192627 0.162353
0.517051 0.196235 0.184533
0.667733 0.191875 0.202134
0.780925 0.204674 0.228486
0.862776 0.237553 0.252580
0.932235 0.269804 0.286902
0.978290 0.308110 0.318588
0.999843 0.343027 0.352219
0.999341 0.382934 0.388110
1.000000 0.416282 0.428455
0.994409 0.453996 0.460539
0.000784 0.205490 0.128000
0.007624 0.210573 0.129757
0.050761 0.216502 0.141208
0.101208 0.222400 0.142463
0.232094 0.270024 0.154102
0.434667 0.307137 0.176784
0.609098 0.309647 0.201004
0.739106 0.313631 0.227294
0.826070 0.327310 0.253145
0.887843 0.350243 0.283420
0.943372 0.366588 0.312784
0.991529 0.391216 0.353098
0.996674 0.412831 0.381490
0.996800 0.447843 0.420141
0.995765 0.465506 0.445302
0.999214 0.499958 0.482738
0.000000 0.281569 0.134118
0.000471 0.282824 0.138353
0.009412 0.285177 0.146039
0.071529 0.288941 0.144785
0.199686 0.331294 0.145725
0.430588 0.410980 0.143529
0.637020 0.445020 0.186666
0.760471 0.452079 0.244078
0.853333 0.457098 0.297412
0.910745 0.461647 0.324863
0.963137 0.466667 0.357647
0.997020 0.482980 0.394353
0.999216 0.492392 0.424628
0.996078 0.513098 0.446588
0.994980 0.527059 0.473568
0.999969 0.546565 0.517310
0.000627 0.359843 0.133490
0.002384 0.358494 0.136564
0.002761 0.363483 0.144470
0.044047 0.360596 0.143341
0.173741 0.395671 0.143153
0.372235 0.466196 0.147294
0.593819 0.532769 0.170635
0.740047 0.570855 0.221428
0.840690 0.574243 0.292204
0.917427 0.572235 0.353882
0.977098 0.567216 0.401255
0.998776 0.564361 0.435828
0.998494 0.571702 0.465475
0.996737 0.577600 0.494463
0.996675 0.589585 0.518745
0.999959 0.600130 0.550952
0.000157 0.432470 0.135529
0.000000 0.439624 0.129098
0.001004 0.434290 0.134431
0.037521 0.441443 0.137066
0.158274 0.449945 0.145443
0.326902 0.505255 0.157647
0.527498 0.572016 0.169130
0.695686 0.640283 0.212141
