example_ofxGpuLutCube/bin/data/ofxGpuLutCube/LUT/V10 (blue drama fade).cube
LUT_3D_SIZE 6
0.000000 0.070588 0.078431
0.050196 0.073726 0.084706
0.254902 0.059608 0.078431
0.590588 0.001569 0.072157
0.905098 0.000000 0.065883
0.999922 0.000039 0.078274
0.000000 0.107451 0.092549
0.014431 0.112941 0.105725
0.280627 0.148863 0.088157
0.628392 0.099294 0.064627
0.915451 0.002510 0.054588
0.996894 0.118651 0.101772
0.000000 0.280784 0.182745
0.105412 0.275451 0.186510
0.265569 0.299765 0.215216
0.631686 0.378353 0.142902
0.931765 0.378824 0.069333
0.999961 0.449145 0.149545
0.191373 0.548235 0.324706
0.288314 0.545726 0.353725
0.428079 0.555608 0.386196
0.599843 0.587451 0.431372
0.859137 0.662745 0.421804
1.000000 0.705066 0.338196
0.575686 0.790588 0.587451
0.610666 0.787765 0.597177
0.679843 0.777882 0.625098
0.766431 0.787922 0.655843
0.860549 0.813020 0.703686
0.990228 0.855560 0.770071
0.889686 0.929137 0.834902
0.896792 0.928330 0.845843
0.911859 0.927584 0.865459
0.946431 0.932957 0.878753
0.973106 0.939310 0.898463
0.999882 0.944901 0.894194
0.003138 0.074510 0.123922
0.028863 0.077490 0.131294
0.266196 0.041255 0.148235
0.604549 0.000000 0.153098
0.911059 0.002510 0.166902
0.998416 0.000839 0.202236
0.000000 0.131765 0.143530
0.035388 0.136972 0.147514
0.293929 0.138415 0.155984
0.627796 0.083043 0.156329
0.913882 0.000659 0.167027
0.999354 0.144209 0.211156
0.001883 0.313725 0.221177
0.112815 0.306698 0.236863
0.287279 0.324172 0.267357
0.650604 0.386761 0.202980
0.927341 0.384314 0.196769
0.993465 0.449071 0.245549
0.190275 0.572235 0.361098
0.297004 0.570886 0.385945
0.443420 0.562761 0.421710
0.609537 0.598118 0.472314
0.866698 0.673035 0.452800
0.996894 0.715821 0.389746
0.570196 0.794510 0.588863
0.604988 0.792659 0.603765
0.679592 0.785694 0.631592
0.767749 0.795827 0.669270
0.867576 0.816659 0.715608
0.990105 0.861158 0.769884
0.877992 0.931435 0.843372
0.893194 0.925435 0.842298
0.914825 0.927548 0.853255
0.942191 0.927089 0.879914
0.972351 0.939007 0.901390
0.985999 0.944886 0.898060
0.000000 0.078431 0.270589
0.000000 0.076549 0.283137
0.257726 0.028235 0.319216
0.619608 0.000000 0.345725
0.910118 0.000784 0.341804
0.999984 0.000039 0.384267
0.000000 0.157020 0.307137
0.002384 0.141647 0.322824
0.298604 0.125867 0.346541
0.639624 0.042918 0.355890
0.915514 0.014432 0.366180
0.996875 0.231153 0.406057
0.001882 0.349176 0.368784
0.001192 0.360565 0.373710
0.346196 0.373145 0.390808
0.666698 0.391373 0.394855
0.917176 0.413710 0.406682
0.998593 0.487777 0.454866
0.065883 0.621961 0.459765
0.245835 0.620424 0.476549
0.483075 0.612455 0.503028
0.640220 0.630494 0.558996
0.894620 0.683828 0.531608
0.993633 0.723508 0.524460
0.567373 0.813020 0.641882
0.597867 0.811075 0.647372
0.686494 0.799216 0.667765
0.781490 0.798274 0.707012
0.874918 0.820204 0.750149
0.996130 0.869465 0.782536
0.871616 0.936133 0.845075
0.882792 0.933917 0.854199
0.911868 0.930587 0.862778
0.945434 0.929782 0.882612
0.972673 0.940744 0.898813
0.992839 0.947232 0.909599
0.002353 0.095686 0.530196
0.003765 0.091922 0.545725
0.203922 0.026039 0.569725
0.602196 0.001412 0.597961
0.906824 0.000000 0.594510
0.999953 0.002369 0.619466
0.001726 0.169882 0.555765
0.002510 0.165270 0.565773
0.233632 0.143090 0.587200
0.621114 0.015561 0.614996
0.912690 0.002510 0.612392
0.999534 0.248789 0.631817
0.000941 0.396079 0.590902
0.001600 0.403859 0.602385
0.313192 0.393255 0.618792
0.660800 0.376722 0.636926
0.912815 0.425381 0.636643
0.997655 0.510339 0.662351
0.000941 0.644706 0.634981
0.088094 0.646369 0.643921
0.434980 0.658134 0.647937
0.684832 0.669051 0.660329
0.901459 0.686651 0.669208
0.999369 0.720845 0.691991
0.442039 0.841098 0.732392
0.504659 0.840439 0.731733
0.641568 0.832408 0.735529
0.795106 0.821490 0.760188
0.892988 0.832627 0.799498
0.999598 0.868044 0.801597
0.828502 0.947953 0.851482
0.842665 0.947026 0.859131
0.887429 0.947015 0.872797
0.936222 0.941523 0.888494
0.967054 0.950726 0.912003
0.988274 0.952753 0.917599
0.000784 0.139608 0.798431
0.000628 0.130823 0.798902
0.098824 0.095529 0.803294
0.573647 0.001255 0.827765
0.907137 0.000000 0.834353
0.999961 0.045035 0.838361
0.002196 0.218039 0.810510
0.001255 0.215592 0.803012
0.158463 0.201569 0.813929
0.587200 0.125145 0.824627
0.911435 0.017443 0.840220
0.999689 0.269967 0.835780
0.001883 0.466196 0.806588
0.013490 0.462243 0.813898
0.312000 0.431498 0.823090
0.640910 0.418384 0.834604
0.920282 0.421553 0.841412
0.998758 0.515920 0.846972
0.175059 0.690980 0.819765
0.300047 0.696471 0.824408
0.488878 0.699200 0.826447
0.684173 0.683482 0.833882
0.900643 0.679028 0.848188
0.997807 0.720077 0.852651
0.452706 0.853647 0.847059
0.505130 0.848502 0.853929
0.620988 0.846086 0.848439
0.765679 0.849694 0.852894
0.914070 0.851074 0.860486
0.994695 0.865208 0.862764
0.749106 0.966047 0.905020
0.767871 0.962800 0.902579
0.822214 0.958450 0.906241
0.900373 0.962594 0.915286
0.971605 0.959736 0.937623
0.995332 0.955192 0.944227
0.000000 0.320824 0.972196
0.072988 0.312313 0.974557
0.426416 0.298133 0.976196
0.702219 0.263396 0.981553
0.945788 0.194926 0.980949
1.000000 0.320313 0.980352
0.000000 0.398690 0.968423
0.204536 0.397478 0.978593
0.460755 0.384781 0.973073
0.716456 0.361321 0.977468
0.951578 0.325344 0.987768
0.999930 0.404713 0.987850
0.346133 0.598792 0.969827
0.381471 0.581261 0.965050
0.533128 0.569122 0.969275
0.741619 0.552806 0.970836
0.942535 0.532150 0.976676
0.999953 0.568126 0.977827
0.511404 0.785749 0.954212
0.539788 0.779470 0.961434
0.619318 0.766547 0.964088
0.749219 0.734894 0.965857
0.917586 0.721846 0.972607
0.998447 0.737827 0.975544
0.677011 0.888416 0.964416
0.693765 0.883523 0.960901
0.753750 0.882248 0.971236
0.827920 0.881474 0.967843
0.912176 0.867393 0.963884
0.996870 0.865082 0.976298
0.764586 0.952901 0.960861
0.783394 0.962863 0.965435
0.821694 0.959128 0.970093
0.871419 0.960666 0.967058
0.939600 0.958446 0.973216
0.999883 0.968703 0.972507
