example_ofxGpuLutCube/bin/data/ofxGpuLutCube/LUT/V10 (blue drama fade).cube
LUT_3D_SIZE 16
0.000000 0.070588 0.078431
0.000000 0.071373 0.076863
0.015687 0.070588 0.081569
0.050196 0.073726 0.084706
0.095686 0.072157 0.082353
0.164706 0.066667 0.082353
0.254902 0.059608 0.078431
0.357647 0.035294 0.081569
0.467451 0.000784 0.078431
0.590588 0.001569 0.072157
0.709804 0.000000 0.082353
0.816471 0.000000 0.058824
0.905098 0.000000 0.065883
0.989804 0.000000 0.062745
0.996863 0.001569 0.062745
0.999922 0.000039 0.078274
0.000000 0.075294 0.080784
0.005647 0.074824 0.090039
0.005176 0.082353 0.075451
0.047216 0.080471 0.082980
0.099451 0.084392 0.082510
0.170196 0.085490 0.083137
0.256784 0.075137 0.082667
0.356549 0.055373 0.081569
0.470118 0.008314 0.080941
0.593098 0.001883 0.074980
0.709804 0.000000 0.061961
0.816471 0.000000 0.063059
0.906039 0.000000 0.059295
0.988863 0.000000 0.060549
1.000000 0.000000 0.067765
0.996894 0.000000 0.078353
0.000000 0.094902 0.083137
0.001255 0.090510 0.092863
0.000000 0.085961 0.086275
0.029490 0.097882 0.085019
0.106196 0.105412 0.087529
0.178824 0.105883 0.079215
0.267451 0.104314 0.081882
0.369255 0.087059 0.082039
0.480314 0.055059 0.075765
0.603294 0.010196 0.069647
0.713725 0.003138 0.068235
0.816784 0.000314 0.067922
0.898510 0.003765 0.058353
0.985098 0.001255 0.058981
1.000000 0.000471 0.066510
1.000000 0.000000 0.086181
0.000000 0.107451 0.092549
0.000000 0.109333 0.101647
0.000000 0.111058 0.104470
0.014431 0.112941 0.105725
0.082981 0.125490 0.101961
0.178824 0.143530 0.085491
0.280627 0.148863 0.088157
0.387451 0.144157 0.084549
0.508549 0.129726 0.075765
0.628392 0.099294 0.064627
0.735686 0.062745 0.058824
0.829961 0.014118 0.056628
0.915451 0.002510 0.054588
0.989490 0.002510 0.060235
0.998117 0.025569 0.070902
0.996894 0.118651 0.101772
0.000000 0.144313 0.116862
0.001412 0.141804 0.114666
0.004549 0.141961 0.121882
0.037804 0.146353 0.123765
0.073098 0.153725 0.135373
0.147451 0.172549 0.126274
0.273726 0.190275 0.103686
0.404078 0.200628 0.081098
0.530824 0.199373 0.067294
0.642196 0.195608 0.063530
0.749804 0.177255 0.057255
0.840157 0.163137 0.052235
0.920471 0.154824 0.050667
0.990745 0.161098 0.056941
0.995608 0.191373 0.079530
0.999961 0.245113 0.108094
0.003922 0.192157 0.137255
0.002353 0.195294 0.137255
0.013333 0.192157 0.152157
0.063529 0.192157 0.158431
0.111373 0.207059 0.167059
0.152941 0.215686 0.176471
0.238431 0.231373 0.167843
0.377255 0.265882 0.137255
0.518431 0.284706 0.102745
0.643137 0.287843 0.063530
0.752941 0.282353 0.043137
0.836863 0.274510 0.054902
0.923137 0.272941 0.059608
0.985882 0.282353 0.056471
1.000000 0.302745 0.089411
1.000000 0.336980 0.117529
0.000000 0.280784 0.182745
0.008471 0.275608 0.177255
0.050196 0.273569 0.178353
0.105412 0.275451 0.186510
0.154824 0.280000 0.202981
0.210196 0.292549 0.206274
0.265569 0.299765 0.215216
0.350274 0.320157 0.225882
0.487059 0.354667 0.201412
0.631686 0.378353 0.142902
0.752941 0.375686 0.098039
0.849725 0.379294 0.052706
0.931765 0.378824 0.069333
0.993882 0.385725 0.079372
0.998431 0.412863 0.112157
0.999961 0.449145 0.149545
0.005490 0.359216 0.218039
0.035294 0.363294 0.218980
0.102431 0.361412 0.217255
0.153255 0.358275 0.239216
0.209726 0.360941 0.254275
0.253333 0.370980 0.255686
0.312627 0.382745 0.269804
0.381961 0.395294 0.286117
0.459137 0.417255 0.294902
0.589176 0.457726 0.263843
0.719216 0.476863 0.223529
0.829333 0.480941 0.166588
0.924078 0.481726 0.124235
0.993725 0.496785 0.103530
0.997490 0.517020 0.135059
0.999984 0.541067 0.183223
0.080785 0.450196 0.261961
0.111843 0.453647 0.266666
0.163294 0.453647 0.267451
0.211607 0.450510 0.289412
0.259922 0.447530 0.297568
0.309804 0.449412 0.309020
0.364078 0.461804 0.319372
0.421490 0.476236 0.331922
0.488627 0.485647 0.340706
0.557804 0.509176 0.371765
0.684706 0.542745 0.355294
0.795451 0.570039 0.305255
0.897098 0.578980 0.267922
0.981804 0.591530 0.229647
0.997490 0.603608 0.192157
0.999984 0.628879 0.223945
0.191373 0.548235 0.324706
0.213333 0.557020 0.336314
0.247530 0.554510 0.344314
0.288314 0.545726 0.353725
0.337098 0.545098 0.358275
0.384314 0.541961 0.378824
0.428079 0.555608 0.386196
0.480784 0.565647 0.397647
0.538510 0.576314 0.408314
0.599843 0.587451 0.431372
0.658039 0.607843 0.466666
0.757333 0.634823 0.456784
0.859137 0.662745 0.421804
0.948862 0.679686 0.396079
0.995764 0.695843 0.362667
1.000000 0.705066 0.338196
0.309804 0.647059 0.407843
0.334118 0.649412 0.414902
0.357647 0.641569 0.417255
0.392157 0.650980 0.426667
0.432157 0.641569 0.433725
0.466667 0.639216 0.447059
0.515294 0.641569 0.469020
0.558431 0.644706 0.475294
0.605490 0.657255 0.506667
0.658823 0.664314 0.508235
0.705882 0.674510 0.529412
0.753725 0.693333 0.563137
0.826666 0.718431 0.573334
0.923922 0.749804 0.551373
0.975686 0.770980 0.539608
0.999922 0.788157 0.533372
0.443922 0.721569 0.494902
0.458823 0.721255 0.494274
0.477490 0.718275 0.506510
0.502588 0.718902 0.509019
0.527215 0.714823 0.515608
0.562353 0.715294 0.538823
0.592157 0.713098 0.545725
0.630588 0.715921 0.553255
0.665725 0.720314 0.562667
0.703372 0.731922 0.593412
0.752941 0.737255 0.592157
0.788392 0.749961 0.615373
0.834353 0.758588 0.645961
0.891451 0.786196 0.671059
0.953883 0.806588 0.655843
0.999741 0.827341 0.662620
0.575686 0.790588 0.587451
0.577255 0.788863 0.587765
0.591215 0.788392 0.590275
0.610666 0.787765 0.597177
0.629960 0.787922 0.606118
0.658039 0.781961 0.616471
0.679843 0.777882 0.625098
0.707451 0.781177 0.634824
0.736941 0.785569 0.646118
0.766431 0.787922 0.655843
0.804706 0.792157 0.665882
0.829647 0.806745 0.681725
0.860549 0.813020 0.703686
0.894432 0.818666 0.727530
0.934274 0.837490 0.755294
0.990228 0.855560 0.770071
0.698039 0.843922 0.675294
0.708392 0.843451 0.681255
0.714196 0.844235 0.685647
0.728627 0.843608 0.695059
0.738510 0.845020 0.697098
0.758431 0.841569 0.701177
0.775215 0.840628 0.716706
0.793412 0.837647 0.712000
0.820392 0.844549 0.730823
0.842980 0.842510 0.741176
0.867451 0.845490 0.747451
0.886118 0.848784 0.761412
0.902588 0.856941 0.776471
0.931451 0.860079 0.795294
0.951216 0.864471 0.809882
0.968486 0.883765 0.838964
0.799216 0.885490 0.760784
0.805020 0.886745 0.772078
0.810980 0.885961 0.771765
0.824157 0.886588 0.773020
0.827922 0.880471 0.777569
0.843137 0.883922 0.788235
0.854588 0.883137 0.794353
0.867137 0.881725 0.801412
0.881569 0.879843 0.804549
0.902431 0.882039 0.806588
0.914510 0.887059 0.824314
0.925176 0.888470 0.830745
0.945882 0.891921 0.842510
0.954667 0.895687 0.839373
0.967843 0.906353 0.855372
0.982690 0.909012 0.867373
0.889686 0.929137 0.834902
0.892032 0.925239 0.842666
0.893592 0.931466 0.839600
0.896792 0.928330 0.845843
0.897686 0.929059 0.846628
0.913372 0.925215 0.850588
0.911859 0.927584 0.865459
0.930572 0.926761 0.866259
0.933804 0.929867 0.869396
0.946431 0.932957 0.878753
0.960509 0.936941 0.874196
0.960541 0.936918 0.882063
0.973106 0.939310 0.898463
0.985655 0.948628 0.904643
0.984220 0.944847 0.900102
0.999882 0.944901 0.894194
0.000000 0.069020 0.089412
0.000000 0.069176 0.090981
0.014432 0.071059 0.088314
0.041412 0.076078 0.089569
0.096784 0.074196 0.090981
0.165490 0.072157 0.086275
0.255529 0.060235 0.091451
0.355608 0.027765 0.095059
0.466039 0.000784 0.092549
0.589961 0.001412 0.086431
0.709019 0.000000 0.091765
0.811765 0.000628 0.076863
0.903686 0.000000 0.082981
0.984627 0.001255 0.080471
0.997804 0.003451 0.090510
0.996086 0.000063 0.106486
0.000000 0.080000 0.090040
0.000000 0.080220 0.086086
0.006526 0.083137 0.091169
0.043796 0.086777 0.096188
0.102745 0.086306 0.094651
0.170196 0.086745 0.091922
0.256282 0.076141 0.088753
0.359027 0.052267 0.091796
0.474855 0.007592 0.090291
0.591059 0.000377 0.086871
0.712157 0.000000 0.087216
0.812392 0.001192 0.083671
0.901961 0.002102 0.080125
0.986918 0.000596 0.082510
0.998870 0.000941 0.090981
0.999054 0.001407 0.106759
0.005647 0.090667 0.098353
0.003012 0.090541 0.100110
0.003137 0.096533 0.097004
0.039780 0.097286 0.096502
0.106981 0.105882 0.096376
0.183843 0.106667 0.095372
0.263435 0.099451 0.089726
0.370698 0.088439 0.094871
0.482008 0.054808 0.095247
0.595670 0.010008 0.087718
0.706353 0.000000 0.083608
0.815874 0.000408 0.083859
0.904784 0.001381 0.076988
0.987608 0.001381 0.085145
0.998808 0.000282 0.087749
0.998262 0.002174 0.108902
0.000000 0.117019 0.105255
0.001130 0.116518 0.113286
0.002008 0.117491 0.115953
0.015561 0.120753 0.107921
0.088784 0.131482 0.109553
0.187608 0.139922 0.101647
0.287153 0.142745 0.097129
0.388643 0.140141 0.089977
0.501459 0.127592 0.091357
0.621020 0.095718 0.086714
0.730824 0.058353 0.091137
0.827043 0.011953 0.083984
0.911561 0.002134 0.084894
0.988361 0.000628 0.092549
0.998682 0.024627 0.098918
0.999529 0.115159 0.119581
0.002823 0.147608 0.118588
0.003482 0.151937 0.129882
0.004518 0.149082 0.126808
0.038776 0.154604 0.134839
0.080439 0.160502 0.141208
0.154353 0.177882 0.133490
0.280847 0.194165 0.120533
0.401914 0.203357 0.102526
0.523012 0.200973 0.086965
0.637020 0.192941 0.087247
0.744470 0.173804 0.085647
0.835420 0.160032 0.086745
0.915231 0.151373 0.084486
0.991027 0.156643 0.089004
0.995859 0.187514 0.099702
0.999976 0.244286 0.127316
0.002353 0.201569 0.145098
0.000000 0.203137 0.149176
0.011922 0.202039 0.158117
0.065882 0.202667 0.166902
0.108078 0.208941 0.164235
0.156863 0.219608 0.176471
0.244235 0.238588 0.181177
0.378980 0.269490 0.149334
0.518902 0.283294 0.119215
0.641725 0.281569 0.079373
0.746667 0.275294 0.076863
0.840157 0.269647 0.085334
0.915137 0.272157 0.082196
0.986667 0.280314 0.090353
0.995294 0.302902 0.113412
0.999953 0.340925 0.139459
0.001412 0.278431 0.183059
0.004518 0.280408 0.179388
0.045553 0.279090 0.192596
0.110306 0.276957 0.201255
0.159623 0.277741 0.207122
0.207215 0.290039 0.213176
0.261992 0.301867 0.226729
0.345945 0.322290 0.231090
0.483106 0.359059 0.202353
0.631498 0.378541 0.157459
0.752627 0.378196 0.117177
0.845773 0.377569 0.089945
0.927215 0.376879 0.094494
0.992345 0.386541 0.110431
0.998745 0.411326 0.130384
0.996242 0.445448 0.163245
0.002824 0.360785 0.223843
0.029145 0.363294 0.223529
0.093208 0.362886 0.231969
0.151435 0.357867 0.237114
0.210227 0.359279 0.250478
0.251451 0.364392 0.259294
0.311812 0.381961 0.269804
0.374431 0.393286 0.286086
0.458761 0.416753 0.295247
0.592377 0.454620 0.267576
0.725490 0.474039 0.230902
0.831027 0.481631 0.176847
0.924424 0.483012 0.137161
0.991310 0.491922 0.132267
0.998870 0.512690 0.160973
0.999995 0.541156 0.196780
0.063059 0.451765 0.258980
0.105443 0.453647 0.271341
0.153318 0.451357 0.276768
0.208031 0.450855 0.290447
0.257788 0.443859 0.300423
0.307921 0.445333 0.313883
0.358620 0.457506 0.321882
0.422243 0.474981 0.332894
0.486494 0.490416 0.345067
0.559122 0.505318 0.371984
0.680314 0.544941 0.350745
0.794259 0.566086 0.310243
0.896439 0.576879 0.278212
0.982400 0.587294 0.237176
0.996863 0.603169 0.211796
0.999945 0.619061 0.230737
0.183686 0.554039 0.329882
0.207372 0.550965 0.336690
0.243765 0.549835 0.336157
0.282792 0.548455 0.349083
0.330980 0.542023 0.361537
0.380549 0.539137 0.375687
0.424816 0.545663 0.385757
0.484141 0.558243 0.401318
0.540863 0.570918 0.412486
0.598682 0.585380 0.436549
0.656941 0.600784 0.462432
0.757208 0.633569 0.453804
0.861082 0.664973 0.430275
0.946541 0.681663 0.404047
0.992847 0.700580 0.373898
0.998137 0.711296 0.351809
0.314510 0.636863 0.403137
0.325804 0.646118 0.405490
0.345569 0.641882 0.411451
0.386981 0.640000 0.420235
0.423216 0.637176 0.438588
0.466667 0.636863 0.451765
0.503372 0.638118 0.467451
0.556235 0.644706 0.480000
0.603922 0.654118 0.493176
0.649255 0.664000 0.510275
0.698039 0.679216 0.533333
0.752627 0.687529 0.557490
0.825725 0.720000 0.570667
0.919843 0.748863 0.553726
0.982588 0.765647 0.534118
0.996117 0.785765 0.531718
0.435608 0.715137 0.490980
0.451325 0.716988 0.494180
0.466165 0.715106 0.501145
0.486494 0.718871 0.511310
0.522416 0.714227 0.515702
0.559059 0.710588 0.527529
0.587953 0.706384 0.539514
0.623184 0.712941 0.556957
0.659451 0.717082 0.567372
0.699702 0.729192 0.583529
0.745725 0.734902 0.597647
0.784439 0.748392 0.616188
0.829710 0.760753 0.641945
0.887059 0.782337 0.661647
0.956988 0.808941 0.658196
0.996988 0.827680 0.659542
0.570980 0.783529 0.581176
0.573490 0.787545 0.584313
0.587356 0.786385 0.586792
0.601537 0.781616 0.587670
0.623059 0.782839 0.603639
0.645647 0.781961 0.612235
0.671247 0.775843 0.620549
0.699231 0.775121 0.635200
0.730855 0.783906 0.645741
0.765427 0.790306 0.654118
0.802980 0.791843 0.672314
0.832910 0.805082 0.690196
0.865506 0.806651 0.702087
0.897004 0.816941 0.729820
0.936816 0.835702 0.751718
0.989361 0.857453 0.759360
0.697098 0.840627 0.676549
0.696972 0.845772 0.679059
0.710839 0.846243 0.686306
0.717490 0.842980 0.690196
0.732612 0.843451 0.691357
0.752941 0.841569 0.701961
0.773522 0.836957 0.709396
0.797365 0.837365 0.721286
0.811921 0.834604 0.729820
0.839467 0.841255 0.742337
0.862588 0.846431 0.748863
0.883106 0.850259 0.760596
0.908675 0.852706 0.777631
0.925114 0.857976 0.787796
0.945223 0.865694 0.809192
0.973148 0.883134 0.830162
0.797176 0.882039 0.758431
0.801286 0.884580 0.767372
0.807749 0.884769 0.763262
0.813145 0.884392 0.769161
0.827451 0.881914 0.778102
0.836863 0.881568 0.782745
0.854243 0.880533 0.789302
0.862839 0.879623 0.796392
0.880910 0.879373 0.806055
0.896031 0.878808 0.809757
0.910588 0.885176 0.819608
0.927404 0.889600 0.826165
0.940078 0.893584 0.833945
0.956894 0.896973 0.849506
0.972580 0.904784 0.853333
0.982604 0.908982 0.865795
0.881106 0.928321 0.836337
0.884957 0.927536 0.840784
0.892337 0.924458 0.840491
0.893668 0.924420 0.844224
0.899042 0.930046 0.846342
0.912439 0.921334 0.848298
0.914017 0.927385 0.852073
0.924500 0.929863 0.859720
0.939522 0.923024 0.866013
0.941885 0.927363 0.879526
0.956588 0.933035 0.885820
0.958740 0.935054 0.880494
0.972831 0.941330 0.894077
0.983529 0.943231 0.899153
0.981183 0.949217 0.906110
0.993491 0.942634 0.907199
0.000000 0.074510 0.098823
0.000000 0.071059 0.100392
0.005647 0.071216 0.103686
0.035137 0.074353 0.106196
0.097255 0.071372 0.106823
0.170196 0.061961 0.109804
0.259294 0.053804 0.112471
0.355294 0.021961 0.114666
0.466353 0.000000 0.109647
0.595137 0.001883 0.111686
0.713725 0.000784 0.106666
0.815059 0.000314 0.120157
0.901647 0.000000 0.114824
0.983843 0.000000 0.116706
0.998745 0.000000 0.121098
0.998416 0.000777 0.139427
0.001569 0.082510 0.101019
0.001914 0.080282 0.105537
0.005647 0.080000 0.102023
0.039529 0.084141 0.106165
0.101961 0.083075 0.108737
0.171764 0.083922 0.113568
0.263686 0.071404 0.110902
0.362228 0.044079 0.113631
0.472032 0.004047 0.115012
0.593349 0.000753 0.112282
0.710431 0.001255 0.112941
0.812424 0.000408 0.114196
0.903749 0.000941 0.114164
0.987953 0.001820 0.121443
0.998996 0.000753 0.126776
0.997490 0.000329 0.146616
0.000000 0.099137 0.105882
0.000941 0.097506 0.109898
0.005145 0.101333 0.110117
0.042666 0.098447 0.109490
0.103028 0.102620 0.107702
0.182745 0.103843 0.111686
0.268957 0.095498 0.114447
0.371420 0.080941 0.113600
0.479718 0.042039 0.115482
0.595670 0.006243 0.114667
0.708549 0.000628 0.116235
0.810949 0.000377 0.115200
0.902337 0.000031 0.113568
0.984533 0.000031 0.119968
0.996110 0.002510 0.128314
0.999950 0.001093 0.147909
0.000000 0.122980 0.117176
0.004581 0.121098 0.121945
0.001631 0.124172 0.123545
0.026102 0.124800 0.129443
0.103028 0.133490 0.121757
0.200314 0.142745 0.117333
0.285145 0.142682 0.121224
0.388988 0.136157 0.120377
0.508831 0.121349 0.121757
0.618886 0.087561 0.114416
0.731764 0.052079 0.114353
0.826510 0.010039 0.112690
0.908988 0.000157 0.117584
0.985161 0.000659 0.119968
1.000000 0.033255 0.130698
1.000000 0.122248 0.156656
0.000000 0.161569 0.138980
0.003608 0.161349 0.138698
0.005647 0.162259 0.141396
0.042667 0.163890 0.145663
0.091953 0.165929 0.153663
0.172549 0.182588 0.143216
0.291953 0.196957 0.137380
0.411106 0.205616 0.126180
0.523545 0.197961 0.119404
0.634196 0.190808 0.115231
0.739137 0.172235 0.114039
0.830275 0.162416 0.122478
0.915169 0.150839 0.122478
0.990839 0.157490 0.126494
0.999341 0.193129 0.140737
0.999995 0.246377 0.162752
0.000000 0.216470 0.152941
0.001255 0.216157 0.163294
0.010196 0.216470 0.164079
0.075451 0.209568 0.170353
0.120941 0.214902 0.184000
0.160785 0.225882 0.195294
0.253647 0.249412 0.191686
0.392157 0.272628 0.155765
0.529569 0.282667 0.128784
0.645490 0.281098 0.114824
0.748236 0.271372 0.115294
0.834510 0.272784 0.128314
0.916862 0.270902 0.123922
0.992157 0.279059 0.133961
0.995137 0.306667 0.146353
0.999937 0.347985 0.168494
0.001255 0.294902 0.189177
0.002165 0.291074 0.197929
0.037145 0.289004 0.200847
0.116330 0.282980 0.208376
0.164110 0.288251 0.220549
0.215529 0.297882 0.229020
0.270965 0.308486 0.242887
0.363075 0.332769 0.244329
0.498227 0.365145 0.218353
0.639184 0.379357 0.178887
0.757176 0.382588 0.142431
0.845083 0.377036 0.129129
0.926965 0.378541 0.140173
0.991969 0.388455 0.150337
0.996235 0.412267 0.169914
0.999652 0.445909 0.196638
0.006431 0.381804 0.233255
0.021616 0.377067 0.233914
0.092455 0.374620 0.242071
0.156329 0.370980 0.259012
0.214055 0.370290 0.266478
0.260549 0.373804 0.279059
0.321129 0.388612 0.286118
0.382023 0.405490 0.298353
0.468361 0.424439 0.309772
0.599498 0.457036 0.281474
0.732078 0.479686 0.245647
0.836518 0.480219 0.195859
0.927122 0.481663 0.168188
0.991874 0.494965 0.169945
0.998996 0.510024 0.198933
0.990365 0.544231 0.228147
0.061647 0.460863 0.279686
0.103686 0.462400 0.281600
0.158588 0.462337 0.295906
0.210917 0.460706 0.306321
0.266761 0.453114 0.317930
0.315137 0.453491 0.326745
0.367184 0.468173 0.332047
0.423812 0.479781 0.350431
0.491075 0.492706 0.363357
0.562604 0.512125 0.387388
0.680627 0.549961 0.366745
0.796612 0.567561 0.326118
0.896753 0.582180 0.295184
0.980078 0.588957 0.257788
0.998996 0.605271 0.241475
0.999062 0.625887 0.279329
0.182118 0.559686 0.342274
0.208847 0.561286 0.345757
0.241663 0.556832 0.350306
0.283576 0.555326 0.358588
0.337537 0.548518 0.372361
0.387922 0.543843 0.382902
0.433632 0.552345 0.399749
0.487906 0.561380 0.410133
0.541616 0.578322 0.426196
0.599498 0.589459 0.445459
0.664941 0.606275 0.474510
0.759561 0.640063 0.465349
0.861051 0.664376 0.431216
0.948769 0.682447 0.411639
0.992847 0.698102 0.384031
0.996875 0.711467 0.364648
0.316078 0.646274 0.405490
0.333019 0.652235 0.426510
0.353098 0.655687 0.430588
0.390745 0.650039 0.435608
0.430275 0.647373 0.457412
0.472941 0.641569 0.464314
0.513882 0.643451 0.479059
0.562039 0.645490 0.485019
0.607843 0.658040 0.508235
0.655372 0.670431 0.520941
0.698823 0.683137 0.545882
0.752314 0.696000 0.569569
0.828549 0.724863 0.577725
0.914510 0.750588 0.556392
0.977412 0.771451 0.547294
1.000000 0.788109 0.535764
0.440157 0.719843 0.503686
0.457631 0.721537 0.502306
0.476737 0.722070 0.514165
0.490917 0.720188 0.513286
0.524831 0.717584 0.521819
0.558902 0.717176 0.536628
0.594761 0.707451 0.550368
0.629051 0.712471 0.562635
0.660173 0.721506 0.575812
0.707200 0.729380 0.590651
0.746039 0.738823 0.604549
0.795921 0.748957 0.622902
0.829271 0.761569 0.646526
0.888502 0.784533 0.662337
0.954478 0.808063 0.657318
0.999278 0.829352 0.668734
0.565803 0.787608 0.581961
0.571671 0.787200 0.590306
0.587294 0.790274 0.585569
0.601098 0.787514 0.598494
0.622839 0.783153 0.603043
0.653647 0.777569 0.618667
0.677836 0.781678 0.624941
0.696031 0.776000 0.638431
0.736439 0.783655 0.648219
0.766243 0.792063 0.661616
0.806745 0.795451 0.678902
0.836518 0.805239 0.694996
0.869835 0.813396 0.712345
0.894557 0.818165 0.732298
0.941521 0.838118 0.758996
0.992646 0.860574 0.763622
0.698196 0.842824 0.677333
0.700172 0.845302 0.689443
0.711027 0.846368 0.694117
0.727843 0.844110 0.688973
0.740298 0.842259 0.698667
0.754667 0.844706 0.704000
0.767937 0.839404 0.716173
0.795294 0.836486 0.729035
0.815121 0.839121 0.742337
0.839906 0.843514 0.741929
0.865098 0.846274 0.758588
0.884957 0.847404 0.763388
0.906604 0.852800 0.781741
0.930322 0.859074 0.791153
0.950431 0.867859 0.811576
0.975824 0.879398 0.840541
0.792627 0.886588 0.758588
0.804800 0.884455 0.768784
0.806839 0.885898 0.772518
0.817380 0.885020 0.772643
0.831655 0.883106 0.782243
0.836549 0.886275 0.784157
0.854274 0.881694 0.792283
0.864408 0.878808 0.799341
0.881726 0.881945 0.811639
0.897788 0.881882 0.812549
0.912000 0.888627 0.820235
0.927498 0.888408 0.829114
0.940204 0.893584 0.835608
0.958525 0.899482 0.844643
0.971953 0.906635 0.854400
0.980842 0.911209 0.871054
0.874886 0.928330 0.840330
0.879746 0.927358 0.844996
0.891889 0.924124 0.841652
0.897517 0.926634 0.851622
0.904662 0.931416 0.849043
0.912478 0.925263 0.859969
0.917272 0.928791 0.855784
0.921212 0.923321 0.859855
0.938812 0.928322 0.869272
0.945944 0.928306 0.873627
0.955059 0.933051 0.885836
0.956242 0.941885 0.883919
0.970463 0.943951 0.893302
0.986789 0.941529 0.903956
0.985694 0.943134 0.905219
0.988887 0.948023 0.907191
0.003138 0.074510 0.123922
0.005020 0.072314 0.125490
0.001882 0.074353 0.126275
0.028863 0.077490 0.131294
0.096000 0.072627 0.136941
0.176471 0.071372 0.141176
0.266196 0.041255 0.148235
0.364706 0.010040 0.144785
0.475765 0.003138 0.144785
0.604549 0.000000 0.153098
0.723137 0.000784 0.160000
0.820706 0.003451 0.158431
0.911059 0.002510 0.166902
0.990745 0.000000 0.173804
0.998745 0.002510 0.180706
0.998416 0.000839 0.202236
0.001569 0.086902 0.127373
0.002416 0.082416 0.126996
0.004518 0.085145 0.131513
0.033882 0.083765 0.134651
0.098322 0.083326 0.139106
0.174275 0.076392 0.144314
0.269459 0.065255 0.143780
0.367498 0.029396 0.143875
0.483326 0.000910 0.147765
0.606526 0.000000 0.150933
0.719216 0.000000 0.153725
0.816314 0.001537 0.155859
0.907263 0.000941 0.164612
0.988455 0.000314 0.166369
0.999498 0.000000 0.181365
0.999366 0.002174 0.193224
0.000000 0.100392 0.129725
0.003451 0.102023 0.126839
0.003890 0.101961 0.138227
0.039404 0.099075 0.142620
0.104283 0.101867 0.143592
0.182117 0.100079 0.142431
0.268706 0.094745 0.144690
0.376439 0.071781 0.146855
0.489757 0.028361 0.150745
0.603576 0.005741 0.152565
0.722980 0.000628 0.155764
0.814212 0.002259 0.158118
0.907231 0.000533 0.162008
0.984408 0.000031 0.170416
0.997867 0.001757 0.178008
0.999354 0.010430 0.195006
0.000000 0.131765 0.143530
0.000565 0.126118 0.144408
0.002887 0.130321 0.146635
0.035388 0.136972 0.147514
0.114824 0.140769 0.152125
0.199686 0.141490 0.155608
0.293929 0.138415 0.155984
0.398526 0.130510 0.152627
0.513349 0.117208 0.160031
0.627796 0.083043 0.156329
0.736157 0.044549 0.156392
0.831780 0.008408 0.162133
0.913882 0.000659 0.167027
0.987043 0.002667 0.175435
0.998243 0.057098 0.181396
0.999354 0.144209 0.211156
0.000000 0.172235 0.158431
0.003357 0.175153 0.161537
0.002761 0.179828 0.165741
0.047310 0.175937 0.166494
0.109271 0.180486 0.174369
0.198274 0.190745 0.172706
0.304126 0.200345 0.165867
0.417130 0.206369 0.163074
0.526557 0.199216 0.159310
0.640722 0.186416 0.161537
0.747922 0.174745 0.157961
0.837051 0.163294 0.168282
0.924706 0.155232 0.179953
0.990839 0.167404 0.180957
0.999341 0.205427 0.191561
0.999995 0.261404 0.217358
0.003138 0.225882 0.193725
0.001255 0.229961 0.181490
0.004549 0.233412 0.187294
0.072314 0.231529 0.191059
0.136000 0.229334 0.205961
0.189020 0.238432 0.220392
0.286275 0.260079 0.218039
0.417882 0.283922 0.191529
0.542745 0.283922 0.169569
0.652392 0.281098 0.170667
0.757647 0.271372 0.174902
0.842667 0.274666 0.171608
0.919372 0.274039 0.173490
0.992157 0.284706 0.186039
0.998274 0.316706 0.207216
0.999969 0.357364 0.218815
0.001883 0.313725 0.221177
0.000282 0.314416 0.218510
0.022588 0.314227 0.225820
0.112815 0.306698 0.236863
0.180173 0.303812 0.241129
0.226196 0.312314 0.244079
0.287279 0.324172 0.267357
0.384408 0.346322 0.267922
0.517553 0.375686 0.240941
0.650604 0.386761 0.202980
0.762196 0.382588 0.188235
0.851231 0.382055 0.185349
0.927341 0.384314 0.196769
0.991843 0.394729 0.207937
0.999498 0.416784 0.224753
0.993465 0.449071 0.245549
0.006431 0.397490 0.256470
0.011074 0.397270 0.259137
0.073255 0.399341 0.271812
0.156706 0.393694 0.276706
0.224345 0.384471 0.290322
0.283765 0.389490 0.301019
0.336062 0.402667 0.310212
0.399090 0.419169 0.333114
