example_ofxGpuLutCube/bin/data/ofxGpuLutCube/LUT/V11 (brown drama fade).cube
LUT_3D_SIZE 16
0.007843 0.066667 0.078431
0.000000 0.069020 0.069020
0.014902 0.068236 0.071372
0.040000 0.077647 0.074510
0.083922 0.074510 0.074510
0.133333 0.070588 0.082353
0.205490 0.070588 0.074510
0.285490 0.055687 0.078431
0.382745 0.030588 0.081569
0.487843 0.003922 0.081569
0.596078 0.003922 0.078431
0.696471 0.003922 0.087059
0.792157 0.003138 0.095687
0.886274 0.000000 0.108235
0.969412 0.001569 0.127843
1.000000 0.003922 0.148902
0.000000 0.075294 0.072941
0.000941 0.073412 0.078431
0.012392 0.081098 0.076235
0.046902 0.081726 0.080627
0.086588 0.083294 0.072628
0.150588 0.083137 0.078431
0.217255 0.084235 0.080314
0.293020 0.071686 0.078274
0.392784 0.046588 0.085804
0.493333 0.012235 0.082981
0.598431 0.000000 0.082353
0.699294 0.000941 0.090667
0.799373 0.000000 0.097255
0.885961 0.001883 0.109176
0.965490 0.000941 0.129568
0.992196 0.003883 0.158251
0.001569 0.093334 0.084706
0.001883 0.086275 0.083451
0.005647 0.086275 0.080784
0.042039 0.099451 0.080784
0.096785 0.104157 0.086746
0.156078 0.099608 0.074510
0.229647 0.105098 0.079686
0.307451 0.097098 0.082039
0.404706 0.077647 0.080157
0.504627 0.054432 0.085490
0.601569 0.015687 0.093334
0.700079 0.005490 0.094589
0.796392 0.000628 0.104941
0.881725 0.001255 0.116863
0.957176 0.010824 0.133333
0.999882 0.086353 0.166063
0.001569 0.109019 0.097255
0.010039 0.108863 0.098510
0.015059 0.110745 0.098353
0.036392 0.116392 0.100863
0.093647 0.128628 0.103059
0.174902 0.140392 0.096471
0.254745 0.141490 0.089098
0.335686 0.141647 0.090196
0.430431 0.134745 0.093334
0.536000 0.124078 0.089255
0.636078 0.106667 0.102745
0.723922 0.087059 0.112157
0.820235 0.079059 0.118118
0.898039 0.089725 0.132549
0.970353 0.130667 0.149647
0.996870 0.199514 0.184823
0.010980 0.145882 0.121569
0.022432 0.144627 0.117804
0.046118 0.148078 0.121255
0.064314 0.151216 0.128785
0.098196 0.157176 0.136314
0.160784 0.171764 0.130980
0.254431 0.186824 0.117020
0.363294 0.198275 0.102275
0.464314 0.195765 0.104157
0.556235 0.194980 0.109647
0.651765 0.192941 0.109019
0.743843 0.187608 0.122510
0.820706 0.192941 0.130667
0.901020 0.209255 0.149490
0.976470 0.236863 0.175529
1.000000 0.286722 0.204518
0.050980 0.192157 0.145098
0.073725 0.194510 0.153726
0.086275 0.198431 0.160784
0.111372 0.195294 0.167058
0.145098 0.205490 0.166274
0.180392 0.219608 0.184314
0.248627 0.235294 0.180392
0.360000 0.254117 0.156079
0.463530 0.276078 0.137255
0.575686 0.275294 0.123922
0.662745 0.274510 0.121569
0.745882 0.278431 0.134118
0.832157 0.279215 0.150589
0.898039 0.294902 0.172549
0.974902 0.321568 0.199216
0.992196 0.372157 0.227216
0.125490 0.272941 0.195294
0.127687 0.272941 0.199059
0.154510 0.272000 0.208784
0.181491 0.270118 0.212549
0.212235 0.277804 0.221020
0.242353 0.291765 0.230588
0.289098 0.298980 0.237804
0.355451 0.321569 0.241255
0.465882 0.352314 0.224314
0.581647 0.365333 0.194980
0.680784 0.370981 0.173333
0.776784 0.370666 0.163765
0.847059 0.378824 0.175686
0.914196 0.393255 0.194510
0.978980 0.418980 0.231687
0.999969 0.457804 0.277333
0.194510 0.352156 0.242353
0.200157 0.353725 0.254745
0.230745 0.346981 0.259608
0.250196 0.356392 0.257098
0.281725 0.349961 0.267137
0.309804 0.361568 0.280784
0.351843 0.373804 0.292863
0.398588 0.397647 0.304000
0.462588 0.417725 0.311530
0.565490 0.444549 0.288627
0.672157 0.464314 0.268235
0.770666 0.469490 0.244863
0.855686 0.473569 0.229019
0.925960 0.486745 0.242196
0.984000 0.512314 0.278432
1.000000 0.544102 0.316620
0.266667 0.427451 0.301961
0.281725 0.434667 0.304941
0.292236 0.437333 0.312941
0.321725 0.436706 0.322980
0.347608 0.433412 0.328000
0.366274 0.433725 0.334117
0.408941 0.451608 0.353098
0.448784 0.466039 0.359843
0.497726 0.481098 0.372392
0.557961 0.501020 0.390274
0.656471 0.530196 0.381176
0.748078 0.548549 0.353412
0.826196 0.564549 0.340706
0.914039 0.577726 0.328784
0.978353 0.598902 0.337412
1.000000 0.622596 0.373059
0.350588 0.532549 0.379608
0.372863 0.534431 0.381333
0.387608 0.531138 0.379922
0.401412 0.528000 0.393725
0.427608 0.525961 0.399059
0.458039 0.520784 0.414902
0.487529 0.533333 0.423687
0.523294 0.546353 0.430118
0.563451 0.557019 0.441412
0.601568 0.568470 0.463059
0.653334 0.591373 0.484706
0.723608 0.620706 0.475608
0.812863 0.646118 0.466667
0.889412 0.663059 0.459137
0.954039 0.680941 0.457255
0.997474 0.701882 0.460385
0.454902 0.615686 0.458824
0.471373 0.618039 0.460392
0.476079 0.611765 0.463529
0.494902 0.618039 0.472941
0.521568 0.613333 0.490981
0.549020 0.615686 0.490196
0.568628 0.615686 0.506667
0.603137 0.627451 0.509019
0.628236 0.630589 0.527843
0.662745 0.642353 0.538039
0.701961 0.654902 0.552941
0.730196 0.673725 0.574118
0.802353 0.704314 0.579608
0.877647 0.729411 0.579608
0.937255 0.753726 0.577255
0.987960 0.776314 0.592079
0.557647 0.687059 0.528627
0.568470 0.685647 0.540863
0.579451 0.688941 0.544627
0.591373 0.685804 0.552784
0.604235 0.684706 0.556706
0.619608 0.684706 0.566274
0.643765 0.682824 0.572549
0.659451 0.687686 0.581176
0.684549 0.698980 0.593725
0.719686 0.703372 0.599059
0.742745 0.717647 0.612549
0.774588 0.728784 0.631216
0.809726 0.744157 0.651921
0.866196 0.768627 0.663216
0.917490 0.790431 0.668706
0.979255 0.805396 0.689223
0.661961 0.755294 0.609412
0.659921 0.754823 0.617412
0.674039 0.752000 0.624000
0.676549 0.755137 0.633411
0.688941 0.754980 0.636706
0.707451 0.752156 0.637647
0.713882 0.750431 0.646431
0.726588 0.753255 0.653490
0.756079 0.757647 0.659765
0.762980 0.766588 0.666353
0.799215 0.771765 0.680784
0.824628 0.780863 0.698039
0.850666 0.791530 0.712784
0.878274 0.800313 0.727843
0.917647 0.824784 0.747921
0.955059 0.846878 0.767686
0.752941 0.808628 0.690981
0.759059 0.815686 0.705255
0.766902 0.819765 0.707451
0.774431 0.815372 0.716863
0.781177 0.815215 0.718902
0.792157 0.814902 0.722353
0.798588 0.813177 0.731765
0.811922 0.810353 0.736314
0.831372 0.814745 0.745098
0.847059 0.819294 0.747921
0.871372 0.828235 0.749804
0.877961 0.832314 0.769569
0.896470 0.839216 0.785569
0.916549 0.845490 0.795608
0.937098 0.853020 0.803765
0.973757 0.868902 0.833506
0.834510 0.854117 0.789804
0.847216 0.858667 0.786823
0.839529 0.862275 0.778353
0.845804 0.863529 0.788392
0.856627 0.859608 0.786667
0.858823 0.858039 0.792157
0.871059 0.860235 0.798588
0.880941 0.861176 0.805020
0.892863 0.856157 0.811921
0.902275 0.864000 0.815530
0.913725 0.869804 0.822745
0.923608 0.874039 0.830274
0.943373 0.875765 0.845490
0.949019 0.881412 0.850510
0.957647 0.891608 0.858039
0.967812 0.898761 0.857263
0.901569 0.905529 0.850627
0.908674 0.905584 0.848282
0.917176 0.904886 0.848235
0.917239 0.901718 0.854510
0.918863 0.909467 0.855302
0.925059 0.901686 0.846745
0.931365 0.905600 0.863153
0.940047 0.906376 0.870125
0.943216 0.906345 0.870251
0.950275 0.911059 0.875647
0.960431 0.909569 0.874275
0.966031 0.922016 0.884392
0.976996 0.922847 0.895326
0.980196 0.932164 0.901569
0.988824 0.937725 0.906345
0.984313 0.948666 0.913255
0.000000 0.070588 0.078431
0.000000 0.071529 0.078431
0.015373 0.071059 0.082980
0.042980 0.072941 0.086118
0.083922 0.075765 0.082981
0.140392 0.072941 0.086275
0.210196 0.072941 0.092863
0.293020 0.063216 0.090039
0.385882 0.033726 0.089412
0.488628 0.001412 0.095843
0.589020 0.002353 0.094902
0.689412 0.002510 0.104157
0.796549 0.000471 0.114039
0.882510 0.002353 0.117804
0.959529 0.000000 0.141176
0.993718 0.000000 0.167741
0.001412 0.077961 0.079059
0.000941 0.078431 0.080157
0.012894 0.081882 0.085051
0.049914 0.083639 0.081412
0.087435 0.086933 0.085710
0.145255 0.085647 0.087373
0.219890 0.085176 0.092988
0.300330 0.076235 0.089976
0.391687 0.057035 0.094996
0.490479 0.017506 0.096628
0.597647 0.000941 0.102745
0.697192 0.001757 0.108172
0.792753 0.001130 0.111812
0.880345 0.000000 0.126871
0.958212 0.001412 0.144094
0.997991 0.013059 0.174993
0.002196 0.090039 0.083921
0.005741 0.092329 0.094588
0.012141 0.094526 0.092330
0.043890 0.099043 0.089945
0.100581 0.101365 0.089757
0.160941 0.102117 0.093333
0.232502 0.103404 0.095875
0.315075 0.098322 0.097255
0.402039 0.088659 0.101020
0.504408 0.064188 0.103812
0.601725 0.021961 0.100863
0.699106 0.007341 0.110149
0.794478 0.003922 0.125082
0.878181 0.007059 0.132612
0.956925 0.016565 0.146133
0.999862 0.106621 0.186350
0.000314 0.113883 0.102745
0.009757 0.116047 0.108517
0.021804 0.116737 0.106384
0.045522 0.115733 0.106008
0.098949 0.129976 0.109208
0.176628 0.137882 0.100235
0.257600 0.140926 0.099765
0.340173 0.141365 0.101271
0.431655 0.138227 0.108047
0.531012 0.125051 0.110839
0.626196 0.113569 0.114667
0.727090 0.092800 0.124078
0.810165 0.089380 0.130227
0.888847 0.099043 0.150808
0.967969 0.139420 0.163451
0.999969 0.202389 0.196439
0.012549 0.150118 0.123921
0.026729 0.151184 0.126777
0.048439 0.150149 0.131859
0.072282 0.152784 0.136753
0.107294 0.160628 0.143216
0.170823 0.173490 0.138824
0.263530 0.188769 0.127717
0.363765 0.195890 0.121129
0.462902 0.199404 0.117490
0.552439 0.200094 0.120910
0.647373 0.196236 0.126902
0.737568 0.190870 0.134965
0.821302 0.192627 0.143467
0.900486 0.210824 0.163545
0.973176 0.235137 0.186353
0.999040 0.283429 0.219096
0.046274 0.201569 0.149804
0.073882 0.202981 0.154196
0.091294 0.202980 0.156706
0.118902 0.203608 0.164863
0.149647 0.210980 0.175529
0.182745 0.221961 0.189020
0.251608 0.242667 0.184784
0.361255 0.263059 0.167686
0.477333 0.273098 0.152627
0.568628 0.276078 0.135686
0.659608 0.278431 0.136470
0.750588 0.277961 0.144627
0.830745 0.281882 0.156706
0.907294 0.292549 0.178667
0.975843 0.327059 0.217098
0.996879 0.362165 0.243004
0.122196 0.277961 0.202196
0.131953 0.271937 0.206525
0.155043 0.273475 0.211043
0.180392 0.273349 0.216690
0.207341 0.278274 0.223467
0.240941 0.289569 0.234196
0.291733 0.303404 0.241537
0.358055 0.322134 0.244173
0.464596 0.349616 0.230871
0.577035 0.362384 0.200032
0.681569 0.371294 0.182902
0.768094 0.372831 0.176125
0.841820 0.381459 0.191655
0.913600 0.391247 0.213490
0.979702 0.418667 0.243294
0.992850 0.460733 0.279440
0.188706 0.353255 0.243608
0.199780 0.356737 0.253992
0.220643 0.355200 0.255843
0.243106 0.351435 0.263373
0.272973 0.351906 0.274698
0.308549 0.363608 0.285961
0.348643 0.375466 0.292612
0.394478 0.389898 0.305412
0.465004 0.413992 0.312816
0.566996 0.441976 0.298604
0.668392 0.462745 0.279529
0.765176 0.466918 0.250102
0.850070 0.471278 0.241694
0.920220 0.487341 0.257882
0.980360 0.511279 0.287717
0.998426 0.550464 0.328960
0.261490 0.434196 0.299451
0.274071 0.436424 0.311090
0.295686 0.435639 0.312690
0.315639 0.434384 0.328753
0.342871 0.431718 0.333929
0.377568 0.437647 0.344314
0.403859 0.449255 0.349333
0.448941 0.461679 0.360753
0.492863 0.480753 0.374683
0.556957 0.496565 0.387200
0.649568 0.524863 0.384941
0.747106 0.548110 0.360282
0.827482 0.563263 0.344722
0.906667 0.580329 0.334808
0.973710 0.595231 0.337914
0.999625 0.628338 0.377274
0.352314 0.525961 0.371451
0.362102 0.531200 0.379984
0.381239 0.528879 0.379702
0.396047 0.526870 0.389867
0.425036 0.523200 0.403702
0.450981 0.516549 0.411137
0.480816 0.529067 0.419231
0.517114 0.541992 0.429051
0.557145 0.557051 0.443357
0.598557 0.574118 0.460078
0.649569 0.589019 0.484392
0.728533 0.616690 0.480408
0.812486 0.642447 0.464188
0.890165 0.663529 0.462055
0.956235 0.683294 0.460267
0.997793 0.704941 0.463005
0.456471 0.610980 0.447059
0.465412 0.613020 0.454588
0.479059 0.616471 0.468863
0.491608 0.616471 0.465726
0.516706 0.613647 0.472000
0.541176 0.606275 0.485490
0.566588 0.614118 0.498980
0.598431 0.622588 0.510275
0.618510 0.633882 0.528471
0.658196 0.642510 0.531608
0.696471 0.654118 0.547451
0.730980 0.670431 0.572078
0.794510 0.699765 0.583059
0.869176 0.728627 0.573020
0.937098 0.747451 0.580863
0.988722 0.773922 0.589757
0.549804 0.683137 0.531451
0.562541 0.684580 0.533867
0.567027 0.686557 0.540800
0.588235 0.682416 0.547325
0.602322 0.682855 0.555137
0.621804 0.677490 0.566118
0.635231 0.681631 0.578541
0.654306 0.686306 0.579106
0.687059 0.693082 0.587765
0.712408 0.702180 0.602510
0.736157 0.715765 0.613020
0.774086 0.725239 0.627514
0.806525 0.741647 0.645584
0.859733 0.764361 0.666039
0.928220 0.792659 0.670306
0.978813 0.810546 0.688932
0.654431 0.752157 0.611294
0.656533 0.751874 0.619420
0.661114 0.750965 0.616031
0.669271 0.749584 0.622180
0.688596 0.748612 0.632878
0.694588 0.744157 0.632627
0.711623 0.747106 0.642102
0.732800 0.747702 0.652392
0.747984 0.754980 0.661176
0.769882 0.764361 0.670086
0.798902 0.773490 0.682980
0.823780 0.782965 0.695624
0.849726 0.789772 0.709867
0.870933 0.800439 0.729569
0.915231 0.821239 0.749396
0.962878 0.840632 0.768497
0.751686 0.814274 0.703529
0.755921 0.814369 0.704753
0.761757 0.814588 0.712784
0.768408 0.814212 0.713412
0.778196 0.812110 0.716706
0.789961 0.813177 0.722980
0.799969 0.811106 0.731576
0.813490 0.810196 0.731074
0.824157 0.816972 0.739859
0.842165 0.820204 0.747890
0.861647 0.826824 0.758274
0.875106 0.829271 0.767153
0.899294 0.836706 0.779137
0.912470 0.842353 0.784784
0.931043 0.851984 0.805490
0.964140 0.868893 0.828676
0.830745 0.858980 0.771765
0.839843 0.858353 0.781647
0.839122 0.859639 0.778416
0.845396 0.857631 0.782431
0.850290 0.860047 0.783718
0.859294 0.861960 0.789961
0.870086 0.860016 0.798463
0.877114 0.859796 0.802447
0.890290 0.856282 0.808596
0.898918 0.860141 0.813741
0.907294 0.866196 0.821961
0.925835 0.871498 0.829992
0.934996 0.877679 0.838651
0.953945 0.882823 0.849318
0.964361 0.891263 0.855686
0.977617 0.896143 0.870044
0.903122 0.902509 0.845788
0.908266 0.902442 0.848499
0.913276 0.905568 0.854632
0.913358 0.905537 0.854751
0.915819 0.906541 0.847647
0.918871 0.903278 0.856055
0.926576 0.904792 0.860491
0.937038 0.903260 0.864555
0.943344 0.903849 0.871419
0.947967 0.909515 0.878800
0.960400 0.909537 0.878078
0.963252 0.922957 0.885178
0.966700 0.925961 0.889418
0.984293 0.934099 0.900066
0.984521 0.937564 0.906656
0.988257 0.946290 0.918008
0.000000 0.070588 0.094118
0.000000 0.071686 0.093334
0.007059 0.073726 0.090980
0.035294 0.073726 0.095373
0.085804 0.079686 0.096784
0.150589 0.074510 0.094118
0.217569 0.073726 0.103216
0.299138 0.062118 0.111686
0.395137 0.032000 0.110431
0.494432 0.003294 0.115294
0.604706 0.000000 0.122353
0.699294 0.000000 0.134431
0.797333 0.003138 0.138823
0.882667 0.002510 0.154510
0.959373 0.000314 0.168000
0.998337 0.005443 0.194306
0.004549 0.081098 0.093176
0.000188 0.083106 0.091012
0.008784 0.081161 0.098102
0.042541 0.085051 0.094337
0.093114 0.087028 0.100361
0.152471 0.088941 0.100549
0.224439 0.084235 0.108204
0.304659 0.077333 0.111278
0.397522 0.057506 0.112910
0.500988 0.018918 0.124016
0.598745 0.000000 0.123922
0.701741 0.000000 0.131859
0.795483 0.001255 0.144031
0.880565 0.003389 0.153945
0.962070 0.000753 0.181082
0.997115 0.042240 0.201421
0.001882 0.096000 0.092863
0.005773 0.096094 0.101553
0.011263 0.099388 0.105945
0.049914 0.103028 0.104941
0.098290 0.103529 0.103372
0.167216 0.106039 0.107294
0.237145 0.104722 0.109961
0.319592 0.099922 0.116737
0.404674 0.089380 0.120251
0.509992 0.068988 0.126776
0.608157 0.032941 0.128784
0.700706 0.010447 0.135435
0.798118 0.005898 0.147921
0.882071 0.011545 0.159718
0.959623 0.035231 0.180926
0.999713 0.120511 0.206385
0.001882 0.122353 0.122353
0.003012 0.125333 0.111843
0.028329 0.123106 0.116737
0.053427 0.126745 0.122259
0.112722 0.138792 0.123953
0.188549 0.138039 0.118588
0.257600 0.142996 0.122510
0.343058 0.143843 0.126149
0.438682 0.140329 0.129161
0.534714 0.132863 0.130290
0.627608 0.122039 0.129412
0.722667 0.106071 0.146855
0.808282 0.102526 0.156329
0.887718 0.112188 0.169129
0.965396 0.154698 0.189584
0.994794 0.212947 0.225170
0.008785 0.162040 0.132549
0.026886 0.160659 0.134306
0.057004 0.164110 0.142776
0.084235 0.161098 0.145537
0.112345 0.171263 0.155514
0.182275 0.182431 0.150745
0.275859 0.194792 0.140486
0.369757 0.200219 0.138259
0.461867 0.203734 0.136753
0.554918 0.200376 0.146604
0.649098 0.199686 0.148235
0.738666 0.197992 0.158274
0.821145 0.201475 0.174557
0.892549 0.219168 0.183969
0.972047 0.246933 0.208126
0.997497 0.294886 0.233706
0.051765 0.213334 0.170196
0.071843 0.212392 0.168314
0.104471 0.211608 0.177255
0.127686 0.207843 0.182274
0.158745 0.214431 0.183843
0.190588 0.229804 0.195294
0.264471 0.249412 0.197333
0.369725 0.269020 0.176628
0.478274 0.270902 0.159686
0.573020 0.278588 0.154667
0.665098 0.279215 0.167843
0.747764 0.281569 0.174902
0.826353 0.289255 0.181333
0.893490 0.308706 0.206432
0.974902 0.332863 0.226196
0.996831 0.373851 0.259349
0.122823 0.289725 0.211608
0.133427 0.287968 0.211294
0.158431 0.283294 0.216376
0.187294 0.280282 0.226290
0.221177 0.284894 0.233914
0.250981 0.298824 0.240784
0.297851 0.309521 0.256408
0.367718 0.332737 0.260078
0.470243 0.354572 0.241130
0.583530 0.367937 0.217569
0.688471 0.370196 0.197177
0.769223 0.375466 0.205239
0.842384 0.380800 0.220486
0.913412 0.399875 0.236047
0.974871 0.427357 0.262055
0.998136 0.468712 0.306375
0.187137 0.361883 0.254118
0.209098 0.368031 0.265600
0.218102 0.364863 0.264627
0.255247 0.363483 0.274165
0.288157 0.360941 0.288000
0.316235 0.371294 0.297726
0.350996 0.387482 0.303153
0.403420 0.399623 0.320878
0.474322 0.418698 0.329161
0.572674 0.446871 0.307012
0.672000 0.468549 0.287843
0.766180 0.470369 0.266886
0.848345 0.475483 0.258196
0.917992 0.490416 0.274761
0.979012 0.516016 0.310243
0.999976 0.557526 0.347382
0.259922 0.444078 0.313725
0.276737 0.446086 0.316047
0.299670 0.444423 0.321851
0.321255 0.446557 0.329380
0.349522 0.443514 0.345725
0.382745 0.442196 0.353569
0.410855 0.452486 0.357741
0.452863 0.469522 0.371200
0.500675 0.484079 0.389019
0.561631 0.502965 0.403514
0.648784 0.535059 0.384470
0.748109 0.551561 0.369412
0.830274 0.563576 0.355576
0.914980 0.578008 0.347545
0.976377 0.599969 0.360314
0.999920 0.630373 0.394441
0.356235 0.532235 0.376157
0.368345 0.535937 0.396016
0.384251 0.531922 0.394698
0.404204 0.529412 0.396204
0.432251 0.528596 0.406714
0.461177 0.523922 0.418039
0.485804 0.538165 0.430933
0.522290 0.548894 0.440031
0.562698 0.564455 0.454463
0.604926 0.575749 0.469553
0.649726 0.592000 0.489098
0.729694 0.622086 0.485396
0.815561 0.643827 0.474604
0.889098 0.664784 0.468706
0.954321 0.685584 0.467357
0.995286 0.706695 0.472425
0.467451 0.618823 0.465098
0.466981 0.621019 0.467765
0.484078 0.623058 0.468078
0.507294 0.618039 0.485647
0.523137 0.615529 0.492079
0.554510 0.614118 0.500392
0.572706 0.617255 0.510431
0.600313 0.621490 0.515608
0.625412 0.637804 0.530666
0.661490 0.647059 0.547451
0.701961 0.662745 0.558432
0.735843 0.671843 0.583215
0.802824 0.704000 0.588235
0.873726 0.730980 0.581961
0.942431 0.748863 0.582275
0.986455 0.773192 0.598322
0.564078 0.687059 0.545411
0.569788 0.687749 0.539921
0.576596 0.687655 0.549302
0.591153 0.685020 0.553318
0.602667 0.684769 0.559592
0.620863 0.684079 0.565176
0.640910 0.683231 0.577349
0.660706 0.691451 0.587451
0.689318 0.693584 0.600000
0.714259 0.705537 0.607498
0.742118 0.718274 0.618196
0.775906 0.728125 0.630463
0.808690 0.746165 0.650635
0.863780 0.768125 0.668580
0.925835 0.792690 0.674102
0.974329 0.817697 0.683099
0.652392 0.753568 0.625726
0.658133 0.752376 0.616816
0.664313 0.754416 0.624251
0.672094 0.748768 0.624000
0.682478 0.749867 0.630965
0.699608 0.748235 0.641098
0.717270 0.752031 0.647215
0.732706 0.749992 0.660768
0.750902 0.757773 0.666290
0.770510 0.765898 0.677584
0.800784 0.769882 0.688784
0.827137 0.782055 0.704596
0.853804 0.794541 0.719372
0.875765 0.802949 0.736439
0.917176 0.822118 0.758996
0.963176 0.843177 0.767500
0.750274 0.816314 0.691608
0.762165 0.816753 0.710306
0.766463 0.817662 0.714227
0.767717 0.813521 0.719498
0.773584 0.819765 0.715796
0.785569 0.816627 0.723294
0.799592 0.812392 0.732674
0.818290 0.810980 0.733804
0.827451 0.816251 0.742337
0.843671 0.819859 0.754761
0.864785 0.825726 0.757176
0.878588 0.831875 0.771608
0.896847 0.839466 0.784627
0.915294 0.845364 0.795671
0.935874 0.853365 0.809820
0.957667 0.871995 0.826399
0.835451 0.861960 0.773333
0.835702 0.861427 0.779137
0.842039 0.862745 0.786918
0.847686 0.861490 0.786290
0.855216 0.857725 0.793694
0.858040 0.859451 0.798745
0.871153 0.857192 0.802698
0.879843 0.857192 0.805239
0.891514 0.863843 0.810008
0.901585 0.861992 0.817757
0.910274 0.867294 0.829647
0.926651 0.870808 0.836141
0.938761 0.879749 0.838651
0.951435 0.882761 0.848188
0.963357 0.893082 0.854996
0.971757 0.893374 0.870770
0.907075 0.903279 0.842698
0.913198 0.905592 0.848201
0.911442 0.905587 0.840819
0.918275 0.905650 0.855702
0.915879 0.907467 0.856725
0.919663 0.902439 0.855357
0.925162 0.909442 0.862849
0.937166 0.902477 0.865837
0.945354 0.905005 0.870248
0.946417 0.911046 0.875719
0.962792 0.914164 0.882000
0.962618 0.920940 0.884574
0.976648 0.928624 0.886265
0.983036 0.932332 0.897591
0.986228 0.937430 0.905236
0.990494 0.948535 0.922627
0.003138 0.073726 0.109804
0.000000 0.073569 0.105882
0.003294 0.077490 0.103529
0.036549 0.077490 0.110431
0.090196 0.078431 0.118118
0.150589 0.077647 0.122353
0.221961 0.073726 0.128314
0.311059 0.055216 0.136157
0.407059 0.022588 0.139922
0.510118 0.001412 0.146039
0.610981 0.000000 0.153726
0.715608 0.001255 0.165804
0.802980 0.000628 0.175216
0.890824 0.000000 0.190902
0.967529 0.000314 0.205647
0.998400 0.061349 0.238165
0.003294 0.082980 0.110745
0.002071 0.084737 0.110714
0.005020 0.084925 0.113160
0.044298 0.086808 0.111404
0.095624 0.088910 0.119812
0.155608 0.090196 0.127529
0.231341 0.087247 0.133051
0.314572 0.075953 0.138761
0.407937 0.054620 0.145412
0.513036 0.023059 0.153506
0.615059 0.000000 0.156549
0.712659 0.000000 0.168502
0.800753 0.001632 0.178039
0.883326 0.000251 0.196486
0.966965 0.009035 0.215717
0.997812 0.100235 0.231577
0.008784 0.094118 0.122353
0.001757 0.104502 0.123639
0.006996 0.104659 0.124769
0.048157 0.107796 0.127780
0.105820 0.106667 0.132110
0.168471 0.109176 0.130510
0.243796 0.107482 0.134682
0.326243 0.103937 0.140706
0.421365 0.093898 0.151749
0.517271 0.075890 0.158149
0.615059 0.044863 0.164549
0.710117 0.020612 0.175592
0.800376 0.012675 0.184314
0.888847 0.016314 0.198118
0.964141 0.070369 0.210039
0.999769 0.155084 0.234707
0.001255 0.128000 0.134275
0.002008 0.129223 0.133428
0.017537 0.130384 0.137568
0.067231 0.135529 0.139074
0.124769 0.140926 0.147169
0.189804 0.141177 0.144314
0.268267 0.147263 0.154259
0.346698 0.149867 0.153129
0.446337 0.148863 0.161662
0.540988 0.139263 0.167184
0.637019 0.133961 0.172706
0.730573 0.122259 0.182494
0.810039 0.124361 0.195733
0.896000 0.140047 0.214557
0.969914 0.180800 0.229239
0.997335 0.239916 0.251009
0.000627 0.171451 0.157020
0.006808 0.175467 0.155514
0.037804 0.182808 0.160471
0.094651 0.176784 0.165741
0.135059 0.183937 0.176470
0.202980 0.194353 0.173333
0.291545 0.198431 0.168345
0.379545 0.206996 0.169255
0.468141 0.208502 0.172266
0.562447 0.208533 0.182494
0.654118 0.207216 0.187137
0.742055 0.209286 0.194541
0.823655 0.214400 0.208690
0.900078 0.233098 0.225631
0.970792 0.264125 0.242636
0.998105 0.317406 0.278833
0.020392 0.232157 0.182745
0.058667 0.227451 0.183373
0.096941 0.232314 0.194196
0.137725 0.231059 0.189177
0.176314 0.229491 0.202667
0.209412 0.245490 0.223529
0.283921 0.263843 0.217412
0.392941 0.274667 0.197961
0.493961 0.284079 0.193568
0.584314 0.283608 0.199216
0.674510 0.285491 0.205490
0.753412 0.292863 0.210666
0.830745 0.301804 0.217726
0.895372 0.318745 0.242823
0.976157 0.346039 0.264471
0.993757 0.392580 0.297059
0.121569 0.306039 0.232314
0.138698 0.307169 0.234259
0.164831 0.308769 0.239718
0.199718 0.304753 0.248627
0.236361 0.300832 0.251106
0.267922 0.311372 0.264000
0.313788 0.321569 0.274478
0.386165 0.344659 0.275012
0.492204 0.365992 0.259576
0.601600 0.375216 0.240408
0.693490 0.378353 0.237333
0.771608 0.384628 0.240878
0.843639 0.392470 0.254243
0.911655 0.409035 0.275326
0.974494 0.436518 0.300204
0.999981 0.475633 0.340891
0.186510 0.388235 0.272314
0.213239 0.383969 0.283294
0.227012 0.387702 0.287090
0.266667 0.382808 0.293114
0.307106 0.377757 0.304941
0.335686 0.381961 0.321569
0.371702 0.396016 0.327373
0.417098 0.413302 0.334055
