example_ofxGpuLutCube/bin/data/ofxGpuLutCube/LUT/V11 (brown drama fade).cube
LUT_3D_SIZE 6
0.007843 0.066667 0.078431
0.040000 0.077647 0.074510
0.205490 0.070588 0.074510
0.487843 0.003922 0.081569
0.792157 0.003138 0.095687
1.000000 0.003922 0.148902
0.001569 0.109019 0.097255
0.036392 0.116392 0.100863
0.254745 0.141490 0.089098
0.536000 0.124078 0.089255
0.820235 0.079059 0.118118
0.996870 0.199514 0.184823
0.125490 0.272941 0.195294
0.181491 0.270118 0.212549
0.289098 0.298980 0.237804
0.581647 0.365333 0.194980
0.847059 0.378824 0.175686
0.999969 0.457804 0.277333
0.350588 0.532549 0.379608
0.401412 0.528000 0.393725
0.487529 0.533333 0.423687
0.601568 0.568470 0.463059
0.812863 0.646118 0.466667
0.997474 0.701882 0.460385
0.661961 0.755294 0.609412
0.676549 0.755137 0.633411
0.713882 0.750431 0.646431
0.762980 0.766588 0.666353
0.850666 0.791530 0.712784
0.955059 0.846878 0.767686
0.901569 0.905529 0.850627
0.917239 0.901718 0.854510
0.931365 0.905600 0.863153
0.950275 0.911059 0.875647
0.976996 0.922847 0.895326
0.984313 0.948666 0.913255
0.003138 0.073726 0.109804
0.036549 0.077490 0.110431
0.221961 0.073726 0.128314
0.510118 0.001412 0.146039
0.802980 0.000628 0.175216
0.998400 0.061349 0.238165
0.001255 0.128000 0.134275
0.067231 0.135529 0.139074
0.268267 0.147263 0.154259
0.540988 0.139263 0.167184
0.810039 0.124361 0.195733
0.997335 0.239916 0.251009
0.121569 0.306039 0.232314
0.199718 0.304753 0.248627
0.313788 0.321569 0.274478
0.601600 0.375216 0.240408
0.843639 0.392470 0.254243
0.999981 0.475633 0.340891
0.366902 0.546667 0.400000
0.417757 0.547984 0.416408
0.500235 0.544439 0.448502
0.612078 0.580894 0.485239
0.819702 0.649475 0.490792
0.998455 0.707943 0.493721
0.651765 0.761725 0.627608
0.676235 0.758432 0.636172
0.719780 0.753914 0.655122
0.774651 0.768031 0.681977
0.854055 0.797427 0.721004
0.965084 0.846276 0.770016
0.900832 0.906384 0.848909
0.915834 0.906221 0.845876
0.920814 0.907616 0.866576
0.946417 0.911046 0.875719
0.969833 0.926735 0.900596
0.984376 0.948565 0.913402
0.000000 0.084706 0.225098
0.004079 0.087843 0.236549
0.240784 0.073725 0.273883
0.529412 0.000000 0.300235
0.806588 0.003138 0.327529
0.997670 0.192298 0.384956
0.000471 0.162196 0.261804
0.026949 0.160847 0.268988
0.285898 0.157992 0.302808
0.561631 0.151027 0.319027
0.821835 0.178290 0.345537
0.995820 0.302023 0.405991
0.001882 0.348235 0.343059
0.157584 0.357365 0.355671
0.372926 0.375027 0.367247
0.616878 0.394886 0.385851
0.839122 0.430682 0.418196
0.999972 0.509994 0.473390
0.339922 0.593569 0.476079
0.412173 0.597271 0.485020
0.537475 0.588957 0.511373
0.638086 0.613898 0.546855
0.844423 0.664439 0.544408
0.997203 0.716075 0.569942
0.654745 0.784784 0.661804
0.675953 0.777882 0.661553
0.727969 0.773898 0.678023
0.788989 0.778165 0.712188
0.863874 0.803325 0.748549
0.971997 0.851333 0.783773
0.896055 0.914964 0.857655
0.905501 0.908787 0.854546
0.929363 0.911901 0.867057
0.948783 0.914787 0.877953
0.970649 0.930941 0.896687
0.992016 0.948644 0.925051
0.001569 0.114510 0.436078
0.007843 0.112314 0.455843
0.216157 0.108392 0.484079
0.542589 0.019608 0.515451
0.821019 0.018510 0.537569
0.999922 0.251224 0.578612
0.000000 0.203137 0.482824
0.000377 0.199090 0.487310
0.274039 0.195827 0.506949
0.571232 0.176251 0.538918
0.827231 0.217035 0.550400
0.999898 0.352467 0.592855
0.062118 0.404706 0.530824
0.205584 0.413114 0.533804
0.384941 0.413585 0.554792
0.626698 0.416471 0.577161
0.835357 0.462588 0.590996
0.997089 0.533752 0.630494
0.334902 0.618510 0.607686
0.394102 0.627357 0.610855
0.524737 0.636580 0.619137
0.684329 0.651859 0.631781
0.860518 0.672000 0.644455
0.998571 0.713162 0.681915
0.599843 0.809412 0.720000
0.637867 0.805427 0.723012
0.708768 0.807372 0.730227
0.800470 0.804769 0.749176
0.878212 0.816565 0.786227
0.992546 0.853118 0.798569
0.881091 0.924392 0.863953
0.886569 0.924959 0.863230
0.912183 0.926926 0.871269
0.950158 0.929236 0.889387
0.978119 0.929763 0.907639
0.990510 0.954933 0.935348
0.000000 0.189804 0.705098
0.000000 0.193725 0.712157
0.226981 0.195294 0.723764
0.550274 0.173647 0.738980
0.835294 0.180235 0.760157
0.996839 0.339090 0.774831
0.002667 0.280000 0.715294
0.002541 0.278117 0.726525
0.295749 0.280188 0.731388
0.578479 0.278902 0.745192
0.836611 0.298227 0.761726
0.999906 0.411175 0.783690
0.225412 0.492078 0.740235
0.299043 0.493522 0.739075
0.428141 0.479404 0.749741
0.636737 0.481882 0.767718
0.858541 0.502808 0.783153
0.999790 0.568908 0.799131
0.457412 0.684392 0.775372
0.499232 0.685553 0.772361
0.579357 0.693396 0.772737
0.698227 0.686902 0.782965
0.867482 0.684643 0.801663
0.996690 0.724587 0.818739
0.631686 0.828392 0.816941
0.642510 0.825600 0.815655
0.710870 0.826008 0.822275
0.796078 0.829898 0.830808
0.900267 0.839906 0.840941
0.999912 0.847999 0.849054
0.851051 0.938612 0.904808
0.852300 0.940483 0.903153
0.877426 0.940662 0.897275
0.925851 0.942009 0.912519
0.974080 0.947511 0.926127
0.995254 0.957458 0.949654
0.264039 0.418863 0.917451
0.343475 0.426667 0.918965
0.516659 0.429075 0.929122
0.717114 0.442337 0.932157
0.910400 0.454871 0.930722
1.000000 0.532469 0.933137
0.348933 0.495004 0.920447
0.408143 0.492714 0.918135
0.551051 0.499691 0.923147
0.738762 0.501824 0.927727
0.918950 0.513835 0.934274
0.993819 0.571036 0.936972
0.502910 0.648918 0.921216
0.525295 0.640853 0.923415
0.612583 0.628148 0.926074
0.755722 0.623305 0.929391
0.911560 0.628290 0.933534
0.999930 0.658322 0.941553
0.633945 0.789545 0.919647
0.638357 0.784882 0.926698
0.690739 0.773900 0.924101
0.775598 0.758209 0.924577
0.904149 0.752887 0.937729
0.998462 0.766047 0.942470
0.778439 0.882180 0.944651
0.787418 0.878902 0.938681
0.815526 0.882166 0.943695
0.860207 0.874373 0.943821
0.919598 0.866563 0.943137
0.999859 0.862729 0.961247
0.870391 0.952666 0.964548
0.881185 0.951929 0.959889
0.896203 0.957356 0.962164
0.919043 0.955191 0.964548
0.960697 0.962211 0.967724
0.996000 0.972276 0.972161
