example_ofxGpuLutCube/bin/data/ofxGpuLutCube/LUT/V12 (brown green drama fade).cube
LUT_3D_SIZE 6
0.070588 0.082353 0.054902
0.168627 0.083137 0.052549
0.327843 0.100392 0.049412
0.582745 0.109804 0.032157
0.843921 0.138039 0.000784
0.996117 0.160784 0.000000
0.060393 0.185098 0.061176
0.154196 0.181176 0.067137
0.327529 0.204549 0.053333
0.597490 0.237019 0.005177
0.835451 0.263215 0.001255
0.999945 0.281506 0.000777
0.025098 0.374902 0.032941
0.183216 0.382431 0.047686
0.364078 0.374745 0.072627
0.598431 0.411451 0.017412
0.825098 0.459608 0.000471
0.999859 0.462753 0.000000
0.006275 0.647059 0.000000
0.221961 0.652549 0.017883
0.438588 0.638589 0.061804
0.618510 0.625569 0.130980
0.798118 0.633569 0.168627
0.994910 0.656455 0.209953
0.155294 0.861176 0.267451
0.278117 0.867922 0.295686
0.437647 0.858510 0.329255
0.610039 0.851765 0.364235
0.794039 0.833725 0.428706
0.923686 0.820353 0.574659
0.481765 0.972353 0.673608
0.537200 0.957600 0.697953
0.593200 0.962243 0.703670
0.693741 0.950518 0.736573
0.804478 0.952000 0.771937
0.909646 0.944864 0.822783
0.072157 0.081569 0.126275
0.174118 0.092079 0.138980
0.334431 0.088000 0.145569
0.610353 0.001726 0.143059
0.851137 0.010667 0.120470
0.998447 0.078886 0.134000
0.071843 0.189333 0.138980
0.164925 0.190745 0.137945
0.347765 0.195169 0.136219
0.612110 0.201192 0.128408
0.846588 0.213961 0.119623
0.997421 0.241259 0.137586
0.000627 0.388863 0.145726
0.169631 0.384847 0.144753
0.369788 0.379545 0.167027
0.605553 0.411357 0.141804
0.825631 0.443388 0.116925
0.997510 0.452358 0.161579
0.000000 0.645020 0.163922
0.189992 0.648377 0.175749
0.424816 0.635702 0.202510
0.614965 0.621522 0.242228
0.796925 0.635200 0.267890
0.985056 0.653516 0.296764
0.145098 0.858824 0.353725
0.267733 0.859545 0.372643
0.431686 0.854745 0.398494
0.608063 0.846996 0.432000
0.782337 0.838588 0.480596
0.920207 0.826256 0.610726
0.489419 0.960643 0.681718
0.533316 0.960691 0.698695
0.599482 0.959087 0.717828
0.693183 0.953616 0.745799
0.807473 0.951198 0.788068
0.909623 0.944941 0.837104
0.041568 0.086275 0.337255
0.181647 0.088628 0.337412
0.362980 0.068549 0.337412
0.622118 0.000000 0.387608
0.848627 0.000000 0.398274
0.999953 0.001592 0.384282
0.002824 0.192628 0.341804
0.136910 0.183561 0.338886
0.368565 0.181239 0.352627
0.623059 0.143718 0.371859
0.853396 0.091608 0.371827
0.999972 0.154406 0.378631
0.001255 0.399373 0.373961
0.061176 0.401977 0.377506
0.384157 0.396204 0.374274
0.628016 0.400031 0.373365
0.843294 0.410165 0.384000
0.999263 0.434450 0.412287
0.000000 0.652863 0.420549
0.072533 0.655780 0.430212
0.400659 0.647655 0.432973
0.605051 0.634228 0.458165
0.794259 0.650385 0.465036
0.971509 0.659443 0.497297
0.079372 0.857255 0.524706
0.255121 0.857129 0.542243
0.429741 0.852329 0.557584
0.605459 0.844361 0.582808
0.774463 0.835890 0.617506
0.917164 0.833987 0.699148
0.508368 0.959828 0.741514
0.551451 0.959561 0.757027
0.614013 0.956468 0.769609
0.703065 0.951846 0.788488
0.810344 0.946981 0.819212
0.909630 0.948770 0.852932
0.000000 0.070588 0.660392
0.090667 0.043451 0.668549
0.391216 0.000000 0.672157
0.616314 0.002353 0.669490
0.834039 0.000000 0.683765
0.992980 0.002330 0.671325
0.006275 0.175373 0.673255
0.003012 0.172455 0.673694
0.372518 0.148392 0.674824
0.617882 0.103278 0.675232
0.830180 0.074353 0.678432
0.999898 0.140913 0.663420
0.003765 0.409098 0.678588
0.001506 0.405553 0.690886
0.322353 0.383404 0.687624
0.617286 0.383216 0.682698
0.828455 0.384847 0.675985
0.997393 0.426813 0.665698
0.000000 0.653019 0.691137
0.001506 0.654243 0.701961
0.316424 0.655624 0.699859
0.592565 0.657349 0.692016
0.796612 0.662118 0.690541
0.959547 0.674452 0.708732
0.050980 0.859137 0.725961
0.157114 0.863780 0.729631
0.416157 0.858823 0.736721
0.602478 0.851859 0.744157
0.768753 0.840847 0.763984
0.909233 0.847031 0.796505
0.549914 0.958259 0.824032
0.580391 0.958140 0.825506
0.638284 0.955906 0.831031
0.723444 0.951396 0.846825
0.813189 0.941534 0.860221
0.900964 0.948824 0.883624
0.003138 0.009412 0.892549
0.008157 0.000628 0.902902
0.352471 0.003608 0.898196
0.591843 0.002667 0.898510
0.799216 0.000628 0.891765
0.998925 0.000824 0.878666
0.000628 0.160157 0.903216
0.002541 0.148016 0.898447
0.328376 0.124360 0.895937
0.584690 0.082635 0.894306
0.794259 0.079749 0.893647
0.996307 0.133992 0.878905
0.003294 0.387294 0.900392
0.002510 0.376753 0.899828
0.263372 0.369600 0.896220
0.567373 0.368408 0.893208
0.791278 0.381741 0.893584
0.992137 0.423200 0.867572
0.000941 0.629490 0.898510
0.000125 0.636141 0.890478
0.283420 0.637992 0.887310
0.554008 0.643043 0.887686
0.774525 0.655216 0.885333
0.945333 0.680839 0.870003
0.010353 0.850196 0.891922
0.068298 0.842667 0.886306
0.374557 0.852078 0.884361
0.594165 0.853459 0.883106
0.771702 0.856878 0.884329
0.903630 0.864584 0.887391
0.495592 0.964620 0.882400
0.538013 0.964425 0.896566
0.625638 0.956085 0.899864
0.733338 0.952841 0.902340
0.826701 0.947589 0.908004
0.903272 0.948055 0.912933
0.000078 0.019451 1.000000
0.001592 0.003883 0.996784
0.298157 0.005435 0.997482
0.529506 0.000024 0.999820
0.717812 0.000000 0.992847
0.917567 0.104319 0.999842
0.000024 0.157545 0.995129
0.009970 0.145426 0.997846
0.279395 0.142336 0.998844
0.519053 0.137554 0.992715
0.714771 0.165200 0.996795
0.916604 0.247931 0.995781
0.000016 0.361569 0.997537
0.001883 0.362488 0.998867
0.254386 0.367802 0.995186
0.506772 0.375627 0.992649
0.705101 0.403503 0.990306
0.911851 0.464682 0.990268
0.003106 0.606236 0.984933
0.103162 0.613292 0.979388
0.370197 0.622253 0.984399
0.535006 0.633219 0.980698
0.720844 0.659498 0.976483
0.904863 0.701796 0.975514
0.306423 0.817961 0.973145
0.360143 0.816009 0.975338
0.482637 0.828331 0.971945
0.634631 0.842773 0.967699
0.772254 0.856271 0.971699
0.901066 0.863529 0.964643
0.540159 0.948902 0.960823
0.566391 0.952698 0.957653
0.641672 0.950454 0.965341
0.725193 0.951239 0.956831
0.830951 0.952007 0.962950
0.921063 0.952785 0.960669
