example_ofxGpuLutCube/bin/data/ofxGpuLutCube/LUT/V12 (brown green drama fade).cube
LUT_3D_SIZE 16
0.070588 0.082353 0.054902
0.094118 0.082353 0.055686
0.124706 0.083137 0.055686
0.168627 0.083137 0.052549
0.209412 0.090196 0.048627
0.258824 0.090196 0.054902
0.327843 0.100392 0.049412
0.399215 0.101177 0.043137
0.490196 0.101177 0.043137
0.582745 0.109804 0.032157
0.678431 0.113725 0.007843
0.770980 0.123137 0.000000
0.843921 0.138039 0.000784
0.916078 0.147451 0.003922
0.981176 0.158431 0.000000
0.996117 0.160784 0.000000
0.064314 0.107451 0.044706
0.091765 0.106823 0.057883
0.124706 0.106039 0.049882
0.161725 0.109176 0.051137
0.202980 0.113412 0.056471
0.254902 0.120784 0.050980
0.320000 0.126117 0.049725
0.398118 0.123608 0.046431
0.487216 0.131764 0.039530
0.580235 0.134274 0.022274
0.672157 0.141177 0.013333
0.762039 0.149804 0.003294
0.836078 0.164392 0.000314
0.910118 0.175686 0.005333
0.977882 0.182274 0.001412
0.998423 0.189757 0.000000
0.076078 0.141177 0.061176
0.084392 0.139765 0.056471
0.119059 0.134745 0.057098
0.149177 0.139765 0.060863
0.195765 0.145882 0.054902
0.244706 0.152941 0.054902
0.314353 0.158118 0.050823
0.396392 0.160157 0.045804
0.479216 0.169569 0.040784
0.573647 0.176157 0.025882
0.665883 0.181961 0.003138
0.744314 0.194510 0.000471
0.822902 0.202980 0.005647
0.893804 0.204863 0.000000
0.966274 0.217725 0.000000
0.996745 0.218855 0.006988
0.060393 0.185098 0.061176
0.088157 0.179921 0.063372
0.121569 0.178667 0.060863
0.154196 0.181176 0.067137
0.193882 0.180392 0.066196
0.254118 0.193725 0.061176
0.327529 0.204549 0.053333
0.410196 0.213490 0.045177
0.500549 0.222902 0.032628
0.597490 0.237019 0.005177
0.684706 0.241568 0.000000
0.764392 0.250353 0.002980
0.835451 0.263215 0.001255
0.908863 0.270117 0.000628
0.973804 0.274824 0.001883
0.999945 0.281506 0.000777
0.068235 0.215686 0.056471
0.087686 0.228706 0.058196
0.114509 0.230588 0.067137
0.159686 0.228078 0.074039
0.199843 0.226824 0.074510
0.248627 0.228235 0.067451
0.319216 0.243137 0.060392
0.406588 0.265411 0.035765
0.498824 0.281098 0.013804
0.595765 0.297725 0.003294
0.686275 0.309804 0.000000
0.762980 0.316862 0.001412
0.836079 0.325961 0.000000
0.910118 0.333490 0.000000
0.977882 0.336471 0.002824
1.000000 0.332635 0.009317
0.066667 0.278431 0.074510
0.082353 0.283922 0.062745
0.116863 0.285491 0.061176
0.167059 0.285491 0.070588
0.220392 0.290196 0.070588
0.266667 0.282353 0.082353
0.323137 0.283137 0.080000
0.400000 0.308235 0.056471
0.497255 0.330196 0.021961
0.585098 0.352157 0.000000
0.674510 0.364706 0.000000
0.751372 0.374902 0.004706
0.821961 0.380392 0.000784
0.897255 0.386666 0.003922
0.952941 0.397647 0.000000
0.999765 0.400000 0.000000
0.025098 0.374902 0.032941
0.072628 0.376628 0.036235
0.126118 0.381176 0.034510
0.183216 0.382431 0.047686
0.246275 0.380392 0.058353
0.310588 0.371765 0.065882
0.364078 0.374745 0.072627
0.421961 0.371294 0.082980
0.507294 0.386981 0.066667
0.598431 0.411451 0.017412
0.681569 0.431372 0.002353
0.755451 0.444863 0.001255
0.825098 0.459608 0.000471
0.895372 0.460863 0.001726
0.961883 0.464471 0.000000
0.999859 0.462753 0.000000
0.000000 0.468236 0.017255
0.054118 0.467137 0.001883
0.133020 0.468549 0.009569
0.202039 0.469804 0.022745
0.273098 0.467451 0.026980
0.341960 0.461960 0.044706
0.399216 0.460235 0.059608
0.461333 0.458980 0.065098
0.520941 0.450196 0.099608
0.598902 0.464470 0.078432
0.678431 0.491765 0.030588
0.753255 0.512627 0.005647
0.828079 0.526118 0.006275
0.899608 0.533019 0.000628
0.967843 0.533490 0.001255
0.999090 0.533396 0.045843
0.003138 0.540392 0.001569
0.050980 0.548706 0.002510
0.135529 0.553882 0.001412
0.209568 0.547608 0.004549
0.276235 0.550274 0.005647
0.348236 0.546667 0.013333
0.414902 0.540549 0.036392
0.478274 0.538039 0.061961
0.540392 0.534275 0.081412
0.594510 0.523451 0.112941
0.659608 0.538823 0.115294
0.738196 0.560314 0.081569
0.808000 0.576314 0.055216
0.877020 0.590745 0.029490
0.946510 0.592471 0.042039
0.998933 0.589835 0.114675
0.006275 0.647059 0.000000
0.061647 0.651922 0.008000
0.149804 0.655059 0.010980
0.221961 0.652549 0.017883
0.293804 0.651764 0.026981
0.368627 0.645490 0.039216
0.438588 0.638589 0.061804
0.504471 0.634039 0.087059
0.557176 0.630902 0.106510
0.618510 0.625569 0.130980
0.665883 0.614118 0.160784
0.729569 0.618353 0.178039
0.798118 0.633569 0.168627
0.870275 0.648627 0.169255
0.932863 0.652549 0.179294
0.994910 0.656455 0.209953
0.000000 0.729412 0.003922
0.091764 0.738824 0.050980
0.167059 0.745882 0.055686
0.239215 0.745882 0.080784
0.311373 0.746667 0.100392
0.376471 0.749020 0.113725
0.447059 0.738823 0.140392
0.509020 0.732549 0.149020
0.568628 0.726274 0.177255
0.637647 0.729412 0.192157
0.698039 0.725490 0.215686
0.743529 0.707451 0.260392
0.799216 0.707451 0.305882
0.865098 0.720000 0.315294
0.929411 0.721569 0.334118
0.976236 0.725451 0.372353
0.065882 0.807843 0.141176
0.126588 0.807059 0.152941
0.179608 0.812392 0.170980
0.243608 0.812392 0.172863
0.309177 0.806274 0.195294
0.372549 0.802353 0.207843
0.439686 0.802039 0.220392
0.496942 0.797334 0.228706
0.557177 0.793569 0.241255
0.621177 0.796706 0.267451
0.675294 0.788236 0.299608
0.744784 0.783529 0.310588
0.795764 0.770039 0.349647
0.844706 0.761882 0.403608
0.899451 0.768314 0.424000
0.956510 0.780290 0.467153
0.155294 0.861176 0.267451
0.189647 0.866196 0.281098
0.234196 0.867922 0.292549
0.278117 0.867922 0.295686
0.325960 0.867138 0.305882
0.381177 0.864314 0.320784
0.437647 0.858510 0.329255
0.497098 0.855843 0.336784
0.555451 0.851451 0.346196
0.610039 0.851765 0.364235
0.669020 0.848628 0.387451
0.730039 0.842039 0.412706
0.794039 0.833725 0.428706
0.838588 0.827451 0.459451
0.881569 0.816470 0.523764
0.923686 0.820353 0.574659
0.274510 0.914510 0.424314
0.293176 0.912000 0.441726
0.324549 0.914353 0.452549
0.343373 0.916863 0.458196
0.386196 0.916079 0.469020
0.425098 0.911372 0.480785
0.474667 0.908706 0.487373
0.517176 0.906667 0.495529
0.568000 0.907294 0.499921
0.625725 0.903216 0.517961
0.681569 0.898824 0.531765
0.736941 0.894117 0.555137
0.784628 0.892706 0.573647
0.839216 0.888942 0.599373
0.882824 0.881726 0.631687
0.914305 0.876855 0.690580
0.374117 0.943529 0.539608
0.392941 0.940078 0.555765
0.405019 0.945411 0.567529
0.426353 0.943529 0.576941
0.456000 0.941020 0.576471
0.486274 0.939608 0.582745
0.518118 0.939137 0.594353
0.554824 0.937412 0.606432
0.601255 0.934274 0.620235
0.638118 0.937882 0.626667
0.690196 0.929412 0.643137
0.736941 0.923921 0.644235
0.780079 0.925176 0.673255
0.830902 0.922667 0.691451
0.875922 0.917333 0.705569
0.913498 0.907545 0.738604
0.481765 0.972353 0.673608
0.505859 0.964526 0.676047
0.521514 0.966917 0.694942
0.537200 0.957600 0.697953
0.554612 0.960666 0.695718
0.571922 0.960666 0.697333
0.593200 0.962243 0.703670
0.628565 0.958283 0.714643
0.656831 0.958251 0.724118
0.693741 0.950518 0.736573
0.725255 0.956706 0.744431
0.756729 0.954298 0.754565
0.804478 0.952000 0.771937
0.839113 0.948832 0.787592
0.873686 0.942627 0.800157
0.909646 0.944864 0.822783
0.064314 0.086275 0.072157
0.092863 0.080941 0.073725
0.129255 0.079372 0.073098
0.168784 0.087530 0.079373
0.204392 0.093804 0.074353
0.252549 0.093333 0.066667
0.324706 0.096628 0.072785
0.400628 0.099608 0.067608
0.492863 0.097726 0.067608
0.584784 0.090981 0.056628
0.676863 0.094902 0.040000
0.757647 0.102588 0.023529
0.839530 0.115764 0.013647
0.906666 0.128941 0.006118
0.973490 0.142431 0.002981
0.995326 0.154431 0.007028
0.066667 0.108549 0.073098
0.093459 0.109177 0.073286
0.122447 0.111467 0.074290
0.160721 0.116110 0.076173
0.203482 0.117459 0.071122
0.257412 0.122510 0.076549
0.318651 0.123765 0.072784
0.398902 0.125176 0.070620
0.486243 0.127811 0.068612
0.575153 0.123859 0.051514
0.669177 0.130353 0.045334
0.753129 0.137820 0.020486
0.830902 0.149427 0.014400
0.899043 0.160094 0.003482
0.973177 0.168690 0.002667
0.999030 0.177655 0.004215
0.068392 0.137569 0.071059
0.094651 0.140643 0.076172
0.119686 0.142902 0.080628
0.154447 0.144533 0.076863
0.197773 0.147796 0.072628
0.250823 0.153568 0.070745
0.316204 0.156016 0.071059
0.395482 0.159969 0.068329
0.479937 0.166996 0.064816
0.568502 0.168031 0.048690
0.661647 0.172235 0.039373
0.736753 0.179388 0.019984
0.814682 0.187828 0.007279
0.887592 0.201129 0.003263
0.953976 0.207686 0.002949
0.997924 0.216420 0.004554
0.070274 0.180863 0.075451
0.095404 0.183184 0.078432
0.122070 0.181804 0.080377
0.150808 0.182933 0.080126
0.193506 0.182808 0.080533
0.250823 0.191843 0.075765
0.323608 0.202196 0.069427
0.400628 0.212423 0.061804
0.495623 0.219451 0.055279
0.588330 0.228769 0.037145
0.676078 0.235608 0.019922
0.753820 0.242886 0.011828
0.829992 0.252078 0.006024
0.898886 0.257851 0.000502
0.967529 0.264784 0.003953
0.998037 0.269754 0.001435
0.060706 0.226196 0.073411
0.092078 0.229835 0.082667
0.120753 0.224627 0.082385
0.162918 0.222369 0.079498
0.197835 0.227922 0.086275
0.245961 0.228235 0.085647
0.318871 0.246149 0.079059
0.407937 0.262118 0.065130
0.497161 0.277804 0.044047
0.592533 0.286808 0.030118
0.679059 0.297569 0.013647
0.754949 0.305506 0.002008
0.826604 0.314196 0.001788
0.900643 0.322353 0.000659
0.968878 0.330133 0.000565
0.999933 0.325978 0.005591
0.043922 0.284706 0.065882
0.081569 0.285647 0.069804
0.122039 0.281726 0.081725
0.165333 0.285490 0.081726
0.214431 0.285961 0.088157
0.259608 0.282353 0.098824
0.317647 0.284078 0.092079
0.400627 0.305882 0.077019
0.493490 0.325333 0.054432
0.578039 0.341176 0.025098
0.659608 0.354510 0.004706
0.736627 0.365020 0.000000
0.811765 0.370510 0.002353
0.880157 0.377412 0.004235
0.949647 0.381961 0.001569
0.999741 0.385137 0.015569
0.015059 0.373961 0.058353
0.063467 0.374306 0.060173
0.119341 0.374400 0.066259
0.177443 0.370635 0.069647
0.239467 0.368753 0.077710
0.300706 0.366118 0.083608
0.356110 0.364706 0.092267
0.415718 0.363075 0.100204
0.499796 0.378635 0.090667
0.587294 0.401004 0.049694
0.670275 0.418039 0.007059
0.747075 0.435765 0.001757
0.817631 0.448314 0.003200
0.883890 0.450949 0.001694
0.953757 0.453992 0.001129
0.998378 0.458001 0.023760
0.002353 0.447373 0.040785
0.043012 0.453961 0.037584
0.120471 0.461082 0.051827
0.189741 0.456941 0.053459
0.259263 0.455341 0.062902
0.326588 0.453020 0.074039
0.392000 0.454682 0.081161
0.454024 0.447718 0.096753
0.511247 0.443577 0.111561
0.587796 0.455404 0.102526
0.669804 0.483608 0.061804
0.746666 0.504157 0.020110
0.819482 0.516737 0.005867
0.892392 0.526651 0.000596
0.959028 0.526871 0.012298
0.996726 0.530457 0.073870
0.000471 0.525177 0.020706
0.030839 0.538918 0.016627
0.120847 0.539388 0.023592
0.201161 0.536753 0.030745
0.268925 0.535529 0.045082
0.340392 0.532706 0.056470
0.408188 0.530102 0.073004
0.472973 0.526023 0.089977
0.533208 0.524392 0.105788
0.585788 0.516267 0.127623
0.650353 0.526275 0.128941
0.725835 0.550212 0.097663
0.799655 0.566306 0.067357
0.866039 0.579231 0.046526
0.941835 0.586855 0.058729
0.997793 0.587617 0.106070
0.000628 0.632784 0.019922
0.037459 0.636424 0.022871
0.129223 0.634887 0.031969
0.206149 0.634259 0.040879
0.282008 0.632847 0.054024
0.361412 0.627451 0.072000
0.422557 0.623059 0.086651
0.490353 0.624502 0.106290
0.552220 0.619608 0.118714
0.609631 0.616345 0.142996
0.660863 0.604392 0.172549
0.718651 0.610541 0.191153
0.786855 0.629867 0.176345
0.863279 0.639027 0.174588
0.928188 0.648063 0.187702
0.984320 0.649272 0.205843
0.000000 0.723137 0.050981
0.058823 0.728471 0.070275
0.146039 0.734118 0.078588
0.223843 0.732235 0.096157
0.298040 0.727059 0.113882
0.364706 0.730980 0.130981
0.439216 0.726117 0.144314
0.505882 0.723922 0.169255
0.559843 0.720784 0.182431
0.623843 0.718275 0.205647
0.687059 0.715294 0.221177
0.733333 0.699608 0.261804
0.792314 0.699608 0.302118
0.858824 0.714039 0.307137
0.921098 0.714666 0.325333
0.971451 0.716078 0.364463
0.032000 0.793725 0.146510
0.100643 0.795827 0.157145
0.167467 0.798996 0.169725
0.231843 0.796737 0.179012
0.298855 0.798024 0.194666
0.367216 0.794196 0.210039
0.430243 0.791937 0.221616
0.492078 0.789929 0.233663
0.554071 0.789428 0.243200
0.614526 0.781396 0.272690
0.676235 0.781333 0.288627
0.733929 0.778133 0.309114
0.783561 0.767153 0.341114
0.838023 0.757992 0.394447
0.896094 0.764267 0.419922
0.954621 0.769829 0.463564
0.127843 0.851137 0.261490
0.164047 0.859984 0.268517
0.212800 0.859545 0.276204
0.261867 0.856784 0.292894
0.312188 0.857098 0.294588
0.371137 0.852706 0.300392
0.431781 0.850698 0.319121
0.489914 0.846745 0.333521
0.543749 0.847623 0.346322
0.607906 0.842510 0.363513
0.668863 0.837804 0.382431
0.725176 0.838620 0.400439
0.783341 0.834729 0.419859
0.828141 0.821302 0.451231
0.877302 0.812235 0.514917
0.926766 0.819708 0.570047
0.256471 0.910117 0.423372
0.281004 0.913192 0.428643
0.308800 0.913004 0.441851
0.334274 0.908737 0.447498
0.376941 0.910306 0.456471
0.423216 0.911059 0.468549
0.467671 0.906416 0.478620
0.513882 0.903843 0.491012
0.564706 0.904722 0.502808
0.620329 0.900862 0.512345
0.677020 0.898667 0.527373
0.728439 0.891075 0.547890
0.778572 0.888690 0.563043
0.833914 0.887812 0.585882
0.885208 0.876737 0.625224
0.913081 0.873067 0.677868
0.361726 0.937098 0.536627
0.380204 0.938039 0.547420
0.388831 0.940016 0.553067
0.417945 0.941145 0.561851
0.443984 0.938322 0.565553
0.478118 0.939294 0.573490
0.510180 0.939137 0.590055
0.548016 0.937725 0.601349
0.594823 0.931702 0.608125
0.635733 0.932016 0.619765
0.684706 0.927059 0.629020
0.733333 0.926902 0.652235
0.778384 0.922541 0.662682
0.831216 0.913004 0.686023
0.874635 0.917647 0.705694
0.907788 0.910203 0.733807
0.476149 0.960698 0.652674
0.490420 0.961258 0.667274
0.503998 0.961752 0.676799
0.520350 0.960528 0.678185
0.543486 0.957677 0.681289
0.557882 0.959129 0.692525
0.580552 0.959749 0.700013
0.612251 0.957994 0.703180
0.649327 0.955453 0.715660
0.691512 0.950199 0.729793
0.725176 0.948942 0.740431
0.759018 0.950441 0.757680
0.804648 0.946386 0.774631
0.838034 0.946919 0.787205
0.872932 0.947567 0.803562
0.901820 0.940337 0.816682
0.069019 0.084706 0.101176
0.096157 0.080157 0.102118
0.128941 0.080157 0.098196
0.165333 0.088314 0.101333
0.208157 0.096941 0.100235
0.257255 0.098039 0.103529
0.328157 0.093647 0.104157
0.408627 0.085019 0.096471
0.497725 0.068078 0.092706
0.589020 0.056941 0.096000
0.681568 0.053334 0.088627
0.764235 0.056941 0.072785
0.840471 0.072784 0.061490
0.908235 0.094117 0.060862
0.974274 0.111843 0.047216
0.998416 0.129302 0.046345
0.066981 0.108706 0.097412
0.093898 0.110965 0.101145
0.123482 0.113067 0.103968
0.160000 0.118965 0.101208
0.206808 0.117365 0.097067
0.259138 0.117334 0.102274
0.323388 0.117772 0.098698
0.407529 0.114008 0.096502
0.491357 0.108863 0.095122
0.582996 0.101522 0.089380
0.675294 0.101804 0.085961
0.755482 0.104941 0.075043
0.831404 0.120031 0.063969
0.898792 0.135341 0.048031
0.969380 0.146227 0.046745
0.998039 0.159456 0.044256
0.080000 0.140392 0.095059
0.090071 0.142902 0.101082
0.120627 0.146322 0.096785
0.155012 0.145819 0.101302
0.202384 0.148486 0.100110
0.252706 0.153726 0.101333
0.321663 0.148361 0.101333
0.401882 0.153537 0.098792
0.481318 0.151906 0.093396
0.569067 0.154886 0.082980
0.659765 0.155137 0.082353
0.733522 0.160565 0.067702
0.812204 0.166902 0.056502
0.877710 0.178322 0.040063
0.951184 0.186416 0.031404
0.994798 0.200990 0.027889
0.076863 0.182431 0.102588
0.094714 0.183937 0.105851
0.124392 0.179702 0.102306
0.158776 0.185726 0.105820
0.202761 0.184502 0.104251
0.250196 0.197647 0.091922
0.327812 0.200565 0.097192
0.412675 0.204612 0.096408
0.503153 0.210510 0.090008
0.593035 0.216000 0.081976
0.676078 0.227294 0.068549
0.758368 0.229082 0.061679
0.828768 0.237929 0.044957
0.897788 0.246337 0.036549
0.966117 0.254306 0.032031
0.997421 0.260654 0.045382
0.067137 0.228706 0.106980
0.087435 0.229929 0.102118
0.120031 0.235482 0.101522
0.165082 0.227953 0.101396
0.201004 0.230588 0.111027
0.256000 0.235137 0.107922
0.326871 0.247938 0.106133
0.415686 0.264784 0.093522
0.503153 0.273318 0.083482
0.590275 0.279718 0.071498
0.673098 0.287373 0.058667
0.752439 0.295529 0.047937
0.832565 0.304345 0.039780
0.901208 0.314384 0.022588
0.969380 0.318682 0.027577
0.998039 0.322903 0.053256
0.034510 0.288628 0.105098
0.077333 0.288471 0.094118
0.113255 0.296000 0.093961
0.165333 0.287844 0.104627
0.214118 0.287373 0.106981
0.261961 0.287844 0.117647
0.323608 0.286745 0.115294
0.406431 0.306039 0.102117
0.491765 0.324235 0.087686
0.583529 0.338824 0.067765
0.665098 0.342745 0.050980
0.736471 0.353569 0.031843
0.806902 0.368470 0.019922
0.874666 0.369098 0.013020
0.939765 0.378981 0.014275
0.998847 0.382698 0.032769
0.005647 0.376314 0.093020
0.040753 0.375310 0.098824
0.114792 0.374306 0.102839
0.175278 0.373051 0.105475
0.238118 0.370416 0.108235
0.308078 0.367843 0.114510
0.358745 0.366996 0.117459
0.414243 0.369098 0.127059
0.500957 0.386165 0.116141
0.590118 0.403200 0.089474
0.672314 0.420549 0.058667
0.751059 0.432439 0.031718
0.816972 0.443138 0.020298
0.890510 0.448785 0.020424
0.955420 0.449726 0.040941
0.996243 0.450488 0.076165
0.003294 0.452079 0.088628
0.023843 0.457130 0.088000
0.104596 0.461710 0.090071
0.188674 0.462086 0.094588
0.256596 0.457318 0.102494
0.328470 0.455843 0.105882
0.395733 0.455687 0.112031
0.460204 0.449977 0.131138
0.518557 0.443702 0.151467
0.592753 0.459702 0.131200
0.673882 0.485490 0.116549
0.746510 0.503906 0.073349
0.824157 0.518682 0.041318
0.890039 0.523451 0.046588
0.958055 0.524141 0.083953
0.999843 0.525784 0.128367
0.002039 0.533019 0.064784
0.009412 0.539200 0.074196
0.110996 0.537129 0.082416
0.190055 0.538007 0.089443
0.261616 0.539388 0.094086
0.337882 0.538039 0.107765
0.409286 0.530980 0.120063
0.473004 0.529537 0.127749
0.532360 0.525772 0.138039
0.587985 0.518055 0.164706
0.651922 0.530666 0.164235
0.726933 0.552094 0.134337
0.806463 0.566870 0.116737
0.871341 0.576157 0.109459
0.940361 0.585506 0.112063
0.999636 0.587299 0.155931
0.000000 0.626196 0.084863
0.017286 0.634792 0.088251
0.107922 0.638086 0.089286
0.199529 0.634698 0.103843
0.278463 0.632910 0.115012
0.351372 0.627921 0.125020
0.424063 0.628423 0.144659
0.488439 0.621208 0.150243
0.552690 0.619953 0.167435
0.611451 0.613490 0.183372
0.660706 0.602824 0.211765
0.719968 0.611169 0.220926
0.789772 0.629176 0.214682
0.862055 0.640220 0.205145
0.925898 0.646557 0.218196
0.983795 0.650340 0.237834
0.000000 0.724706 0.133334
0.040628 0.733804 0.133177
0.140706 0.735372 0.151686
0.221020 0.736000 0.170510
0.297725 0.738510 0.176627
0.368627 0.735686 0.189019
0.435608 0.728627 0.207373
0.500235 0.727686 0.211765
0.562980 0.723922 0.228706
0.625255 0.720784 0.237490
0.687059 0.718431 0.259608
0.735216 0.706667 0.287373
0.792157 0.701961 0.321255
0.857412 0.710745 0.339451
0.926745 0.719216 0.357490
0.977734 0.725427 0.384902
0.029490 0.794823 0.198589
0.098384 0.796612 0.206023
0.162353 0.803200 0.217851
0.230494 0.801443 0.222494
0.299796 0.797114 0.233788
0.367372 0.799686 0.247059
0.426636 0.793474 0.258573
0.490761 0.791624 0.272941
0.552753 0.789616 0.284486
0.614808 0.787388 0.302494
0.673255 0.782902 0.321568
0.735153 0.779576 0.340486
0.782306 0.767090 0.370635
0.830118 0.758055 0.413553
0.895937 0.764455 0.444204
0.951344 0.775146 0.484552
0.128784 0.850039 0.285961
0.166274 0.857098 0.302714
0.211890 0.858165 0.315168
0.259827 0.858667 0.315545
0.317867 0.856847 0.325114
0.369725 0.852079 0.339608
0.430683 0.849851 0.347921
0.490635 0.849035 0.357490
0.548361 0.846400 0.372674
0.610447 0.844361 0.385443
0.668392 0.835137 0.403451
0.724486 0.837616 0.424596
0.780832 0.831937 0.448972
0.827765 0.822274 0.471686
0.876863 0.814494 0.535686
0.923959 0.822541 0.586255
0.273098 0.915922 0.448471
0.295027 0.912941 0.460706
0.317804 0.912878 0.468015
0.345662 0.910368 0.479937
0.384627 0.911561 0.481349
0.427451 0.910431 0.493960
0.467827 0.909835 0.503278
0.517615 0.908266 0.514353
0.569318 0.903121 0.527529
0.623498 0.899702 0.539294
0.675294 0.896628 0.550274
0.729506 0.892079 0.568659
0.781835 0.889788 0.589772
0.834792 0.886651 0.607968
0.882886 0.880251 0.640972
0.911479 0.872806 0.693443
0.369412 0.940392 0.547765
0.385004 0.940455 0.566243
0.401851 0.941176 0.575812
0.423937 0.944690 0.578823
0.451827 0.937569 0.583341
0.482667 0.937726 0.588862
0.514008 0.935059 0.599623
0.554635 0.934839 0.613710
0.597302 0.931576 0.618855
0.640408 0.931137 0.636298
0.690353 0.926118 0.648000
0.737192 0.925427 0.663153
0.781804 0.924424 0.678808
0.831122 0.918024 0.697882
0.872471 0.920157 0.722855
0.908649 0.910345 0.742902
0.473953 0.966886 0.656588
0.496632 0.959594 0.670238
0.501894 0.964400 0.686635
0.528215 0.958860 0.691096
0.543263 0.958303 0.692292
0.563325 0.961443 0.703498
0.586318 0.961572 0.707054
0.621995 0.958406 0.714317
0.653952 0.954692 0.729269
0.693697 0.951721 0.741263
0.729882 0.952753 0.753812
0.762561 0.950115 0.763722
0.804336 0.945633 0.774841
0.838350 0.942451 0.787496
0.877402 0.940472 0.804921
0.906485 0.941804 0.821387
0.072157 0.081569 0.126275
0.097412 0.083922 0.134745
0.125176 0.086432 0.133333
0.174118 0.092079 0.138980
0.214432 0.096941 0.141020
0.263529 0.098039 0.141176
0.334431 0.088000 0.145569
0.421804 0.073725 0.154196
0.510902 0.029177 0.145412
0.610353 0.001726 0.143059
0.700392 0.003138 0.132549
0.776157 0.006745 0.131137
0.851137 0.010667 0.120470
0.923921 0.011922 0.119843
0.979294 0.034039 0.121883
0.998447 0.078886 0.134000
0.074510 0.109961 0.131921
0.097035 0.109835 0.134651
0.123231 0.117835 0.133835
0.163262 0.118212 0.137600
0.212330 0.118368 0.135592
0.262902 0.120470 0.138039
0.332925 0.115388 0.137223
0.415686 0.101208 0.142933
0.506039 0.069459 0.140047
0.602196 0.033130 0.138698
0.689726 0.024000 0.126745
0.768408 0.031404 0.124737
0.839686 0.045490 0.117804
0.916110 0.067325 0.118934
0.978039 0.093647 0.122039
0.999997 0.118640 0.122675
0.074980 0.139765 0.138980
0.094212 0.144533 0.133333
0.132298 0.143812 0.137945
0.165678 0.144314 0.137443
0.213553 0.144972 0.136376
0.264627 0.147451 0.130823
0.336094 0.144471 0.140863
0.414557 0.134463 0.136063
0.505537 0.123294 0.137694
0.597176 0.121004 0.137945
0.676706 0.117490 0.130666
0.757616 0.120408 0.119906
0.832533 0.128377 0.116110
0.901051 0.145820 0.118243
0.966870 0.154792 0.111090
0.997459 0.174016 0.115123
0.071843 0.189333 0.138980
0.093333 0.186573 0.142118
0.121506 0.187733 0.139451
0.164925 0.190745 0.137945
0.211921 0.193035 0.134494
0.272157 0.193882 0.128941
0.347765 0.195169 0.136219
0.429867 0.191561 0.135686
0.521851 0.197961 0.132298
0.612110 0.201192 0.128408
0.698039 0.202196 0.124392
0.775435 0.206996 0.118902
0.846588 0.213961 0.119623
0.916612 0.224376 0.119749
0.970259 0.236737 0.116235
0.997421 0.241259 0.137586
0.052706 0.238118 0.137098
0.078149 0.239718 0.133616
0.120157 0.240879 0.142557
0.168220 0.237365 0.139419
0.214181 0.237741 0.145412
0.267294 0.245176 0.141176
0.348329 0.252078 0.134118
0.435263 0.260894 0.133804
0.522729 0.268423 0.132298
0.608847 0.273067 0.128094
0.688157 0.279843 0.122039
0.763984 0.287749 0.119090
0.843733 0.296439 0.113694
0.909867 0.299953 0.109051
0.975027 0.307263 0.121945
0.997455 0.316002 0.138062
0.018824 0.301177 0.139608
0.054745 0.301647 0.135529
0.110745 0.298510 0.140392
0.157804 0.300392 0.143529
0.222275 0.299922 0.144628
0.277647 0.294118 0.145883
0.342431 0.299921 0.148549
0.430902 0.318588 0.142902
0.516235 0.326745 0.128471
0.598588 0.338824 0.122981
0.677647 0.345882 0.113726
0.752157 0.354196 0.102745
0.820706 0.362823 0.105255
0.885961 0.365961 0.108392
0.961726 0.374588 0.118431
0.999067 0.376518 0.136361
0.000627 0.388863 0.145726
0.009129 0.390996 0.144502
0.089569 0.391623 0.145631
0.169631 0.384847 0.144753
0.243137 0.385976 0.151278
0.308078 0.382275 0.158431
0.369788 0.379545 0.167027
0.434573 0.379639 0.170227
0.519278 0.391686 0.160314
0.605553 0.411357 0.141804
0.686745 0.424314 0.131451
0.762227 0.438588 0.125208
0.825631 0.443388 0.116925
0.894149 0.446023 0.114039
0.959435 0.446965 0.134431
0.997510 0.452358 0.161579
0.002039 0.469647 0.135686
0.004392 0.468800 0.147734
0.071090 0.470745 0.142776
0.175247 0.468611 0.144283
0.259482 0.470996 0.156204
0.328470 0.463372 0.159843
0.401004 0.464972 0.168502
0.462839 0.460392 0.182463
