example_ofxGpuLutCube/bin/data/ofxGpuLutCube/LUT/V13 (brown fade).cube
LUT_3D_SIZE 16
0.086273 0.086273 0.086273
0.112571 0.088490 0.087285
0.140102 0.091121 0.088429
0.168946 0.094049 0.089728
0.199164 0.097288 0.091115
0.230418 0.100860 0.092641
0.262055 0.104755 0.094336
0.293723 0.108954 0.096189
0.325389 0.113371 0.098193
0.357373 0.118067 0.100390
0.390350 0.123057 0.102763
0.425143 0.128306 0.105332
0.462513 0.133759 0.108062
0.503534 0.139378 0.111046
0.544515 0.143058 0.113000
0.586521 0.145374 0.114282
0.094603 0.113495 0.088399
0.122489 0.116433 0.089671
0.151500 0.119720 0.091075
0.181939 0.123331 0.092611
0.213478 0.127245 0.094285
0.245609 0.131467 0.096133
0.277842 0.135989 0.098154
0.309806 0.140743 0.100303
0.341853 0.145824 0.102695
0.374360 0.151107 0.105240
0.408141 0.156662 0.107986
0.443868 0.162348 0.110915
0.479192 0.166281 0.112972
0.514767 0.168640 0.114227
0.554049 0.171110 0.115558
0.597414 0.173720 0.117000
0.105707 0.142460 0.091015
0.134949 0.146137 0.092550
0.165314 0.150107 0.094219
0.196989 0.154404 0.096075
0.229454 0.158994 0.098074
0.262018 0.163837 0.100242
0.294335 0.168978 0.102604
0.326429 0.174393 0.105175
0.358647 0.180073 0.107903
0.391321 0.185752 0.110769
0.423045 0.189993 0.112943
0.453840 0.192370 0.114200
0.487260 0.194908 0.115527
0.523914 0.197563 0.116945
0.564457 0.200321 0.118436
0.609217 0.203221 0.119985
0.118988 0.173438 0.094184
0.149402 0.177798 0.096015
0.180884 0.182449 0.098007
0.213434 0.187416 0.100199
0.246271 0.192627 0.102522
0.278880 0.198120 0.105066
0.311021 0.203865 0.107795
0.342725 0.209620 0.110657
0.372645 0.214067 0.112910
0.400587 0.216451 0.114161
0.430036 0.219000 0.115491
0.461651 0.221652 0.116915
0.496040 0.224480 0.118381
0.533881 0.227354 0.119954
0.575658 0.230336 0.121573
0.621810 0.233390 0.123247
0.133953 0.206351 0.097949
0.165270 0.211347 0.100088
0.197565 0.216602 0.102442
0.230458 0.222108 0.104986
0.263252 0.227903 0.107729
0.295306 0.233725 0.110581
0.324957 0.238208 0.112875
0.351721 0.240612 0.114139
0.379092 0.243152 0.115454
0.407562 0.245799 0.116859
0.437666 0.248558 0.118344
0.470086 0.251420 0.119899
0.505528 0.254403 0.121540
0.544515 0.257443 0.123192
0.587671 0.260550 0.124934
0.635251 0.263718 0.126676
0.149994 0.240712 0.102376
0.181952 0.246183 0.104903
0.214632 0.251876 0.107629
0.247261 0.257641 0.110494
0.277558 0.262219 0.112818
0.304410 0.264618 0.114068
0.331193 0.267123 0.115395
0.358242 0.269711 0.116797
0.386025 0.272475 0.118290
0.415008 0.275323 0.119834
0.445818 0.278236 0.121463
0.479129 0.281266 0.123138
0.515576 0.284330 0.124874
0.555815 0.287493 0.126655
0.600364 0.290717 0.128460
0.649343 0.293930 0.130311
0.166418 0.275641 0.107531
0.198704 0.281494 0.110446
0.229211 0.285911 0.112741
0.256680 0.288349 0.114030
0.283866 0.290851 0.115345
0.310838 0.293441 0.116748
0.337833 0.296137 0.118242
0.365187 0.298929 0.119788
0.393397 0.301854 0.121419
0.422954 0.304840 0.123092
0.454490 0.307920 0.124807
0.488700 0.311025 0.126585
0.526193 0.314186 0.128408
0.567741 0.317472 0.130266
0.613628 0.320736 0.132141
0.664080 0.324014 0.134054
0.180721 0.309414 0.112642
0.208196 0.311937 0.113984
0.235728 0.314388 0.115312
0.263239 0.316947 0.116717
0.290521 0.319628 0.118178
0.317667 0.322452 0.119751
0.344864 0.325317 0.121358
0.372528 0.328301 0.123027
0.401138 0.331372 0.124760
0.431282 0.334492 0.126524
0.463589 0.337702 0.128345
0.498739 0.340919 0.130190
0.537349 0.344212 0.132093
0.580133 0.347563 0.134001
0.627385 0.350917 0.135923
0.679183 0.354289 0.137883
0.187254 0.337878 0.115247
0.214808 0.340486 0.116668
0.242562 0.343164 0.118144
0.270159 0.345954 0.119694
0.297544 0.348865 0.121290
0.324820 0.351885 0.122989
0.352217 0.354955 0.124701
0.380160 0.358131 0.126477
0.409234 0.361359 0.128292
0.439982 0.364658 0.130137
0.473082 0.368009 0.132023
0.509166 0.371366 0.133937
0.548945 0.374811 0.135850
0.592971 0.378285 0.137817
0.641557 0.381769 0.139784
0.694629 0.385227 0.141746
0.194013 0.366907 0.118078
0.221829 0.369790 0.119661
0.249712 0.372728 0.121247
0.277399 0.375796 0.122907
0.304879 0.378931 0.124644
0.332230 0.382198 0.126424
0.359819 0.385531 0.128229
0.388072 0.388884 0.130069
0.417600 0.392329 0.131956
0.448960 0.395843 0.133865
0.482890 0.399398 0.135811
0.519962 0.402983 0.137758
0.560864 0.406594 0.139712
0.606060 0.410232 0.141675
0.655919 0.413890 0.143649
0.710204 0.417511 0.145578
0.201141 0.397247 0.121185
0.229157 0.400414 0.122858
0.257144 0.403702 0.124594
0.284888 0.407068 0.126347
0.312363 0.410495 0.128149
0.339817 0.414056 0.130015
0.367578 0.417637 0.131903
0.396192 0.421326 0.133820
0.426178 0.425029 0.135748
0.458230 0.428807 0.137691
0.492961 0.432614 0.139658
0.530995 0.436444 0.141606
0.572990 0.440279 0.143569
0.619355 0.444132 0.145524
0.670465 0.448026 0.147460
0.725839 0.451875 0.149404
0.208596 0.429526 0.124508
0.236731 0.433088 0.126268
0.264798 0.436734 0.128102
0.292492 0.440476 0.129959
0.319986 0.444268 0.131838
0.347525 0.448141 0.133744
0.375488 0.452100 0.135690
0.404442 0.456115 0.137640
0.434951 0.460170 0.139575
0.467649 0.464281 0.141546
0.503168 0.468380 0.143498
0.542215 0.472543 0.145461
0.585238 0.476694 0.147412
0.632722 0.480788 0.149322
0.684887 0.484933 0.151243
0.741302 0.489012 0.153106
0.216315 0.464606 0.128039
0.244528 0.468566 0.129872
0.272550 0.472683 0.131781
0.300212 0.476841 0.133693
0.327708 0.481094 0.135616
0.355326 0.485378 0.137549
0.383503 0.489749 0.139516
0.412826 0.494185 0.141488
0.443807 0.498621 0.143440
0.477166 0.503097 0.145401
0.513493 0.507560 0.147312
0.553472 0.512087 0.149278
0.597486 0.516529 0.151160
0.646002 0.520960 0.153056
0.698996 0.525335 0.154873
0.756356 0.529660 0.156692
0.224188 0.503245 0.131718
0.252384 0.507705 0.133612
0.280308 0.512330 0.135536
0.307968 0.517002 0.137484
0.335433 0.521719 0.139440
0.363124 0.526520 0.141405
0.391558 0.531370 0.143385
0.421169 0.536198 0.145335
0.452685 0.541097 0.147266
0.486691 0.545949 0.149188
0.523819 0.550836 0.151106
0.564653 0.555716 0.152999
0.609613 0.560476 0.154830
0.658996 0.565164 0.156633
0.712829 0.569798 0.158380
0.770827 0.574361 0.160058
0.232135 0.546267 0.135468
0.260262 0.551354 0.137421
0.288070 0.556509 0.139376
0.315664 0.561726 0.141361
0.343109 0.567016 0.143316
0.370904 0.572289 0.145272
0.399495 0.577594 0.147198
0.429504 0.582941 0.149137
0.461526 0.588271 0.151050
0.496150 0.593523 0.152927
0.533986 0.598760 0.154771
0.575577 0.603919 0.156573
0.621407 0.608987 0.158325
0.671561 0.613936 0.160009
0.726052 0.618742 0.161649
0.784494 0.623472 0.163254
0.240013 0.594181 0.139324
0.268045 0.599829 0.141277
0.295747 0.605571 0.143234
0.323224 0.611439 0.145184
0.350657 0.617203 0.147137
0.378554 0.622996 0.149050
0.407329 0.628706 0.150983
0.437705 0.634508 0.152847
0.470183 0.640199 0.154691
0.505363 0.645821 0.156508
0.543867 0.651329 0.158248
0.586196 0.656655 0.159959
0.632716 0.661956 0.161600
0.683411 0.667009 0.163161
0.738395 0.671888 0.164701
0.797075 0.676533 0.166118
0.087571 0.087062 0.109080
0.114221 0.089384 0.110185
0.142017 0.092164 0.111361
0.171172 0.095203 0.112697
0.201661 0.098567 0.114164
0.233104 0.102242 0.115763
0.264899 0.106240 0.117533
0.296669 0.110529 0.119452
0.328373 0.115077 0.121538
0.360522 0.119877 0.123817
0.393622 0.124940 0.126277
0.428618 0.130245 0.128953
0.466301 0.135780 0.131809
0.507496 0.141424 0.134891
0.546236 0.143902 0.136216
0.588414 0.146227 0.137532
0.096480 0.114548 0.111330
0.124628 0.117610 0.112639
0.153995 0.121024 0.114107
0.184593 0.124752 0.115706
0.216351 0.128767 0.117447
0.248611 0.133078 0.119380
0.280879 0.137708 0.121493
0.312920 0.142590 0.123758
0.344976 0.147727 0.126206
0.377557 0.153104 0.128864
0.411472 0.158743 0.131735
0.447214 0.164392 0.134717
0.480650 0.167130 0.136185
0.516409 0.169533 0.137502
0.555935 0.172058 0.138873
0.599530 0.174703 0.140347
0.108004 0.143766 0.114072
0.137480 0.147543 0.115652
0.168096 0.151622 0.117390
0.199956 0.156056 0.119318
0.232556 0.160748 0.121391
0.265137 0.165701 0.123682
0.297485 0.170976 0.126142
0.329531 0.176437 0.128775
0.361777 0.182198 0.131654
0.394222 0.187766 0.134518
0.424286 0.190852 0.136133
0.455237 0.193295 0.137447
0.488837 0.195862 0.138843
0.525708 0.198573 0.140296
0.566484 0.201370 0.141844
0.611500 0.204266 0.143454
0.121690 0.175000 0.117348
0.152230 0.179447 0.119257
0.183936 0.184220 0.121322
0.216574 0.189311 0.123601
0.249453 0.194621 0.126063
0.281986 0.200209 0.128709
0.314082 0.206024 0.131545
0.345361 0.211585 0.134365
0.373821 0.214938 0.136104
0.401850 0.217378 0.137385
0.431438 0.219974 0.138800
0.463176 0.222661 0.140242
0.497773 0.225502 0.141786
0.535779 0.228415 0.143404
0.577861 0.231447 0.145052
0.624333 0.234561 0.146796
0.136870 0.208165 0.121276
0.168321 0.213238 0.123522
0.200725 0.218617 0.125974
0.233710 0.224234 0.128617
0.266399 0.230072 0.131458
0.297822 0.235571 0.134229
0.326063 0.239073 0.136059
0.352912 0.241527 0.137356
0.380364 0.244112 0.138743
0.408885 0.246792 0.140200
0.439153 0.249599 0.141732
0.471722 0.252482 0.143350
0.507334 0.255523 0.145018
0.546563 0.258582 0.146737
0.590007 0.261711 0.148537
0.637833 0.264896 0.150317
0.153048 0.242668 0.125899
0.185092 0.248259 0.128516
0.217826 0.254037 0.131351
0.249786 0.259438 0.134104
0.278701 0.263092 0.136021
0.305563 0.265519 0.137302
0.332390 0.268068 0.138700
0.359508 0.270730 0.140149
0.387361 0.273491 0.141684
0.416453 0.276371 0.143303
0.447389 0.279340 0.144975
0.480862 0.282360 0.146678
0.517538 0.285520 0.148457
0.557977 0.288683 0.150284
0.602769 0.291895 0.152163
0.652077 0.295130 0.154057
0.169584 0.277825 0.131273
0.201165 0.283180 0.134024
0.230507 0.286890 0.135988
0.257855 0.289265 0.137258
0.285077 0.291778 0.138649
0.312095 0.294435 0.140115
0.339125 0.297145 0.141635
0.366524 0.300005 0.143239
0.394797 0.302938 0.144912
0.424475 0.305963 0.146641
0.456152 0.309030 0.148408
0.490521 0.312199 0.150237
0.528248 0.315372 0.152087
0.569993 0.318670 0.154021
0.616168 0.321965 0.155942
0.666838 0.325227 0.157889
0.182113 0.310441 0.135940
0.209379 0.312806 0.137232
0.236972 0.315305 0.138596
0.264492 0.317925 0.140042
0.291824 0.320673 0.141596
0.318985 0.323491 0.143171
0.346223 0.326405 0.144858
0.373927 0.329419 0.146562
0.402627 0.332514 0.148342
0.432868 0.335663 0.150172
0.465317 0.338869 0.152046
0.500635 0.342136 0.153932
0.539473 0.345426 0.155877
0.582482 0.348788 0.157834
0.630003 0.352147 0.159806
0.682055 0.355521 0.161797
0.188472 0.338811 0.138548
0.216076 0.341436 0.140016
0.243859 0.344178 0.141531
0.271488 0.347004 0.143127
0.298895 0.349971 0.144801
0.326182 0.352990 0.146516
0.353611 0.356106 0.148280
0.381627 0.359313 0.150103
0.410774 0.362551 0.151987
0.441657 0.365885 0.153890
0.474876 0.369225 0.155818
0.511158 0.372636 0.157772
0.551124 0.376075 0.159734
0.595366 0.379572 0.161743
0.644212 0.383033 0.163746
0.697515 0.386520 0.165728
0.195313 0.367952 0.141480
0.223161 0.370840 0.143089
0.251067 0.373845 0.144743
0.278781 0.376938 0.146459
0.306232 0.380113 0.148223
0.333634 0.383420 0.150056
0.361251 0.386750 0.151939
0.389570 0.390156 0.153813
0.419196 0.393638 0.155765
0.450677 0.397136 0.157691
0.484754 0.400706 0.159683
0.522007 0.404315 0.161659
0.563105 0.407924 0.163681
0.608560 0.411564 0.165688
0.658640 0.415217 0.167689
0.713126 0.418836 0.169652
0.202510 0.398415 0.144679
0.230589 0.401619 0.146413
0.258567 0.404916 0.148183
0.286287 0.408300 0.149973
0.313770 0.411788 0.151849
0.341240 0.415371 0.153764
0.369065 0.418981 0.155692
0.397719 0.422657 0.157644
0.427791 0.426397 0.159603
0.459960 0.430176 0.161604
0.494853 0.434028 0.163607
0.533065 0.437844 0.165625
0.575271 0.441695 0.167617
0.621853 0.445559 0.169601
0.673138 0.449434 0.171584
0.728743 0.453255 0.173532
0.210030 0.430806 0.148114
0.238163 0.434400 0.149936
0.266212 0.438105 0.151809
0.293939 0.441852 0.153701
0.321420 0.445675 0.155620
0.348998 0.449631 0.157579
0.376991 0.453567 0.159551
0.406026 0.457601 0.161536
0.436599 0.461674 0.163544
0.469419 0.465788 0.165546
0.505125 0.469939 0.167571
0.544295 0.474045 0.169546
0.587542 0.478205 0.171514
0.635228 0.482314 0.173471
0.687529 0.486465 0.175419
0.744144 0.490479 0.177276
0.217767 0.466040 0.151727
0.245960 0.470052 0.153621
0.273992 0.474187 0.155557
0.301673 0.478403 0.157522
0.329158 0.482658 0.159495
0.356763 0.486967 0.161466
0.385013 0.491360 0.163474
0.414370 0.495805 0.165476
0.445488 0.500237 0.167490
0.478952 0.504731 0.169491
0.515432 0.509194 0.171442
0.555589 0.513716 0.173438
0.599782 0.518143 0.175346
0.648443 0.522568 0.177231
0.701678 0.526953 0.179119
0.759136 0.531236 0.180922
0.225653 0.504854 0.155497
0.253839 0.509386 0.157450
0.281782 0.514052 0.159438
0.309390 0.518719 0.161404
0.336882 0.523475 0.163417
0.364603 0.528291 0.165410
0.393026 0.533124 0.167428
0.422738 0.538021 0.169421
0.454354 0.542901 0.171390
0.488458 0.547753 0.173352
0.525717 0.552603 0.175272
0.566721 0.557453 0.177186
0.611814 0.562205 0.179052
0.661373 0.566900 0.180869
0.715355 0.571481 0.182645
0.773446 0.576023 0.184346
0.233614 0.548114 0.159348
0.261743 0.553212 0.161313
0.289541 0.558380 0.163352
0.317078 0.563668 0.165344
0.344549 0.568942 0.167343
0.372353 0.574256 0.169363
0.401011 0.579589 0.171347
0.431047 0.584874 0.173288
0.463153 0.590189 0.175227
0.497886 0.595433 0.177113
0.535877 0.600648 0.178996
0.577649 0.605807 0.180808
0.623567 0.610816 0.182577
0.673853 0.615706 0.184292
0.728424 0.620475 0.185941
0.786901 0.625085 0.187543
0.241495 0.596260 0.163268
0.269522 0.601945 0.165260
0.297190 0.607688 0.167252
0.324633 0.613505 0.169262
0.352031 0.619308 0.171248
0.379953 0.625108 0.173206
0.408793 0.630838 0.175132
0.439186 0.636605 0.177029
0.471760 0.642263 0.178918
0.507065 0.647844 0.180731
0.545688 0.653306 0.182508
0.588100 0.658617 0.184221
0.634711 0.663845 0.185891
0.685551 0.668818 0.187471
0.740630 0.673621 0.188993
0.799309 0.678203 0.190407
0.089000 0.087856 0.132182
0.115941 0.090363 0.133293
0.144048 0.093222 0.134557
0.173496 0.096407 0.135963
0.204244 0.099874 0.137480
0.235883 0.103658 0.139176
0.267786 0.107779 0.141017
0.299608 0.112171 0.143050
0.331451 0.116801 0.145236
0.363653 0.121724 0.147641
0.396975 0.126891 0.150236
0.432135 0.132255 0.153025
0.470090 0.137861 0.156036
0.509362 0.142442 0.158548
0.547990 0.144753 0.159859
0.590455 0.147113 0.161237
0.098431 0.115634 0.134505
0.126839 0.118801 0.135908
0.156490 0.122355 0.137442
0.187311 0.126170 0.139110
0.219278 0.130311 0.140985
0.251631 0.134713 0.142990
0.283921 0.139452 0.145191
0.316022 0.144454 0.147570
0.348110 0.149663 0.150147
0.380794 0.155170 0.152933
0.414716 0.160798 0.155892
0.449092 0.165568 0.158475
0.482127 0.167991 0.159806
0.518097 0.170455 0.161191
0.557852 0.173034 0.162639
0.601683 0.175709 0.164157
0.110421 0.145112 0.137381
0.140122 0.149020 0.139058
0.170995 0.153239 0.140915
0.202973 0.157747 0.142919
0.235657 0.162546 0.145115
0.268265 0.167587 0.147473
0.300602 0.172939 0.150083
0.332634 0.178519 0.152843
0.364775 0.184269 0.155777
0.396206 0.189167 0.158391
0.425555 0.191726 0.159757
0.456664 0.194238 0.161154
0.490438 0.196815 0.162584
0.527520 0.199587 0.164108
0.568538 0.202419 0.165698
0.613819 0.205369 0.167363
0.124397 0.176585 0.140855
0.155155 0.181178 0.142834
0.186996 0.186031 0.145024
0.219759 0.191253 0.147411
0.252631 0.196639 0.149977
0.285136 0.202320 0.152759
0.317088 0.208144 0.155690
0.347449 0.213131 0.158289
0.374999 0.215807 0.159741
0.403117 0.218318 0.161096
0.432803 0.220949 0.162530
0.464739 0.223709 0.164061
0.499489 0.226567 0.165660
0.537734 0.229541 0.167312
0.580056 0.232581 0.169036
0.626804 0.235698 0.170849
0.139805 0.209987 0.144957
0.171407 0.215194 0.147326
0.203916 0.220637 0.149883
0.236896 0.226370 0.152652
0.269418 0.232201 0.155602
0.299999 0.237181 0.158195
0.327212 0.239963 0.159681
0.354114 0.242456 0.161047
0.381632 0.245072 0.162495
0.410268 0.247815 0.164007
0.440646 0.250663 0.165608
0.473382 0.253590 0.167253
0.509187 0.256636 0.169000
0.548663 0.259721 0.170779
0.592326 0.262886 0.172612
0.640492 0.266115 0.174495
0.156096 0.244703 0.149810
0.188223 0.250336 0.152558
0.220907 0.256154 0.155513
0.252113 0.261135 0.158112
0.279850 0.263975 0.159644
0.306743 0.266438 0.161014
0.333629 0.269013 0.162434
0.360798 0.271737 0.163955
0.388735 0.274552 0.165559
0.417903 0.277465 0.167202
0.448973 0.280430 0.168931
0.482623 0.283511 0.170725
0.519498 0.286664 0.172558
0.560160 0.289835 0.174446
0.605228 0.293086 0.176358
0.654791 0.296345 0.178295
0.172628 0.279954 0.155432
0.203437 0.284825 0.158011
0.231685 0.287745 0.159604
0.259075 0.290170 0.160948
0.286299 0.292734 0.162401
0.313357 0.295425 0.163910
0.340423 0.298191 0.165497
0.367889 0.301072 0.167151
0.396228 0.304042 0.168879
0.425992 0.307087 0.170673
0.457812 0.310187 0.172499
0.492390 0.313363 0.174387
0.530335 0.316609 0.176303
0.572271 0.319852 0.178241
0.618707 0.323155 0.180243
0.669654 0.326457 0.182238
0.183262 0.311281 0.159542
0.210580 0.313707 0.160901
0.238226 0.316255 0.162341
0.265760 0.318913 0.163864
0.293139 0.321680 0.165445
0.320307 0.324546 0.167104
0.347590 0.327498 0.168827
0.375326 0.330534 0.170608
0.404118 0.333657 0.172431
0.434477 0.336839 0.174319
0.467074 0.340059 0.176224
0.502569 0.343340 0.178181
0.541626 0.346634 0.180152
0.584855 0.350017 0.182184
0.632628 0.353389 0.184202
0.684911 0.356767 0.186229
0.189732 0.339769 0.162278
0.217368 0.342431 0.163820
0.245176 0.345199 0.165401
0.272830 0.348079 0.167038
0.300277 0.351087 0.168775
0.327567 0.354141 0.170553
0.355015 0.357273 0.172382
0.383072 0.360484 0.174241
0.412324 0.363765 0.176174
0.443319 0.367116 0.178137
0.476694 0.370478 0.180113
0.513155 0.373899 0.182122
0.553343 0.377345 0.184122
0.597813 0.380838 0.186189
0.646889 0.384315 0.188224
0.700419 0.387787 0.190253
0.196610 0.368986 0.165346
0.224526 0.371944 0.166999
0.252456 0.374981 0.168709
0.280163 0.378090 0.170485
0.307636 0.381315 0.172311
0.335037 0.384634 0.174177
0.362695 0.388010 0.176098
0.391074 0.391410 0.178057
0.420802 0.394908 0.180046
0.452410 0.398463 0.182059
0.486610 0.402041 0.184080
0.524037 0.405641 0.186097
0.565335 0.409265 0.188145
0.611023 0.412908 0.190198
0.661329 0.416552 0.192230
0.716034 0.420155 0.194243
0.203890 0.399551 0.168654
0.232006 0.402827 0.170443
0.259950 0.406157 0.172249
0.287697 0.409591 0.174120
0.315205 0.413074 0.176043
0.342682 0.416676 0.178004
0.370542 0.420330 0.179978
0.399262 0.424026 0.181970
0.429458 0.427785 0.184006
0.461710 0.431568 0.186042
0.496750 0.435424 0.188077
0.535157 0.439246 0.190113
0.577557 0.443117 0.192158
0.624387 0.446996 0.194189
0.675836 0.450840 0.196181
0.731630 0.454664 0.198151
0.211447 0.432114 0.172189
0.239632 0.435747 0.174051
0.267654 0.439443 0.175987
0.295354 0.443266 0.177937
0.322848 0.447110 0.179902
0.350448 0.451072 0.181920
0.378501 0.455047 0.183940
0.407551 0.459094 0.185968
0.438230 0.463174 0.188008
0.471191 0.467296 0.190055
0.507046 0.471445 0.192106
0.546401 0.475591 0.194125
0.589819 0.479717 0.196114
0.637686 0.483834 0.198113
0.690187 0.487940 0.200076
0.746942 0.491965 0.201974
0.219245 0.467509 0.175903
0.247451 0.471544 0.177853
0.275439 0.475714 0.179836
0.303097 0.479941 0.181856
0.330576 0.484228 0.183864
0.358232 0.488571 0.185886
0.386509 0.492980 0.187943
0.415929 0.497443 0.190003
0.447114 0.501893 0.192029
0.480745 0.506383 0.194044
0.517381 0.510880 0.196057
0.557631 0.515333 0.198045
0.602035 0.519774 0.199990
0.650866 0.524171 0.201922
0.704249 0.528531 0.203794
0.761826 0.532792 0.205599
0.227128 0.506516 0.179801
0.255319 0.511082 0.181764
0.283232 0.515769 0.183784
0.310811 0.520459 0.185830
0.338305 0.525253 0.187885
0.366036 0.530041 0.189931
0.394543 0.534922 0.191966
0.424307 0.539796 0.193986
0.455984 0.544686 0.195994
0.490220 0.549561 0.197991
0.527613 0.554375 0.199928
0.568777 0.559190 0.201878
0.614065 0.563947 0.203732
0.663735 0.568627 0.205546
0.717885 0.573188 0.207343
0.776034 0.577634 0.209044
0.235094 0.549968 0.183740
0.263196 0.555099 0.185742
0.291035 0.560345 0.187817
0.318501 0.565605 0.189863
0.345971 0.570889 0.191891
0.373785 0.576171 0.193912
0.402477 0.581521 0.195933
0.432601 0.586850 0.197905
0.464793 0.592136 0.199852
0.499618 0.597348 0.201800
0.537712 0.602548 0.203676
0.579649 0.607645 0.205506
0.625676 0.612612 0.207279
0.676079 0.617482 0.208973
0.730765 0.622205 0.210621
0.789329 0.626754 0.212191
0.242971 0.598338 0.187707
0.270972 0.604059 0.189786
0.298590 0.609827 0.191808
0.326001 0.615623 0.193824
0.353445 0.621452 0.195845
0.381351 0.627220 0.197825
0.410256 0.633003 0.199782
0.440697 0.638673 0.201719
0.473341 0.644309 0.203586
0.508730 0.649844 0.205428
0.547476 0.655282 0.207187
0.590044 0.660579 0.208917
0.636755 0.665682 0.210572
0.687661 0.670638 0.212153
0.742780 0.675354 0.213664
0.801480 0.679814 0.215046
0.090528 0.088721 0.155652
0.117733 0.091383 0.156843
0.146164 0.094355 0.158176
0.175902 0.097656 0.159674
0.206897 0.101240 0.161286
0.238759 0.105163 0.163080
0.270711 0.109357 0.165011
0.302648 0.113826 0.167167
0.334493 0.118573 0.169486
0.366814 0.123577 0.171995
0.400269 0.128833 0.174701
0.435637 0.134295 0.177641
0.473865 0.139971 0.180768
0.510978 0.143299 0.182643
0.549744 0.145609 0.184002
0.592450 0.148029 0.185436
0.100479 0.116774 0.158143
0.129143 0.120072 0.159613
0.159018 0.123714 0.161245
0.190125 0.127669 0.163008
0.222234 0.131911 0.164953
0.254669 0.136440 0.167080
0.287005 0.141240 0.169394
0.319104 0.146330 0.171917
0.351209 0.151654 0.174596
0.384001 0.157226 0.177543
0.417931 0.162879 0.180600
0.450606 0.166522 0.182640
0.483613 0.168873 0.183969
0.519793 0.171372 0.185389
0.559798 0.174014 0.186902
0.603862 0.176719 0.188453
0.112891 0.146501 0.161189
0.142805 0.150524 0.162935
0.173904 0.154866 0.164910
0.206030 0.159471 0.167011
0.238794 0.164357 0.169328
0.271408 0.169509 0.171826
0.303711 0.174952 0.174521
0.335762 0.180640 0.177437
0.367669 0.186304 0.180448
0.397705 0.190230 0.182589
0.426868 0.192632 0.183917
0.458138 0.195170 0.185338
0.492052 0.197834 0.186841
0.529371 0.200612 0.188431
0.570646 0.203491 0.190089
0.616175 0.206474 0.191812
0.127183 0.178243 0.164822
0.158123 0.182930 0.166929
0.190072 0.187907 0.169228
0.222926 0.193182 0.171739
0.255813 0.198700 0.174422
0.288234 0.204450 0.177323
0.319857 0.210164 0.180328
0.348990 0.214288 0.182540
0.376181 0.216713 0.183879
0.404402 0.219267 0.185293
0.434233 0.221941 0.186799
0.466320 0.224737 0.188394
0.501252 0.227662 0.190029
0.539727 0.230634 0.191761
0.582308 0.233722 0.193517
0.629302 0.236870 0.195371
0.142783 0.211852 0.169158
0.174521 0.217160 0.171652
0.207106 0.222692 0.174323
0.240062 0.228523 0.177243
0.272224 0.234232 0.180240
0.301697 0.238461 0.182504
0.328365 0.240860 0.183829
0.355315 0.243407 0.185249
0.382920 0.246069 0.186755
0.411660 0.248842 0.188328
0.442164 0.251724 0.189982
0.475099 0.254702 0.191712
0.511056 0.257772 0.193477
0.550726 0.260868 0.195300
0.594685 0.264060 0.197199
0.643140 0.267314 0.199150
0.159177 0.246733 0.174243
0.191391 0.252481 0.177150
0.223790 0.258198 0.180156
0.253931 0.262478 0.182469
0.281022 0.264855 0.183804
0.307945 0.267367 0.185196
0.334849 0.269985 0.186686
0.362088 0.272741 0.188277
0.390092 0.275600 0.189936
0.419385 0.278529 0.191642
0.450616 0.281556 0.193422
0.484416 0.284633 0.195256
0.521472 0.287827 0.197142
0.562401 0.291042 0.199081
0.607715 0.294294 0.201035
0.657552 0.297573 0.203022
0.175543 0.281992 0.180101
0.205416 0.286251 0.182421
0.232860 0.288607 0.183749
0.260271 0.291102 0.185142
0.287545 0.293712 0.186645
0.314631 0.296410 0.188224
0.341730 0.299220 0.189864
0.369263 0.302156 0.191597
0.397675 0.305142 0.193361
0.427552 0.308218 0.195199
0.459524 0.311361 0.197072
0.494248 0.314542 0.199002
0.532412 0.317803 0.200987
0.574595 0.321063 0.202973
0.621267 0.324361 0.204982
0.672443 0.327688 0.207019
0.184453 0.312157 0.183688
0.211827 0.314636 0.185104
0.239491 0.317210 0.186593
0.267067 0.319914 0.188163
0.294451 0.322734 0.189813
0.321638 0.325634 0.191529
0.348924 0.328603 0.193302
0.376753 0.331672 0.195125
