example_ofxGpuLutCube/bin/data/ofxGpuLutCube/LUT/V13 (brown fade).cube
LUT_3D_SIZE 6
0.086273 0.086273 0.086273
0.168946 0.094049 0.089728
0.262055 0.104755 0.094336
0.357373 0.118067 0.100390
0.462513 0.133759 0.108062
0.586521 0.145374 0.114282
0.118988 0.173438 0.094184
0.213434 0.187416 0.100199
0.311021 0.203865 0.107795
0.400587 0.216451 0.114161
0.496040 0.224480 0.118381
0.621810 0.233390 0.123247
0.166418 0.275641 0.107531
0.256680 0.288349 0.114030
0.337833 0.296137 0.118242
0.422954 0.304840 0.123092
0.526193 0.314186 0.128408
0.664080 0.324014 0.134054
0.194013 0.366907 0.118078
0.277399 0.375796 0.122907
0.359819 0.385531 0.128229
0.448960 0.395843 0.133865
0.560864 0.406594 0.139712
0.710204 0.417511 0.145578
0.216315 0.464606 0.128039
0.300212 0.476841 0.133693
0.383503 0.489749 0.139516
0.477166 0.503097 0.145401
0.597486 0.516529 0.151160
0.756356 0.529660 0.156692
0.240013 0.594181 0.139324
0.323224 0.611439 0.145184
0.407329 0.628706 0.150983
0.505363 0.645821 0.156508
0.632716 0.661956 0.161600
0.797075 0.676533 0.166118
0.090528 0.088721 0.155652
0.175902 0.097656 0.159674
0.270711 0.109357 0.165011
0.366814 0.123577 0.171995
0.473865 0.139971 0.180768
0.592450 0.148029 0.185436
0.127183 0.178243 0.164822
0.222926 0.193182 0.171739
0.319857 0.210164 0.180328
0.404402 0.219267 0.185293
0.501252 0.227662 0.190029
0.629302 0.236870 0.195371
0.175543 0.281992 0.180101
0.260271 0.291102 0.185142
0.341730 0.299220 0.189864
0.427552 0.308218 0.195199
0.532412 0.317803 0.200987
0.672443 0.327688 0.207019
0.197947 0.370060 0.189682
0.281550 0.379256 0.195010
0.364141 0.389246 0.200783
0.454144 0.399767 0.206840
0.567600 0.410579 0.213008
0.718962 0.421500 0.219147
0.220692 0.468994 0.200565
0.304547 0.481506 0.206650
0.388004 0.494617 0.212819
0.482490 0.508022 0.218988
0.604306 0.521383 0.224935
0.764514 0.534343 0.230524
0.244420 0.600416 0.212578
0.327413 0.617780 0.218755
0.411675 0.635076 0.224718
0.510414 0.651850 0.230328
0.638738 0.667537 0.235409
0.803610 0.681436 0.239794
0.095758 0.091669 0.228815
0.183606 0.101634 0.233468
0.279758 0.114308 0.239553
0.376442 0.129359 0.247327
0.480104 0.143507 0.255240
0.598720 0.150879 0.259575
0.135775 0.183442 0.239317
0.232529 0.199260 0.247048
0.325666 0.214513 0.255103
0.408399 0.222218 0.259422
0.506674 0.230956 0.264402
0.636905 0.240412 0.269886
0.181702 0.286478 0.254993
0.264039 0.293976 0.259265
0.345727 0.302442 0.264220
0.432285 0.311668 0.269711
0.538734 0.321390 0.275552
0.681029 0.331391 0.281584
0.202026 0.373340 0.264055
0.285758 0.382863 0.269521
0.368521 0.393045 0.275359
0.459327 0.403705 0.281400
0.574452 0.414595 0.287476
0.727652 0.425471 0.293414
0.225091 0.473474 0.275157
0.308862 0.486265 0.281198
0.392498 0.499507 0.287251
0.487830 0.512963 0.293235
0.611037 0.526217 0.298922
0.772475 0.538900 0.304194
0.248790 0.606730 0.287035
0.331501 0.624139 0.293029
0.415923 0.641314 0.298730
0.515369 0.657769 0.304013
0.644565 0.672856 0.308744
0.809675 0.685949 0.312738
0.101831 0.094983 0.302222
0.191917 0.105976 0.307185
0.288992 0.119561 0.313708
0.386063 0.135402 0.321968
0.484578 0.146091 0.327920
0.605284 0.153844 0.332433
0.144675 0.188936 0.313479
0.242067 0.205649 0.321666
0.329130 0.217204 0.327801
0.412530 0.225317 0.332284
0.512264 0.234355 0.337380
0.644801 0.244028 0.342957
0.185200 0.289117 0.327667
0.267906 0.296956 0.332115
0.349821 0.305760 0.337221
0.437130 0.315191 0.342800
0.545167 0.325041 0.348675
0.689617 0.335063 0.354727
0.206177 0.376716 0.337034
0.290037 0.386531 0.342597
0.372945 0.396906 0.348479
0.464605 0.407686 0.354553
0.581280 0.418612 0.360622
0.736318 0.429425 0.366569
0.229581 0.478100 0.348263
0.313172 0.491060 0.354341
0.396955 0.504432 0.360423
0.493106 0.517854 0.366386
0.617662 0.530967 0.372071
0.780146 0.543317 0.377283
0.253100 0.613111 0.360210
0.335567 0.630474 0.366174
0.420085 0.647456 0.371859
0.520157 0.663472 0.377105
0.650136 0.677921 0.381749
0.815337 0.690157 0.385597
0.108630 0.098694 0.375073
0.200746 0.110665 0.380803
0.298325 0.125122 0.388236
0.395004 0.141316 0.397399
0.489259 0.148810 0.401971
0.612104 0.156962 0.407090
0.153836 0.194795 0.387946
0.250608 0.211714 0.396991
0.332722 0.220063 0.401847
0.416847 0.228534 0.406920
0.518042 0.237826 0.412663
0.652822 0.247677 0.418907
0.188826 0.291859 0.401682
0.271861 0.300102 0.406732
0.353976 0.309136 0.412478
0.442075 0.318763 0.418721
0.551753 0.328716 0.425341
0.698348 0.338774 0.432129
0.210446 0.380258 0.412285
0.294321 0.390262 0.418512
0.377404 0.400827 0.425112
0.469899 0.411686 0.431920
0.588180 0.422621 0.438755
0.744887 0.433308 0.445429
0.234016 0.482778 0.424879
0.317460 0.495934 0.431691
0.401409 0.509385 0.438528
0.498345 0.522704 0.445227
0.624140 0.535608 0.451597
0.787572 0.547580 0.457410
0.257367 0.619487 0.438302
0.339515 0.636788 0.444984
0.424179 0.653472 0.451368
0.524799 0.668997 0.457227
0.655359 0.682698 0.462311
0.820488 0.693921 0.466455
0.116137 0.102807 0.454848
0.209904 0.115660 0.462206
0.307669 0.130948 0.471796
0.399225 0.144197 0.481018
0.494145 0.151686 0.486564
0.619146 0.160168 0.493063
0.163029 0.200924 0.471467
0.255399 0.215208 0.480839
0.336464 0.223047 0.486407
0.421276 0.231841 0.492888
0.523995 0.241391 0.500154
0.661046 0.251394 0.508037
0.192608 0.294795 0.486204
0.275918 0.303334 0.492663
0.358242 0.312620 0.499899
0.447086 0.322370 0.507771
0.558398 0.332380 0.516074
0.707076 0.342434 0.524607
0.214739 0.383850 0.499656
0.298624 0.394107 0.507509
0.381868 0.404763 0.515770
0.475204 0.415677 0.524310
0.595019 0.426608 0.532848
0.753358 0.437172 0.541148
0.238457 0.487608 0.515536
0.321702 0.500833 0.523992
0.405793 0.514278 0.532544
0.503544 0.527527 0.540884
0.630430 0.540103 0.548735
0.794580 0.551613 0.555812
0.261524 0.625864 0.532245
0.343387 0.643010 0.540598
0.428091 0.659352 0.548459
0.529221 0.674270 0.555588
0.660284 0.687134 0.561687
0.825077 0.697325 0.566450
