example_ofxGpuLutCube/bin/data/ofxGpuLutCube/LUT/V14 (violet fade).cube
LUT_3D_SIZE 16
0.038818 0.000000 0.065033
0.084487 0.001296 0.064626
0.134689 0.002718 0.064233
0.190460 0.004273 0.063757
0.253264 0.005912 0.063143
0.324585 0.007721 0.062480
0.404339 0.009625 0.061774
0.490629 0.011656 0.060986
0.579893 0.013768 0.060169
0.663764 0.015997 0.059265
0.737885 0.018321 0.058339
0.800081 0.020762 0.057350
0.851062 0.023224 0.056372
0.892973 0.025838 0.055306
0.927478 0.028510 0.054263
0.955742 0.031268 0.053167
0.041386 0.043966 0.064268
0.087577 0.045624 0.063757
0.138380 0.047435 0.063178
0.194943 0.049382 0.062510
0.258643 0.051438 0.061795
0.331018 0.053606 0.061013
0.411772 0.055882 0.060191
0.498895 0.058290 0.059299
0.588368 0.060796 0.058366
0.671682 0.063414 0.057384
0.744922 0.066156 0.056401
0.806043 0.068981 0.055338
0.856072 0.071865 0.054288
0.897163 0.074864 0.053170
0.931063 0.077964 0.052091
0.958681 0.081086 0.050988
0.044528 0.092415 0.063182
0.091226 0.094522 0.062541
0.142677 0.096763 0.061827
0.200016 0.099141 0.061039
0.264712 0.101655 0.060218
0.338199 0.104263 0.059330
0.419895 0.106989 0.058409
0.507881 0.109857 0.057428
0.597333 0.112850 0.056417
0.680041 0.115899 0.055398
0.752197 0.119074 0.054305
0.812134 0.122364 0.053227
0.861182 0.125751 0.052105
0.901464 0.129195 0.051017
0.934645 0.132732 0.049882
0.961676 0.136370 0.048778
0.048101 0.146466 0.061835
0.095374 0.149028 0.061072
0.147458 0.151800 0.060245
0.205658 0.154699 0.059363
0.271387 0.157703 0.058441
0.346047 0.160862 0.057477
0.428727 0.164148 0.056464
0.517520 0.167527 0.055415
0.606835 0.171079 0.054341
0.688695 0.174664 0.053259
0.759633 0.178404 0.052160
0.818356 0.182225 0.051067
0.866389 0.186195 0.049914
0.905833 0.190225 0.048785
0.938265 0.194314 0.047667
0.964613 0.198484 0.046551
0.052089 0.207426 0.060266
0.099966 0.210623 0.059403
0.152796 0.214017 0.058472
0.211854 0.217505 0.057511
0.278692 0.221168 0.056492
0.354503 0.224982 0.055446
0.438220 0.228881 0.054382
0.527656 0.232953 0.053296
0.616673 0.237165 0.052180
0.697569 0.241444 0.051091
0.767253 0.245859 0.049955
0.824661 0.250360 0.048835
0.871624 0.255020 0.047699
0.910150 0.259747 0.046573
0.941854 0.264523 0.045467
0.967542 0.269376 0.044384
0.056509 0.277232 0.058502
0.105025 0.281177 0.057526
0.158587 0.285265 0.056523
0.218544 0.289567 0.055491
0.286568 0.294019 0.054402
0.363518 0.298621 0.053328
0.448209 0.303304 0.052226
0.538213 0.308158 0.051131
0.626721 0.313124 0.050010
0.706606 0.318235 0.048865
0.774892 0.323395 0.047736
0.830961 0.328713 0.046609
0.876819 0.334090 0.045504
0.914481 0.339567 0.044395
0.945420 0.345104 0.043338
0.970415 0.350671 0.042272
0.061279 0.357257 0.056586
0.110429 0.362056 0.055520
0.164785 0.366955 0.054458
0.225724 0.372010 0.053375
0.294901 0.377236 0.052269
0.372996 0.382556 0.051159
0.458674 0.388038 0.050036
0.549128 0.393606 0.048926
0.636993 0.399317 0.047773
0.715690 0.405124 0.046645
0.782485 0.410994 0.045528
0.837200 0.416972 0.044444
0.881953 0.422954 0.043374
0.918747 0.429077 0.042307
0.948900 0.435188 0.041268
0.973223 0.441298 0.040288
0.066413 0.446586 0.054492
0.116234 0.452061 0.053406
0.171394 0.457633 0.052301
0.233310 0.463316 0.051193
0.303644 0.469148 0.050085
0.382969 0.475115 0.048956
0.469531 0.481200 0.047805
0.560332 0.487320 0.046691
0.647347 0.493584 0.045572
0.724728 0.499883 0.044473
0.789995 0.506208 0.043401
0.843347 0.512635 0.042342
0.887020 0.519044 0.041309
0.922881 0.525511 0.040301
0.952274 0.531890 0.039353
0.975923 0.538236 0.038454
0.071853 0.542295 0.052347
0.122345 0.548204 0.051215
0.178331 0.554111 0.050109
0.241294 0.560123 0.049000
0.312846 0.566185 0.047848
0.393272 0.572329 0.046734
0.480654 0.578511 0.045606
0.571615 0.584646 0.044516
0.657682 0.590851 0.043428
0.733663 0.597050 0.042384
0.797369 0.603197 0.041334
0.849345 0.609292 0.040352
0.891955 0.615385 0.039386
0.926919 0.621439 0.038452
0.955557 0.627395 0.037583
0.978512 0.633208 0.036800
0.077563 0.636071 0.050159
0.128777 0.641675 0.049034
0.185586 0.647268 0.047885
0.249591 0.652828 0.046765
0.322384 0.658429 0.045647
0.403843 0.664075 0.044542
0.492064 0.669688 0.043469
0.582895 0.675224 0.042410
0.667874 0.680774 0.041380
0.742418 0.686251 0.040387
0.804529 0.691711 0.039414
0.855204 0.697060 0.038497
0.896715 0.702347 0.037610
0.930788 0.707541 0.036802
0.958689 0.712682 0.036479
0.980971 0.717676 0.036469
0.083526 0.719869 0.047943
0.135368 0.724757 0.046826
0.193138 0.729694 0.045675
0.258219 0.734536 0.044582
0.332214 0.739353 0.043509
0.414646 0.744175 0.042450
0.503520 0.748899 0.041416
0.594154 0.753612 0.040421
0.677947 0.758238 0.039458
0.750936 0.762787 0.038534
0.811466 0.767280 0.037648
0.860836 0.771675 0.036823
0.901292 0.775979 0.036493
0.934520 0.780179 0.036469
0.961665 0.784299 0.036469
0.983300 0.788270 0.036469
0.089679 0.790181 0.045726
0.142235 0.794234 0.044643
0.200869 0.798277 0.043523
0.267011 0.802245 0.042485
0.342174 0.806175 0.041438
0.425591 0.810052 0.040456
0.515058 0.813882 0.039490
0.605188 0.817655 0.038568
0.687733 0.821349 0.037685
0.759161 0.824993 0.036852
0.818111 0.828518 0.036504
0.866200 0.832020 0.036469
0.905659 0.835378 0.036469
0.938046 0.838709 0.036469
0.964488 0.841961 0.036469
0.985468 0.845025 0.036469
0.096002 0.846979 0.043549
0.149294 0.850293 0.042515
0.208794 0.853542 0.041439
0.276030 0.856753 0.040491
0.352314 0.859934 0.039514
0.436564 0.863021 0.038589
0.526549 0.866117 0.037726
0.615988 0.869135 0.036869
0.697237 0.872086 0.036512
0.767045 0.874962 0.036469
0.824461 0.877747 0.036469
0.871340 0.880514 0.036469
0.909799 0.883194 0.036469
0.941388 0.885770 0.036469
0.967095 0.888297 0.036469
0.987480 0.890711 0.036469
0.102460 0.892840 0.041485
0.156415 0.895526 0.040497
0.216757 0.898153 0.039551
0.285147 0.900766 0.038611
0.362491 0.903309 0.037725
0.447549 0.905820 0.036918
0.537868 0.908278 0.036509
0.626453 0.910664 0.036469
0.706345 0.913029 0.036469
0.774513 0.915304 0.036469
0.830468 0.917523 0.036469
0.876158 0.919704 0.036469
0.913702 0.921770 0.036469
0.944510 0.923801 0.036469
0.969548 0.925734 0.036469
0.989328 0.927644 0.036469
0.108978 0.929999 0.039579
0.163660 0.932134 0.038637
0.224857 0.934279 0.037754
0.294303 0.936375 0.036936
0.372638 0.938408 0.036494
0.458382 0.940402 0.036469
0.548826 0.942342 0.036469
0.636519 0.944254 0.036469
0.715014 0.946097 0.036469
0.781576 0.947881 0.036469
0.836114 0.949595 0.036469
0.880663 0.951260 0.036469
0.917305 0.952891 0.036469
0.947349 0.954451 0.036469
0.971789 0.955950 0.036469
0.991012 0.957380 0.036469
0.115478 0.959794 0.037759
0.170874 0.961499 0.036968
0.232918 0.963169 0.036474
0.303411 0.964829 0.036469
0.382624 0.966415 0.036469
0.468964 0.967943 0.036469
0.559482 0.969469 0.036469
0.646060 0.970940 0.036469
0.723130 0.972345 0.036469
0.788134 0.973698 0.036469
0.841314 0.975023 0.036469
0.884841 0.976294 0.036469
0.920627 0.977494 0.036469
0.949970 0.978642 0.036469
0.973820 0.979776 0.036469
0.992493 0.980785 0.036469
0.039233 0.000472 0.111556
0.084998 0.001774 0.111143
0.135328 0.003288 0.110632
0.191246 0.004876 0.110053
0.254212 0.006595 0.109401
0.325761 0.008397 0.108652
0.405623 0.010352 0.107846
0.492095 0.012409 0.106959
0.581405 0.014543 0.106038
0.665209 0.016831 0.105040
0.739146 0.019202 0.104007
0.801170 0.021647 0.102932
0.851985 0.024190 0.101830
0.893746 0.026814 0.100690
0.928172 0.029545 0.099489
0.956306 0.032307 0.098323
0.041956 0.044568 0.110655
0.088221 0.046265 0.110056
0.139147 0.048133 0.109432
0.195815 0.050096 0.108676
0.259741 0.052201 0.107859
0.332325 0.054439 0.106993
0.413208 0.056769 0.106068
0.500521 0.059219 0.105072
0.589953 0.061787 0.104050
0.673199 0.064403 0.102961
0.746217 0.067171 0.101863
0.807166 0.070037 0.100719
0.857003 0.072968 0.099548
0.897961 0.076003 0.098349
0.931727 0.079077 0.097147
0.959246 0.082282 0.095894
0.045139 0.093203 0.109462
0.091962 0.095351 0.108701
0.143518 0.097627 0.107895
0.201022 0.100042 0.107033
0.265921 0.102582 0.106117
0.339618 0.105236 0.105113
0.421519 0.108039 0.104096
0.509624 0.110937 0.102994
0.599101 0.113955 0.101895
0.681627 0.117066 0.100758
0.753575 0.120281 0.099562
0.813300 0.123607 0.098381
0.862168 0.127020 0.097178
0.902271 0.130494 0.095952
0.935320 0.134042 0.094739
0.962236 0.137726 0.093485
0.048801 0.147376 0.107909
0.096184 0.150028 0.107062
0.148425 0.152829 0.106150
0.206781 0.155778 0.105137
0.272724 0.158848 0.104111
0.347557 0.162043 0.103026
0.430478 0.165369 0.101932
0.519348 0.168815 0.100805
0.608638 0.172382 0.099600
0.690296 0.176030 0.098438
0.761066 0.179813 0.097210
0.819545 0.183675 0.096005
0.867350 0.187662 0.094769
0.906636 0.191698 0.093537
0.938929 0.195824 0.092287
0.965181 0.200080 0.091083
0.052892 0.208563 0.106161
0.100865 0.211842 0.105172
0.153830 0.215259 0.104140
0.213054 0.218848 0.103066
0.280122 0.222550 0.101969
0.356133 0.226391 0.100835
0.440032 0.230377 0.099653
0.529594 0.234489 0.098463
0.618517 0.238701 0.097245
0.699241 0.243054 0.096041
0.768660 0.247507 0.094813
0.825837 0.252065 0.093573
0.872590 0.256722 0.092324
0.910958 0.261494 0.091119
0.942514 0.266326 0.089915
0.968080 0.271178 0.088727
0.057388 0.278667 0.104170
0.105989 0.282674 0.103105
0.159702 0.286855 0.101996
0.219832 0.291188 0.100875
0.288060 0.295685 0.099694
0.365250 0.300327 0.098503
0.450116 0.305068 0.097294
0.540254 0.309957 0.096075
0.628641 0.314984 0.094836
0.708272 0.320110 0.093609
0.776303 0.325348 0.092384
0.832130 0.330673 0.091170
0.877814 0.336129 0.089964
0.915297 0.341621 0.088760
0.946076 0.347167 0.087597
0.970962 0.352774 0.086490
0.062235 0.359050 0.102027
0.111478 0.363834 0.100906
0.165995 0.368817 0.099723
0.227096 0.373900 0.098531
0.296519 0.379221 0.097336
0.374838 0.384593 0.096097
0.460650 0.390080 0.094861
0.551215 0.395701 0.093651
0.638936 0.401428 0.092427
0.717355 0.407256 0.091207
0.783892 0.413162 0.090002
0.838364 0.419159 0.088815
0.882911 0.425179 0.087654
0.919516 0.431335 0.086503
0.949536 0.437455 0.085401
0.973728 0.443581 0.084344
0.067405 0.448569 0.099768
0.117342 0.454064 0.098567
0.172664 0.459724 0.097364
0.234773 0.465426 0.096147
0.305366 0.471388 0.094909
0.384841 0.477336 0.093697
0.471573 0.483465 0.092473
0.562401 0.489603 0.091261
0.649261 0.495863 0.090050
0.726396 0.502230 0.088851
0.791378 0.508579 0.087685
0.844481 0.514948 0.086550
0.887951 0.521376 0.085438
0.923658 0.527826 0.084361
0.952904 0.534238 0.083345
0.976413 0.540576 0.082363
0.072895 0.544457 0.097423
0.123517 0.550337 0.096191
0.179669 0.556320 0.094942
0.242817 0.562350 0.093739
0.314643 0.568453 0.092520
0.395211 0.574600 0.091288
0.482771 0.580752 0.090090
0.573723 0.586915 0.088890
0.659591 0.593097 0.087714
0.735322 0.599307 0.086583
0.798732 0.605426 0.085471
0.850463 0.611528 0.084396
0.892855 0.617602 0.083372
0.927655 0.623613 0.082394
0.956147 0.629546 0.081473
0.978986 0.635352 0.080779
0.078674 0.638129 0.095002
0.129972 0.643738 0.093758
0.186977 0.649297 0.092552
0.251177 0.654914 0.091335
0.324212 0.660486 0.090134
0.405855 0.666130 0.088926
0.494171 0.671740 0.087755
0.584994 0.677281 0.086616
0.669796 0.682822 0.085504
0.744033 0.688248 0.084444
0.805847 0.693699 0.083394
0.856266 0.699002 0.082410
0.897591 0.704251 0.081492
0.931520 0.709476 0.080791
0.959254 0.714512 0.080584
0.981426 0.719470 0.080583
0.084663 0.721678 0.092586
0.136679 0.726597 0.091373
0.194525 0.731455 0.090171
0.259831 0.736299 0.088978
0.334044 0.741115 0.087809
0.416705 0.745921 0.086655
0.505686 0.750669 0.085549
0.596199 0.755329 0.084483
0.679771 0.759902 0.083426
0.752502 0.764444 0.082453
0.812728 0.768922 0.081519
0.861868 0.773264 0.080795
0.902127 0.777520 0.080586
0.935192 0.781669 0.080583
0.962211 0.785738 0.080583
0.983711 0.789701 0.080583
0.090848 0.791690 0.090204
0.143529 0.795716 0.089032
0.202321 0.799738 0.087830
0.268700 0.803709 0.086693
0.344066 0.807580 0.085574
0.427642 0.811478 0.084499
0.517214 0.815287 0.083481
0.607239 0.819029 0.082482
0.689538 0.822696 0.081552
0.760680 0.826300 0.080798
0.819336 0.829828 0.080590
0.867199 0.833264 0.080583
0.906447 0.836617 0.080583
0.938687 0.839890 0.080583
0.964976 0.843086 0.080583
0.985855 0.846161 0.080583
0.097204 0.848196 0.087865
0.150581 0.851458 0.086723
0.210263 0.854747 0.085607
0.277710 0.857928 0.084534
0.354216 0.861069 0.083512
0.438632 0.864167 0.082511
0.528668 0.867234 0.081579
0.617987 0.870203 0.080800
0.698961 0.873126 0.080596
0.768494 0.876005 0.080583
0.825610 0.878784 0.080583
0.872262 0.881524 0.080583
0.910534 0.884146 0.080583
0.941975 0.886711 0.080583
0.967592 0.889221 0.080583
0.987835 0.891581 0.080583
0.103631 0.893835 0.085665
0.157773 0.896490 0.084562
0.218320 0.899114 0.083543
0.286860 0.901698 0.082539
0.364381 0.904247 0.081613
0.449562 0.906714 0.080798
0.539916 0.909155 0.080594
0.628371 0.911538 0.080583
0.707983 0.913874 0.080583
0.775890 0.916121 0.080583
0.831537 0.918325 0.080583
0.877038 0.920479 0.080583
0.914390 0.922540 0.080583
0.945038 0.924516 0.080583
0.969973 0.926441 0.080583
0.989669 0.928290 0.080583
0.110207 0.930794 0.083574
0.164995 0.932924 0.082591
0.226376 0.935020 0.081644
0.296029 0.937130 0.080798
0.374519 0.939161 0.080592
0.460381 0.941121 0.080583
0.550914 0.943049 0.080583
0.638323 0.944921 0.080583
0.716544 0.946750 0.080583
0.782852 0.948514 0.080583
0.837104 0.950237 0.080583
0.881497 0.951885 0.080583
0.917949 0.953469 0.080583
0.947886 0.955021 0.080583
0.972200 0.956467 0.080583
0.991298 0.957861 0.080583
0.116706 0.960424 0.081682
0.172232 0.962129 0.080780
0.234448 0.963775 0.080584
0.305098 0.965427 0.080583
0.384460 0.966982 0.080583
0.470930 0.968540 0.080583
0.561398 0.970006 0.080583
0.647801 0.971448 0.080583
0.724591 0.972866 0.080583
0.789314 0.974190 0.080583
0.842251 0.975497 0.080583
0.885583 0.976737 0.080583
0.921201 0.977936 0.080583
0.950450 0.979078 0.080583
0.974173 0.980158 0.080583
0.992746 0.981164 0.080583
0.039710 0.000922 0.162677
0.085574 0.002338 0.162197
0.135978 0.003854 0.161590
0.192049 0.005481 0.160932
0.255166 0.007235 0.160158
0.326908 0.009089 0.159318
0.406984 0.011074 0.158388
0.493636 0.013186 0.157393
0.582967 0.015385 0.156343
0.666677 0.017674 0.155230
0.740458 0.020080 0.154066
0.802273 0.022559 0.152869
0.852918 0.025122 0.151628
0.894515 0.027810 0.150352
0.928838 0.030553 0.149028
0.956843 0.033350 0.147704
0.042522 0.045175 0.161621
0.088886 0.046958 0.160967
0.139939 0.048837 0.160171
0.196745 0.050871 0.159331
0.260833 0.053016 0.158404
0.333616 0.055257 0.157423
0.414700 0.057655 0.156379
0.502156 0.060115 0.155263
0.591615 0.062713 0.154114
0.674754 0.065400 0.152904
0.747563 0.068190 0.151681
0.808300 0.071103 0.150391
0.857938 0.074053 0.149084
0.898762 0.077090 0.147759
0.932391 0.080268 0.146421
0.959810 0.083458 0.145067
0.045775 0.093969 0.160203
0.092699 0.096159 0.159363
0.144429 0.098498 0.158433
0.202033 0.100968 0.157450
0.267143 0.103550 0.156413
0.341032 0.106254 0.155313
0.423147 0.109092 0.154158
0.511410 0.112021 0.152953
0.600816 0.115094 0.151721
0.683219 0.118219 0.150443
0.754942 0.121476 0.149142
0.814456 0.124837 0.147805
0.863111 0.128272 0.146476
0.903095 0.131804 0.145125
0.936004 0.135374 0.143781
0.962781 0.139051 0.142402
0.049529 0.148346 0.158464
0.097014 0.151055 0.157495
0.149412 0.153895 0.156452
0.207907 0.156912 0.155352
0.274049 0.160005 0.154190
0.349118 0.163249 0.153001
0.432250 0.166631 0.151765
0.521237 0.170110 0.150480
0.610448 0.173702 0.149184
0.691955 0.177393 0.147859
0.762473 0.181233 0.146513
0.820714 0.185128 0.145165
0.868338 0.189129 0.143816
0.907456 0.193206 0.142453
0.939600 0.197382 0.141116
0.965718 0.201638 0.139770
0.053683 0.209768 0.156493
0.101792 0.213059 0.155386
0.154896 0.216546 0.154253
0.214296 0.220189 0.153035
0.281570 0.223963 0.151792
0.357797 0.227834 0.150529
0.441874 0.231853 0.149219
0.531562 0.236012 0.147896
0.620392 0.240304 0.146556
0.700936 0.244678 0.145206
0.770091 0.249178 0.143866
0.827012 0.253747 0.142511
0.873549 0.258487 0.141152
0.911777 0.263249 0.139823
0.943183 0.268088 0.138502
0.968636 0.273040 0.137221
0.058242 0.280110 0.154271
0.106977 0.284215 0.153070
0.160860 0.288418 0.151846
0.221179 0.292835 0.150565
0.289589 0.297346 0.149259
0.366992 0.302044 0.147937
0.452062 0.306842 0.146603
0.542284 0.311803 0.145255
0.630582 0.316870 0.143898
0.709972 0.322017 0.142546
0.777722 0.327279 0.141209
0.833292 0.332650 0.139855
0.878742 0.338126 0.138543
0.916068 0.343637 0.137249
0.946722 0.349239 0.135976
0.971488 0.354818 0.134755
0.063181 0.360772 0.151885
0.112545 0.365631 0.150601
0.167230 0.370659 0.149313
0.228508 0.375798 0.147988
0.298109 0.381143 0.146639
0.376682 0.386560 0.145298
0.462666 0.392122 0.143947
0.553286 0.397791 0.142598
0.640847 0.403539 0.141253
0.719054 0.409424 0.139896
0.785280 0.415353 0.138596
0.839503 0.421353 0.137303
0.883871 0.427455 0.136016
0.920290 0.433560 0.134787
0.950162 0.439689 0.133604
0.974249 0.445839 0.132442
0.068414 0.450571 0.149351
0.118461 0.456136 0.148027
0.173953 0.461814 0.146692
0.236254 0.467584 0.145347
0.307080 0.473556 0.143985
0.386754 0.479582 0.142643
0.473652 0.485709 0.141293
0.564539 0.491870 0.139958
0.651184 0.498186 0.138647
0.728060 0.504556 0.137333
0.792774 0.510909 0.136056
0.845620 0.517308 0.134840
0.888850 0.523723 0.133637
0.924412 0.530170 0.132474
0.953509 0.536577 0.131363
0.976915 0.542914 0.130315
0.073950 0.546600 0.146742
0.124689 0.552532 0.145391
0.181002 0.558514 0.144026
0.244343 0.564584 0.142689
0.316390 0.570722 0.141332
0.397164 0.576840 0.140001
0.484886 0.583020 0.138681
0.575820 0.589186 0.137382
0.661495 0.595369 0.136113
0.736965 0.601542 0.134879
0.800061 0.607662 0.133670
0.851579 0.613762 0.132518
0.893740 0.619792 0.131417
0.928389 0.625786 0.130333
0.956721 0.631681 0.129333
0.979444 0.637476 0.128803
0.079767 0.640175 0.144071
0.131219 0.645765 0.142732
0.188349 0.651348 0.141378
0.252764 0.656958 0.140046
0.326025 0.662594 0.138716
0.407850 0.668185 0.137418
0.496290 0.673764 0.136150
0.587102 0.679315 0.134911
0.671668 0.684818 0.133714
0.745635 0.690284 0.132555
0.807158 0.695666 0.131446
0.857319 0.700958 0.130389
0.898433 0.706184 0.129379
0.932218 0.711353 0.128827
0.959808 0.716363 0.128739
0.981865 0.721246 0.128739
0.085791 0.723470 0.141434
0.137957 0.728386 0.140083
0.195960 0.733244 0.138763
0.261453 0.738063 0.137462
0.335885 0.742878 0.136202
0.418719 0.747680 0.134953
0.507856 0.752381 0.133751
0.598266 0.757021 0.132588
0.681666 0.761617 0.131474
0.754038 0.766094 0.130419
0.813988 0.770521 0.129405
0.862862 0.774811 0.128843
0.902945 0.779078 0.128739
0.935875 0.783194 0.128739
0.962741 0.787222 0.128739
0.984114 0.791109 0.128739
0.092012 0.793163 0.138812
0.144862 0.797195 0.137523
0.203764 0.801210 0.136238
0.270372 0.805133 0.134999
0.345925 0.809021 0.133796
0.429725 0.812884 0.132631
0.519366 0.816659 0.131518
0.609247 0.820373 0.130457
0.691328 0.824027 0.129445
0.762145 0.827595 0.128847
0.820522 0.831118 0.128739
0.868155 0.834503 0.128739
0.907235 0.837842 0.128739
0.939331 0.841066 0.128739
0.965497 0.844217 0.128739
0.986235 0.847249 0.128739
0.098394 0.849420 0.136267
0.151905 0.852655 0.135021
0.211732 0.855919 0.133817
0.279422 0.859081 0.132660
0.356095 0.862211 0.131548
0.440665 0.865308 0.130492
0.530736 0.868320 0.129459
0.619934 0.871285 0.128836
0.700676 0.874187 0.128739
0.769893 0.877024 0.128739
0.826740 0.879798 0.128739
0.873180 0.882495 0.128739
0.911287 0.885092 0.128739
0.942578 0.887621 0.128739
0.968042 0.890097 0.128739
0.988201 0.892431 0.128739
0.104860 0.894826 0.133865
0.159130 0.897456 0.132712
0.219817 0.900066 0.131580
0.288556 0.902633 0.130524
0.366263 0.905147 0.129497
0.451613 0.907627 0.128815
0.541986 0.910016 0.128739
0.630271 0.912414 0.128739
0.709594 0.914717 0.128739
0.777209 0.916935 0.128739
0.832595 0.919110 0.128739
0.877899 0.921231 0.128739
0.915069 0.923278 0.128739
0.945603 0.925268 0.128739
0.970415 0.927166 0.128739
0.989972 0.928966 0.128739
0.111383 0.931587 0.131610
0.166353 0.933712 0.130558
0.227927 0.935831 0.129501
0.297720 0.937871 0.128783
0.376387 0.939866 0.128739
0.462390 0.941826 0.128739
0.552887 0.943720 0.128739
0.640167 0.945616 0.128739
0.718087 0.947388 0.128739
0.784087 0.949139 0.128739
0.838105 0.950826 0.128739
0.882301 0.952465 0.128739
0.918586 0.954038 0.128739
0.948381 0.955568 0.128739
0.972583 0.956976 0.128739
0.991584 0.958366 0.128739
0.117935 0.961057 0.129557
0.173565 0.962731 0.128747
0.235924 0.964371 0.128739
0.306783 0.966000 0.128739
0.386280 0.967571 0.128739
0.472863 0.969079 0.128739
0.563353 0.970548 0.128739
0.649513 0.971982 0.128739
0.726034 0.973355 0.128739
0.790478 0.974677 0.128739
0.843156 0.975942 0.128739
0.886300 0.977178 0.128739
0.921808 0.978349 0.128739
0.950903 0.979465 0.128739
0.974520 0.980535 0.128739
0.992999 0.981513 0.128739
0.040210 0.001453 0.219464
0.086141 0.002826 0.218886
0.136703 0.004430 0.218181
0.192870 0.006097 0.217375
0.256200 0.007902 0.216496
0.328127 0.009831 0.215535
0.408349 0.011846 0.214479
0.495140 0.013988 0.213323
0.584518 0.016218 0.212122
0.668135 0.018556 0.210883
0.741767 0.020980 0.209538
0.803375 0.023504 0.208223
0.853828 0.026116 0.206793
0.895312 0.028774 0.205356
0.929474 0.031587 0.203870
0.957379 0.034392 0.202431
0.043067 0.045806 0.218189
0.089557 0.047611 0.217425
0.140721 0.049568 0.216505
0.197690 0.051640 0.215564
0.261978 0.053807 0.214503
0.334956 0.056115 0.213372
0.416223 0.058543 0.212181
0.503840 0.061087 0.210914
0.593309 0.063685 0.209610
0.676309 0.066429 0.208248
0.748921 0.069244 0.206858
0.809430 0.072175 0.205394
0.858923 0.075160 0.203929
0.899580 0.078233 0.202479
0.933065 0.081443 0.200980
0.960348 0.084636 0.199444
0.046447 0.094771 0.216555
0.093467 0.096978 0.215604
0.145310 0.099400 0.214537
0.203091 0.101901 0.213406
0.268390 0.104536 0.212226
0.342511 0.107273 0.210951
0.424783 0.110160 0.209651
0.513194 0.113136 0.208290
0.602578 0.116213 0.206894
0.684838 0.119424 0.205441
0.756327 0.122685 0.203990
0.815599 0.126101 0.202514
0.864093 0.129550 0.201019
0.903897 0.133115 0.199494
0.936681 0.136720 0.198017
0.963319 0.140439 0.196499
0.050264 0.149336 0.214572
0.097866 0.152072 0.213440
0.150388 0.154985 0.212261
0.209082 0.158006 0.210984
0.275403 0.161198 0.209693
0.350694 0.164472 0.208334
0.433991 0.167881 0.206928
0.523113 0.171405 0.205503
0.612283 0.175065 0.204045
0.693626 0.178807 0.202568
0.763904 0.182632 0.201073
0.821897 0.186591 0.199547
0.869289 0.190625 0.198052
0.908243 0.194740 0.196552
0.940269 0.198928 0.195060
0.966275 0.203211 0.193597
0.054492 0.210973 0.212302
0.102712 0.214341 0.211053
0.155968 0.217859 0.209739
0.215567 0.221546 0.208375
0.283014 0.225354 0.206962
0.359484 0.229302 0.205540
0.443715 0.233351 0.204088
0.533520 0.237580 0.202609
0.622271 0.241890 0.201116
0.702596 0.246298 0.199616
0.771523 0.250863 0.198106
0.828198 0.255470 0.196596
0.874521 0.260195 0.195102
0.912600 0.265008 0.193644
0.943843 0.269892 0.192171
0.969172 0.274911 0.190747
0.059133 0.281573 0.209764
0.107989 0.285730 0.208422
0.162007 0.290000 0.207027
0.222527 0.294482 0.205580
0.291143 0.299055 0.204128
0.368756 0.303766 0.202665
0.453998 0.308626 0.201164
0.544316 0.313629 0.199673
0.632470 0.318743 0.198142
0.711666 0.323957 0.196638
0.779147 0.329253 0.195158
0.834453 0.334636 0.193684
0.879705 0.340164 0.192210
0.916852 0.345670 0.190772
0.947355 0.351293 0.189380
0.972018 0.356957 0.188020
0.064128 0.362533 0.207059
0.113624 0.367456 0.205634
0.168438 0.372527 0.204201
0.229888 0.377738 0.202706
0.299764 0.383101 0.201213
0.378519 0.388607 0.199712
0.464685 0.394183 0.198197
0.555404 0.399900 0.196691
0.642777 0.405696 0.195204
0.720726 0.411585 0.193731
0.786707 0.417540 0.192264
0.840660 0.423584 0.190835
0.884823 0.429707 0.189446
0.921059 0.435808 0.188078
0.950797 0.441985 0.186762
0.974754 0.448137 0.185504
0.069436 0.452611 0.204239
0.119623 0.458203 0.202751
0.175234 0.463948 0.201260
0.237741 0.469750 0.199775
0.308788 0.475735 0.198239
0.388674 0.481804 0.196744
0.475695 0.487978 0.195257
0.566624 0.494178 0.193787
