example_ofxGpuLutCube/bin/data/ofxGpuLutCube/LUT/V14 (violet fade).cube
LUT_3D_SIZE 6
0.038818 0.000000 0.065033
0.190460 0.004273 0.063757
0.404339 0.009625 0.061774
0.663764 0.015997 0.059265
0.851062 0.023224 0.056372
0.955742 0.031268 0.053167
0.048101 0.146466 0.061835
0.205658 0.154699 0.059363
0.428727 0.164148 0.056464
0.688695 0.174664 0.053259
0.866389 0.186195 0.049914
0.964613 0.198484 0.046551
0.061279 0.357257 0.056586
0.225724 0.372010 0.053375
0.458674 0.388038 0.050036
0.715690 0.405124 0.046645
0.881953 0.422954 0.043374
0.973223 0.441298 0.040288
0.077563 0.636071 0.050159
0.249591 0.652828 0.046765
0.492064 0.669688 0.043469
0.742418 0.686251 0.040387
0.896715 0.702347 0.037610
0.980971 0.717676 0.036469
0.096002 0.846979 0.043549
0.276030 0.856753 0.040491
0.526549 0.866117 0.037726
0.767045 0.874962 0.036469
0.909799 0.883194 0.036469
0.987480 0.890711 0.036469
0.115478 0.959794 0.037759
0.303411 0.964829 0.036469
0.559482 0.969469 0.036469
0.788134 0.973698 0.036469
0.920627 0.977494 0.036469
0.992493 0.980785 0.036469
0.040210 0.001453 0.219464
0.192870 0.006097 0.217375
0.408349 0.011846 0.214479
0.668135 0.018556 0.210883
0.853828 0.026116 0.206793
0.957379 0.034392 0.202431
0.050264 0.149336 0.214572
0.209082 0.158006 0.210984
0.433991 0.167881 0.206928
0.693626 0.178807 0.202568
0.869289 0.190625 0.198052
0.966275 0.203211 0.193597
0.064128 0.362533 0.207059
0.229888 0.377738 0.202706
0.464685 0.394183 0.198197
0.720726 0.411585 0.193731
0.884823 0.429707 0.189446
0.974754 0.448137 0.185504
0.080872 0.642189 0.198384
0.254376 0.659027 0.193877
0.498435 0.675807 0.189582
0.747231 0.692259 0.185612
0.899288 0.708070 0.182254
0.982310 0.723024 0.181836
0.099596 0.850595 0.189713
0.281120 0.860239 0.185736
0.532882 0.869415 0.182287
0.771278 0.878049 0.181836
0.911995 0.886046 0.181836
0.988533 0.893296 0.181836
0.119158 0.961658 0.182365
0.308421 0.966572 0.181836
0.565239 0.971068 0.181836
0.791620 0.975151 0.181836
0.922363 0.978742 0.181836
0.993246 0.981885 0.181836
0.041748 0.003021 0.433526
0.195479 0.008093 0.430247
0.412677 0.014210 0.425885
0.672668 0.021217 0.420707
0.856673 0.029064 0.414954
0.959041 0.037620 0.408830
0.052584 0.152383 0.426066
0.212611 0.161501 0.420886
0.439368 0.171764 0.415136
0.698638 0.183041 0.409026
0.872238 0.195160 0.402771
0.967909 0.207964 0.396653
0.067047 0.367956 0.415335
0.234245 0.383664 0.409220
0.470815 0.400461 0.402982
0.725767 0.418141 0.396845
0.887618 0.436414 0.391033
0.976237 0.454989 0.385783
0.084255 0.648359 0.403186
0.259229 0.665192 0.397042
0.504889 0.681876 0.391228
0.751942 0.698140 0.385953
0.901820 0.713693 0.382561
0.983569 0.728259 0.382544
0.103196 0.854164 0.391415
0.286218 0.863658 0.386111
0.539160 0.872659 0.382590
0.775391 0.881055 0.382544
0.914133 0.888788 0.382544
0.989527 0.895762 0.382544
0.122801 0.963509 0.382549
0.313476 0.968274 0.382544
0.570827 0.972621 0.382544
0.794941 0.976524 0.382544
0.924010 0.979976 0.382544
0.993967 0.982913 0.382544
0.043457 0.004742 0.679016
0.198292 0.010211 0.675659
0.417218 0.016662 0.671368
0.677292 0.024035 0.666361
0.859512 0.032129 0.660801
0.960703 0.040885 0.654886
0.055031 0.155579 0.671535
0.216350 0.165169 0.666522
0.444926 0.175794 0.660986
0.703654 0.187371 0.655099
0.875141 0.199783 0.649088
0.969513 0.212864 0.643161
0.070088 0.373605 0.661167
0.238675 0.389678 0.655278
0.477036 0.406865 0.649277
0.730799 0.424804 0.643366
0.890371 0.443223 0.637783
0.977683 0.461777 0.632799
0.087666 0.654531 0.649495
0.264147 0.671359 0.643573
0.511373 0.687905 0.637957
0.756559 0.703948 0.632925
0.904274 0.719162 0.631262
0.984792 0.733372 0.631262
0.106864 0.857722 0.638121
0.291360 0.867017 0.633082
0.545327 0.875809 0.631262
0.779364 0.883974 0.631262
0.916164 0.891450 0.631262
0.990473 0.898132 0.631262
0.126434 0.965306 0.631262
0.318439 0.969926 0.631262
0.576220 0.974107 0.631262
0.798070 0.977859 0.631262
0.925521 0.981107 0.631262
0.994598 0.983843 0.631262
0.045300 0.006622 0.852185
0.201278 0.012472 0.849989
0.421959 0.019275 0.847263
0.682036 0.026899 0.844177
0.862387 0.035276 0.840775
0.962352 0.044284 0.837201
0.057577 0.158959 0.847378
0.220221 0.168938 0.844296
0.450657 0.179923 0.840881
0.708753 0.191834 0.837319
0.878041 0.204495 0.833700
0.971084 0.217756 0.830191
0.073200 0.379374 0.840993
0.243241 0.395914 0.837434
0.483319 0.413356 0.833826
0.735755 0.431489 0.830301
0.893095 0.450020 0.827017
0.979119 0.468659 0.824329
0.091188 0.660748 0.833935
0.269107 0.677456 0.830413
0.517797 0.693856 0.827103
0.761075 0.709620 0.824387
0.906672 0.724512 0.824176
0.985953 0.738277 0.824176
0.110497 0.861180 0.827213
0.296447 0.870311 0.824350
0.551469 0.878891 0.824176
0.783183 0.886792 0.824176
0.918120 0.893968 0.824176
0.991380 0.900386 0.824176
0.130016 0.967042 0.824176
0.323304 0.971517 0.824176
0.581447 0.975535 0.824176
0.801072 0.979099 0.824176
0.926959 0.982185 0.824176
0.995228 0.984730 0.824176
0.047299 0.008664 0.951566
0.204414 0.014858 0.950203
0.426890 0.021980 0.948572
0.686888 0.029884 0.946721
0.865321 0.038502 0.944724
0.964047 0.047708 0.942680
0.060256 0.162434 0.948615
0.224243 0.172850 0.946770
0.456504 0.184205 0.944793
0.713803 0.196387 0.942724
0.880905 0.209292 0.940661
0.972658 0.222771 0.938684
0.076374 0.385262 0.944833
0.247860 0.402205 0.942784
0.489694 0.419965 0.940735
0.740633 0.438237 0.938741
0.895749 0.456834 0.936929
0.980492 0.475404 0.935955
0.094727 0.666866 0.940795
0.274171 0.683530 0.938812
0.524175 0.699692 0.936990
0.765455 0.715172 0.935955
0.908957 0.729711 0.935955
0.987076 0.743098 0.935955
0.114173 0.864594 0.937044
0.301538 0.873507 0.935955
0.557376 0.881856 0.935955
0.786860 0.889518 0.935955
0.919953 0.896426 0.935955
0.992229 0.902503 0.935955
0.133569 0.968744 0.935955
0.328082 0.973035 0.935955
0.586484 0.976893 0.935955
0.803877 0.980256 0.935955
0.928294 0.983155 0.935955
0.995706 0.985554 0.935955
