example_ofxGpuLutCube/bin/data/ofxGpuLutCube/LUT/V15 (B&W).cube
LUT_3D_SIZE 6
0.039612 0.039612 0.039612
0.070557 0.070557 0.070557
0.101672 0.101672 0.101672
0.144342 0.144342 0.144342
0.203040 0.203040 0.203040
0.265010 0.265010 0.265010
0.100544 0.100544 0.100544
0.142917 0.142917 0.142917
0.200866 0.200866 0.200866
0.263012 0.263012 0.263012
0.318653 0.318653 0.318653
0.367486 0.367486 0.367486
0.198724 0.198724 0.198724
0.260975 0.260975 0.260975
0.316834 0.316834 0.316834
0.366134 0.366134 0.366134
0.410299 0.410299 0.410299
0.452046 0.452046 0.452046
0.315045 0.315045 0.315045
0.364542 0.364542 0.364542
0.408978 0.408978 0.408978
0.450758 0.450758 0.450758
0.492863 0.492863 0.492863
0.537729 0.537729 0.537729
0.407550 0.407550 0.407550
0.449414 0.449414 0.449414
0.491461 0.491461 0.491461
0.536210 0.536210 0.536210
0.585593 0.585593 0.585593
0.638688 0.638688 0.638688
0.489916 0.489916 0.489916
0.534577 0.534577 0.534577
0.583622 0.583622 0.583622
0.636786 0.636786 0.636786
0.689892 0.689892 0.689892
0.739032 0.739032 0.739032
0.052783 0.052783 0.052783
0.080900 0.080900 0.080900
0.115674 0.115674 0.115674
0.164183 0.164183 0.164183
0.226384 0.226384 0.226384
0.286041 0.286041 0.286041
0.114408 0.114408 0.114408
0.162420 0.162420 0.162420
0.224307 0.224307 0.224307
0.284170 0.284170 0.284170
0.337267 0.337267 0.337267
0.384246 0.384246 0.384246
0.222221 0.222221 0.222221
0.282232 0.282232 0.282232
0.335550 0.335550 0.335550
0.382783 0.382783 0.382783
0.425862 0.425862 0.425862
0.467300 0.467300 0.467300
0.333881 0.333881 0.333881
0.381265 0.381265 0.381265
0.424434 0.424434 0.424434
0.466083 0.466083 0.466083
0.508885 0.508885 0.508885
0.555290 0.555290 0.555290
0.423013 0.423013 0.423013
0.464675 0.464675 0.464675
0.507411 0.507411 0.507411
0.553750 0.553750 0.553750
0.604822 0.604822 0.604822
0.658320 0.658320 0.658320
0.505795 0.505795 0.505795
0.551961 0.551961 0.551961
0.602911 0.602911 0.602911
0.656428 0.656428 0.656428
0.708467 0.708467 0.708467
0.755409 0.755409 0.755409
0.063672 0.063672 0.063672
0.092408 0.092408 0.092408
0.131567 0.131567 0.131567
0.186217 0.186217 0.186217
0.249079 0.249079 0.249079
0.306223 0.306223 0.306223
0.130133 0.130133 0.130133
0.184165 0.184165 0.184165
0.247007 0.247007 0.247007
0.304452 0.304452 0.304452
0.355130 0.355130 0.355130
0.400269 0.400269 0.400269
0.244976 0.244976 0.244976
0.302641 0.302641 0.302641
0.353519 0.353519 0.353519
0.398889 0.398889 0.398889
0.441085 0.441085 0.441085
0.482840 0.482840 0.482840
0.351968 0.351968 0.351968
0.397459 0.397459 0.397459
0.439694 0.439694 0.439694
0.481478 0.481478 0.481478
0.525474 0.525474 0.525474
0.573521 0.573521 0.573521
0.438302 0.438302 0.438302
0.480049 0.480049 0.480049
0.523941 0.523941 0.523941
0.571986 0.571986 0.571986
0.624383 0.624383 0.624383
0.677734 0.677734 0.677734
0.522209 0.522209 0.522209
0.570040 0.570040 0.570040
0.622441 0.622441 0.622441
0.675901 0.675901 0.675901
0.726455 0.726455 0.726455
0.770749 0.770749 0.770749
0.073248 0.073248 0.073248
0.105278 0.105278 0.105278
0.149514 0.149514 0.149514
0.209458 0.209458 0.209458
0.270888 0.270888 0.270888
0.325441 0.325441 0.325441
0.147892 0.147892 0.147892
0.207336 0.207336 0.207336
0.268849 0.268849 0.268849
0.323730 0.323730 0.323730
0.372239 0.372239 0.372239
0.415976 0.415976 0.415976
0.266992 0.266992 0.266992
0.322001 0.322001 0.322001
0.370679 0.370679 0.370679
0.414620 0.414620 0.414620
0.456311 0.456311 0.456311
0.498548 0.498548 0.498548
0.369156 0.369156 0.369156
0.413194 0.413194 0.413194
0.454938 0.454938 0.454938
0.497241 0.497241 0.497241
0.542537 0.542537 0.542537
0.592461 0.592461 0.592461
0.453552 0.453552 0.453552
0.495733 0.495733 0.495733
0.540944 0.540944 0.540944
0.590812 0.590812 0.590812
0.644122 0.644122 0.644122
0.696724 0.696724 0.696724
0.539171 0.539171 0.539171
0.588871 0.588871 0.588871
0.642112 0.642112 0.642112
0.694939 0.694939 0.694939
0.743575 0.743575 0.743575
0.784985 0.784985 0.784985
0.083875 0.083875 0.083875
0.119801 0.119801 0.119801
0.170005 0.170005 0.170005
0.232649 0.232649 0.232649
0.291712 0.291712 0.291712
0.343840 0.343840 0.343840
0.168113 0.168113 0.168113
0.230578 0.230578 0.230578
0.289814 0.289814 0.289814
0.342219 0.342219 0.342219
0.388675 0.388675 0.388675
0.431324 0.431324 0.431324
0.287968 0.287968 0.287968
0.340597 0.340597 0.340597
0.387176 0.387176 0.387176
0.429975 0.429975 0.429975
0.471622 0.471622 0.471622
0.514831 0.514831 0.514831
0.385829 0.385829 0.385829
0.428553 0.428553 0.428553
0.470225 0.470225 0.470225
0.513407 0.513407 0.513407
0.560358 0.560358 0.560358
0.611780 0.611780 0.611780
0.468774 0.468774 0.468774
0.511854 0.511854 0.511854
0.558662 0.558662 0.558662
0.610111 0.610111 0.610111
0.663708 0.663708 0.663708
0.715157 0.715157 0.715157
0.556818 0.556818 0.556818
0.608193 0.608193 0.608193
0.661782 0.661782 0.661782
0.713486 0.713486 0.713486
0.759704 0.759704 0.759704
0.797910 0.797910 0.797910
0.095775 0.095775 0.095775
0.136124 0.136124 0.136124
0.192413 0.192413 0.192413
0.255151 0.255151 0.255151
0.311542 0.311542 0.311542
0.361318 0.361318 0.361318
0.190296 0.190296 0.190296
0.253031 0.253031 0.253031
0.309793 0.309793 0.309793
0.359799 0.359799 0.359799
0.404625 0.404625 0.404625
0.446508 0.446508 0.446508
0.308000 0.308000 0.308000
0.358257 0.358257 0.358257
0.403205 0.403205 0.403205
0.445167 0.445167 0.445167
0.487108 0.487108 0.487108
0.531501 0.531501 0.531501
0.401811 0.401811 0.401811
0.443877 0.443877 0.443877
0.485649 0.485649 0.485649
0.530011 0.530011 0.530011
0.578751 0.578751 0.578751
0.631533 0.631533 0.631533
0.484350 0.484350 0.484350
0.528412 0.528412 0.528412
0.576993 0.576993 0.576993
0.629782 0.629782 0.629782
0.682938 0.682938 0.682938
0.732734 0.732734 0.732734
0.575008 0.575008 0.575008
0.627778 0.627778 0.627778
0.681185 0.681185 0.681185
0.731148 0.731148 0.731148
0.774768 0.774768 0.774768
0.809464 0.809464 0.809464
