example_ofxGpuLutCube/bin/data/ofxGpuLutCube/LUT/V15 (B&W).cube
LUT_3D_SIZE 16
0.039612 0.039612 0.039612
0.051611 0.051611 0.051611
0.062056 0.062056 0.062056
0.070557 0.070557 0.070557
0.079907 0.079907 0.079907
0.090169 0.090169 0.090169
0.101672 0.101672 0.101672
0.114376 0.114376 0.114376
0.128524 0.128524 0.128524
0.144342 0.144342 0.144342
0.162242 0.162242 0.162242
0.182100 0.182100 0.182100
0.203040 0.203040 0.203040
0.224300 0.224300 0.224300
0.244983 0.244983 0.244983
0.265010 0.265010 0.265010
0.061784 0.061784 0.061784
0.070243 0.070243 0.070243
0.079537 0.079537 0.079537
0.089918 0.089918 0.089918
0.101274 0.101274 0.101274
0.113912 0.113912 0.113912
0.128093 0.128093 0.128093
0.143860 0.143860 0.143860
0.161720 0.161720 0.161720
0.181368 0.181368 0.181368
0.202330 0.202330 0.202330
0.223682 0.223682 0.223682
0.244383 0.244383 0.244383
0.264340 0.264340 0.264340
0.283559 0.283559 0.283559
0.302092 0.302092 0.302092
0.079289 0.079289 0.079289
0.089540 0.089540 0.089540
0.100842 0.100842 0.100842
0.113531 0.113531 0.113531
0.127621 0.127621 0.127621
0.143372 0.143372 0.143372
0.161012 0.161012 0.161012
0.180754 0.180754 0.180754
0.201689 0.201689 0.201689
0.222850 0.222850 0.222850
0.243647 0.243647 0.243647
0.263612 0.263612 0.263612
0.283001 0.283001 0.283001
0.301450 0.301450 0.301450
0.319147 0.319147 0.319147
0.336173 0.336173 0.336173
0.100544 0.100544 0.100544
0.113104 0.113104 0.113104
0.127079 0.127079 0.127079
0.142917 0.142917 0.142917
0.160530 0.160530 0.160530
0.180092 0.180092 0.180092
0.200866 0.200866 0.200866
0.222175 0.222175 0.222175
0.243033 0.243033 0.243033
0.263012 0.263012 0.263012
0.282275 0.282275 0.282275
0.300797 0.300797 0.300797
0.318653 0.318653 0.318653
0.335619 0.335619 0.335619
0.351900 0.351900 0.351900
0.367486 0.367486 0.367486
0.126682 0.126682 0.126682
0.142312 0.142312 0.142312
0.159889 0.159889 0.159889
0.179349 0.179349 0.179349
0.200260 0.200260 0.200260
0.221454 0.221454 0.221454
0.242217 0.242217 0.242217
0.262391 0.262391 0.262391
0.281715 0.281715 0.281715
0.300235 0.300235 0.300235
0.317974 0.317974 0.317974
0.335019 0.335019 0.335019
0.351473 0.351473 0.351473
0.367127 0.367127 0.367127
0.382257 0.382257 0.382257
0.396842 0.396842 0.396842
0.159393 0.159393 0.159393
0.178783 0.178783 0.178783
0.199511 0.199511 0.199511
0.220655 0.220655 0.220655
0.241610 0.241610 0.241610
0.261729 0.261729 0.261729
0.281022 0.281022 0.281022
0.299535 0.299535 0.299535
0.317400 0.317400 0.317400
0.334524 0.334524 0.334524
0.350830 0.350830 0.350830
0.366588 0.366588 0.366588
0.381803 0.381803 0.381803
0.396515 0.396515 0.396515
0.410812 0.410812 0.410812
0.424768 0.424768 0.424768
0.198724 0.198724 0.198724
0.220080 0.220080 0.220080
0.240894 0.240894 0.240894
0.260975 0.260975 0.260975
0.280454 0.280454 0.280454
0.298973 0.298973 0.298973
0.316834 0.316834 0.316834
0.333871 0.333871 0.333871
0.350326 0.350326 0.350326
0.366134 0.366134 0.366134
0.381282 0.381282 0.381282
0.395991 0.395991 0.395991
0.410299 0.410299 0.410299
0.424461 0.424461 0.424461
0.438325 0.438325 0.438325
0.452046 0.452046 0.452046
0.240132 0.240132 0.240132
0.260449 0.260449 0.260449
0.279815 0.279815 0.279815
0.298370 0.298370 0.298370
0.316169 0.316169 0.316169
0.333367 0.333367 0.333367
0.349804 0.349804 0.349804
0.365529 0.365529 0.365529
0.380789 0.380789 0.380789
0.395545 0.395545 0.395545
0.409899 0.409899 0.409899
0.423931 0.423931 0.423931
0.437820 0.437820 0.437820
0.451742 0.451742 0.451742
0.465595 0.465595 0.465595
0.479481 0.479481 0.479481
0.279079 0.279079 0.279079
0.297891 0.297891 0.297891
0.315715 0.315715 0.315715
0.332803 0.332803 0.332803
0.349170 0.349170 0.349170
0.365066 0.365066 0.365066
0.380316 0.380316 0.380316
0.395024 0.395024 0.395024
0.409444 0.409444 0.409444
0.423508 0.423508 0.423508
0.437426 0.437426 0.437426
0.451226 0.451226 0.451226
0.465075 0.465075 0.465075
0.479179 0.479179 0.479179
0.493384 0.493384 0.493384
0.507843 0.507843 0.507843
0.315045 0.315045 0.315045
0.332365 0.332365 0.332365
0.348751 0.348751 0.348751
0.364542 0.364542 0.364542
0.379739 0.379739 0.379739
0.394592 0.394592 0.394592
0.408978 0.408978 0.408978
0.423023 0.423023 0.423023
0.436936 0.436936 0.436936
0.450758 0.450758 0.450758
0.464702 0.464702 0.464702
0.478653 0.478653 0.478653
0.492863 0.492863 0.492863
0.507415 0.507415 0.507415
0.522434 0.522434 0.522434
0.537729 0.537729 0.537729
0.348195 0.348195 0.348195
0.363947 0.363947 0.363947
0.379337 0.379337 0.379337
0.394098 0.394098 0.394098
0.408438 0.408438 0.408438
0.422618 0.422618 0.422618
0.436481 0.436481 0.436481
0.450326 0.450326 0.450326
0.464160 0.464160 0.464160
0.478172 0.478172 0.478172
0.492452 0.492452 0.492452
0.506946 0.506946 0.506946
0.521860 0.521860 0.521860
0.537241 0.537241 0.537241
0.553288 0.553288 0.553288
0.569631 0.569631 0.569631
0.378811 0.378811 0.378811
0.393564 0.393564 0.393564
0.408063 0.408063 0.408063
0.422142 0.422142 0.422142
0.436015 0.436015 0.436015
0.449813 0.449813 0.449813
0.463727 0.463727 0.463727
0.477743 0.477743 0.477743
0.491905 0.491905 0.491905
0.506465 0.506465 0.506465
0.521362 0.521362 0.521362
0.536803 0.536803 0.536803
0.552661 0.552661 0.552661
0.569117 0.569117 0.569117
0.586256 0.586256 0.586256
0.603600 0.603600 0.603600
0.407550 0.407550 0.407550
0.421607 0.421607 0.421607
0.435616 0.435616 0.435616
0.449414 0.449414 0.449414
0.463256 0.463256 0.463256
0.477198 0.477198 0.477198
0.491461 0.491461 0.491461
0.506011 0.506011 0.506011
0.520875 0.520875 0.520875
0.536210 0.536210 0.536210
0.552098 0.552098 0.552098
0.568633 0.568633 0.568633
0.585593 0.585593 0.585593
0.603044 0.603044 0.603044
0.620777 0.620777 0.620777
0.638688 0.638688 0.638688
0.435128 0.435128 0.435128
0.448922 0.448922 0.448922
0.462732 0.462732 0.462732
0.476779 0.476779 0.476779
0.490978 0.490978 0.490978
0.505435 0.505435 0.505435
0.520385 0.520385 0.520385
0.535720 0.535720 0.535720
0.551614 0.551614 0.551614
0.567996 0.567996 0.567996
0.585001 0.585001 0.585001
0.602538 0.602538 0.602538
0.620238 0.620238 0.620238
0.638106 0.638106 0.638106
0.655950 0.655950 0.655950
0.673697 0.673697 0.673697
0.462349 0.462349 0.462349
0.476261 0.476261 0.476261
0.490420 0.490420 0.490420
0.504998 0.504998 0.504998
0.519882 0.519882 0.519882
0.535177 0.535177 0.535177
0.550987 0.550987 0.550987
0.567445 0.567445 0.567445
0.584453 0.584453 0.584453
0.601879 0.601879 0.601879
0.619639 0.619639 0.619639
0.637472 0.637472 0.637472
0.655473 0.655473 0.655473
0.673115 0.673115 0.673115
0.690492 0.690492 0.690492
0.707523 0.707523 0.707523
0.489916 0.489916 0.489916
0.504311 0.504311 0.504311
0.519127 0.519127 0.519127
0.534577 0.534577 0.534577
0.550340 0.550340 0.550340
0.566738 0.566738 0.566738
0.583622 0.583622 0.583622
0.601132 0.601132 0.601132
0.618927 0.618927 0.618927
0.636786 0.636786 0.636786
0.654676 0.654676 0.654676
0.672337 0.672337 0.672337
0.689892 0.689892 0.689892
0.706817 0.706817 0.706817
0.723234 0.723234 0.723234
0.739032 0.739032 0.739032
0.044084 0.044084 0.044084
0.055997 0.055997 0.055997
0.065143 0.065143 0.065143
0.073873 0.073873 0.073873
0.083550 0.083550 0.083550
0.094234 0.094234 0.094234
0.106164 0.106164 0.106164
0.119379 0.119379 0.119379
0.134091 0.134091 0.134091
0.150729 0.150729 0.150729
0.169291 0.169291 0.169291
0.189704 0.189704 0.189704
0.210833 0.210833 0.210833
0.231954 0.231954 0.231954
0.252586 0.252586 0.252586
0.272128 0.272128 0.272128
0.064827 0.064827 0.064827
0.073536 0.073536 0.073536
0.083281 0.083281 0.083281
0.093929 0.093929 0.093929
0.105761 0.105761 0.105761
0.118892 0.118892 0.118892
0.133662 0.133662 0.133662
0.150218 0.150218 0.150218
0.168727 0.168727 0.168727
0.188923 0.188923 0.188923
0.210097 0.210097 0.210097
0.231327 0.231327 0.231327
0.251771 0.251771 0.251771
0.271501 0.271501 0.271501
0.290400 0.290400 0.290400
0.308656 0.308656 0.308656
0.082924 0.082924 0.082924
0.093555 0.093555 0.093555
0.105294 0.105294 0.105294
0.118514 0.118514 0.118514
0.133185 0.133185 0.133185
0.149604 0.149604 0.149604
0.168151 0.168151 0.168151
0.188278 0.188278 0.188278
0.209453 0.209453 0.209453
0.230537 0.230537 0.230537
0.251077 0.251077 0.251077
0.270912 0.270912 0.270912
0.289837 0.289837 0.289837
0.308033 0.308033 0.308033
0.325440 0.325440 0.325440
0.342242 0.342242 0.342242
0.104982 0.104982 0.104982
0.118044 0.118044 0.118044
0.132617 0.132617 0.132617
0.149130 0.149130 0.149130
0.167519 0.167519 0.167519
0.187616 0.187616 0.187616
0.208649 0.208649 0.208649
0.229854 0.229854 0.229854
0.250445 0.250445 0.250445
0.270185 0.270185 0.270185
0.289216 0.289216 0.289216
0.307389 0.307389 0.307389
0.324956 0.324956 0.324956
0.341681 0.341681 0.341681
0.357725 0.357725 0.357725
0.373266 0.373266 0.373266
0.132211 0.132211 0.132211
0.148527 0.148527 0.148527
0.166827 0.166827 0.166827
0.186980 0.186980 0.186980
0.208025 0.208025 0.208025
0.229173 0.229173 0.229173
0.249664 0.249664 0.249664
0.269525 0.269525 0.269525
0.288628 0.288628 0.288628
0.306823 0.306823 0.306823
0.324297 0.324297 0.324297
0.341058 0.341058 0.341058
0.357280 0.357280 0.357280
0.372748 0.372748 0.372748
0.387703 0.387703 0.387703
0.402142 0.402142 0.402142
0.166318 0.166318 0.166318
0.186307 0.186307 0.186307
0.207304 0.207304 0.207304
0.228376 0.228376 0.228376
0.249064 0.249064 0.249064
0.268898 0.268898 0.268898
0.287905 0.287905 0.287905
0.306222 0.306222 0.306222
0.323716 0.323716 0.323716
0.340590 0.340590 0.340590
0.356668 0.356668 0.356668
0.372205 0.372205 0.372205
0.387278 0.387278 0.387278
0.401788 0.401788 0.401788
0.415975 0.415975 0.415975
0.429880 0.429880 0.429880
0.206713 0.206713 0.206713
0.227815 0.227815 0.227815
0.248377 0.248377 0.248377
0.268158 0.268158 0.268158
0.287345 0.287345 0.287345
0.305668 0.305668 0.305668
0.323177 0.323177 0.323177
0.339967 0.339967 0.339967
0.356151 0.356151 0.356151
0.371751 0.371751 0.371751
0.386718 0.386718 0.386718
0.401307 0.401307 0.401307
0.415481 0.415481 0.415481
0.429567 0.429567 0.429567
0.443379 0.443379 0.443379
0.457127 0.457127 0.457127
0.247606 0.247606 0.247606
0.267629 0.267629 0.267629
0.286707 0.286707 0.286707
0.304992 0.304992 0.304992
0.322669 0.322669 0.322669
0.339448 0.339448 0.339448
0.355657 0.355657 0.355657
0.371168 0.371168 0.371168
0.386247 0.386247 0.386247
0.400879 0.400879 0.400879
0.415071 0.415071 0.415071
0.429035 0.429035 0.429035
0.442897 0.442897 0.442897
0.456824 0.456824 0.456824
0.470681 0.470681 0.470681
0.484657 0.484657 0.484657
0.286010 0.286010 0.286010
0.304504 0.304504 0.304504
0.322082 0.322082 0.322082
0.338903 0.338903 0.338903
0.355106 0.355106 0.355106
0.370700 0.370700 0.370700
0.385758 0.385758 0.385758
0.400335 0.400335 0.400335
0.414619 0.414619 0.414619
0.428649 0.428649 0.428649
0.442498 0.442498 0.442498
0.456295 0.456295 0.456295
0.470188 0.470188 0.470188
0.484371 0.484371 0.484371
0.498676 0.498676 0.498676
0.513278 0.513278 0.513278
0.321408 0.321408 0.321408
0.338459 0.338459 0.338459
0.354619 0.354619 0.354619
0.370192 0.370192 0.370192
0.385212 0.385212 0.385212
0.399890 0.399890 0.399890
0.414166 0.414166 0.414166
0.428143 0.428143 0.428143
0.442054 0.442054 0.442054
0.455821 0.455821 0.455821
0.469781 0.469781 0.469781
0.483829 0.483829 0.483829
0.498163 0.498163 0.498163
0.512922 0.512922 0.512922
0.528024 0.528024 0.528024
0.543507 0.543507 0.543507
0.354055 0.354055 0.354055
0.369760 0.369760 0.369760
0.384798 0.384798 0.384798
0.399408 0.399408 0.399408
0.413636 0.413636 0.413636
0.427711 0.427711 0.427711
0.441601 0.441601 0.441601
0.455393 0.455393 0.455393
0.469259 0.469259 0.469259
0.483352 0.483352 0.483352
0.497726 0.497726 0.497726
0.512379 0.512379 0.512379
0.527476 0.527476 0.527476
0.543006 0.543006 0.543006
0.559240 0.559240 0.559240
0.575800 0.575800 0.575800
0.384268 0.384268 0.384268
0.398865 0.398865 0.398865
0.413243 0.413243 0.413243
0.427238 0.427238 0.427238
0.441078 0.441078 0.441078
0.454982 0.454982 0.454982
0.468831 0.468831 0.468831
0.482909 0.482909 0.482909
0.497181 0.497181 0.497181
0.511878 0.511878 0.511878
0.527032 0.527032 0.527032
0.542560 0.542560 0.542560
0.558643 0.558643 0.558643
0.575269 0.575269 0.575269
0.592605 0.592605 0.592605
0.610065 0.610065 0.610065
0.412751 0.412751 0.412751
0.426725 0.426725 0.426725
0.440692 0.440692 0.440692
0.454501 0.454501 0.454501
0.468363 0.468363 0.468363
0.482355 0.482355 0.482355
0.496718 0.496718 0.496718
0.511421 0.511421 0.511421
0.526443 0.526443 0.526443
0.542019 0.542019 0.542019
0.558073 0.558073 0.558073
0.574803 0.574803 0.574803
0.591951 0.591951 0.591951
0.609502 0.609502 0.609502
0.627478 0.627478 0.627478
0.645241 0.645241 0.645241
0.440185 0.440185 0.440185
0.453975 0.453975 0.453975
0.467948 0.467948 0.467948
0.481942 0.481942 0.481942
0.496244 0.496244 0.496244
0.510846 0.510846 0.510846
0.525965 0.525965 0.525965
0.541534 0.541534 0.541534
0.557541 0.557541 0.557541
0.574162 0.574162 0.574162
0.591349 0.591349 0.591349
0.609001 0.609001 0.609001
0.626802 0.626802 0.626802
0.644694 0.644694 0.644694
0.662459 0.662459 0.662459
0.680129 0.680129 0.680129
0.467422 0.467422 0.467422
0.481432 0.481432 0.481432
0.495689 0.495689 0.495689
0.510393 0.510393 0.510393
0.525429 0.525429 0.525429
0.540892 0.540892 0.540892
0.557042 0.557042 0.557042
0.573596 0.573596 0.573596
0.590800 0.590800 0.590800
0.608333 0.608333 0.608333
0.626179 0.626179 0.626179
0.644171 0.644171 0.644171
0.661949 0.661949 0.661949
0.679565 0.679565 0.679565
0.696781 0.696781 0.696781
0.713611 0.713611 0.713611
0.495118 0.495118 0.495118
0.509711 0.509711 0.509711
0.524694 0.524694 0.524694
0.540277 0.540277 0.540277
0.556326 0.556326 0.556326
0.572859 0.572859 0.572859
0.589972 0.589972 0.589972
0.607593 0.607593 0.607593
0.625470 0.625470 0.625470
0.643325 0.643325 0.643325
0.661214 0.661214 0.661214
0.678782 0.678782 0.678782
0.696144 0.696144 0.696144
0.712916 0.712916 0.712916
0.729081 0.729081 0.729081
0.744637 0.744637 0.744637
0.048635 0.048635 0.048635
0.059922 0.059922 0.059922
0.068204 0.068204 0.068204
0.077327 0.077327 0.077327
0.087363 0.087363 0.087363
0.098434 0.098434 0.098434
0.110802 0.110802 0.110802
0.124591 0.124591 0.124591
0.139948 0.139949 0.139949
0.157299 0.157299 0.157299
0.176699 0.176699 0.176699
0.197404 0.197404 0.197404
0.218652 0.218652 0.218652
0.239543 0.239543 0.239543
0.259845 0.259845 0.259845
0.279146 0.279146 0.279146
0.067918 0.067918 0.067918
0.077000 0.077000 0.077000
0.087083 0.087083 0.087083
0.098123 0.098123 0.098123
0.110410 0.110410 0.110410
0.124097 0.124097 0.124097
0.139492 0.139492 0.139492
0.156776 0.156776 0.156776
0.175997 0.175997 0.175997
0.196719 0.196719 0.196719
0.217904 0.217904 0.217904
0.238932 0.238932 0.238932
0.259103 0.259103 0.259103
0.278532 0.278532 0.278532
0.297327 0.297327 0.297327
0.315096 0.315096 0.315096
0.086694 0.086694 0.086694
0.097719 0.097719 0.097719
0.110045 0.110045 0.110045
0.123674 0.123674 0.123674
0.138997 0.138997 0.138997
0.156135 0.156135 0.156135
0.175388 0.175388 0.175388
0.195960 0.195960 0.195960
0.217247 0.217247 0.217247
0.238153 0.238153 0.238153
0.258394 0.258394 0.258394
0.277946 0.277946 0.277946
0.296615 0.296615 0.296615
0.314534 0.314534 0.314534
0.331676 0.331676 0.331676
0.348193 0.348193 0.348193
0.109624 0.109624 0.109624
0.123207 0.123207 0.123207
0.138401 0.138401 0.138401
0.155650 0.155650 0.155650
0.174738 0.174738 0.174738
0.195286 0.195286 0.195286
0.216551 0.216551 0.216551
0.237461 0.237461 0.237461
0.257774 0.257774 0.257774
0.277226 0.277226 0.277226
0.295966 0.295966 0.295966
0.313977 0.313977 0.313977
0.331169 0.331169 0.331169
0.347664 0.347664 0.347664
0.363470 0.363470 0.363470
0.378800 0.378800 0.378800
0.137968 0.137968 0.137968
0.155038 0.155038 0.155038
0.174025 0.174025 0.174025
0.194685 0.194685 0.194685
0.215832 0.215832 0.215832
0.236774 0.236774 0.236774
0.257012 0.257012 0.257012
0.276606 0.276606 0.276606
0.295388 0.295388 0.295388
0.313333 0.313333 0.313333
0.330577 0.330577 0.330577
0.347050 0.347050 0.347050
0.363009 0.363009 0.363009
0.378284 0.378284 0.378284
0.393087 0.393087 0.393087
0.407466 0.407466 0.407466
0.173448 0.173448 0.173448
0.193935 0.193935 0.193935
0.215065 0.215065 0.215065
0.236108 0.236108 0.236108
0.256387 0.256387 0.256387
0.275960 0.275960 0.275960
0.294690 0.294690 0.294690
0.312742 0.312742 0.312742
0.330045 0.330045 0.330045
0.346554 0.346554 0.346554
0.362434 0.362434 0.362434
0.377755 0.377755 0.377755
0.392662 0.392662 0.392662
0.407053 0.407053 0.407053
0.421154 0.421154 0.421154
0.434955 0.434955 0.434955
0.214491 0.214491 0.214491
0.235419 0.235419 0.235419
0.255716 0.255716 0.255716
0.275249 0.275249 0.275249
0.294132 0.294132 0.294132
0.312176 0.312176 0.312176
0.329412 0.329412 0.329412
0.346009 0.346009 0.346009
0.361901 0.361901 0.361901
0.377296 0.377296 0.377296
0.392108 0.392108 0.392108
0.406553 0.406553 0.406553
0.420744 0.420744 0.420744
0.434631 0.434631 0.434631
0.448449 0.448449 0.448449
0.462204 0.462204 0.462204
0.255094 0.255094 0.255094
0.274698 0.274698 0.274698
0.293517 0.293517 0.293517
0.311520 0.311520 0.311520
0.328910 0.328910 0.328910
0.345466 0.345466 0.345466
0.361402 0.361402 0.361402
0.376728 0.376728 0.376728
0.391616 0.391616 0.391616
0.406118 0.406118 0.406118
0.420207 0.420207 0.420207
0.434161 0.434161 0.434161
0.447952 0.447952 0.447952
0.461891 0.461891 0.461891
0.475814 0.475814 0.475814
0.489894 0.489894 0.489894
0.292916 0.292916 0.292916
0.311021 0.311021 0.311021
0.328341 0.328341 0.328341
0.344904 0.344904 0.344904
0.360947 0.360947 0.360947
0.376289 0.376289 0.376289
0.391152 0.391152 0.391152
0.405597 0.405597 0.405597
0.419761 0.419761 0.419761
0.433739 0.433739 0.433739
0.447550 0.447550 0.447550
0.461415 0.461415 0.461415
0.475314 0.475314 0.475314
0.489570 0.489570 0.489570
0.504011 0.504011 0.504011
0.518750 0.518750 0.518750
0.327708 0.327708 0.327708
0.344446 0.344446 0.344446
0.360401 0.360401 0.360401
0.375743 0.375743 0.375743
0.390661 0.390661 0.390661
0.405142 0.405142 0.405142
0.419322 0.419322 0.419322
0.433217 0.433217 0.433217
0.447100 0.447100 0.447100
0.460985 0.460985 0.460985
0.474911 0.474911 0.474911
0.489047 0.489047 0.489047
0.503491 0.503491 0.503491
0.518414 0.518414 0.518414
0.533675 0.533675 0.533675
0.549344 0.549344 0.549344
0.359829 0.359829 0.359829
0.375329 0.375329 0.375329
0.390194 0.390194 0.390194
0.404664 0.404664 0.404664
0.418799 0.418799 0.418799
0.432805 0.432805 0.432805
0.446659 0.446659 0.446659
0.460467 0.460467 0.460467
0.474448 0.474448 0.474448
0.488559 0.488559 0.488558
0.503061 0.503061 0.503061
0.517840 0.517840 0.517840
0.533112 0.533112 0.533112
0.548999 0.548999 0.548999
0.565277 0.565277 0.565277
0.582055 0.582055 0.582055
0.389687 0.389687 0.389687
0.404179 0.404179 0.404179
0.418394 0.418394 0.418394
0.432347 0.432347 0.432347
0.446137 0.446137 0.446137
0.460042 0.460042 0.460042
0.473950 0.473950 0.473950
0.488094 0.488094 0.488094
0.502510 0.502510 0.502510
0.517342 0.517342 0.517342
0.532663 0.532663 0.532663
0.548401 0.548401 0.548401
0.564704 0.564704 0.564704
0.581519 0.581519 0.581519
0.598998 0.598998 0.598998
0.616589 0.616589 0.616589
0.417885 0.417885 0.417885
0.431819 0.431819 0.431819
0.445755 0.445755 0.445755
0.459578 0.459578 0.459578
0.473460 0.473460 0.473460
0.487580 0.487580 0.487580
0.502045 0.502045 0.502045
0.516872 0.516872 0.516872
0.532090 0.532090 0.532090
0.547856 0.547856 0.547856
0.564218 0.564218 0.564218
0.581025 0.581025 0.581025
0.598355 0.598355 0.598355
0.616030 0.616030 0.616030
0.634018 0.634018 0.634018
0.651782 0.651782 0.651782
0.445262 0.445262 0.445262
0.459052 0.459052 0.459052
0.473073 0.473073 0.473073
0.487143 0.487143 0.487143
0.501556 0.501556 0.501556
0.516314 0.516314 0.516314
0.531588 0.531588 0.531588
0.547341 0.547341 0.547341
0.563587 0.563587 0.563587
0.580451 0.580451 0.580451
0.597745 0.597745 0.597745
0.615527 0.615527 0.615527
0.633366 0.633366 0.633366
0.651249 0.651249 0.651249
0.669113 0.669113 0.669113
0.686451 0.686451 0.686451
0.472550 0.472550 0.472550
0.486618 0.486618 0.486618
0.501116 0.501116 0.501116
0.515832 0.515832 0.515832
0.531057 0.531057 0.531057
0.546735 0.546735 0.546735
0.563044 0.563044 0.563044
0.579911 0.579911 0.579911
0.597207 0.597207 0.597207
0.614864 0.614864 0.614864
0.632751 0.632751 0.632751
0.650728 0.650728 0.650728
0.668449 0.668449 0.668449
0.685927 0.685927 0.685927
0.702984 0.702984 0.702984
0.719582 0.719582 0.719582
0.500441 0.500441 0.500441
0.515180 0.515180 0.515180
0.530319 0.530319 0.530319
0.546087 0.546087 0.546087
0.562318 0.562318 0.562318
0.579105 0.579105 0.579105
0.596467 0.596467 0.596467
0.614105 0.614105 0.614105
0.632027 0.632027 0.632027
0.649900 0.649900 0.649900
0.667673 0.667673 0.667673
0.685283 0.685283 0.685283
0.702362 0.702362 0.702362
0.718948 0.718948 0.718948
0.734832 0.734832 0.734832
0.750085 0.750085 0.750085
0.052783 0.052783 0.052783
0.062824 0.062824 0.062824
0.071488 0.071488 0.071488
0.080900 0.080900 0.080900
0.091276 0.091276 0.091276
0.102883 0.102883 0.102883
0.115674 0.115674 0.115674
0.130041 0.130041 0.130041
0.146090 0.146090 0.146090
0.164183 0.164183 0.164183
0.184188 0.184188 0.184188
0.205180 0.205180 0.205180
0.226384 0.226384 0.226384
0.247025 0.247025 0.247025
0.267078 0.267078 0.267078
0.286041 0.286041 0.286041
0.071163 0.071163 0.071163
0.080530 0.080530 0.080530
0.090995 0.090995 0.090995
0.102493 0.102493 0.102493
0.115256 0.115256 0.115256
0.129499 0.129499 0.129499
0.145576 0.145576 0.145576
0.163620 0.163620 0.163620
0.183436 0.183436 0.183436
0.204479 0.204479 0.204479
0.225633 0.225633 0.225633
0.246390 0.246390 0.246390
0.266307 0.266307 0.266307
0.285464 0.285464 0.285464
0.303943 0.303943 0.303943
0.321439 0.321439 0.321439
0.090636 0.090636 0.090636
0.102064 0.102064 0.102064
0.114881 0.114881 0.114881
0.129089 0.129089 0.129089
0.145079 0.145079 0.145079
0.162948 0.162948 0.162948
0.182805 0.182805 0.182805
0.203799 0.203799 0.203799
0.224968 0.224968 0.224968
0.245698 0.245698 0.245698
0.265605 0.265605 0.265605
0.284881 0.284881 0.284881
0.303244 0.303244 0.303244
0.320900 0.320900 0.320900
0.337778 0.337778 0.337778
0.354023 0.354023 0.354023
0.114408 0.114408 0.114408
0.128595 0.128595 0.128595
0.144443 0.144443 0.144443
0.162420 0.162420 0.162420
0.182159 0.182159 0.182159
0.203025 0.203025 0.203025
0.224307 0.224307 0.224307
0.244965 0.244965 0.244965
0.264992 0.264992 0.264992
0.284170 0.284170 0.284170
0.302634 0.302634 0.302634
0.320376 0.320376 0.320376
0.337267 0.337267 0.337267
0.353534 0.353534 0.353534
0.369132 0.369132 0.369132
0.384246 0.384246 0.384246
0.143978 0.143978 0.143978
0.161777 0.161777 0.161777
0.181395 0.181395 0.181395
0.202401 0.202401 0.202401
0.223570 0.223570 0.223570
0.244295 0.244295 0.244295
0.264259 0.264259 0.264259
0.283549 0.283549 0.283549
0.302066 0.302066 0.302066
0.319735 0.319735 0.319735
0.336722 0.336722 0.336722
0.353034 0.353034 0.353034
0.368669 0.368669 0.368669
0.383773 0.383773 0.383773
0.398401 0.398401 0.398401
0.412706 0.412706 0.412706
0.180825 0.180825 0.180825
0.201682 0.201682 0.201682
0.222814 0.222814 0.222814
0.243673 0.243673 0.243673
0.263632 0.263632 0.263632
0.282932 0.282932 0.282932
0.301381 0.301381 0.301381
0.319155 0.319155 0.319155
0.336174 0.336174 0.336174
0.352433 0.352433 0.352433
0.368123 0.368123 0.368123
0.383226 0.383226 0.383226
0.397971 0.397971 0.397971
0.412259 0.412259 0.412259
0.426249 0.426249 0.426249
0.440116 0.440116 0.440116
0.222221 0.222221 0.222221
0.242953 0.242953 0.242953
0.262976 0.262976 0.262976
0.282232 0.282232 0.282232
0.300825 0.300825 0.300825
0.318589 0.318589 0.318589
0.335550 0.335550 0.335550
0.351926 0.351926 0.351926
0.367627 0.367627 0.367627
0.382783 0.382783 0.382783
0.397425 0.397425 0.397425
0.411758 0.411758 0.411758
0.425862 0.425862 0.425862
0.439709 0.439709 0.439709
0.453533 0.453533 0.453533
0.467300 0.467300 0.467300
0.262437 0.262437 0.262437
0.281674 0.281674 0.281674
0.300209 0.300209 0.300209
0.317946 0.317946 0.317946
0.335046 0.335046 0.335046
0.351396 0.351396 0.351396
0.367077 0.367077 0.367077
0.382230 0.382230 0.382230
