example_ofxGpuLutCube/bin/data/ofxGpuLutCube/LUT/V16 (warm dark fade).cube
LUT_3D_SIZE 16
0.000000 0.000000 0.000000
0.008296 0.000000 0.000000
0.058757 0.000000 0.000000
0.111517 0.000000 0.000000
0.168314 0.000000 0.000000
0.230581 0.000000 0.000000
0.298676 0.000000 0.000000
0.369106 0.000000 0.000000
0.437876 0.000000 0.000000
0.501575 0.000000 0.000000
0.559906 0.000000 0.000000
0.615432 0.000000 0.000000
0.670563 0.000000 0.000000
0.727693 0.000000 0.000000
0.788090 0.000000 0.000000
0.850918 0.000000 0.000000
0.000000 0.007675 0.000000
0.015136 0.008581 0.000000
0.066350 0.010173 0.000000
0.119811 0.011868 0.000000
0.177169 0.013642 0.000000
0.239818 0.015595 0.000000
0.307576 0.017769 0.000000
0.376798 0.020168 0.000000
0.443885 0.022824 0.000000
0.505794 0.025792 0.000000
0.562668 0.029106 0.000000
0.617025 0.032800 0.000000
0.671279 0.036893 0.000000
0.727771 0.041161 0.000000
0.787892 0.045661 0.000000
0.850979 0.050769 0.000000
0.000000 0.056763 0.000000
0.024411 0.057697 0.000000
0.075367 0.058962 0.000000
0.128967 0.060914 0.000000
0.186336 0.063018 0.000000
0.248733 0.065352 0.000000
0.315483 0.067957 0.000000
0.383095 0.070865 0.000000
0.448305 0.074060 0.000000
0.508386 0.077668 0.000000
0.563864 0.081590 0.000000
0.617172 0.085730 0.000000
0.670696 0.090309 0.000000
0.726919 0.095150 0.000000
0.787246 0.100552 0.000000
0.851046 0.106072 0.000000
0.000000 0.107965 0.000000
0.034622 0.109144 0.000000
0.085035 0.110571 0.000000
0.137882 0.112510 0.000000
0.194634 0.115084 0.000000
0.256163 0.117999 0.000000
0.321354 0.121174 0.000000
0.386995 0.124759 0.000000
0.450207 0.128723 0.000000
0.508654 0.132805 0.000000
0.562956 0.137347 0.000000
0.615590 0.142173 0.000000
0.668960 0.147480 0.000000
0.725426 0.153153 0.000000
0.786387 0.158987 0.000000
0.851163 0.165230 0.000000
0.000000 0.163269 0.000000
0.044527 0.164888 0.000000
0.094076 0.166747 0.000000
0.145600 0.168913 0.000000
0.200879 0.171845 0.000000
0.260841 0.175429 0.000000
0.323989 0.179387 0.000000
0.387469 0.183587 0.000000
0.448794 0.188116 0.000000
0.506160 0.193052 0.000000
0.560072 0.198381 0.000000
0.612784 0.204017 0.000000
0.666515 0.210036 0.000000
0.723587 0.216386 0.000000
0.785444 0.222792 0.000000
0.851262 0.229486 0.000000
0.005351 0.224579 0.000000
0.052913 0.226771 0.000000
0.101078 0.229280 0.000000
0.151056 0.232163 0.000000
0.204152 0.235435 0.000000
0.261465 0.239275 0.000000
0.322145 0.243799 0.000000
0.383775 0.248737 0.000000
0.444277 0.254126 0.000000
0.501648 0.259869 0.000000
0.556044 0.265873 0.000000
0.609354 0.272107 0.000000
0.663855 0.278664 0.000000
0.721785 0.285275 0.000000
0.784663 0.291880 0.000000
0.851416 0.298713 0.000000
0.012762 0.292792 0.000000
0.058533 0.295622 0.000000
0.104744 0.298723 0.000000
0.152553 0.302073 0.000000
0.203164 0.305763 0.000000
0.257831 0.309826 0.000000
0.316238 0.314349 0.000000
0.377093 0.319674 0.000000
0.437802 0.325449 0.000000
0.496123 0.331381 0.000000
0.551573 0.337459 0.000000
0.605983 0.343676 0.000000
0.661486 0.349985 0.000000
0.720401 0.356338 0.000000
0.784310 0.362630 0.000353
0.851561 0.368867 0.003131
0.016712 0.364933 0.000000
0.059982 0.367967 0.000000
0.103689 0.371281 0.000000
0.149123 0.374896 0.000000
0.197828 0.378821 0.000000
0.251036 0.383042 0.000000
0.308753 0.387471 0.000000
0.369207 0.392071 0.000000
0.430686 0.397221 0.000000
0.490553 0.402771 0.000000
0.547508 0.408443 0.000000
0.603323 0.414040 0.000000
0.660271 0.419623 0.000000
0.720272 0.425214 0.001880
0.784451 0.430582 0.006441
0.851718 0.435725 0.011268
0.015548 0.436196 0.000000
0.056390 0.439290 0.000000
0.098154 0.442612 0.000000
0.142210 0.446117 0.000000
0.189854 0.449824 0.000000
0.242482 0.453661 0.000000
0.300453 0.457584 0.000000
0.361959 0.461547 0.000000
0.424683 0.465555 0.000000
0.486111 0.469842 0.000000
0.545378 0.474491 0.000000
0.602875 0.479169 0.001095
0.660384 0.483755 0.004988
0.720415 0.488156 0.009916
0.784698 0.492269 0.014854
0.851891 0.495937 0.019545
0.009552 0.502661 0.000000
0.049097 0.505502 0.000000
0.089997 0.508452 0.000000
0.133512 0.511515 0.000000
0.181039 0.514615 0.000000
0.233982 0.517855 0.000000
0.292941 0.521044 0.000000
0.356359 0.524233 0.000000
0.422089 0.527387 0.000000
0.485916 0.530527 0.000626
0.545512 0.533803 0.003640
0.603024 0.537436 0.008463
0.660696 0.540864 0.013404
0.721235 0.544040 0.018153
0.785631 0.546971 0.023073
0.852074 0.549943 0.028294
0.001261 0.563518 0.000000
0.039931 0.565919 0.000000
0.080850 0.568460 0.000000
0.124796 0.570984 0.000000
0.173139 0.573565 0.000000
0.227244 0.576151 0.000000
0.289274 0.578701 0.000000
0.356028 0.581228 0.000761
0.423050 0.583683 0.003836
0.486863 0.586047 0.008124
0.546441 0.588277 0.012475
0.604370 0.590445 0.016766
0.662903 0.592954 0.021609
0.723501 0.595515 0.026871
0.787157 0.598275 0.032548
0.852273 0.600838 0.038403
0.000000 0.620919 0.000000
0.030582 0.622950 0.000000
0.072609 0.625017 0.000000
0.117769 0.627091 0.000000
0.169032 0.629137 0.000000
0.226583 0.631165 0.000932
0.290147 0.633164 0.004285
0.357025 0.635096 0.008542
0.424448 0.636886 0.012899
0.489682 0.638419 0.016969
0.550665 0.639920 0.021198
0.608801 0.641426 0.025841
0.666656 0.643270 0.031079
0.726608 0.645613 0.036958
0.789107 0.647853 0.043145
0.852502 0.650227 0.049460
0.000000 0.677100 0.000000
0.022878 0.678874 0.000000
0.068118 0.680542 0.000000
0.117051 0.682128 0.001187
0.169686 0.683669 0.004697
0.227537 0.685181 0.008925
0.291403 0.686620 0.013297
0.360724 0.687837 0.017399
0.430622 0.689014 0.021614
0.496609 0.690210 0.026197
0.557208 0.691425 0.031165
0.614829 0.692644 0.036445
0.671685 0.693915 0.041955
0.730312 0.695612 0.048051
0.791294 0.697609 0.054522
0.852741 0.699595 0.061082
0.000000 0.734135 0.000000
0.021848 0.735684 0.001409
0.068732 0.736800 0.005103
0.117782 0.737895 0.009331
0.170655 0.738965 0.013734
0.231156 0.739850 0.017758
0.299137 0.740687 0.022008
0.370574 0.741595 0.026600
0.440748 0.742465 0.031563
0.505881 0.743385 0.036776
0.565494 0.744303 0.042311
0.621968 0.745210 0.048048
0.677776 0.746144 0.053883
0.734678 0.747059 0.059860
0.793620 0.748610 0.066260
0.853001 0.750296 0.072876
0.000000 0.792570 0.005079
0.022510 0.793732 0.009718
0.069467 0.794343 0.014135
0.121039 0.794840 0.018187
0.178425 0.795375 0.022415
0.242211 0.795831 0.026962
0.312070 0.796358 0.031902
0.383960 0.796886 0.037132
0.453328 0.797406 0.042663
0.516743 0.797966 0.048351
0.574772 0.798465 0.054197
0.629879 0.799025 0.060133
0.684228 0.799530 0.066163
0.739596 0.800061 0.072124
0.796120 0.800601 0.078050
0.853260 0.801739 0.084409
0.000000 0.851064 0.013993
0.025629 0.851894 0.018552
0.076990 0.851991 0.022708
0.131808 0.852113 0.027322
0.191457 0.852187 0.032218
0.257499 0.852295 0.037444
0.328480 0.852413 0.042908
0.399752 0.852525 0.048635
0.467379 0.852655 0.054497
0.528500 0.852779 0.060396
0.584557 0.852895 0.066428
0.638061 0.853000 0.072404
0.690855 0.853145 0.078377
0.744514 0.853275 0.084159
0.799060 0.853348 0.089765
0.853435 0.853447 0.095259
0.000000 0.000000 0.006043
0.009396 0.000000 0.006149
0.060001 0.000000 0.006830
0.112974 0.000000 0.007524
0.169946 0.000000 0.008248
0.232388 0.000000 0.008941
0.300483 0.000000 0.009601
0.370771 0.000000 0.010314
0.439284 0.000000 0.010981
0.502683 0.000000 0.011671
0.560788 0.000000 0.012340
0.616108 0.000000 0.012979
0.671125 0.000000 0.013655
0.728219 0.000000 0.014359
0.788549 0.000000 0.015510
0.851499 0.000020 0.017714
0.000000 0.008074 0.006188
0.017288 0.009580 0.006835
0.068636 0.011178 0.007537
0.122195 0.012876 0.008233
0.179635 0.014757 0.008924
0.242368 0.016776 0.009595
0.310093 0.019040 0.010286
0.379031 0.021523 0.010910
0.445788 0.024289 0.011569
0.507249 0.027395 0.012206
0.563850 0.030846 0.012826
0.618003 0.034700 0.013475
0.672074 0.038791 0.014594
0.728535 0.043170 0.016712
0.788709 0.047909 0.019012
0.851955 0.053122 0.021525
0.000000 0.057308 0.006960
0.026830 0.058717 0.007422
0.077792 0.060108 0.007681
0.131442 0.062102 0.008367
0.188782 0.064300 0.009038
0.251192 0.066719 0.009701
0.317716 0.069428 0.010366
0.384997 0.072427 0.010982
0.449790 0.075804 0.011622
0.509452 0.079503 0.012277
0.564684 0.083566 0.013358
0.617799 0.087825 0.015455
0.671280 0.092448 0.017753
0.727537 0.097518 0.020246
0.787993 0.102968 0.022854
0.852014 0.108689 0.025694
0.000000 0.108790 0.007809
0.037075 0.110360 0.008116
0.087359 0.111833 0.008127
0.140150 0.113880 0.008466
0.196829 0.116606 0.009124
0.258180 0.119620 0.009772
0.323075 0.122927 0.010414
0.388348 0.126638 0.011063
0.451154 0.130706 0.012154
0.509224 0.134874 0.014193
0.563352 0.139479 0.016474
0.615954 0.144624 0.018938
0.669374 0.149972 0.021581
0.725957 0.155784 0.024403
0.787130 0.161759 0.027405
0.852133 0.168099 0.030603
0.000413 0.164456 0.008642
0.046812 0.166315 0.008767
0.096129 0.168278 0.008800
0.147508 0.170607 0.008829
0.202523 0.173601 0.009190
0.262222 0.177405 0.009843
0.324986 0.181447 0.010920
0.388026 0.185739 0.012931
0.449081 0.190398 0.015212
0.506274 0.195516 0.017646
0.560221 0.200933 0.020274
0.612971 0.206734 0.023086
0.666839 0.212886 0.026081
0.724096 0.219165 0.029257
0.786206 0.225865 0.032597
0.852224 0.232448 0.036167
0.007453 0.226161 0.009412
0.054769 0.228520 0.009463
0.102580 0.231140 0.009486
0.152354 0.234202 0.009558
0.205049 0.237539 0.010059
0.261894 0.241491 0.011697
0.322258 0.246173 0.013942
0.383658 0.251285 0.016363
0.444084 0.256772 0.018977
0.501515 0.262623 0.021767
0.556024 0.268705 0.024745
0.609493 0.275008 0.027907
0.664192 0.281619 0.031281
0.722375 0.288279 0.034832
0.785428 0.294945 0.038579
0.852352 0.301723 0.042518
0.014369 0.294699 0.010113
0.059696 0.297635 0.010173
0.105473 0.300890 0.010670
0.152888 0.304308 0.012012
0.203123 0.308166 0.013738
0.257478 0.312343 0.015641
0.315767 0.316951 0.017768
0.376540 0.322335 0.020439
0.437418 0.328184 0.023402
0.495913 0.334178 0.026557
0.551561 0.340332 0.029893
0.606163 0.346556 0.033432
0.661883 0.352854 0.037154
0.721130 0.359192 0.041144
0.785208 0.365426 0.045313
0.852488 0.371573 0.049663
0.017452 0.366938 0.011259
0.060257 0.370083 0.012594
0.103541 0.373513 0.014315
0.148694 0.377274 0.016173
0.197113 0.381333 0.018236
0.250201 0.385568 0.020464
0.307958 0.390050 0.022852
0.368598 0.394697 0.025458
0.430291 0.399860 0.028542
0.490422 0.405462 0.032066
0.547629 0.411084 0.035780
0.603828 0.416638 0.039727
0.661066 0.422210 0.043873
0.721133 0.427680 0.048251
0.785337 0.433043 0.052820
0.852649 0.438125 0.057581
0.015274 0.438171 0.014860
0.055814 0.441402 0.016750
0.097347 0.444797 0.018782
0.141251 0.448389 0.020988
0.188842 0.452119 0.023395
0.241564 0.455951 0.025967
0.299746 0.459938 0.028744
0.361513 0.463869 0.031678
0.424543 0.467881 0.034833
0.486529 0.472100 0.038350
0.546129 0.476773 0.042470
0.603651 0.481339 0.046794
0.661191 0.485882 0.051357
0.721262 0.490248 0.056178
0.785662 0.494090 0.060856
0.852794 0.497635 0.065389
0.008480 0.504366 0.019168
0.047993 0.507431 0.021540
0.088867 0.510408 0.023921
0.132446 0.513489 0.026493
0.180073 0.516636 0.029218
0.233232 0.519829 0.032186
0.292489 0.523021 0.035314
0.356604 0.526212 0.038606
0.422982 0.529346 0.042161
0.486764 0.532411 0.045862
0.546293 0.535592 0.049966
0.603789 0.539186 0.054712
0.661673 0.542501 0.059349
0.722417 0.545564 0.063989
0.786712 0.548544 0.068874
0.852983 0.551576 0.074100
0.000751 0.564744 0.024077
0.038595 0.567621 0.026981
0.079748 0.570180 0.029747
0.123898 0.572699 0.032659
0.172406 0.575284 0.035763
0.227290 0.577880 0.039094
0.290067 0.580408 0.042621
0.356995 0.582888 0.046318
0.424016 0.585332 0.050228
0.487764 0.587668 0.054371
0.547521 0.589770 0.058418
0.605726 0.591812 0.062562
0.664253 0.594360 0.067394
0.724820 0.597008 0.072636
0.788333 0.599686 0.078254
0.853177 0.602274 0.084041
0.000000 0.621738 0.029622
0.029464 0.624368 0.033086
0.071770 0.626558 0.036257
0.117633 0.628613 0.039559
0.169587 0.630660 0.043033
0.227498 0.632665 0.046776
0.291062 0.634650 0.050659
0.358018 0.636545 0.054806
0.425782 0.638234 0.058841
0.491399 0.639723 0.062786
0.552352 0.641193 0.067004
0.610388 0.642704 0.071559
0.668185 0.644588 0.076753
0.728025 0.646899 0.082575
0.790315 0.649257 0.088724
0.853397 0.651543 0.094924
0.000000 0.677672 0.035874
0.022203 0.679981 0.039796
0.068629 0.681886 0.043510
0.117720 0.683476 0.047213
0.170494 0.685028 0.051087
0.228406 0.686505 0.055197
0.292931 0.687862 0.059340
0.362870 0.689049 0.063193
0.432990 0.690208 0.067384
0.498850 0.691427 0.071971
0.559297 0.692648 0.076861
0.616692 0.693879 0.082065
0.673417 0.695121 0.087494
0.731829 0.696816 0.093503
0.792546 0.698940 0.099924
0.853625 0.700808 0.106380
0.000000 0.734499 0.043017
0.022141 0.736449 0.047288
0.069337 0.738055 0.051538
0.118487 0.739130 0.055626
0.171952 0.740149 0.059773
0.233543 0.741004 0.063608
0.301976 0.741846 0.067804
0.373510 0.742731 0.072376
0.443630 0.743608 0.077245
0.508410 0.744504 0.082415
0.567711 0.745417 0.087845
0.624074 0.746343 0.093507
0.679531 0.747254 0.099253
0.736176 0.748190 0.105087
0.794864 0.749719 0.111439
0.853879 0.751293 0.117951
0.000000 0.792764 0.050950
0.022737 0.794199 0.055577
0.070444 0.795374 0.060227
0.123191 0.795882 0.064043
0.181080 0.796364 0.068193
0.245403 0.796902 0.072752
0.315681 0.797378 0.077648
0.387451 0.797902 0.082797
0.456517 0.798435 0.088230
0.519497 0.798982 0.093833
0.577142 0.799523 0.099608
0.631961 0.800030 0.105481
0.686021 0.800557 0.111341
0.741174 0.801026 0.117225
0.797258 0.801599 0.122999
0.854083 0.802789 0.129257
0.000000 0.851065 0.059492
0.027383 0.852082 0.063873
0.079585 0.852920 0.068549
0.134829 0.853006 0.073119
0.195002 0.853103 0.078005
0.261407 0.853219 0.083142
0.332447 0.853326 0.088520
0.403646 0.853426 0.094129
0.470753 0.853552 0.099910
0.531341 0.853650 0.105735
0.587047 0.853777 0.111635
0.640118 0.853876 0.117498
0.692648 0.853980 0.123335
0.745979 0.854100 0.129041
0.800215 0.854197 0.134547
0.854257 0.854270 0.139821
0.000000 0.000000 0.053601
0.011125 0.000000 0.053601
0.061418 0.000000 0.053755
0.114472 0.000000 0.054456
0.171576 0.000000 0.055187
0.234100 0.000000 0.055868
0.302175 0.000000 0.056643
0.372272 0.000000 0.057281
0.440480 0.000000 0.058014
0.503517 0.000000 0.058744
0.561374 0.000000 0.059375
0.616471 0.000000 0.060085
0.671327 0.000000 0.060770
0.728286 0.000000 0.061420
0.788552 0.000000 0.063090
0.851531 0.001158 0.065386
0.000000 0.009003 0.053725
0.019399 0.010450 0.054293
0.070353 0.011651 0.054562
0.123992 0.013386 0.055274
0.181501 0.015356 0.055987
0.244281 0.017484 0.056683
0.311796 0.019822 0.057408
0.380571 0.022450 0.058093
0.446948 0.025365 0.058761
0.508122 0.028616 0.059469
0.564484 0.032246 0.060156
0.618475 0.036316 0.060852
0.672504 0.040524 0.062491
0.728937 0.045069 0.064655
0.789129 0.050049 0.066998
0.852615 0.055393 0.069550
0.000000 0.057718 0.053924
0.028925 0.059455 0.054649
0.080232 0.061226 0.055253
0.133820 0.063268 0.055941
0.191184 0.065550 0.056647
0.253520 0.068084 0.057314
0.319851 0.070933 0.057986
0.386790 0.074034 0.058636
0.451145 0.077543 0.059276
0.510478 0.081431 0.060003
0.565410 0.085516 0.061522
0.618358 0.089934 0.063663
0.671792 0.094707 0.065966
0.728172 0.099928 0.068437
0.788766 0.105551 0.071098
0.852990 0.111404 0.073913
0.000000 0.109253 0.054743
0.039274 0.111349 0.055458
0.089700 0.113152 0.055720
0.142380 0.115332 0.056072
0.198924 0.118136 0.056753
0.260093 0.121255 0.057414
0.324698 0.124739 0.058058
0.389584 0.128571 0.058791
0.451941 0.132672 0.060239
0.509683 0.137028 0.062359
0.563664 0.141798 0.064653
0.616256 0.147041 0.067110
0.669720 0.152561 0.069740
0.726482 0.158427 0.072546
0.787906 0.164534 0.075554
0.853063 0.170915 0.078739
0.000865 0.165053 0.055573
0.048895 0.167655 0.056261
0.098136 0.169878 0.056426
0.149307 0.172329 0.056439
0.204067 0.175511 0.056816
0.263442 0.179361 0.057566
0.325787 0.183474 0.058940
0.388458 0.187905 0.061065
0.449215 0.192748 0.063343
0.506346 0.198018 0.065789
0.560276 0.203571 0.068412
0.613144 0.209473 0.071189
0.667154 0.215686 0.074179
0.724605 0.222117 0.077359
0.786946 0.228774 0.080720
0.853174 0.235521 0.084298
0.008882 0.227018 0.056415
0.056472 0.230249 0.057057
0.104043 0.233110 0.057120
0.153432 0.236277 0.057265
0.205746 0.239729 0.058062
0.262213 0.243781 0.059818
0.322200 0.248571 0.062046
0.383424 0.253871 0.064464
0.443832 0.259476 0.067063
0.501330 0.265411 0.069827
0.555981 0.271569 0.072797
0.609635 0.278018 0.075950
0.664525 0.284558 0.079317
0.722911 0.291279 0.082860
0.786204 0.298080 0.086629
0.853297 0.304716 0.090574
0.015249 0.295838 0.057159
0.060718 0.299696 0.057854
0.106054 0.303043 0.058632
0.153040 0.306611 0.060168
0.202933 0.310582 0.061865
0.257040 0.314898 0.063738
0.315186 0.319596 0.065831
0.375985 0.325080 0.068482
0.436987 0.330957 0.071421
0.495689 0.337034 0.074555
0.551579 0.343194 0.077901
0.606406 0.349473 0.081442
0.662329 0.355848 0.085182
0.721884 0.362103 0.089114
0.786135 0.368274 0.093285
0.853436 0.374364 0.097624
0.017433 0.368229 0.058669
0.060264 0.372179 0.060735
0.103211 0.375821 0.062449
0.148098 0.379649 0.064302
0.196357 0.383809 0.066317
0.249412 0.388136 0.068526
0.307192 0.392657 0.070890
0.367983 0.397318 0.073465
0.429899 0.402470 0.076489
0.490359 0.408047 0.079992
0.547839 0.413701 0.083695
0.604398 0.419286 0.087647
0.661855 0.424743 0.091787
0.721981 0.430175 0.096185
0.786249 0.435367 0.100725
0.853577 0.440356 0.105453
0.014189 0.439344 0.062341
0.054967 0.443333 0.064735
0.096474 0.446988 0.066880
0.140306 0.450628 0.069082
0.187866 0.454421 0.071454
0.240622 0.458290 0.073982
0.298980 0.462240 0.076717
0.361123 0.466234 0.079606
0.424516 0.470210 0.082725
0.487092 0.474368 0.086226
0.546929 0.478994 0.090305
0.604450 0.483562 0.094679
0.661980 0.488005 0.099216
0.722159 0.492214 0.103972
0.786658 0.495963 0.108526
0.853734 0.499428 0.113116
0.006734 0.505320 0.066571
0.046552 0.508943 0.069345
0.087686 0.512341 0.071995
0.131338 0.515459 0.074516
0.179165 0.518600 0.077235
0.232504 0.521799 0.080139
0.292164 0.525011 0.083228
0.357137 0.528154 0.086497
0.423885 0.531284 0.090024
0.487647 0.534329 0.093707
0.547096 0.537486 0.097782
0.604644 0.540964 0.102445
0.662766 0.544120 0.107002
0.723595 0.547129 0.111628
0.787859 0.550123 0.116606
0.853897 0.553156 0.121910
0.000115 0.565590 0.071408
0.036874 0.568727 0.074485
0.078675 0.571817 0.077708
0.123090 0.574431 0.080644
0.171888 0.577001 0.083718
0.227758 0.579574 0.087001
0.291001 0.582095 0.090497
0.357926 0.584551 0.094162
0.424912 0.586958 0.098077
0.488660 0.589225 0.102145
0.548819 0.591193 0.105999
0.607126 0.593195 0.110102
0.665659 0.595771 0.115068
0.726169 0.598389 0.120436
0.789523 0.600993 0.126068
0.854083 0.603675 0.131958
0.000000 0.622429 0.076951
0.027797 0.625121 0.080419
0.070886 0.627867 0.084013
0.118000 0.630157 0.087485
0.170383 0.632158 0.090953
0.228301 0.634166 0.094653
0.292028 0.636105 0.098521
0.359027 0.637958 0.102603
0.427485 0.639549 0.106447
0.493198 0.641014 0.110366
0.554196 0.642500 0.114655
0.612084 0.644004 0.119272
0.669773 0.645896 0.124541
0.729479 0.648157 0.130406
0.791532 0.650538 0.136592
0.854304 0.652844 0.142877
0.000000 0.678196 0.083182
0.021928 0.680556 0.087027
0.069004 0.682879 0.091167
0.118415 0.684844 0.095134
0.171246 0.686346 0.098968
0.229288 0.687826 0.103054
0.294885 0.689069 0.106916
0.365315 0.690260 0.110817
0.435506 0.691428 0.115077
0.501107 0.692606 0.119693
0.561432 0.693856 0.124655
0.618606 0.695062 0.129870
0.675100 0.696342 0.135296
0.733359 0.698020 0.141336
0.793766 0.700054 0.147801
0.854504 0.701985 0.154264
0.000000 0.734940 0.090167
0.022141 0.736840 0.094445
0.069610 0.738763 0.099078
0.119144 0.740327 0.103499
0.173814 0.741295 0.107399
0.236053 0.742105 0.111235
0.305001 0.742986 0.115502
0.376621 0.743846 0.120134
0.446587 0.744734 0.125037
0.511037 0.745660 0.130262
0.570030 0.746545 0.135699
0.626048 0.747465 0.141327
0.681337 0.748371 0.147077
0.737771 0.749270 0.152929
0.796122 0.750772 0.159352
0.854733 0.752407 0.165827
0.000000 0.792909 0.098073
0.022741 0.794371 0.102806
0.071862 0.795791 0.107387
0.125585 0.796926 0.111686
0.183993 0.797438 0.115953
0.248845 0.797917 0.120553
0.319229 0.798411 0.125476
0.391067 0.798959 0.130694
0.459807 0.799489 0.136092
0.522294 0.800020 0.141728
0.579532 0.800496 0.147481
0.634059 0.801027 0.153330
0.687937 0.801519 0.159220
0.742787 0.802011 0.165023
0.798524 0.802559 0.170811
0.854939 0.803652 0.177021
0.000000 0.851070 0.106396
0.029191 0.852141 0.110868
0.081980 0.853183 0.115799
0.138014 0.853925 0.120944
0.198711 0.854008 0.125818
0.265448 0.854133 0.131011
0.336707 0.854209 0.136471
0.407521 0.854310 0.142065
0.474131 0.854418 0.147824
0.534221 0.854532 0.153667
0.589477 0.854632 0.159537
0.642252 0.854737 0.165419
0.694523 0.854833 0.171171
0.747583 0.854951 0.176806
0.801426 0.855024 0.182243
0.855108 0.855119 0.187421
0.000000 0.000000 0.102960
0.013033 0.000000 0.102990
0.063320 0.000000 0.102991
0.116043 0.000000 0.103229
0.173207 0.000000 0.103945
0.235848 0.000000 0.104706
0.303832 0.000000 0.105425
0.373690 0.000000 0.106196
0.441622 0.000000 0.106952
0.504338 0.000000 0.107648
0.561898 0.000000 0.108410
0.616774 0.000000 0.109121
0.671498 0.000000 0.109818
0.728326 0.000000 0.110715
0.788550 0.000000 0.112794
0.851564 0.002789 0.114997
0.000000 0.009993 0.103117
0.021662 0.011436 0.103708
0.072490 0.012459 0.103746
0.125715 0.013872 0.104043
0.183232 0.015886 0.104788
0.245945 0.018065 0.105537
0.313318 0.020518 0.106293
0.381798 0.023264 0.107040
0.447806 0.026280 0.107747
0.508649 0.029674 0.108476
0.564734 0.033472 0.109164
0.618523 0.037633 0.110174
0.672393 0.041918 0.112109
0.728809 0.046593 0.114386
0.789072 0.051761 0.116827
0.852686 0.057210 0.119419
0.000000 0.058665 0.103253
0.031297 0.060478 0.104009
0.082408 0.062157 0.104463
0.135654 0.064016 0.104904
0.192932 0.066400 0.105650
0.255159 0.069036 0.106405
0.321285 0.072009 0.107121
0.387907 0.075298 0.107822
0.451933 0.078962 0.108561
0.510963 0.083028 0.109539
0.565675 0.087195 0.111456
0.618505 0.091822 0.113650
0.671965 0.096787 0.116068
0.728445 0.102172 0.118663
0.789255 0.107856 0.121451
0.853723 0.113865 0.124317
0.000000 0.109801 0.103537
0.041096 0.111955 0.104295
0.091798 0.114316 0.105019
0.144476 0.116749 0.105567
0.200896 0.119683 0.106290
0.261896 0.122936 0.106978
0.326157 0.126584 0.107667
0.390618 0.130536 0.108599
0.452610 0.134713 0.110440
0.510071 0.139240 0.112627
0.563951 0.144167 0.114965
0.616522 0.149486 0.117492
0.670068 0.155162 0.120195
0.727030 0.161154 0.123069
0.788596 0.167397 0.126120
0.854029 0.173803 0.129408
0.001439 0.165694 0.104386
0.050378 0.168414 0.105121
0.099901 0.171369 0.105818
0.150956 0.174075 0.105987
0.205459 0.177391 0.106379
0.264525 0.181375 0.107308
0.326431 0.185579 0.109074
0.388707 0.190158 0.111258
0.449295 0.195158 0.113566
0.506351 0.200525 0.116063
0.560324 0.206229 0.118770
0.613271 0.212277 0.121626
0.667453 0.218544 0.124673
0.725151 0.225064 0.127906
0.787655 0.231824 0.131366
0.854137 0.238619 0.135020
0.010195 0.227867 0.105247
0.057450 0.231303 0.105978
0.105288 0.235023 0.106651
0.154366 0.238406 0.107026
0.206290 0.241914 0.108140
0.262309 0.246063 0.109920
0.322021 0.251036 0.112183
0.383122 0.256472 0.114662
0.443539 0.262197 0.117332
0.501171 0.268234 0.120167
0.555938 0.274468 0.123201
0.609752 0.280933 0.126411
0.664839 0.287640 0.129863
0.723458 0.294310 0.133480
0.787026 0.301050 0.137331
0.854235 0.307760 0.141372
0.015889 0.296966 0.106030
0.060994 0.300954 0.107046
0.106413 0.305172 0.108703
0.153041 0.308963 0.110318
0.202630 0.313064 0.112048
0.256532 0.317484 0.113924
0.314597 0.322283 0.116059
0.375389 0.327844 0.118725
0.436549 0.333746 0.121734
0.495473 0.339871 0.124933
0.551582 0.346091 0.128338
0.606627 0.352362 0.131934
0.662899 0.358690 0.135780
0.722723 0.364909 0.139807
0.787026 0.371160 0.144074
0.854366 0.377073 0.148519
0.017106 0.369359 0.108028
0.059502 0.373478 0.110221
0.102581 0.377923 0.112484
0.147411 0.382070 0.114532
0.195554 0.386311 0.116595
0.248507 0.390717 0.118803
0.306385 0.395266 0.121215
0.367407 0.399982 0.123786
