example_ofxGpuLutCube/bin/data/ofxGpuLutCube/LUT/V16 (warm dark fade).cube
LUT_3D_SIZE 6
0.000000 0.000000 0.000000
0.111517 0.000000 0.000000
0.298676 0.000000 0.000000
0.501575 0.000000 0.000000
0.670563 0.000000 0.000000
0.850918 0.000000 0.000000
0.000000 0.107965 0.000000
0.137882 0.112510 0.000000
0.321354 0.121174 0.000000
0.508654 0.132805 0.000000
0.668960 0.147480 0.000000
0.851163 0.165230 0.000000
0.012762 0.292792 0.000000
0.152553 0.302073 0.000000
0.316238 0.314349 0.000000
0.496123 0.331381 0.000000
0.661486 0.349985 0.000000
0.851561 0.368867 0.003131
0.009552 0.502661 0.000000
0.133512 0.511515 0.000000
0.292941 0.521044 0.000000
0.485916 0.530527 0.000626
0.660696 0.540864 0.013404
0.852074 0.549943 0.028294
0.000000 0.677100 0.000000
0.117051 0.682128 0.001187
0.291403 0.686620 0.013297
0.496609 0.690210 0.026197
0.671685 0.693915 0.041955
0.852741 0.699595 0.061082
0.000000 0.851064 0.013993
0.131808 0.852113 0.027322
0.328480 0.852413 0.042908
0.528500 0.852779 0.060396
0.690855 0.853145 0.078377
0.853435 0.853447 0.095259
0.000000 0.000000 0.102960
0.116043 0.000000 0.103229
0.303832 0.000000 0.105425
0.504338 0.000000 0.107648
0.671498 0.000000 0.109818
0.851564 0.002789 0.114997
0.000000 0.109801 0.103537
0.144476 0.116749 0.105567
0.326157 0.126584 0.107667
0.510071 0.139240 0.112627
0.670068 0.155162 0.120195
0.854029 0.173803 0.129408
0.015889 0.296966 0.106030
0.153041 0.308963 0.110318
0.314597 0.322283 0.116059
0.495473 0.339871 0.124933
0.662899 0.358690 0.135780
0.854366 0.377073 0.148519
0.004917 0.506344 0.116108
0.130304 0.517370 0.124857
0.292181 0.526967 0.133746
0.488521 0.536201 0.144325
0.663956 0.545722 0.157662
0.854805 0.554726 0.173101
0.000000 0.678769 0.132935
0.118751 0.685759 0.145524
0.297067 0.690310 0.157598
0.503498 0.693826 0.170711
0.676791 0.697554 0.186599
0.855393 0.703224 0.205913
0.000000 0.851109 0.156298
0.141015 0.854288 0.171611
0.340912 0.855113 0.187917
0.537103 0.855425 0.205313
0.696271 0.855686 0.222860
0.855930 0.855939 0.238965
0.000000 0.000000 0.277600
0.122855 0.000000 0.277651
0.308779 0.000000 0.278185
0.506520 0.000000 0.281050
0.671737 0.000000 0.284246
0.851672 0.008054 0.291550
0.000435 0.113402 0.278249
0.150114 0.121059 0.280574
0.327306 0.130517 0.281707
0.508709 0.144350 0.288774
0.669232 0.161505 0.297567
0.854942 0.180949 0.307937
0.016915 0.300476 0.279269
0.150467 0.314203 0.286079
0.312363 0.330488 0.294323
0.494983 0.348470 0.304071
0.664969 0.367278 0.315840
0.857187 0.385208 0.329387
0.000806 0.509452 0.291616
0.125223 0.520864 0.301430
0.293411 0.532519 0.313051
0.491081 0.541667 0.324152
0.667825 0.550366 0.337298
0.857515 0.559357 0.353193
0.000000 0.680421 0.309629
0.118762 0.687339 0.322978
0.304433 0.693494 0.336864
0.510897 0.697475 0.350458
0.682113 0.701120 0.365370
0.857976 0.706613 0.382854
0.000000 0.851233 0.333211
0.149872 0.854455 0.349197
0.353634 0.857522 0.366837
0.545621 0.858001 0.382366
0.701544 0.858185 0.396752
0.858382 0.858388 0.409059
0.000000 0.000000 0.480432
0.130155 0.000000 0.480493
0.315745 0.000000 0.480608
0.508151 0.000000 0.481128
0.671555 0.000000 0.484900
0.851786 0.013747 0.490719
0.005656 0.117466 0.481159
0.155299 0.126133 0.483309
0.328821 0.136150 0.484511
0.506363 0.149518 0.488218
0.667773 0.167626 0.494786
0.855061 0.187608 0.502432
0.017897 0.306655 0.482334
0.148104 0.321335 0.487778
0.309569 0.338554 0.494043
0.493057 0.355186 0.499595
0.665672 0.373739 0.507846
0.858037 0.390763 0.516968
0.000000 0.512705 0.489276
0.120617 0.524228 0.496467
0.293482 0.535850 0.504786
0.493954 0.546483 0.513855
0.672062 0.555018 0.522710
0.860209 0.563980 0.533171
0.000000 0.682105 0.501687
0.119494 0.688805 0.510810
0.310996 0.694809 0.520160
0.518529 0.700862 0.530689
0.687572 0.704673 0.539675
0.860515 0.710020 0.550201
0.000000 0.851394 0.517117
0.159876 0.854628 0.527818
0.364667 0.857723 0.539009
0.553930 0.860450 0.549825
0.706651 0.860670 0.557760
0.860766 0.860770 0.564139
0.000000 0.000000 0.657819
0.137505 0.000000 0.657905
0.322614 0.000000 0.658008
0.511311 0.000000 0.658167
0.670950 0.002432 0.659583
0.851905 0.019818 0.663684
0.012289 0.121879 0.658557
0.159368 0.131736 0.660539
0.329525 0.142794 0.661665
0.505839 0.157156 0.663531
0.666414 0.174002 0.665908
0.855150 0.194290 0.670963
0.017391 0.313495 0.659537
0.145273 0.329260 0.663304
0.307120 0.347052 0.667496
0.493790 0.363819 0.670684
0.665901 0.379500 0.673877
0.858095 0.394904 0.679468
0.000000 0.518041 0.662641
0.119265 0.529599 0.667349
0.295687 0.540949 0.672731
0.498256 0.550738 0.678410
0.675010 0.558048 0.682898
0.860752 0.566826 0.689361
0.000000 0.683726 0.667919
0.123396 0.690111 0.673673
0.318800 0.696172 0.679931
0.524497 0.702279 0.686696
0.692935 0.708083 0.693491
0.862961 0.713319 0.699854
0.001939 0.851585 0.677010
0.170816 0.854813 0.683926
0.375881 0.857884 0.690929
0.560301 0.860709 0.697707
0.711546 0.863032 0.703563
0.863138 0.863139 0.706567
0.000000 0.000000 0.850954
0.144722 0.000000 0.851021
0.328751 0.000000 0.851179
0.513981 0.000000 0.851399
0.672235 0.009571 0.851676
0.852012 0.026146 0.852001
0.018101 0.126694 0.851851
0.162112 0.137674 0.854162
0.329058 0.149945 0.854398
0.505392 0.165353 0.854669
0.667399 0.182762 0.854967
0.855276 0.200942 0.855286
0.015507 0.320843 0.851786
0.142007 0.337347 0.854258
0.304963 0.355564 0.856839
0.496035 0.372375 0.857791
0.668253 0.387370 0.858004
0.858137 0.398968 0.858155
0.000000 0.523813 0.851184
0.120602 0.535275 0.853898
0.298366 0.546258 0.856754
0.504071 0.555338 0.859724
0.679752 0.562644 0.860699
0.860810 0.569236 0.860818
0.000000 0.687456 0.851036
0.130961 0.693422 0.854062
0.329896 0.699631 0.857218
0.532674 0.705626 0.860212
0.698211 0.711354 0.862938
0.863239 0.714606 0.863231
0.011829 0.851780 0.851753
0.182557 0.855033 0.855006
0.387097 0.858049 0.858024
0.566193 0.860806 0.860784
0.714214 0.863235 0.863214
0.865469 0.865468 0.865447
