example_ofxGpuLutCube/bin/data/ofxGpuLutCube/LUT/V17 (red pink fade).cube
LUT_3D_SIZE 16
0.230469 0.054138 0.122009
0.281280 0.056798 0.122579
0.325728 0.059904 0.123179
0.364514 0.063336 0.123822
0.399013 0.067118 0.124571
0.430623 0.071188 0.125366
0.460565 0.075604 0.126166
0.490047 0.080304 0.127014
0.520150 0.085288 0.127930
0.552008 0.090503 0.128876
0.586517 0.096029 0.129883
0.624656 0.101752 0.130912
0.667187 0.107684 0.132031
0.714889 0.113836 0.133136
0.768217 0.120156 0.134273
0.826342 0.126737 0.135462
0.234845 0.101894 0.123151
0.285518 0.105581 0.123818
0.329701 0.109590 0.124547
0.368290 0.113891 0.125333
0.402657 0.118496 0.126158
0.434225 0.123350 0.127000
0.464223 0.128527 0.127917
0.493866 0.133909 0.128848
0.524327 0.139538 0.129860
0.556615 0.145378 0.130903
0.591761 0.151404 0.131978
0.630654 0.157689 0.133102
0.674109 0.164066 0.134236
0.722802 0.170576 0.135408
0.777214 0.177257 0.136632
0.836186 0.184065 0.137832
0.240059 0.153392 0.124545
0.290451 0.157699 0.125281
0.334270 0.162321 0.126090
0.372514 0.167296 0.126964
0.406672 0.172418 0.127863
0.438134 0.177815 0.128822
0.468174 0.183396 0.129823
0.498016 0.189231 0.130872
0.528842 0.195264 0.131946
0.561611 0.201384 0.133069
0.597397 0.207714 0.134186
0.637106 0.214144 0.135380
0.681478 0.220758 0.136595
0.731211 0.227405 0.137800
0.786663 0.234088 0.139065
0.846449 0.240931 0.140376
0.245971 0.206165 0.126087
0.295934 0.210961 0.126967
0.339209 0.216002 0.127852
0.377121 0.221365 0.128792
0.411013 0.226819 0.129765
0.442367 0.232477 0.130810
0.472450 0.238275 0.131911
0.502494 0.244278 0.133013
0.533643 0.250393 0.134165
0.566957 0.256585 0.135327
0.603398 0.262866 0.136530
0.643913 0.269253 0.137764
0.689268 0.275675 0.139001
0.740084 0.282063 0.140292
0.796503 0.288482 0.141566
0.856886 0.294849 0.142853
0.252496 0.258462 0.127853
0.301858 0.263492 0.128766
0.344589 0.268719 0.129763
0.382003 0.274077 0.130804
0.415641 0.279665 0.131876
0.446863 0.285286 0.132978
0.476984 0.291019 0.134122
0.507214 0.296856 0.135292
0.538754 0.302723 0.136476
0.572610 0.308621 0.137724
0.609743 0.314512 0.138972
0.651087 0.320470 0.140241
0.697429 0.326391 0.141534
0.749301 0.332302 0.142832
0.806637 0.338151 0.144153
0.867699 0.343879 0.145438
0.259481 0.308187 0.129720
0.308156 0.313160 0.130772
0.350221 0.318233 0.131829
0.387158 0.323427 0.132926
0.420505 0.328736 0.134068
0.451558 0.334056 0.135250
0.481732 0.339419 0.136464
0.512179 0.344826 0.137670
0.544103 0.350281 0.138942
0.578548 0.355751 0.140196
0.616377 0.361182 0.141483
0.658603 0.366616 0.142756
0.705916 0.372036 0.144118
0.758856 0.377427 0.145443
0.817038 0.382720 0.146756
0.878614 0.387975 0.148086
0.266846 0.353704 0.131812
0.314755 0.358527 0.132909
0.356122 0.363358 0.134057
0.392535 0.368252 0.135202
0.425522 0.373251 0.136434
0.456451 0.378259 0.137659
0.486664 0.383284 0.138897
0.517363 0.388342 0.140168
0.549697 0.393393 0.141445
0.584689 0.398478 0.142731
0.623315 0.403528 0.144057
0.666362 0.408570 0.145379
0.714633 0.413582 0.146720
0.768630 0.418607 0.148057
0.827602 0.423535 0.149384
0.889637 0.428455 0.150696
0.274532 0.395443 0.133980
0.321561 0.400034 0.135177
0.362179 0.404706 0.136375
0.398026 0.409369 0.137592
0.430657 0.414106 0.138837
0.461481 0.418907 0.140126
0.491751 0.423709 0.141413
0.522693 0.428544 0.142684
0.555468 0.433386 0.144014
0.591066 0.438238 0.145335
0.630422 0.443099 0.146660
0.674361 0.447945 0.148004
0.723587 0.452774 0.149341
0.778565 0.457654 0.150700
0.838227 0.462463 0.152040
0.900654 0.467205 0.153348
0.282447 0.434501 0.136314
0.328474 0.439041 0.137560
0.368310 0.443653 0.138792
0.403634 0.448261 0.140047
0.435937 0.452940 0.141343
0.466631 0.457717 0.142640
0.496975 0.462502 0.143961
0.528174 0.467274 0.145290
0.561405 0.472137 0.146632
0.597612 0.477006 0.147964
0.637707 0.481903 0.149279
0.682532 0.486801 0.150633
0.732729 0.491743 0.151956
0.788590 0.496694 0.153318
0.848836 0.501628 0.154633
0.911519 0.506515 0.155934
0.290460 0.472650 0.138751
0.335482 0.477350 0.140025
0.374521 0.482067 0.141301
0.409314 0.486871 0.142603
0.441269 0.491746 0.143927
0.471852 0.496710 0.145247
0.502290 0.501724 0.146572
0.533776 0.506792 0.147924
0.567448 0.511891 0.149246
0.604253 0.517056 0.150597
0.645144 0.522284 0.151935
0.690810 0.527539 0.153255
0.741913 0.532816 0.154578
0.798565 0.538118 0.155910
0.859293 0.543462 0.157231
0.922226 0.548760 0.158502
0.298513 0.512064 0.141286
0.342438 0.517085 0.142551
0.380738 0.522313 0.143902
0.414984 0.527551 0.145203
0.446616 0.532903 0.146518
0.477129 0.538378 0.147878
0.507647 0.543882 0.149209
0.539448 0.549513 0.150545
0.573561 0.555188 0.151893
0.610986 0.560960 0.153227
0.652612 0.566789 0.154544
0.699110 0.572632 0.155847
0.751127 0.578518 0.157168
0.808418 0.584431 0.158472
0.869561 0.590442 0.159711
0.932584 0.596356 0.160943
0.306531 0.555186 0.143831
0.349399 0.560940 0.145171
0.386933 0.566869 0.146481
0.420617 0.572880 0.147815
0.451970 0.579015 0.149164
0.482349 0.585216 0.150507
0.513038 0.591612 0.151831
0.545145 0.598085 0.153190
0.579742 0.604588 0.154488
0.617769 0.611213 0.155813
0.660069 0.617880 0.157112
0.707411 0.624614 0.158415
0.760234 0.631353 0.159678
0.818125 0.638130 0.160940
0.879566 0.644941 0.162157
0.942592 0.651684 0.163328
0.314429 0.604681 0.146479
0.356256 0.611441 0.147774
0.393047 0.618410 0.149116
0.426200 0.625492 0.150470
0.457293 0.632708 0.151805
0.487610 0.639984 0.153133
0.518420 0.647494 0.154474
0.550845 0.655052 0.155767
0.585890 0.662650 0.157066
0.624500 0.670313 0.158358
0.667532 0.678052 0.159650
0.715596 0.685859 0.160889
0.769149 0.693614 0.162122
0.827556 0.701331 0.163331
0.889094 0.708996 0.164501
0.952103 0.716632 0.165613
0.322140 0.663214 0.149060
0.362983 0.671268 0.150415
0.398997 0.679523 0.151720
0.431689 0.687962 0.153103
0.462504 0.696465 0.154404
0.492794 0.705120 0.155718
0.523752 0.713892 0.157042
0.556466 0.722694 0.158335
0.592004 0.731534 0.159601
0.631167 0.740409 0.160850
0.674867 0.749321 0.162076
0.723609 0.758220 0.163297
0.777816 0.766978 0.164467
0.836562 0.775644 0.165606
0.898232 0.784111 0.166672
0.961099 0.792535 0.167768
0.329684 0.733218 0.151711
0.369526 0.742793 0.153009
0.404803 0.752534 0.154360
0.437030 0.762509 0.155685
0.467626 0.772440 0.156981
0.497893 0.782361 0.158274
0.528972 0.792369 0.159556
0.562027 0.802310 0.160805
0.597995 0.812258 0.162036
0.637689 0.822044 0.163237
0.681964 0.831667 0.164396
0.731341 0.841162 0.165553
0.786121 0.850470 0.166662
0.845095 0.859486 0.167731
0.906751 0.868246 0.168756
0.969316 0.876699 0.169762
0.336880 0.815472 0.154345
0.375814 0.826260 0.155639
0.410394 0.837115 0.156907
0.442217 0.848113 0.158251
0.472577 0.858877 0.159513
0.502824 0.869601 0.160764
0.534089 0.880166 0.161994
0.567407 0.890663 0.163192
0.603781 0.900910 0.164345
0.643976 0.910901 0.165510
0.688800 0.920623 0.166626
0.738704 0.930060 0.167712
0.793914 0.939231 0.168740
0.853041 0.948009 0.169725
0.914533 0.956370 0.170646
0.976924 0.964406 0.171526
0.231227 0.055054 0.160271
0.282009 0.057877 0.160872
0.326448 0.061113 0.161536
0.365159 0.064655 0.162241
0.399689 0.068571 0.163037
0.431285 0.072757 0.163867
0.461200 0.077273 0.164746
0.490739 0.082115 0.165669
0.520922 0.087167 0.166648
0.552829 0.092503 0.167674
0.587455 0.098069 0.168739
0.625741 0.103911 0.169867
0.668440 0.109954 0.171011
0.716302 0.116163 0.172176
0.769905 0.122604 0.173374
0.828192 0.129102 0.174626
0.235793 0.103172 0.161480
0.286428 0.106985 0.162240
0.330521 0.111168 0.163023
0.369072 0.115579 0.163832
0.403378 0.120276 0.164712
0.434924 0.125218 0.165651
0.464922 0.130481 0.166627
0.494638 0.135943 0.167657
0.525147 0.141643 0.168708
0.557521 0.147549 0.169831
0.592781 0.153658 0.170953
0.631836 0.159978 0.172135
0.675450 0.166386 0.173345
0.724321 0.173011 0.174599
0.778944 0.179696 0.175837
0.838048 0.186583 0.177126
0.241109 0.154944 0.162999
0.291409 0.159392 0.163801
0.335136 0.164126 0.164673
0.373335 0.169131 0.165626
0.407457 0.174403 0.166593
0.438887 0.179870 0.167621
0.468941 0.185557 0.168676
0.498834 0.191410 0.169793
0.529715 0.197491 0.170937
0.562581 0.203722 0.172108
0.598492 0.210063 0.173295
0.638362 0.216599 0.174556
0.682906 0.223165 0.175802
0.732847 0.229859 0.177050
0.788459 0.236578 0.178374
0.848348 0.243410 0.179718
0.247159 0.207906 0.164659
0.297000 0.212805 0.165594
0.340213 0.217943 0.166547
0.378010 0.223335 0.167579
0.411867 0.228872 0.168652
0.443187 0.234598 0.169736
0.473260 0.240457 0.170889
0.503356 0.246518 0.172070
0.534603 0.252682 0.173269
0.567969 0.258895 0.174495
0.604562 0.265198 0.175761
0.645227 0.271575 0.177042
0.690766 0.278038 0.178368
0.741764 0.284439 0.179689
0.798357 0.290854 0.181018
0.858932 0.297306 0.182380
0.253757 0.260266 0.166544
0.303003 0.265368 0.167535
0.345592 0.270683 0.168624
0.382971 0.276142 0.169717
0.416512 0.281703 0.170831
0.447724 0.287389 0.172017
0.477854 0.293147 0.173229
0.508136 0.298989 0.174471
0.539728 0.304882 0.175733
0.573691 0.310777 0.177013
0.610952 0.316717 0.178301
0.652459 0.322619 0.179653
0.698997 0.328560 0.180985
0.751052 0.334421 0.182319
0.808582 0.340263 0.183726
0.869711 0.346022 0.185077
0.260854 0.310002 0.168575
0.309371 0.315022 0.169700
0.351330 0.320128 0.170808
0.388151 0.325330 0.171981
0.421419 0.330659 0.173193
0.452467 0.336037 0.174433
0.482634 0.341409 0.175674
0.513151 0.346851 0.176976
0.545127 0.352272 0.178275
0.579659 0.357746 0.179598
0.617668 0.363168 0.180953
0.660019 0.368595 0.182288
0.707515 0.374013 0.183653
0.760633 0.379368 0.185056
0.818991 0.384658 0.186411
0.880638 0.389883 0.187792
0.268318 0.355504 0.170795
0.315977 0.360279 0.171947
0.357219 0.365146 0.173152
0.393548 0.370076 0.174370
0.426471 0.375087 0.175640
0.457398 0.380090 0.176901
0.487602 0.385128 0.178215
0.518343 0.390185 0.179550
0.550750 0.395253 0.180887
0.585866 0.400336 0.182251
0.624611 0.405390 0.183622
0.667873 0.410413 0.185010
0.716281 0.415424 0.186359
0.770452 0.420414 0.187743
0.829548 0.425370 0.189145
0.891690 0.430259 0.190532
0.275988 0.397100 0.173115
0.322820 0.401733 0.174331
0.363297 0.406412 0.175580
0.399074 0.411116 0.176858
0.431688 0.415890 0.178163
0.462429 0.420675 0.179504
0.492735 0.425487 0.180844
0.523717 0.430318 0.182189
0.556557 0.435176 0.183562
0.592268 0.440022 0.184945
0.631762 0.444867 0.186324
0.675879 0.449707 0.187725
0.725288 0.454556 0.189089
0.780446 0.459413 0.190473
0.840193 0.464197 0.191848
0.902663 0.468956 0.193214
0.283945 0.436144 0.175531
0.329790 0.440740 0.176851
0.369492 0.445316 0.178151
0.404697 0.449984 0.179469
0.436932 0.454686 0.180819
0.467588 0.459434 0.182147
0.497962 0.464237 0.183527
0.529222 0.469056 0.184903
0.562512 0.473929 0.186276
0.598830 0.478808 0.187683
0.639080 0.483703 0.189051
0.684060 0.488608 0.190427
0.734419 0.493542 0.191815
0.790426 0.498489 0.193164
0.850787 0.503439 0.194542
0.913522 0.508289 0.195893
0.291947 0.474343 0.178092
0.336797 0.479063 0.179444
0.375700 0.483818 0.180765
0.410360 0.488653 0.182108
0.442258 0.493545 0.183462
0.472829 0.498519 0.184864
0.503266 0.503576 0.186228
0.534825 0.508653 0.187628
0.568600 0.513808 0.189018
0.605510 0.518972 0.190389
0.646515 0.524224 0.191779
0.692347 0.529467 0.193150
0.743630 0.534742 0.194495
0.800420 0.540102 0.195863
0.861243 0.545406 0.197186
0.924157 0.550710 0.198465
0.300028 0.513907 0.180713
0.343786 0.519042 0.182070
0.381909 0.524216 0.183410
0.416017 0.529540 0.184821
0.447619 0.534901 0.186181
0.478082 0.540388 0.187576
0.508658 0.545967 0.188970
0.540488 0.551595 0.190345
0.574712 0.557277 0.191717
0.612257 0.563069 0.193100
0.654015 0.568919 0.194472
0.700674 0.574787 0.195816
0.752838 0.580693 0.197126
0.810257 0.586621 0.198440
0.871478 0.592608 0.199741
0.934487 0.598525 0.201000
0.308012 0.557283 0.183368
0.350679 0.563077 0.184765
0.388044 0.569057 0.186160
0.421658 0.575115 0.187542
0.452967 0.581290 0.188894
0.483359 0.587593 0.190313
0.514027 0.593958 0.191669
0.546196 0.600476 0.193062
0.580893 0.607002 0.194406
0.619038 0.613662 0.195763
0.661496 0.620363 0.197111
0.708948 0.627110 0.198424
0.761903 0.633862 0.199711
0.819919 0.640611 0.200979
0.881398 0.647448 0.202226
0.944399 0.654103 0.203423
0.315879 0.607161 0.186100
0.357535 0.613972 0.187509
0.394143 0.621028 0.188875
0.427236 0.628131 0.190275
0.458247 0.635367 0.191638
0.488582 0.642722 0.192986
0.519409 0.650225 0.194368
0.551883 0.657817 0.195719
0.587028 0.665445 0.197059
0.625762 0.673179 0.198380
0.668902 0.680905 0.199680
0.717112 0.688692 0.200931
0.770804 0.696421 0.202188
0.829237 0.704145 0.203394
0.890908 0.711863 0.204612
0.953833 0.719411 0.205714
0.323565 0.666173 0.188789
0.364214 0.674287 0.190204
0.400091 0.682646 0.191612
0.432687 0.691052 0.192965
0.463474 0.699639 0.194308
0.493740 0.708280 0.195682
0.524724 0.717090 0.197002
0.557516 0.725937 0.198335
0.593128 0.734788 0.199623
0.632408 0.743691 0.200886
0.676164 0.752574 0.202145
0.725054 0.761444 0.203360
0.779407 0.770138 0.204535
0.838205 0.778776 0.205709
0.899864 0.787178 0.206812
0.962678 0.795489 0.207890
0.331014 0.736727 0.191555
0.370694 0.746374 0.192940
0.405844 0.756167 0.194273
0.437997 0.766086 0.195604
0.468579 0.776077 0.196953
0.498814 0.786029 0.198274
0.529961 0.796080 0.199573
0.563037 0.805985 0.200850
0.599073 0.815841 0.202113
0.638894 0.825590 0.203330
0.683265 0.835199 0.204510
0.732774 0.844640 0.205669
0.787627 0.853830 0.206784
0.846636 0.862721 0.207863
0.908247 0.871372 0.208880
0.970830 0.879666 0.209885
0.338202 0.819440 0.194223
0.376948 0.830268 0.195554
0.411400 0.841122 0.196877
0.443152 0.852041 0.198246
0.473500 0.862837 0.199524
0.503731 0.873472 0.200806
0.535022 0.884011 0.202059
0.568414 0.894373 0.203259
0.604840 0.904614 0.204469
0.645122 0.914476 0.205605
0.689992 0.924143 0.206741
0.740016 0.933448 0.207800
0.795302 0.942553 0.208861
0.854435 0.951123 0.209853
0.915950 0.959369 0.210772
0.978219 0.967209 0.211679
0.231960 0.056038 0.200053
0.282769 0.059046 0.200687
0.327181 0.062406 0.201406
0.365849 0.066069 0.202173
0.400343 0.070083 0.202954
0.431898 0.074377 0.203832
0.461901 0.079011 0.204755
0.491435 0.083912 0.205732
0.521669 0.089097 0.206750
0.553644 0.094529 0.207811
0.588426 0.100254 0.208922
0.626822 0.106080 0.210060
0.669713 0.112191 0.211225
0.717798 0.118444 0.212435
0.771541 0.124970 0.213719
0.829959 0.131557 0.214918
0.236743 0.104560 0.201383
0.287284 0.108453 0.202139
0.331364 0.112740 0.202942
0.369790 0.117239 0.203803
0.404111 0.122041 0.204734
0.435633 0.127107 0.205714
0.465648 0.132444 0.206704
0.495392 0.138041 0.207776
0.525972 0.143806 0.208881
0.558432 0.149786 0.210018
0.593791 0.155965 0.211183
0.632991 0.162321 0.212427
0.676819 0.168812 0.213658
0.725878 0.175463 0.214902
0.780721 0.182285 0.216217
0.839964 0.189104 0.217509
0.242189 0.156542 0.202906
0.292400 0.161123 0.203749
0.336070 0.165980 0.204695
0.374184 0.171035 0.205677
0.408252 0.176371 0.206695
0.439688 0.181900 0.207748
0.469719 0.187692 0.208831
0.499645 0.193623 0.209988
0.530591 0.199743 0.211160
0.563557 0.206006 0.212365
0.599587 0.212425 0.213601
0.639591 0.218999 0.214883
0.684319 0.225606 0.216162
0.734474 0.232323 0.217467
0.790269 0.239059 0.218809
0.850300 0.245896 0.220154
0.248331 0.209649 0.204644
0.298112 0.214679 0.205654
0.341166 0.219876 0.206661
0.378913 0.225344 0.207698
0.412717 0.230971 0.208804
0.444017 0.236738 0.209959
0.474113 0.242709 0.211116
0.504222 0.248739 0.212322
0.535527 0.254935 0.213572
0.569027 0.261179 0.214834
0.605743 0.267519 0.216121
0.646560 0.273942 0.217424
0.692261 0.280371 0.218748
0.743460 0.286786 0.220110
0.800240 0.293225 0.221466
0.860954 0.299591 0.222854
0.255017 0.262142 0.206616
0.304170 0.267327 0.207666
0.346657 0.272649 0.208747
0.383917 0.278170 0.209909
0.417430 0.283785 0.211100
0.448583 0.289488 0.212276
0.478698 0.295278 0.213525
0.509048 0.301147 0.214787
0.540725 0.307055 0.216083
0.574787 0.312946 0.217387
0.612206 0.318903 0.218699
0.653856 0.324772 0.220062
0.700523 0.330716 0.221453
0.752802 0.336577 0.222812
0.810500 0.342400 0.224186
0.871789 0.348173 0.225593
0.262205 0.311813 0.208722
0.310595 0.316889 0.209856
0.352389 0.322025 0.211061
0.389174 0.327318 0.212247
0.422348 0.332619 0.213500
0.453367 0.338002 0.214752
0.483537 0.343387 0.216029
0.514093 0.348847 0.217339
0.546181 0.354309 0.218660
0.580783 0.359727 0.220020
0.618934 0.365163 0.221398
0.661461 0.370567 0.222784
0.709131 0.375989 0.224145
0.762458 0.381332 0.225537
0.820950 0.386607 0.226945
0.882746 0.391804 0.228310
0.269725 0.357244 0.211028
0.317262 0.362056 0.212213
0.358349 0.366936 0.213434
0.394580 0.371890 0.214679
0.427443 0.376919 0.215987
0.458305 0.381940 0.217313
0.488544 0.386993 0.218639
0.519329 0.392048 0.219974
0.551832 0.397102 0.221327
0.587034 0.402189 0.222737
0.625928 0.407220 0.224103
0.669359 0.412251 0.225481
0.717973 0.417275 0.226907
0.772292 0.422234 0.228281
0.831528 0.427154 0.229683
0.893735 0.432027 0.231040
0.277463 0.398789 0.213383
0.324144 0.403425 0.214643
0.364438 0.408144 0.215936
0.400137 0.412837 0.217249
0.432651 0.417650 0.218577
0.463392 0.422426 0.219951
0.493686 0.427257 0.221296
0.524727 0.432079 0.222669
0.557653 0.436929 0.224061
0.593488 0.441791 0.225450
0.633118 0.446642 0.226848
0.677401 0.451503 0.228237
0.726974 0.456309 0.229633
0.782254 0.461151 0.231016
0.842174 0.465962 0.232421
0.904726 0.470708 0.233774
0.285454 0.437826 0.215890
0.331079 0.442400 0.217210
0.370641 0.447021 0.218531
0.405748 0.451694 0.219904
0.437924 0.456433 0.221272
0.468562 0.461193 0.222621
0.498945 0.466004 0.223996
0.530276 0.470833 0.225402
0.563654 0.475718 0.226803
0.600074 0.480590 0.228192
0.640457 0.485493 0.229580
0.685621 0.490431 0.230971
0.736150 0.495348 0.232356
0.792308 0.500312 0.233733
0.852714 0.505227 0.235094
0.915515 0.510133 0.236452
0.293476 0.476066 0.218489
0.338086 0.480801 0.219836
0.376863 0.485566 0.221224
0.411422 0.490430 0.222576
0.443274 0.495386 0.223936
0.473807 0.500362 0.225350
0.504276 0.505422 0.226764
0.535881 0.510532 0.228149
0.569726 0.515703 0.229539
0.606770 0.520906 0.230934
0.647912 0.526141 0.232309
0.693881 0.531390 0.233676
0.745339 0.536683 0.235047
0.802273 0.542015 0.236425
0.863151 0.547372 0.237745
0.926108 0.552643 0.239031
0.301510 0.515750 0.221149
0.345080 0.520916 0.222552
0.383064 0.526162 0.223916
0.417072 0.531467 0.225305
0.448630 0.536868 0.226705
0.479063 0.542408 0.228089
0.509654 0.548005 0.229490
0.541548 0.553669 0.230879
0.575881 0.559413 0.232280
0.613528 0.565208 0.233631
0.655415 0.571082 0.235000
0.702207 0.576958 0.236363
0.754521 0.582883 0.237689
0.812111 0.588875 0.239007
0.873321 0.594809 0.240286
0.936339 0.600727 0.241516
0.309466 0.559397 0.223867
0.351981 0.565260 0.225253
0.389217 0.571276 0.226682
0.422706 0.577375 0.228051
0.453969 0.583546 0.229435
0.484333 0.589928 0.230836
0.515040 0.596324 0.232231
0.547249 0.602860 0.233597
0.582021 0.609438 0.234944
0.620297 0.616105 0.236292
0.662890 0.622843 0.237645
0.710486 0.629570 0.238935
0.763578 0.636343 0.240225
0.821666 0.643098 0.241496
0.883174 0.649905 0.242708
0.946174 0.656568 0.243921
0.317331 0.609623 0.226620
0.358775 0.616503 0.227993
0.395250 0.623585 0.229397
0.428245 0.630765 0.230800
0.459251 0.638029 0.232182
0.489568 0.645470 0.233562
0.520412 0.652998 0.234917
0.552946 0.660614 0.236248
0.588184 0.668279 0.237581
0.627024 0.675997 0.238886
0.670280 0.683795 0.240183
0.718588 0.691529 0.241468
0.772418 0.699271 0.242678
0.830969 0.706976 0.243889
0.892600 0.714678 0.245047
0.955527 0.722192 0.246174
0.324975 0.669114 0.229363
0.365417 0.677327 0.230748
0.401184 0.685711 0.232138
0.433693 0.694204 0.233524
0.464444 0.702799 0.234868
0.494706 0.711502 0.236211
0.525708 0.720321 0.237548
0.558557 0.729206 0.238864
0.594246 0.738051 0.240164
0.633663 0.746946 0.241427
0.677505 0.755787 0.242624
0.726533 0.764666 0.243860
0.780965 0.773330 0.245010
0.839822 0.781888 0.246150
0.901512 0.790336 0.247258
0.964220 0.798447 0.248321
0.332394 0.740237 0.232078
0.371886 0.749933 0.233465
0.406912 0.759829 0.234824
0.438977 0.769725 0.236190
0.469518 0.779716 0.237523
0.499747 0.789665 0.238833
0.530919 0.799706 0.240109
0.564070 0.809645 0.241388
0.600175 0.819418 0.242593
0.640073 0.829117 0.243814
0.684531 0.838645 0.244971
0.734170 0.848025 0.246139
0.789089 0.857070 0.247224
0.848164 0.865902 0.248293
0.909745 0.874416 0.249280
0.972277 0.882625 0.250227
0.339498 0.823355 0.234725
0.378079 0.834223 0.236127
0.412435 0.845120 0.237430
0.444113 0.856010 0.238784
0.474432 0.866764 0.240043
0.504634 0.877378 0.241307
0.535966 0.887904 0.242562
0.569365 0.898143 0.243773
0.605881 0.908268 0.244939
0.646272 0.918061 0.246087
0.691262 0.927612 0.247185
0.741358 0.936873 0.248244
0.796683 0.945718 0.249238
0.855846 0.954205 0.250195
0.917311 0.962251 0.251163
0.979481 0.969928 0.252006
0.232831 0.057111 0.240326
0.283576 0.060183 0.240966
0.327893 0.063715 0.241735
0.366564 0.067506 0.242505
0.401016 0.071608 0.243315
0.432586 0.076060 0.244197
0.462578 0.080785 0.245151
0.492160 0.085794 0.246146
0.522434 0.091046 0.247178
0.554541 0.096550 0.248244
0.589418 0.102358 0.249361
0.627933 0.108300 0.250481
0.671000 0.114482 0.251688
0.719243 0.120827 0.252875
0.773210 0.127392 0.254112
0.831814 0.134019 0.255383
0.237679 0.105968 0.241708
0.288185 0.110001 0.242458
0.332194 0.114356 0.243308
0.370614 0.118966 0.244174
0.404883 0.123886 0.245108
0.436352 0.129032 0.246101
0.466393 0.134447 0.247148
0.496148 0.140119 0.248201
0.526799 0.145948 0.249316
0.559360 0.152028 0.250447
0.594844 0.158230 0.251635
0.634182 0.164697 0.252843
0.678180 0.171246 0.254077
0.727452 0.177907 0.255317
0.782466 0.184735 0.256651
0.841836 0.191628 0.257939
0.243296 0.158154 0.243303
0.293439 0.162827 0.244172
0.337026 0.167798 0.245075
0.375022 0.172952 0.246058
0.409069 0.178396 0.247090
0.440470 0.183994 0.248179
0.470535 0.189849 0.249270
0.500494 0.195872 0.250420
0.531490 0.202030 0.251598
0.564548 0.208374 0.252806
0.600708 0.214820 0.254020
0.640866 0.221414 0.255301
0.685762 0.228070 0.256610
0.736108 0.234782 0.257907
0.792140 0.241570 0.259210
0.852257 0.248385 0.260550
0.249556 0.211457 0.245057
0.299180 0.216507 0.246025
0.342176 0.221834 0.247073
0.379824 0.227368 0.248152
0.413569 0.233044 0.249232
0.444850 0.238889 0.250376
0.474960 0.244907 0.251560
0.505101 0.250997 0.252762
0.536457 0.257207 0.253984
0.570073 0.263504 0.255250
0.606909 0.269871 0.256547
0.647903 0.276289 0.257850
0.693771 0.282717 0.259177
0.745171 0.289161 0.260503
0.802116 0.295548 0.261878
0.862938 0.301917 0.263243
0.256321 0.263991 0.247043
0.305325 0.269264 0.248109
0.347695 0.274664 0.249196
0.384874 0.280214 0.250343
0.418334 0.285864 0.251518
0.449475 0.291614 0.252716
0.479610 0.297413 0.253954
0.509982 0.303286 0.255215
0.541727 0.309216 0.256503
0.575875 0.315132 0.257812
0.613439 0.321060 0.259142
0.655270 0.326984 0.260461
0.702135 0.332868 0.261836
0.754585 0.338724 0.263189
0.812411 0.344521 0.264551
0.873849 0.350287 0.265895
0.263568 0.313662 0.249166
0.311787 0.318780 0.250304
0.353485 0.323936 0.251482
0.390166 0.329253 0.252674
0.423263 0.334582 0.253919
0.454279 0.339985 0.255189
0.484452 0.345386 0.256447
0.515050 0.350842 0.257764
0.547216 0.356305 0.259093
0.581939 0.361722 0.260423
0.620224 0.367166 0.261773
0.662909 0.372532 0.263129
0.710774 0.377944 0.264499
0.764283 0.383266 0.265867
0.822917 0.388530 0.267229
0.884801 0.393763 0.268587
0.271155 0.358998 0.251425
0.318507 0.363834 0.252636
0.359478 0.368772 0.253881
0.395599 0.373708 0.255139
0.428395 0.378751 0.256422
0.459255 0.383802 0.257736
0.489500 0.388824 0.259051
0.520326 0.393915 0.260376
0.552901 0.398976 0.261703
0.588235 0.404030 0.263080
0.627260 0.409073 0.264457
0.670815 0.414086 0.265825
0.719662 0.419100 0.267192
0.774161 0.424055 0.268555
0.833505 0.428953 0.269894
0.895788 0.433803 0.271253
0.278983 0.400531 0.253848
0.325405 0.405156 0.255101
0.365584 0.409847 0.256384
0.401149 0.414585 0.257689
0.433620 0.419391 0.259011
0.464362 0.424204 0.260344
0.494660 0.429014 0.261674
0.525742 0.433855 0.263035
