example_ofxGpuLutCube/bin/data/ofxGpuLutCube/LUT/V17 (red pink fade).cube
LUT_3D_SIZE 6
0.230469 0.054138 0.122009
0.364514 0.063336 0.123822
0.460565 0.075604 0.126166
0.552008 0.090503 0.128876
0.667187 0.107684 0.132031
0.826342 0.126737 0.135462
0.245971 0.206165 0.126087
0.377121 0.221365 0.128792
0.472450 0.238275 0.131911
0.566957 0.256585 0.135327
0.689268 0.275675 0.139001
0.856886 0.294849 0.142853
0.266846 0.353704 0.131812
0.392535 0.368252 0.135202
0.486664 0.383284 0.138897
0.584689 0.398478 0.142731
0.714633 0.413582 0.146720
0.889637 0.428455 0.150696
0.290460 0.472650 0.138751
0.409314 0.486871 0.142603
0.502290 0.501724 0.146572
0.604253 0.517056 0.150597
0.741913 0.532816 0.154578
0.922226 0.548760 0.158502
0.314429 0.604681 0.146479
0.426200 0.625492 0.150470
0.518420 0.647494 0.154474
0.624500 0.670313 0.158358
0.769149 0.693614 0.162122
0.952103 0.716632 0.165613
0.336880 0.815472 0.154345
0.442217 0.848113 0.158251
0.534089 0.880166 0.161994
0.643976 0.910901 0.165510
0.793914 0.939231 0.168740
0.976924 0.964406 0.171526
0.232831 0.057111 0.240326
0.366564 0.067506 0.242505
0.462578 0.080785 0.245151
0.554541 0.096550 0.248244
0.671000 0.114482 0.251688
0.831814 0.134019 0.255383
0.249556 0.211457 0.245057
0.379824 0.227368 0.248152
0.474960 0.244907 0.251560
0.570073 0.263504 0.255250
0.693771 0.282717 0.259177
0.862938 0.301917 0.263243
0.271155 0.358998 0.251425
0.395599 0.373708 0.255139
0.489500 0.388824 0.259051
0.588235 0.404030 0.263080
0.719662 0.419100 0.267192
0.895788 0.433803 0.271253
0.294954 0.477805 0.258915
0.412481 0.492242 0.262955
0.505294 0.507289 0.267045
0.608030 0.522825 0.271151
0.747065 0.538629 0.275145
0.928044 0.554601 0.278991
0.318743 0.612166 0.266887
0.429271 0.633424 0.271016
0.521396 0.655771 0.275015
0.628258 0.678841 0.278872
0.774058 0.702107 0.282523
0.957191 0.724906 0.285848
0.340817 0.827345 0.274872
0.445012 0.859947 0.278768
0.536886 0.891673 0.282397
0.647382 0.921600 0.285754
0.798008 0.948898 0.288771
0.980737 0.972622 0.291364
0.235462 0.060547 0.353418
0.368772 0.072045 0.355456
0.464675 0.086308 0.357832
0.557191 0.102938 0.360559
0.674971 0.121474 0.363548
0.837342 0.141550 0.366761
0.253292 0.217089 0.357753
0.382615 0.233631 0.360463
0.477516 0.251619 0.363455
0.573287 0.270516 0.366658
0.698422 0.289797 0.369968
0.868976 0.308873 0.373377
0.275469 0.364322 0.363359
0.398696 0.379254 0.366549
0.492388 0.394408 0.369871
0.591814 0.409569 0.373267
0.724672 0.424539 0.376687
0.901942 0.439137 0.380081
0.299469 0.483014 0.369781
0.415649 0.497700 0.373156
0.508285 0.512924 0.376583
0.611797 0.528607 0.379968
0.752217 0.544523 0.383261
0.933776 0.560449 0.386377
0.323042 0.619778 0.376465
0.432314 0.641508 0.379839
0.524366 0.664196 0.383144
0.631965 0.687403 0.386287
0.778821 0.710553 0.389235
0.962076 0.733012 0.391875
0.344644 0.839351 0.383022
0.447779 0.871715 0.386173
0.539610 0.902882 0.389112
0.650692 0.931971 0.391805
0.801959 0.958039 0.394192
0.984354 0.980271 0.396219
0.238293 0.064411 0.448957
0.371094 0.076960 0.450904
0.466881 0.092156 0.453154
0.559970 0.109523 0.455719
0.679046 0.128688 0.458484
0.843059 0.149179 0.461445
0.257174 0.222941 0.453068
0.385488 0.240079 0.455627
0.480160 0.258452 0.458392
0.576574 0.277555 0.461348
0.703119 0.296861 0.464460
0.875130 0.315775 0.467617
0.279912 0.369786 0.458285
0.401829 0.384793 0.461259
0.495282 0.399988 0.464356
0.595472 0.415104 0.467509
0.729786 0.429952 0.470717
0.908016 0.444373 0.473869
0.303937 0.488321 0.464255
0.418804 0.503235 0.467410
0.511296 0.518635 0.470602
0.615579 0.534403 0.473773
0.757315 0.550370 0.476858
0.939408 0.566263 0.479780
0.327255 0.627644 0.470487
0.435306 0.649718 0.473660
0.527315 0.672646 0.476746
0.635612 0.695938 0.479701
0.783483 0.718931 0.482443
0.966765 0.740901 0.484945
0.348357 0.851286 0.476644
0.450486 0.883354 0.479601
0.542273 0.913816 0.482351
0.653893 0.941885 0.484864
0.805701 0.966673 0.487083
0.987666 0.987394 0.488939
0.241388 0.068689 0.546307
0.373554 0.082265 0.548768
0.469153 0.098267 0.551636
0.562833 0.116343 0.554868
0.683249 0.136106 0.558374
0.848868 0.156978 0.562128
0.261201 0.229067 0.551541
0.388441 0.246706 0.554757
0.482877 0.265429 0.558261
0.579966 0.284639 0.561993
0.707911 0.303838 0.565940
0.881244 0.322539 0.569961
0.284359 0.375246 0.558153
0.405004 0.390387 0.561890
0.498210 0.405537 0.565811
0.599167 0.420569 0.569858
0.734910 0.435318 0.573955
0.914103 0.449581 0.578010
0.308433 0.493750 0.565680
0.421944 0.508808 0.569722
0.514322 0.524382 0.573809
0.619388 0.540265 0.577893
0.762397 0.556259 0.581888
0.944841 0.572008 0.585664
0.331382 0.635571 0.573667
0.438271 0.658066 0.577757
0.530229 0.681177 0.581736
0.639214 0.704415 0.585540
0.788015 0.727158 0.589114
0.971200 0.748588 0.592317
0.351977 0.863184 0.581573
0.453072 0.894783 0.585424
0.544845 0.924450 0.588980
0.656948 0.951427 0.592239
0.809199 0.974786 0.595035
0.990636 0.993836 0.597347
0.244746 0.073387 0.681135
0.376143 0.087851 0.685148
0.471560 0.104665 0.689789
0.565840 0.123444 0.694961
0.687597 0.143616 0.700559
0.854736 0.164809 0.706467
0.265313 0.235329 0.689600
0.391427 0.253453 0.694782
0.485636 0.272427 0.700362
0.583405 0.291699 0.706306
0.712836 0.310776 0.712540
0.887386 0.329208 0.718865
0.288853 0.380746 0.700157
0.408152 0.395925 0.706124
0.501195 0.411066 0.712353
0.602887 0.425990 0.718694
0.740049 0.440585 0.725146
0.920019 0.454681 0.731495
0.312829 0.499203 0.712135
0.425059 0.514489 0.718490
0.517305 0.530130 0.724928
0.623132 0.546074 0.731282
0.767351 0.562083 0.737474
0.950221 0.577737 0.743390
0.335449 0.643749 0.724699
0.441175 0.666441 0.731078
0.533081 0.689701 0.737295
0.642748 0.712861 0.743220
0.792337 0.735201 0.748655
0.975380 0.755968 0.753565
0.355494 0.874882 0.737044
0.455608 0.905892 0.743020
0.547356 0.934727 0.748494
0.659852 0.960414 0.753417
0.812455 0.982278 0.757598
0.993328 0.999560 0.760897
