example_ofxGpuLutCube/bin/data/ofxGpuLutCube/LUT/V18 (warm dark fade_1).cube
LUT_3D_SIZE 6
0.039215 0.027924 0.000000
0.109961 0.030652 0.000000
0.241669 0.034375 0.000000
0.471973 0.039007 0.000000
0.738056 0.044452 0.000000
0.999583 0.048519 0.000000
0.050409 0.101490 0.000000
0.127135 0.106848 0.000000
0.271958 0.113344 0.000000
0.496444 0.118477 0.000000
0.746366 0.121873 0.000000
0.999593 0.125732 0.000000
0.066724 0.241815 0.000000
0.146031 0.249692 0.000000
0.289865 0.254656 0.000000
0.508572 0.260310 0.000000
0.753306 0.266492 0.000000
0.999605 0.273085 0.000000
0.076459 0.473163 0.000000
0.156228 0.478297 0.000000
0.305016 0.483897 0.000000
0.522078 0.489741 0.000000
0.760599 0.495772 0.000000
0.999617 0.501772 0.000000
0.084594 0.738391 0.000000
0.168416 0.741568 0.000000
0.321631 0.744787 0.000000
0.535851 0.747999 0.000000
0.767731 0.751146 0.000000
0.999629 0.754128 0.000000
0.093704 0.999617 0.000000
0.181790 0.999623 0.000000
0.338298 0.999628 0.000000
0.548796 0.999633 0.000000
0.774051 0.999638 0.000000
0.999638 0.999642 0.000000
0.040674 0.028809 0.044226
0.112550 0.031884 0.045866
0.246806 0.035958 0.048116
0.477429 0.040903 0.051039
0.740972 0.046626 0.054796
0.999584 0.049434 0.056821
0.053210 0.103306 0.048053
0.131053 0.109087 0.050936
0.277777 0.115888 0.054606
0.498545 0.119665 0.056755
0.747630 0.123213 0.058824
0.999595 0.127259 0.061201
0.069922 0.245736 0.054502
0.147750 0.251413 0.056696
0.292509 0.256646 0.058759
0.511019 0.262507 0.061127
0.754661 0.268881 0.063701
0.999607 0.275554 0.066475
0.077885 0.474972 0.058678
0.158381 0.480299 0.061044
0.308040 0.486013 0.063618
0.524680 0.491932 0.066388
0.761952 0.497968 0.069230
0.999619 0.503948 0.072123
0.086234 0.739547 0.063530
0.170845 0.742752 0.066289
0.324769 0.745947 0.069163
0.538390 0.749181 0.072040
0.768983 0.752239 0.074914
0.999630 0.755122 0.077629
0.095468 0.999619 0.069046
0.184319 0.999625 0.071954
0.341343 0.999630 0.074807
0.551033 0.999635 0.077546
0.775146 0.999639 0.080084
0.999640 0.999644 0.082296
0.042450 0.029797 0.179620
0.115424 0.033274 0.182499
0.252218 0.037682 0.186321
0.482888 0.042923 0.191327
0.742530 0.047864 0.196477
0.999586 0.050442 0.199323
0.056183 0.105285 0.186200
0.135134 0.111488 0.191144
0.281649 0.117683 0.196395
0.500741 0.120910 0.199232
0.748873 0.124679 0.202609
0.999598 0.128861 0.206308
0.072098 0.248505 0.196306
0.149557 0.253264 0.199133
0.295257 0.258730 0.202474
0.513516 0.264779 0.206200
0.756009 0.271294 0.210197
0.999610 0.278103 0.214432
0.079353 0.476884 0.202363
0.160574 0.482362 0.206050
0.311104 0.488155 0.210067
0.527247 0.494155 0.214285
0.763302 0.500200 0.218571
0.999622 0.506100 0.222858
0.087909 0.740746 0.209916
0.173324 0.743921 0.214143
0.327928 0.747140 0.218418
0.540856 0.750304 0.222720
0.770244 0.753327 0.226838
0.999632 0.756131 0.230713
0.097214 0.999621 0.218255
0.186868 0.999627 0.222548
0.344278 0.999632 0.226690
0.553191 0.999636 0.230600
0.776116 0.999641 0.234117
0.999641 0.999645 0.237072
0.044544 0.030963 0.429218
0.118608 0.034800 0.432489
0.257891 0.039502 0.436752
0.488325 0.045027 0.442173
0.743623 0.048751 0.446146
0.999589 0.051466 0.449122
0.059235 0.107435 0.436610
0.139330 0.114055 0.442009
0.283947 0.118788 0.446070
0.502979 0.122229 0.449027
0.750165 0.126166 0.452392
0.999600 0.130520 0.456134
0.073329 0.250154 0.445974
0.151449 0.255193 0.448925
0.298088 0.260884 0.452310
0.516034 0.267148 0.456001
0.757368 0.273785 0.459874
0.999612 0.280637 0.463882
0.080860 0.478846 0.452157
0.162841 0.484450 0.455851
0.314213 0.490350 0.459753
0.529841 0.496379 0.463764
0.764654 0.502372 0.467777
0.999624 0.508220 0.471698
0.089618 0.741895 0.459624
0.175806 0.745125 0.463620
0.331043 0.748320 0.467643
0.543270 0.751429 0.471574
0.771424 0.754357 0.475325
0.999634 0.757047 0.478690
0.098996 0.999623 0.467480
0.189406 0.999628 0.471447
0.347151 0.999633 0.475143
0.555245 0.999638 0.478607
0.777045 0.999642 0.481623
0.999642 0.999646 0.484108
0.046863 0.032269 0.742713
0.122034 0.036433 0.744683
0.263791 0.041453 0.747291
0.493342 0.047081 0.750464
0.744787 0.049718 0.751955
0.999591 0.052571 0.753720
0.062395 0.109727 0.747211
0.143210 0.116521 0.750296
0.286389 0.119995 0.751919
0.505319 0.123611 0.753660
0.751480 0.127730 0.755564
0.999602 0.132224 0.757609
0.074613 0.251908 0.751864
0.153437 0.257204 0.753571
0.300970 0.263123 0.755487
0.518585 0.269524 0.757550
0.758746 0.276286 0.759704
0.999614 0.283204 0.761864
0.082436 0.480866 0.755433
0.165156 0.486584 0.757485
0.317333 0.492532 0.759622
0.532411 0.498591 0.761817
0.765972 0.504554 0.763984
0.999626 0.510285 0.766032
0.091322 0.743059 0.759560
0.178342 0.746281 0.761751
0.334171 0.749484 0.763927
0.545654 0.752554 0.765991
0.772573 0.755421 0.767971
0.999636 0.757994 0.769730
0.100790 0.999626 0.763830
0.191902 0.999630 0.765907
0.349962 0.999635 0.767877
0.557225 0.999640 0.769642
0.777955 0.999644 0.771144
0.999644 0.999647 0.772376
0.049433 0.033659 1.000000
0.125708 0.038150 1.000000
0.269760 0.043466 1.000000
0.495706 0.048100 1.000000
0.745951 0.050719 1.000000
0.999593 0.053704 1.000000
0.065559 0.112166 1.000000
0.145432 0.117977 1.000000
0.288920 0.121265 1.000000
0.507706 0.125058 1.000000
0.752799 0.129328 1.000000
0.999604 0.133949 1.000000
0.075974 0.253793 1.000000
0.155468 0.259289 1.000000
0.303925 0.265420 1.000000
0.521128 0.271946 1.000000
0.760108 0.278811 1.000000
0.999616 0.285775 1.000000
0.083982 0.482925 1.000000
0.167539 0.488756 1.000000
0.320452 0.494759 1.000000
0.534949 0.500771 1.000000
0.767260 0.506679 1.000000
0.999628 0.512323 1.000000
0.093082 0.744224 1.000000
0.180861 0.747441 1.000000
0.337219 0.750595 1.000000
0.547978 0.753617 1.000000
0.773698 0.756402 1.000000
0.999637 0.758839 1.000000
0.102552 0.999627 1.000000
0.194383 0.999632 1.000000
0.352676 0.999637 1.000000
0.559081 0.999641 1.000000
0.778740 0.999645 1.000000
0.999644 0.999647 1.000000
