example_ofxGpuLutCube/bin/data/ofxGpuLutCube/LUT/V18 (warm dark fade_1).cube
LUT_3D_SIZE 16
0.039215 0.027924 0.000000
0.060317 0.028715 0.000000
0.083254 0.029602 0.000000
0.109961 0.030652 0.000000
0.143211 0.031771 0.000000
0.186269 0.033010 0.000000
0.241669 0.034375 0.000000
0.309483 0.035817 0.000000
0.387353 0.037364 0.000000
0.471973 0.039007 0.000000
0.559967 0.040731 0.000000
0.648932 0.042564 0.000000
0.738056 0.044452 0.000000
0.826587 0.046413 0.000000
0.913652 0.047675 0.000000
0.999583 0.048519 0.000000
0.042076 0.049691 0.000000
0.063601 0.050678 0.000000
0.087145 0.051768 0.000000
0.114820 0.053009 0.000000
0.149376 0.054332 0.000000
0.194083 0.055733 0.000000
0.251084 0.057293 0.000000
0.319756 0.058921 0.000000
0.397765 0.060650 0.000000
0.481718 0.062477 0.000000
0.568345 0.064391 0.000000
0.655762 0.066380 0.000000
0.742304 0.067753 0.000000
0.828296 0.068576 0.000000
0.914309 0.069433 0.000000
0.999586 0.070375 0.000000
0.045874 0.073497 0.000000
0.067758 0.074730 0.000000
0.091914 0.076135 0.000000
0.120573 0.077639 0.000000
0.156593 0.079254 0.000000
0.202934 0.080961 0.000000
0.261254 0.082776 0.000000
0.330646 0.084731 0.000000
0.408458 0.086777 0.000000
0.491275 0.088881 0.000000
0.575279 0.090405 0.000000
0.659279 0.091308 0.000000
0.744288 0.092261 0.000000
0.829685 0.093253 0.000000
0.915053 0.094297 0.000000
0.999590 0.095406 0.000000
0.050409 0.101490 0.000000
0.072625 0.103123 0.000000
0.097444 0.104907 0.000000
0.127135 0.106848 0.000000
0.164591 0.108874 0.000000
0.212473 0.111029 0.000000
0.271958 0.113344 0.000000
0.341492 0.115679 0.000000
0.417329 0.117473 0.000000
0.496444 0.118477 0.000000
0.578440 0.119554 0.000000
0.661953 0.120668 0.000000
0.746366 0.121873 0.000000
0.831155 0.123099 0.000000
0.915849 0.124421 0.000000
0.999593 0.125732 0.000000
0.055540 0.136700 0.000000
0.078056 0.138904 0.000000
0.103521 0.141273 0.000000
0.134255 0.143786 0.000000
0.173125 0.146461 0.000000
0.222258 0.149191 0.000000
0.281167 0.151336 0.000000
0.347536 0.152477 0.000000
0.421415 0.153738 0.000000
0.500280 0.155038 0.000000
0.581823 0.156405 0.000000
0.664790 0.157853 0.000000
0.748617 0.159364 0.000000
0.832650 0.160896 0.000000
0.916575 0.162535 0.000000
0.999597 0.164199 0.000000
0.061066 0.182678 0.000000
0.083889 0.185591 0.000000
0.109989 0.188655 0.000000
0.141689 0.191809 0.000000
0.180676 0.194328 0.000000
0.227885 0.195672 0.000000
0.285351 0.197089 0.000000
0.351943 0.198602 0.000000
0.425760 0.200190 0.000000
0.504338 0.201841 0.000000
0.585375 0.203552 0.000000
0.667772 0.205340 0.000000
0.750885 0.207200 0.000000
0.834264 0.209101 0.000000
0.917396 0.211027 0.000000
0.999601 0.213034 0.000000
0.066724 0.241815 0.000000
0.089857 0.245420 0.000000
0.115747 0.248149 0.000000
0.146031 0.249692 0.000000
0.184157 0.251275 0.000000
0.231952 0.252903 0.000000
0.289865 0.254656 0.000000
0.356639 0.256463 0.000000
0.430384 0.258343 0.000000
0.508572 0.260310 0.000000
0.589095 0.262309 0.000000
0.670865 0.264393 0.000000
0.753306 0.266492 0.000000
0.835887 0.268657 0.000000
0.918196 0.270845 0.000000
0.999605 0.273085 0.000000
0.071769 0.312665 0.000000
0.093333 0.314321 0.000000
0.118391 0.315924 0.000000
0.149188 0.317631 0.000000
0.187917 0.319426 0.000000
0.236331 0.321299 0.000000
0.294689 0.323237 0.000000
0.361593 0.325233 0.000000
0.435191 0.327296 0.000000
0.512988 0.329422 0.000000
0.592909 0.331564 0.000000
0.674013 0.333791 0.000000
0.755704 0.336022 0.000000
0.837503 0.338326 0.000000
0.919052 0.340618 0.000000
0.999609 0.342895 0.000000
0.074058 0.389622 0.000000
0.095773 0.391279 0.000000
0.121247 0.393024 0.000000
0.152590 0.394831 0.000000
0.191959 0.396712 0.000000
0.241009 0.398643 0.000000
0.299747 0.400657 0.000000
0.366765 0.402689 0.000000
0.440160 0.404777 0.000000
0.517501 0.406922 0.000000
0.596844 0.409062 0.000000
0.677238 0.411241 0.000000
0.758145 0.413442 0.000000
0.839147 0.415662 0.000000
0.919854 0.417879 0.000000
0.999613 0.420117 0.000000
0.076459 0.473163 0.000000
0.098438 0.474829 0.000000
0.124321 0.476505 0.000000
0.156228 0.478297 0.000000
0.196281 0.480104 0.000000
0.245919 0.481974 0.000000
0.305016 0.483897 0.000000
0.372108 0.485813 0.000000
0.445244 0.487763 0.000000
0.522078 0.489741 0.000000
0.600785 0.491760 0.000000
0.680438 0.493743 0.000000
0.760599 0.495772 0.000000
0.840791 0.497798 0.000000
0.920676 0.499788 0.000000
0.999617 0.501772 0.000000
0.079041 0.560262 0.000000
0.101275 0.561798 0.000000
0.127592 0.563382 0.000000
0.160101 0.564962 0.000000
0.200819 0.566597 0.000000
0.251058 0.568264 0.000000
0.310443 0.569954 0.000000
0.377561 0.571690 0.000000
0.450396 0.573409 0.000000
0.526697 0.575128 0.000000
0.604736 0.576874 0.000000
0.683672 0.578562 0.000000
0.763039 0.580294 0.000000
0.842389 0.582022 0.000000
0.921494 0.583717 0.000000
0.999621 0.585380 0.000000
0.081734 0.649038 0.000000
0.104274 0.650329 0.000000
0.131047 0.651676 0.000000
0.164187 0.653019 0.000000
0.205539 0.654414 0.000000
0.256320 0.655781 0.000000
0.316001 0.657205 0.000000
0.383070 0.658615 0.000000
0.455592 0.660037 0.000000
0.531321 0.661467 0.000000
0.608643 0.662899 0.000000
0.686846 0.664268 0.000000
0.765405 0.665657 0.000000
0.843996 0.667026 0.000000
0.922279 0.668400 0.000000
0.999625 0.669691 0.000000
0.084594 0.738391 0.000000
0.107419 0.739450 0.000000
0.134666 0.740497 0.000000
0.168416 0.741568 0.000000
0.210455 0.742633 0.000000
0.261737 0.743695 0.000000
0.321631 0.744787 0.000000
0.388604 0.745863 0.000000
0.460761 0.746922 0.000000
0.535851 0.747999 0.000000
0.612486 0.749044 0.000000
0.689944 0.750123 0.000000
0.767731 0.751146 0.000000
0.845500 0.752120 0.000000
0.923006 0.753132 0.000000
0.999629 0.754128 0.000000
0.087547 0.827747 0.000000
0.110676 0.828449 0.000000
0.138413 0.829146 0.000000
0.172783 0.829890 0.000000
0.215461 0.830623 0.000000
0.267195 0.831315 0.000000
0.327271 0.832042 0.000000
0.394095 0.832753 0.000000
0.465813 0.833497 0.000000
0.540354 0.834195 0.000000
0.616225 0.834865 0.000000
0.692930 0.835582 0.000000
0.770004 0.836231 0.000000
0.846994 0.836858 0.000000
0.923725 0.837514 0.000000
0.999631 0.838121 0.000000
0.090598 0.916370 0.000000
0.114086 0.916760 0.000000
0.142263 0.917166 0.000000
0.177262 0.917471 0.000000
0.220522 0.917860 0.000000
0.272661 0.918225 0.000000
0.332830 0.918590 0.000000
0.399482 0.918915 0.000000
0.470787 0.919249 0.000000
0.544657 0.919592 0.000000
0.619899 0.919975 0.000000
0.695815 0.920287 0.000000
0.772094 0.920573 0.000000
0.848394 0.920915 0.000000
0.924435 0.921218 0.000000
0.999635 0.921509 0.000000
0.093704 0.999617 0.000000
0.117492 0.999619 0.000000
0.146217 0.999621 0.000000
0.181790 0.999623 0.000000
0.225614 0.999625 0.000000
0.278121 0.999627 0.000000
0.338298 0.999628 0.000000
0.404759 0.999629 0.000000
0.475555 0.999631 0.000000
0.548796 0.999633 0.000000
0.623325 0.999635 0.000000
0.698528 0.999636 0.000000
0.774051 0.999638 0.000000
0.849703 0.999639 0.000000
0.925058 0.999640 0.000000
0.999638 0.999642 0.000000
0.039658 0.028206 0.000146
0.060858 0.029031 0.000174
0.083894 0.029962 0.000204
0.110804 0.031038 0.000238
0.144285 0.032194 0.000277
0.187648 0.033495 0.000317
0.243329 0.034891 0.000365
0.311323 0.036355 0.000414
0.389260 0.037948 0.000469
0.473819 0.039622 0.000527
0.561513 0.041363 0.000592
0.650250 0.043235 0.000662
0.739056 0.045154 0.000739
0.827193 0.047125 0.001230
0.913780 0.048015 0.001801
0.999583 0.048804 0.002272
0.042714 0.050014 0.000203
0.064306 0.051062 0.000238
0.088001 0.052214 0.000274
0.115824 0.053483 0.000317
0.150675 0.054842 0.000363
0.195657 0.056292 0.000411
0.252913 0.057867 0.000467
0.321745 0.059540 0.000525
0.399748 0.061312 0.000591
0.483541 0.063168 0.000659
0.569899 0.065119 0.000756
0.656942 0.067097 0.001197
0.742642 0.068059 0.001772
0.828549 0.068894 0.002246
0.914492 0.069777 0.002784
0.999587 0.070723 0.003352
0.046670 0.073950 0.000273
0.068625 0.075239 0.000317
0.092883 0.076662 0.000363
0.121745 0.078202 0.000409
0.158016 0.079854 0.000466
0.204658 0.081621 0.000523
0.263267 0.083489 0.000588
0.332697 0.085467 0.000657
0.410422 0.087560 0.000763
0.492900 0.089603 0.001132
0.575811 0.090733 0.001752
0.659762 0.091653 0.002243
0.744649 0.092627 0.002762
0.829943 0.093633 0.003351
0.915160 0.094709 0.003926
0.999591 0.095800 0.004579
0.051335 0.102100 0.000361
0.073611 0.103775 0.000409
0.098537 0.105621 0.000464
0.128423 0.107575 0.000522
0.166137 0.109644 0.000585
0.214299 0.111871 0.000655
0.273985 0.114207 0.000763
0.343261 0.116472 0.001103
0.418079 0.117841 0.001720
0.497156 0.118863 0.002223
0.579039 0.119947 0.002754
0.662509 0.121089 0.003328
0.746801 0.122316 0.003920
0.831422 0.123575 0.004528
0.915985 0.124882 0.005172
0.999594 0.126255 0.005860
0.056548 0.137511 0.000462
0.079110 0.139778 0.000520
0.104706 0.142165 0.000585
0.135660 0.144751 0.000652
0.174759 0.147472 0.000751
0.223801 0.150066 0.001086
0.281922 0.151741 0.001705
0.348337 0.152946 0.002204
0.422218 0.154184 0.002740
0.500988 0.155524 0.003316
0.582458 0.156926 0.003895
0.665368 0.158373 0.004506
0.749032 0.159919 0.005172
0.832946 0.161519 0.005854
0.916734 0.163151 0.006551
0.999598 0.164796 0.007230
0.062106 0.183728 0.000582
0.084978 0.186671 0.000649
0.111229 0.189827 0.000739
0.142821 0.192804 0.001068
0.181320 0.194812 0.001693
0.228623 0.196184 0.002200
0.286158 0.197638 0.002732
0.352800 0.199177 0.003295
0.426592 0.200766 0.003881
0.505099 0.202440 0.004497
0.586062 0.204194 0.005144
0.668381 0.206006 0.005829
0.751384 0.207887 0.006524
0.834548 0.209813 0.007214
0.917558 0.211772 0.007950
0.999602 0.213779 0.008692
0.067856 0.243132 0.000723
0.090750 0.246488 0.001060
0.116261 0.248761 0.001691
0.146595 0.250235 0.002184
0.184840 0.251856 0.002713
0.232743 0.253544 0.003281
0.290731 0.255309 0.003854
0.357544 0.257129 0.004481
0.431250 0.259033 0.005128
0.509403 0.261033 0.005787
0.589789 0.263065 0.006491
0.671458 0.265150 0.007189
0.753738 0.267258 0.007929
0.836196 0.269465 0.008667
0.918381 0.271692 0.009451
0.999606 0.273949 0.010209
0.072229 0.313330 0.001663
0.093760 0.314903 0.002168
0.118915 0.316561 0.002678
0.149785 0.318300 0.003250
0.188662 0.320127 0.003847
0.237197 0.321993 0.004465
0.295623 0.323963 0.005110
0.362547 0.325972 0.005780
0.436100 0.328075 0.006468
0.513805 0.330199 0.007185
0.593639 0.332397 0.007912
0.674636 0.334598 0.008656
0.756187 0.336843 0.009409
0.837826 0.339130 0.010179
0.919199 0.341452 0.010967
0.999610 0.343749 0.011740
0.074487 0.390208 0.002674
0.096278 0.391925 0.003244
0.121804 0.393694 0.003829
0.153250 0.395506 0.004440
0.192752 0.397427 0.005098
0.241909 0.399388 0.005752
0.300722 0.401401 0.006451
0.367767 0.403474 0.007155
0.441106 0.405549 0.007887
0.518338 0.407694 0.008624
0.597554 0.409857 0.009363
0.677815 0.412046 0.010145
0.758620 0.414261 0.010937
0.839458 0.416500 0.011723
0.920019 0.418722 0.012500
0.999614 0.420933 0.013289
0.076932 0.473739 0.003813
0.098961 0.475439 0.004434
0.124921 0.477178 0.005069
0.156936 0.478994 0.005741
0.197105 0.480800 0.006424
0.246863 0.482682 0.007120
0.306032 0.484573 0.007878
0.373108 0.486527 0.008592
0.446208 0.488506 0.009353
0.522952 0.490477 0.010130
0.601522 0.492500 0.010923
0.681079 0.494490 0.011690
0.761051 0.496509 0.012474
0.841084 0.498552 0.013288
0.920810 0.500531 0.014047
0.999618 0.502494 0.014867
0.079543 0.560813 0.005065
0.101824 0.562373 0.005720
0.128219 0.563981 0.006405
0.160852 0.565574 0.007105
0.201684 0.567226 0.007840
0.252036 0.568874 0.008561
0.311484 0.570589 0.009332
0.378577 0.572315 0.010109
0.451368 0.574015 0.010894
0.527568 0.575745 0.011658
0.605458 0.577504 0.012465
0.684256 0.579208 0.013257
0.763466 0.580951 0.014034
0.842727 0.582627 0.014831
0.921636 0.584319 0.015610
0.999622 0.585990 0.016417
0.082271 0.649513 0.006389
0.104839 0.650823 0.007079
0.131710 0.652191 0.007818
0.164951 0.653518 0.008542
0.206458 0.654918 0.009301
0.257349 0.656294 0.010081
0.317047 0.657727 0.010846
0.384101 0.659142 0.011643
0.456554 0.660565 0.012424
0.532167 0.661964 0.013232
0.609380 0.663385 0.014024
0.687427 0.664796 0.014809
0.765862 0.666133 0.015587
0.844279 0.667494 0.016370
0.922409 0.668855 0.017145
0.999626 0.670181 0.017912
0.085156 0.738778 0.007767
0.108021 0.739814 0.008524
0.135357 0.740918 0.009291
0.169233 0.741961 0.010039
0.211381 0.743045 0.010831
0.262744 0.744112 0.011611
0.322661 0.745179 0.012402
0.389623 0.746269 0.013203
0.461695 0.747315 0.013986
0.536704 0.748412 0.014777
0.613193 0.749455 0.015555
0.690525 0.750512 0.016340
0.768160 0.751480 0.017127
0.845796 0.752533 0.017909
0.923195 0.753511 0.018630
0.999629 0.754410 0.019397
0.088110 0.828005 0.009266
0.111307 0.828737 0.010028
0.139142 0.829432 0.010809
0.173612 0.830148 0.011579
0.216393 0.830858 0.012370
0.268221 0.831594 0.013161
0.328311 0.832334 0.013969
0.395126 0.833037 0.014771
0.466757 0.833752 0.015537
0.541148 0.834444 0.016325
0.616931 0.835087 0.017097
0.693484 0.835813 0.017882
0.770359 0.836484 0.018619
0.847250 0.837090 0.019345
0.923836 0.837761 0.020058
0.999632 0.838372 0.020743
0.091167 0.916500 0.010783
0.114693 0.916891 0.011524
0.143021 0.917246 0.012336
0.178095 0.917588 0.013129
0.221503 0.917942 0.013949
0.273683 0.918372 0.014722
0.333904 0.918680 0.015491
0.400474 0.919049 0.016293
0.471700 0.919377 0.017069
0.545457 0.919717 0.017828
0.620515 0.920086 0.018593
0.696347 0.920378 0.019315
0.772479 0.920724 0.020049
0.848609 0.920997 0.020742
0.924541 0.921315 0.021413
0.999635 0.921579 0.022018
0.094272 0.999618 0.012326
0.118128 0.999620 0.013089
0.146952 0.999622 0.013907
0.182624 0.999624 0.014691
0.226552 0.999625 0.015482
0.279108 0.999627 0.016270
0.339319 0.999629 0.017041
0.405707 0.999630 0.017788
0.476434 0.999632 0.018561
0.549542 0.999633 0.019293
0.623906 0.999635 0.020011
0.698992 0.999637 0.020708
0.774412 0.999638 0.021373
0.849874 0.999640 0.022011
0.925128 0.999641 0.022646
0.999638 0.999643 0.023239
0.040164 0.028519 0.016003
0.061430 0.029376 0.016424
0.084620 0.030341 0.016925
0.111645 0.031453 0.017473
0.145379 0.032673 0.018050
0.189050 0.033989 0.018701
0.245041 0.035411 0.019455
0.313220 0.036951 0.020226
0.391146 0.038550 0.021063
0.475623 0.040255 0.022025
0.563106 0.042063 0.023029
0.651530 0.043929 0.024126
0.739969 0.045878 0.025325
0.827465 0.047469 0.026351
0.913909 0.048299 0.026822
0.999584 0.049115 0.027358
0.043382 0.050393 0.016903
0.065047 0.051477 0.017465
0.088841 0.052663 0.018045
0.116843 0.053938 0.018693
0.151956 0.055372 0.019428
0.197272 0.056881 0.020172
0.254787 0.058473 0.021060
0.323764 0.060185 0.021989
0.401723 0.061970 0.023001
0.485371 0.063884 0.024096
0.571422 0.065833 0.025271
0.657589 0.067496 0.026280
0.743006 0.068376 0.026805
0.828808 0.069209 0.027358
0.914615 0.070150 0.027955
0.999587 0.071097 0.028560
0.047473 0.074400 0.018020
0.069493 0.075749 0.018669
0.093919 0.077227 0.019377
0.122933 0.078791 0.020159
0.159495 0.080497 0.021024
0.206411 0.082286 0.021943
0.265242 0.084194 0.022953
0.334759 0.086220 0.024065
0.412330 0.088302 0.025224
0.494037 0.090113 0.026249
0.576416 0.091068 0.026808
0.660270 0.091987 0.027337
0.745090 0.092988 0.027926
0.830217 0.094015 0.028534
0.915319 0.095098 0.029175
0.999591 0.096210 0.029863
0.052258 0.102687 0.019370
0.074602 0.104446 0.020135
0.099642 0.106309 0.020997
0.129723 0.108339 0.021934
0.167727 0.110464 0.022926
0.216144 0.112708 0.024028
0.275931 0.115069 0.025183
0.344666 0.117111 0.026206
0.418828 0.118221 0.026790
0.497849 0.119261 0.027327
0.579686 0.120355 0.027921
0.662980 0.121545 0.028529
0.747216 0.122779 0.029152
0.831708 0.124057 0.029838
0.916115 0.125367 0.030515
0.999595 0.126763 0.031224
0.057563 0.138304 0.020968
0.080195 0.140641 0.021897
0.105894 0.143090 0.022893
0.137052 0.145755 0.023994
0.176343 0.148489 0.025151
0.225156 0.150835 0.026174
0.282697 0.152157 0.026762
0.349157 0.153394 0.027322
0.423018 0.154695 0.027888
0.501759 0.156029 0.028493
0.583130 0.157466 0.029140
0.665898 0.158946 0.029808
0.749457 0.160489 0.030493
0.833282 0.162104 0.031219
0.916865 0.163757 0.031979
0.999599 0.165463 0.032733
0.063159 0.184769 0.022865
0.086106 0.187811 0.023976
0.112446 0.190988 0.025109
0.143881 0.193734 0.026141
0.181955 0.195337 0.026759
0.229345 0.196714 0.027289
0.286990 0.198168 0.027873
0.353682 0.199755 0.028481
0.427455 0.201379 0.029111
0.505893 0.203079 0.029787
0.586737 0.204859 0.030472
0.668931 0.206671 0.031200
0.751803 0.208575 0.031943
0.834838 0.210506 0.032727
0.917689 0.212506 0.033500
0.999603 0.214519 0.034308
0.068925 0.244444 0.025070
0.091580 0.247463 0.026119
0.116734 0.249293 0.026744
0.147169 0.250845 0.027276
0.185527 0.252471 0.027862
0.233564 0.254189 0.028469
0.291619 0.255967 0.029085
0.358469 0.257833 0.029759
0.432124 0.259751 0.030452
0.510194 0.261742 0.031177
0.590498 0.263814 0.031923
0.672050 0.265914 0.032686
0.754200 0.268096 0.033485
0.836471 0.270265 0.034281
0.918525 0.272496 0.035094
0.999606 0.274743 0.035912
0.072636 0.313893 0.026742
0.094216 0.315504 0.027253
0.119427 0.317170 0.027840
0.150412 0.318933 0.028441
0.189413 0.320816 0.029075
0.238049 0.322714 0.029731
0.296525 0.324683 0.030438
0.363514 0.326726 0.031141
0.437033 0.328834 0.031893
0.514647 0.330991 0.032668
0.594361 0.333196 0.033449
0.675208 0.335430 0.034268
0.756625 0.337674 0.035070
0.838110 0.339995 0.035886
0.919336 0.342289 0.036726
0.999611 0.344597 0.037563
0.074939 0.390823 0.027822
0.096753 0.392558 0.028436
0.122373 0.394340 0.029051
0.153915 0.396194 0.029709
0.193553 0.398160 0.030401
0.242817 0.400122 0.031130
0.301686 0.402149 0.031868
0.368747 0.404215 0.032648
0.442050 0.406340 0.033420
0.519215 0.408480 0.034225
0.598295 0.410666 0.035030
0.678429 0.412843 0.035870
0.759065 0.415052 0.036705
0.839760 0.417293 0.037533
0.920206 0.419516 0.038404
0.999615 0.421740 0.039246
0.077393 0.474368 0.029029
0.099471 0.476055 0.029689
0.125523 0.477844 0.030392
0.157645 0.479629 0.031101
0.197951 0.481474 0.031845
0.247818 0.483368 0.032612
0.307040 0.485297 0.033398
0.374125 0.487244 0.034191
0.447158 0.489224 0.035009
0.523823 0.491214 0.035845
0.602242 0.493232 0.036672
0.681649 0.495217 0.037523
0.761522 0.497242 0.038377
0.841421 0.499247 0.039229
0.920981 0.501246 0.040092
0.999619 0.503225 0.040931
0.080035 0.561404 0.030364
0.102382 0.562957 0.031080
0.128859 0.564534 0.031831
0.161599 0.566160 0.032578
0.202547 0.567800 0.033354
0.253002 0.569504 0.034166
0.312514 0.571227 0.034989
0.379593 0.572930 0.035811
0.452353 0.574647 0.036627
0.528425 0.576371 0.037490
0.606198 0.578138 0.038356
0.684856 0.579841 0.039205
0.763911 0.581568 0.040044
0.843003 0.583279 0.040908
0.921781 0.584948 0.041757
0.999623 0.586593 0.042598
0.082799 0.650013 0.031798
0.105417 0.651307 0.032568
0.132376 0.652680 0.033335
0.165736 0.654041 0.034142
0.207340 0.655429 0.034940
0.258331 0.656829 0.035778
0.318077 0.658248 0.036608
0.385109 0.659656 0.037454
0.457517 0.661089 0.038330
0.533016 0.662510 0.039173
0.610108 0.663897 0.040013
0.688009 0.665293 0.040882
0.766274 0.666663 0.041730
0.844573 0.668043 0.042574
0.922547 0.669355 0.043416
0.999626 0.670659 0.044248
0.085688 0.739161 0.033302
0.108625 0.740205 0.034110
0.136034 0.741272 0.034898
0.170038 0.742348 0.035757
0.212294 0.743438 0.036580
0.263759 0.744502 0.037414
0.323709 0.745557 0.038294
0.390638 0.746667 0.039146
0.462643 0.747713 0.039981
0.537548 0.748795 0.040841
0.613929 0.749841 0.041720
0.691068 0.750882 0.042550
0.768572 0.751861 0.043378
0.846099 0.752866 0.044200
0.923313 0.753870 0.045016
0.999630 0.754796 0.045797
0.088678 0.828237 0.034883
0.111917 0.828949 0.035724
0.139869 0.829678 0.036536
0.174446 0.830386 0.037404
0.217321 0.831146 0.038266
0.269242 0.831872 0.039112
0.329332 0.832582 0.039974
0.396133 0.833314 0.040818
0.467688 0.833999 0.041686
0.541957 0.834665 0.042509
0.617595 0.835408 0.043346
0.694049 0.836057 0.044182
0.770794 0.836700 0.044978
0.847495 0.837341 0.045774
0.924008 0.837987 0.046562
0.999633 0.838548 0.047294
0.091758 0.916687 0.036523
0.115328 0.916998 0.037377
0.143751 0.917373 0.038264
0.178963 0.917735 0.039087
0.222428 0.918103 0.039949
0.274718 0.918496 0.040806
0.334910 0.918821 0.041633
0.401481 0.919161 0.042488
0.472613 0.919479 0.043329
0.546221 0.919855 0.044141
0.621158 0.920210 0.044950
0.696830 0.920503 0.045762
0.772866 0.920818 0.046551
0.848843 0.921139 0.047274
0.924647 0.921424 0.048002
0.999636 0.921679 0.048695
0.094870 0.999619 0.038193
0.118788 0.999620 0.039051
0.147712 0.999622 0.039889
0.183481 0.999624 0.040749
0.227504 0.999626 0.041603
0.280100 0.999627 0.042433
0.340334 0.999629 0.043304
0.406670 0.999631 0.044103
0.477302 0.999632 0.044926
0.550287 0.999634 0.045713
0.624496 0.999636 0.046472
0.699473 0.999637 0.047258
0.774744 0.999639 0.047988
0.850122 0.999640 0.048664
0.925231 0.999642 0.049338
0.999639 0.999643 0.049962
0.040674 0.028809 0.044226
0.062035 0.029702 0.044741
0.085310 0.030746 0.045264
0.112550 0.031884 0.045866
0.146523 0.033140 0.046549
0.190537 0.034513 0.047290
0.246806 0.035958 0.048116
0.315126 0.037510 0.049004
0.393115 0.039166 0.049969
0.477429 0.040903 0.051039
0.564646 0.042735 0.052206
0.652799 0.044640 0.053453
0.740972 0.046626 0.054796
0.827734 0.047793 0.055603
0.914024 0.048589 0.056207
0.999584 0.049434 0.056821
0.044063 0.050800 0.045258
0.065838 0.051892 0.045841
0.089718 0.053134 0.046524
0.117913 0.054454 0.047265
0.153297 0.055897 0.048097
0.198920 0.057436 0.048981
0.256687 0.059081 0.049928
0.325829 0.060834 0.051023
0.403718 0.062666 0.052136
0.487175 0.064594 0.053421
0.572896 0.066563 0.054719
0.658157 0.067824 0.055587
0.743392 0.068673 0.056183
0.829050 0.069534 0.056792
0.914744 0.070477 0.057420
0.999588 0.071446 0.058158
0.048330 0.074871 0.046477
0.070411 0.076268 0.047242
0.094951 0.077783 0.048058
0.124141 0.079415 0.048946
0.160970 0.081158 0.049903
0.208186 0.082958 0.050964
0.267226 0.084934 0.052117
0.336820 0.086996 0.053384
0.414170 0.089073 0.054661
0.494869 0.090502 0.055588
0.577013 0.091404 0.056178
0.660771 0.092353 0.056783
0.745453 0.093345 0.057411
0.830487 0.094398 0.058137
0.915495 0.095490 0.058847
0.999592 0.096655 0.059620
0.053210 0.103306 0.048053
0.075600 0.105100 0.048922
0.100784 0.107027 0.049865
0.131053 0.109087 0.050936
0.169320 0.111275 0.052088
0.217985 0.113565 0.053320
0.277777 0.115888 0.054606
0.345703 0.117573 0.055563
0.419597 0.118581 0.056147
0.498545 0.119665 0.056755
0.580315 0.120798 0.057394
0.663564 0.121996 0.058118
0.747630 0.123213 0.058824
0.831979 0.124526 0.059602
0.916226 0.125874 0.060375
0.999595 0.127259 0.061201
0.058563 0.139129 0.049838
0.081280 0.141531 0.050912
0.107104 0.144061 0.052034
0.138440 0.146746 0.053260
0.177839 0.149435 0.054555
0.226182 0.151456 0.055548
0.283444 0.152610 0.056140
0.349966 0.153848 0.056748
0.423812 0.155172 0.057388
0.502517 0.156551 0.058085
0.583801 0.158000 0.058815
0.666470 0.159508 0.059589
0.749899 0.161094 0.060362
0.833553 0.162698 0.061185
0.917007 0.164373 0.062005
0.999599 0.166112 0.062889
0.064231 0.185866 0.051992
0.087225 0.188979 0.053225
0.113576 0.192102 0.054522
0.144735 0.194468 0.055529
0.182590 0.195822 0.056126
0.230107 0.197237 0.056723
0.287820 0.198764 0.057371
0.354544 0.200347 0.058064
0.428316 0.201999 0.058785
0.506686 0.203733 0.059548
0.587452 0.205526 0.060337
0.669509 0.207378 0.061156
0.752229 0.209288 0.061986
0.835162 0.211240 0.062859
0.917847 0.213259 0.063741
0.999604 0.215307 0.064656
0.069922 0.245736 0.054502
0.092293 0.248376 0.055510
0.117228 0.249860 0.056086
0.147750 0.251413 0.056696
0.186228 0.253079 0.057352
0.234380 0.254836 0.058045
0.292509 0.256646 0.058759
0.359390 0.258538 0.059522
0.433049 0.260494 0.060304
0.511019 0.262507 0.061127
0.591210 0.264577 0.061961
0.672641 0.266698 0.062816
0.754661 0.268881 0.063701
0.836784 0.271071 0.064630
0.918696 0.273317 0.065554
0.999607 0.275554 0.066475
0.073059 0.314466 0.056072
0.094662 0.316093 0.056681
0.119956 0.317829 0.057351
0.151041 0.319609 0.058015
0.190149 0.321490 0.058725
0.238920 0.323422 0.059491
0.297478 0.325435 0.060294
0.364455 0.327497 0.061104
