example_ofxGpuLutCube/bin/data/ofxGpuLutCube/LUT/V2 (warm drama fade).cube
LUT_3D_SIZE 16
0.066667 0.090196 0.090196
0.061961 0.088628 0.098039
0.099608 0.094118 0.076863
0.184313 0.097255 0.083137
0.280784 0.109019 0.079216
0.415686 0.129412 0.062745
0.575687 0.157647 0.010980
0.694902 0.184314 0.000000
0.785882 0.212549 0.003138
0.849412 0.234510 0.000000
0.909804 0.258824 0.000000
0.974117 0.280000 0.001569
0.996078 0.297255 0.004706
0.999216 0.316078 0.067451
0.995294 0.339608 0.131765
0.996117 0.368431 0.195647
0.066667 0.090196 0.090196
0.067765 0.095216 0.089255
0.120000 0.103686 0.086117
0.195294 0.113098 0.081098
0.298981 0.136627 0.075608
0.439216 0.166274 0.041568
0.593882 0.192000 0.006745
0.710745 0.218510 0.000000
0.796706 0.234196 0.000000
0.854745 0.258980 0.001569
0.918431 0.272157 0.000000
0.977412 0.290196 0.004706
0.998117 0.311372 0.007373
0.996862 0.326431 0.059451
0.996078 0.348392 0.127215
0.999961 0.380204 0.200322
0.045490 0.112941 0.090196
0.066039 0.114980 0.086746
0.122823 0.118588 0.087373
0.210666 0.148706 0.079843
0.333176 0.178039 0.058510
0.472941 0.212549 0.000000
0.621960 0.246275 0.002353
0.721412 0.262902 0.000000
0.798588 0.279843 0.000000
0.861647 0.293804 0.000941
0.924706 0.301961 0.001569
0.981647 0.315294 0.006745
1.000000 0.329725 0.003922
0.994980 0.345412 0.045961
0.999686 0.367530 0.124706
0.996109 0.395905 0.202589
0.004706 0.153725 0.096470
0.008314 0.156392 0.074196
0.099608 0.166902 0.073568
0.197490 0.179451 0.063530
0.337569 0.234510 0.022745
0.510588 0.294117 0.006274
0.648314 0.316549 0.001726
0.751530 0.325647 0.002510
0.811137 0.332549 0.000000
0.876078 0.338353 0.000941
0.940392 0.342745 0.007843
0.986666 0.351687 0.004236
1.000000 0.357960 0.007686
0.997490 0.373647 0.042196
0.999686 0.390745 0.122196
0.996109 0.411592 0.202620
0.000000 0.217255 0.117647
0.003137 0.218196 0.087373
0.029647 0.223686 0.058039
0.178981 0.246275 0.044235
0.330667 0.275294 0.012863
0.516078 0.346667 0.001569
0.656627 0.386824 0.004392
0.759373 0.391530 0.001098
0.827138 0.394039 0.002981
0.890510 0.394196 0.002353
0.948235 0.391372 0.003922
0.991216 0.392941 0.000941
0.995608 0.401255 0.001883
0.998745 0.408784 0.022588
0.998431 0.420392 0.125019
0.992220 0.442933 0.208855
0.000000 0.286275 0.149020
0.001569 0.298039 0.111373
0.000000 0.315294 0.069020
0.112941 0.324706 0.025098
0.312941 0.355294 0.000000
0.498039 0.403922 0.011765
0.647843 0.439216 0.004706
0.752941 0.454118 0.003138
0.843922 0.457255 0.000000
0.908236 0.449412 0.002353
0.968627 0.447059 0.000000
0.995294 0.447059 0.002353
0.996862 0.443921 0.000000
0.993726 0.450196 0.000000
0.996863 0.453333 0.125490
0.999922 0.470510 0.215255
0.000000 0.392941 0.189019
0.000628 0.403922 0.145098
0.005647 0.409098 0.085333
0.002510 0.424157 0.017569
0.236706 0.454745 0.002667
0.468235 0.484706 0.006274
0.625255 0.492078 0.000000
0.730667 0.506980 0.000941
0.825412 0.510745 0.005961
0.909804 0.514823 0.000628
0.975686 0.510588 0.000000
0.997804 0.505569 0.000941
0.998431 0.501176 0.000000
0.995294 0.503059 0.001255
0.995764 0.504784 0.122196
0.999976 0.516008 0.227679
0.000000 0.508235 0.236078
0.000314 0.505882 0.193098
0.006431 0.517176 0.121412
0.001412 0.523450 0.017255
0.079529 0.539922 0.008000
0.393725 0.560000 0.003922
0.574117 0.569098 0.000000
0.713569 0.558432 0.001725
0.809568 0.566588 0.000471
0.894902 0.562824 0.007530
0.974902 0.564706 0.000000
0.998745 0.563922 0.000627
0.993726 0.563294 0.000314
0.998745 0.555765 0.031686
0.994196 0.553255 0.152627
0.999961 0.558408 0.251851
0.000000 0.583530 0.292549
0.000314 0.588078 0.267765
0.000784 0.593725 0.202353
0.000784 0.597490 0.105726
0.000471 0.607686 0.030588
0.236863 0.619608 0.000784
0.493176 0.634353 0.003765
0.662745 0.628706 0.002353
0.781333 0.606745 0.003608
0.879843 0.608000 0.000627
0.965490 0.611764 0.003138
0.996862 0.616000 0.001882
1.000000 0.617255 0.014745
1.000000 0.614745 0.128941
0.996078 0.609725 0.219765
0.999961 0.614878 0.302235
0.001569 0.640784 0.356862
0.005020 0.645491 0.335843
0.001569 0.653490 0.307765
0.000314 0.654117 0.214902
0.005490 0.662118 0.155922
0.000000 0.667451 0.080000
0.370196 0.676078 0.036706
0.592627 0.688471 0.005333
0.746353 0.682824 0.005961
0.856471 0.660392 0.006118
0.941176 0.662745 0.001569
0.996549 0.663216 0.004392
0.996392 0.664627 0.027451
0.999529 0.662745 0.183686
0.998431 0.669647 0.293804
0.997631 0.665153 0.375968
0.003922 0.694118 0.431373
0.006275 0.698824 0.429020
0.000000 0.693333 0.398432
0.000000 0.705882 0.341961
0.004706 0.709804 0.282353
0.003922 0.717647 0.223529
0.190588 0.727059 0.199215
0.494902 0.743529 0.149020
0.689411 0.749804 0.023529
0.835294 0.743529 0.002353
0.929412 0.717647 0.000000
0.993726 0.705882 0.003137
1.000000 0.709020 0.033725
1.000000 0.712156 0.218824
1.000000 0.719216 0.335686
1.000000 0.729334 0.426863
0.003922 0.751372 0.512941
0.002981 0.749804 0.507451
0.000941 0.745412 0.495843
0.004706 0.753568 0.465726
0.001569 0.759843 0.409726
0.000000 0.769412 0.361568
0.053961 0.778510 0.309176
0.399059 0.786196 0.292392
0.601725 0.798745 0.250353
0.776471 0.806431 0.158117
0.902745 0.795294 0.023530
0.981490 0.764235 0.008314
0.998588 0.755137 0.088314
0.994196 0.757647 0.255843
0.998118 0.759686 0.369568
0.995294 0.761569 0.463686
0.009412 0.807059 0.576471
0.005490 0.806274 0.584314
0.025098 0.807686 0.573019
0.030118 0.808941 0.562353
0.009882 0.817412 0.520157
0.001569 0.822745 0.473725
0.017098 0.829804 0.431686
0.298196 0.838118 0.408784
0.533490 0.848157 0.388078
0.711687 0.859608 0.352941
0.861961 0.865883 0.265098
0.975686 0.849255 0.097412
0.999372 0.809569 0.182431
0.998745 0.806431 0.304157
0.997804 0.801098 0.411922
0.999969 0.800015 0.487310
0.028235 0.869804 0.639215
0.090823 0.871530 0.635765
0.170039 0.871059 0.640157
0.210196 0.872314 0.632000
0.144784 0.877020 0.599216
0.045490 0.879216 0.564706
0.106196 0.891922 0.527059
0.249255 0.896471 0.506039
0.459451 0.909020 0.475294
0.647059 0.911686 0.464627
0.796078 0.916079 0.431372
0.933647 0.919529 0.342745
0.996862 0.894902 0.265255
0.998745 0.859137 0.376941
0.999059 0.845647 0.444549
1.000000 0.843905 0.515608
0.155294 0.930980 0.697255
0.191216 0.937569 0.699137
0.241569 0.935686 0.699451
0.296157 0.936941 0.700079
0.297098 0.938196 0.685804
0.244706 0.942745 0.640000
0.216314 0.951843 0.610510
0.290823 0.955608 0.585255
0.394353 0.962510 0.557647
0.580706 0.965490 0.540235
0.745098 0.968627 0.524706
0.886118 0.964079 0.474510
0.992471 0.964392 0.407686
1.000000 0.925490 0.449098
0.995294 0.895059 0.512784
0.999976 0.880871 0.559702
0.277647 0.995686 0.772078
0.297310 0.998063 0.761161
0.332698 0.998839 0.756534
0.382957 0.995670 0.759608
0.429757 0.992619 0.757992
0.418471 0.999686 0.732823
0.370737 0.997396 0.707592
0.378141 0.998996 0.665373
0.422282 0.999027 0.634000
0.566212 0.995184 0.615223
0.725568 0.999804 0.611177
0.856636 0.995960 0.560321
0.981177 0.999051 0.516980
1.000000 0.980102 0.554439
0.999976 0.937012 0.608737
1.000000 0.913608 0.646119
0.070588 0.092549 0.087843
0.064471 0.091765 0.088314
0.112941 0.099294 0.090353
0.195765 0.105568 0.082196
0.300078 0.132078 0.070275
0.444706 0.163137 0.048627
0.597177 0.201725 0.005647
0.712157 0.224000 0.002353
0.791216 0.247216 0.004235
0.858667 0.261490 0.000941
0.912941 0.281569 0.000000
0.972392 0.293490 0.005020
0.994196 0.309490 0.003451
0.999216 0.328313 0.058667
0.999059 0.351372 0.123608
0.989906 0.381772 0.190196
0.065255 0.095373 0.096157
0.071341 0.095059 0.088314
0.122541 0.109678 0.083326
0.208502 0.131388 0.079184
0.322792 0.159529 0.062494
0.462902 0.195294 0.024471
0.611482 0.229961 0.006243
0.717364 0.249977 0.001318
0.796047 0.266290 0.004078
0.860173 0.279090 0.001882
0.922823 0.291765 0.002824
0.981145 0.308706 0.002196
0.998055 0.321631 0.002259
0.995043 0.339827 0.049820
0.995482 0.358337 0.126400
0.993002 0.385980 0.197341
0.036549 0.118588 0.097255
0.061647 0.121757 0.091577
0.126400 0.126682 0.081788
0.214745 0.155169 0.076894
0.346321 0.198526 0.043388
0.503686 0.238902 0.004079
0.631687 0.275953 0.002635
0.735498 0.287373 0.000377
0.807028 0.298416 0.001380
0.867075 0.306824 0.003765
0.924078 0.320000 0.001255
0.985067 0.327529 0.001632
0.998055 0.340298 0.003577
0.998306 0.351467 0.046369
0.995859 0.374149 0.123670
0.999671 0.402337 0.205694
0.006431 0.162509 0.122353
0.011953 0.164674 0.098981
0.099796 0.172863 0.079153
0.213239 0.184784 0.068737
0.350212 0.240565 0.019294
0.526902 0.308549 0.002824
0.658541 0.334557 0.001129
0.750180 0.341584 0.002384
0.818698 0.344094 0.001380
0.878620 0.351874 0.000502
0.944157 0.352000 0.001255
0.990086 0.358651 0.001255
0.997427 0.371545 0.000565
0.996172 0.382212 0.033317
0.997239 0.398745 0.128313
0.997173 0.419931 0.202017
0.000941 0.215686 0.133333
0.001506 0.221522 0.115953
0.025255 0.230023 0.092298
0.181490 0.246463 0.064690
0.331545 0.281412 0.026322
0.520784 0.355608 0.005020
0.660831 0.392439 0.001255
0.763325 0.405490 0.002635
0.835482 0.405239 0.000377
0.896972 0.401067 0.002071
0.947294 0.404392 0.000941
0.991812 0.404862 0.002447
0.998620 0.408690 0.002196
0.996737 0.417600 0.018384
0.997176 0.427702 0.120251
0.993929 0.446427 0.202157
0.003137 0.290981 0.164706
0.000941 0.303372 0.141333
0.001726 0.313098 0.098196
0.114667 0.330666 0.058667
0.308392 0.355608 0.014118
0.488628 0.402353 0.001569
0.650667 0.446745 0.004706
0.757020 0.454902 0.004392
0.841725 0.467451 0.001255
0.907294 0.460549 0.002510
0.972549 0.459608 0.000000
0.997019 0.455216 0.001255
1.000000 0.445333 0.000314
1.000000 0.452235 0.005961
0.993255 0.464941 0.113725
0.990620 0.478376 0.215867
0.001412 0.400784 0.202823
0.001694 0.403200 0.172581
0.005521 0.413051 0.112690
0.000000 0.427859 0.052204
0.231843 0.454149 0.009600
0.465098 0.481255 0.001255
0.618949 0.491200 0.002635
0.739325 0.508047 0.005898
0.828047 0.517333 0.002134
0.909553 0.516800 0.000878
0.974588 0.517647 0.002824
0.997867 0.509961 0.003577
0.996957 0.504596 0.001631
0.999718 0.502588 0.008282
0.998494 0.506698 0.123294
0.998574 0.515531 0.230442
0.006745 0.504628 0.256628
0.001129 0.510275 0.229929
0.003075 0.514039 0.162980
0.001192 0.527843 0.069616
0.075671 0.540549 0.007812
0.382745 0.554667 0.001726
0.576376 0.562824 0.004392
0.708988 0.554259 0.004078
0.813271 0.562415 0.001694
0.894996 0.567404 0.002259
0.971765 0.565804 0.000471
0.998682 0.567718 0.001381
0.998274 0.563075 0.001631
0.998274 0.556424 0.050321
0.997490 0.554039 0.154918
0.997471 0.560091 0.244645
0.003608 0.575530 0.308706
0.003765 0.587451 0.290039
0.005083 0.589333 0.238526
0.006212 0.594604 0.151686
0.002886 0.607812 0.068926
0.225255 0.615529 0.015530
0.490792 0.626949 0.001129
0.671341 0.630055 0.003577
0.782651 0.608596 0.000690
0.878682 0.611074 0.005773
0.957961 0.619137 0.000471
0.994667 0.617412 0.001757
0.997396 0.619294 0.019074
0.995890 0.613647 0.131514
0.997490 0.612015 0.228204
0.997490 0.616542 0.304943
0.003451 0.643922 0.370039
0.002133 0.647122 0.362604
0.003890 0.648471 0.329036
0.002635 0.651231 0.257757
0.002479 0.661584 0.187451
0.000000 0.666039 0.123608
0.364518 0.678180 0.079028
0.593098 0.688345 0.029427
0.749584 0.682824 0.004204
0.856157 0.662243 0.002635
0.941176 0.662902 0.001882
0.994792 0.664377 0.002133
0.997710 0.664941 0.022086
0.999341 0.666447 0.179326
0.998180 0.670934 0.295467
0.999978 0.670764 0.373622
0.002353 0.695686 0.439216
0.003294 0.696784 0.439216
0.000941 0.698039 0.418666
0.000941 0.704313 0.377255
0.003294 0.709960 0.309961
0.004706 0.716863 0.250196
0.183059 0.727216 0.213333
0.499294 0.736470 0.189804
0.682510 0.752157 0.104471
0.827451 0.741333 0.002823
0.931765 0.712157 0.002353
0.986196 0.710431 0.000000
1.000000 0.711215 0.034196
1.000000 0.711215 0.211764
1.000000 0.714980 0.335529
0.996117 0.725404 0.426141
0.000941 0.749020 0.511843
0.001381 0.748769 0.520251
0.004424 0.747953 0.510996
0.002165 0.753474 0.481757
0.004643 0.761976 0.430902
0.001412 0.771451 0.385725
0.052392 0.776941 0.336784
0.400157 0.788329 0.315451
0.605208 0.797114 0.281945
0.771106 0.808439 0.200721
0.907137 0.801412 0.082039
0.985318 0.764329 0.002071
0.999874 0.757772 0.094306
0.999121 0.757647 0.253176
0.994353 0.764266 0.367184
0.995944 0.766394 0.459071
0.002039 0.806431 0.584314
0.012141 0.805866 0.585537
0.066259 0.809820 0.588141
0.080188 0.809318 0.572078
0.020267 0.815310 0.528314
0.000000 0.824000 0.483764
0.025726 0.830588 0.454055
0.301616 0.841631 0.422023
0.535780 0.849035 0.406965
0.704690 0.861553 0.376345
0.863216 0.868706 0.301490
0.971451 0.846337 0.146667
0.998243 0.812110 0.183592
0.998494 0.805333 0.299169
0.997145 0.802509 0.400910
0.997328 0.802660 0.488251
0.055373 0.871059 0.647059
0.103749 0.872000 0.643137
0.178071 0.869428 0.645741
0.230149 0.870933 0.634698
0.187921 0.877930 0.610384
0.101020 0.885490 0.567216
0.136784 0.892580 0.535498
0.255310 0.897223 0.509867
0.464879 0.903623 0.486275
0.648973 0.914761 0.474479
0.795451 0.917647 0.436392
0.933051 0.922008 0.369412
0.998494 0.897066 0.284235
0.999749 0.855153 0.377223
0.999529 0.846306 0.445961
0.993011 0.842824 0.522140
0.162196 0.935686 0.703530
0.195106 0.934839 0.701867
0.234071 0.936879 0.697098
0.291294 0.937506 0.697224
0.313067 0.938666 0.686400
0.268392 0.945725 0.657412
0.237239 0.952533 0.615404
0.295184 0.952941 0.590808
0.401349 0.960345 0.559310
0.582965 0.965145 0.550902
0.741961 0.968784 0.533490
0.877898 0.969820 0.485710
0.991090 0.962855 0.418196
0.998369 0.927592 0.449318
0.998023 0.891702 0.513255
0.999986 0.876610 0.560380
0.273749 0.998063 0.759624
0.296541 0.998194 0.761377
0.332423 0.997424 0.759493
0.383906 0.993703 0.763195
0.433904 0.996346 0.759850
0.427945 0.998102 0.749953
0.392637 0.997404 0.704086
0.380530 0.997590 0.670798
0.427777 0.997653 0.645079
0.561638 0.999813 0.622652
0.721608 0.999843 0.596455
0.866773 0.995994 0.572336
0.980676 0.995127 0.525932
0.999493 0.979367 0.557807
1.000000 0.938351 0.619128
1.000000 0.911348 0.636389
0.055687 0.097255 0.105098
0.074353 0.091765 0.109804
0.119373 0.088471 0.099138
0.204079 0.109803 0.083451
0.326274 0.148078 0.066353
0.474510 0.192941 0.026667
0.627921 0.233255 0.005333
0.717804 0.259765 0.000000
0.794353 0.282353 0.000000
0.864314 0.292863 0.000627
0.923138 0.300392 0.000000
0.983372 0.317647 0.004078
0.999059 0.329412 0.005647
0.995921 0.348236 0.044549
0.997647 0.364549 0.123921
0.996070 0.386479 0.194086
0.042980 0.108706 0.109647
0.072282 0.100235 0.110086
0.123827 0.107388 0.103749
0.215435 0.124581 0.084925
0.335749 0.174651 0.060769
0.498981 0.228078 0.006275
0.634322 0.263153 0.001883
0.730918 0.283671 0.001443
0.801569 0.295718 0.001694
0.869678 0.304721 0.002384
0.929255 0.315764 0.001883
0.981741 0.328533 0.003482
0.998525 0.337569 0.003765
0.997898 0.351624 0.049067
0.996863 0.368973 0.127717
0.998896 0.394672 0.203421
0.036549 0.129726 0.118118
0.068204 0.125804 0.120847
0.126620 0.135686 0.106698
0.217851 0.153757 0.088502
0.348110 0.205145 0.048282
0.524549 0.267138 0.001255
0.648722 0.303278 0.002761
0.745945 0.313161 0.001663
0.810071 0.324330 0.002165
0.878871 0.329380 0.001694
0.935215 0.339608 0.000000
0.985411 0.346416 0.001004
0.998243 0.356549 0.001757
0.997741 0.367466 0.039529
0.995451 0.385192 0.120345
0.999197 0.407380 0.205220
0.020863 0.165490 0.136941
0.049255 0.167467 0.131263
0.096000 0.176973 0.110337
0.204800 0.189020 0.106698
0.342337 0.243294 0.052172
0.532706 0.317961 0.000628
0.668424 0.352722 0.005521
0.752094 0.361976 0.001537
0.821239 0.366620 0.001035
0.890918 0.367153 0.002447
0.949019 0.368470 0.000628
0.990431 0.376659 0.003263
0.998369 0.381647 0.000502
0.997867 0.391059 0.029741
0.998714 0.405020 0.118714
0.999843 0.421259 0.206488
0.003451 0.222275 0.165333
0.003451 0.225161 0.153318
0.024910 0.233820 0.124518
0.176878 0.247875 0.105945
0.329600 0.282384 0.069835
0.520941 0.353412 0.006902
0.664126 0.402384 0.000565
0.765773 0.416502 0.001255
0.839561 0.418008 0.005647
0.901459 0.417820 0.001883
0.959686 0.413804 0.001569
0.992753 0.417318 0.000188
0.997396 0.420267 0.000000
0.998274 0.422400 0.015310
0.997082 0.431373 0.120564
0.995943 0.450846 0.206838
0.000000 0.312941 0.183530
0.002510 0.305412 0.185725
0.000000 0.312784 0.137725
0.101020 0.327216 0.106980
0.310275 0.356706 0.067137
0.491765 0.399216 0.010980
0.644392 0.448784 0.007059
0.752627 0.468235 0.000627
0.845491 0.474510 0.001882
0.917019 0.472471 0.002510
0.967843 0.470588 0.000000
0.997647 0.462588 0.000471
1.000000 0.460079 0.003138
0.994980 0.461334 0.000628
0.998745 0.472000 0.116078
0.999969 0.482259 0.222902
0.001569 0.407843 0.237334
0.000816 0.405930 0.221647
0.001475 0.412612 0.174494
0.002478 0.430808 0.110745
0.206086 0.452298 0.057725
0.457725 0.484862 0.009412
0.619796 0.492643 0.003420
0.739388 0.510369 0.002635
0.829490 0.518149 0.000377
0.909459 0.523984 0.002008
0.978196 0.524706 0.002510
0.996455 0.520188 0.001318
0.998745 0.511373 0.001255
1.000000 0.511498 0.002510
0.997678 0.510181 0.125239
0.997636 0.520228 0.229997
0.000941 0.509647 0.288627
0.003075 0.509929 0.271028
0.002259 0.515231 0.223498
0.002636 0.525521 0.129882
0.069961 0.540863 0.076988
0.381804 0.559686 0.022745
0.573082 0.564643 0.006181
0.705161 0.556424 0.000847
0.810322 0.570604 0.000847
0.895153 0.566086 0.002981
0.978039 0.572549 0.001412
0.999749 0.576157 0.002510
0.999247 0.565584 0.002855
0.999749 0.562071 0.056816
0.998023 0.561349 0.167624
0.996738 0.566502 0.249539
0.005333 0.581177 0.340705
0.006337 0.582965 0.322227
0.008031 0.590776 0.285239
0.003388 0.597051 0.211702
0.002322 0.604988 0.138980
0.211765 0.616784 0.100549
0.490384 0.629271 0.036424
0.668768 0.629961 0.006118
0.783467 0.610510 0.001098
0.880471 0.612392 0.003231
0.958588 0.622118 0.006431
0.997741 0.617192 0.001004
0.998620 0.621679 0.023184
0.998620 0.618666 0.143404
0.997647 0.617819 0.227482
0.996117 0.618643 0.306649
0.000627 0.643922 0.389961
0.001914 0.644392 0.389019
0.002008 0.643734 0.371482
0.002008 0.649004 0.302463
0.003388 0.659326 0.239592
0.000471 0.664314 0.189961
0.363420 0.679247 0.159906
0.589019 0.687843 0.098290
0.744502 0.683828 0.034165
0.855247 0.662212 0.007341
0.942275 0.661490 0.003765
0.994353 0.666761 0.001380
0.997521 0.666259 0.030431
0.998023 0.669020 0.187294
0.998870 0.673192 0.300455
0.998113 0.677145 0.377918
0.006274 0.694902 0.467451
0.005177 0.697725 0.462274
0.001255 0.695059 0.458040
0.003765 0.700079 0.410353
0.002039 0.710431 0.351373
0.003922 0.716078 0.300392
0.184941 0.724235 0.259137
0.490510 0.735529 0.240941
0.685647 0.744941 0.195765
0.824470 0.748392 0.079686
0.936471 0.716863 0.007059
0.990745 0.710588 0.000314
0.999843 0.711216 0.031059
0.996706 0.713098 0.223059
1.000000 0.718902 0.343529
0.996117 0.726219 0.431671
0.005490 0.748706 0.536314
0.001349 0.748204 0.533772
0.007718 0.747859 0.530635
0.017632 0.751749 0.504784
0.003357 0.759435 0.463278
0.000784 0.768000 0.410039
0.080722 0.774714 0.367341
0.405678 0.787200 0.350525
0.606212 0.797239 0.327310
0.770541 0.811671 0.273914
0.902588 0.797647 0.179921
0.985318 0.769820 0.051639
1.000000 0.759372 0.100329
0.996109 0.759372 0.253302
0.997678 0.761976 0.375937
0.997001 0.763619 0.462700
0.001726 0.806117 0.591215
0.020392 0.806682 0.589929
0.112533 0.807372 0.594070
0.166620 0.808251 0.582274
0.088627 0.814682 0.549396
0.012863 0.821490 0.505569
0.095216 0.828455 0.470337
0.316706 0.837490 0.441631
0.535310 0.851796 0.436235
0.706039 0.861490 0.404768
0.855373 0.863373 0.349177
0.971325 0.846933 0.253428
0.999498 0.811169 0.191153
0.999874 0.801631 0.305223
0.999278 0.800063 0.402541
0.999994 0.802345 0.490085
0.066980 0.874510 0.651451
0.125427 0.873067 0.651671
0.182557 0.871874 0.648157
0.244172 0.869741 0.644392
0.243232 0.877051 0.622682
0.167215 0.876079 0.589647
0.175781 0.887937 0.554039
0.283953 0.893208 0.532361
0.462400 0.902494 0.507890
0.649318 0.911812 0.492361
0.795137 0.919216 0.464000
0.927906 0.920470 0.405396
0.998494 0.896627 0.322290
0.994855 0.860988 0.384157
0.993757 0.848627 0.447843
0.999329 0.846260 0.518445
0.160000 0.939137 0.711686
0.194604 0.934808 0.706824
0.236016 0.938290 0.706133
0.291106 0.939545 0.704502
0.337004 0.936031 0.698290
0.306039 0.946824 0.662275
0.265412 0.949490 0.627953
0.304533 0.955953 0.601662
0.404298 0.962353 0.573427
0.584345 0.964706 0.560627
0.735373 0.970980 0.537725
0.884831 0.968408 0.506761
0.984565 0.966212 0.437678
0.996988 0.928941 0.453992
0.997741 0.894180 0.517490
1.000000 0.881183 0.561010
0.271388 0.999608 0.775263
0.287333 0.997758 0.763962
0.330957 0.993391 0.762143
0.379873 0.998392 0.770864
0.434180 0.998935 0.763660
0.446157 0.996635 0.760910
0.407397 0.997518 0.717496
0.393940 0.999181 0.688242
0.443051 0.996113 0.655733
0.560491 0.996108 0.627159
0.725514 0.999874 0.616737
0.859645 0.998605 0.583250
0.973026 0.999045 0.529645
0.996273 0.980127 0.568905
0.999972 0.938557 0.613095
1.000000 0.913701 0.636289
0.024314 0.103529 0.142745
0.051765 0.092392 0.146824
0.116235 0.089725 0.143059
0.183372 0.098510 0.124863
0.314980 0.138039 0.104627
0.487059 0.199215 0.042353
0.644863 0.259608 0.003451
0.736000 0.282353 0.000000
0.807529 0.304941 0.002510
0.869961 0.319216 0.002510
0.929412 0.328627 0.006274
0.983372 0.344000 0.001569
0.999686 0.347608 0.007530
0.999059 0.361412 0.036392
0.997019 0.379608 0.126431
0.996102 0.399090 0.212784
0.019765 0.123765 0.149804
0.066510 0.115796 0.154133
0.114290 0.115922 0.144659
0.187325 0.123074 0.122322
0.310275 0.158086 0.108580
0.498353 0.223059 0.048314
0.655530 0.285239 0.004141
0.744094 0.309019 0.000941
0.814745 0.323075 0.005208
0.880847 0.330196 0.003137
0.937411 0.338980 0.000000
0.984251 0.347984 0.004612
0.996894 0.358776 0.001255
0.998776 0.370824 0.039027
0.999623 0.380518 0.134494
0.990833 0.407817 0.207205
0.030274 0.146039 0.151372
0.070714 0.142117 0.154478
0.115075 0.143090 0.150745
0.191749 0.152627 0.147106
0.327906 0.191718 0.118808
0.503215 0.260235 0.061490
0.658886 0.318714 0.001255
0.755608 0.339388 0.002165
0.825757 0.349051 0.000157
0.887906 0.353851 0.004204
0.943372 0.362196 0.000000
0.984283 0.373020 0.002134
0.996863 0.376126 0.001506
0.998871 0.384031 0.030243
0.996329 0.395357 0.125239
0.999172 0.413705 0.211582
0.027137 0.171765 0.177725
0.065819 0.173239 0.169914
0.109051 0.178855 0.162918
0.197271 0.194416 0.149741
0.338698 0.238902 0.131733
0.521412 0.303529 0.068392
0.671059 0.360627 0.003012
0.765772 0.386698 0.002039
0.836925 0.383812 0.001035
0.896439 0.390118 0.004957
0.954666 0.393569 0.005647
0.990808 0.394729 0.001380
0.996988 0.399718 0.004769
0.996988 0.408125 0.020957
0.999090 0.417192 0.126620
0.999843 0.435013 0.205321
0.016627 0.224157 0.198588
0.030934 0.229804 0.189459
0.057035 0.239592 0.180863
0.166839 0.249129 0.146729
0.322949 0.283514 0.135467
0.514666 0.350902 0.082196
0.659859 0.400376 0.014118
0.773302 0.426918 0.002761
0.847090 0.435953 0.001129
0.904220 0.434008 0.000377
0.963451 0.428235 0.002196
0.997019 0.432502 0.001443
0.999278 0.434698 0.000000
0.998149 0.437333 0.010792
0.998714 0.445176 0.123200
0.997801 0.461525 0.213746
0.003138 0.306666 0.230588
0.000000 0.308549 0.224628
0.000628 0.320941 0.208628
0.058980 0.330353 0.152784
0.295216 0.357333 0.134902
0.488628 0.389804 0.111372
0.640000 0.453177 0.025883
0.757020 0.471372 0.000627
0.844863 0.477647 0.001882
0.917647 0.486275 0.000000
0.974118 0.480000 0.009412
0.999529 0.478902 0.000471
0.997490 0.468235 0.001255
1.000000 0.469490 0.006274
0.994353 0.477647 0.119843
1.000000 0.485459 0.226008
0.002196 0.411608 0.273726
0.004078 0.414212 0.272220
0.001349 0.415373 0.246776
0.001349 0.430557 0.181020
0.167812 0.452047 0.136408
0.455843 0.481726 0.104157
0.613773 0.494024 0.067545
0.732988 0.512251 0.006651
0.828110 0.528063 0.000377
0.912847 0.533773 0.002259
0.984471 0.534745 0.000627
0.998086 0.533114 0.000941
0.998494 0.522541 0.005773
0.997239 0.518149 0.008534
0.996047 0.519341 0.132894
0.999506 0.529670 0.238762
0.006588 0.509020 0.330667
0.003325 0.517459 0.319718
0.005020 0.515231 0.297412
0.002384 0.528031 0.220863
0.055906 0.539733 0.155294
0.364235 0.555294 0.135686
0.567310 0.565396 0.096157
0.708173 0.555922 0.058824
