example_ofxGpuLutCube/bin/data/ofxGpuLutCube/LUT/V2 (warm drama fade).cube
LUT_3D_SIZE 6
0.066667 0.090196 0.090196
0.184313 0.097255 0.083137
0.575687 0.157647 0.010980
0.849412 0.234510 0.000000
0.996078 0.297255 0.004706
0.996117 0.368431 0.195647
0.004706 0.153725 0.096470
0.197490 0.179451 0.063530
0.648314 0.316549 0.001726
0.876078 0.338353 0.000941
1.000000 0.357960 0.007686
0.996109 0.411592 0.202620
0.000000 0.392941 0.189019
0.002510 0.424157 0.017569
0.625255 0.492078 0.000000
0.909804 0.514823 0.000628
0.998431 0.501176 0.000000
0.999976 0.516008 0.227679
0.001569 0.640784 0.356862
0.000314 0.654117 0.214902
0.370196 0.676078 0.036706
0.856471 0.660392 0.006118
0.996392 0.664627 0.027451
0.997631 0.665153 0.375968
0.009412 0.807059 0.576471
0.030118 0.808941 0.562353
0.017098 0.829804 0.431686
0.711687 0.859608 0.352941
0.999372 0.809569 0.182431
0.999969 0.800015 0.487310
0.277647 0.995686 0.772078
0.382957 0.995670 0.759608
0.370737 0.997396 0.707592
0.566212 0.995184 0.615223
0.981177 0.999051 0.516980
1.000000 0.913608 0.646119
0.024314 0.103529 0.142745
0.183372 0.098510 0.124863
0.644863 0.259608 0.003451
0.869961 0.319216 0.002510
0.999686 0.347608 0.007530
0.996102 0.399090 0.212784
0.027137 0.171765 0.177725
0.197271 0.194416 0.149741
0.671059 0.360627 0.003012
0.896439 0.390118 0.004957
0.996988 0.399718 0.004769
0.999843 0.435013 0.205321
0.002196 0.411608 0.273726
0.001349 0.430557 0.181020
0.613773 0.494024 0.067545
0.912847 0.533773 0.002259
0.998494 0.522541 0.005773
0.999506 0.529670 0.238762
0.006275 0.642667 0.434510
0.002886 0.647498 0.370980
0.361035 0.676486 0.242855
0.848722 0.667232 0.105976
0.996894 0.674039 0.026667
0.999995 0.677810 0.382304
0.018039 0.809882 0.615686
0.231372 0.807749 0.604235
0.191718 0.831969 0.502212
0.707796 0.859483 0.443796
0.998996 0.816565 0.242353
0.999994 0.801749 0.491396
0.262039 0.993396 0.769113
0.360579 0.993423 0.772157
0.440791 0.998736 0.736414
0.545545 0.999835 0.642262
0.974293 0.999641 0.550471
0.999906 0.916745 0.624051
0.003137 0.201568 0.320000
0.126431 0.150588 0.336314
0.513255 0.150274 0.290510
0.872627 0.359529 0.159529
0.997490 0.406431 0.000000
0.993012 0.442196 0.229161
0.000000 0.271373 0.336000
0.122792 0.239216 0.341176
0.526369 0.280471 0.322604
0.874478 0.432471 0.241474
0.998368 0.458039 0.003639
0.998882 0.468228 0.225396
0.004236 0.432941 0.433412
0.114008 0.434667 0.424470
0.549992 0.504157 0.421867
0.860235 0.593788 0.435326
0.997584 0.565114 0.042541
0.998108 0.549978 0.264802
0.135687 0.637647 0.557961
0.261773 0.641757 0.549835
0.387075 0.660925 0.477616
0.800157 0.696471 0.513318
0.998463 0.710651 0.349490
0.999059 0.691126 0.406342
0.251294 0.804863 0.675922
0.315357 0.806871 0.671718
0.400533 0.818290 0.633286
0.683106 0.856125 0.583059
0.995733 0.846996 0.538039
0.997661 0.810193 0.509809
0.203749 0.993333 0.801357
0.309453 0.997139 0.802878
0.522299 0.997830 0.804479
0.559330 0.995471 0.711562
0.951065 0.998610 0.647363
0.998462 0.912894 0.636413
0.000000 0.332549 0.564706
0.000314 0.275451 0.571137
0.465098 0.242196 0.574588
0.731451 0.354353 0.497725
0.970824 0.563294 0.531294
0.995326 0.505177 0.254431
0.002353 0.394666 0.547921
0.004989 0.367372 0.571827
0.454212 0.336063 0.573145
0.717459 0.446400 0.527467
0.977035 0.598777 0.554730
0.999907 0.524609 0.281487
0.005020 0.501490 0.575059
0.067953 0.498729 0.572486
0.437710 0.497349 0.577318
0.706573 0.591310 0.599153
0.988706 0.679122 0.610635
0.999994 0.583468 0.317419
0.221961 0.639686 0.640471
0.325898 0.636016 0.638243
0.491984 0.638871 0.628047
0.739576 0.705631 0.662557
0.997239 0.786353 0.679843
0.998596 0.692169 0.436508
0.370039 0.789490 0.745725
0.415122 0.800282 0.743623
0.503686 0.811074 0.739420
0.607090 0.840470 0.685898
0.988957 0.872345 0.716957
0.999969 0.818764 0.561050
0.055875 0.987757 0.856267
0.134988 0.982880 0.858177
0.421529 0.996823 0.854576
0.677669 0.997266 0.850398
0.910682 0.996472 0.772622
0.996894 0.911451 0.635525
0.003138 0.483137 0.709804
0.024627 0.469804 0.713255
0.374902 0.442824 0.727059
0.695216 0.468235 0.718745
0.896941 0.549490 0.674510
0.996117 0.701066 0.704337
0.014745 0.526902 0.714039
0.185976 0.522981 0.717804
0.388141 0.492047 0.722321
0.688721 0.508329 0.721349
0.886996 0.580047 0.685396
0.997515 0.719901 0.721697
0.015216 0.589804 0.708706
0.217945 0.589114 0.704533
0.428957 0.582996 0.717145
0.674698 0.587388 0.733271
0.891671 0.653616 0.716643
0.999943 0.759362 0.752320
0.234980 0.695686 0.747137
0.299514 0.691764 0.752157
0.428580 0.680910 0.732360
0.619828 0.670777 0.743561
0.903435 0.762949 0.774431
0.997515 0.819967 0.780169
0.307765 0.814745 0.816785
0.353788 0.815059 0.819702
0.475200 0.814275 0.819106
0.653710 0.814620 0.812737
0.942682 0.900424 0.869114
0.997490 0.897592 0.835943
0.079820 0.990219 0.947945
0.234394 0.990183 0.939698
0.436530 0.994092 0.935431
0.669077 0.999330 0.933808
0.860607 0.999206 0.913658
0.999223 0.959388 0.857655
0.375804 0.728824 0.956157
0.399435 0.714729 0.953161
0.478886 0.666886 0.951593
0.725255 0.660682 0.950039
0.977694 0.653718 0.932737
1.000000 0.717099 0.862470
0.371145 0.743804 0.961616
0.414442 0.735940 0.955465
0.492271 0.689628 0.953671
0.719391 0.672488 0.952697
0.973984 0.672665 0.935995
0.999992 0.737421 0.871772
0.302180 0.793153 0.964024
0.369398 0.783796 0.963407
0.503986 0.766025 0.964491
0.682802 0.713296 0.962555
0.968505 0.713517 0.951313
0.997647 0.777593 0.892071
0.216071 0.865341 0.983051
0.264394 0.858640 0.984960
0.395206 0.850442 0.987635
0.629712 0.807202 0.982711
0.930641 0.783646 0.971129
0.997623 0.847514 0.922008
0.250565 0.919945 0.984965
0.308935 0.920728 0.988535
0.422165 0.923136 0.988005
0.588466 0.920494 0.990656
0.829689 0.895915 0.997509
1.000000 0.945633 0.962257
0.185720 0.980275 0.988273
0.273785 0.979538 0.987598
0.428711 0.985820 0.988981
0.644667 0.979803 0.985960
0.901523 0.992910 0.996092
0.999884 0.999962 0.992350
