example_ofxGpuLutCube/bin/data/ofxGpuLutCube/LUT/V20 (green navy dark fade).cube
LUT_3D_SIZE 6
0.031952 0.063995 0.093445
0.081598 0.064593 0.091961
0.159503 0.065338 0.090198
0.322540 0.066254 0.088080
0.575098 0.067315 0.085772
0.763149 0.068479 0.083286
0.037964 0.125189 0.090241
0.091356 0.126604 0.088180
0.180620 0.128243 0.085840
0.370318 0.130063 0.083356
0.623151 0.132035 0.080727
0.794777 0.134091 0.078074
0.046637 0.239849 0.085919
0.105027 0.243518 0.083439
0.210428 0.247515 0.080831
0.428861 0.251754 0.078149
0.670310 0.256174 0.075448
0.824052 0.260686 0.072795
0.057440 0.456604 0.080908
0.122625 0.462798 0.078241
0.249780 0.469149 0.075548
0.492506 0.475524 0.072899
0.713351 0.481900 0.070322
0.849350 0.488070 0.067844
0.070063 0.675970 0.075647
0.144063 0.680459 0.072986
0.297219 0.684856 0.070404
0.552431 0.689057 0.067897
0.749924 0.693049 0.065563
0.869928 0.696711 0.063401
0.083991 0.818784 0.070504
0.169007 0.821521 0.067982
0.348604 0.824068 0.065657
0.602070 0.826444 0.063507
0.778792 0.828553 0.061554
0.885461 0.830390 0.059883
0.032843 0.064184 0.171735
0.083118 0.064824 0.168877
0.162825 0.065670 0.165478
0.330498 0.066640 0.161613
0.583879 0.067725 0.157413
0.769109 0.068895 0.153022
0.039399 0.125698 0.165603
0.093614 0.127186 0.161732
0.185488 0.128884 0.157567
0.380538 0.130770 0.153152
0.632118 0.132780 0.148652
0.800495 0.134903 0.144140
0.048511 0.241151 0.157690
0.108009 0.244944 0.153325
0.217008 0.249033 0.148822
0.440532 0.253374 0.144302
0.678775 0.257841 0.139837
0.829087 0.262366 0.135560
0.059668 0.458820 0.148972
0.126299 0.465124 0.144459
0.258076 0.471488 0.139998
0.504291 0.477891 0.135682
0.720704 0.484195 0.131584
0.853547 0.490217 0.127740
0.072557 0.677646 0.140146
0.148472 0.682088 0.135831
0.306699 0.686406 0.131719
0.562594 0.690535 0.127839
0.755919 0.694419 0.124317
0.873230 0.697989 0.121095
0.086701 0.819822 0.131885
0.173976 0.822467 0.127994
0.358153 0.824963 0.124425
0.610049 0.827203 0.121198
0.783225 0.829245 0.118377
0.887766 0.830983 0.115971
0.033856 0.064404 0.325708
0.084754 0.065092 0.319750
0.166400 0.066004 0.312645
0.338924 0.067029 0.304679
0.592816 0.068160 0.296107
0.775053 0.069358 0.287124
0.040927 0.126223 0.312891
0.095996 0.127781 0.304990
0.190626 0.129557 0.296426
0.391125 0.131489 0.287416
0.641037 0.133551 0.278251
0.806083 0.135678 0.269107
0.050428 0.242472 0.296702
0.111126 0.246418 0.287711
0.223967 0.250597 0.278558
0.452349 0.254978 0.269378
0.687000 0.259517 0.260365
0.834019 0.264092 0.251725
0.061951 0.461129 0.278868
0.130149 0.467407 0.269679
0.266657 0.473841 0.260664
0.515784 0.480218 0.251978
0.727859 0.486452 0.243778
0.857591 0.492389 0.236176
0.075109 0.679253 0.260937
0.153003 0.683692 0.252255
0.316267 0.687950 0.244026
0.572332 0.691993 0.236416
0.761627 0.695771 0.229460
0.876347 0.699193 0.223318
0.089411 0.820812 0.244306
0.178997 0.823399 0.236672
0.367586 0.825808 0.229710
0.617569 0.828003 0.223524
0.787363 0.829912 0.218198
0.889924 0.831516 0.213795
0.034961 0.064655 0.553076
0.086565 0.065436 0.546198
0.170287 0.066340 0.537931
0.347755 0.067412 0.528435
0.601802 0.068573 0.517967
0.781008 0.069828 0.506629
0.042511 0.126760 0.538180
0.098532 0.128424 0.528760
0.196130 0.130250 0.518329
0.401982 0.132217 0.507028
0.649910 0.134319 0.495107
0.811624 0.136501 0.482809
0.052449 0.243909 0.518671
0.114363 0.247931 0.507418
0.231245 0.252202 0.495521
0.464290 0.256651 0.483201
0.695097 0.261185 0.470792
0.838740 0.265733 0.458536
0.064270 0.463418 0.495909
0.134140 0.469797 0.483622
0.275498 0.476185 0.471193
0.527064 0.482549 0.458899
0.734715 0.488668 0.447011
0.861459 0.494453 0.435762
0.077700 0.680890 0.471599
0.157646 0.685257 0.459311
0.325867 0.689468 0.447401
0.581673 0.693423 0.436099
0.767075 0.697074 0.425611
0.879259 0.700351 0.416227
0.092158 0.821777 0.447834
0.184118 0.824325 0.436470
0.376821 0.826651 0.426003
0.624638 0.828728 0.416550
0.791198 0.830550 0.408320
0.891833 0.832035 0.401501
0.036163 0.064874 0.731073
0.088493 0.065753 0.726155
0.174453 0.066738 0.720354
0.356991 0.067826 0.713815
0.610784 0.069011 0.706620
0.786860 0.070292 0.698859
0.044215 0.127349 0.720552
0.101173 0.129067 0.714036
0.201941 0.130972 0.706854
0.413146 0.132984 0.699123
0.658619 0.135124 0.690945
0.816966 0.137332 0.682503
0.054521 0.245343 0.707062
0.117753 0.249476 0.699383
0.238833 0.253815 0.691223
0.476235 0.258284 0.682744
0.702971 0.262860 0.674113
0.843360 0.267430 0.665446
0.066699 0.465747 0.691477
0.138241 0.472098 0.683077
0.284540 0.478541 0.674420
0.538036 0.484828 0.665734
0.741382 0.490825 0.657251
0.865156 0.496493 0.649060
0.080329 0.682545 0.674739
0.162407 0.686848 0.666029
0.335551 0.690949 0.657514
0.590564 0.694785 0.649313
0.772230 0.698325 0.641608
0.882049 0.701422 0.634605
0.094946 0.822724 0.657797
0.189197 0.825186 0.649584
0.385906 0.827426 0.641869
0.631303 0.829437 0.634813
0.794787 0.831146 0.628637
0.893623 0.832513 0.623599
0.037474 0.065186 0.847138
0.090548 0.066101 0.843816
0.178887 0.067126 0.839998
0.366695 0.068255 0.835716
0.619828 0.069506 0.831007
0.792674 0.070768 0.825981
0.045969 0.127966 0.840156
0.103960 0.129745 0.835866
0.208111 0.131700 0.831147
0.424562 0.133743 0.826147
0.667226 0.135898 0.820855
0.822186 0.138124 0.815396
0.056643 0.246848 0.831318
0.121291 0.251039 0.826310
0.246786 0.255427 0.821033
0.488113 0.259969 0.815563
0.710614 0.264560 0.809996
0.847785 0.269045 0.804426
0.069149 0.468074 0.821191
0.142476 0.474491 0.815742
0.293775 0.480840 0.810179
0.548646 0.487058 0.804623
0.747676 0.493000 0.799139
0.868712 0.498462 0.793936
0.083028 0.684123 0.810336
0.167232 0.688355 0.804800
0.345153 0.692405 0.799337
0.599146 0.696144 0.794096
0.777049 0.699527 0.789210
0.884611 0.702478 0.784802
0.097689 0.823609 0.799540
0.194393 0.826034 0.794251
0.394680 0.828210 0.789338
0.637522 0.830098 0.784950
0.797996 0.831688 0.781142
0.895121 0.832927 0.778125
