example_ofxGpuLutCube/bin/data/ofxGpuLutCube/LUT/V20 (green navy dark fade).cube
LUT_3D_SIZE 16
0.031952 0.063995 0.093445
0.047142 0.064156 0.092973
0.063413 0.064374 0.092527
0.081598 0.064593 0.091961
0.102659 0.064791 0.091419
0.127950 0.065053 0.090810
0.159503 0.065338 0.090198
0.200248 0.065639 0.089504
0.254114 0.065953 0.088841
0.322540 0.066254 0.088080
0.403422 0.066589 0.087341
0.491439 0.066968 0.086562
0.575098 0.067315 0.085772
0.647455 0.067668 0.084953
0.709782 0.068073 0.084132
0.763149 0.068479 0.083286
0.033632 0.081364 0.092527
0.049110 0.081623 0.092015
0.065718 0.081877 0.091447
0.084386 0.082161 0.090840
0.106195 0.082484 0.090208
0.132558 0.082803 0.089536
0.165648 0.083151 0.088857
0.208712 0.083513 0.088116
0.265646 0.083896 0.087373
0.337033 0.084249 0.086607
0.420285 0.084678 0.085794
0.509131 0.085114 0.084983
0.590913 0.085536 0.084161
0.661394 0.085957 0.083306
0.722011 0.086426 0.082432
0.773785 0.086900 0.081525
0.035665 0.101385 0.091449
0.051331 0.101736 0.090871
0.068390 0.102068 0.090237
0.087662 0.102429 0.089552
0.110283 0.102847 0.088883
0.137822 0.103265 0.088159
0.172639 0.103684 0.087402
0.218340 0.104173 0.086640
0.278503 0.104641 0.085819
0.353033 0.105125 0.084987
0.438523 0.105621 0.084190
0.527287 0.106135 0.083333
0.607005 0.106700 0.082461
0.675475 0.107222 0.081578
0.734326 0.107764 0.080699
0.784405 0.108333 0.079816
0.037964 0.125189 0.090241
0.053952 0.125619 0.089595
0.071480 0.126094 0.088897
0.091356 0.126604 0.088180
0.114888 0.127141 0.087415
0.143762 0.127694 0.086639
0.180620 0.128243 0.085840
0.229226 0.128821 0.085017
0.292831 0.129431 0.084205
0.370318 0.130063 0.083356
0.457727 0.130709 0.082495
0.545791 0.131356 0.081612
0.623151 0.132035 0.080727
0.689546 0.132707 0.079846
0.746538 0.133412 0.078961
0.794777 0.134091 0.078074
0.040611 0.154384 0.088902
0.056937 0.155012 0.088197
0.074885 0.155662 0.087440
0.095480 0.156333 0.086668
0.120039 0.157046 0.085873
0.150438 0.157775 0.085065
0.189501 0.158544 0.084225
0.241369 0.159301 0.083370
0.308403 0.160090 0.082530
0.388861 0.160932 0.081642
0.477789 0.161736 0.080766
0.564234 0.162596 0.079869
0.639179 0.163459 0.078965
0.703463 0.164336 0.078080
0.758447 0.165178 0.077193
0.804882 0.166133 0.076315
0.043518 0.191508 0.087464
0.060147 0.192379 0.086696
0.078658 0.193267 0.085877
0.100037 0.194189 0.085083
0.125741 0.195165 0.084252
0.157826 0.196130 0.083401
0.199446 0.197123 0.082544
0.254735 0.198168 0.081674
0.325250 0.199236 0.080792
0.408435 0.200334 0.079907
0.498301 0.201436 0.079007
0.582532 0.202569 0.078124
0.654942 0.203693 0.077208
0.717057 0.204869 0.076312
0.770169 0.206038 0.075429
0.814695 0.207199 0.074549
0.046637 0.239849 0.085919
0.063689 0.241035 0.085104
0.082789 0.242241 0.084271
0.105027 0.243518 0.083439
0.132007 0.244804 0.082570
0.165981 0.246161 0.081693
0.210428 0.247515 0.080831
0.269312 0.248908 0.079950
0.343243 0.250321 0.079051
0.428861 0.251754 0.078149
0.518837 0.253226 0.077258
0.600434 0.254694 0.076344
0.670310 0.256174 0.075448
0.730338 0.257677 0.074548
0.781437 0.259202 0.073663
0.824052 0.260686 0.072795
0.050024 0.301331 0.084300
0.067502 0.302884 0.083465
0.087231 0.304461 0.082611
0.110461 0.306075 0.081730
0.138820 0.307734 0.080862
0.174908 0.309442 0.079979
0.222494 0.311131 0.079079
0.285065 0.312884 0.078184
0.362227 0.314651 0.077285
0.449851 0.316456 0.076392
0.539078 0.318201 0.075488
0.617777 0.320005 0.074594
0.685284 0.321809 0.073706
0.743101 0.323656 0.072826
0.792181 0.325488 0.071970
0.832968 0.327264 0.071106
0.053634 0.374815 0.082630
0.071589 0.376679 0.081748
0.092036 0.378591 0.080878
0.116306 0.380466 0.079995
0.146250 0.382412 0.079107
0.184678 0.384408 0.078208
0.235608 0.386388 0.077303
0.301856 0.388406 0.076409
0.382060 0.390463 0.075519
0.471175 0.392509 0.074636
0.558717 0.394536 0.073739
0.634611 0.396590 0.072878
0.699650 0.398621 0.071997
0.755316 0.400637 0.071130
0.802386 0.402661 0.070283
0.841413 0.404655 0.069449
0.057440 0.456604 0.080908
0.075928 0.458608 0.080024
0.097169 0.460664 0.079131
0.122625 0.462798 0.078241
0.154259 0.464865 0.077350
0.195256 0.467004 0.076441
0.249780 0.469149 0.075548
0.319574 0.471276 0.074652
0.402428 0.473423 0.073761
0.492506 0.475524 0.072899
0.577621 0.477718 0.072017
0.650716 0.479810 0.071163
0.713351 0.481900 0.070322
0.766867 0.484005 0.069466
0.811985 0.486036 0.068648
0.849350 0.488070 0.067844
0.061493 0.539123 0.079173
0.080493 0.541096 0.078288
0.102627 0.543015 0.077376
0.129327 0.544999 0.076487
0.162870 0.546925 0.075597
0.206695 0.548913 0.074673
0.264803 0.550879 0.073804
0.338023 0.552789 0.072916
0.423235 0.554746 0.072059
0.513320 0.556698 0.071195
0.595628 0.558590 0.070330
0.666025 0.560478 0.069486
0.726361 0.562299 0.068665
0.777764 0.564137 0.067869
0.820929 0.565882 0.067070
0.856767 0.567598 0.066287
0.065648 0.612419 0.077407
0.085336 0.614182 0.076514
0.108385 0.615842 0.075610
0.136504 0.617545 0.074703
0.172116 0.619271 0.073814
0.218903 0.620950 0.072938
0.280670 0.622629 0.072066
0.357051 0.624352 0.071201
0.444117 0.625995 0.070358
0.533461 0.627612 0.069523
0.612692 0.629228 0.068690
0.680536 0.630812 0.067875
0.738572 0.632390 0.067103
0.787923 0.633889 0.066315
0.829272 0.635393 0.065528
0.863633 0.636803 0.064818
0.070063 0.675970 0.075647
0.090387 0.677483 0.074756
0.114461 0.678988 0.073841
0.144063 0.680459 0.072986
0.181883 0.681930 0.072105
0.231931 0.683394 0.071230
0.297219 0.684856 0.070404
0.376409 0.686254 0.069551
0.464810 0.687670 0.068731
0.552431 0.689057 0.067897
0.628744 0.690412 0.067106
0.694071 0.691740 0.066321
0.749924 0.693049 0.065563
0.797336 0.694276 0.064838
0.836923 0.695519 0.064121
0.869928 0.696711 0.063401
0.074540 0.731112 0.073902
0.095668 0.732363 0.073023
0.120808 0.733656 0.072140
0.152023 0.734931 0.071264
0.192274 0.736167 0.070427
0.245598 0.737454 0.069587
0.314223 0.738677 0.068747
0.395753 0.739880 0.067942
0.485014 0.741046 0.067136
0.570252 0.742199 0.066348
0.643743 0.743341 0.065585
0.706690 0.744458 0.064851
0.760462 0.745508 0.064152
0.805970 0.746549 0.063434
0.843897 0.747542 0.062785
0.875715 0.748526 0.062153
0.079254 0.778625 0.072140
0.101090 0.779708 0.071287
0.127421 0.780787 0.070461
0.160383 0.781865 0.069609
0.203192 0.782934 0.068766
0.259844 0.783980 0.067963
0.331440 0.784997 0.067183
0.415031 0.785996 0.066376
0.504346 0.786965 0.065618
0.586860 0.787901 0.064861
0.657625 0.788826 0.064181
0.718265 0.789725 0.063460
0.770118 0.790593 0.062785
0.813756 0.791418 0.062154
0.850195 0.792240 0.061550
0.880922 0.792971 0.060924
0.083991 0.818784 0.070504
0.106672 0.819756 0.069652
0.134258 0.820642 0.068803
0.169007 0.821521 0.067982
0.214392 0.822402 0.067201
0.274293 0.823223 0.066414
0.348604 0.824068 0.065657
0.433796 0.824865 0.064884
0.522407 0.825639 0.064203
0.602070 0.826444 0.063507
0.670370 0.827154 0.062822
0.728771 0.827836 0.062190
0.778792 0.828553 0.061554
0.820723 0.829165 0.060986
0.855833 0.829792 0.060415
0.885461 0.830390 0.059883
0.032265 0.064030 0.114728
0.047461 0.064219 0.114158
0.063821 0.064443 0.113586
0.082060 0.064662 0.112969
0.103255 0.064885 0.112272
0.128751 0.065148 0.111580
0.160537 0.065451 0.110817
0.201722 0.065749 0.110023
0.256171 0.066048 0.109182
0.325177 0.066380 0.108324
0.406440 0.066736 0.107435
0.494691 0.067072 0.106487
0.578044 0.067441 0.105548
0.650028 0.067821 0.104615
0.712142 0.068229 0.103636
0.765134 0.068608 0.102632
0.033980 0.081460 0.113641
0.049468 0.081716 0.113001
0.066172 0.081999 0.112303
0.084973 0.082260 0.111594
0.106902 0.082611 0.110850
0.133469 0.082939 0.110055
0.166893 0.083279 0.109213
0.210412 0.083643 0.108327
0.267949 0.084052 0.107464
0.339927 0.084408 0.106529
0.423594 0.084846 0.105593
0.512472 0.085251 0.104623
0.593902 0.085702 0.103650
0.664024 0.086144 0.102655
0.724321 0.086613 0.101670
0.775798 0.087087 0.100635
0.036054 0.101510 0.112334
0.051827 0.101863 0.111600
0.068937 0.102194 0.110866
0.088309 0.102586 0.110084
0.111084 0.103007 0.109245
0.138845 0.103423 0.108357
0.174064 0.103856 0.107470
0.220250 0.104337 0.106557
0.281121 0.104827 0.105634
0.356184 0.105301 0.104661
0.442064 0.105836 0.103680
0.530811 0.106329 0.102691
0.610030 0.106868 0.101701
0.678108 0.107413 0.100685
0.736607 0.107981 0.099670
0.786363 0.108557 0.098631
0.038443 0.125324 0.110888
0.054499 0.125813 0.110086
0.072082 0.126282 0.109258
0.092102 0.126789 0.108391
0.115794 0.127314 0.107492
0.144961 0.127889 0.106600
0.182182 0.128455 0.105666
0.231409 0.129042 0.104695
0.295608 0.129672 0.103708
0.373685 0.130288 0.102722
0.461439 0.130920 0.101709
0.549243 0.131590 0.100695
0.626128 0.132286 0.099678
0.692143 0.132966 0.098656
0.748785 0.133654 0.097640
0.796723 0.134357 0.096600
0.041123 0.154614 0.109291
0.057485 0.155244 0.108427
0.075564 0.155924 0.107543
0.096293 0.156589 0.106612
0.121057 0.157309 0.105705
0.151764 0.158060 0.104727
0.191273 0.158799 0.103766
0.243768 0.159590 0.102742
0.311453 0.160392 0.101742
0.392424 0.161215 0.100729
0.481567 0.162041 0.099722
0.567678 0.162901 0.098710
0.642150 0.163773 0.097648
0.706009 0.164667 0.096628
0.760694 0.165561 0.095612
0.806753 0.166465 0.094572
0.044064 0.191813 0.107558
0.060792 0.192696 0.106656
0.079405 0.193576 0.105725
0.100931 0.194541 0.104757
0.126867 0.195495 0.103796
0.159279 0.196493 0.102795
0.201401 0.197527 0.101794
0.257364 0.198569 0.100779
0.328502 0.199631 0.099755
0.412171 0.200734 0.098734
0.502158 0.201837 0.097684
0.585898 0.202971 0.096645
0.657881 0.204134 0.095615
0.719559 0.205292 0.094599
0.772272 0.206478 0.093574
0.816444 0.207650 0.092545
0.047266 0.240266 0.105740
0.064357 0.241461 0.104803
0.083582 0.242693 0.103831
0.105991 0.243995 0.102836
0.133237 0.245293 0.101822
0.167593 0.246635 0.100786
0.212568 0.248011 0.099773
0.272159 0.249412 0.098756
0.346700 0.250851 0.097734
0.432740 0.252298 0.096696
0.522641 0.253735 0.095662
0.603717 0.255241 0.094638
0.673137 0.256725 0.093610
0.732718 0.258228 0.092583
0.783447 0.259763 0.091568
0.825747 0.261249 0.090587
0.050669 0.301897 0.103868
0.068259 0.303438 0.102855
0.088105 0.305043 0.101854
0.111500 0.306684 0.100837
0.140192 0.308361 0.099815
0.176661 0.310020 0.098800
0.224844 0.311773 0.097760
0.288115 0.313515 0.096720
0.365867 0.315305 0.095697
0.453833 0.317084 0.094652
0.542789 0.318871 0.093646
0.620963 0.320698 0.092637
0.687986 0.322516 0.091614
0.745424 0.324318 0.090602
0.794129 0.326125 0.089631
0.834581 0.327945 0.088640
0.054327 0.375481 0.101887
0.072394 0.377377 0.100874
0.092963 0.379266 0.099843
0.117458 0.381184 0.098828
0.147702 0.383159 0.097796
0.186569 0.385133 0.096743
0.238158 0.387161 0.095726
0.305099 0.389155 0.094714
0.385822 0.391186 0.093676
0.475190 0.393215 0.092659
0.562287 0.395273 0.091643
0.637672 0.397282 0.090624
0.702253 0.399365 0.089645
0.757511 0.401407 0.088653
0.804219 0.403416 0.087715
0.842915 0.405367 0.086784
0.058155 0.457296 0.099886
0.076770 0.459399 0.098846
0.098179 0.461456 0.097827
0.123828 0.463560 0.096806
0.155818 0.465672 0.095767
0.197314 0.467794 0.094747
0.252493 0.469912 0.093709
0.322958 0.472048 0.092687
0.406314 0.474198 0.091673
0.496421 0.476318 0.090677
0.581022 0.478463 0.089669
0.653634 0.480596 0.088699
0.715810 0.482684 0.087733
0.768982 0.484728 0.086792
0.813674 0.486809 0.085878
0.850755 0.488751 0.084965
0.062220 0.539820 0.097858
0.081390 0.541786 0.096813
0.103682 0.543704 0.095794
0.130636 0.545728 0.094760
0.164558 0.547668 0.093733
0.208900 0.549639 0.092701
0.267751 0.551609 0.091693
0.341548 0.553529 0.090705
0.427075 0.555449 0.089716
0.517136 0.557381 0.088726
0.598872 0.559300 0.087765
0.668790 0.561142 0.086814
0.728684 0.562950 0.085890
0.779717 0.564761 0.085006
0.822534 0.566578 0.084111
0.858076 0.568222 0.083242
0.066472 0.613049 0.095828
0.086250 0.614752 0.094812
0.109514 0.616493 0.093772
0.137862 0.618199 0.092756
0.173867 0.619905 0.091740
0.221327 0.621580 0.090728
0.283747 0.623251 0.089759
0.360629 0.624932 0.088762
0.447960 0.626592 0.087806
0.537085 0.628221 0.086861
0.615770 0.629831 0.085914
0.683105 0.631407 0.085021
0.740735 0.632926 0.084129
0.789726 0.634445 0.083266
0.830745 0.635904 0.082406
0.864839 0.637346 0.081587
0.070877 0.676527 0.093806
0.091364 0.678009 0.092786
0.115639 0.679532 0.091771
0.145545 0.680983 0.090762
0.183793 0.682450 0.089770
0.234454 0.683915 0.088808
0.300351 0.685360 0.087818
0.380042 0.686780 0.086894
0.468605 0.688173 0.085963
0.555872 0.689557 0.085036
0.631610 0.690909 0.084169
0.696483 0.692207 0.083290
0.751979 0.693518 0.082423
0.799014 0.694732 0.081608
0.838310 0.695999 0.080808
0.871066 0.697129 0.080050
0.075419 0.731582 0.091773
0.096632 0.732837 0.090787
0.122052 0.734158 0.089798
0.153588 0.735425 0.088820
0.194270 0.736674 0.087867
0.248226 0.737905 0.086924
0.317421 0.739104 0.085977
0.399448 0.740310 0.085081
0.488698 0.741472 0.084180
0.573479 0.742634 0.083322
0.646420 0.743768 0.082469
0.708922 0.744854 0.081638
0.762305 0.745900 0.080837
0.807486 0.746925 0.080094
0.845118 0.747920 0.079360
0.876726 0.748873 0.078645
0.080078 0.778980 0.089834
0.102132 0.780116 0.088876
0.128673 0.781199 0.087898
0.161966 0.782273 0.086931
0.205209 0.783300 0.086004
0.262557 0.784338 0.085113
0.334706 0.785364 0.084193
0.418602 0.786346 0.083324
0.507774 0.787324 0.082483
0.589773 0.788253 0.081672
0.660097 0.789163 0.080877
0.720357 0.790071 0.080131
0.771774 0.790884 0.079369
0.815139 0.791691 0.078667
0.851334 0.792502 0.077977
0.881806 0.793233 0.077337
0.084903 0.819160 0.087939
0.107752 0.820047 0.086960
0.135546 0.820958 0.086038
0.170636 0.821842 0.085126
0.216613 0.822688 0.084238
0.277027 0.823538 0.083379
0.351758 0.824378 0.082524
0.437231 0.825150 0.081711
0.525646 0.825927 0.080904
0.604746 0.826680 0.080145
0.672561 0.827397 0.079377
0.730701 0.828111 0.078699
0.780263 0.828774 0.078006
0.821940 0.829411 0.077346
0.856790 0.830014 0.076764
0.886280 0.830583 0.076170
0.032521 0.064121 0.140220
0.047811 0.064311 0.139543
0.064240 0.064534 0.138810
0.082597 0.064729 0.138028
0.103882 0.064982 0.137174
0.129576 0.065265 0.136309
0.161691 0.065545 0.135348
0.203251 0.065871 0.134374
0.258269 0.066160 0.133364
0.327796 0.066494 0.132299
0.409583 0.066872 0.131191
0.497928 0.067198 0.130081
0.580961 0.067568 0.128953
0.652594 0.067973 0.127782
0.714366 0.068355 0.126590
0.767118 0.068736 0.125415
0.034335 0.081554 0.138809
0.049877 0.081810 0.138059
0.066679 0.082074 0.137202
0.085556 0.082388 0.136342
0.107635 0.082728 0.135398
0.134421 0.083068 0.134406
0.168148 0.083390 0.133378
0.212135 0.083798 0.132340
0.270261 0.084156 0.131237
0.342875 0.084581 0.130114
0.426946 0.084994 0.129006
0.515827 0.085410 0.127828
0.596919 0.085856 0.126649
0.666609 0.086301 0.125466
0.726682 0.086772 0.124236
0.777778 0.087249 0.123021
0.036468 0.101616 0.137256
0.052290 0.101966 0.136373
0.069535 0.102351 0.135434
0.089010 0.102742 0.134419
0.111936 0.103164 0.133414
0.139950 0.103573 0.132365
0.175515 0.104032 0.131264
0.222231 0.104510 0.130176
0.283685 0.104995 0.129033
0.359346 0.105480 0.127866
0.445544 0.106005 0.126684
0.534235 0.106546 0.125503
0.612999 0.107085 0.124295
0.680697 0.107608 0.123074
0.738890 0.108181 0.121854
0.788317 0.108750 0.120616
0.038919 0.125509 0.135461
0.055057 0.125978 0.134454
0.072694 0.126487 0.133467
0.092859 0.126974 0.132411
0.116742 0.127519 0.131312
0.146161 0.128086 0.130196
0.183819 0.128671 0.129071
0.233605 0.129273 0.127911
0.298468 0.129899 0.126713
0.377078 0.130522 0.125535
0.465126 0.131191 0.124314
0.552720 0.131859 0.123108
0.629098 0.132519 0.121885
0.694743 0.133223 0.120649
0.750997 0.133912 0.119433
0.798637 0.134641 0.118194
0.041659 0.154880 0.133499
0.058090 0.155502 0.132439
0.076237 0.156167 0.131344
0.097121 0.156850 0.130250
0.122097 0.157561 0.129106
0.153091 0.158325 0.127952
0.193095 0.159087 0.126762
0.246216 0.159889 0.125570
0.314548 0.160677 0.124370
0.396022 0.161518 0.123143
0.485378 0.162359 0.121926
0.571075 0.163232 0.120701
0.645083 0.164090 0.119454
0.708534 0.164996 0.118229
0.762868 0.165885 0.117006
0.808639 0.166810 0.115799
0.044630 0.192136 0.131378
0.061471 0.193025 0.130276
0.080150 0.193927 0.129153
0.101866 0.194874 0.127979
0.127988 0.195869 0.126792
0.160771 0.196851 0.125623
0.203410 0.197884 0.124413
0.260062 0.198966 0.123196
0.331867 0.200037 0.121945
0.415929 0.201140 0.120741
0.505997 0.202248 0.119521
0.589230 0.203404 0.118277
0.660745 0.204563 0.117040
0.722035 0.205734 0.115823
0.774418 0.206907 0.114627
0.818212 0.208074 0.113443
0.047869 0.240687 0.129171
0.065098 0.241916 0.128036
0.084398 0.243191 0.126838
0.106992 0.244461 0.125655
0.134483 0.245803 0.124433
0.169231 0.247148 0.123226
0.214781 0.248527 0.122013
0.275089 0.249935 0.120779
0.350205 0.251364 0.119539
0.436636 0.252832 0.118313
0.526420 0.254291 0.117096
0.606940 0.255790 0.115882
0.676012 0.257294 0.114669
0.735134 0.258791 0.113472
0.785477 0.260328 0.112293
0.827409 0.261817 0.111119
0.051318 0.302460 0.126899
0.069000 0.304019 0.125677
0.088992 0.305640 0.124466
0.112574 0.307300 0.123272
0.141538 0.308973 0.122046
0.178437 0.310683 0.120812
0.227253 0.312411 0.119576
0.291168 0.314160 0.118356
0.369514 0.315936 0.117135
0.457754 0.317710 0.115931
0.546465 0.319521 0.114710
0.624154 0.321351 0.113512
0.690672 0.323167 0.112325
0.747680 0.324999 0.111146
0.796039 0.326828 0.109984
0.836177 0.328615 0.108856
0.055023 0.376185 0.124521
0.073173 0.378088 0.123308
0.093910 0.379960 0.122073
0.118586 0.381887 0.120871
0.149200 0.383896 0.119638
0.188519 0.385862 0.118399
0.240786 0.387885 0.117188
0.308357 0.389900 0.115953
0.389599 0.391915 0.114742
0.479159 0.393991 0.113539
0.565833 0.396025 0.112359
0.640718 0.398056 0.111185
0.704807 0.400063 0.110042
0.759716 0.402151 0.108881
0.806015 0.404153 0.107752
0.844453 0.406123 0.106656
0.058913 0.458078 0.122125
0.077605 0.460163 0.120907
0.099172 0.462259 0.119660
0.125067 0.464325 0.118444
0.157425 0.466424 0.117230
0.199439 0.468566 0.116001
0.255267 0.470712 0.114789
0.326370 0.472849 0.113597
0.410172 0.474984 0.112396
0.500383 0.477126 0.111213
0.584395 0.479241 0.110074
0.656516 0.481312 0.108932
0.718275 0.483423 0.107798
0.771032 0.485514 0.106703
0.815394 0.487553 0.105618
0.852182 0.489505 0.104586
0.063002 0.540576 0.119708
0.082287 0.542540 0.118484
0.104722 0.544457 0.117250
0.131941 0.546435 0.116037
0.166246 0.548374 0.114842
0.211155 0.550369 0.113628
0.270657 0.552294 0.112448
0.345056 0.554237 0.111270
0.431038 0.556176 0.110099
0.520907 0.558058 0.108957
0.602105 0.559944 0.107826
0.671526 0.561814 0.106742
0.730971 0.563642 0.105658
0.781667 0.565411 0.104610
0.824109 0.567178 0.103589
0.859397 0.568886 0.102593
0.067255 0.613677 0.117311
0.087196 0.615415 0.116082
0.110634 0.617116 0.114863
0.139261 0.618798 0.113650
0.175668 0.620521 0.112462
0.223719 0.622202 0.111290
0.286773 0.623872 0.110145
0.364236 0.625525 0.109006
0.451849 0.627164 0.107875
0.540670 0.628791 0.106772
0.618774 0.630416 0.105698
0.685671 0.631990 0.104621
0.742897 0.633484 0.103610
0.791545 0.634979 0.102612
0.832199 0.636443 0.101651
0.866048 0.637867 0.100719
0.071707 0.677080 0.114910
0.092320 0.678568 0.113704
0.116814 0.680048 0.112516
0.146993 0.681563 0.111351
0.185690 0.682987 0.110178
0.236980 0.684457 0.109033
0.303511 0.685881 0.107904
0.383646 0.687324 0.106815
0.472415 0.688691 0.105727
0.559250 0.690038 0.104687
0.634482 0.691395 0.103648
0.698885 0.692713 0.102632
0.753967 0.693988 0.101681
0.800625 0.695214 0.100751
0.839584 0.696418 0.099844
0.872148 0.697572 0.098966
0.076294 0.732060 0.112570
0.097663 0.733315 0.111389
0.123258 0.734605 0.110216
0.155113 0.735881 0.109052
0.196248 0.737113 0.107928
0.250879 0.738314 0.106856
0.320620 0.739562 0.105756
0.403030 0.740743 0.104718
0.492315 0.741909 0.103687
0.576620 0.743051 0.102679
0.649036 0.744151 0.101706
0.711119 0.745235 0.100758
0.764173 0.746288 0.099855
0.808967 0.747287 0.099004
0.846351 0.748289 0.098125
0.877736 0.749197 0.097327
0.080985 0.779446 0.110271
0.103181 0.780503 0.109099
0.129994 0.781584 0.107981
0.163574 0.782651 0.106872
0.207329 0.783698 0.105786
0.265246 0.784712 0.104753
0.337887 0.785728 0.103699
0.422143 0.786709 0.102733
0.511234 0.787675 0.101735
0.592688 0.788590 0.100794
0.662505 0.789481 0.099904
0.722346 0.790378 0.099031
0.773427 0.791216 0.098186
0.816487 0.792040 0.097354
0.852390 0.792783 0.096586
0.882669 0.793516 0.095880
0.085783 0.819480 0.108053
0.108831 0.820390 0.106932
0.136861 0.821271 0.105852
0.172330 0.822179 0.104778
0.218742 0.822991 0.103753
0.279775 0.823844 0.102762
0.355003 0.824671 0.101775
0.440611 0.825463 0.100837
0.528790 0.826221 0.099925
0.607413 0.826963 0.099060
0.674768 0.827648 0.098217
0.732503 0.828362 0.097402
0.781760 0.829024 0.096622
0.823106 0.829635 0.095887
0.857767 0.830236 0.095215
0.887038 0.830800 0.094551
0.032843 0.064184 0.171735
0.048184 0.064382 0.170857
0.064635 0.064594 0.169905
0.083118 0.064824 0.168877
0.104549 0.065078 0.167796
0.130432 0.065371 0.166640
0.162825 0.065670 0.165478
0.204841 0.065968 0.164230
0.260357 0.066275 0.162951
0.330498 0.066640 0.161613
0.412691 0.066982 0.160244
0.501204 0.067343 0.158859
0.583879 0.067725 0.157413
0.655214 0.068130 0.155983
0.716666 0.068512 0.154525
0.769109 0.068895 0.153022
0.034734 0.081654 0.169937
0.050299 0.081904 0.168911
0.067188 0.082194 0.167833
0.086163 0.082518 0.166708
0.108396 0.082837 0.165508
0.135397 0.083187 0.164262
0.169463 0.083545 0.162977
0.213962 0.083942 0.161648
0.272640 0.084311 0.160289
0.345833 0.084746 0.158896
0.430317 0.085151 0.157467
0.519240 0.085574 0.156022
0.599893 0.086035 0.154555
0.669275 0.086506 0.153072
0.728959 0.086959 0.151552
0.779730 0.087431 0.150087
0.036932 0.101748 0.167888
0.052793 0.102098 0.166767
0.070067 0.102500 0.165550
0.089671 0.102879 0.164303
0.112789 0.103298 0.163008
0.141047 0.103746 0.161691
0.177008 0.104210 0.160316
0.224268 0.104687 0.158934
0.286330 0.105170 0.157512
0.362594 0.105678 0.156053
0.449113 0.106191 0.154608
0.537665 0.106735 0.153115
0.615974 0.107279 0.151617
0.683340 0.107827 0.150135
0.741144 0.108403 0.148628
0.790253 0.108973 0.147119
0.039399 0.125698 0.165603
0.055583 0.126146 0.164345
0.073328 0.126658 0.163049
0.093614 0.127186 0.161732
0.117685 0.127739 0.160363
0.147391 0.128301 0.158969
0.185488 0.128884 0.157567
0.235854 0.129486 0.156111
0.301356 0.130125 0.154651
0.380538 0.130770 0.153152
0.468867 0.131425 0.151686
0.556185 0.132097 0.150176
0.632118 0.132780 0.148652
0.697346 0.133462 0.147167
0.753232 0.134192 0.145639
0.800495 0.134903 0.144140
0.042174 0.155071 0.163121
0.058694 0.155749 0.161766
0.076950 0.156418 0.160426
0.097984 0.157121 0.159025
0.123147 0.157854 0.157609
0.154468 0.158597 0.156161
0.194932 0.159371 0.154708
0.248689 0.160170 0.153206
0.317702 0.160997 0.151726
0.399699 0.161823 0.150229
0.489259 0.162674 0.148723
0.574543 0.163540 0.147214
0.648016 0.164419 0.145698
0.711076 0.165323 0.144199
0.765067 0.166232 0.142739
0.810471 0.167149 0.141227
0.045213 0.192456 0.160476
0.062101 0.193350 0.159078
0.080901 0.194264 0.157658
0.102790 0.195240 0.156201
0.129172 0.196229 0.154751
0.162294 0.197239 0.153254
0.205430 0.198273 0.151780
0.262748 0.199342 0.150283
0.335220 0.200429 0.148762
0.419718 0.201551 0.147266
0.509822 0.202687 0.145753
0.592560 0.203816 0.144268
0.663617 0.204975 0.142763
0.724499 0.206136 0.141276
0.776484 0.207318 0.139792
0.819991 0.208513 0.138351
0.048511 0.241151 0.157690
0.065793 0.242343 0.156256
0.085231 0.243627 0.154797
0.108009 0.244944 0.153325
0.135746 0.246268 0.151827
0.170874 0.247638 0.150322
0.217008 0.249033 0.148822
0.278022 0.250465 0.147316
0.353735 0.251907 0.145805
0.440532 0.253374 0.144302
0.530198 0.254829 0.142806
0.610201 0.256342 0.141321
0.678775 0.257841 0.139837
0.737507 0.259356 0.138399
0.787498 0.260861 0.136966
0.829087 0.262366 0.135560
0.052031 0.303023 0.154838
0.069752 0.304616 0.153362
0.089889 0.306252 0.151885
0.113670 0.307903 0.150381
0.142907 0.309626 0.148861
0.180258 0.311325 0.147370
0.229685 0.313049 0.145866
0.294329 0.314818 0.144369
