example_ofxGpuLutCube/bin/data/ofxGpuLutCube/LUT/V21 (orange sepia fade).cube
LUT_3D_SIZE 16
0.070587 0.070587 0.070587
0.080839 0.074483 0.072390
0.092572 0.079075 0.074383
0.105646 0.084204 0.076636
0.120166 0.089948 0.079069
0.136098 0.096262 0.081767
0.153705 0.103204 0.084735
0.173041 0.110697 0.088003
0.194255 0.118758 0.091567
0.217724 0.127392 0.095410
0.243855 0.136678 0.099619
0.272790 0.146684 0.104218
0.303973 0.157318 0.109156
0.336979 0.168723 0.114488
0.360930 0.176217 0.118067
0.378757 0.181098 0.120380
0.085213 0.082409 0.074298
0.098135 0.087568 0.076528
0.112420 0.093285 0.078979
0.128202 0.099643 0.081669
0.145357 0.106577 0.084656
0.164079 0.114035 0.087881
0.184773 0.122176 0.091464
0.207403 0.130867 0.095294
0.232526 0.140260 0.099509
0.260181 0.150274 0.104041
0.290432 0.161040 0.108991
0.322174 0.172370 0.114271
0.346657 0.180451 0.118011
0.364084 0.185358 0.120304
0.382317 0.190580 0.122766
0.401339 0.196241 0.125406
0.104893 0.096667 0.078917
0.120295 0.103008 0.081581
0.137092 0.109906 0.084532
0.155494 0.117491 0.087799
0.175525 0.125643 0.091336
0.197404 0.134389 0.095169
0.221479 0.143800 0.099341
0.248165 0.153935 0.103893
0.277374 0.164841 0.108859
0.307750 0.176088 0.114012
0.332548 0.184709 0.117954
0.349608 0.189650 0.120227
0.367648 0.195004 0.122704
0.386281 0.200678 0.125299
0.405652 0.206747 0.128053
0.425641 0.213219 0.130953
0.129120 0.113373 0.084466
0.147057 0.120927 0.087678
0.166456 0.129067 0.091174
0.187820 0.137948 0.095067
0.211019 0.147436 0.099200
0.236596 0.157662 0.103762
0.264541 0.168597 0.108655
0.294042 0.180008 0.113806
0.318804 0.189032 0.117886
0.335477 0.194017 0.120159
0.353048 0.199410 0.122605
0.371395 0.205199 0.125188
0.390616 0.211400 0.127969
0.410318 0.217974 0.130871
0.430627 0.224919 0.133892
0.451292 0.232161 0.137045
0.157823 0.132638 0.091070
0.178388 0.141484 0.094915
0.200828 0.151043 0.099058
0.225346 0.161339 0.103588
0.252429 0.172475 0.108497
0.280963 0.184049 0.113668
0.305289 0.193351 0.117816
0.321633 0.198456 0.120106
0.338834 0.203971 0.122540
0.356856 0.209832 0.125137
0.375598 0.216094 0.127873
0.395088 0.222769 0.130782
0.415320 0.229875 0.133825
0.435891 0.237308 0.136965
0.456937 0.245210 0.140243
0.478168 0.253431 0.143602
0.191142 0.154785 0.098959
0.214762 0.165164 0.103463
0.240623 0.176356 0.108337
0.268231 0.188149 0.113513
0.292143 0.197744 0.117730
0.308109 0.202972 0.120025
0.324843 0.208520 0.122451
0.342436 0.214469 0.125033
0.360922 0.220863 0.127785
0.380147 0.227671 0.130684
0.399950 0.234840 0.133694
0.420388 0.242459 0.136855
0.441368 0.250531 0.140141
0.462677 0.258961 0.143514
0.484173 0.267785 0.147011
0.505765 0.276892 0.150577
0.229211 0.180255 0.108154
0.256293 0.192479 0.113429
0.279149 0.202095 0.117577
0.294902 0.207518 0.119912
0.311249 0.213183 0.122374
0.328414 0.219263 0.124965
0.346475 0.225736 0.127708
0.365286 0.232614 0.130561
0.384892 0.239942 0.133598
0.405109 0.247739 0.136759
0.425808 0.255879 0.140002
0.446963 0.264468 0.143394
0.468402 0.273406 0.146891
0.490211 0.282793 0.150509
0.511975 0.292484 0.154200
0.533715 0.302442 0.157959
0.266535 0.206448 0.117397
0.282171 0.212189 0.119874
0.297968 0.217927 0.122277
0.314696 0.224058 0.124873
0.332271 0.230638 0.127585
0.350778 0.237691 0.130486
0.370011 0.245163 0.133493
0.389887 0.253028 0.136640
0.410416 0.261345 0.139916
0.431394 0.270072 0.143300
0.452779 0.279192 0.146789
0.474378 0.288653 0.150383
0.496191 0.298494 0.154067
0.518189 0.308684 0.157851
0.539980 0.319086 0.161706
0.561611 0.329683 0.165610
0.285004 0.222715 0.122197
0.301356 0.229028 0.124791
0.318542 0.235714 0.127515
0.336527 0.242835 0.130397
0.355310 0.250387 0.133389
0.374965 0.258466 0.136546
0.395187 0.266944 0.139808
0.415921 0.275765 0.143181
0.437161 0.285049 0.146674
0.458704 0.294642 0.150262
0.480501 0.304635 0.153952
0.502323 0.314869 0.157720
0.524237 0.325424 0.161573
0.546153 0.336295 0.165521
0.567810 0.347286 0.169494
0.589112 0.358356 0.173495
0.304968 0.240808 0.127417
0.322650 0.248147 0.130301
0.341051 0.255838 0.133298
0.360198 0.263966 0.136433
0.380058 0.272530 0.139665
0.400641 0.281570 0.143079
0.421660 0.290976 0.146559
0.443048 0.300673 0.150155
0.464722 0.310767 0.153832
0.486575 0.321156 0.157602
0.508547 0.331862 0.161444
0.530397 0.342749 0.165371
0.552168 0.353871 0.169354
0.573758 0.365164 0.173403
0.595112 0.376569 0.177490
0.615969 0.387944 0.181572
0.326935 0.261271 0.133179
0.345708 0.269525 0.136304
0.365309 0.278295 0.139585
0.385488 0.287419 0.142958
0.406204 0.296914 0.146434
0.427527 0.306834 0.150031
0.449017 0.317004 0.153697
0.470857 0.327554 0.157470
0.492726 0.338308 0.161298
0.514642 0.349351 0.165228
0.536557 0.360633 0.169230
0.558197 0.371947 0.173261
0.579629 0.383372 0.177329
0.600722 0.394873 0.181439
0.621624 0.406507 0.185615
0.641788 0.417923 0.189728
0.350702 0.284118 0.139429
0.370497 0.293311 0.142826
0.391052 0.303031 0.146312
0.412071 0.313028 0.149896
0.433414 0.323311 0.153570
0.455049 0.333900 0.157319
0.476990 0.344877 0.161186
0.498907 0.355998 0.165103
0.520781 0.367284 0.169070
0.542554 0.378768 0.173128
0.564104 0.390297 0.177209
0.585418 0.401934 0.181335
0.606311 0.413494 0.185455
0.626782 0.425028 0.189623
0.646964 0.436591 0.193791
0.666413 0.447817 0.197874
0.376056 0.309150 0.146192
0.396725 0.319232 0.149766
0.417981 0.329757 0.153464
0.439470 0.340453 0.157209
0.461258 0.351470 0.161051
0.483075 0.362648 0.164950
0.505035 0.374103 0.168955
0.526885 0.385676 0.172991
0.548490 0.397279 0.177070
0.569860 0.408940 0.181153
0.590949 0.420591 0.185290
0.611690 0.432268 0.189498
0.631888 0.443718 0.193648
0.651668 0.455051 0.197746
0.670873 0.466187 0.201883
0.689577 0.477119 0.205962
0.402594 0.336143 0.153314
0.423866 0.347010 0.157059
0.445507 0.358057 0.160907
0.467416 0.369469 0.164858
0.489252 0.380948 0.168808
0.511083 0.392568 0.172848
0.532838 0.404311 0.176945
0.554280 0.416017 0.181026
0.575520 0.427755 0.185193
0.596332 0.439354 0.189343
0.616763 0.450933 0.193492
0.636784 0.462382 0.197660
0.656180 0.473517 0.201749
0.675051 0.484366 0.205831
0.693326 0.494994 0.209869
0.711110 0.505301 0.213839
0.429960 0.364903 0.160797
0.451651 0.376278 0.164705
0.473425 0.387823 0.168675
0.495360 0.399577 0.172741
0.517089 0.411329 0.176813
0.538608 0.423112 0.180882
0.559934 0.434854 0.185034
0.580940 0.446572 0.189198
0.601553 0.458192 0.193362
0.621679 0.469570 0.197525
0.641304 0.480783 0.201612
0.660333 0.491686 0.205702
0.678928 0.502339 0.209766
0.696857 0.512626 0.213671
0.714105 0.522501 0.217560
0.730809 0.532067 0.221360
0.457690 0.394660 0.168511
0.479424 0.406393 0.172549
0.501156 0.418193 0.176591
0.522890 0.430143 0.180747
0.544205 0.441937 0.184868
0.565311 0.453668 0.189017
0.586007 0.465246 0.193161
0.606354 0.476693 0.197328
0.626206 0.487936 0.201442
0.645479 0.498876 0.205528
0.664177 0.509516 0.209567
0.682270 0.519773 0.213530
0.699821 0.529752 0.217419
0.716696 0.539236 0.221186
0.732947 0.548270 0.224855
0.748559 0.556848 0.228374
0.072865 0.071918 0.074749
0.083615 0.076071 0.076590
0.095917 0.080893 0.078702
0.109496 0.086253 0.081006
0.124466 0.092206 0.083535
0.140921 0.098726 0.086343
0.159085 0.105875 0.089417
0.179002 0.113563 0.092796
0.200876 0.121840 0.096461
0.225177 0.130768 0.100506
0.252033 0.140245 0.104836
0.281724 0.150497 0.109586
0.313475 0.161399 0.114693
0.346498 0.172932 0.120187
0.364878 0.178007 0.122601
0.382845 0.182956 0.124956
0.088498 0.084253 0.078624
0.101907 0.089558 0.080917
0.116744 0.095577 0.083469
0.132887 0.102122 0.086278
0.150572 0.109245 0.089341
0.169878 0.116946 0.092694
0.191167 0.125318 0.096376
0.214564 0.134273 0.100372
0.240385 0.143848 0.104698
0.268778 0.154126 0.109427
0.299624 0.165161 0.114535
0.331315 0.176540 0.119889
0.350347 0.182212 0.122548
0.368055 0.187237 0.124912
0.386521 0.192608 0.127437
0.405678 0.198362 0.130144
0.109047 0.098935 0.083379
0.124915 0.105494 0.086192
0.142181 0.112621 0.089220
0.161139 0.120407 0.092593
0.181724 0.128792 0.096252
0.204214 0.137785 0.100227
0.229137 0.147468 0.104590
0.256452 0.157853 0.109274
0.286300 0.169002 0.114379
0.316306 0.180132 0.119536
0.336181 0.186492 0.122483
0.353582 0.191593 0.124849
0.371748 0.197056 0.127376
0.390623 0.202894 0.130062
0.410179 0.209063 0.132861
0.430327 0.215695 0.135850
0.134142 0.116066 0.089105
0.152482 0.123847 0.092477
0.172457 0.132233 0.096123
0.194405 0.141360 0.100115
0.218308 0.151112 0.104439
0.244556 0.161588 0.109105
0.273210 0.172804 0.114203
0.301990 0.183918 0.119239
0.322353 0.190791 0.122416
0.339286 0.195953 0.124778
0.357123 0.201529 0.127296
0.375683 0.207419 0.129953
0.395055 0.213772 0.132796
0.414975 0.220445 0.135766
0.435444 0.227551 0.138859
0.456403 0.235038 0.142087
0.163654 0.135780 0.096014
0.184775 0.144917 0.099970
0.207805 0.154743 0.104263
0.233160 0.165374 0.108967
0.260749 0.176744 0.114043
0.288323 0.187850 0.119013
0.308763 0.195174 0.122307
0.325346 0.200429 0.124677
0.342823 0.206067 0.127214
0.361020 0.212066 0.129871
0.380016 0.218471 0.132697
0.399685 0.225297 0.135668
0.420028 0.232540 0.138771
0.440804 0.240136 0.142001
0.461946 0.248176 0.145352
0.483289 0.256586 0.148816
0.197867 0.158516 0.104151
0.222114 0.169184 0.108813
0.248624 0.180702 0.113852
0.275113 0.191866 0.118800
0.295615 0.199647 0.122250
0.311732 0.204966 0.124603
0.328714 0.210663 0.127118
0.346577 0.216781 0.129785
0.365224 0.223290 0.132599
0.384664 0.230253 0.135581
0.404658 0.237581 0.138659
0.425242 0.245351 0.141894
0.446385 0.253580 0.145270
0.467725 0.262132 0.148726
0.489344 0.271089 0.152307
0.510992 0.280348 0.155941
0.237114 0.184757 0.113716
0.262745 0.196143 0.118673
0.282802 0.204153 0.122164
0.298411 0.209542 0.124502
0.315023 0.215374 0.127029
0.332461 0.221601 0.129693
0.350704 0.228209 0.132503
0.369733 0.235246 0.135451
0.389502 0.242729 0.138566
0.409927 0.250671 0.141800
0.430749 0.258964 0.145130
0.452030 0.267723 0.148618
0.473556 0.276800 0.152174
0.495391 0.286324 0.155860
0.517207 0.296108 0.159630
0.538886 0.306168 0.163440
0.270338 0.208728 0.122085
0.285562 0.214254 0.124447
0.301610 0.220137 0.126925
0.318593 0.226431 0.129594
0.336528 0.233213 0.132413
0.355143 0.240369 0.135367
0.374579 0.248000 0.138457
0.394630 0.256019 0.141670
0.415296 0.264504 0.145025
0.436455 0.273392 0.148497
0.457893 0.282619 0.152059
0.479573 0.292220 0.155736
0.501404 0.302169 0.159477
0.523386 0.312472 0.163361
0.545163 0.322972 0.167298
0.566761 0.333656 0.171244
0.288580 0.224977 0.126851
0.305155 0.231434 0.129524
0.322559 0.238283 0.132320
0.340807 0.245568 0.135261
0.359860 0.253302 0.138348
0.379608 0.261505 0.141588
0.400026 0.270122 0.144925
0.420885 0.279106 0.148364
0.442236 0.288504 0.151933
0.463923 0.298284 0.155616
0.485692 0.308354 0.159381
0.507564 0.318710 0.163203
0.529447 0.329345 0.167132
0.551330 0.340310 0.171176
0.572933 0.351352 0.175203
0.594175 0.362506 0.179303
0.308917 0.243421 0.132220
0.326807 0.250928 0.135183
0.345419 0.258775 0.138252
0.364806 0.267050 0.141469
0.384838 0.275768 0.144800
0.405544 0.284965 0.148256
0.426699 0.294487 0.151825
0.448172 0.304333 0.155478
0.469937 0.314573 0.159237
0.491779 0.325031 0.163064
0.513755 0.335844 0.167027
0.535596 0.346820 0.171018
0.557329 0.357974 0.175050
0.578927 0.369359 0.179210
0.600102 0.380748 0.183344
0.620839 0.392141 0.187510
0.331227 0.264251 0.138142
0.350323 0.272767 0.141370
0.370001 0.281618 0.144699
0.390359 0.290869 0.148140
0.411222 0.300476 0.151681
0.432608 0.310537 0.155370
0.454246 0.320865 0.159135
0.476051 0.331467 0.162962
0.497932 0.342308 0.166879
0.519876 0.353444 0.170882
0.541727 0.364759 0.174940
0.563312 0.376122 0.179051
0.584674 0.387630 0.183197
0.605662 0.399128 0.187388
0.626406 0.410710 0.191616
0.646468 0.422111 0.195808
0.355311 0.287438 0.144556
0.375272 0.296821 0.147989
0.396013 0.306636 0.151589
0.417109 0.316763 0.155250
0.438542 0.327167 0.158991
0.460353 0.337982 0.162858
0.482193 0.348914 0.166752
0.504142 0.360143 0.170752
0.525938 0.371473 0.174804
0.547685 0.382986 0.178901
0.569223 0.394621 0.183077
0.590359 0.406203 0.187261
0.611178 0.417776 0.191470
0.631520 0.429226 0.195678
0.651530 0.440756 0.199937
0.670802 0.451898 0.204101
0.380883 0.312789 0.151444
0.401701 0.323023 0.155110
0.423084 0.333678 0.158858
0.444659 0.344480 0.162702
0.466462 0.355555 0.166630
0.488328 0.366815 0.170591
0.510252 0.378325 0.174663
0.532036 0.389933 0.178783
0.553546 0.401534 0.182925
0.574915 0.413233 0.187113
0.595846 0.424862 0.191326
0.616457 0.436491 0.195556
0.636547 0.447908 0.199769
0.656119 0.459169 0.203976
0.675303 0.470338 0.208174
0.693671 0.481021 0.212281
0.407639 0.340103 0.158755
0.429003 0.351017 0.162546
0.450850 0.362312 0.166523
0.472615 0.373654 0.170473
0.494461 0.385195 0.174546
0.516209 0.396832 0.178633
0.537946 0.408591 0.182798
0.559360 0.420339 0.186986
0.580459 0.432027 0.191182
0.601132 0.443609 0.195401
0.621445 0.455097 0.199625
0.641286 0.466480 0.203858
0.660522 0.477520 0.208012
0.679232 0.488341 0.212159
0.697365 0.498795 0.216217
0.714913 0.508994 0.220230
0.435145 0.369027 0.166347
0.456858 0.380476 0.170351
0.478652 0.392083 0.174365
0.500549 0.403894 0.178510
0.522254 0.415643 0.182656
0.543689 0.427433 0.186846
0.564968 0.439219 0.191061
0.585788 0.450842 0.195264
0.606285 0.462387 0.199506
0.626222 0.473689 0.203699
0.645694 0.484833 0.207886
0.664656 0.495702 0.212050
0.682986 0.506160 0.216099
0.700675 0.516282 0.220100
0.717806 0.526047 0.224019
0.734254 0.535384 0.227797
0.462829 0.398974 0.174247
0.484626 0.410750 0.178300
0.506293 0.422549 0.182460
0.527948 0.434473 0.186653
0.549194 0.446242 0.190871
0.570191 0.457909 0.195075
0.590788 0.469434 0.199324
0.610962 0.480827 0.203496
0.630662 0.491987 0.207722
0.649711 0.502799 0.211838
0.668268 0.513352 0.215938
0.686176 0.523439 0.219942
0.703551 0.533287 0.223854
0.720205 0.542602 0.227627
0.736239 0.551463 0.231324
0.751588 0.559874 0.234839
0.075370 0.073401 0.078917
0.086640 0.077755 0.080849
0.099415 0.082768 0.083035
0.113485 0.088383 0.085408
0.128929 0.094536 0.088045
0.145891 0.101267 0.090963
0.164617 0.108622 0.094183
0.185161 0.116559 0.097681
0.207740 0.125041 0.101483
0.232771 0.134156 0.105629
0.260612 0.143969 0.110164
0.290824 0.154427 0.115072
0.323106 0.165587 0.120383
0.350949 0.174926 0.124841
0.368777 0.179794 0.127205
0.386919 0.184850 0.129622
0.091951 0.086160 0.082955
0.105843 0.091691 0.085344
0.121134 0.097927 0.087990
0.137771 0.104655 0.090884
0.155976 0.112005 0.094094
0.175839 0.119937 0.097536
0.197748 0.128511 0.101376
0.221874 0.137712 0.105511
0.248446 0.147522 0.109999
0.277715 0.158115 0.114900
0.308763 0.169280 0.120140
0.336512 0.178976 0.124735
0.354210 0.184011 0.127117
0.372138 0.189168 0.129574
0.390884 0.194712 0.132202
0.410180 0.200606 0.134941
0.113362 0.101263 0.087882
0.129694 0.108033 0.090773
0.147573 0.115425 0.093987
0.166912 0.123400 0.097442
0.188081 0.132008 0.101227
0.211257 0.141216 0.105344
0.236912 0.151196 0.109870
0.264950 0.161814 0.114730
0.295036 0.173107 0.119960
0.322239 0.182994 0.124582
0.339900 0.188292 0.127038
0.357571 0.193549 0.129487
0.375933 0.199147 0.132109
0.395032 0.205108 0.134865
0.414769 0.211469 0.137762
0.435072 0.218209 0.140820
0.139272 0.118829 0.093850
0.158140 0.126868 0.097331
0.178654 0.135490 0.101091
0.201195 0.144849 0.105246
0.225770 0.154858 0.109717
0.252717 0.165608 0.114575
0.281794 0.177034 0.119785
0.308340 0.187083 0.124401
0.325971 0.192670 0.126990
0.343199 0.197944 0.129407
0.361250 0.203644 0.132018
0.380092 0.209726 0.134772
0.399585 0.216190 0.137676
0.419673 0.223024 0.140725
0.440288 0.230234 0.143905
0.461342 0.237902 0.147233
0.169639 0.139080 0.100999
0.191333 0.148446 0.105092
0.214978 0.158528 0.109565
0.241019 0.169463 0.114421
0.269004 0.181033 0.119627
0.294744 0.191186 0.124236
0.312303 0.197058 0.126892
0.329150 0.202431 0.129328
0.346842 0.208228 0.131933
0.365290 0.214376 0.134681
0.384504 0.220937 0.137587
0.404326 0.227882 0.140630
0.424848 0.235299 0.143837
0.445746 0.243057 0.147138
0.467012 0.251234 0.150564
0.488505 0.259825 0.154123
0.204771 0.162322 0.109428
0.229661 0.173298 0.114260
0.256665 0.185034 0.119444
0.281634 0.195407 0.124082
0.299070 0.201546 0.126806
0.315430 0.207015 0.129250
0.332654 0.212843 0.131841
0.350799 0.219130 0.134602
0.369679 0.225821 0.137496
0.389246 0.232891 0.140549
0.409414 0.240387 0.143719
0.430153 0.248281 0.147035
0.451390 0.256685 0.150462
0.472826 0.265396 0.153998
0.494496 0.274471 0.157666
0.516123 0.283875 0.161382
0.244979 0.189229 0.119333
0.268881 0.199637 0.123909
0.286136 0.206087 0.126740
0.302004 0.211623 0.129148
0.318857 0.217592 0.131765
0.336549 0.223972 0.134510
0.355011 0.230737 0.137399
0.374290 0.237943 0.140424
0.394202 0.245586 0.143595
0.414763 0.253669 0.146919
0.435713 0.262108 0.150350
0.457135 0.271009 0.153884
0.478808 0.280317 0.157562
0.500565 0.289883 0.161308
0.522411 0.299802 0.165131
0.544101 0.309972 0.169066
0.273630 0.210709 0.126647
0.289034 0.216349 0.129075
0.305363 0.222401 0.131671
0.322575 0.228856 0.134397
0.340754 0.235790 0.137301
0.359590 0.243113 0.140318
0.379203 0.250899 0.143509
0.399412 0.259058 0.146791
0.420224 0.267711 0.150229
0.441518 0.276751 0.153777
0.463026 0.286094 0.157416
0.484795 0.295841 0.161173
0.506632 0.305874 0.164986
0.528590 0.316301 0.168945
0.550358 0.326913 0.172963
0.571904 0.337666 0.177004
0.292227 0.227296 0.131572
0.309047 0.233889 0.134320
0.326678 0.240910 0.137189
0.345131 0.248361 0.140214
0.364466 0.256301 0.143394
0.384350 0.264621 0.146681
0.404898 0.273364 0.150116
0.425896 0.282500 0.153651
0.447351 0.292044 0.157303
0.469097 0.301943 0.161060
0.490906 0.312117 0.164890
0.512819 0.322598 0.168830
0.534641 0.333306 0.172817
0.556507 0.344305 0.176907
0.578034 0.355456 0.181043
0.599210 0.366619 0.185212
0.312913 0.246081 0.137096
0.331068 0.253727 0.140123
0.349907 0.261758 0.143289
0.369469 0.270212 0.146579
0.389681 0.279119 0.149998
0.410510 0.288400 0.153530
0.431778 0.298068 0.157192
0.453317 0.308040 0.160918
0.475157 0.318376 0.164762
0.497108 0.329015 0.168709
0.518981 0.339847 0.172702
0.540777 0.350892 0.176777
0.562461 0.362104 0.180897
0.583971 0.373526 0.185117
0.605075 0.384913 0.189330
0.625721 0.396323 0.193569
0.335543 0.267296 0.143175
0.354897 0.275959 0.146477
0.374756 0.284948 0.149881
0.395245 0.294376 0.153407
0.416263 0.304098 0.157045
0.437702 0.314284 0.160802
0.459445 0.324706 0.164648
0.481286 0.335417 0.168548
0.503230 0.346410 0.172576
0.525049 0.357525 0.176634
0.546885 0.368921 0.180789
0.568392 0.380325 0.184951
0.589687 0.391854 0.189187
0.610656 0.403439 0.193490
0.631174 0.414911 0.197739
0.651113 0.426271 0.201998
0.359973 0.290837 0.149769
0.380156 0.300383 0.153282
0.400993 0.310304 0.156935
0.422168 0.320565 0.160686
0.443720 0.331095 0.164488
0.465589 0.341968 0.168428
0.487440 0.353002 0.172418
0.509348 0.364286 0.176501
0.531144 0.375675 0.180625
0.552786 0.387214 0.184827
0.574238 0.398874 0.189065
0.595279 0.410432 0.193322
0.615987 0.422011 0.197602
0.636195 0.433446 0.201883
0.656045 0.444890 0.206207
0.675194 0.455976 0.210437
0.385804 0.316520 0.156798
0.406713 0.326859 0.160511
0.428189 0.337617 0.164392
0.449846 0.348510 0.168299
0.471640 0.359651 0.172271
0.493525 0.371014 0.176358
0.515429 0.382556 0.180499
0.537150 0.394175 0.184700
0.558625 0.405826 0.188913
0.579882 0.417511 0.193188
0.600771 0.429182 0.197484
0.621175 0.440697 0.201773
0.641104 0.452052 0.206046
0.660536 0.463254 0.210277
0.679533 0.474285 0.214581
0.697760 0.484906 0.218721
0.412707 0.344073 0.164264
0.434195 0.355134 0.168154
0.455982 0.366444 0.172175
0.477818 0.377869 0.176201
0.499658 0.389444 0.180339
0.521406 0.401117 0.184516
0.543029 0.412878 0.188770
0.564351 0.424623 0.193050
0.585364 0.436297 0.197314
0.605978 0.447900 0.201618
0.626058 0.459280 0.205892
0.645766 0.470576 0.210168
0.664823 0.481542 0.214412
0.683360 0.492221 0.218596
0.701409 0.502673 0.222752
0.718631 0.512579 0.226732
0.440260 0.373186 0.172038
0.462063 0.384707 0.176067
0.483968 0.396464 0.180226
0.505690 0.408183 0.184390
0.527339 0.419962 0.188632
0.548702 0.431727 0.192877
0.569895 0.443473 0.197191
0.590642 0.455118 0.201477
0.610937 0.466551 0.205762
0.630737 0.477805 0.210027
0.650033 0.488795 0.214271
0.668844 0.499582 0.218461
0.686911 0.509928 0.222595
0.704497 0.519938 0.226632
0.721389 0.529549 0.230536
0.737669 0.538708 0.234393
0.467999 0.403262 0.180027
0.489800 0.415052 0.184205
0.511403 0.426877 0.188414
0.532983 0.438764 0.192719
0.554175 0.450553 0.196991
0.575034 0.462173 0.201282
0.595574 0.473710 0.205579
0.615499 0.484954 0.209851
0.635014 0.495962 0.214113
0.653934 0.506710 0.218269
0.672287 0.517095 0.222425
0.690064 0.527157 0.226477
0.707190 0.536767 0.230395
0.723677 0.545919 0.234247
0.739434 0.554615 0.237896
0.754582 0.562778 0.241465
0.078040 0.074927 0.083112
0.089831 0.079511 0.085148
0.103087 0.084748 0.087399
0.117654 0.090550 0.089883
0.133596 0.096934 0.092632
0.151172 0.103929 0.095683
0.170329 0.111429 0.098979
0.191492 0.119593 0.102611
0.214772 0.128302 0.106570
0.240636 0.137657 0.110890
0.269230 0.147705 0.115574
0.300093 0.158436 0.120648
0.332846 0.169872 0.126146
0.354927 0.176701 0.129459
0.372709 0.181621 0.131844
0.391090 0.186809 0.134357
0.095586 0.088083 0.087338
0.109912 0.093877 0.089788
0.125692 0.100327 0.092559
0.142833 0.107299 0.095576
0.161531 0.114845 0.098870
0.181994 0.122993 0.102480
0.204540 0.131790 0.106458
0.229413 0.141242 0.110744
0.256760 0.151317 0.115396
0.286696 0.162172 0.120471
0.317840 0.173460 0.125826
0.340701 0.180924 0.129399
0.358082 0.185849 0.131757
0.376248 0.191156 0.134299
0.395206 0.196865 0.137005
0.414651 0.202803 0.139814
0.117869 0.103683 0.092461
0.134656 0.110648 0.095457
0.153016 0.118284 0.098787
0.172870 0.126471 0.102375
0.194670 0.135305 0.106326
0.218515 0.144780 0.110583
0.244887 0.155001 0.115246
0.273746 0.165960 0.120315
0.303632 0.177205 0.125584
0.326743 0.185181 0.129338
0.343735 0.190167 0.131687
0.361620 0.195548 0.134222
0.380201 0.201273 0.136924
0.399520 0.207398 0.139744
0.419406 0.213870 0.142750
0.439871 0.220750 0.145879
0.144558 0.121704 0.098664
0.163943 0.129942 0.102257
0.184975 0.138812 0.106169
0.208157 0.148428 0.110459
0.233453 0.158732 0.115104
0.261103 0.169770 0.120141
0.289956 0.181089 0.125361
0.313076 0.189475 0.129254
0.329717 0.194555 0.131615
0.347151 0.199971 0.134138
0.365415 0.205816 0.136820
0.384502 0.212056 0.139670
0.404166 0.218639 0.142656
0.424463 0.225643 0.145784
0.445177 0.233000 0.149047
0.466359 0.240802 0.152443
0.175803 0.142394 0.106042
0.198084 0.152064 0.110311
0.222336 0.162403 0.114938
0.249077 0.173646 0.119993
0.276847 0.185086 0.125177
0.299775 0.193862 0.129190
0.315936 0.198983 0.131524
0.333007 0.204514 0.134053
0.350959 0.210436 0.136739
0.369604 0.216741 0.139556
0.389041 0.223457 0.142550
0.409099 0.230581 0.145682
0.429686 0.238100 0.148955
0.450741 0.246027 0.152344
0.472079 0.254343 0.155861
0.493661 0.263083 0.159499
0.211825 0.166233 0.114799
0.237425 0.177544 0.119806
0.264338 0.189247 0.125040
0.286913 0.198292 0.129119
0.302579 0.203498 0.131450
0.319209 0.209095 0.133982
0.336670 0.215104 0.136624
0.355024 0.221519 0.139466
0.374128 0.228380 0.142457
0.393864 0.235579 0.145590
0.414261 0.243249 0.148852
0.435096 0.251288 0.152233
0.456428 0.259823 0.155760
0.477978 0.268686 0.159389
0.499681 0.277934 0.163115
0.521419 0.287486 0.166937
0.252579 0.193620 0.124965
0.274314 0.202776 0.129038
0.289564 0.208076 0.131377
0.305679 0.213755 0.133874
0.322764 0.219876 0.136559
0.340732 0.226398 0.139374
0.359381 0.233318 0.142351
0.378860 0.240714 0.145481
0.398976 0.248495 0.148730
0.419652 0.256722 0.152124
0.440743 0.265340 0.155625
0.462233 0.274333 0.159269
0.483975 0.283784 0.163007
0.505769 0.293484 0.166829
0.527633 0.303534 0.170763
0.549292 0.313752 0.174763
0.276956 0.212741 0.131304
0.292592 0.218517 0.133815
0.309201 0.224722 0.136458
0.326624 0.231337 0.139283
0.344999 0.238428 0.142260
0.364098 0.245920 0.145370
0.383854 0.253839 0.148627
0.404246 0.262172 0.151999
