example_ofxGpuLutCube/bin/data/ofxGpuLutCube/LUT/V21 (orange sepia fade).cube
LUT_3D_SIZE 6
0.070587 0.070587 0.070587
0.105646 0.084204 0.076636
0.153705 0.103204 0.084735
0.217724 0.127392 0.095410
0.303973 0.157318 0.109156
0.378757 0.181098 0.120380
0.129120 0.113373 0.084466
0.187820 0.137948 0.095067
0.264541 0.168597 0.108655
0.335477 0.194017 0.120159
0.390616 0.211400 0.127969
0.451292 0.232161 0.137045
0.229211 0.180255 0.108154
0.294902 0.207518 0.119912
0.346475 0.225736 0.127708
0.405109 0.247739 0.136759
0.468402 0.273406 0.146891
0.533715 0.302442 0.157959
0.304968 0.240808 0.127417
0.360198 0.263966 0.136433
0.421660 0.290976 0.146559
0.486575 0.321156 0.157602
0.552168 0.353871 0.169354
0.615969 0.387944 0.181572
0.376056 0.309150 0.146192
0.439470 0.340453 0.157209
0.505035 0.374103 0.168955
0.569860 0.408940 0.181153
0.631888 0.443718 0.193648
0.689577 0.477119 0.205962
0.457690 0.394660 0.168511
0.522890 0.430143 0.180747
0.586007 0.465246 0.193161
0.645479 0.498876 0.205528
0.699821 0.529752 0.217419
0.748559 0.556848 0.228374
0.078040 0.074927 0.083112
0.117654 0.090550 0.089883
0.170329 0.111429 0.098979
0.240636 0.137657 0.110890
0.332846 0.169872 0.126146
0.391090 0.186809 0.134357
0.144558 0.121704 0.098664
0.208157 0.148428 0.110459
0.289956 0.181089 0.125361
0.347151 0.199971 0.134138
0.404166 0.218639 0.142656
0.466359 0.240802 0.152443
0.252579 0.193620 0.124965
0.305679 0.213755 0.133874
0.359381 0.233318 0.142351
0.419652 0.256722 0.152124
0.483975 0.283784 0.163007
0.549292 0.313752 0.174763
0.316977 0.248825 0.142045
0.374141 0.273418 0.151778
0.436875 0.301675 0.162634
0.502334 0.332969 0.174402
0.567576 0.366261 0.186852
0.630507 0.400519 0.199769
0.390725 0.320277 0.162261
0.455074 0.352586 0.173989
0.520597 0.386815 0.186440
0.584809 0.421785 0.199359
0.645649 0.456184 0.212446
0.701775 0.488735 0.225291
0.473212 0.407573 0.185982
0.537995 0.443108 0.198880
0.600206 0.477871 0.211981
0.658088 0.510513 0.224874
0.710740 0.540185 0.237129
0.757505 0.565670 0.248192
0.087225 0.080017 0.095978
0.131100 0.097611 0.103638
0.188765 0.120448 0.113851
0.265693 0.148751 0.127168
0.348958 0.177215 0.141130
0.404056 0.192965 0.149034
0.161452 0.130821 0.113466
0.230261 0.159759 0.126668
0.307488 0.189973 0.140924
0.359489 0.206439 0.148763
0.418278 0.226356 0.158074
0.481482 0.249802 0.168664
0.269209 0.203301 0.140696
0.317191 0.220504 0.148487
0.372915 0.241460 0.157757
0.434575 0.266219 0.168332
0.499548 0.294460 0.180002
0.564923 0.325490 0.192604
0.329696 0.257414 0.157417
0.388558 0.283396 0.167944
0.452315 0.312812 0.179599
0.517994 0.344977 0.192193
0.582877 0.378841 0.205477
0.644720 0.413058 0.219145
0.405723 0.331810 0.179190
0.470699 0.364993 0.191763
0.536077 0.399629 0.205027
0.599456 0.434568 0.218741
0.658936 0.468414 0.232512
0.713480 0.499959 0.245951
0.488685 0.420621 0.204523
0.552836 0.455990 0.218199
0.613855 0.490129 0.232014
0.670201 0.521830 0.245498
0.721052 0.550031 0.258113
0.765821 0.573790 0.269170
0.097986 0.085852 0.109302
0.146084 0.105357 0.117982
0.208932 0.130129 0.129497
0.292506 0.160683 0.144495
0.360599 0.182624 0.155746
0.417538 0.199562 0.164474
0.179751 0.140689 0.129066
0.254261 0.172078 0.143964
0.318304 0.195603 0.155506
0.372377 0.213306 0.164197
0.432774 0.234556 0.174385
0.496903 0.259330 0.185866
0.279088 0.209195 0.155255
0.329257 0.227744 0.163878
0.386874 0.250101 0.174027
0.449848 0.276221 0.185496
0.515212 0.305578 0.198103
0.580306 0.337380 0.211606
0.342844 0.266472 0.173666
0.403357 0.293840 0.185081
0.467964 0.324339 0.197668
0.533618 0.357268 0.211195
0.597801 0.391419 0.225392
0.658594 0.425586 0.239951
0.421064 0.343764 0.197226
0.486326 0.377539 0.210708
0.551284 0.412444 0.224910
0.613658 0.447159 0.239492
0.671747 0.480358 0.254030
0.724600 0.510708 0.267965
0.504042 0.433658 0.224393
0.567394 0.468728 0.238961
0.627056 0.502064 0.253520
0.681727 0.532610 0.267496
0.730714 0.559312 0.280288
0.773460 0.581270 0.291139
0.110138 0.092383 0.123205
0.162604 0.113825 0.133061
0.231138 0.140620 0.146134
0.318658 0.172656 0.162716
0.372840 0.188469 0.171178
0.431584 0.206615 0.180867
0.199608 0.151429 0.145653
0.277483 0.184181 0.161964
0.329782 0.201690 0.170930
0.385902 0.220707 0.180563
0.447637 0.243236 0.191728
0.512424 0.269288 0.204248
0.289622 0.215554 0.170646
0.342031 0.235531 0.180242
0.401299 0.259238 0.191331
0.465256 0.286631 0.203813
0.530932 0.317039 0.217477
0.595624 0.349564 0.232073
0.356666 0.276133 0.190972
0.418422 0.304638 0.203382
0.483624 0.336176 0.216993
0.549108 0.369714 0.231591
0.612525 0.404067 0.246850
0.671973 0.437807 0.262289
0.436500 0.355892 0.216519
0.501920 0.390280 0.231080
0.566264 0.425287 0.246323
0.627441 0.459551 0.261808
0.684010 0.491863 0.276979
0.735166 0.521005 0.291245
0.519229 0.446628 0.245770
0.581561 0.481261 0.261267
0.639761 0.513639 0.276479
0.692682 0.542904 0.290764
0.739656 0.567933 0.303481
0.780336 0.587934 0.313937
0.123787 0.099657 0.137824
0.180585 0.122916 0.149083
0.255203 0.151868 0.163984
0.331342 0.178647 0.178636
0.385630 0.194710 0.187620
0.445952 0.214036 0.198378
0.220962 0.162958 0.163447
0.291116 0.191448 0.178347
0.341896 0.208259 0.187333
0.399790 0.228507 0.198041
0.462844 0.252390 0.210271
0.528023 0.279636 0.223913
0.300756 0.222407 0.187009
0.355230 0.243762 0.197647
0.416137 0.268909 0.209853
0.480800 0.297390 0.223480
0.546476 0.328722 0.238327
0.610572 0.361748 0.254094
0.370807 0.286171 0.209435
0.433830 0.315950 0.223042
0.499242 0.348246 0.237797
0.564343 0.382217 0.253556
0.626790 0.416570 0.269837
0.684982 0.449914 0.286091
0.452171 0.368429 0.237337
0.517278 0.403035 0.253029
0.580894 0.437985 0.269287
0.640814 0.471726 0.285560
0.695662 0.502924 0.301165
0.744991 0.530663 0.315503
0.533998 0.459456 0.268709
0.595222 0.493429 0.285004
0.651896 0.524831 0.300674
0.702935 0.552611 0.315041
0.747927 0.575884 0.327445
0.786411 0.593903 0.337260
