example_ofxGpuLutCube/bin/data/ofxGpuLutCube/LUT/V22 (dusty fade).cube
LUT_3D_SIZE 6
0.077789 0.077789 0.077789
0.144300 0.078992 0.078992
0.250647 0.080524 0.080524
0.394897 0.082386 0.082386
0.562097 0.084461 0.084461
0.736961 0.086757 0.086757
0.080487 0.146539 0.080487
0.149332 0.149332 0.082312
0.259453 0.152534 0.084390
0.406912 0.156123 0.086694
0.576213 0.160039 0.089200
0.751986 0.164190 0.091842
0.084314 0.259284 0.084314
0.155976 0.264553 0.086627
0.270228 0.270236 0.089123
0.420729 0.276235 0.091772
0.591630 0.282435 0.094521
0.767769 0.288760 0.097346
0.089038 0.413318 0.089038
0.163912 0.420481 0.091669
0.282229 0.427901 0.094428
0.435383 0.435376 0.097234
0.607282 0.442853 0.100083
0.783175 0.450104 0.102895
0.094336 0.591101 0.094336
0.172635 0.599099 0.097163
0.294701 0.607015 0.100006
0.449894 0.614749 0.102806
0.622124 0.622124 0.105547
0.797233 0.629030 0.108144
0.099875 0.774911 0.099875
0.181578 0.782663 0.102713
0.306726 0.790098 0.105460
0.463243 0.797009 0.108049
0.635100 0.803316 0.110454
0.808846 0.808846 0.112630
0.078168 0.078168 0.143067
0.145086 0.079534 0.145086
0.252116 0.081168 0.147570
0.396966 0.083109 0.150543
0.564551 0.085284 0.153909
0.739676 0.087673 0.157611
0.081097 0.147517 0.147503
0.150460 0.150468 0.150458
0.261338 0.153821 0.153808
0.409392 0.157529 0.157516
0.579012 0.161528 0.161518
0.754920 0.165795 0.165781
0.085139 0.261172 0.153684
0.157382 0.266580 0.157374
0.272383 0.272391 0.161379
0.423417 0.278488 0.165630
0.594564 0.284763 0.170069
0.770681 0.291087 0.174594
0.089976 0.415897 0.161253
0.165497 0.423170 0.165490
0.284543 0.430636 0.169919
0.438140 0.438138 0.174457
0.610149 0.445546 0.179014
0.785916 0.452713 0.183504
0.095349 0.594007 0.169783
0.174321 0.602030 0.174312
0.296985 0.609894 0.178863
0.452511 0.617517 0.183358
0.624741 0.624737 0.187712
0.799619 0.631406 0.191787
0.100943 0.777803 0.178697
0.183222 0.785448 0.183217
0.308853 0.792683 0.187556
0.465508 0.799405 0.191651
0.637221 0.805457 0.195399
0.810672 0.810672 0.198709
0.078637 0.078637 0.246320
0.145954 0.080078 0.249639
0.253657 0.081843 0.253650
0.399127 0.083881 0.258279
0.567133 0.086139 0.263450
0.742434 0.088619 0.269034
0.081775 0.148550 0.253526
0.151634 0.151649 0.258124
0.263285 0.155137 0.263274
0.411899 0.158974 0.268845
0.581840 0.163073 0.274789
0.757841 0.167400 0.280952
0.085986 0.263098 0.263083
0.158825 0.268680 0.268660
0.274592 0.274596 0.274585
0.426142 0.280757 0.280742
0.597496 0.287085 0.287070
0.773592 0.293422 0.293408
0.090967 0.418557 0.274388
0.167091 0.425888 0.280542
0.286864 0.433383 0.286854
0.440865 0.440867 0.293202
0.612981 0.448226 0.299476
0.788619 0.455292 0.305530
0.096391 0.596942 0.286644
0.175977 0.604923 0.293007
0.299277 0.612729 0.299276
0.455080 0.620224 0.305361
0.627237 0.627230 0.311121
0.801926 0.633690 0.316441
0.101962 0.780630 0.299071
0.184817 0.788149 0.305135
0.310930 0.795211 0.310929
0.467706 0.801702 0.316263
0.639215 0.807438 0.321055
0.812347 0.812347 0.325128
0.079126 0.079126 0.385840
0.146876 0.080704 0.390233
0.255290 0.082567 0.395448
0.401337 0.084686 0.401330
0.569751 0.087030 0.407779
0.745218 0.089535 0.414686
0.082501 0.149638 0.395285
0.152883 0.152892 0.401151
0.265265 0.156508 0.407588
0.414476 0.160437 0.414470
0.584739 0.164643 0.421698
0.760799 0.169045 0.429113
0.086873 0.265113 0.407368
0.160296 0.270816 0.414235
0.276832 0.276846 0.421451
0.428874 0.283075 0.428873
0.600415 0.289420 0.436374
0.776485 0.295725 0.443802
0.091943 0.421223 0.421208
0.168723 0.428632 0.428631
0.289188 0.436136 0.436122
0.443586 0.443593 0.443586
0.615760 0.450850 0.450842
0.791275 0.457797 0.457789
0.097433 0.599902 0.435885
0.177664 0.607806 0.443338
0.301522 0.615510 0.450616
0.457583 0.622854 0.457587
0.629680 0.629679 0.464087
0.804101 0.635879 0.469994
0.102988 0.783438 0.450355
0.186418 0.790793 0.457345
0.312933 0.797676 0.463855
0.469811 0.803899 0.469811
0.641118 0.809347 0.475021
0.813881 0.813880 0.479370
0.079663 0.079663 0.547485
0.147862 0.081361 0.552648
0.257013 0.083318 0.558615
0.403648 0.085520 0.565244
0.572448 0.087928 0.572443
0.748074 0.090511 0.580041
0.083245 0.150769 0.558413
0.154155 0.154168 0.565031
0.267336 0.157917 0.572212
0.417110 0.161959 0.579775
0.587629 0.166218 0.587633
0.763735 0.170684 0.595584
0.087766 0.267158 0.571949
0.161802 0.273000 0.579545
0.279094 0.279099 0.587358
0.431620 0.285387 0.595345
0.603351 0.291744 0.603349
0.779354 0.298049 0.611185
0.092962 0.423928 0.587118
0.170370 0.431368 0.595091
0.291519 0.438877 0.603072
0.446277 0.446283 0.610922
0.618513 0.453442 0.618513
0.793861 0.460240 0.625648
0.098475 0.602813 0.602808
0.179330 0.610666 0.610667
0.303749 0.618261 0.618254
0.460024 0.625439 0.625433
0.632046 0.632045 0.632050
0.806189 0.637967 0.637962
0.103995 0.786179 0.617976
0.187981 0.793395 0.625200
0.314888 0.800041 0.631808
0.471825 0.806021 0.637778
0.642880 0.811115 0.642885
0.815310 0.815310 0.647058
0.080260 0.080260 0.717041
0.148924 0.082030 0.722553
0.258768 0.084099 0.728863
0.406044 0.086388 0.735820
0.575179 0.088872 0.743192
0.750932 0.091486 0.750932
0.084032 0.151964 0.728637
0.155484 0.155498 0.735528
0.269441 0.159375 0.742953
0.419752 0.163487 0.750672
0.590526 0.167842 0.758650
0.766695 0.172322 0.766695
0.088676 0.269253 0.742680
0.163340 0.275201 0.750426
0.281383 0.281398 0.758390
0.434369 0.287705 0.766406
0.606251 0.294061 0.774388
0.782188 0.300303 0.782188
0.093974 0.426662 0.758140
0.172037 0.434135 0.766166
0.293840 0.441595 0.774117
0.448937 0.448945 0.781927
0.621181 0.455998 0.789388
0.796374 0.462614 0.796374
0.099522 0.605739 0.773881
0.180988 0.613459 0.781662
0.305947 0.620927 0.789123
0.462407 0.627917 0.796143
0.634283 0.634284 0.802519
0.808152 0.639912 0.808152
0.105001 0.788885 0.788885
0.189517 0.795882 0.795882
0.316777 0.802311 0.802311
0.473699 0.807960 0.807960
0.644539 0.812773 0.812773
0.816543 0.816543 0.816543
