example_ofxGpuLutCube/bin/data/ofxGpuLutCube/LUT/V22 (dusty fade).cube
LUT_3D_SIZE 16
0.077789 0.077789 0.077789
0.096956 0.078137 0.078137
0.118772 0.078550 0.078550
0.144300 0.078992 0.078992
0.174665 0.079472 0.079472
0.210276 0.079976 0.079976
0.250647 0.080524 0.080524
0.295239 0.081105 0.081105
0.343518 0.081722 0.081722
0.394897 0.082386 0.082386
0.448853 0.083048 0.083048
0.504754 0.083734 0.083734
0.562097 0.084461 0.084461
0.620233 0.085217 0.085217
0.678689 0.085975 0.085975
0.736961 0.086757 0.086757
0.078548 0.097402 0.078548
0.097882 0.097882 0.078963
0.119931 0.098426 0.079441
0.145757 0.098998 0.079950
0.176543 0.099610 0.080522
0.212553 0.100245 0.081074
0.253317 0.100926 0.081706
0.298298 0.101639 0.082338
0.346948 0.102401 0.083017
0.398644 0.103182 0.083730
0.452866 0.103988 0.084428
0.509068 0.104835 0.085188
0.566570 0.105715 0.085969
0.624892 0.106604 0.086735
0.683452 0.107523 0.087551
0.741849 0.108470 0.088397
0.079437 0.119901 0.079437
0.098971 0.120550 0.079951
0.121258 0.121258 0.080494
0.147444 0.122001 0.081071
0.178651 0.122802 0.081683
0.215088 0.123624 0.082320
0.256273 0.124491 0.082988
0.301631 0.125417 0.083683
0.350643 0.126349 0.084413
0.402657 0.127325 0.085159
0.457184 0.128338 0.085944
0.513577 0.129386 0.086734
0.571315 0.130443 0.087551
0.629723 0.131555 0.088374
0.688380 0.132676 0.089225
0.746871 0.133848 0.090106
0.080487 0.146539 0.080487
0.100219 0.147423 0.081038
0.122769 0.148336 0.081670
0.149332 0.149332 0.082312
0.180976 0.150343 0.082977
0.217861 0.151424 0.083681
0.259453 0.152534 0.084390
0.305196 0.153710 0.085132
0.354566 0.154881 0.085913
0.406912 0.156123 0.086694
0.461690 0.157381 0.087518
0.518319 0.158701 0.088346
0.576213 0.160039 0.089200
0.634746 0.161396 0.090074
0.693485 0.162786 0.090957
0.751986 0.164190 0.091842
0.081645 0.178601 0.081645
0.101569 0.179747 0.082283
0.124429 0.180952 0.082947
0.151381 0.182196 0.083628
0.183486 0.183498 0.084361
0.220830 0.184867 0.085106
0.262859 0.186255 0.085886
0.309010 0.187699 0.086682
0.358729 0.189187 0.087490
0.411370 0.190701 0.088328
0.466401 0.192273 0.089183
0.523211 0.193847 0.090041
0.581268 0.195486 0.090932
0.639907 0.197124 0.091822
0.698670 0.198797 0.092736
0.757219 0.200484 0.093646
0.082927 0.216339 0.082927
0.103079 0.217769 0.083621
0.126237 0.219245 0.084328
0.153601 0.220779 0.085079
0.186195 0.222377 0.085860
0.223999 0.224006 0.086639
0.266467 0.225681 0.087459
0.312975 0.227404 0.088299
0.363034 0.229159 0.089140
0.415983 0.230953 0.090009
0.471232 0.232771 0.090895
0.528250 0.234635 0.091798
0.586422 0.236495 0.092702
0.645123 0.238401 0.093618
0.703912 0.240294 0.094564
0.762462 0.242209 0.095475
0.084314 0.259284 0.084314
0.104691 0.261004 0.085065
0.128198 0.262762 0.085826
0.155976 0.264553 0.086627
0.189084 0.266415 0.087459
0.227327 0.268299 0.088279
0.270228 0.270236 0.089123
0.317124 0.272188 0.089976
0.367505 0.274206 0.090861
0.420729 0.276235 0.091772
0.476208 0.278278 0.092669
0.533368 0.280361 0.093604
0.591630 0.282435 0.094521
0.650358 0.284563 0.095459
0.709198 0.286651 0.096404
0.767769 0.288760 0.097346
0.085808 0.306860 0.085808
0.106419 0.308826 0.086593
0.130271 0.310815 0.087402
0.158521 0.312861 0.088252
0.192107 0.314931 0.089091
0.230829 0.317071 0.089954
0.274128 0.319229 0.090841
0.321394 0.321410 0.091730
0.372082 0.323630 0.092645
0.425574 0.325849 0.093568
0.481257 0.328088 0.094499
0.538540 0.330351 0.095414
0.596864 0.332609 0.096363
0.655649 0.334900 0.097319
0.714446 0.337154 0.098251
0.772976 0.339397 0.099193
0.087382 0.358433 0.087382
0.108256 0.360613 0.088219
0.132471 0.362814 0.089085
0.161149 0.365075 0.089935
0.195249 0.367342 0.090810
0.234440 0.369669 0.091708
0.278130 0.372018 0.092610
0.325758 0.374377 0.093527
0.376753 0.376761 0.094459
0.430462 0.379149 0.095397
0.486324 0.381538 0.096333
0.543741 0.383945 0.097274
0.602102 0.386330 0.098223
0.660872 0.388707 0.099180
0.719649 0.391091 0.100127
0.778164 0.393445 0.101069
0.089038 0.413318 0.089038
0.110177 0.415688 0.089909
0.134726 0.418067 0.090779
0.163912 0.420481 0.091669
0.198508 0.422931 0.092581
0.238127 0.425419 0.093508
0.282229 0.427901 0.094428
0.330202 0.430384 0.095349
0.381440 0.432881 0.096295
0.435383 0.435376 0.097234
0.491394 0.437885 0.098199
0.548893 0.440373 0.099133
0.607282 0.442853 0.100083
0.666001 0.445303 0.101027
0.724729 0.447747 0.101971
0.783175 0.450104 0.102895
0.090749 0.470825 0.090749
0.112164 0.473339 0.091633
0.137105 0.475863 0.092566
0.166754 0.478426 0.093479
0.201841 0.480990 0.094401
0.241899 0.483578 0.095344
0.286363 0.486147 0.096263
0.334652 0.488737 0.097218
0.386158 0.491298 0.098150
0.440289 0.493860 0.099121
0.496429 0.496436 0.100067
0.553983 0.498952 0.100993
0.612368 0.501457 0.101939
0.671040 0.503932 0.102858
0.729717 0.506400 0.103800
0.788067 0.508767 0.104691
0.092537 0.530353 0.092537
0.114195 0.532931 0.093451
0.139541 0.535595 0.094364
0.169668 0.538213 0.095306
0.205218 0.540833 0.096230
0.245697 0.543453 0.097176
0.290527 0.546093 0.098131
0.339118 0.548718 0.099091
0.390855 0.551306 0.100037
0.445139 0.553908 0.100969
0.501372 0.556456 0.101906
0.558956 0.558962 0.102840
0.617352 0.561461 0.103768
0.675926 0.563895 0.104664
0.734528 0.566308 0.105579
0.792785 0.568641 0.106457
0.094336 0.591101 0.094336
0.116280 0.593752 0.095274
0.142004 0.596454 0.096197
0.172635 0.599099 0.097163
0.208635 0.601752 0.098096
0.249524 0.604384 0.099052
0.294701 0.607015 0.100006
0.343542 0.609644 0.100952
0.395482 0.612194 0.101874
0.449894 0.614749 0.102806
0.506215 0.617254 0.103735
0.563826 0.619737 0.104657
0.622124 0.622124 0.105547
0.680622 0.624501 0.106432
0.739105 0.626795 0.107297
0.797233 0.629030 0.108144
0.096165 0.652413 0.096165
0.118428 0.655091 0.097112
0.144523 0.657746 0.098057
0.175615 0.660410 0.099024
0.212067 0.663042 0.099976
0.253313 0.665653 0.100913
0.298799 0.668234 0.101857
0.347872 0.670776 0.102785
0.400002 0.673301 0.103703
0.454535 0.675764 0.104603
0.510881 0.678182 0.105518
0.568480 0.680543 0.106423
0.626728 0.682846 0.107287
0.685099 0.685096 0.108117
0.743420 0.687260 0.108938
0.801455 0.689345 0.109757
0.098024 0.713838 0.098024
0.120558 0.716461 0.098996
0.147047 0.719083 0.099921
0.178615 0.721745 0.100891
0.215483 0.724312 0.101809
0.257062 0.726847 0.102755
0.302813 0.729354 0.103670
0.352117 0.731835 0.104587
0.404408 0.734278 0.105501
0.459011 0.736647 0.106388
0.515361 0.738948 0.107236
0.572903 0.741177 0.108087
0.631063 0.743333 0.108909
0.689288 0.745448 0.109729
0.747477 0.747479 0.110492
0.805324 0.749429 0.111248
0.099875 0.774911 0.099875
0.122701 0.777529 0.100851
0.149581 0.780091 0.101767
0.181578 0.782663 0.102713
0.218814 0.785178 0.103629
0.260715 0.787658 0.104545
0.306726 0.790098 0.105460
0.356198 0.792454 0.106331
0.408590 0.794787 0.107214
0.463243 0.797009 0.108049
0.519603 0.799197 0.108869
0.577068 0.801297 0.109689
0.635100 0.803316 0.110454
0.693164 0.805222 0.111215
0.751193 0.807116 0.111940
0.808846 0.808846 0.112630
0.077915 0.077915 0.096702
0.097117 0.078269 0.097118
0.118966 0.078708 0.097591
0.144558 0.079155 0.098077
0.174982 0.079661 0.098645
0.210676 0.080176 0.099217
0.251133 0.080732 0.099860
0.295803 0.081326 0.100509
0.344147 0.081957 0.101206
0.395562 0.082607 0.101936
0.449550 0.083272 0.102713
0.505513 0.083995 0.103498
0.562911 0.084721 0.104321
0.621110 0.085500 0.105178
0.679596 0.086288 0.106060
0.737874 0.087073 0.106974
0.078705 0.097563 0.097563
0.098073 0.098074 0.098072
0.120155 0.098619 0.098615
0.146075 0.099220 0.099218
0.176906 0.099834 0.099831
0.213025 0.100481 0.100479
0.253865 0.101193 0.101188
0.298898 0.101922 0.101922
0.347630 0.102687 0.102684
0.399372 0.103469 0.103466
0.453638 0.104295 0.104291
0.509864 0.105153 0.105150
0.567446 0.106032 0.106030
0.625780 0.106950 0.106950
0.684363 0.107872 0.107868
0.742764 0.108819 0.108815
0.079624 0.120156 0.098615
0.099191 0.120808 0.099192
0.121517 0.121520 0.099802
0.147794 0.122288 0.100468
0.179061 0.123100 0.101158
0.215584 0.123935 0.101890
0.256829 0.124823 0.102654
0.302282 0.125742 0.103438
0.351358 0.126702 0.104263
0.403436 0.127696 0.105122
0.457992 0.128719 0.106000
0.514453 0.129778 0.106919
0.572204 0.130856 0.107842
0.630666 0.131972 0.108789
0.689344 0.133097 0.109774
0.747842 0.134270 0.110754
0.080683 0.146865 0.099799
0.100443 0.147747 0.100442
0.123067 0.148719 0.101146
0.149692 0.149702 0.101862
0.181420 0.150738 0.102624
0.218394 0.151843 0.103430
0.260077 0.152955 0.104232
0.305896 0.154131 0.105093
0.355337 0.155340 0.105969
0.407742 0.156587 0.106889
0.462565 0.157865 0.107810
0.519221 0.159187 0.108764
0.577141 0.160535 0.109743
0.635714 0.161908 0.110732
0.694461 0.163298 0.111744
0.752963 0.164731 0.112781
0.081867 0.178996 0.101114
0.101853 0.180158 0.101852
0.124749 0.181383 0.102593
0.151796 0.182671 0.103397
0.183985 0.183985 0.104216
0.221413 0.185360 0.105066
0.263507 0.186769 0.105938
0.309731 0.188238 0.106854
0.359514 0.189740 0.107786
0.412222 0.191278 0.108732
0.467276 0.192841 0.109700
0.524136 0.194452 0.110698
0.582209 0.196067 0.111711
0.640845 0.197730 0.112752
0.699646 0.199406 0.113800
0.758204 0.201079 0.114822
0.083179 0.216864 0.102590
0.103365 0.218299 0.103365
0.126593 0.219796 0.104199
0.154047 0.221372 0.105036
0.186714 0.222983 0.105922
0.224615 0.224636 0.106828
0.267151 0.226310 0.107746
0.313747 0.228046 0.108697
0.363850 0.229821 0.109668
0.416860 0.231620 0.110671
0.472169 0.233451 0.111681
0.529199 0.235309 0.112711
0.587379 0.237188 0.113765
0.646070 0.239102 0.114797
0.704883 0.241015 0.115853
0.763450 0.242913 0.116943
0.084609 0.259925 0.104167
0.105007 0.261658 0.105006
0.128566 0.263407 0.105880
0.156452 0.265230 0.106794
0.189642 0.267105 0.107728
0.227986 0.269001 0.108670
0.270937 0.270952 0.109636
0.317919 0.272914 0.110634
0.368351 0.274925 0.111650
0.421639 0.276985 0.112683
0.477132 0.279028 0.113718
0.534333 0.281118 0.114765
0.592578 0.283213 0.115824
0.651357 0.285327 0.116915
0.710186 0.287421 0.117993
0.768718 0.289530 0.119079
0.086090 0.307569 0.105846
0.106764 0.309539 0.106764
0.130668 0.311555 0.107696
0.159003 0.313609 0.108627
0.192676 0.315729 0.109607
0.231486 0.317853 0.110602
0.274856 0.320031 0.111612
0.322199 0.322207 0.112642
0.372956 0.324433 0.113680
0.426478 0.326666 0.114733
0.482182 0.328911 0.115789
0.539512 0.331182 0.116867
0.597841 0.333443 0.117951
0.656600 0.335735 0.119052
0.715411 0.337987 0.120130
0.773955 0.340219 0.121218
0.087696 0.359222 0.107637
0.108606 0.361420 0.108604
0.132884 0.363663 0.109575
0.161673 0.365912 0.110570
0.195838 0.368216 0.111578
0.235116 0.370542 0.112604
0.278898 0.372885 0.113641
0.326577 0.375246 0.114695
0.377621 0.377636 0.115756
0.431387 0.380026 0.116841
0.487278 0.382422 0.117919
0.544700 0.384810 0.119019
0.603058 0.387203 0.120101
0.661832 0.389619 0.121204
0.720598 0.391971 0.122287
0.779093 0.394315 0.123360
0.089342 0.414159 0.109542
0.110539 0.416548 0.110538
0.135164 0.418971 0.111533
0.164436 0.421377 0.112573
0.199109 0.423828 0.113598
0.238839 0.426315 0.114662
0.283009 0.428807 0.115732
0.331027 0.431302 0.116805
0.382338 0.433804 0.117889
0.436284 0.436284 0.118976
0.492333 0.438793 0.120072
0.549848 0.441286 0.121148
0.608238 0.443745 0.122256
0.666955 0.446220 0.123334
0.725684 0.448630 0.124412
0.784093 0.451023 0.125497
0.091075 0.471751 0.111498
0.112545 0.474292 0.112542
0.137543 0.476817 0.113577
0.167301 0.479366 0.114629
0.202472 0.481934 0.115691
0.242614 0.484539 0.116767
0.287155 0.487110 0.117851
0.335467 0.489678 0.118944
0.387042 0.492250 0.120020
0.441184 0.494825 0.121116
0.497373 0.497380 0.122215
0.554925 0.499875 0.123297
0.613315 0.502375 0.124385
0.671958 0.504826 0.125461
0.730626 0.507264 0.126545
0.788951 0.509621 0.127588
0.092861 0.531278 0.113528
0.114596 0.533880 0.114596
0.139991 0.536544 0.115669
0.170235 0.539185 0.116743
0.205851 0.541802 0.117821
0.246427 0.544440 0.118904
0.291308 0.547062 0.119986
0.339935 0.549694 0.121086
0.391710 0.552269 0.122169
0.446045 0.554834 0.123260
0.502300 0.557390 0.124350
0.559904 0.559893 0.125436
0.618249 0.562374 0.126508
0.676826 0.564780 0.127542
0.735369 0.567161 0.128589
0.793642 0.569462 0.129598
0.094682 0.592079 0.115611
0.116692 0.594730 0.116690
0.142480 0.597425 0.117786
0.173188 0.600078 0.118873
0.209298 0.602713 0.119949
0.250239 0.605374 0.121036
0.295460 0.608003 0.122133
0.344352 0.610593 0.123229
0.396333 0.613165 0.124320
0.450772 0.615689 0.125400
0.507102 0.618165 0.126462
0.564736 0.620600 0.127528
0.623007 0.623002 0.128557
0.681463 0.625361 0.129573
0.739925 0.627636 0.130591
0.798035 0.629818 0.131549
0.096537 0.653417 0.117759
0.118816 0.656071 0.118814
0.145021 0.658727 0.119916
0.176191 0.661391 0.121021
0.212706 0.664032 0.122103
0.254021 0.666604 0.123183
0.299551 0.669193 0.124288
0.348676 0.671718 0.125356
0.400825 0.674217 0.126419
0.455379 0.676669 0.127485
0.511748 0.679045 0.128525
0.569321 0.681413 0.129563
0.627548 0.683694 0.130559
0.685896 0.685896 0.131521
0.744188 0.688024 0.132476
0.802184 0.690101 0.133395
0.098399 0.714789 0.119885
0.120969 0.717466 0.120967
0.147519 0.720060 0.122072
0.179165 0.722692 0.123152
0.216103 0.725258 0.124258
0.257740 0.727803 0.125317
0.303552 0.730304 0.126386
0.352889 0.732734 0.127450
0.405198 0.735147 0.128482
0.459805 0.737473 0.129511
0.516180 0.739762 0.130508
0.573721 0.742010 0.131490
0.631846 0.744141 0.132443
0.690047 0.746206 0.133370
0.748177 0.748179 0.134259
0.806017 0.750121 0.135141
0.100251 0.775859 0.122029
0.123110 0.778475 0.123110
0.150028 0.781035 0.124216
0.182119 0.783579 0.125271
0.219429 0.786099 0.126350
0.261408 0.788571 0.127391
0.307433 0.790940 0.128438
0.356940 0.793278 0.129471
0.409347 0.795621 0.130456
0.463992 0.797797 0.131451
0.520369 0.799966 0.132412
0.577824 0.802032 0.133332
0.635824 0.804047 0.134219
0.693828 0.805966 0.135107
0.751828 0.807749 0.135933
0.809447 0.809447 0.136723
0.078041 0.078041 0.118103
0.097301 0.078451 0.118613
0.119159 0.078864 0.119159
0.144817 0.079324 0.119772
0.175337 0.079828 0.120408
0.211085 0.080387 0.121100
0.251617 0.080949 0.121836
0.296354 0.081549 0.122629
0.344765 0.082182 0.123446
0.396258 0.082844 0.124305
0.450314 0.083553 0.125215
0.506322 0.084269 0.126134
0.563731 0.084999 0.127119
0.621937 0.085764 0.128111
0.680450 0.086568 0.129156
0.738760 0.087384 0.130234
0.078837 0.097754 0.119135
0.098263 0.098265 0.119742
0.120411 0.098837 0.120405
0.146371 0.099442 0.121088
0.177304 0.100065 0.121830
0.213471 0.100738 0.122602
0.254387 0.101448 0.123416
0.299515 0.102209 0.124278
0.348293 0.102971 0.125175
0.400116 0.103786 0.126114
0.454430 0.104612 0.127089
0.510687 0.105481 0.128086
0.568322 0.106375 0.129127
0.626687 0.107274 0.130182
0.685301 0.108216 0.131293
0.743713 0.109169 0.132405
0.079793 0.120384 0.120377
0.099412 0.121064 0.121061
0.121802 0.121806 0.121799
0.148128 0.122579 0.122572
0.179482 0.123391 0.123384
0.216087 0.124256 0.124252
0.257438 0.125162 0.125153
0.302931 0.126093 0.126084
0.352071 0.127066 0.127061
0.404220 0.128062 0.128055
0.458834 0.129089 0.129082
0.515334 0.130172 0.130167
0.573100 0.131269 0.131265
0.631588 0.132388 0.132381
0.690288 0.133512 0.133505
0.748790 0.134686 0.134683
0.080882 0.147189 0.121771
0.100703 0.148101 0.122548
0.123357 0.149076 0.123354
0.150076 0.150085 0.124223
0.181892 0.151137 0.125124
0.218927 0.152234 0.126057
0.260693 0.153377 0.127030
0.306611 0.154558 0.128024
0.356096 0.155796 0.129067
0.408554 0.157059 0.130115
0.463434 0.158345 0.131229
0.520145 0.159669 0.132345
0.578048 0.161017 0.133487
0.636665 0.162420 0.134652
0.695408 0.163814 0.135835
0.753967 0.165249 0.137045
0.082116 0.179415 0.123342
0.102119 0.180606 0.124191
0.125079 0.181861 0.125076
0.152192 0.183138 0.126027
0.184489 0.184501 0.126998
0.221993 0.185869 0.127995
0.264161 0.187308 0.129028
0.310471 0.188776 0.130081
0.360320 0.190301 0.131176
0.413062 0.191841 0.132310
0.468189 0.193420 0.133445
0.525079 0.195029 0.134597
0.583165 0.196694 0.135798
0.641837 0.198347 0.137001
0.700625 0.200022 0.138233
0.759184 0.201736 0.139479
0.083431 0.217380 0.125043
0.103662 0.218848 0.125998
0.126969 0.220382 0.126965
0.154471 0.221938 0.127966
0.187258 0.223565 0.128994
0.225230 0.225231 0.130048
0.267842 0.226950 0.131142
0.314521 0.228693 0.132269
0.364699 0.230477 0.133415
0.417741 0.232284 0.134564
0.473083 0.234131 0.135766
0.530145 0.236005 0.136963
0.588347 0.237899 0.138203
0.647048 0.239791 0.139448
0.705871 0.241716 0.140700
0.764449 0.243644 0.141948
0.084863 0.260547 0.126933
0.105325 0.262290 0.127919
0.128976 0.264066 0.128968
0.156913 0.265903 0.130011
0.190190 0.267789 0.131091
0.228632 0.269709 0.132229
0.271657 0.271665 0.133371
0.318703 0.273667 0.134531
0.369203 0.275672 0.135718
0.422522 0.277731 0.136934
0.478088 0.279805 0.138159
0.535285 0.281881 0.139408
0.593582 0.284004 0.140663
0.652334 0.286104 0.141919
0.711130 0.288219 0.143196
0.769701 0.290315 0.144469
0.086389 0.308278 0.128924
0.107097 0.310290 0.129978
0.131058 0.312302 0.131054
0.159490 0.314369 0.132184
0.193273 0.316481 0.133327
0.232158 0.318649 0.134499
0.275614 0.320817 0.135679
0.323011 0.323012 0.136890
0.373830 0.325239 0.138118
0.427378 0.327489 0.139361
0.483135 0.329736 0.140612
0.540492 0.332020 0.141890
0.598799 0.334274 0.143153
0.657577 0.336554 0.144439
0.716384 0.338809 0.145719
0.774905 0.341066 0.146988
0.087983 0.360041 0.131021
0.108956 0.362227 0.132148
0.133291 0.364475 0.133289
0.162185 0.366729 0.134455
0.196464 0.369065 0.135638
0.235792 0.371392 0.136861
0.279653 0.373746 0.138076
0.327406 0.376123 0.139309
0.378509 0.378517 0.140568
0.432304 0.380915 0.141841
0.488212 0.383295 0.143114
0.545673 0.385697 0.144406
0.604040 0.388081 0.145675
0.662790 0.390471 0.146964
0.721559 0.392825 0.148253
0.780024 0.395151 0.149526
0.089661 0.415034 0.133255
0.110907 0.417429 0.134417
0.135609 0.419844 0.135606
0.164961 0.422289 0.136817
0.199744 0.424743 0.138035
0.239527 0.427233 0.139279
0.283770 0.429730 0.140533
0.331854 0.432219 0.141803
0.383213 0.434727 0.143070
0.437225 0.437231 0.144369
0.493281 0.439709 0.145637
0.550795 0.442182 0.146927
0.609195 0.444642 0.148197
0.667905 0.447086 0.149509
0.726612 0.449511 0.150772
0.785021 0.451845 0.152034
0.091392 0.472667 0.135552
0.112916 0.475221 0.136774
0.137990 0.477744 0.137988
0.167853 0.480292 0.139235
0.203074 0.482885 0.140478
0.243320 0.485461 0.141746
0.287924 0.488054 0.143028
0.336312 0.490632 0.144317
0.387938 0.493202 0.145600
0.442095 0.495741 0.146871
0.498289 0.498289 0.148161
0.555854 0.500795 0.149449
0.614243 0.503263 0.150732
0.672888 0.505720 0.152003
0.731521 0.508134 0.153257
0.789843 0.510483 0.154480
0.093199 0.532248 0.137955
0.114985 0.534848 0.139180
0.140447 0.537497 0.140444
0.170779 0.540119 0.141714
0.206500 0.542765 0.142984
0.247140 0.545397 0.144284
0.292087 0.548023 0.145561
0.340771 0.550626 0.146844
0.392578 0.553219 0.148118
0.446914 0.555778 0.149402
0.503200 0.558312 0.150676
0.560797 0.560803 0.151952
0.619158 0.563260 0.153226
0.677682 0.565650 0.154453
0.736248 0.568022 0.155673
0.794473 0.570293 0.156872
0.095027 0.593032 0.140405
0.117075 0.595707 0.141654
0.142950 0.598399 0.142947
0.173750 0.601040 0.144226
0.209917 0.603685 0.145504
0.250948 0.606314 0.146793
0.296218 0.608949 0.148077
0.345171 0.611538 0.149363
0.397173 0.614081 0.150641
0.451638 0.616594 0.151921
0.507985 0.619073 0.153166
0.565595 0.621497 0.154413
0.623865 0.623869 0.155618
0.682310 0.626205 0.156848
0.740749 0.628456 0.158011
0.798842 0.630633 0.159159
0.096884 0.654377 0.142893
0.119225 0.657073 0.144193
0.145476 0.659718 0.145476
0.176728 0.662342 0.146750
0.213345 0.664962 0.148049
0.254727 0.667551 0.149307
0.300307 0.670114 0.150604
0.349467 0.672647 0.151871
0.401644 0.675116 0.153128
0.456218 0.677548 0.154365
0.512577 0.679905 0.155586
0.570166 0.682263 0.156796
0.628374 0.684503 0.157975
0.686668 0.686668 0.159126
0.744989 0.688811 0.160247
0.802917 0.690829 0.161332
0.098720 0.715788 0.145438
0.121379 0.718412 0.146721
0.147999 0.721029 0.147992
0.179735 0.723614 0.149273
0.216733 0.726193 0.150573
0.258458 0.728719 0.151838
0.304294 0.731215 0.153095
0.353689 0.733645 0.154341
0.405990 0.736014 0.155554
0.460621 0.738324 0.156756
0.516981 0.740599 0.157945
0.574525 0.742807 0.159096
0.632614 0.744906 0.160211
0.690783 0.746943 0.161303
0.748901 0.748901 0.162355
0.806681 0.750760 0.163343
0.100597 0.776860 0.147947
0.123496 0.779445 0.149225
0.150510 0.781975 0.150503
0.182682 0.784537 0.151772
0.220035 0.786995 0.153048
0.262060 0.789433 0.154268
0.308145 0.791820 0.155515
0.357680 0.794143 0.156710
0.410092 0.796414 0.157905
0.464769 0.798619 0.159036
0.521097 0.800728 0.160153
0.578570 0.802778 0.161243
0.636549 0.804747 0.162313
0.694522 0.806613 0.163288
0.752459 0.808407 0.164269
0.810070 0.810070 0.165188
0.078168 0.078168 0.143067
0.097459 0.078608 0.143702
0.119384 0.079026 0.144357
0.145086 0.079534 0.145086
0.175667 0.080019 0.145876
0.211527 0.080585 0.146708
0.252116 0.081168 0.147570
0.296925 0.081782 0.148530
0.345416 0.082431 0.149512
0.396966 0.083109 0.150543
0.451070 0.083821 0.151632
0.507108 0.084523 0.152746
0.564551 0.085284 0.153909
0.622813 0.086062 0.155102
0.681339 0.086882 0.156362
0.739676 0.087673 0.157611
0.079022 0.097944 0.144333
0.098462 0.098463 0.145047
0.120642 0.099040 0.145828
0.146687 0.099669 0.146687
0.177691 0.100301 0.147570
0.213949 0.100992 0.148494
0.254922 0.101721 0.149484
0.300129 0.102469 0.150512
0.348964 0.103249 0.151601
0.400873 0.104083 0.152706
0.455243 0.104928 0.153858
0.511553 0.105808 0.155084
0.569203 0.106693 0.156305
0.627580 0.107624 0.157593
0.686220 0.108566 0.158906
0.744630 0.109543 0.160247
0.079987 0.120618 0.145822
0.099644 0.121326 0.146657
0.122089 0.122092 0.147533
0.148459 0.122876 0.148454
0.179913 0.123711 0.149460
0.216607 0.124582 0.150477
0.258027 0.125489 0.151558
0.303595 0.126441 0.152667
0.352804 0.127423 0.153830
0.405020 0.128449 0.155039
0.459666 0.129480 0.156280
0.516225 0.130552 0.157550
0.574029 0.131675 0.158854
0.632517 0.132805 0.160197
0.691222 0.133956 0.161549
0.749738 0.135130 0.162955
0.081097 0.147517 0.147503
0.100956 0.148452 0.148442
0.123676 0.149432 0.149425
0.150460 0.150468 0.150458
0.182356 0.151548 0.151537
0.219492 0.152645 0.152631
0.261338 0.153821 0.153808
0.307302 0.155008 0.154996
0.356860 0.156252 0.156235
0.409392 0.157529 0.157516
0.464296 0.158831 0.158816
0.521053 0.160176 0.160158
0.579012 0.161528 0.161518
0.637617 0.162923 0.162909
0.696367 0.164354 0.164339
0.754920 0.165795 0.165781
0.082347 0.179841 0.149391
0.102400 0.181061 0.150428
0.125431 0.182307 0.151475
0.152613 0.183629 0.152608
0.184987 0.184999 0.153757
0.222579 0.186403 0.154953
0.264856 0.187859 0.156197
0.311212 0.189340 0.157464
0.361128 0.190871 0.158777
0.413928 0.192418 0.160113
0.469102 0.194014 0.161476
0.526031 0.195637 0.162865
0.584121 0.197304 0.164284
0.642794 0.198958 0.165733
0.701588 0.200654 0.167201
0.760181 0.202338 0.168688
0.083683 0.217926 0.151465
0.103972 0.219404 0.152564
0.127321 0.220935 0.153724
0.154927 0.222550 0.154921
0.187787 0.224179 0.156142
0.225856 0.225858 0.157412
0.268534 0.227576 0.158718
0.315276 0.229339 0.160065
0.365527 0.231139 0.161425
0.418619 0.232961 0.162825
0.474007 0.234812 0.164233
0.531100 0.236693 0.165683
0.589321 0.238589 0.167145
0.648034 0.240489 0.168633
0.706869 0.242416 0.170107
0.765422 0.244329 0.171611
0.085139 0.261172 0.153684
0.105651 0.262921 0.154873
0.129333 0.264736 0.156108
0.157382 0.266580 0.157374
0.190745 0.268491 0.158688
0.229279 0.270425 0.160019
0.272383 0.272391 0.161379
0.319502 0.274401 0.162782
0.370062 0.276439 0.164196
0.423417 0.278488 0.165630
0.479009 0.280560 0.167090
0.536257 0.282646 0.168587
0.594564 0.284763 0.170069
0.653294 0.286859 0.171572
0.712129 0.288985 0.173084
0.770681 0.291087 0.174594
0.086690 0.309014 0.156074
0.107444 0.311016 0.157330
0.131483 0.313079 0.158644
0.159977 0.315153 0.159970
0.193841 0.317281 0.161342
0.232837 0.319443 0.162728
0.276346 0.321628 0.164139
0.323822 0.323837 0.165574
