example_ofxGpuLutCube/bin/data/ofxGpuLutCube/LUT/V23 (dusty sepia fade).cube
LUT_3D_SIZE 6
0.149811 0.121979 0.109802
0.159375 0.131958 0.109802
0.171924 0.144885 0.109802
0.187518 0.160663 0.109802
0.206427 0.179602 0.116986
0.228843 0.201896 0.140402
0.171472 0.144416 0.109802
0.187031 0.160163 0.109802
0.205757 0.178919 0.116239
0.228096 0.201124 0.139646
0.254306 0.227207 0.165946
0.284580 0.257463 0.195909
0.205054 0.178229 0.115491
0.227263 0.200316 0.138818
0.253359 0.226273 0.165020
0.283674 0.256564 0.195026
0.318355 0.291512 0.229788
0.357601 0.331567 0.270396
0.252392 0.225305 0.164038
0.282569 0.255439 0.193923
0.317222 0.290366 0.228631
0.356343 0.330252 0.269060
0.399911 0.375233 0.316018
0.447162 0.424733 0.369501
0.315924 0.289050 0.227320
0.354977 0.328849 0.267634
0.398414 0.373672 0.314372
0.445596 0.423070 0.367632
0.495042 0.475840 0.426975
0.544451 0.529363 0.489960
0.396739 0.371923 0.312498
0.443865 0.421275 0.365657
0.493189 0.473812 0.424642
0.542721 0.527461 0.487683
0.590216 0.579404 0.550627
0.633529 0.626978 0.609470
0.152942 0.125275 0.109802
0.163603 0.136363 0.109802
0.177275 0.150325 0.109802
0.194078 0.167245 0.109802
0.214215 0.187339 0.125293
0.237990 0.210970 0.149671
0.176809 0.149824 0.109802
0.193500 0.166656 0.109839
0.213548 0.186671 0.124564
0.237209 0.210204 0.148890
0.264919 0.237807 0.176463
0.296939 0.269888 0.208225
0.212815 0.185973 0.123815
0.236345 0.209341 0.148023
0.263936 0.236816 0.175493
0.295860 0.268810 0.207156
0.332328 0.305712 0.244058
0.373114 0.347508 0.286897
0.262914 0.235802 0.174480
0.294701 0.267646 0.206001
0.331023 0.304383 0.242733
0.371898 0.346219 0.285563
0.416840 0.392876 0.334862
0.465117 0.443813 0.390637
0.329695 0.303028 0.241341
0.370421 0.344713 0.283991
0.415329 0.391279 0.333127
0.463581 0.442153 0.388779
0.513260 0.495503 0.449813
0.562097 0.548602 0.513146
0.413587 0.389447 0.331155
0.461811 0.440255 0.386608
0.511492 0.493585 0.447547
0.560461 0.546796 0.510919
0.606649 0.597429 0.572799
0.647945 0.642854 0.629332
0.156494 0.128992 0.109802
0.168272 0.141125 0.109802
0.183077 0.156184 0.109802
0.201074 0.174249 0.111450
0.222505 0.195579 0.133926
0.247728 0.220648 0.159410
0.182545 0.155657 0.109802
0.200434 0.173600 0.111357
0.221769 0.194861 0.133161
0.246897 0.219842 0.158596
0.276156 0.249045 0.187572
0.309750 0.282825 0.221101
0.220994 0.194088 0.132358
0.246010 0.218958 0.157705
0.275129 0.248022 0.186563
0.308680 0.281731 0.220010
0.346796 0.320464 0.259048
0.389313 0.364235 0.304410
0.274100 0.246982 0.185537
0.307479 0.280535 0.218810
0.345444 0.319095 0.257644
0.387912 0.362778 0.302877
0.434354 0.411245 0.354703
0.483289 0.463222 0.412512
0.344078 0.317684 0.256200
0.386391 0.361220 0.301223
0.432755 0.409538 0.352850
0.481793 0.461617 0.410675
0.531402 0.515140 0.473001
0.579467 0.567553 0.536184
0.430965 0.407630 0.350770
0.479940 0.459625 0.408377
0.529611 0.513211 0.470689
0.577835 0.565821 0.534041
0.622466 0.614808 0.594353
0.661428 0.657778 0.647946
0.160480 0.133111 0.109802
0.173334 0.146315 0.109802
0.189283 0.162438 0.109802
0.208511 0.181668 0.119230
0.231307 0.204354 0.142935
0.257986 0.230857 0.169608
0.188719 0.161866 0.109802
0.207842 0.181004 0.118501
0.230519 0.203549 0.142108
0.257119 0.230017 0.168728
0.287995 0.260887 0.199295
0.323306 0.296539 0.234822
0.229738 0.202773 0.141329
0.256164 0.229065 0.167798
0.286899 0.259797 0.198227
0.322141 0.295371 0.233648
0.361911 0.335961 0.274950
0.405899 0.381487 0.322647
0.285775 0.258675 0.197128
0.320877 0.294082 0.232357
0.360528 0.334549 0.273480
0.404530 0.380048 0.321131
0.452095 0.429977 0.375268
0.501614 0.482912 0.435141
0.359116 0.333094 0.271983
0.402951 0.378386 0.319361
0.450485 0.428253 0.373339
0.500027 0.481231 0.433176
0.549371 0.534684 0.496347
0.596278 0.585989 0.558772
0.448705 0.426327 0.371203
0.498222 0.479238 0.430873
0.547574 0.532728 0.494001
0.594688 0.584278 0.556667
0.637532 0.631383 0.615006
0.674020 0.671702 0.665443
0.164838 0.137610 0.109802
0.178829 0.151887 0.109802
0.195941 0.169123 0.109802
0.216428 0.189534 0.127604
0.240630 0.213601 0.152311
0.268830 0.241729 0.180335
0.195327 0.168506 0.109895
0.215738 0.188846 0.126869
0.239806 0.212789 0.151502
0.267922 0.240811 0.179453
0.300413 0.273382 0.211694
0.337409 0.310874 0.249308
0.238954 0.211947 0.150648
0.266963 0.239837 0.178486
0.299260 0.272234 0.210537
0.336190 0.309637 0.248032
0.377642 0.352144 0.291740
0.423171 0.399470 0.341945
0.298175 0.271140 0.209482
0.334855 0.308296 0.246653
0.376169 0.350629 0.290155
0.421642 0.397892 0.340267
0.470243 0.449266 0.396742
0.519735 0.502535 0.458078
0.374678 0.349094 0.288507
0.420044 0.396196 0.338406
0.468555 0.447449 0.394686
0.518194 0.500867 0.456101
0.566957 0.553888 0.519556
0.612529 0.603836 0.580784
0.466720 0.445519 0.392479
0.516466 0.498940 0.453847
0.565248 0.552032 0.517279
0.611047 0.602249 0.578798
0.651707 0.647055 0.634505
0.685509 0.684400 0.681386
0.169609 0.142539 0.109802
0.184683 0.157803 0.109802
0.203046 0.176191 0.113293
0.224858 0.197941 0.136368
0.250454 0.223367 0.162136
0.280235 0.253106 0.191613
0.202381 0.175550 0.112555
0.224097 0.197169 0.135559
0.249627 0.222547 0.161296
0.279297 0.252171 0.190676
0.313424 0.286529 0.224796
0.352088 0.325878 0.264578
0.248713 0.221633 0.160383
0.278273 0.251134 0.189667
0.312282 0.285370 0.223641
0.350796 0.324560 0.263234
0.393804 0.368910 0.309339
0.440670 0.417879 0.361955
0.311074 0.284151 0.222427
0.349513 0.323255 0.261907
0.392308 0.367325 0.307656
0.439114 0.416228 0.360158
0.488401 0.468710 0.418776
0.537964 0.522269 0.481492
0.390921 0.365883 0.306135
0.437443 0.414482 0.358232
0.486686 0.466876 0.416688
0.536352 0.520540 0.479403
0.584082 0.572629 0.542399
0.627980 0.620896 0.601897
0.484830 0.464888 0.414356
0.534526 0.518537 0.477044
0.582518 0.570906 0.540284
0.626587 0.619356 0.600020
0.665008 0.661674 0.652878
0.695774 0.695759 0.695715
