example_ofxGpuLutCube/bin/data/ofxGpuLutCube/LUT/V23 (dusty sepia fade).cube
LUT_3D_SIZE 16
0.149811 0.121979 0.109802
0.152629 0.124953 0.109802
0.155829 0.128310 0.109802
0.159375 0.131958 0.109802
0.163218 0.135921 0.109802
0.167399 0.140228 0.109802
0.171924 0.144885 0.109802
0.176799 0.149833 0.109802
0.182003 0.155103 0.109802
0.187518 0.160663 0.109802
0.193461 0.166626 0.109802
0.199762 0.172937 0.110429
0.206427 0.179602 0.116986
0.213476 0.186617 0.124516
0.220919 0.194004 0.132288
0.228843 0.201896 0.140402
0.155738 0.128190 0.109802
0.159238 0.131843 0.109802
0.163065 0.135767 0.109802
0.167265 0.140115 0.109802
0.171784 0.144708 0.109802
0.176627 0.149654 0.109802
0.181837 0.154926 0.109802
0.187357 0.160500 0.109802
0.193290 0.166436 0.109819
0.199542 0.172716 0.110533
0.206214 0.179379 0.116739
0.213311 0.186430 0.124316
0.220737 0.193817 0.132070
0.228581 0.201631 0.140166
0.236860 0.209850 0.148542
0.245657 0.218585 0.157336
0.162970 0.135669 0.109802
0.167117 0.139945 0.109802
0.171599 0.144546 0.109802
0.176481 0.149497 0.109802
0.181664 0.154753 0.109802
0.187165 0.160313 0.109802
0.193062 0.166221 0.109815
0.199344 0.172517 0.110657
0.206013 0.179171 0.116521
0.213035 0.186158 0.124035
0.220491 0.193577 0.131821
0.228307 0.201353 0.139889
0.236666 0.209652 0.148344
0.245363 0.218322 0.157073
0.254531 0.227450 0.166197
0.264261 0.237131 0.175779
0.171472 0.144416 0.109802
0.176306 0.149314 0.109802
0.181466 0.154539 0.109802
0.187031 0.160163 0.109802
0.192889 0.166046 0.109802
0.199152 0.172306 0.110779
0.205757 0.178919 0.116239
0.212802 0.185952 0.123801
0.220261 0.193347 0.131598
0.228096 0.201124 0.139646
0.236350 0.209330 0.148013
0.245083 0.218014 0.156760
0.254306 0.227207 0.165946
0.263940 0.236813 0.175485
0.274049 0.246915 0.185474
0.284580 0.257463 0.195909
0.181337 0.154407 0.109802
0.186824 0.159949 0.109802
0.192679 0.165834 0.109802
0.198877 0.172076 0.110855
0.205557 0.178724 0.116036
0.212579 0.185708 0.123558
0.219974 0.193066 0.131308
0.227830 0.200883 0.139387
0.236113 0.209117 0.147781
0.244807 0.217778 0.156524
0.253951 0.226863 0.165600
0.263602 0.236469 0.175146
0.273764 0.246639 0.185214
0.284353 0.257233 0.195687
0.295431 0.268376 0.206718
0.306943 0.279990 0.218252
0.192515 0.165670 0.109802
0.198706 0.171907 0.110897
0.205314 0.178487 0.115777
0.212319 0.185452 0.123265
0.219762 0.192848 0.131072
0.227576 0.200629 0.139113
0.235795 0.208807 0.147475
0.244483 0.217429 0.156182
0.253648 0.226568 0.165309
0.263318 0.236198 0.174868
0.273390 0.246267 0.184825
0.283965 0.256867 0.195322
0.295111 0.268054 0.206390
0.306708 0.279746 0.218031
0.318774 0.291945 0.230217
0.331299 0.304666 0.243020
0.205054 0.178229 0.115491
0.212103 0.185245 0.123053
0.219488 0.192588 0.130806
0.227263 0.200316 0.138818
0.235565 0.208573 0.147221
0.244214 0.217171 0.155904
0.253359 0.226273 0.165020
0.262938 0.235820 0.174503
0.273054 0.245928 0.184513
0.283674 0.256564 0.195026
0.294712 0.267657 0.206016
0.306291 0.279320 0.217607
0.318355 0.291512 0.229788
0.331036 0.304402 0.242749
0.344117 0.317723 0.256248
0.357601 0.331567 0.270396
0.219195 0.192281 0.130471
0.227053 0.200107 0.138598
0.235270 0.208263 0.146925
0.243922 0.216852 0.155595
0.253014 0.225916 0.164659
0.262647 0.235538 0.174215
0.272728 0.245604 0.184191
0.283256 0.256146 0.194622
0.294351 0.267290 0.205639
0.305923 0.278942 0.217246
0.318008 0.291177 0.229431
0.330561 0.303919 0.242241
0.343644 0.317255 0.255754
0.357321 0.331268 0.270078
0.371366 0.345688 0.285028
0.385812 0.360600 0.300560
0.234947 0.207936 0.146586
0.243668 0.216641 0.155380
0.252754 0.225680 0.164413
0.262304 0.235193 0.173871
0.272345 0.245203 0.183787
0.282940 0.255826 0.194289
0.293995 0.266910 0.205289
0.305526 0.278533 0.216835
0.317603 0.290770 0.229034
0.330177 0.303520 0.241854
0.343262 0.316854 0.255382
0.356791 0.330723 0.269532
0.370864 0.345160 0.284470
0.385501 0.360304 0.300243
0.400458 0.375801 0.316597
0.415750 0.391721 0.333632
0.252392 0.225305 0.164038
0.262028 0.234927 0.173607
0.272045 0.244915 0.183512
0.282569 0.255439 0.193923
0.293567 0.266485 0.204851
0.305143 0.278172 0.216459
0.317222 0.290366 0.228631
0.329750 0.303078 0.241397
0.342793 0.316373 0.254871
0.356343 0.330252 0.269060
0.370461 0.344761 0.284045
0.384942 0.359694 0.299652
0.399911 0.375233 0.316018
0.415332 0.391283 0.333139
0.431160 0.407880 0.351043
0.447162 0.424733 0.369501
0.271637 0.244507 0.183116
0.282143 0.255024 0.193498
0.293241 0.266176 0.204528
0.304744 0.277767 0.216054
0.316742 0.289879 0.228139
0.329336 0.302684 0.241004
0.342330 0.315910 0.254411
0.355900 0.329807 0.268609
0.369913 0.344178 0.283436
0.384438 0.359200 0.299089
0.399465 0.374766 0.315549
0.414826 0.390765 0.332594
0.430593 0.407255 0.350371
0.446627 0.424176 0.368856
0.463118 0.441652 0.388213
0.479503 0.459152 0.407872
0.292822 0.265737 0.204093
0.304285 0.277290 0.215596
0.316380 0.289520 0.227793
0.328891 0.302211 0.240541
0.341881 0.315441 0.253950
0.355366 0.329251 0.268045
0.369451 0.343732 0.282972
0.383984 0.358718 0.298603
0.398899 0.374172 0.314890
0.414308 0.390233 0.332013
0.430041 0.406710 0.349771
0.446190 0.423719 0.368336
0.462489 0.440988 0.387457
0.478952 0.458594 0.407237
0.495642 0.476536 0.427720
0.512122 0.494273 0.448350
0.315924 0.289050 0.227320
0.328396 0.301702 0.240017
0.341498 0.315067 0.253552
0.354977 0.328849 0.267634
0.368975 0.343229 0.282467
0.383393 0.358107 0.297974
0.398414 0.373672 0.314372
0.413836 0.389704 0.331442
0.429536 0.406167 0.349191
0.445596 0.423070 0.367632
0.461930 0.440399 0.386796
0.478491 0.458076 0.406689
0.495042 0.475840 0.426975
0.511593 0.493689 0.447699
0.528087 0.511569 0.468719
0.544451 0.529363 0.489960
0.340995 0.314534 0.253017
0.354471 0.328320 0.267050
0.368427 0.342682 0.281870
0.382990 0.357682 0.297489
0.397891 0.373133 0.313767
0.413220 0.389073 0.330788
0.429016 0.405624 0.348610
0.445060 0.422507 0.367015
0.461431 0.439869 0.386199
0.477863 0.457400 0.405912
0.494458 0.475214 0.426232
0.511147 0.493216 0.447142
0.527634 0.511051 0.468106
0.543930 0.528759 0.489222
0.560039 0.546345 0.510374
0.575893 0.563671 0.531416
0.368036 0.342254 0.281435
0.382437 0.357125 0.296898
0.397292 0.372514 0.313138
0.412744 0.388602 0.330267
0.428509 0.405044 0.347988
0.444505 0.421918 0.366369
0.460789 0.439185 0.385444
0.477342 0.456836 0.405255
0.493952 0.474685 0.425602
0.510512 0.492522 0.446318
0.527042 0.510411 0.467392
0.543353 0.528162 0.488506
0.559600 0.545875 0.509808
0.575395 0.563093 0.530751
0.590791 0.580000 0.551383
0.605821 0.596476 0.571651
0.396739 0.371923 0.312498
0.412019 0.387859 0.329418
0.427707 0.404254 0.347085
0.443865 0.421275 0.365657
0.460120 0.438503 0.384678
0.476649 0.456111 0.404374
0.493189 0.473812 0.424642
0.509834 0.491793 0.445455
0.526403 0.509704 0.466544
0.542721 0.527461 0.487683
0.558898 0.545080 0.508882
0.574676 0.562321 0.529809
0.590216 0.579404 0.550627
0.605211 0.595796 0.570801
0.619618 0.611681 0.590472
0.633529 0.626978 0.609470
0.150792 0.123023 0.109802
0.153768 0.126128 0.109802
0.157093 0.129633 0.109802
0.160726 0.133395 0.109802
0.164712 0.137483 0.109802
0.169001 0.141891 0.109802
0.173671 0.146655 0.109802
0.178670 0.151708 0.109802
0.183992 0.157093 0.109802
0.189683 0.162827 0.109802
0.195694 0.168889 0.109802
0.202165 0.175339 0.112391
0.208972 0.182123 0.119720
0.216174 0.189292 0.127351
0.223836 0.196891 0.135303
0.231806 0.204857 0.143457
0.156977 0.129492 0.109802
0.160607 0.133244 0.109802
0.164582 0.137371 0.109802
0.168870 0.141753 0.109802
0.173515 0.146496 0.109802
0.178487 0.151526 0.109802
0.183831 0.156933 0.109802
0.189512 0.162662 0.109802
0.195513 0.168715 0.109915
0.201937 0.175100 0.112224
0.208749 0.181902 0.119470
0.215983 0.189102 0.127142
0.223545 0.196623 0.134999
0.231568 0.204616 0.143212
0.240020 0.212981 0.151731
0.248949 0.221902 0.160652
0.164437 0.137199 0.109802
0.168719 0.141603 0.109802
0.173331 0.146326 0.109802
0.178340 0.151397 0.109802
0.183652 0.156753 0.109802
0.189291 0.162460 0.109802
0.195331 0.168527 0.109958
0.201739 0.174900 0.112100
0.208541 0.181695 0.119246
0.215711 0.188823 0.126864
0.223302 0.196386 0.134749
0.231364 0.204392 0.142981
0.239797 0.212787 0.151500
0.248687 0.221618 0.160367
0.258039 0.230916 0.169652
0.267907 0.240774 0.179418
0.173200 0.146175 0.109802
0.178161 0.151199 0.109802
0.183457 0.156556 0.109802
0.189148 0.162282 0.109802
0.195133 0.168313 0.109945
0.201539 0.174692 0.112038
0.208291 0.181434 0.118960
0.215491 0.188600 0.126600
0.223082 0.196169 0.134521
0.231061 0.204091 0.142675
0.239521 0.212492 0.151203
0.248384 0.221305 0.160063
0.257786 0.230681 0.169394
0.267591 0.240465 0.179109
0.277871 0.250742 0.189286
0.288730 0.261613 0.200014
0.183294 0.156395 0.109802
0.188931 0.162072 0.109802
0.194910 0.168087 0.109891
0.201319 0.174509 0.111955
0.208070 0.181229 0.118750
0.215256 0.188359 0.126345
0.222797 0.195867 0.134209
0.230818 0.203850 0.142408
0.239263 0.212243 0.150961
0.248118 0.221054 0.159804
0.257432 0.230323 0.169046
0.267247 0.240119 0.178747
0.277603 0.250480 0.189001
0.288358 0.261245 0.199671
0.299645 0.272599 0.210937
0.311320 0.284407 0.222671
0.194762 0.167919 0.109802
0.201098 0.174282 0.111897
0.207836 0.180997 0.118490
0.214963 0.188092 0.126059
0.222556 0.195658 0.133977
0.230558 0.203596 0.142157
0.238941 0.211927 0.150631
0.247828 0.220748 0.159500
0.257126 0.230021 0.168740
0.266959 0.239837 0.178479
0.277212 0.250082 0.188621
0.288000 0.260885 0.199302
0.299317 0.272299 0.210613
0.311085 0.284146 0.222430
0.323363 0.296598 0.234862
0.336057 0.309499 0.247904
0.207655 0.180829 0.118285
0.214765 0.187885 0.125848
0.222290 0.195383 0.133700
0.230240 0.203280 0.141837
0.238683 0.211684 0.150373
0.247534 0.220483 0.159213
0.256820 0.229724 0.168453
0.266566 0.239450 0.178097
0.276857 0.249745 0.188280
0.287673 0.260577 0.198986
0.298899 0.271866 0.210199
0.310681 0.283743 0.222011
0.322909 0.296135 0.234423
0.335769 0.309210 0.247616
0.349039 0.322769 0.261405
0.362715 0.336772 0.275790
0.222003 0.195072 0.133405
0.230016 0.203052 0.141606
0.238384 0.211360 0.150068
0.247189 0.220133 0.158872
0.256548 0.229434 0.168171
0.266268 0.239153 0.177791
0.276538 0.249428 0.187953
0.287254 0.260139 0.198575
0.298523 0.271484 0.209830
0.310319 0.283386 0.221665
0.322543 0.295770 0.234067
0.335287 0.308720 0.247126
0.348550 0.322271 0.260896
0.362411 0.336483 0.275487
0.376634 0.351113 0.290667
0.391254 0.366259 0.306503
0.238063 0.211038 0.149719
0.246941 0.219884 0.158636
0.256196 0.229095 0.167835
0.265930 0.238812 0.177458
0.276174 0.249062 0.187594
0.286919 0.259816 0.198238
0.298151 0.271119 0.209458
0.309862 0.282933 0.221210
0.322146 0.295376 0.233651
0.334942 0.308384 0.246769
0.348172 0.321887 0.260500
0.361899 0.335953 0.274946
0.376119 0.350593 0.290134
0.390929 0.365909 0.306170
0.406047 0.381602 0.322790
0.421488 0.397756 0.340085
0.255835 0.228718 0.167467
0.265644 0.238524 0.177203
0.275858 0.248726 0.187271
0.286558 0.259437 0.197847
0.297713 0.270681 0.209010
0.309485 0.282562 0.220832
0.321749 0.294964 0.233247
0.334458 0.307867 0.246251
0.347738 0.321425 0.260017
0.361420 0.335474 0.274431
0.375709 0.350174 0.289673
0.390376 0.365340 0.305537
0.405504 0.381044 0.322204
0.421159 0.397385 0.339706
0.437003 0.414037 0.357758
0.453107 0.431060 0.376435
0.275439 0.248338 0.186874
0.286250 0.259116 0.197556
0.297383 0.270348 0.208682
0.309087 0.282155 0.220425
0.321270 0.294479 0.232748
0.334056 0.307474 0.245844
0.347298 0.320991 0.259563
0.360986 0.335020 0.273962
0.375159 0.349612 0.289089
0.389868 0.364817 0.305006
0.405053 0.380587 0.321711
0.420560 0.396752 0.339039
0.436459 0.413439 0.357113
0.452606 0.430499 0.375826
0.469141 0.448068 0.395390
0.485555 0.465646 0.415270
0.296972 0.269917 0.208252
0.308630 0.281687 0.219944
0.320902 0.294110 0.232362
0.333604 0.307003 0.245385
0.346785 0.320450 0.259032
0.360562 0.334581 0.273504
0.374710 0.349135 0.288594
0.389386 0.364314 0.304503
0.404456 0.379994 0.321050
0.420041 0.396206 0.338426
0.435982 0.412959 0.356584
0.452123 0.430025 0.375291
0.468515 0.447423 0.394629
0.485041 0.465079 0.414638
0.501757 0.483057 0.435317
0.518156 0.500798 0.456050
0.320446 0.293623 0.231917
0.333084 0.306496 0.244846
0.346389 0.320048 0.258610
0.360062 0.334086 0.272972
0.374226 0.348618 0.288033
0.388820 0.363736 0.303861
0.403984 0.379486 0.320508
0.419546 0.395691 0.337867
0.435376 0.412317 0.355877
0.451600 0.429421 0.374647
0.467977 0.446831 0.394000
0.484540 0.464575 0.414072
0.501110 0.482375 0.434517
0.517639 0.500252 0.455380
0.534259 0.518233 0.476637
0.550370 0.535802 0.497686
0.345892 0.319553 0.258097
0.359515 0.333513 0.272397
0.373816 0.348176 0.287580
0.388381 0.363281 0.303373
0.403488 0.378945 0.319946
0.418941 0.395051 0.337199
0.434870 0.411787 0.355267
0.451101 0.428875 0.374027
0.467443 0.446263 0.393348
0.483933 0.463921 0.413301
0.500533 0.481752 0.433803
0.517200 0.499733 0.454798
0.533631 0.517557 0.475864
0.549895 0.535239 0.497020
0.565858 0.552705 0.518112
0.581557 0.569872 0.539024
0.373282 0.347633 0.287023
0.387860 0.362707 0.302791
0.402879 0.378303 0.319266
0.418483 0.394558 0.336649
0.434329 0.411202 0.354635
0.450470 0.428235 0.373303
0.466930 0.445722 0.392704
0.483381 0.463339 0.412603
0.500025 0.481242 0.433152
0.516591 0.499075 0.453995
0.533057 0.516960 0.475137
0.549442 0.534747 0.496414
0.565393 0.552222 0.517524
0.581070 0.569334 0.538347
0.596330 0.586069 0.558845
0.611180 0.602375 0.578936
0.402312 0.377718 0.318611
0.417762 0.393805 0.335860
0.433585 0.410387 0.353766
0.449829 0.427557 0.372552
0.466220 0.444948 0.391858
0.482714 0.462588 0.411744
0.499279 0.480359 0.432169
0.515888 0.498349 0.453116
0.532380 0.516246 0.474316
0.548667 0.533954 0.495421
0.564734 0.551464 0.516570
0.580389 0.568608 0.537437
0.595778 0.585467 0.558056
0.610531 0.601683 0.578077
0.624793 0.617316 0.597515
0.638442 0.632370 0.616212
0.151863 0.124157 0.109802
0.154940 0.127365 0.109802
0.158396 0.130946 0.109802
0.162157 0.134857 0.109802
0.166246 0.139042 0.109802
0.170664 0.143578 0.109802
0.175463 0.148468 0.109802
0.180581 0.153652 0.109802
0.186023 0.159154 0.109802
0.191849 0.165024 0.109802
0.198056 0.171257 0.109824
0.204611 0.177783 0.115031
0.211575 0.184696 0.122473
0.218917 0.192004 0.130190
0.226734 0.199808 0.138265
0.234866 0.207858 0.146547
0.158279 0.130827 0.109802
0.162011 0.134689 0.109802
0.166138 0.138938 0.109802
0.170531 0.143446 0.109802
0.175299 0.148294 0.109802
0.180377 0.153470 0.109802
0.185857 0.158969 0.109802
0.191680 0.164832 0.109802
0.197830 0.171016 0.110079
0.204406 0.177577 0.114791
0.211325 0.184470 0.122225
0.218696 0.191821 0.129986
0.226473 0.199522 0.137994
0.234632 0.207650 0.146305
0.243340 0.216275 0.155022
0.252357 0.225257 0.164005
0.165989 0.138787 0.109802
0.170381 0.143297 0.109802
0.175161 0.148148 0.109802
0.180239 0.153306 0.109802
0.185697 0.158806 0.109802
0.191467 0.164616 0.109802
0.197661 0.170820 0.110263
0.204169 0.177344 0.114524
0.211120 0.184271 0.122004
0.218430 0.191546 0.129711
0.226194 0.199264 0.137718
0.234415 0.207434 0.146073
0.243005 0.215974 0.154697
0.252068 0.224991 0.163739
0.261570 0.234467 0.173149
0.271595 0.244487 0.183078
0.174984 0.147988 0.109802
0.180056 0.153126 0.109802
0.185459 0.158588 0.109802
0.191287 0.164460 0.109802
0.197436 0.170617 0.110353
0.203964 0.177129 0.114298
0.210912 0.184038 0.121769
0.218205 0.191313 0.129468
0.225978 0.199026 0.137468
0.234103 0.207111 0.145757
0.242718 0.215675 0.154411
0.251803 0.224710 0.163476
0.261314 0.234205 0.172887
0.271310 0.244189 0.182774
0.281763 0.254639 0.193142
0.292777 0.265699 0.204104
0.185325 0.158437 0.109802
0.191079 0.164256 0.109802
0.197220 0.170381 0.110341
0.203768 0.176943 0.114081
0.210667 0.183818 0.121500
0.217976 0.191082 0.129222
0.225679 0.198738 0.137180
0.233841 0.206854 0.145483
0.242462 0.215426 0.154154
0.251465 0.224390 0.163154
0.260992 0.233880 0.172575
0.270965 0.243838 0.182425
0.281483 0.254367 0.192850
0.292435 0.265360 0.203743
0.303893 0.276907 0.215196
0.315880 0.289028 0.227278
0.197042 0.170208 0.110254
0.203534 0.176707 0.113820
0.210415 0.183559 0.121226
0.217739 0.190836 0.128954
0.225422 0.198497 0.136927
0.233588 0.206601 0.145223
0.242140 0.215084 0.153828
0.251187 0.224101 0.162852
0.260702 0.233595 0.172306
0.270660 0.243534 0.182147
0.281110 0.253983 0.192459
0.292061 0.264983 0.203345
0.303560 0.276591 0.214884
0.315512 0.288657 0.226915
0.327991 0.301290 0.239593
0.340878 0.314406 0.252867
0.210208 0.183367 0.121034
0.217476 0.190599 0.128685
0.225164 0.198241 0.136649
0.233261 0.206285 0.144903
0.241873 0.214844 0.153562
0.250891 0.223810 0.162557
0.260347 0.233236 0.171933
0.270314 0.243193 0.181801
0.280750 0.253625 0.192137
0.291732 0.264648 0.203036
0.303149 0.276158 0.214459
0.315114 0.288245 0.226508
0.327641 0.300950 0.239254
0.340579 0.314128 0.252578
0.354022 0.327876 0.266611
0.367884 0.342111 0.281289
0.224899 0.197979 0.136382
0.233026 0.206051 0.144663
0.241567 0.214530 0.153265
0.250537 0.223474 0.162222
0.260050 0.232949 0.171648
0.269981 0.242864 0.181468
0.280402 0.253304 0.191795
0.291317 0.264237 0.202634
0.302772 0.275772 0.214072
0.314753 0.287877 0.226138
0.327161 0.300456 0.238776
0.340146 0.313666 0.252129
0.353536 0.327376 0.266109
0.367581 0.341792 0.280961
0.381965 0.356630 0.296446
0.396734 0.371971 0.312533
0.241277 0.214238 0.152977
0.250290 0.223194 0.161942
0.259718 0.232605 0.171314
0.269626 0.242500 0.181114
0.280079 0.252963 0.191482
0.290986 0.263903 0.202293
0.302400 0.275400 0.213699
0.314304 0.287411 0.225694
0.326754 0.300045 0.238350
0.339731 0.313261 0.251720
0.353150 0.326979 0.265695
0.367102 0.341296 0.280436
0.381456 0.356105 0.295868
0.396404 0.371625 0.312170
0.411690 0.387500 0.329079
0.427287 0.403812 0.346660
0.259349 0.232226 0.170954
0.269336 0.242210 0.180811
0.279722 0.252598 0.191110
0.290604 0.263502 0.201896
0.301988 0.274987 0.213285
0.313899 0.287033 0.225298
0.326348 0.299637 0.237929
0.339235 0.312760 0.251203
0.352692 0.326519 0.265240
0.366676 0.340845 0.279985
0.381031 0.355682 0.295402
0.395881 0.371044 0.311577
0.411152 0.386934 0.328492
0.426934 0.403445 0.346228
0.442931 0.420242 0.364549
0.459102 0.437407 0.383475
0.279323 0.252175 0.190695
0.290272 0.263176 0.201569
0.301604 0.274605 0.212913
0.313493 0.286599 0.224871
0.325872 0.299155 0.237443
0.338833 0.312331 0.250770
0.352254 0.326071 0.264778
0.366141 0.340308 0.279434
0.380574 0.355190 0.294906
0.395356 0.370495 0.311011
0.410712 0.386466 0.327978
0.426341 0.402812 0.345553
0.442367 0.419671 0.363915
0.458743 0.437014 0.383025
0.475142 0.454514 0.402624
0.491617 0.472172 0.422737
0.301174 0.274156 0.212462
0.313054 0.286147 0.224416
0.325501 0.298769 0.237058
0.338379 0.311885 0.250316
0.351731 0.325533 0.264223
0.365685 0.339848 0.278955
0.380037 0.354635 0.294318
0.394888 0.370008 0.310472
0.410132 0.385852 0.327342
0.425817 0.402260 0.344965
0.441902 0.419165 0.363374
0.458127 0.436353 0.382305
0.474595 0.453913 0.401935
0.491120 0.471594 0.422096
0.507810 0.489601 0.442914
0.524218 0.507370 0.463801
0.325024 0.298286 0.236576
0.337877 0.311362 0.249773
0.351342 0.325124 0.263776
0.365190 0.339339 0.278415
0.379523 0.354107 0.293761
0.394330 0.369423 0.309863
0.409606 0.385326 0.326773
0.425316 0.401727 0.344398
0.441292 0.418523 0.362654
0.457592 0.435765 0.381661
0.474110 0.453382 0.401337
0.490631 0.471092 0.421520
0.507188 0.488933 0.442129
0.523682 0.506792 0.463109
0.540210 0.524710 0.484406
0.556264 0.542218 0.505433
0.350838 0.324614 0.263256
0.364669 0.338797 0.277858
0.379107 0.353653 0.293296
0.393849 0.368938 0.309336
0.409107 0.384787 0.326185
0.424707 0.401094 0.343700
0.440772 0.417985 0.362038
0.457043 0.435223 0.381040
0.473478 0.452700 0.400607
0.490067 0.470500 0.420826
0.506606 0.488305 0.441412
0.523233 0.506291 0.462513
0.539621 0.524063 0.483638
0.555786 0.541688 0.504798
0.571796 0.559186 0.525966
0.587201 0.576056 0.546564
0.378543 0.353077 0.292713
0.393321 0.368379 0.308731
0.408645 0.384303 0.325657
0.424227 0.400610 0.343148
0.440227 0.417404 0.361410
0.456440 0.434565 0.380327
0.472960 0.452161 0.399963
0.489536 0.469924 0.420164
0.506108 0.487769 0.440796
0.522627 0.505624 0.461719
0.539049 0.523480 0.482889
0.555332 0.541206 0.504176
0.571201 0.558547 0.525169
0.586750 0.575577 0.545938
0.601785 0.592105 0.566249
0.616428 0.608155 0.586099
0.407924 0.383573 0.324845
0.423515 0.399839 0.342347
0.439467 0.416585 0.360508
0.455797 0.433878 0.379518
0.472235 0.451372 0.399074
0.488774 0.469081 0.419212
0.505428 0.487025 0.439908
0.521928 0.504894 0.460810
0.538385 0.522754 0.482044
0.554591 0.540382 0.503200
0.570509 0.557765 0.524249
0.586160 0.574900 0.545164
0.601252 0.591476 0.565516
0.615819 0.607474 0.585311
0.629829 0.622905 0.604407
0.643211 0.637662 0.622829
0.152942 0.125275 0.109802
0.156154 0.128632 0.109802
0.159733 0.132337 0.109802
0.163603 0.136363 0.109802
0.167823 0.140690 0.109802
0.172412 0.145351 0.109802
0.177275 0.150325 0.109802
0.182529 0.155637 0.109802
0.188112 0.161270 0.109802
0.194078 0.167245 0.109802
0.200431 0.173600 0.111003
0.207110 0.180291 0.117712
0.214215 0.187339 0.125293
0.221717 0.194804 0.133120
0.229666 0.202713 0.141287
0.237990 0.210970 0.149671
0.159595 0.132223 0.109802
0.163478 0.136207 0.109802
0.167705 0.140559 0.109802
0.172233 0.145200 0.109802
0.177134 0.150152 0.109802
0.182358 0.155439 0.109802
0.187955 0.161092 0.109802
0.193902 0.167068 0.109847
0.200193 0.173367 0.111021
0.206910 0.180063 0.117480
0.213971 0.187116 0.125016
0.221496 0.194591 0.132885
0.229409 0.202454 0.141000
0.237758 0.210724 0.149438
0.246587 0.219532 0.158282
0.255781 0.228675 0.167421
0.167566 0.140396 0.109802
0.172080 0.145023 0.109802
0.176983 0.150006 0.109802
0.182182 0.155281 0.109802
0.187764 0.160897 0.109802
0.193684 0.166840 0.109856
0.199996 0.173180 0.111064
0.206689 0.179857 0.117266
0.213759 0.186887 0.124793
0.221262 0.194351 0.132630
0.229140 0.202181 0.140723
0.237511 0.210505 0.149195
0.246278 0.219209 0.157956
0.255516 0.228420 0.167141
0.265189 0.238062 0.176736
0.275401 0.248270 0.186845
0.176809 0.149824 0.109802
0.182010 0.155112 0.109802
0.187548 0.160694 0.109802
0.193500 0.166656 0.109839
0.199798 0.172968 0.111124
0.206449 0.179612 0.116995
0.213548 0.186671 0.124564
0.220980 0.194073 0.132346
0.228895 0.201953 0.140467
0.237209 0.210204 0.148890
0.245982 0.218936 0.157679
0.255240 0.228144 0.166880
0.264919 0.237807 0.176463
0.275091 0.247987 0.186534
0.285740 0.258642 0.197092
0.296939 0.269888 0.208225
0.187400 0.160524 0.109802
0.193298 0.166452 0.109815
0.199556 0.172727 0.111134
0.206257 0.179410 0.116775
0.213307 0.186434 0.124303
0.220755 0.193828 0.132088
0.228605 0.201649 0.140178
0.236929 0.209923 0.148609
0.245719 0.218665 0.157407
0.254910 0.227816 0.166549
0.264598 0.237485 0.176144
0.274780 0.247656 0.186222
0.285449 0.258334 0.196783
0.296587 0.269543 0.207878
0.308234 0.281273 0.219568
0.320434 0.293611 0.231883
0.199366 0.172547 0.111137
0.206024 0.179173 0.116520
0.213041 0.186168 0.124031
0.220531 0.193617 0.131860
0.228354 0.201393 0.139931
0.236666 0.209654 0.148347
0.245387 0.218339 0.157091
0.254610 0.227518 0.166253
0.264312 0.237184 0.175844
0.274436 0.247307 0.185874
0.285090 0.257976 0.196425
0.296201 0.269150 0.207493
0.307889 0.280946 0.219229
0.320029 0.293224 0.231500
0.332681 0.306073 0.244434
0.345820 0.319493 0.258046
0.212815 0.185973 0.123815
0.220233 0.193338 0.131580
0.228098 0.201134 0.139643
0.236345 0.209341 0.148023
0.245124 0.218056 0.156801
0.254318 0.227227 0.165955
0.263936 0.236816 0.175493
0.274105 0.246980 0.185542
0.284739 0.257627 0.196063
0.295860 0.268810 0.207156
0.307466 0.280515 0.218800
0.319606 0.292809 0.231071
0.332328 0.305712 0.244058
0.345439 0.319093 0.257652
0.359089 0.333073 0.271970
0.373114 0.347508 0.286897
0.227848 0.200901 0.139412
0.236095 0.209102 0.147772
0.244802 0.217760 0.156521
0.253941 0.226871 0.165605
0.263645 0.236509 0.175188
0.273744 0.246623 0.185200
0.284356 0.257241 0.195702
0.295438 0.268389 0.206728
