example_ofxGpuLutCube/bin/data/ofxGpuLutCube/LUT/V24 (retro bright).cube
LUT_3D_SIZE 16
0.090200 0.090200 0.090200
0.086300 0.090200 0.090200
0.087340 0.090200 0.090200
0.098800 0.090200 0.090200
0.136427 0.090200 0.090200
0.220900 0.090200 0.090200
0.322380 0.090200 0.090200
0.411267 0.090200 0.090200
0.484440 0.090200 0.090200
0.548980 0.090200 0.090200
0.614367 0.090200 0.090200
0.675560 0.090200 0.090200
0.743560 0.090200 0.090200
0.814620 0.090200 0.090200
0.874740 0.090200 0.090200
0.936711 0.090200 0.090200
0.090200 0.086300 0.090200
0.086300 0.086300 0.090200
0.087340 0.086300 0.090200
0.098800 0.086300 0.090200
0.136427 0.086300 0.090200
0.220900 0.086300 0.090200
0.322380 0.086300 0.090200
0.411267 0.086300 0.090200
0.484440 0.086300 0.090200
0.548980 0.086300 0.090200
0.614367 0.086300 0.090200
0.675560 0.086300 0.090200
0.743560 0.086300 0.090200
0.814620 0.086300 0.090200
0.874740 0.086300 0.090200
0.936711 0.086300 0.090200
0.090200 0.086820 0.090200
0.086300 0.086820 0.090200
0.087340 0.086820 0.090200
0.098800 0.086820 0.090200
0.136427 0.086820 0.090200
0.220900 0.086820 0.090200
0.322380 0.086820 0.090200
0.411267 0.086820 0.090200
0.484440 0.086820 0.090200
0.548980 0.086820 0.090200
0.614367 0.086820 0.090200
0.675560 0.086820 0.090200
0.743560 0.086820 0.090200
0.814620 0.086820 0.090200
0.874740 0.086820 0.090200
0.936711 0.086820 0.090200
0.090200 0.093340 0.090200
0.086300 0.093340 0.090200
0.087340 0.093340 0.090200
0.098800 0.093340 0.090200
0.136427 0.093340 0.090200
0.220900 0.093340 0.090200
0.322380 0.093340 0.090200
0.411267 0.093340 0.090200
0.484440 0.093340 0.090200
0.548980 0.093340 0.090200
0.614367 0.093340 0.090200
0.675560 0.093340 0.090200
0.743560 0.093340 0.090200
0.814620 0.093340 0.090200
0.874740 0.093340 0.090200
0.936711 0.093340 0.090200
0.090200 0.116353 0.090200
0.086300 0.116353 0.090200
0.087340 0.116353 0.090200
0.098800 0.116353 0.090200
0.136427 0.116353 0.090200
0.220900 0.116353 0.090200
0.322380 0.116353 0.090200
0.411267 0.116353 0.090200
0.484440 0.116353 0.090200
0.548980 0.116353 0.090200
0.614367 0.116353 0.090200
0.675560 0.116353 0.090200
0.743560 0.116353 0.090200
0.814620 0.116353 0.090200
0.874740 0.116353 0.090200
0.936711 0.116353 0.090200
0.090200 0.171233 0.090200
0.086300 0.171233 0.090200
0.087340 0.171233 0.090200
0.098800 0.171233 0.090200
0.136427 0.171233 0.090200
0.220900 0.171233 0.090200
0.322380 0.171233 0.090200
0.411267 0.171233 0.090200
0.484440 0.171233 0.090200
0.548980 0.171233 0.090200
0.614367 0.171233 0.090200
0.675560 0.171233 0.090200
0.743560 0.171233 0.090200
0.814620 0.171233 0.090200
0.874740 0.171233 0.090200
0.936711 0.171233 0.090200
0.090200 0.259580 0.090200
0.086300 0.259580 0.090200
0.087340 0.259580 0.090200
0.098800 0.259580 0.090200
0.136427 0.259580 0.090200
0.220900 0.259580 0.090200
0.322380 0.259580 0.090200
0.411267 0.259580 0.090200
0.484440 0.259580 0.090200
0.548980 0.259580 0.090200
0.614367 0.259580 0.090200
0.675560 0.259580 0.090200
0.743560 0.259580 0.090200
0.814620 0.259580 0.090200
0.874740 0.259580 0.090200
0.936711 0.259580 0.090200
0.090200 0.350333 0.090200
0.086300 0.350333 0.090200
0.087340 0.350333 0.090200
0.098800 0.350333 0.090200
0.136427 0.350333 0.090200
0.220900 0.350333 0.090200
0.322380 0.350333 0.090200
0.411267 0.350333 0.090200
0.484440 0.350333 0.090200
0.548980 0.350333 0.090200
0.614367 0.350333 0.090200
0.675560 0.350333 0.090200
0.743560 0.350333 0.090200
0.814620 0.350333 0.090200
0.874740 0.350333 0.090200
0.936711 0.350333 0.090200
0.090200 0.427720 0.090200
0.086300 0.427720 0.090200
0.087340 0.427720 0.090200
0.098800 0.427720 0.090200
0.136427 0.427720 0.090200
0.220900 0.427720 0.090200
0.322380 0.427720 0.090200
0.411267 0.427720 0.090200
0.484440 0.427720 0.090200
0.548980 0.427720 0.090200
0.614367 0.427720 0.090200
0.675560 0.427720 0.090200
0.743560 0.427720 0.090200
0.814620 0.427720 0.090200
0.874740 0.427720 0.090200
0.936711 0.427720 0.090200
0.090200 0.496480 0.090200
0.086300 0.496480 0.090200
0.087340 0.496480 0.090200
0.098800 0.496480 0.090200
0.136427 0.496480 0.090200
0.220900 0.496480 0.090200
0.322380 0.496480 0.090200
0.411267 0.496480 0.090200
0.484440 0.496480 0.090200
0.548980 0.496480 0.090200
0.614367 0.496480 0.090200
0.675560 0.496480 0.090200
0.743560 0.496480 0.090200
0.814620 0.496480 0.090200
0.874740 0.496480 0.090200
0.936711 0.496480 0.090200
0.090200 0.555533 0.090200
0.086300 0.555533 0.090200
0.087340 0.555533 0.090200
0.098800 0.555533 0.090200
0.136427 0.555533 0.090200
0.220900 0.555533 0.090200
0.322380 0.555533 0.090200
0.411267 0.555533 0.090200
0.484440 0.555533 0.090200
0.548980 0.555533 0.090200
0.614367 0.555533 0.090200
0.675560 0.555533 0.090200
0.743560 0.555533 0.090200
0.814620 0.555533 0.090200
0.874740 0.555533 0.090200
0.936711 0.555533 0.090200
0.090200 0.618553 0.090200
0.086300 0.618553 0.090200
0.087340 0.618553 0.090200
0.098800 0.618553 0.090200
0.136427 0.618553 0.090200
0.220900 0.618553 0.090200
0.322380 0.618553 0.090200
0.411267 0.618553 0.090200
0.484440 0.618553 0.090200
0.548980 0.618553 0.090200
0.614367 0.618553 0.090200
0.675560 0.618553 0.090200
0.743560 0.618553 0.090200
0.814620 0.618553 0.090200
0.874740 0.618553 0.090200
0.936711 0.618553 0.090200
0.090200 0.685460 0.090200
0.086300 0.685460 0.090200
0.087340 0.685460 0.090200
0.098800 0.685460 0.090200
0.136427 0.685460 0.090200
0.220900 0.685460 0.090200
0.322380 0.685460 0.090200
0.411267 0.685460 0.090200
0.484440 0.685460 0.090200
0.548980 0.685460 0.090200
0.614367 0.685460 0.090200
0.675560 0.685460 0.090200
0.743560 0.685460 0.090200
0.814620 0.685460 0.090200
0.874740 0.685460 0.090200
0.936711 0.685460 0.090200
0.090200 0.762567 0.090200
0.086300 0.762567 0.090200
0.087340 0.762567 0.090200
0.098800 0.762567 0.090200
0.136427 0.762567 0.090200
0.220900 0.762567 0.090200
0.322380 0.762567 0.090200
0.411267 0.762567 0.090200
0.484440 0.762567 0.090200
0.548980 0.762567 0.090200
0.614367 0.762567 0.090200
0.675560 0.762567 0.090200
0.743560 0.762567 0.090200
0.814620 0.762567 0.090200
0.874740 0.762567 0.090200
0.936711 0.762567 0.090200
0.090200 0.842127 0.090200
0.086300 0.842127 0.090200
0.087340 0.842127 0.090200
0.098800 0.842127 0.090200
0.136427 0.842127 0.090200
0.220900 0.842127 0.090200
0.322380 0.842127 0.090200
0.411267 0.842127 0.090200
0.484440 0.842127 0.090200
0.548980 0.842127 0.090200
0.614367 0.842127 0.090200
0.675560 0.842127 0.090200
0.743560 0.842127 0.090200
0.814620 0.842127 0.090200
0.874740 0.842127 0.090200
0.936711 0.842127 0.090200
0.090200 0.920855 0.090200
0.086300 0.920855 0.090200
0.087340 0.920855 0.090200
0.098800 0.920855 0.090200
0.136427 0.920855 0.090200
0.220900 0.920855 0.090200
0.322380 0.920855 0.090200
0.411267 0.920855 0.090200
0.484440 0.920855 0.090200
0.548980 0.920855 0.090200
0.614367 0.920855 0.090200
0.675560 0.920855 0.090200
0.743560 0.920855 0.090200
0.814620 0.920855 0.090200
0.874740 0.920855 0.090200
0.936711 0.920855 0.090200
0.090200 0.090200 0.086300
0.086300 0.090200 0.086300
0.087340 0.090200 0.086300
0.098800 0.090200 0.086300
0.136427 0.090200 0.086300
0.220900 0.090200 0.086300
0.322380 0.090200 0.086300
0.411267 0.090200 0.086300
0.484440 0.090200 0.086300
0.548980 0.090200 0.086300
0.614367 0.090200 0.086300
0.675560 0.090200 0.086300
0.743560 0.090200 0.086300
0.814620 0.090200 0.086300
0.874740 0.090200 0.086300
0.936711 0.090200 0.086300
0.090200 0.086300 0.086300
0.086300 0.086300 0.086300
0.087340 0.086300 0.086300
0.098800 0.086300 0.086300
0.136427 0.086300 0.086300
0.220900 0.086300 0.086300
0.322380 0.086300 0.086300
0.411267 0.086300 0.086300
0.484440 0.086300 0.086300
0.548980 0.086300 0.086300
0.614367 0.086300 0.086300
0.675560 0.086300 0.086300
0.743560 0.086300 0.086300
0.814620 0.086300 0.086300
0.874740 0.086300 0.086300
0.936711 0.086300 0.086300
0.090200 0.086820 0.086300
0.086300 0.086820 0.086300
0.087340 0.086820 0.086300
0.098800 0.086820 0.086300
0.136427 0.086820 0.086300
0.220900 0.086820 0.086300
0.322380 0.086820 0.086300
0.411267 0.086820 0.086300
0.484440 0.086820 0.086300
0.548980 0.086820 0.086300
0.614367 0.086820 0.086300
0.675560 0.086820 0.086300
0.743560 0.086820 0.086300
0.814620 0.086820 0.086300
0.874740 0.086820 0.086300
0.936711 0.086820 0.086300
0.090200 0.093340 0.086300
0.086300 0.093340 0.086300
0.087340 0.093340 0.086300
0.098800 0.093340 0.086300
0.136427 0.093340 0.086300
0.220900 0.093340 0.086300
0.322380 0.093340 0.086300
0.411267 0.093340 0.086300
0.484440 0.093340 0.086300
0.548980 0.093340 0.086300
0.614367 0.093340 0.086300
0.675560 0.093340 0.086300
0.743560 0.093340 0.086300
0.814620 0.093340 0.086300
0.874740 0.093340 0.086300
0.936711 0.093340 0.086300
0.090200 0.116353 0.086300
0.086300 0.116353 0.086300
0.087340 0.116353 0.086300
0.098800 0.116353 0.086300
0.136427 0.116353 0.086300
0.220900 0.116353 0.086300
0.322380 0.116353 0.086300
0.411267 0.116353 0.086300
0.484440 0.116353 0.086300
0.548980 0.116353 0.086300
0.614367 0.116353 0.086300
0.675560 0.116353 0.086300
0.743560 0.116353 0.086300
0.814620 0.116353 0.086300
0.874740 0.116353 0.086300
0.936711 0.116353 0.086300
0.090200 0.171233 0.086300
0.086300 0.171233 0.086300
0.087340 0.171233 0.086300
0.098800 0.171233 0.086300
0.136427 0.171233 0.086300
0.220900 0.171233 0.086300
0.322380 0.171233 0.086300
0.411267 0.171233 0.086300
0.484440 0.171233 0.086300
0.548980 0.171233 0.086300
0.614367 0.171233 0.086300
0.675560 0.171233 0.086300
0.743560 0.171233 0.086300
0.814620 0.171233 0.086300
0.874740 0.171233 0.086300
0.936711 0.171233 0.086300
0.090200 0.259580 0.086300
0.086300 0.259580 0.086300
0.087340 0.259580 0.086300
0.098800 0.259580 0.086300
0.136427 0.259580 0.086300
0.220900 0.259580 0.086300
0.322380 0.259580 0.086300
0.411267 0.259580 0.086300
0.484440 0.259580 0.086300
0.548980 0.259580 0.086300
0.614367 0.259580 0.086300
0.675560 0.259580 0.086300
0.743560 0.259580 0.086300
0.814620 0.259580 0.086300
0.874740 0.259580 0.086300
0.936711 0.259580 0.086300
0.090200 0.350333 0.086300
0.086300 0.350333 0.086300
0.087340 0.350333 0.086300
0.098800 0.350333 0.086300
0.136427 0.350333 0.086300
0.220900 0.350333 0.086300
0.322380 0.350333 0.086300
0.411267 0.350333 0.086300
0.484440 0.350333 0.086300
0.548980 0.350333 0.086300
0.614367 0.350333 0.086300
0.675560 0.350333 0.086300
0.743560 0.350333 0.086300
0.814620 0.350333 0.086300
0.874740 0.350333 0.086300
0.936711 0.350333 0.086300
0.090200 0.427720 0.086300
0.086300 0.427720 0.086300
0.087340 0.427720 0.086300
0.098800 0.427720 0.086300
0.136427 0.427720 0.086300
0.220900 0.427720 0.086300
0.322380 0.427720 0.086300
0.411267 0.427720 0.086300
0.484440 0.427720 0.086300
0.548980 0.427720 0.086300
0.614367 0.427720 0.086300
0.675560 0.427720 0.086300
0.743560 0.427720 0.086300
0.814620 0.427720 0.086300
0.874740 0.427720 0.086300
0.936711 0.427720 0.086300
0.090200 0.496480 0.086300
0.086300 0.496480 0.086300
0.087340 0.496480 0.086300
0.098800 0.496480 0.086300
0.136427 0.496480 0.086300
0.220900 0.496480 0.086300
0.322380 0.496480 0.086300
0.411267 0.496480 0.086300
0.484440 0.496480 0.086300
0.548980 0.496480 0.086300
0.614367 0.496480 0.086300
0.675560 0.496480 0.086300
0.743560 0.496480 0.086300
0.814620 0.496480 0.086300
0.874740 0.496480 0.086300
0.936711 0.496480 0.086300
0.090200 0.555533 0.086300
0.086300 0.555533 0.086300
0.087340 0.555533 0.086300
0.098800 0.555533 0.086300
0.136427 0.555533 0.086300
0.220900 0.555533 0.086300
0.322380 0.555533 0.086300
0.411267 0.555533 0.086300
0.484440 0.555533 0.086300
0.548980 0.555533 0.086300
0.614367 0.555533 0.086300
0.675560 0.555533 0.086300
0.743560 0.555533 0.086300
0.814620 0.555533 0.086300
0.874740 0.555533 0.086300
0.936711 0.555533 0.086300
0.090200 0.618553 0.086300
0.086300 0.618553 0.086300
0.087340 0.618553 0.086300
0.098800 0.618553 0.086300
0.136427 0.618553 0.086300
0.220900 0.618553 0.086300
0.322380 0.618553 0.086300
0.411267 0.618553 0.086300
0.484440 0.618553 0.086300
0.548980 0.618553 0.086300
0.614367 0.618553 0.086300
0.675560 0.618553 0.086300
0.743560 0.618553 0.086300
0.814620 0.618553 0.086300
0.874740 0.618553 0.086300
0.936711 0.618553 0.086300
0.090200 0.685460 0.086300
0.086300 0.685460 0.086300
0.087340 0.685460 0.086300
0.098800 0.685460 0.086300
0.136427 0.685460 0.086300
0.220900 0.685460 0.086300
0.322380 0.685460 0.086300
0.411267 0.685460 0.086300
0.484440 0.685460 0.086300
0.548980 0.685460 0.086300
0.614367 0.685460 0.086300
0.675560 0.685460 0.086300
0.743560 0.685460 0.086300
0.814620 0.685460 0.086300
0.874740 0.685460 0.086300
0.936711 0.685460 0.086300
0.090200 0.762567 0.086300
0.086300 0.762567 0.086300
0.087340 0.762567 0.086300
0.098800 0.762567 0.086300
0.136427 0.762567 0.086300
0.220900 0.762567 0.086300
0.322380 0.762567 0.086300
0.411267 0.762567 0.086300
0.484440 0.762567 0.086300
0.548980 0.762567 0.086300
0.614367 0.762567 0.086300
0.675560 0.762567 0.086300
0.743560 0.762567 0.086300
0.814620 0.762567 0.086300
0.874740 0.762567 0.086300
0.936711 0.762567 0.086300
0.090200 0.842127 0.086300
0.086300 0.842127 0.086300
0.087340 0.842127 0.086300
0.098800 0.842127 0.086300
0.136427 0.842127 0.086300
0.220900 0.842127 0.086300
0.322380 0.842127 0.086300
0.411267 0.842127 0.086300
0.484440 0.842127 0.086300
0.548980 0.842127 0.086300
0.614367 0.842127 0.086300
0.675560 0.842127 0.086300
0.743560 0.842127 0.086300
0.814620 0.842127 0.086300
0.874740 0.842127 0.086300
0.936711 0.842127 0.086300
0.090200 0.920855 0.086300
0.086300 0.920855 0.086300
0.087340 0.920855 0.086300
0.098800 0.920855 0.086300
0.136427 0.920855 0.086300
0.220900 0.920855 0.086300
0.322380 0.920855 0.086300
0.411267 0.920855 0.086300
0.484440 0.920855 0.086300
0.548980 0.920855 0.086300
0.614367 0.920855 0.086300
0.675560 0.920855 0.086300
0.743560 0.920855 0.086300
0.814620 0.920855 0.086300
0.874740 0.920855 0.086300
0.936711 0.920855 0.086300
0.090200 0.090200 0.086300
0.086300 0.090200 0.086300
0.087340 0.090200 0.086300
0.098800 0.090200 0.086300
0.136427 0.090200 0.086300
0.220900 0.090200 0.086300
0.322380 0.090200 0.086300
0.411267 0.090200 0.086300
0.484440 0.090200 0.086300
0.548980 0.090200 0.086300
0.614367 0.090200 0.086300
0.675560 0.090200 0.086300
0.743560 0.090200 0.086300
0.814620 0.090200 0.086300
0.874740 0.090200 0.086300
0.936711 0.090200 0.086300
0.090200 0.086300 0.086300
0.086300 0.086300 0.086300
0.087340 0.086300 0.086300
0.098800 0.086300 0.086300
0.136427 0.086300 0.086300
0.220900 0.086300 0.086300
0.322380 0.086300 0.086300
0.411267 0.086300 0.086300
0.484440 0.086300 0.086300
0.548980 0.086300 0.086300
0.614367 0.086300 0.086300
0.675560 0.086300 0.086300
0.743560 0.086300 0.086300
0.814620 0.086300 0.086300
0.874740 0.086300 0.086300
0.936711 0.086300 0.086300
0.090200 0.086820 0.086300
0.086300 0.086820 0.086300
0.087340 0.086820 0.086300
0.098800 0.086820 0.086300
0.136427 0.086820 0.086300
0.220900 0.086820 0.086300
0.322380 0.086820 0.086300
0.411267 0.086820 0.086300
0.484440 0.086820 0.086300
0.548980 0.086820 0.086300
0.614367 0.086820 0.086300
0.675560 0.086820 0.086300
0.743560 0.086820 0.086300
0.814620 0.086820 0.086300
0.874740 0.086820 0.086300
0.936711 0.086820 0.086300
0.090200 0.093340 0.086300
0.086300 0.093340 0.086300
0.087340 0.093340 0.086300
0.098800 0.093340 0.086300
0.136427 0.093340 0.086300
0.220900 0.093340 0.086300
0.322380 0.093340 0.086300
0.411267 0.093340 0.086300
0.484440 0.093340 0.086300
0.548980 0.093340 0.086300
0.614367 0.093340 0.086300
0.675560 0.093340 0.086300
0.743560 0.093340 0.086300
0.814620 0.093340 0.086300
0.874740 0.093340 0.086300
0.936711 0.093340 0.086300
0.090200 0.116353 0.086300
0.086300 0.116353 0.086300
0.087340 0.116353 0.086300
0.098800 0.116353 0.086300
0.136427 0.116353 0.086300
0.220900 0.116353 0.086300
0.322380 0.116353 0.086300
0.411267 0.116353 0.086300
0.484440 0.116353 0.086300
0.548980 0.116353 0.086300
0.614367 0.116353 0.086300
0.675560 0.116353 0.086300
0.743560 0.116353 0.086300
0.814620 0.116353 0.086300
0.874740 0.116353 0.086300
0.936711 0.116353 0.086300
0.090200 0.171233 0.086300
0.086300 0.171233 0.086300
0.087340 0.171233 0.086300
0.098800 0.171233 0.086300
0.136427 0.171233 0.086300
0.220900 0.171233 0.086300
0.322380 0.171233 0.086300
0.411267 0.171233 0.086300
0.484440 0.171233 0.086300
0.548980 0.171233 0.086300
0.614367 0.171233 0.086300
0.675560 0.171233 0.086300
0.743560 0.171233 0.086300
0.814620 0.171233 0.086300
0.874740 0.171233 0.086300
0.936711 0.171233 0.086300
0.090200 0.259580 0.086300
0.086300 0.259580 0.086300
0.087340 0.259580 0.086300
0.098800 0.259580 0.086300
0.136427 0.259580 0.086300
0.220900 0.259580 0.086300
0.322380 0.259580 0.086300
0.411267 0.259580 0.086300
0.484440 0.259580 0.086300
0.548980 0.259580 0.086300
0.614367 0.259580 0.086300
0.675560 0.259580 0.086300
0.743560 0.259580 0.086300
0.814620 0.259580 0.086300
0.874740 0.259580 0.086300
0.936711 0.259580 0.086300
0.090200 0.350333 0.086300
0.086300 0.350333 0.086300
0.087340 0.350333 0.086300
0.098800 0.350333 0.086300
0.136427 0.350333 0.086300
0.220900 0.350333 0.086300
0.322380 0.350333 0.086300
0.411267 0.350333 0.086300
0.484440 0.350333 0.086300
0.548980 0.350333 0.086300
0.614367 0.350333 0.086300
0.675560 0.350333 0.086300
0.743560 0.350333 0.086300
0.814620 0.350333 0.086300
0.874740 0.350333 0.086300
0.936711 0.350333 0.086300
0.090200 0.427720 0.086300
0.086300 0.427720 0.086300
0.087340 0.427720 0.086300
0.098800 0.427720 0.086300
0.136427 0.427720 0.086300
0.220900 0.427720 0.086300
0.322380 0.427720 0.086300
0.411267 0.427720 0.086300
0.484440 0.427720 0.086300
0.548980 0.427720 0.086300
0.614367 0.427720 0.086300
0.675560 0.427720 0.086300
0.743560 0.427720 0.086300
0.814620 0.427720 0.086300
0.874740 0.427720 0.086300
0.936711 0.427720 0.086300
0.090200 0.496480 0.086300
0.086300 0.496480 0.086300
0.087340 0.496480 0.086300
0.098800 0.496480 0.086300
0.136427 0.496480 0.086300
0.220900 0.496480 0.086300
0.322380 0.496480 0.086300
0.411267 0.496480 0.086300
0.484440 0.496480 0.086300
0.548980 0.496480 0.086300
0.614367 0.496480 0.086300
0.675560 0.496480 0.086300
0.743560 0.496480 0.086300
0.814620 0.496480 0.086300
0.874740 0.496480 0.086300
0.936711 0.496480 0.086300
0.090200 0.555533 0.086300
0.086300 0.555533 0.086300
0.087340 0.555533 0.086300
0.098800 0.555533 0.086300
0.136427 0.555533 0.086300
0.220900 0.555533 0.086300
0.322380 0.555533 0.086300
0.411267 0.555533 0.086300
0.484440 0.555533 0.086300
0.548980 0.555533 0.086300
0.614367 0.555533 0.086300
0.675560 0.555533 0.086300
0.743560 0.555533 0.086300
0.814620 0.555533 0.086300
0.874740 0.555533 0.086300
0.936711 0.555533 0.086300
0.090200 0.618553 0.086300
0.086300 0.618553 0.086300
0.087340 0.618553 0.086300
0.098800 0.618553 0.086300
0.136427 0.618553 0.086300
0.220900 0.618553 0.086300
0.322380 0.618553 0.086300
0.411267 0.618553 0.086300
0.484440 0.618553 0.086300
0.548980 0.618553 0.086300
0.614367 0.618553 0.086300
0.675560 0.618553 0.086300
0.743560 0.618553 0.086300
0.814620 0.618553 0.086300
0.874740 0.618553 0.086300
0.936711 0.618553 0.086300
0.090200 0.685460 0.086300
0.086300 0.685460 0.086300
0.087340 0.685460 0.086300
0.098800 0.685460 0.086300
0.136427 0.685460 0.086300
0.220900 0.685460 0.086300
0.322380 0.685460 0.086300
0.411267 0.685460 0.086300
0.484440 0.685460 0.086300
0.548980 0.685460 0.086300
0.614367 0.685460 0.086300
0.675560 0.685460 0.086300
0.743560 0.685460 0.086300
0.814620 0.685460 0.086300
0.874740 0.685460 0.086300
0.936711 0.685460 0.086300
0.090200 0.762567 0.086300
0.086300 0.762567 0.086300
0.087340 0.762567 0.086300
0.098800 0.762567 0.086300
0.136427 0.762567 0.086300
0.220900 0.762567 0.086300
0.322380 0.762567 0.086300
0.411267 0.762567 0.086300
0.484440 0.762567 0.086300
0.548980 0.762567 0.086300
0.614367 0.762567 0.086300
0.675560 0.762567 0.086300
0.743560 0.762567 0.086300
0.814620 0.762567 0.086300
0.874740 0.762567 0.086300
0.936711 0.762567 0.086300
0.090200 0.842127 0.086300
0.086300 0.842127 0.086300
0.087340 0.842127 0.086300
0.098800 0.842127 0.086300
0.136427 0.842127 0.086300
0.220900 0.842127 0.086300
0.322380 0.842127 0.086300
0.411267 0.842127 0.086300
0.484440 0.842127 0.086300
0.548980 0.842127 0.086300
0.614367 0.842127 0.086300
0.675560 0.842127 0.086300
0.743560 0.842127 0.086300
0.814620 0.842127 0.086300
0.874740 0.842127 0.086300
0.936711 0.842127 0.086300
0.090200 0.920855 0.086300
0.086300 0.920855 0.086300
0.087340 0.920855 0.086300
0.098800 0.920855 0.086300
0.136427 0.920855 0.086300
0.220900 0.920855 0.086300
0.322380 0.920855 0.086300
0.411267 0.920855 0.086300
0.484440 0.920855 0.086300
0.548980 0.920855 0.086300
0.614367 0.920855 0.086300
0.675560 0.920855 0.086300
0.743560 0.920855 0.086300
0.814620 0.920855 0.086300
0.874740 0.920855 0.086300
0.936711 0.920855 0.086300
0.090200 0.090200 0.086300
0.086300 0.090200 0.086300
0.087340 0.090200 0.086300
0.098800 0.090200 0.086300
0.136427 0.090200 0.086300
0.220900 0.090200 0.086300
0.322380 0.090200 0.086300
0.411267 0.090200 0.086300
0.484440 0.090200 0.086300
0.548980 0.090200 0.086300
0.614367 0.090200 0.086300
0.675560 0.090200 0.086300
0.743560 0.090200 0.086300
0.814620 0.090200 0.086300
0.874740 0.090200 0.086300
0.936711 0.090200 0.086300
0.090200 0.086300 0.086300
0.086300 0.086300 0.086300
0.087340 0.086300 0.086300
0.098800 0.086300 0.086300
0.136427 0.086300 0.086300
0.220900 0.086300 0.086300
0.322380 0.086300 0.086300
0.411267 0.086300 0.086300
0.484440 0.086300 0.086300
0.548980 0.086300 0.086300
0.614367 0.086300 0.086300
0.675560 0.086300 0.086300
0.743560 0.086300 0.086300
0.814620 0.086300 0.086300
0.874740 0.086300 0.086300
0.936711 0.086300 0.086300
0.090200 0.086820 0.086300
0.086300 0.086820 0.086300
0.087340 0.086820 0.086300
0.098800 0.086820 0.086300
0.136427 0.086820 0.086300
0.220900 0.086820 0.086300
0.322380 0.086820 0.086300
0.411267 0.086820 0.086300
0.484440 0.086820 0.086300
0.548980 0.086820 0.086300
0.614367 0.086820 0.086300
0.675560 0.086820 0.086300
0.743560 0.086820 0.086300
0.814620 0.086820 0.086300
0.874740 0.086820 0.086300
0.936711 0.086820 0.086300
0.090200 0.093340 0.086300
0.086300 0.093340 0.086300
0.087340 0.093340 0.086300
0.098800 0.093340 0.086300
0.136427 0.093340 0.086300
0.220900 0.093340 0.086300
0.322380 0.093340 0.086300
0.411267 0.093340 0.086300
0.484440 0.093340 0.086300
0.548980 0.093340 0.086300
0.614367 0.093340 0.086300
0.675560 0.093340 0.086300
0.743560 0.093340 0.086300
0.814620 0.093340 0.086300
0.874740 0.093340 0.086300
0.936711 0.093340 0.086300
0.090200 0.116353 0.086300
0.086300 0.116353 0.086300
0.087340 0.116353 0.086300
0.098800 0.116353 0.086300
0.136427 0.116353 0.086300
0.220900 0.116353 0.086300
0.322380 0.116353 0.086300
0.411267 0.116353 0.086300
0.484440 0.116353 0.086300
0.548980 0.116353 0.086300
0.614367 0.116353 0.086300
0.675560 0.116353 0.086300
0.743560 0.116353 0.086300
0.814620 0.116353 0.086300
0.874740 0.116353 0.086300
0.936711 0.116353 0.086300
0.090200 0.171233 0.086300
0.086300 0.171233 0.086300
0.087340 0.171233 0.086300
0.098800 0.171233 0.086300
0.136427 0.171233 0.086300
0.220900 0.171233 0.086300
0.322380 0.171233 0.086300
0.411267 0.171233 0.086300
0.484440 0.171233 0.086300
0.548980 0.171233 0.086300
0.614367 0.171233 0.086300
0.675560 0.171233 0.086300
0.743560 0.171233 0.086300
0.814620 0.171233 0.086300
0.874740 0.171233 0.086300
0.936711 0.171233 0.086300
0.090200 0.259580 0.086300
0.086300 0.259580 0.086300
0.087340 0.259580 0.086300
0.098800 0.259580 0.086300
0.136427 0.259580 0.086300
0.220900 0.259580 0.086300
0.322380 0.259580 0.086300
0.411267 0.259580 0.086300
0.484440 0.259580 0.086300
0.548980 0.259580 0.086300
0.614367 0.259580 0.086300
0.675560 0.259580 0.086300
0.743560 0.259580 0.086300
0.814620 0.259580 0.086300
0.874740 0.259580 0.086300
0.936711 0.259580 0.086300
0.090200 0.350333 0.086300
0.086300 0.350333 0.086300
0.087340 0.350333 0.086300
0.098800 0.350333 0.086300
0.136427 0.350333 0.086300
0.220900 0.350333 0.086300
0.322380 0.350333 0.086300
0.411267 0.350333 0.086300
