example_ofxGpuLutCube/bin/data/ofxGpuLutCube/LUT/V24 (retro bright).cube
LUT_3D_SIZE 6
0.090200 0.090200 0.090200
0.098800 0.090200 0.090200
0.322380 0.090200 0.090200
0.548980 0.090200 0.090200
0.743560 0.090200 0.090200
0.936711 0.090200 0.090200
0.090200 0.093340 0.090200
0.098800 0.093340 0.090200
0.322380 0.093340 0.090200
0.548980 0.093340 0.090200
0.743560 0.093340 0.090200
0.936711 0.093340 0.090200
0.090200 0.259580 0.090200
0.098800 0.259580 0.090200
0.322380 0.259580 0.090200
0.548980 0.259580 0.090200
0.743560 0.259580 0.090200
0.936711 0.259580 0.090200
0.090200 0.496480 0.090200
0.098800 0.496480 0.090200
0.322380 0.496480 0.090200
0.548980 0.496480 0.090200
0.743560 0.496480 0.090200
0.936711 0.496480 0.090200
0.090200 0.685460 0.090200
0.098800 0.685460 0.090200
0.322380 0.685460 0.090200
0.548980 0.685460 0.090200
0.743560 0.685460 0.090200
0.936711 0.685460 0.090200
0.090200 0.920855 0.090200
0.098800 0.920855 0.090200
0.322380 0.920855 0.090200
0.548980 0.920855 0.090200
0.743560 0.920855 0.090200
0.936711 0.920855 0.090200
0.090200 0.090200 0.086300
0.098800 0.090200 0.086300
0.322380 0.090200 0.086300
0.548980 0.090200 0.086300
0.743560 0.090200 0.086300
0.936711 0.090200 0.086300
0.090200 0.093340 0.086300
0.098800 0.093340 0.086300
0.322380 0.093340 0.086300
0.548980 0.093340 0.086300
0.743560 0.093340 0.086300
0.936711 0.093340 0.086300
0.090200 0.259580 0.086300
0.098800 0.259580 0.086300
0.322380 0.259580 0.086300
0.548980 0.259580 0.086300
0.743560 0.259580 0.086300
0.936711 0.259580 0.086300
0.090200 0.496480 0.086300
0.098800 0.496480 0.086300
0.322380 0.496480 0.086300
0.548980 0.496480 0.086300
0.743560 0.496480 0.086300
0.936711 0.496480 0.086300
0.090200 0.685460 0.086300
0.098800 0.685460 0.086300
0.322380 0.685460 0.086300
0.548980 0.685460 0.086300
0.743560 0.685460 0.086300
0.936711 0.685460 0.086300
0.090200 0.920855 0.086300
0.098800 0.920855 0.086300
0.322380 0.920855 0.086300
0.548980 0.920855 0.086300
0.743560 0.920855 0.086300
0.936711 0.920855 0.086300
0.090200 0.090200 0.112960
0.098800 0.090200 0.112960
0.322380 0.090200 0.112960
0.548980 0.090200 0.112960
0.743560 0.090200 0.112960
0.936711 0.090200 0.112960
0.090200 0.093340 0.112960
0.098800 0.093340 0.112960
0.322380 0.093340 0.112960
0.548980 0.093340 0.112960
0.743560 0.093340 0.112960
0.936711 0.093340 0.112960
0.090200 0.259580 0.112960
0.098800 0.259580 0.112960
0.322380 0.259580 0.112960
0.548980 0.259580 0.112960
0.743560 0.259580 0.112960
0.936711 0.259580 0.112960
0.090200 0.496480 0.112960
0.098800 0.496480 0.112960
0.322380 0.496480 0.112960
0.548980 0.496480 0.112960
0.743560 0.496480 0.112960
0.936711 0.496480 0.112960
0.090200 0.685460 0.112960
0.098800 0.685460 0.112960
0.322380 0.685460 0.112960
0.548980 0.685460 0.112960
0.743560 0.685460 0.112960
0.936711 0.685460 0.112960
0.090200 0.920855 0.112960
0.098800 0.920855 0.112960
0.322380 0.920855 0.112960
0.548980 0.920855 0.112960
0.743560 0.920855 0.112960
0.936711 0.920855 0.112960
0.090200 0.090200 0.314480
0.098800 0.090200 0.314480
0.322380 0.090200 0.314480
0.548980 0.090200 0.314480
0.743560 0.090200 0.314480
0.936711 0.090200 0.314480
0.090200 0.093340 0.314480
0.098800 0.093340 0.314480
0.322380 0.093340 0.314480
0.548980 0.093340 0.314480
0.743560 0.093340 0.314480
0.936711 0.093340 0.314480
0.090200 0.259580 0.314480
0.098800 0.259580 0.314480
0.322380 0.259580 0.314480
0.548980 0.259580 0.314480
0.743560 0.259580 0.314480
0.936711 0.259580 0.314480
0.090200 0.496480 0.314480
0.098800 0.496480 0.314480
0.322380 0.496480 0.314480
0.548980 0.496480 0.314480
0.743560 0.496480 0.314480
0.936711 0.496480 0.314480
0.090200 0.685460 0.314480
0.098800 0.685460 0.314480
0.322380 0.685460 0.314480
0.548980 0.685460 0.314480
0.743560 0.685460 0.314480
0.936711 0.685460 0.314480
0.090200 0.920855 0.314480
0.098800 0.920855 0.314480
0.322380 0.920855 0.314480
0.548980 0.920855 0.314480
0.743560 0.920855 0.314480
0.936711 0.920855 0.314480
0.090200 0.090200 0.550580
0.098800 0.090200 0.550580
0.322380 0.090200 0.550580
0.548980 0.090200 0.550580
0.743560 0.090200 0.550580
0.936711 0.090200 0.550580
0.090200 0.093340 0.550580
0.098800 0.093340 0.550580
0.322380 0.093340 0.550580
0.548980 0.093340 0.550580
0.743560 0.093340 0.550580
0.936711 0.093340 0.550580
0.090200 0.259580 0.550580
0.098800 0.259580 0.550580
0.322380 0.259580 0.550580
0.548980 0.259580 0.550580
0.743560 0.259580 0.550580
0.936711 0.259580 0.550580
0.090200 0.496480 0.550580
0.098800 0.496480 0.550580
0.322380 0.496480 0.550580
0.548980 0.496480 0.550580
0.743560 0.496480 0.550580
0.936711 0.496480 0.550580
0.090200 0.685460 0.550580
0.098800 0.685460 0.550580
0.322380 0.685460 0.550580
0.548980 0.685460 0.550580
0.743560 0.685460 0.550580
0.936711 0.685460 0.550580
0.090200 0.920855 0.550580
0.098800 0.920855 0.550580
0.322380 0.920855 0.550580
0.548980 0.920855 0.550580
0.743560 0.920855 0.550580
0.936711 0.920855 0.550580
0.090200 0.090200 0.869423
0.098800 0.090200 0.869423
0.322380 0.090200 0.869423
0.548980 0.090200 0.869423
0.743560 0.090200 0.869423
0.936711 0.090200 0.869423
0.090200 0.093340 0.869423
0.098800 0.093340 0.869423
0.322380 0.093340 0.869423
0.548980 0.093340 0.869423
0.743560 0.093340 0.869423
0.936711 0.093340 0.869423
0.090200 0.259580 0.869423
0.098800 0.259580 0.869423
0.322380 0.259580 0.869423
0.548980 0.259580 0.869423
0.743560 0.259580 0.869423
0.936711 0.259580 0.869423
0.090200 0.496480 0.869423
0.098800 0.496480 0.869423
0.322380 0.496480 0.869423
0.548980 0.496480 0.869423
0.743560 0.496480 0.869423
0.936711 0.496480 0.869423
0.090200 0.685460 0.869423
0.098800 0.685460 0.869423
0.322380 0.685460 0.869423
0.548980 0.685460 0.869423
0.743560 0.685460 0.869423
0.936711 0.685460 0.869423
0.090200 0.920855 0.869423
0.098800 0.920855 0.869423
0.322380 0.920855 0.869423
0.548980 0.920855 0.869423
0.743560 0.920855 0.869423
0.936711 0.920855 0.869423
