example_ofxGpuLutCube/bin/data/ofxGpuLutCube/LUT/V25 (vintage faded).cube
LUT_3D_SIZE 16
0.110839 0.110839 0.110839
0.113296 0.110839 0.110839
0.118239 0.110839 0.110839
0.125228 0.112271 0.112271
0.139126 0.114927 0.114927
0.167026 0.118796 0.118796
0.215462 0.123982 0.123982
0.286808 0.130562 0.130562
0.378135 0.138683 0.138683
0.479610 0.147959 0.147959
0.580736 0.157721 0.157721
0.672962 0.167053 0.167053
0.750066 0.175259 0.175259
0.811250 0.182010 0.182010
0.861492 0.187746 0.187746
0.908348 0.193215 0.193215
0.110839 0.113565 0.110839
0.096377 0.115599 0.135168
0.117949 0.113010 0.112133
0.125359 0.113992 0.112795
0.139275 0.116677 0.115398
0.167226 0.121034 0.119272
0.215740 0.127143 0.124486
0.287127 0.135093 0.131134
0.378587 0.144831 0.139305
0.480010 0.155651 0.148641
0.581081 0.166507 0.158438
0.673242 0.176397 0.167789
0.750376 0.184608 0.175954
0.811502 0.190982 0.182642
0.861793 0.196191 0.188329
0.908469 0.201144 0.193775
0.112532 0.118774 0.112532
0.113987 0.118823 0.112749
0.100887 0.121000 0.137925
0.112944 0.120595 0.132318
0.138385 0.122524 0.118996
0.167957 0.128496 0.120863
0.216675 0.137695 0.126245
0.288276 0.149932 0.133114
0.379840 0.164665 0.141577
0.481333 0.180022 0.151132
0.582382 0.194100 0.161012
0.674436 0.205666 0.170365
0.751574 0.214056 0.178438
0.812493 0.219485 0.184969
0.862651 0.223252 0.190454
0.909244 0.226813 0.195726
0.115350 0.126219 0.115350
0.116457 0.126262 0.115435
0.108429 0.127826 0.133400
0.107364 0.128764 0.141817
0.119357 0.133399 0.145231
0.156529 0.141761 0.138270
0.211384 0.155264 0.136279
0.287396 0.173460 0.138996
0.382142 0.194964 0.145612
0.483752 0.216380 0.155618
0.584781 0.234909 0.165697
0.676781 0.248876 0.175030
0.753634 0.257761 0.182895
0.814382 0.262230 0.189175
0.864305 0.264336 0.194345
0.910828 0.266155 0.199355
0.120126 0.141293 0.120126
0.121315 0.141335 0.120203
0.124624 0.141620 0.121919
0.112403 0.144167 0.147585
0.120565 0.144593 0.148475
0.145199 0.158560 0.154454
0.190576 0.179025 0.160158
0.267211 0.204468 0.161357
0.362334 0.233458 0.166421
0.468086 0.261141 0.172941
0.574820 0.284036 0.179410
0.673920 0.300359 0.184862
0.756783 0.309653 0.189504
0.817129 0.313284 0.195319
0.866906 0.313858 0.200105
0.913139 0.314014 0.204672
0.127586 0.171853 0.127586
0.129249 0.171928 0.127672
0.135001 0.172152 0.127993
0.134561 0.173948 0.143233
0.134006 0.176020 0.157815
0.147440 0.176828 0.159144
0.190252 0.204653 0.168563
0.252292 0.239292 0.180339
0.336435 0.277025 0.191359
0.441547 0.311373 0.197668
0.547741 0.339078 0.203733
0.646534 0.358022 0.208392
0.731690 0.367904 0.211117
0.801270 0.370210 0.211982
0.859955 0.368800 0.212014
0.914772 0.367015 0.212355
0.138828 0.224844 0.138828
0.141299 0.224921 0.138940
0.149771 0.225196 0.139312
0.159581 0.226418 0.146379
0.158485 0.229812 0.168610
0.173383 0.231290 0.173727
0.193940 0.232600 0.175862
0.256752 0.275707 0.189786
0.335849 0.322146 0.205387
0.422507 0.364630 0.220846
0.517016 0.397901 0.231410
0.616277 0.419418 0.235188
0.702162 0.429931 0.236635
0.772982 0.431349 0.235967
0.832928 0.428238 0.234444
0.888728 0.424670 0.233367
0.155297 0.302580 0.155297
0.158792 0.302683 0.155442
0.170648 0.303002 0.155895
0.189688 0.303710 0.157329
0.197718 0.307384 0.178423
0.206943 0.310896 0.194897
0.233753 0.312487 0.197594
0.262137 0.314384 0.200808
0.341908 0.369273 0.218698
0.428763 0.418684 0.235816
0.514241 0.457553 0.250650
0.591194 0.483342 0.262372
0.669917 0.494890 0.265452
0.742256 0.495291 0.262945
0.803863 0.490332 0.259585
0.860916 0.485082 0.256931
0.177198 0.401860 0.177198
0.181755 0.401932 0.177345
0.196998 0.402305 0.177905
0.221692 0.402967 0.178909
0.240781 0.406343 0.195096
0.252190 0.411233 0.217187
0.278161 0.413932 0.225666
0.312948 0.416102 0.229434
0.348957 0.418522 0.233891
0.436251 0.475057 0.252900
0.521601 0.518835 0.268820
0.598290 0.547315 0.280787
0.661467 0.560567 0.288473
0.710967 0.561452 0.292450
0.772357 0.554717 0.287634
0.831213 0.547657 0.283133
0.202531 0.511451 0.202531
0.207825 0.511546 0.202653
0.225697 0.511916 0.203274
0.254479 0.512614 0.204385
0.283730 0.515211 0.215034
0.303056 0.520429 0.237462
0.320403 0.525614 0.257365
0.360551 0.527755 0.261514
0.402090 0.530406 0.266414
0.444760 0.533401 0.271991
0.530045 0.582049 0.289158
0.606179 0.613117 0.301403
0.668883 0.626961 0.308632
0.717561 0.626954 0.311629
0.757039 0.619954 0.312583
0.799175 0.612081 0.312080
0.228855 0.620269 0.228855
0.234585 0.620416 0.229023
0.253855 0.620744 0.229645
0.285098 0.621407 0.230788
0.322722 0.622951 0.235273
0.348052 0.628194 0.257979
0.368151 0.634208 0.281446
0.399889 0.638321 0.294136
0.445325 0.640813 0.299154
0.492042 0.643811 0.304982
0.539653 0.647245 0.311541
0.615269 0.680763 0.324169
0.677300 0.695062 0.330908
0.725143 0.693868 0.332830
0.764029 0.685160 0.332495
0.800310 0.675928 0.332461
0.253854 0.718893 0.253854
0.259643 0.718972 0.254028
0.279169 0.719285 0.254650
0.311074 0.720006 0.255774
0.352161 0.720882 0.257447
0.384438 0.725564 0.276227
0.410048 0.731484 0.299792
0.429083 0.738088 0.323919
0.475954 0.740537 0.329402
0.524799 0.743420 0.335140
0.574698 0.746594 0.341663
0.625487 0.750092 0.348917
0.686612 0.764603 0.355178
0.733650 0.762295 0.356010
0.771510 0.751774 0.354342
0.807155 0.740560 0.353072
0.275632 0.801153 0.275632
0.281168 0.801298 0.275756
0.300057 0.801530 0.276381
0.331216 0.802140 0.277466
0.371730 0.802976 0.279002
0.410906 0.806102 0.290513
0.439976 0.811779 0.313798
0.464047 0.818258 0.337723
0.493374 0.823239 0.354924
0.542921 0.826006 0.360507
0.593449 0.828809 0.366716
0.644868 0.832244 0.373670
0.696948 0.835897 0.381348
0.742831 0.832099 0.380963
0.779957 0.819376 0.377903
0.814681 0.806385 0.375270
0.293394 0.866144 0.293394
0.298537 0.866140 0.293541
0.316170 0.866293 0.294076
0.345677 0.866993 0.295082
0.384554 0.867727 0.296575
0.428477 0.869221 0.300579
0.459299 0.874672 0.323209
0.486526 0.880811 0.346549
0.508040 0.887322 0.370405
0.548841 0.890785 0.380480
0.598674 0.893504 0.386239
0.649557 0.896394 0.392734
0.700918 0.899636 0.399916
0.753192 0.903392 0.407816
0.789283 0.888507 0.403197
0.823166 0.873401 0.399171
0.308360 0.919141 0.308360
0.313109 0.919238 0.308533
0.329373 0.919518 0.309018
0.356908 0.920038 0.309915
0.393493 0.920681 0.311268
0.436900 0.921599 0.313126
0.472238 0.925955 0.329945
0.501217 0.931549 0.352496
0.525944 0.937800 0.375635
0.548583 0.943714 0.396936
0.597115 0.946209 0.402306
0.646674 0.948800 0.408246
0.696955 0.951793 0.414859
0.747852 0.955100 0.422153
0.799279 0.958516 0.429998
0.832126 0.941342 0.424604
0.322670 0.968531 0.322670
0.327018 0.968585 0.322818
0.342023 0.968759 0.323244
0.367568 0.969207 0.324091
0.402007 0.969863 0.325350
0.443210 0.970589 0.327031
0.483240 0.973244 0.336410
0.513302 0.978663 0.358262
0.540076 0.984527 0.380652
0.562162 0.990798 0.403526
0.594710 0.995043 0.417668
0.642963 0.997526 0.423244
0.691958 1.000198 0.429304
0.741683 1.003037 0.436041
0.791645 1.006300 0.443398
0.841565 1.009367 0.451147
0.110839 0.110839 0.113225
0.113335 0.110839 0.113335
0.118248 0.110842 0.112512
0.125246 0.112335 0.113563
0.139147 0.114977 0.116267
0.167048 0.118842 0.120616
0.215482 0.124025 0.126694
0.286811 0.130625 0.134595
0.378259 0.138741 0.144293
0.479614 0.148021 0.155042
0.580779 0.157785 0.165892
0.672987 0.167127 0.175777
0.750105 0.175324 0.184026
0.811266 0.182063 0.190439
0.861551 0.187808 0.195658
0.908277 0.193285 0.200657
0.110839 0.113601 0.113601
0.113707 0.113707 0.113707
0.118427 0.114034 0.114034
0.125359 0.114813 0.114813
0.139223 0.116625 0.116625
0.167104 0.119939 0.119939
0.215540 0.124797 0.124797
0.286825 0.131230 0.131230
0.378258 0.139263 0.139263
0.479629 0.148485 0.148485
0.580768 0.158223 0.158223
0.672992 0.167548 0.167548
0.750111 0.175718 0.175718
0.811275 0.182481 0.182481
0.861564 0.188182 0.188182
0.908216 0.193672 0.193672
0.112587 0.118781 0.113974
0.114762 0.118839 0.114762
0.100905 0.121011 0.140301
0.116876 0.120510 0.129154
0.139756 0.122225 0.117950
0.167843 0.127558 0.121474
0.216503 0.135715 0.126548
0.288009 0.146724 0.133228
0.379533 0.160113 0.141535
0.480971 0.174270 0.150993
0.582071 0.187515 0.160826
0.674159 0.198601 0.170121
0.751253 0.206879 0.178193
0.812394 0.212516 0.184785
0.862552 0.216625 0.190311
0.909077 0.220505 0.195643
0.115386 0.126236 0.116407
0.116821 0.126269 0.116821
0.112324 0.127406 0.129891
0.107371 0.128781 0.143360
0.119333 0.133284 0.146335
0.158368 0.140886 0.136883
0.213203 0.153619 0.134719
0.289418 0.170899 0.137328
0.381930 0.191551 0.145613
0.483406 0.212114 0.155506
0.584477 0.229976 0.165532
0.676488 0.243586 0.174845
0.753402 0.252320 0.182738
0.814153 0.256833 0.189023
0.864033 0.259113 0.194225
0.910665 0.261152 0.199273
0.120146 0.141315 0.121260
0.121051 0.141321 0.121051
0.125247 0.141486 0.121316
0.112295 0.144170 0.148564
0.120571 0.144608 0.149423
0.145150 0.158216 0.155126
0.191985 0.177919 0.159474
0.268751 0.202662 0.160444
0.364068 0.230868 0.165317
0.470013 0.257890 0.171727
0.576859 0.280248 0.178145
0.675932 0.296237 0.183575
0.756412 0.305533 0.189359
0.816947 0.309189 0.195232
0.866707 0.309802 0.199989
0.912967 0.310083 0.204621
0.127616 0.171900 0.129199
0.128225 0.171901 0.128225
0.134137 0.172104 0.128547
0.135582 0.173739 0.141757
0.133732 0.176008 0.158489
0.147452 0.176829 0.159833
0.190250 0.204200 0.169046
0.252176 0.238235 0.180643
0.337737 0.275251 0.190780
0.443079 0.309010 0.196881
0.549359 0.336219 0.202812
0.648378 0.354981 0.207463
0.733374 0.364623 0.210185
0.803012 0.366960 0.211090
0.861711 0.365497 0.211151
0.915865 0.363776 0.211756
0.138864 0.224875 0.141231
0.139345 0.224873 0.139345
0.148075 0.225149 0.139735
0.159764 0.226147 0.144729
0.158971 0.229625 0.167984
0.173023 0.231283 0.174291
0.193950 0.232609 0.176438
0.256657 0.275169 0.190157
0.335780 0.321082 0.205617
0.422304 0.363080 0.220944
0.518304 0.395802 0.230804
0.617761 0.417119 0.234500
0.703615 0.427473 0.235934
0.774309 0.428730 0.235264
0.834392 0.425635 0.233765
0.890040 0.422118 0.232750
0.155347 0.302622 0.158715
0.155761 0.302599 0.155761
0.168019 0.302928 0.156233
0.187976 0.303529 0.157108
0.197597 0.307156 0.177509
0.206140 0.310846 0.195341
0.233373 0.312468 0.198058
0.262143 0.314390 0.201320
0.341857 0.368722 0.219020
0.428664 0.417746 0.235983
0.514157 0.456262 0.250750
0.591071 0.481643 0.262393
0.670935 0.492948 0.264968
0.743391 0.493234 0.262446
0.804976 0.488259 0.259080
0.861977 0.482962 0.256443
0.177228 0.401894 0.181635
0.177614 0.401909 0.177614
0.193452 0.402283 0.178164
0.218851 0.402916 0.179184
0.240040 0.406064 0.194016
0.252027 0.410994 0.216661
0.277391 0.413926 0.226061
0.312583 0.416073 0.229891
0.348965 0.418532 0.234342
0.436173 0.474564 0.253195
0.521551 0.518004 0.269001
0.598114 0.546111 0.280875
0.661267 0.559171 0.288504
0.710962 0.559915 0.292374
0.773415 0.553136 0.287289
0.832112 0.546008 0.282788
0.202541 0.511466 0.207725
0.202876 0.511427 0.202876
0.221390 0.511807 0.203491
0.251022 0.512558 0.204586
0.282391 0.514888 0.213794
0.302458 0.520151 0.236760
0.319231 0.525475 0.257699
0.359795 0.527728 0.261882
0.401773 0.530385 0.266766
0.444741 0.533410 0.272435
0.530046 0.581639 0.289435
0.606119 0.612379 0.301600
0.668739 0.625992 0.308759
0.717317 0.625834 0.311667
0.757005 0.618732 0.312653
0.800113 0.610775 0.311843
0.228922 0.620242 0.234491
0.229216 0.620289 0.229216
0.249139 0.620674 0.229832
0.281238 0.621266 0.230988
0.320919 0.622525 0.233926
0.347054 0.627917 0.257118
0.367785 0.634073 0.280983
0.398871 0.638224 0.294432
0.444735 0.640762 0.299476
0.491709 0.643815 0.305328
0.539658 0.647251 0.311957
0.615272 0.680360 0.324451
0.677216 0.694413 0.331116
0.724979 0.693061 0.332980
0.763859 0.684213 0.332634
0.800188 0.674916 0.332589
0.253932 0.718960 0.259545
0.254216 0.718929 0.254216
0.274349 0.719281 0.254840
0.307027 0.719749 0.255939
0.348916 0.720837 0.257608
0.383113 0.725209 0.275289
0.409281 0.731121 0.299226
0.428720 0.737859 0.323665
0.475067 0.740482 0.329748
0.524289 0.743413 0.335498
0.574447 0.746554 0.342028
0.625495 0.750102 0.349316
0.686576 0.764394 0.355530
0.733484 0.761769 0.356202
0.771472 0.751108 0.354524
0.807136 0.739953 0.353155
0.275681 0.801179 0.281039
0.275945 0.801177 0.275945
0.295317 0.801508 0.276557
0.327176 0.802079 0.277602
0.368463 0.802907 0.279218
0.409373 0.805831 0.289500
0.439035 0.811612 0.313140
0.463534 0.818041 0.337321
0.492400 0.823279 0.355213
0.542193 0.825962 0.360743
0.592956 0.828746 0.367006
0.644732 0.832272 0.374069
0.696954 0.835905 0.381730
0.742885 0.831854 0.381279
0.779975 0.819053 0.378125
0.814690 0.805739 0.375444
0.293450 0.866103 0.298434
0.293744 0.866063 0.293744
0.311748 0.866269 0.294231
0.341860 0.866912 0.295263
0.381338 0.867577 0.296698
0.426837 0.868893 0.299572
0.458199 0.874488 0.322512
0.485897 0.880638 0.346071
0.507737 0.887167 0.370201
0.547997 0.890797 0.380721
0.598170 0.893410 0.386528
0.649259 0.896408 0.393074
0.700872 0.899698 0.400273
0.753199 0.903401 0.408098
0.789199 0.888228 0.403519
0.823004 0.873125 0.399460
0.308418 0.919207 0.313004
0.308693 0.919171 0.308693
0.325323 0.919452 0.309217
0.353260 0.919878 0.310083
0.390429 0.920700 0.311487
0.434329 0.921549 0.313290
0.471014 0.925612 0.329215
0.500443 0.931509 0.351991
0.525478 0.937635 0.375329
0.547657 0.943718 0.397211
0.596428 0.946240 0.402563
0.646338 0.948956 0.408491
0.696598 0.951800 0.415211
0.747599 0.955073 0.422529
0.799165 0.958456 0.430391
0.832198 0.941112 0.424899
0.322706 0.968597 0.326938
0.322996 0.968562 0.322996
0.338248 0.968737 0.323417
0.364263 0.969189 0.324312
0.399084 0.969701 0.325545
0.440737 0.970551 0.327181
0.482062 0.973118 0.335685
0.512450 0.978436 0.357737
0.539573 0.984375 0.380384
0.561863 0.990611 0.403394
0.593931 0.995053 0.417998
0.642399 0.997397 0.423439
0.691608 1.000245 0.429643
0.741337 1.002998 0.436434
0.791630 1.006282 0.443685
0.841574 1.009372 0.451444
0.110839 0.110839 0.118079
0.112469 0.110839 0.118122
0.118304 0.111020 0.118304
0.125290 0.112519 0.117984
0.139197 0.115152 0.120925
0.167123 0.119025 0.126868
0.215609 0.124221 0.135875
0.286925 0.130831 0.147899
0.378375 0.138978 0.162437
0.479790 0.148266 0.177603
0.580870 0.158053 0.191665
0.672992 0.167397 0.203242
0.750081 0.175596 0.211730
0.811439 0.182302 0.217318
0.861636 0.187994 0.221217
0.908345 0.193490 0.224880
0.110849 0.112510 0.118247
0.113829 0.113829 0.118302
0.118486 0.114154 0.118486
0.125402 0.114932 0.118756
0.139275 0.116777 0.121211
0.167183 0.120108 0.126299
0.215638 0.124982 0.134272
0.286960 0.131432 0.145097
0.378381 0.139483 0.158316
0.479806 0.148749 0.172343
0.580876 0.158488 0.185548
0.672997 0.167812 0.196662
0.750081 0.175980 0.204997
0.811448 0.182711 0.210756
0.861649 0.188418 0.214977
0.908232 0.193866 0.218963
0.112732 0.118842 0.118842
0.114850 0.118890 0.118890
0.119063 0.119063 0.119063
0.125763 0.119481 0.119481
0.139532 0.120620 0.120620
0.167369 0.123086 0.123086
0.215779 0.127283 0.127283
0.287071 0.133306 0.133306
0.378411 0.141108 0.141108
0.479782 0.150244 0.150244
0.580878 0.159880 0.159880
0.672993 0.169130 0.169130
0.750084 0.177270 0.177270
0.811455 0.183968 0.183968
0.861671 0.189672 0.189672
0.908269 0.195137 0.195137
0.115490 0.126284 0.120068
0.116906 0.126314 0.120326
0.120407 0.126411 0.120407
0.107404 0.128814 0.147296
0.126445 0.131642 0.141535
0.165586 0.137045 0.129748
0.217620 0.147028 0.130361
0.289279 0.161011 0.136963
0.380831 0.177846 0.145356
0.482288 0.195018 0.154892
0.583400 0.210376 0.164702
0.675368 0.222527 0.173917
0.752377 0.230841 0.181854
0.813239 0.235752 0.188269
0.863284 0.238796 0.193614
0.909884 0.241627 0.198789
0.120239 0.141364 0.125250
0.121135 0.141379 0.125079
0.123724 0.141433 0.123724
0.118786 0.143346 0.142985
0.120586 0.144620 0.152325
0.144996 0.156619 0.157143
0.197353 0.173477 0.156175
0.274610 0.195341 0.156327
0.370731 0.220721 0.160682
0.477258 0.245229 0.166746
0.584628 0.265714 0.173006
0.678737 0.280745 0.180948
0.755533 0.289757 0.188592
0.816178 0.293436 0.194550
0.865886 0.294413 0.199429
0.912172 0.295073 0.204175
0.127725 0.171953 0.134751
0.128339 0.171956 0.133946
0.130237 0.171993 0.130237
0.139286 0.172738 0.134326
0.132541 0.175974 0.160612
0.147451 0.176848 0.162010
0.189989 0.202289 0.170541
0.251752 0.234058 0.181492
0.342764 0.268291 0.188147
0.448700 0.299940 0.193647
0.555350 0.325627 0.199244
0.654496 0.343179 0.203739
0.739821 0.352375 0.206486
0.809331 0.354590 0.207519
0.867769 0.353288 0.207777
0.915280 0.352120 0.211349
0.138990 0.224965 0.149445
0.139479 0.224964 0.147827
0.141023 0.224945 0.141023
0.157293 0.225497 0.141752
0.160655 0.228879 0.164729
0.171629 0.231220 0.176018
0.193960 0.232636 0.178308
0.256439 0.273213 0.191416
0.335301 0.317073 0.206237
0.421763 0.357174 0.221051
0.523052 0.388094 0.228400
0.622746 0.408333 0.231837
0.708793 0.417981 0.233160
0.779445 0.419161 0.232567
0.839386 0.415977 0.231142
0.895088 0.412557 0.230273
0.155510 0.302767 0.170291
0.155919 0.302737 0.167724
0.157256 0.302677 0.157256
0.179709 0.303328 0.158168
0.196815 0.306155 0.173503
0.203071 0.310730 0.196797
0.231942 0.312373 0.199588
0.262164 0.314409 0.203001
0.341620 0.366953 0.220099
0.428260 0.414106 0.236482
0.513575 0.451152 0.250814
0.590532 0.475475 0.262210
0.675352 0.485767 0.262944
0.747644 0.485720 0.260392
0.809253 0.480602 0.257054
0.866121 0.475279 0.254520
0.177438 0.402046 0.196579
0.177781 0.402005 0.193083
0.178981 0.401929 0.178981
0.207568 0.402647 0.180028
0.236768 0.404890 0.189397
0.251182 0.410155 0.214336
0.274415 0.413757 0.227326
0.311155 0.415988 0.231272
0.348991 0.418565 0.235882
0.435942 0.472885 0.254156
0.521170 0.514835 0.269486
0.597669 0.541816 0.281008
0.660852 0.554088 0.288458
0.713136 0.554196 0.291351
0.776820 0.547007 0.285793
0.835596 0.539759 0.281307
0.202754 0.511555 0.225239
0.203085 0.511574 0.221003
0.204167 0.511475 0.204167
0.237394 0.512219 0.205291
0.276873 0.513551 0.208681
0.299860 0.519174 0.233773
0.314890 0.525347 0.258739
0.357157 0.527634 0.263022
0.400499 0.530272 0.268015
0.444769 0.533436 0.273858
0.529889 0.580233 0.290319
0.605812 0.609657 0.302099
0.668363 0.622389 0.308991
0.716989 0.621594 0.311781
0.756556 0.614205 0.312720
0.802942 0.605780 0.310787
0.229109 0.620425 0.253395
0.229432 0.620430 0.248758
0.230404 0.620277 0.230404
0.266113 0.621047 0.231581
0.310213 0.622090 0.233313
0.342924 0.626882 0.253692
0.365899 0.633209 0.279001
0.395064 0.637986 0.295384
0.442379 0.640711 0.300583
0.490575 0.643732 0.306525
0.539671 0.647270 0.313215
0.615123 0.679072 0.325315
0.676955 0.692146 0.331623
0.724615 0.690161 0.333338
0.763478 0.680843 0.332870
0.799798 0.671310 0.332797
0.254126 0.719112 0.278699
0.254403 0.719062 0.273948
0.255363 0.718969 0.255363
0.291420 0.719608 0.256497
0.336499 0.720595 0.258201
0.377774 0.723983 0.271525
0.406389 0.730359 0.296824
0.427574 0.737215 0.322328
0.471896 0.740439 0.330625
0.522283 0.743304 0.336500
0.573537 0.746393 0.343143
0.625478 0.750135 0.350577
0.686442 0.763321 0.356321
0.733307 0.759920 0.356851
0.771278 0.748645 0.354975
0.806825 0.737038 0.353539
0.275886 0.801286 0.299575
0.276135 0.801250 0.294939
0.277031 0.801221 0.277031
0.311798 0.801711 0.278131
0.356013 0.802627 0.279729
0.403340 0.804696 0.285582
0.435286 0.810754 0.310483
0.461572 0.817338 0.335687
0.488620 0.823173 0.356075
0.539574 0.825816 0.361677
0.591256 0.828732 0.368003
0.643875 0.832159 0.375089
0.696975 0.835932 0.382912
0.742896 0.830812 0.382143
0.779866 0.817495 0.378799
0.814530 0.803863 0.375961
0.293644 0.866148 0.315773
0.293896 0.866112 0.311418
0.294781 0.866065 0.294781
0.327238 0.866700 0.295768
0.369253 0.867460 0.297254
0.417607 0.868492 0.299266
0.453903 0.873579 0.319742
0.483256 0.879794 0.344269
0.506460 0.886645 0.369145
0.544962 0.890770 0.381625
0.595921 0.893262 0.387461
0.647854 0.896263 0.394073
0.700179 0.899754 0.401304
0.753220 0.903449 0.409274
0.789073 0.887512 0.404433
0.822972 0.871748 0.400118
0.308612 0.919345 0.329017
0.308884 0.919309 0.324991
0.309747 0.919264 0.309747
0.339658 0.919828 0.310635
0.378918 0.920389 0.312049
0.424785 0.921359 0.313876
0.466434 0.924756 0.326460
0.497426 0.930648 0.350089
0.523692 0.936966 0.374105
0.544227 0.943585 0.398040
0.593907 0.946102 0.403401
0.644382 0.948706 0.409510
0.695417 0.951652 0.416218
0.747161 0.955062 0.423584
0.799191 0.958492 0.431545
0.832074 0.940553 0.425750
0.322868 0.968554 0.341652
0.323126 0.968659 0.337963
0.324016 0.968523 0.324016
0.351526 0.968999 0.324841
0.388226 0.969671 0.326097
0.431566 0.970457 0.327785
0.477251 0.972167 0.332918
0.509079 0.977671 0.355759
0.537407 0.983706 0.379018
0.560655 0.990152 0.402631
0.591205 0.994907 0.418781
0.640305 0.997356 0.424392
0.689965 1.000069 0.430599
0.740478 1.002995 0.437360
0.791142 1.006381 0.444744
0.841535 1.009274 0.452493
0.110839 0.110839 0.124949
0.112290 0.110940 0.124982
0.117481 0.111762 0.125118
0.125368 0.112864 0.125368
0.139303 0.115468 0.128845
0.167252 0.119352 0.137369
0.215797 0.124554 0.150919
0.287147 0.131206 0.168984
0.378634 0.139395 0.190255
0.480052 0.148755 0.211440
0.581137 0.158538 0.229881
0.673260 0.167875 0.243951
0.750438 0.176048 0.253020
0.811497 0.182751 0.257742
0.861871 0.188424 0.260128
0.908549 0.193841 0.262188
0.111513 0.112804 0.125075
0.114106 0.114106 0.125093
0.118416 0.114489 0.125234
0.125486 0.115132 0.125486
0.139392 0.117039 0.129017
0.167307 0.120401 0.136991
0.215815 0.125314 0.149722
0.287188 0.131812 0.166885
0.378652 0.139911 0.187158
0.480028 0.149211 0.207488
0.581146 0.158974 0.225294
0.673268 0.168309 0.238968
0.750446 0.176444 0.247894
0.811507 0.183147 0.252674
0.861885 0.188818 0.255206
0.908568 0.194264 0.257451
0.113435 0.118589 0.125538
0.115300 0.119055 0.125560
0.119207 0.119207 0.125578
0.125859 0.119621 0.125859
0.139637 0.120813 0.128794
0.167496 0.123356 0.134810
0.215942 0.127612 0.144609
0.287316 0.133681 0.158232
0.378674 0.141542 0.174748
0.480087 0.150703 0.191712
0.581134 0.160370 0.207038
0.673270 0.169628 0.219230
0.750448 0.177750 0.227672
0.811519 0.184390 0.232765
0.861910 0.190077 0.236000
0.908519 0.195478 0.239009
0.115681 0.126368 0.126368
0.117074 0.126401 0.126401
0.120524 0.126501 0.126501
0.126770 0.126770 0.126770
0.140286 0.127542 0.127542
0.168020 0.129383 0.129383
0.216339 0.132844 0.132844
0.287519 0.138264 0.138264
0.378892 0.145711 0.145711
0.480195 0.154588 0.154588
0.581256 0.164024 0.164024
0.673382 0.173115 0.173115
0.750573 0.181139 0.181139
0.811597 0.187770 0.187770
0.861915 0.193383 0.193383
0.908574 0.198783 0.198783
0.120432 0.141455 0.132146
0.121315 0.141479 0.132060
0.123892 0.141532 0.131336
0.129293 0.141711 0.129293
0.120649 0.144695 0.158563
0.149385 0.152519 0.157487
0.209790 0.163622 0.147455
0.287784 0.179624 0.146700
0.382699 0.199077 0.152207
0.484123 0.218643 0.161675
0.585086 0.235589 0.171349
0.676992 0.248377 0.180389
0.753705 0.256537 0.188071
0.814505 0.260637 0.194206
0.864491 0.262595 0.199344
0.910936 0.264414 0.204261
0.127919 0.172091 0.144264
0.128532 0.172093 0.143692
0.130437 0.172133 0.141094
0.134937 0.172202 0.134937
0.134665 0.175310 0.160504
0.147523 0.176924 0.167250
0.189592 0.198234 0.174480
0.255877 0.224867 0.181114
0.353506 0.253955 0.183009
0.460440 0.281422 0.187508
0.567906 0.303925 0.192513
0.667554 0.319440 0.196796
0.752917 0.327731 0.199674
0.818481 0.330142 0.202720
0.867977 0.329722 0.207195
0.914134 0.329085 0.211560
0.139235 0.225134 0.163224
0.139716 0.225137 0.161981
0.141268 0.225130 0.156842
0.145152 0.225148 0.145152
0.164011 0.227115 0.155968
0.168622 0.231101 0.180455
0.194026 0.232676 0.182932
0.255973 0.269178 0.194783
0.334449 0.308976 0.208412
0.424944 0.345095 0.220373
0.532814 0.372696 0.224337
0.632907 0.390978 0.227271
0.719013 0.399573 0.228468
0.789746 0.400427 0.227959
0.849436 0.397346 0.226814
0.904908 0.394141 0.226143
0.155805 0.302927 0.189211
0.156228 0.302917 0.187211
0.157585 0.302900 0.179168
0.161022 0.302871 0.161022
0.194402 0.304057 0.163648
0.202210 0.309693 0.195776
0.228951 0.312228 0.203568
0.262182 0.314438 0.207196
