example_ofxGpuLutCube/bin/data/ofxGpuLutCube/LUT/V25 (vintage faded).cube
LUT_3D_SIZE 6
0.110839 0.110839 0.110839
0.125228 0.112271 0.112271
0.215462 0.123982 0.123982
0.479610 0.147959 0.147959
0.750066 0.175259 0.175259
0.908348 0.193215 0.193215
0.115350 0.126219 0.115350
0.107364 0.128764 0.141817
0.211384 0.155264 0.136279
0.483752 0.216380 0.155618
0.753634 0.257761 0.182895
0.910828 0.266155 0.199355
0.138828 0.224844 0.138828
0.159581 0.226418 0.146379
0.193940 0.232600 0.175862
0.422507 0.364630 0.220846
0.702162 0.429931 0.236635
0.888728 0.424670 0.233367
0.202531 0.511451 0.202531
0.254479 0.512614 0.204385
0.320403 0.525614 0.257365
0.444760 0.533401 0.271991
0.668883 0.626961 0.308632
0.799175 0.612081 0.312080
0.275632 0.801153 0.275632
0.331216 0.802140 0.277466
0.439976 0.811779 0.313798
0.542921 0.826006 0.360507
0.696948 0.835897 0.381348
0.814681 0.806385 0.375270
0.322670 0.968531 0.322670
0.367568 0.969207 0.324091
0.483240 0.973244 0.336410
0.562162 0.990798 0.403526
0.691958 1.000198 0.429304
0.841565 1.009367 0.451147
0.110839 0.110839 0.124949
0.125368 0.112864 0.125368
0.215797 0.124554 0.150919
0.480052 0.148755 0.211440
0.750438 0.176048 0.253020
0.908549 0.193841 0.262188
0.115681 0.126368 0.126368
0.126770 0.126770 0.126770
0.216339 0.132844 0.132844
0.480195 0.154588 0.154588
0.750573 0.181139 0.181139
0.908574 0.198783 0.198783
0.139235 0.225134 0.163224
0.145152 0.225148 0.145152
0.194026 0.232676 0.182932
0.424944 0.345095 0.220373
0.719013 0.399573 0.228468
0.904908 0.394141 0.226143
0.203164 0.511814 0.253473
0.207352 0.511626 0.207352
0.313523 0.523830 0.256413
0.444841 0.533503 0.277378
0.667678 0.615647 0.310328
0.808786 0.596505 0.309592
0.276223 0.801520 0.330197
0.279762 0.801308 0.279762
0.427776 0.808820 0.305692
0.534479 0.825514 0.364290
0.696977 0.835934 0.385938
0.814176 0.800253 0.377844
0.323139 0.968746 0.366771
0.326535 0.968497 0.326535
0.465138 0.971251 0.331770
0.558421 0.989064 0.401676
0.687275 0.999869 0.433069
0.841531 1.009329 0.455288
0.117545 0.117545 0.212808
0.147442 0.120040 0.213696
0.216818 0.126524 0.216818
0.481524 0.151550 0.341323
0.751813 0.178829 0.410317
0.909453 0.196077 0.410484
0.124532 0.150893 0.215776
0.128952 0.128952 0.213826
0.217631 0.134724 0.217631
0.481773 0.157528 0.324683
0.751901 0.184014 0.383629
0.909499 0.201032 0.382787
0.140677 0.226161 0.226161
0.146819 0.226396 0.226396
0.230065 0.230065 0.230065
0.489538 0.245620 0.245620
0.757694 0.266596 0.266596
0.914696 0.281208 0.281208
0.205416 0.513207 0.374089
0.209824 0.513195 0.357834
0.280678 0.514932 0.280678
0.445474 0.534291 0.359511
0.664892 0.576614 0.380911
0.865122 0.547636 0.353481
0.278369 0.802646 0.466962
0.282075 0.802534 0.442500
0.344764 0.803703 0.344764
0.505818 0.825153 0.435536
0.697490 0.836528 0.457654
0.813168 0.783114 0.446484
0.324876 0.969694 0.486494
0.328339 0.969462 0.462752
0.387374 0.970636 0.387374
0.561108 0.982512 0.434231
0.674730 0.999913 0.500263
0.842213 1.010091 0.522011
0.129162 0.129162 0.470531
0.199981 0.132024 0.471767
0.335832 0.141259 0.476161
0.484246 0.156603 0.484246
0.754165 0.183911 0.582204
0.911142 0.200159 0.576213
0.138219 0.204106 0.474633
0.137254 0.137254 0.471207
0.318615 0.146753 0.476002
0.484802 0.162835 0.484802
0.754307 0.189208 0.572608
0.911418 0.205174 0.562945
0.165794 0.349367 0.489410
0.167196 0.330391 0.487221
0.235414 0.235414 0.482298
0.493219 0.250809 0.493219
0.760408 0.271366 0.541734
0.916491 0.284888 0.524000
0.209582 0.515887 0.515887
0.214300 0.516018 0.516018
0.285523 0.518502 0.518502
0.529030 0.529030 0.529030
0.787985 0.543456 0.543456
0.940927 0.553684 0.553684
0.282477 0.804914 0.632881
0.286273 0.804840 0.623176
0.348945 0.806223 0.591012
0.576856 0.814371 0.576856
0.699684 0.839198 0.720255
0.824685 0.791067 0.712346
0.328037 0.971262 0.639799
0.331535 0.971247 0.627280
0.390564 0.972395 0.591330
0.609732 0.979708 0.609732
0.691107 1.001994 0.746557
0.843984 1.012228 0.771377
0.140485 0.140485 0.735428
0.232074 0.143229 0.736360
0.398399 0.152661 0.740228
0.575581 0.168883 0.747229
0.757706 0.191353 0.757706
0.913727 0.206151 0.746192
0.149490 0.235846 0.738869
0.147610 0.147610 0.735790
0.370617 0.157223 0.739901
0.565636 0.173809 0.747117
0.758038 0.196868 0.758038
0.913947 0.211243 0.740934
0.178749 0.410255 0.751735
0.178303 0.380726 0.749236
0.242784 0.242784 0.744524
0.533490 0.257355 0.752440
0.764374 0.278419 0.764374
0.919289 0.290244 0.728981
0.225993 0.602377 0.774693
0.227608 0.591282 0.773395
0.290328 0.553218 0.771158
0.533899 0.533899 0.780538
0.791731 0.548318 0.791731
0.943374 0.557286 0.754402
0.288461 0.808217 0.808217
0.292483 0.808324 0.808324
0.355225 0.810153 0.810153
0.581537 0.818200 0.818200
0.828923 0.828923 0.828923
0.976391 0.836723 0.836723
0.332811 0.973604 0.805824
0.336379 0.973636 0.800551
0.395194 0.974966 0.786841
0.613106 0.982089 0.798381
0.854933 0.992200 0.854933
0.846689 1.015534 1.051816
0.147828 0.147828 0.890820
0.233166 0.150023 0.891567
0.393423 0.157741 0.894405
0.564751 0.171237 0.899468
0.739733 0.190199 0.907010
0.916956 0.214075 0.916955
0.155142 0.236308 0.893480
0.154643 0.154643 0.891363
0.364078 0.162371 0.894112
0.551026 0.175947 0.899376
0.734214 0.195072 0.907022
0.917211 0.219284 0.917211
0.179515 0.402715 0.902743
0.179675 0.372055 0.900783
0.248027 0.248027 0.898636
0.509604 0.259392 0.903964
0.721951 0.275945 0.912160
0.922733 0.297539 0.922733
0.219790 0.584717 0.919588
0.220919 0.569876 0.918116
0.285356 0.524330 0.916935
0.537452 0.537452 0.929847
0.747155 0.547992 0.936970
0.946335 0.561950 0.946336
0.273720 0.776248 0.944387
0.276037 0.770182 0.943653
0.337227 0.753936 0.943585
0.572407 0.766151 0.953756
0.831646 0.831646 0.971861
0.978635 0.839315 0.978636
0.338997 0.976664 0.976663
0.342712 0.976829 0.976828
0.401372 0.978169 0.978171
0.617550 0.985096 0.985098
0.857504 0.994427 0.994429
0.998056 0.999710 1.001630
