example_ofxGpuLutCube/bin/data/ofxGpuLutCube/LUT/V26 (retro moody).cube
LUT_3D_SIZE 16
0.062745 0.050980 0.078431
0.067451 0.050980 0.078431
0.076079 0.054902 0.079215
0.091765 0.058040 0.079215
0.103529 0.054118 0.076863
0.129412 0.054902 0.078431
0.149020 0.057255 0.074510
0.181177 0.062745 0.083137
0.218823 0.069019 0.083137
0.253334 0.076078 0.076863
0.313725 0.086275 0.078431
0.377255 0.107451 0.060392
0.458824 0.133334 0.044706
0.562353 0.174118 0.013333
0.706666 0.236863 0.000000
0.873373 0.297686 0.000000
0.063530 0.054902 0.080784
0.069804 0.053019 0.079216
0.077333 0.053647 0.081098
0.088627 0.054902 0.076079
0.104314 0.054902 0.078118
0.123922 0.059608 0.076078
0.149804 0.064157 0.077176
0.178353 0.066039 0.077176
0.210353 0.068549 0.077176
0.261019 0.080000 0.075137
0.305882 0.090196 0.070588
0.374745 0.109961 0.060706
0.454118 0.139608 0.048628
0.565177 0.181647 0.016000
0.703843 0.236235 0.002510
0.872596 0.299223 0.000016
0.066667 0.062745 0.092549
0.070588 0.058980 0.081098
0.078431 0.059451 0.082981
0.091608 0.059451 0.081725
0.107921 0.062274 0.083608
0.123138 0.063529 0.075294
0.150588 0.069020 0.081255
0.184000 0.070118 0.084236
0.209098 0.076392 0.081098
0.259294 0.087687 0.076392
0.309804 0.094118 0.072941
0.368314 0.115608 0.065255
0.454588 0.141020 0.050980
0.553725 0.180549 0.020235
0.689882 0.240784 0.002353
0.856894 0.308549 0.003106
0.069804 0.059608 0.086275
0.073726 0.065883 0.085491
0.077804 0.069490 0.088000
0.090981 0.069490 0.086745
0.113569 0.067922 0.082980
0.132549 0.066667 0.087843
0.158118 0.074039 0.085647
0.185883 0.080157 0.078588
0.221020 0.086431 0.080471
0.271843 0.092078 0.078902
0.319216 0.106667 0.069804
0.390902 0.128157 0.067765
0.473412 0.155451 0.049726
0.582588 0.205019 0.006431
0.725647 0.262745 0.001726
0.888330 0.330510 0.003137
0.076078 0.072157 0.093333
0.071529 0.074039 0.087373
0.083608 0.077333 0.094745
0.090510 0.080471 0.084078
0.111059 0.079530 0.087216
0.129412 0.085490 0.091765
0.156863 0.083137 0.091137
0.190588 0.088157 0.084392
0.228235 0.094431 0.086902
0.271373 0.104313 0.081726
0.327059 0.116863 0.080784
0.400627 0.141019 0.068235
0.489255 0.173333 0.051922
0.599059 0.223529 0.010510
0.744314 0.284392 0.004236
0.901796 0.349404 0.004706
0.078431 0.082353 0.098039
0.075294 0.086275 0.096471
0.081569 0.087844 0.105882
0.087843 0.090980 0.093333
0.106667 0.092549 0.098039
0.125490 0.090196 0.094118
0.155294 0.094118 0.097255
0.188236 0.102745 0.090196
0.238432 0.109020 0.093334
0.275294 0.112941 0.087059
0.329412 0.137255 0.078431
0.400784 0.152941 0.068235
0.487059 0.185882 0.049412
0.596863 0.236078 0.005490
0.739608 0.298039 0.001569
0.904784 0.360392 0.000039
0.090981 0.094902 0.110588
0.085020 0.097883 0.108705
0.085020 0.098824 0.107608
0.089412 0.105098 0.102588
0.107451 0.113411 0.101020
0.126275 0.117647 0.101176
0.156863 0.115294 0.099921
0.194510 0.119372 0.100235
0.237177 0.128157 0.100863
0.287843 0.141333 0.097098
0.345883 0.153726 0.091765
0.421019 0.181804 0.077020
0.509647 0.219451 0.050039
0.626353 0.269020 0.006118
0.770039 0.333490 0.003451
0.926839 0.398055 0.000086
0.094902 0.109019 0.124706
0.093176 0.109961 0.120157
0.088314 0.120000 0.124549
0.094588 0.128157 0.125176
0.112000 0.129726 0.114196
0.130196 0.135686 0.109804
0.160470 0.136470 0.106667
0.192157 0.139765 0.105412
0.236706 0.145412 0.112941
0.291294 0.165177 0.109490
0.365490 0.183529 0.101177
0.450666 0.214118 0.083137
0.548392 0.254118 0.050353
0.672000 0.310588 0.005176
0.812235 0.371765 0.001569
0.953694 0.437247 0.000039
0.098039 0.130980 0.127843
0.100706 0.129412 0.132706
0.098980 0.138823 0.140863
0.097725 0.141961 0.133961
0.105726 0.151059 0.123608
0.130196 0.157647 0.116078
0.159843 0.163451 0.111686
0.194667 0.159216 0.111686
0.231686 0.167373 0.111686
0.288157 0.182745 0.110118
0.359216 0.208628 0.098039
0.461961 0.241098 0.093804
0.562824 0.291137 0.054118
0.688941 0.345098 0.008942
0.824784 0.408157 0.003451
0.963043 0.471757 0.000039
0.106667 0.155294 0.153726
0.107764 0.158275 0.152471
0.109176 0.164706 0.149647
0.109804 0.170980 0.142745
0.109647 0.180392 0.141647
0.125490 0.184313 0.138823
0.161569 0.199686 0.129412
0.205333 0.204863 0.119529
0.242353 0.205490 0.118274
0.290510 0.214275 0.112941
0.363137 0.241569 0.105882
0.461176 0.282353 0.087529
0.576628 0.334902 0.058196
0.719686 0.401412 0.004863
0.867765 0.459451 0.001412
0.977412 0.507192 0.004659
0.121569 0.184314 0.172549
0.111372 0.196863 0.163921
0.110588 0.200784 0.163137
0.107451 0.213333 0.169411
0.115294 0.221961 0.163137
0.121569 0.235294 0.149020
0.160000 0.247843 0.142745
0.210196 0.262745 0.132549
0.269804 0.265883 0.129412
0.312941 0.272157 0.119216
0.376471 0.286275 0.113725
0.465882 0.327058 0.084706
0.591372 0.392941 0.043137
0.751373 0.468235 0.002353
0.917647 0.528627 0.000000
0.995882 0.560627 0.003883
0.112941 0.241569 0.196863
0.110902 0.242039 0.198118
0.105882 0.254745 0.188863
0.095216 0.261647 0.189490
0.088627 0.274980 0.184157
0.090196 0.290196 0.177255
0.140863 0.308863 0.163294
0.202980 0.329882 0.141176
0.272628 0.348078 0.123608
0.340079 0.352628 0.123294
0.398431 0.363922 0.110588
0.467765 0.380078 0.089726
0.585255 0.443294 0.044863
0.739608 0.517961 0.007216
0.907765 0.577098 0.002510
0.994941 0.618604 0.000016
0.072157 0.326274 0.237647
0.060235 0.328784 0.223216
0.057098 0.335058 0.232627
0.049569 0.347608 0.229490
0.032628 0.359843 0.227765
0.015686 0.384314 0.211765
0.068236 0.401412 0.187294
0.156392 0.426980 0.166902
0.263059 0.454588 0.133647
0.357334 0.467608 0.097255
0.445490 0.478431 0.083922
0.514980 0.493804 0.066196
0.604706 0.519059 0.031373
0.744627 0.584314 0.006902
0.901647 0.645490 0.000471
0.998776 0.671255 0.003883
0.006274 0.454902 0.294118
0.001883 0.463059 0.291608
0.002510 0.476235 0.298510
0.002510 0.491294 0.297882
0.003765 0.505411 0.288628
0.003138 0.534902 0.265098
0.002980 0.562039 0.244392
0.029020 0.592000 0.215216
0.198432 0.624627 0.159373
0.371764 0.651451 0.069647
0.483137 0.669804 0.011765
0.591530 0.687059 0.005334
0.699451 0.701020 0.000000
0.816785 0.721098 0.000628
0.941177 0.746510 0.002353
0.999059 0.759098 0.075318
0.000000 0.627451 0.392941
0.000941 0.642667 0.394980
0.005961 0.651764 0.399058
0.002824 0.668078 0.395294
0.002824 0.684392 0.392314
0.001569 0.709804 0.376471
0.000000 0.740392 0.351372
0.002196 0.768785 0.309020
0.034196 0.794510 0.268235
0.305255 0.818666 0.195608
0.483137 0.838432 0.083137
0.639843 0.840314 0.069333
0.759843 0.849255 0.074353
0.886588 0.854902 0.083137
0.971451 0.844392 0.120157
0.997639 0.829145 0.233850
0.000000 0.841804 0.540235
0.000000 0.845043 0.548722
0.003114 0.852894 0.561177
0.000071 0.865443 0.551859
0.002400 0.876463 0.549490
0.000039 0.885216 0.551765
0.013976 0.898745 0.537514
0.104831 0.917584 0.532526
0.284972 0.924016 0.504071
0.409796 0.943608 0.447702
0.548314 0.948432 0.374549
0.702996 0.949961 0.377545
0.833937 0.946855 0.396305
0.950141 0.946949 0.421278
0.998298 0.929710 0.477569
0.999960 0.909412 0.546312
0.061961 0.054902 0.083137
0.072628 0.054274 0.083608
0.080471 0.054118 0.084392
0.091765 0.052235 0.085647
0.103059 0.055530 0.082196
0.123137 0.061177 0.087059
0.144941 0.062118 0.077961
0.180392 0.069020 0.082353
0.214902 0.072157 0.078588
0.252706 0.080000 0.073098
0.307451 0.091765 0.072157
0.370667 0.107451 0.061804
0.454588 0.137568 0.049725
0.560000 0.176471 0.018353
0.693333 0.234196 0.000000
0.861616 0.301537 0.002330
0.063059 0.056627 0.080784
0.074039 0.054400 0.087655
0.073380 0.058635 0.080220
0.091702 0.057255 0.086871
0.105475 0.060079 0.087153
0.124392 0.062431 0.085490
0.150055 0.064251 0.077678
0.176722 0.068863 0.081537
0.212486 0.074761 0.083545
0.252141 0.080659 0.076831
0.306510 0.095529 0.080157
0.367466 0.109396 0.071467
0.453082 0.135937 0.054557
0.556360 0.177976 0.018039
0.694808 0.238023 0.001945
0.857283 0.300456 0.002802
0.073098 0.056000 0.088628
0.069239 0.058855 0.085239
0.077710 0.063027 0.088471
0.090636 0.062651 0.086212
0.105663 0.064816 0.085710
0.125020 0.061490 0.083451
0.149114 0.067922 0.085553
0.177506 0.070871 0.085334
0.214024 0.077270 0.084330
0.252988 0.082071 0.081192
0.304941 0.094274 0.071529
0.369945 0.112188 0.066008
0.447184 0.140424 0.055530
0.550212 0.179953 0.022275
0.679937 0.236392 0.002133
0.840864 0.304976 0.008425
0.072471 0.060392 0.088000
0.072628 0.066008 0.091263
0.077710 0.067796 0.092737
0.091138 0.069427 0.087969
0.112063 0.069710 0.087592
0.128157 0.072157 0.090981
0.154635 0.074573 0.087310
0.184910 0.077898 0.093490
0.219922 0.084800 0.089977
0.266039 0.094996 0.082824
0.312470 0.103059 0.085961
0.383498 0.125867 0.073412
0.465757 0.155106 0.057914
0.567780 0.198651 0.021145
0.709929 0.259231 0.000878
0.869708 0.326328 0.000940
0.078117 0.072941 0.095373
0.078180 0.074761 0.099733
0.081035 0.074635 0.092643
0.089694 0.081412 0.095529
0.110400 0.080847 0.092518
0.125333 0.082981 0.086589
0.161537 0.083733 0.093679
0.186384 0.088000 0.094588
0.225286 0.094024 0.087687
0.267859 0.103153 0.085961
0.322824 0.117804 0.084235
0.391466 0.137004 0.075514
0.476486 0.166024 0.055091
0.586666 0.215090 0.013804
0.725898 0.275294 0.000377
0.892072 0.343393 0.004348
0.083137 0.079216 0.102745
0.082981 0.085647 0.104000
0.090823 0.085804 0.106980
0.092706 0.093961 0.103843
0.103372 0.095216 0.097412
0.131765 0.095686 0.090196
0.157961 0.096471 0.095529
0.192941 0.102275 0.099608
0.229334 0.105411 0.104000
0.266980 0.118745 0.090510
0.327843 0.133333 0.087843
0.392941 0.152313 0.076706
0.471059 0.181176 0.056000
0.591529 0.228863 0.019608
0.724392 0.291765 0.000000
0.886816 0.359553 0.002330
0.096000 0.094274 0.111529
0.088878 0.099294 0.113945
0.091169 0.102149 0.113600
0.095059 0.105537 0.110463
0.107074 0.110525 0.105976
0.126745 0.113098 0.104627
0.157176 0.113914 0.103686
0.191341 0.120125 0.102651
0.233757 0.127153 0.100141
0.284800 0.137725 0.098761
0.345255 0.154980 0.094432
0.415749 0.177035 0.080345
0.504627 0.212173 0.056377
0.618447 0.260486 0.009945
0.761129 0.323263 0.002196
0.912762 0.390783 0.002850
0.098981 0.109490 0.122980
0.093333 0.115043 0.119153
0.097318 0.114949 0.123984
0.098447 0.121977 0.119843
0.107671 0.126525 0.115953
0.125961 0.134745 0.109490
0.160753 0.137255 0.113725
0.189992 0.137725 0.105694
0.240063 0.145757 0.107325
0.295373 0.162227 0.108737
0.360314 0.181177 0.094588
0.439655 0.210698 0.086055
0.534745 0.248784 0.060926
0.655969 0.303874 0.009098
0.799090 0.365929 0.002165
0.948427 0.427243 0.001572
0.097098 0.125804 0.136157
0.101616 0.131608 0.129820
0.100957 0.136909 0.131012
0.106604 0.141427 0.137412
0.108925 0.146228 0.128251
0.123451 0.156706 0.123921
0.155231 0.159969 0.121757
0.192627 0.162698 0.115859
0.231153 0.170730 0.108455
0.284580 0.180423 0.112502
0.356549 0.209412 0.104627
0.449192 0.235796 0.096596
0.549553 0.284549 0.067451
0.673788 0.335623 0.008094
0.815279 0.399184 0.003796
0.961603 0.455528 0.002827
0.107608 0.154666 0.146353
0.110619 0.157773 0.147576
0.112188 0.162824 0.148706
0.107922 0.166086 0.148957
0.116141 0.175843 0.143655
0.123451 0.183216 0.135372
0.156674 0.193694 0.126902
0.199686 0.203482 0.120125
0.238212 0.205616 0.117992
0.284329 0.211608 0.116423
0.355451 0.237647 0.109960
0.449569 0.278212 0.096502
0.570855 0.330039 0.064000
0.707514 0.391906 0.009286
0.855216 0.451483 0.002322
0.978914 0.501520 0.001272
0.114510 0.181961 0.165490
0.114039 0.190275 0.171765
0.114823 0.198117 0.159059
0.112941 0.203138 0.162196
0.112628 0.214588 0.162353
0.124706 0.227451 0.148235
0.157333 0.244863 0.144627
0.207843 0.257726 0.138196
0.253647 0.267765 0.130039
0.305098 0.265882 0.124706
0.364706 0.282353 0.110588
0.457412 0.323294 0.102275
0.584627 0.384941 0.056784
0.741490 0.453961 0.004078
0.902118 0.522980 0.001569
0.999576 0.556698 0.005451
0.112627 0.235451 0.189804
0.112439 0.239121 0.193192
0.105475 0.247310 0.188769
0.108863 0.253584 0.190149
0.100455 0.268392 0.185976
0.097726 0.285804 0.175059
0.133051 0.306039 0.165020
0.195231 0.322918 0.144219
0.267765 0.339231 0.131169
0.330165 0.345882 0.121757
0.391529 0.354667 0.112470
0.461804 0.373835 0.101365
0.575529 0.434227 0.048941
0.726243 0.505631 0.001004
0.894055 0.575749 0.000753
0.999514 0.607551 0.005600
0.077176 0.313412 0.222118
0.077961 0.316361 0.237961
0.072126 0.325082 0.230212
0.061961 0.336878 0.226447
0.047184 0.350525 0.222933
0.031843 0.368314 0.208941
0.065004 0.395263 0.190619
0.152377 0.416470 0.168784
0.256282 0.443451 0.134902
0.354855 0.461929 0.103372
0.435451 0.469176 0.094274
0.508423 0.484674 0.073914
0.599059 0.511467 0.041286
0.735717 0.575843 0.002761
0.893678 0.637459 0.002886
0.997659 0.671548 0.000510
0.006274 0.440784 0.290510
0.001537 0.451639 0.302212
0.003734 0.460361 0.294714
0.005114 0.473663 0.295969
0.000000 0.495467 0.290196
0.001098 0.518902 0.279216
0.001882 0.549741 0.248094
0.026133 0.580612 0.219106
0.184251 0.614117 0.167655
0.355984 0.645145 0.087184
0.474980 0.664314 0.020235
0.589992 0.675294 0.006149
0.690039 0.688784 0.001004
0.805114 0.713004 0.002134
0.936345 0.740235 0.004518
0.999799 0.751303 0.075703
0.002510 0.618353 0.382745
0.002447 0.627137 0.394259
0.001883 0.638180 0.396768
0.000000 0.654243 0.390118
0.001192 0.674855 0.385318
0.002510 0.698824 0.381961
0.006369 0.727122 0.349710
0.001161 0.757270 0.319530
0.023498 0.784376 0.270337
0.293522 0.810227 0.193004
0.481412 0.829020 0.080941
0.621145 0.839686 0.069835
0.757396 0.840408 0.070839
0.877239 0.847561 0.077365
0.972141 0.841882 0.112345
0.999021 0.825525 0.230623
0.000016 0.830871 0.536251
0.002367 0.833377 0.536932
0.001553 0.842190 0.550905
0.001553 0.852925 0.547115
0.003743 0.863966 0.542282
0.000063 0.878917 0.541608
0.000938 0.889263 0.532806
0.045824 0.908917 0.517652
0.262628 0.924673 0.494869
0.400453 0.937634 0.443898
0.541341 0.948408 0.379812
0.692745 0.949503 0.368654
0.831448 0.944342 0.392162
0.955018 0.942535 0.420917
0.998955 0.927506 0.457286
1.000000 0.909350 0.546871
0.065883 0.055686 0.083922
0.066353 0.055216 0.083922
0.079215 0.057255 0.087844
0.094274 0.054745 0.087216
0.108078 0.057412 0.082980
0.120785 0.064314 0.089412
0.146353 0.066196 0.088785
0.174117 0.067922 0.092863
0.213647 0.068549 0.088471
0.258667 0.080157 0.080157
0.302745 0.089412 0.083922
0.372235 0.109960 0.074039
0.454432 0.133177 0.066196
0.556706 0.175216 0.025412
0.692862 0.234980 0.001255
0.856957 0.303122 0.000008
0.066196 0.056941 0.090353
0.070306 0.058981 0.085992
0.078337 0.057726 0.085647
0.086118 0.060486 0.090792
0.105537 0.058887 0.088502
0.123608 0.065098 0.087216
0.145537 0.065004 0.086996
0.175686 0.068455 0.082980
0.212078 0.075106 0.086118
0.254118 0.079812 0.084800
0.302745 0.092235 0.082824
0.366933 0.111310 0.078243
0.447749 0.137977 0.061145
0.557176 0.178133 0.030526
0.689161 0.236016 0.000941
0.852897 0.306510 0.000005
0.069020 0.062275 0.094745
0.072502 0.060361 0.089067
0.076800 0.065694 0.089694
0.090604 0.064188 0.093961
0.102525 0.064910 0.092580
0.129098 0.070745 0.091451
0.147796 0.066635 0.088094
0.177129 0.070118 0.088879
0.211137 0.076267 0.089757
0.252612 0.084392 0.083451
0.303843 0.093177 0.083922
0.364549 0.110494 0.076047
0.442416 0.138918 0.071059
0.542934 0.175561 0.036800
0.669365 0.233506 0.000000
0.834358 0.301986 0.001708
0.080941 0.062902 0.089098
0.081412 0.066259 0.092455
0.081820 0.070086 0.097223
0.089600 0.071090 0.096471
0.109678 0.070055 0.097851
0.124706 0.073882 0.092078
0.150055 0.075921 0.089600
0.183027 0.080910 0.093271
0.217537 0.087059 0.092643
0.260894 0.093428 0.090102
0.318275 0.105098 0.093334
0.376470 0.124549 0.074792
0.459984 0.153349 0.060643
0.565522 0.193506 0.018855
0.707514 0.254212 0.001004
0.867029 0.321506 0.004840
0.086432 0.072471 0.096628
0.082416 0.073882 0.097129
0.084392 0.076110 0.103247
0.091420 0.079498 0.095718
0.108235 0.081788 0.099796
0.125804 0.080784 0.098353
0.155514 0.086400 0.092988
0.184628 0.091702 0.099075
0.220266 0.095216 0.091294
0.266039 0.104219 0.092831
0.321569 0.116549 0.093177
0.386918 0.133145 0.077741
0.474070 0.169443 0.069679
0.581490 0.213992 0.022871
0.724173 0.272408 0.001569
0.880704 0.340728 0.000472
0.086275 0.082353 0.111372
0.088785 0.079843 0.103215
0.085961 0.090196 0.108706
0.087843 0.093334 0.103686
0.102745 0.096471 0.098981
0.128628 0.095687 0.098823
0.157960 0.096157 0.105098
0.189804 0.101176 0.104157
0.226824 0.108706 0.100392
0.269491 0.115922 0.105568
0.320784 0.131764 0.094118
0.392941 0.147451 0.086432
0.482980 0.177412 0.074510
0.585882 0.221333 0.031215
0.722039 0.283608 0.003765
0.872722 0.353302 0.000000
0.091451 0.097569 0.118588
0.093082 0.101020 0.115827
0.093647 0.100329 0.116518
0.095906 0.104847 0.115262
0.108110 0.111718 0.111216
0.129725 0.114039 0.106667
0.159718 0.114635 0.110745
0.196611 0.120533 0.110400
0.234384 0.127686 0.106008
0.285930 0.138667 0.106196
0.343372 0.151372 0.096471
0.416219 0.174808 0.088785
0.503247 0.211482 0.069961
0.618949 0.259294 0.020392
0.760188 0.320376 0.000941
0.911327 0.388438 0.000019
0.107451 0.110118 0.127059
0.101490 0.112313 0.122008
0.102902 0.111467 0.127655
0.103780 0.124267 0.125396
0.110086 0.128000 0.120878
0.129098 0.136941 0.113568
0.161694 0.136314 0.109459
0.188486 0.140016 0.115545
0.232032 0.152063 0.114541
0.289977 0.163231 0.113067
0.363137 0.182274 0.108392
0.442322 0.210228 0.089130
0.536659 0.249726 0.076424
0.652235 0.301553 0.015059
0.799780 0.361726 0.002698
0.954825 0.425476 0.000684
0.108706 0.127059 0.130824
0.106008 0.133271 0.137945
0.107921 0.130416 0.143090
0.109302 0.138698 0.138322
0.111843 0.146196 0.138949
0.124079 0.157019 0.127373
0.157051 0.166933 0.124392
0.193129 0.165113 0.120314
0.233663 0.167623 0.126839
0.286211 0.186698 0.118337
0.360627 0.200471 0.113411
0.449098 0.239717 0.102933
0.552596 0.283733 0.072784
0.663153 0.339576 0.013428
0.812455 0.397616 0.000690
0.960516 0.455644 0.011194
0.109961 0.156078 0.145098
0.116737 0.157490 0.151435
0.116141 0.156141 0.153945
0.116643 0.165804 0.154322
0.119121 0.173270 0.151090
0.126274 0.186667 0.143372
0.160157 0.194730 0.134808
0.196079 0.205459 0.128690
0.237616 0.204957 0.127686
0.287059 0.211796 0.125114
0.353569 0.238431 0.108549
0.454682 0.277961 0.101490
0.570322 0.328627 0.075859
0.703592 0.393632 0.014243
0.850478 0.448314 0.002730
0.975019 0.498205 0.001887
0.121569 0.186667 0.172549
0.125961 0.191843 0.167843
0.120784 0.200000 0.173020
0.122039 0.206902 0.178039
0.119843 0.220078 0.172235
0.119216 0.231373 0.163137
0.161098 0.243608 0.159373
0.204235 0.258039 0.138666
0.257569 0.270588 0.128000
0.312471 0.268863 0.132706
0.369411 0.283137 0.122353
0.460706 0.325961 0.104000
0.586667 0.384314 0.063843
0.748549 0.461490 0.005490
0.907451 0.522824 0.002510
0.993428 0.557459 0.001616
0.123765 0.238902 0.191686
0.120251 0.238965 0.198180
0.119686 0.247843 0.193004
0.113914 0.258259 0.196894
0.110588 0.269364 0.191969
0.101490 0.286745 0.180235
0.134776 0.303498 0.174369
0.194228 0.324518 0.153663
0.262243 0.345349 0.134212
0.329600 0.350870 0.125365
0.391059 0.356079 0.117804
0.462117 0.379106 0.107231
0.578792 0.433286 0.057255
0.730761 0.505192 0.006306
0.898918 0.574651 0.000000
0.995223 0.609234 0.000000
0.097411 0.309647 0.233098
0.089161 0.316831 0.236392
0.078557 0.328690 0.233632
0.070526 0.337098 0.232377
0.062996 0.350965 0.224376
0.045804 0.368000 0.218510
0.060298 0.395671 0.204392
0.143874 0.418259 0.180549
0.251671 0.450259 0.142776
0.351341 0.466729 0.117270
0.432313 0.475137 0.099922
0.505035 0.488878 0.083734
0.601067 0.513411 0.041914
0.736345 0.578165 0.002259
0.898102 0.639561 0.003576
0.999448 0.671547 0.020965
0.006431 0.445177 0.298980
0.004831 0.455498 0.313569
0.004267 0.464972 0.303781
0.001255 0.481412 0.303027
0.005522 0.499043 0.299294
0.000628 0.521098 0.291922
0.000063 0.555545 0.260988
0.016628 0.583780 0.230369
0.162071 0.617788 0.177537
0.354478 0.650824 0.102337
0.471216 0.667137 0.049098
0.591498 0.682635 0.014839
0.696314 0.693490 0.001255
0.811012 0.717584 0.000251
0.936502 0.741083 0.001694
0.999655 0.755054 0.102960
0.000000 0.617726 0.403764
0.001067 0.629929 0.401192
0.000188 0.640157 0.404141
0.000565 0.659608 0.401380
0.000502 0.675106 0.397020
0.000627 0.698039 0.384941
0.001757 0.725867 0.360345
0.001067 0.758086 0.327310
0.008596 0.783184 0.295059
0.285365 0.811106 0.223874
0.480157 0.834039 0.129098
0.629992 0.839592 0.102651
0.753475 0.844832 0.086933
0.882353 0.850478 0.090447
0.975875 0.840878 0.149459
0.999950 0.826615 0.251252
0.003883 0.826126 0.541835
0.000643 0.833656 0.554369
0.000155 0.836764 0.547891
0.002640 0.850643 0.557159
0.002963 0.863327 0.557462
0.000016 0.878157 0.557953
0.000472 0.894545 0.545117
0.067872 0.907361 0.526722
0.282215 0.925570 0.509661
0.401181 0.936258 0.466213
0.544392 0.948369 0.398933
0.696190 0.948590 0.384839
0.830161 0.945165 0.400402
0.955068 0.943923 0.429779
0.997954 0.927664 0.473835
0.990775 0.912479 0.552526
0.065883 0.058824 0.099608
0.068235 0.059608 0.097098
0.073568 0.057255 0.095373
0.093647 0.057255 0.094745
0.113726 0.058040 0.096784
0.127059 0.064314 0.098824
0.151373 0.067451 0.091922
0.182274 0.063529 0.092863
0.209255 0.074196 0.090980
0.252392 0.082039 0.092706
0.312156 0.092549 0.090196
0.379764 0.108078 0.081569
0.463843 0.133804 0.076863
0.568628 0.178353 0.038588
0.708549 0.235608 0.003137
0.872643 0.303090 0.000008
0.072470 0.056941 0.092863
0.070306 0.057475 0.096659
0.079090 0.060988 0.094306
0.089883 0.063749 0.096941
0.107796 0.062275 0.095780
0.122353 0.065098 0.094745
0.152314 0.068016 0.096282
0.179451 0.070463 0.094902
0.214839 0.076110 0.093020
0.255624 0.084204 0.097098
0.306510 0.094118 0.084706
0.371953 0.109427 0.087529
0.450384 0.137224 0.075325
0.566337 0.174369 0.042196
0.702588 0.237647 0.001443
0.871068 0.304056 0.000017
0.074667 0.067922 0.096628
0.073129 0.066761 0.099231
0.079812 0.066071 0.102494
0.096126 0.065569 0.100235
0.105788 0.065537 0.096596
0.120314 0.068235 0.100235
0.148298 0.073662 0.101020
0.177381 0.075388 0.097914
0.204361 0.083545 0.091765
0.259890 0.086777 0.097381
0.303216 0.094431 0.089569
0.363420 0.114510 0.081820
0.447561 0.136533 0.075702
0.551592 0.179200 0.043953
0.688062 0.236392 0.000377
0.848877 0.303931 0.003572
0.074039 0.071059 0.096000
0.078023 0.072659 0.099106
0.083326 0.069961 0.102996
0.093616 0.075984 0.103749
0.111435 0.075200 0.098353
0.133490 0.073882 0.108392
0.153569 0.078431 0.100016
0.181773 0.083671 0.103812
0.219294 0.087812 0.102180
0.263655 0.098321 0.096502
0.315137 0.106353 0.096470
0.382369 0.126055 0.085585
0.466635 0.151467 0.075326
0.573678 0.199655 0.038055
0.718682 0.256094 0.000377
0.881473 0.320866 0.001708
0.082667 0.076235 0.096628
0.086306 0.076768 0.102023
0.094306 0.077992 0.104879
0.095812 0.085396 0.111906
0.109867 0.085302 0.104690
0.129569 0.080157 0.107137
0.155764 0.087530 0.105788
0.186761 0.093334 0.102337
0.226918 0.097851 0.102588
0.270683 0.106102 0.102369
0.324079 0.117804 0.098196
0.390180 0.138039 0.088408
0.475828 0.166933 0.075075
0.592282 0.212988 0.034290
0.735090 0.271278 0.002071
0.890172 0.341367 0.000485
0.092549 0.082353 0.108235
0.097569 0.082980 0.112627
0.102274 0.087687 0.112470
0.099137 0.093334 0.112470
0.106510 0.095216 0.110902
0.131764 0.098823 0.108235
0.160470 0.104314 0.117647
0.195451 0.106823 0.111058
0.227451 0.111843 0.112313
0.274510 0.118432 0.104941
0.323922 0.128628 0.100392
0.399216 0.152471 0.096471
0.486117 0.180549 0.080785
0.594039 0.226981 0.047529
0.733961 0.287372 0.000000
0.904031 0.359514 0.003106
0.101490 0.095687 0.121098
0.105631 0.098134 0.122729
0.103561 0.102337 0.125302
0.106322 0.107357 0.122039
0.109114 0.115231 0.126526
0.130353 0.119686 0.116706
0.157710 0.121663 0.115890
0.197490 0.124549 0.117427
0.239278 0.128690 0.115545
0.291075 0.140674 0.116737
0.349647 0.156392 0.110902
0.421992 0.177819 0.097569
0.510023 0.210855 0.083890
0.625726 0.262682 0.036329
0.770980 0.320627 0.001192
0.923268 0.382214 0.000025
0.111843 0.112000 0.128314
0.113286 0.115576 0.130666
0.111561 0.117364 0.132298
0.112941 0.121129 0.134557
0.115608 0.130635 0.138196
0.131608 0.137568 0.128627
0.163200 0.139576 0.125521
0.188612 0.143279 0.126839
