example_ofxGpuLutCube/bin/data/ofxGpuLutCube/LUT/V26 (retro moody).cube
LUT_3D_SIZE 6
0.062745 0.050980 0.078431
0.091765 0.058040 0.079215
0.149020 0.057255 0.074510
0.253334 0.076078 0.076863
0.458824 0.133334 0.044706
0.873373 0.297686 0.000000
0.069804 0.059608 0.086275
0.090981 0.069490 0.086745
0.158118 0.074039 0.085647
0.271843 0.092078 0.078902
0.473412 0.155451 0.049726
0.888330 0.330510 0.003137
0.090981 0.094902 0.110588
0.089412 0.105098 0.102588
0.156863 0.115294 0.099921
0.287843 0.141333 0.097098
0.509647 0.219451 0.050039
0.926839 0.398055 0.000086
0.106667 0.155294 0.153726
0.109804 0.170980 0.142745
0.161569 0.199686 0.129412
0.290510 0.214275 0.112941
0.576628 0.334902 0.058196
0.977412 0.507192 0.004659
0.072157 0.326274 0.237647
0.049569 0.347608 0.229490
0.068236 0.401412 0.187294
0.357334 0.467608 0.097255
0.604706 0.519059 0.031373
0.998776 0.671255 0.003883
0.000000 0.841804 0.540235
0.000071 0.865443 0.551859
0.013976 0.898745 0.537514
0.409796 0.943608 0.447702
0.833937 0.946855 0.396305
0.999960 0.909412 0.546312
0.065883 0.058824 0.099608
0.093647 0.057255 0.094745
0.151373 0.067451 0.091922
0.252392 0.082039 0.092706
0.463843 0.133804 0.076863
0.872643 0.303090 0.000008
0.074039 0.071059 0.096000
0.093616 0.075984 0.103749
0.153569 0.078431 0.100016
0.263655 0.098321 0.096502
0.466635 0.151467 0.075326
0.881473 0.320866 0.001708
0.101490 0.095687 0.121098
0.106322 0.107357 0.122039
0.157710 0.121663 0.115890
0.291075 0.140674 0.116737
0.510023 0.210855 0.083890
0.923268 0.382214 0.000025
0.126274 0.155451 0.155137
0.127561 0.167937 0.158086
0.158149 0.199498 0.140706
0.288816 0.220581 0.128251
0.580235 0.334651 0.088659
0.981301 0.501399 0.000024
0.118745 0.315294 0.248785
0.093114 0.340486 0.238776
0.068330 0.399059 0.218698
0.344816 0.474635 0.132831
0.607592 0.527592 0.065506
0.998820 0.672846 0.025947
0.000808 0.829200 0.548110
0.000180 0.849978 0.576641
0.000497 0.890786 0.555991
0.409796 0.933172 0.493225
0.826435 0.951465 0.429998
0.999937 0.912510 0.574580
0.058824 0.069020 0.137255
0.083922 0.067765 0.133647
0.153568 0.070588 0.139921
0.264941 0.059608 0.124079
0.449098 0.115137 0.119215
0.874996 0.271694 0.000431
0.063059 0.087530 0.136941
0.090573 0.087059 0.141929
0.161851 0.085334 0.144157
0.266604 0.092455 0.135467
0.467294 0.135028 0.120314
0.881324 0.286082 0.002706
0.096314 0.121569 0.148079
0.113349 0.123577 0.154855
0.160282 0.132392 0.160878
0.278902 0.145725 0.156423
0.508800 0.199843 0.139482
0.933840 0.359002 0.001900
0.166745 0.157490 0.179451
0.178573 0.164863 0.187106
0.184094 0.202541 0.193788
0.298353 0.237490 0.174400
0.592941 0.338071 0.167247
0.988557 0.485837 0.019236
0.205490 0.306510 0.271529
0.203545 0.323169 0.276612
0.178416 0.384314 0.289443
0.298322 0.490165 0.219985
0.617474 0.544501 0.167561
0.998888 0.678308 0.235975
0.065600 0.797811 0.603670
0.122064 0.822292 0.623657
0.226264 0.872983 0.623261
0.460957 0.927239 0.613296
0.810400 0.949500 0.510108
0.999969 0.917216 0.632888
0.019608 0.095686 0.205490
0.062588 0.093333 0.211137
0.169726 0.083922 0.213804
0.292549 0.066981 0.216941
0.498823 0.001412 0.212706
0.888479 0.106989 0.158486
0.019294 0.119686 0.218353
0.051451 0.115137 0.218353
0.161725 0.104219 0.219043
0.289349 0.092737 0.223247
0.502902 0.002604 0.208094
0.894107 0.184529 0.167548
0.031216 0.168627 0.228706
0.064157 0.166620 0.230086
0.145130 0.159090 0.245553
0.299796 0.152816 0.243890
0.520878 0.142087 0.215561
0.943101 0.291879 0.175545
0.089412 0.226039 0.251294
0.109522 0.234478 0.255153
0.180800 0.244204 0.264847
0.304533 0.266416 0.280063
0.592314 0.327310 0.269992
0.998047 0.447340 0.216591
0.217725 0.337411 0.325020
0.240753 0.348329 0.334714
0.316298 0.363827 0.353223
0.325616 0.475796 0.394761
0.633851 0.588298 0.326494
0.998113 0.700275 0.451245
0.454313 0.739122 0.653875
0.456273 0.764447 0.670813
0.462835 0.825327 0.695972
0.569002 0.908263 0.734444
0.786611 0.958298 0.667358
0.999945 0.926132 0.729001
0.003138 0.172549 0.421961
0.000000 0.158275 0.422588
0.145882 0.117961 0.429333
0.385569 0.071530 0.425412
0.613020 0.000000 0.460549
0.983372 0.009318 0.484792
0.005647 0.208000 0.432627
0.001537 0.194949 0.438211
0.088031 0.142839 0.441349
0.386290 0.104753 0.437208
0.613239 0.006180 0.458855
0.985859 0.000000 0.479594
0.001255 0.287843 0.457412
0.002510 0.280722 0.465318
0.002259 0.244769 0.482290
0.357647 0.190714 0.481129
0.633851 0.151655 0.494682
0.996947 0.006626 0.467785
0.000941 0.402353 0.497882
0.002322 0.406337 0.506792
0.001443 0.398964 0.520816
0.181773 0.356737 0.551561
0.658510 0.335781 0.541866
0.997369 0.366112 0.478993
0.003294 0.557020 0.563921
0.000251 0.562447 0.563388
0.001632 0.576722 0.582839
0.221145 0.608094 0.603608
0.641098 0.675200 0.653992
0.999826 0.754677 0.666850
0.296675 0.867498 0.783725
0.389498 0.872580 0.788548
0.539780 0.878413 0.788882
0.742085 0.876026 0.805318
0.848328 0.943866 0.839688
0.992978 0.950455 0.834996
0.000000 0.395607 0.889412
0.003138 0.367318 0.893357
0.002345 0.287890 0.900314
0.504259 0.276478 0.893334
0.856133 0.261396 0.884745
0.992313 0.369565 0.838863
0.000777 0.430165 0.896431
0.000628 0.405859 0.894929
0.003740 0.337090 0.892265
0.481589 0.311660 0.889933
0.843429 0.320635 0.889082
0.996878 0.420133 0.850541
0.001553 0.521984 0.901114
0.000311 0.506126 0.905039
0.000013 0.463887 0.900219
0.391683 0.423769 0.899958
0.815111 0.450028 0.893517
0.999977 0.541568 0.863795
0.002345 0.653796 0.902918
0.000466 0.648781 0.901995
0.002339 0.615200 0.907252
0.104800 0.581168 0.913525
0.772224 0.639470 0.902420
0.999930 0.717245 0.885718
0.009349 0.827788 0.908541
0.000000 0.827263 0.905567
0.000019 0.826243 0.907034
0.140158 0.816400 0.910717
0.720345 0.839059 0.912467
0.996720 0.885772 0.888556
0.297777 0.929332 0.897881
0.346730 0.936345 0.889535
0.472335 0.939489 0.896384
0.655962 0.940383 0.901049
0.874420 0.954508 0.903434
0.976509 0.968663 0.909804
