example_ofxGpuLutCube/bin/data/ofxGpuLutCube/LUT/V27 (night faded).cube
LUT_3D_SIZE 16
0.000000 0.000000 0.000000
0.013595 0.000000 0.000784
0.042876 0.000000 0.012288
0.072157 0.000000 0.018823
0.103530 0.002091 0.032419
0.135948 0.009150 0.033987
0.156863 0.016471 0.029804
0.177777 0.025359 0.029281
0.202876 0.031634 0.039739
0.229804 0.037647 0.049412
0.252288 0.044445 0.061438
0.276079 0.049934 0.069542
0.298039 0.050980 0.073726
0.325752 0.057778 0.088105
0.351372 0.069804 0.097516
0.376236 0.062823 0.098039
0.000000 0.017255 0.008627
0.015773 0.013804 0.001813
0.036793 0.016314 0.010283
0.075921 0.014379 0.021647
0.105551 0.017586 0.029804
0.132113 0.021438 0.028323
0.154666 0.030432 0.026719
0.179486 0.036358 0.023791
0.202632 0.042353 0.034109
0.225830 0.046379 0.046536
0.250719 0.050457 0.059259
0.278502 0.054640 0.071704
0.301856 0.056105 0.077908
0.322876 0.065726 0.085717
0.347939 0.067922 0.090945
0.372578 0.082209 0.105477
0.000000 0.043922 0.020131
0.002318 0.043469 0.021368
0.039094 0.038031 0.023215
0.073935 0.044602 0.019032
0.107329 0.048087 0.023285
0.132636 0.050371 0.023617
0.156235 0.053229 0.028497
0.177533 0.057481 0.032645
0.202353 0.059294 0.041011
0.225517 0.060706 0.051242
0.247756 0.063181 0.065359
0.272296 0.067573 0.075817
0.299974 0.075033 0.082719
0.322806 0.077055 0.092758
0.354283 0.086641 0.105098
0.376787 0.084473 0.103553
0.000000 0.080000 0.027451
0.004183 0.079164 0.033412
0.035242 0.078432 0.029543
0.075294 0.078432 0.032628
0.101020 0.077595 0.032000
0.126797 0.076601 0.035294
0.151372 0.077961 0.038745
0.175529 0.078640 0.045438
0.198118 0.078640 0.053804
0.226667 0.077961 0.060549
0.251765 0.079216 0.067451
0.273202 0.084392 0.074196
0.296628 0.091294 0.089883
0.322928 0.097307 0.094013
0.350431 0.098039 0.104366
0.379333 0.101145 0.114415
0.001046 0.106144 0.048366
0.014641 0.103076 0.045961
0.031477 0.100392 0.041952
0.074039 0.100392 0.046013
0.098371 0.100392 0.051521
0.122963 0.101351 0.051677
0.147817 0.103686 0.057778
0.172811 0.101996 0.060985
0.195399 0.101996 0.068235
0.220602 0.103686 0.073098
0.248628 0.103965 0.078605
0.272157 0.107190 0.084444
0.293908 0.108235 0.090928
0.325229 0.115712 0.096593
0.347713 0.117838 0.103599
0.377232 0.121014 0.118546
0.005229 0.125490 0.065359
0.021786 0.125490 0.062832
0.038345 0.125490 0.064053
0.070589 0.125229 0.065098
0.094641 0.124532 0.070327
0.124183 0.125490 0.073639
0.146144 0.126536 0.076078
0.168627 0.125054 0.077211
0.194423 0.124357 0.078606
0.219608 0.125229 0.081830
0.245752 0.127669 0.090196
0.270240 0.132288 0.096994
0.294640 0.133333 0.102222
0.325403 0.133333 0.108932
0.348933 0.138214 0.113464
0.381386 0.147621 0.125373
0.010980 0.150588 0.076863
0.025725 0.150483 0.084340
0.038379 0.149228 0.079425
0.068393 0.150117 0.080784
0.093281 0.148863 0.083503
0.116863 0.150588 0.089673
0.143843 0.150588 0.088628
0.168314 0.149490 0.090981
0.192157 0.148235 0.090144
0.216784 0.148235 0.091764
0.244183 0.151373 0.100131
0.270588 0.154667 0.108706
0.296941 0.157804 0.115608
0.327111 0.159791 0.121621
0.351477 0.164392 0.126013
0.382447 0.168588 0.134816
0.015686 0.175686 0.095425
0.022449 0.175547 0.097499
0.033220 0.173629 0.093874
0.064366 0.174222 0.096052
0.092183 0.175686 0.099120
0.115555 0.175686 0.102832
0.141595 0.174954 0.102275
0.168105 0.174710 0.104383
0.196131 0.175686 0.107590
0.220183 0.175686 0.109229
0.241830 0.175686 0.111808
0.269089 0.178370 0.121830
0.295373 0.181229 0.126641
0.327320 0.186684 0.133856
0.351512 0.187451 0.138562
0.381929 0.191333 0.144518
0.013595 0.200784 0.112157
0.016732 0.200784 0.108235
0.034475 0.200819 0.108514
0.060601 0.200993 0.111111
0.091765 0.201342 0.115294
0.119738 0.202179 0.118867
0.142431 0.200052 0.118588
0.164898 0.199808 0.118885
0.194039 0.200784 0.122091
0.223111 0.202039 0.128052
0.242527 0.202876 0.130632
0.271599 0.207094 0.137028
0.297882 0.207164 0.141281
0.327599 0.213595 0.148497
0.353464 0.216593 0.153202
0.386091 0.218544 0.161228
0.009412 0.225882 0.127059
0.015163 0.228079 0.127843
0.042458 0.226405 0.127738
0.058980 0.229020 0.126902
0.088889 0.226928 0.127948
0.118431 0.229281 0.134641
0.145412 0.229177 0.138510
0.169359 0.229490 0.136209
0.196549 0.229490 0.139137
0.224628 0.231529 0.146353
0.247843 0.232157 0.148758
0.274824 0.235033 0.153046
0.303059 0.237961 0.157647
0.332026 0.243190 0.167268
0.359843 0.247582 0.172287
0.392627 0.252502 0.180313
0.018300 0.256209 0.151634
0.023704 0.257255 0.152941
0.045839 0.254118 0.152418
0.061176 0.257255 0.147713
0.090806 0.255861 0.143181
0.115468 0.255774 0.148584
0.147189 0.258040 0.156078
0.170371 0.258214 0.156253
0.197560 0.259608 0.158344
0.226405 0.261438 0.163922
0.253595 0.263181 0.163399
0.280610 0.266928 0.172636
0.305360 0.271111 0.179608
0.340392 0.275294 0.186057
0.368279 0.277038 0.188148
0.395817 0.279713 0.193411
0.035033 0.289673 0.169412
0.036358 0.289603 0.169412
0.044514 0.288383 0.169272
0.076915 0.287373 0.168523
0.100619 0.288627 0.170685
0.121743 0.287059 0.174031
0.149176 0.289673 0.173438
0.176959 0.291015 0.178335
0.202614 0.294641 0.181961
0.232418 0.294745 0.183215
0.260654 0.296209 0.188410
0.286519 0.298283 0.194423
0.315660 0.301699 0.201255
0.345325 0.308375 0.206013
0.373665 0.311966 0.214588
0.401566 0.312157 0.213352
0.045490 0.323137 0.191372
0.058248 0.322928 0.194092
0.062223 0.319895 0.188235
0.072941 0.319372 0.188392
0.098039 0.320627 0.189438
0.131503 0.323660 0.193203
0.156706 0.326274 0.200000
0.182745 0.326640 0.203085
0.211189 0.327477 0.205595
0.238275 0.327372 0.208941
0.266928 0.329673 0.211764
0.296418 0.333281 0.219451
0.328627 0.337255 0.223216
0.355294 0.344837 0.232366
0.386981 0.349543 0.238849
0.413090 0.356016 0.247757
0.043660 0.356601 0.216471
0.050545 0.356566 0.216924
0.070518 0.356531 0.216401
0.080784 0.359477 0.220026
0.114178 0.358710 0.221839
0.135599 0.356775 0.219869
0.165229 0.359843 0.221124
0.188741 0.363921 0.226196
0.212584 0.363921 0.230100
0.241935 0.363921 0.231111
0.274772 0.366536 0.237211
0.307852 0.370719 0.243120
0.341177 0.374902 0.247163
0.364897 0.379538 0.255094
0.400035 0.386963 0.259869
0.432376 0.395216 0.275142
0.057778 0.397386 0.245229
0.060096 0.397386 0.244741
0.088924 0.396932 0.237944
0.094065 0.395451 0.240418
0.122719 0.402214 0.251294
0.151808 0.403486 0.256471
0.172863 0.401255 0.253543
0.202231 0.403277 0.252932
0.227190 0.403277 0.255164
0.254798 0.405961 0.262274
0.289238 0.411503 0.266144
0.321238 0.413002 0.267974
0.347869 0.416209 0.275085
0.382361 0.420392 0.286571
0.416453 0.428236 0.291765
0.445998 0.432899 0.303932
0.109294 0.442706 0.278117
0.105432 0.442706 0.278112
0.109349 0.443218 0.278557
0.136055 0.445788 0.281945
0.156008 0.442755 0.282060
0.180118 0.444065 0.282118
0.197404 0.445075 0.282086
0.217114 0.442763 0.282076
0.238070 0.444834 0.286238
0.271992 0.446675 0.287608
0.301843 0.451909 0.299033
0.332703 0.457357 0.308366
0.362988 0.461529 0.306368
0.388965 0.469077 0.315804
0.432269 0.473815 0.328280
0.462314 0.481804 0.336862
0.000000 0.000000 0.033726
0.002336 0.000000 0.033709
0.039111 0.000000 0.034545
0.072052 0.000000 0.043922
0.105168 0.001046 0.053403
0.134553 0.006711 0.056122
0.158954 0.016680 0.059608
0.177394 0.028758 0.062623
0.198588 0.033499 0.068898
0.224418 0.036236 0.075765
0.248366 0.044183 0.080261
0.269281 0.049865 0.088697
0.296262 0.045124 0.091765
0.322318 0.056802 0.095390
0.347207 0.069804 0.110100
0.376194 0.062823 0.118099
0.000000 0.017011 0.034998
0.008416 0.014067 0.035032
0.035262 0.013874 0.043286
0.072011 0.014100 0.050290
0.104759 0.016057 0.055551
0.131428 0.025110 0.061096
0.152777 0.032935 0.061721
0.173961 0.036861 0.065245
0.198938 0.042605 0.071119
0.225492 0.048683 0.079334
0.248029 0.051695 0.086374
0.274759 0.057342 0.095742
0.295237 0.059769 0.096467
0.319146 0.066184 0.102698
0.347256 0.071107 0.110864
0.379078 0.078154 0.121778
0.000000 0.043922 0.051242
0.001612 0.044377 0.040878
0.029321 0.044305 0.050704
0.069487 0.046797 0.052570
0.101984 0.047704 0.056437
0.125095 0.050522 0.061676
0.149842 0.054888 0.065806
0.175162 0.059421 0.070957
0.199879 0.059663 0.075381
0.223533 0.063268 0.082478
0.244671 0.065011 0.088686
0.270536 0.070300 0.094808
0.296499 0.075719 0.099102
0.324972 0.073912 0.106239
0.348327 0.083438 0.117017
0.372804 0.084631 0.116802
0.000000 0.080000 0.065621
0.001994 0.081952 0.056596
0.034664 0.078738 0.060535
0.070327 0.075284 0.064607
0.096554 0.075465 0.063728
0.122248 0.076880 0.067939
0.145819 0.078777 0.069020
0.172723 0.080240 0.073994
0.194838 0.080240 0.080408
0.221919 0.080627 0.083901
0.245595 0.082719 0.088070
0.268828 0.085633 0.096805
0.293480 0.091420 0.102411
0.321021 0.096687 0.110595
0.349389 0.097991 0.114179
0.375234 0.100938 0.126362
0.000000 0.107190 0.070711
0.002045 0.104261 0.071655
0.034752 0.103241 0.072173
0.066395 0.101135 0.073419
0.093979 0.101019 0.075069
0.120761 0.102373 0.081696
0.145318 0.101685 0.080342
0.168717 0.101597 0.081970
0.195033 0.101597 0.089462
0.219841 0.102198 0.091723
0.244967 0.104494 0.094786
0.270970 0.106929 0.100356
0.294860 0.107566 0.104865
0.319609 0.113428 0.113105
0.345494 0.118645 0.125668
0.373261 0.120955 0.128485
0.000000 0.128192 0.081307
0.004648 0.128035 0.084078
0.037403 0.126280 0.084799
0.063286 0.128418 0.090353
0.093403 0.125165 0.087890
0.118605 0.124677 0.089034
0.143111 0.126048 0.091172
0.165793 0.125136 0.093107
0.192424 0.123834 0.096500
0.218248 0.127373 0.101978
0.242672 0.126943 0.103907
0.269130 0.128628 0.107404
0.296715 0.129604 0.111494
0.322202 0.133136 0.114737
0.349717 0.139538 0.128540
0.376048 0.147376 0.137004
0.000000 0.152313 0.096366
0.007969 0.150762 0.096153
0.037731 0.151229 0.096906
0.058970 0.152261 0.101647
0.088725 0.150002 0.098914
0.115712 0.149124 0.098527
0.142630 0.151467 0.104732
0.167338 0.151833 0.107573
0.188615 0.148653 0.107433
0.213396 0.151278 0.111467
0.240906 0.152958 0.116514
0.269455 0.154039 0.116207
0.296826 0.154541 0.118912
0.324967 0.159178 0.126400
0.349117 0.163799 0.135477
0.377765 0.168426 0.143661
0.000000 0.177777 0.108880
0.007365 0.175582 0.108261
0.037333 0.174308 0.107399
0.056408 0.175575 0.111229
0.087455 0.175686 0.113521
0.114161 0.175646 0.111907
0.139824 0.174881 0.112829
0.169420 0.174653 0.118154
0.193412 0.174514 0.121993
0.216631 0.177046 0.123876
0.241139 0.179439 0.127948
0.267625 0.180828 0.132220
0.294968 0.179949 0.132350
0.327303 0.186285 0.138963
0.353105 0.187913 0.143897
0.383637 0.193150 0.157012
0.000000 0.200924 0.123381
0.008647 0.200801 0.121079
0.030064 0.199565 0.120329
0.054818 0.201955 0.124950
0.087353 0.199910 0.126684
0.115463 0.202138 0.130266
0.140493 0.199979 0.125853
0.166278 0.199817 0.128751
0.193542 0.200792 0.133705
0.221093 0.203064 0.137652
0.245786 0.204584 0.140962
0.271632 0.208993 0.149296
0.297562 0.209230 0.150728
0.324217 0.213753 0.153966
0.356749 0.213151 0.160220
0.385888 0.222251 0.175259
0.000000 0.230693 0.144105
0.015216 0.228333 0.140298
0.035238 0.228410 0.138604
0.052099 0.228518 0.140361
0.084517 0.225854 0.139761
0.119355 0.229281 0.143982
0.145108 0.228236 0.143927
0.169687 0.229382 0.145889
0.194590 0.229466 0.148762
0.223550 0.230651 0.153046
0.249778 0.232052 0.156706
0.275556 0.237866 0.162897
0.301281 0.239874 0.169590
0.327201 0.243151 0.172946
0.360812 0.246101 0.180503
0.389018 0.251762 0.188111
0.000000 0.258998 0.156689
0.023896 0.257691 0.157490
0.036073 0.260096 0.156828
0.055704 0.259137 0.158397
0.085844 0.255907 0.157118
0.117763 0.256761 0.159332
0.144976 0.258179 0.160889
0.169638 0.256918 0.164009
0.197014 0.260962 0.167588
0.225900 0.261891 0.171730
0.253624 0.263065 0.175367
0.278740 0.267863 0.180700
0.303861 0.273394 0.186789
0.336755 0.275405 0.195289
0.367768 0.277020 0.196752
0.394434 0.280920 0.205490
0.021473 0.289935 0.175111
0.028415 0.289935 0.175978
0.035019 0.290876 0.176505
0.071948 0.290416 0.176913
0.094801 0.288557 0.176834
0.122707 0.286687 0.180613
0.149420 0.289401 0.184819
0.173709 0.291874 0.186494
0.201800 0.293575 0.189283
0.230170 0.294086 0.192934
0.256907 0.296122 0.196427
0.287023 0.302310 0.203678
0.313687 0.303648 0.204737
0.341316 0.308288 0.212037
0.370636 0.309264 0.219864
0.401088 0.315752 0.223618
0.026353 0.323399 0.202719
0.033234 0.323190 0.197288
0.049785 0.323183 0.202398
0.067514 0.322499 0.196894
0.090813 0.320659 0.198749
0.127216 0.322615 0.203224
0.156727 0.325543 0.205804
0.179067 0.330032 0.211625
0.204668 0.330172 0.210510
0.233182 0.328345 0.213124
0.266806 0.327703 0.218597
0.295394 0.331604 0.221567
0.324884 0.337014 0.228873
0.348580 0.339535 0.231766
0.382846 0.348403 0.245905
0.409842 0.353626 0.249697
0.032192 0.360035 0.224871
0.055769 0.353852 0.215083
0.064599 0.357054 0.225315
0.089168 0.359216 0.227748
0.107903 0.356227 0.227069
0.134553 0.357844 0.226225
0.165264 0.360652 0.230243
0.186785 0.361148 0.231633
0.210070 0.364550 0.233306
0.239376 0.365535 0.238944
0.273261 0.366286 0.240796
0.304891 0.370423 0.248689
0.334696 0.377576 0.255666
0.368736 0.381864 0.262362
0.399916 0.390279 0.271774
0.428489 0.391591 0.279113
0.049063 0.397647 0.253316
0.056662 0.396946 0.245833
0.062936 0.394004 0.243985
0.103990 0.394227 0.246780
0.126982 0.395059 0.248528
0.155689 0.398699 0.253670
0.175114 0.401325 0.257084
0.205388 0.403025 0.262894
0.227223 0.405107 0.266817
0.259099 0.407435 0.269291
0.291143 0.413787 0.276921
0.320539 0.414105 0.278226
0.347120 0.416471 0.283483
0.385449 0.420850 0.288612
0.413282 0.428512 0.306297
0.448842 0.432660 0.304622
0.079443 0.446588 0.286482
0.102559 0.442479 0.286167
0.120980 0.439788 0.283275
0.123834 0.443653 0.285942
0.141805 0.446494 0.283063
0.170583 0.446343 0.284154
0.193235 0.445023 0.286466
0.217011 0.446404 0.290341
0.238348 0.448494 0.294522
0.272661 0.451141 0.298858
0.305316 0.456765 0.304322
0.333664 0.458525 0.311698
0.359879 0.461582 0.316650
0.388701 0.468855 0.323878
0.432252 0.474039 0.329410
0.469778 0.481807 0.337640
0.000000 0.000000 0.070850
0.001987 0.000488 0.071669
0.032558 0.000000 0.069926
0.058876 0.000000 0.081255
0.101055 0.000906 0.090597
0.132288 0.008976 0.095163
0.154458 0.020549 0.096628
0.171747 0.026423 0.098318
0.196845 0.038135 0.104035
0.225046 0.039059 0.107974
0.247669 0.040871 0.109194
0.269142 0.049272 0.115154
0.293333 0.050666 0.116967
0.321377 0.057708 0.123660
0.343268 0.069804 0.131538
0.375634 0.063341 0.130214
0.000000 0.014571 0.075817
0.001653 0.020673 0.079704
0.028741 0.017608 0.083459
0.061358 0.016805 0.088579
0.097648 0.018920 0.094091
0.127954 0.025098 0.096581
0.151515 0.035660 0.100957
0.173159 0.042459 0.101715
0.196203 0.046103 0.103909
0.221483 0.048119 0.104244
0.246461 0.051195 0.107300
0.274066 0.055381 0.113415
0.297231 0.059211 0.120024
0.321830 0.068997 0.127259
0.347175 0.071486 0.129053
0.372760 0.071633 0.136621
0.000000 0.043922 0.084950
0.001072 0.043589 0.084370
0.021235 0.044586 0.089102
0.060981 0.046504 0.095990
0.094102 0.047773 0.095144
0.123573 0.052532 0.098324
0.146907 0.056066 0.099939
0.170229 0.057564 0.102715
0.197660 0.060948 0.106098
0.224223 0.063540 0.109452
0.245031 0.067300 0.112912
0.267552 0.071462 0.118793
0.293208 0.076110 0.121182
0.321326 0.072000 0.122616
0.350161 0.085402 0.135136
0.371894 0.087381 0.140279
0.000000 0.079896 0.097726
0.000572 0.079617 0.092375
0.015254 0.078899 0.098029
0.064366 0.075681 0.093407
0.092741 0.075500 0.094676
0.116357 0.077403 0.100741
0.142076 0.079258 0.103969
0.167042 0.079418 0.107423
0.194231 0.079418 0.109654
0.218531 0.080669 0.111320
0.242945 0.084183 0.116270
0.266234 0.088060 0.120983
0.293647 0.092591 0.123577
0.318895 0.097342 0.130318
0.346482 0.098130 0.136955
0.372306 0.098558 0.142950
0.000000 0.106806 0.101839
0.000511 0.104454 0.101048
0.013688 0.105670 0.104434
0.058538 0.100277 0.101438
0.087861 0.099612 0.101963
0.114033 0.103268 0.106411
0.140681 0.103784 0.106701
0.165721 0.103712 0.108836
0.193320 0.103786 0.111847
0.217066 0.102658 0.112087
0.243526 0.103309 0.119222
0.268479 0.107087 0.124990
0.295836 0.112084 0.130353
0.321358 0.117597 0.137968
0.344697 0.119398 0.143323
0.372285 0.120512 0.145567
0.000000 0.129238 0.106928
0.002429 0.129325 0.111082
0.024819 0.129871 0.108061
0.057882 0.125490 0.107294
0.086792 0.125444 0.109572
0.113202 0.125374 0.112621
0.136871 0.126466 0.115224
0.162609 0.127239 0.117054
0.190821 0.127425 0.119425
0.217063 0.128070 0.120244
0.241859 0.128918 0.122266
0.267840 0.132032 0.128494
0.295564 0.132078 0.131050
0.319797 0.137063 0.136604
0.347265 0.141281 0.150199
0.373608 0.144286 0.155684
0.000000 0.154405 0.119686
0.002817 0.153070 0.116441
0.018412 0.155392 0.116734
0.054390 0.149458 0.118546
0.083587 0.150351 0.118323
0.112959 0.150309 0.122370
0.138259 0.150588 0.122384
0.163657 0.151854 0.122834
0.190010 0.151240 0.126543
0.216031 0.150442 0.129244
0.242231 0.153168 0.132897
0.267845 0.156180 0.135010
0.294463 0.155231 0.139974
0.322939 0.158132 0.145210
0.348985 0.165961 0.154078
0.377351 0.166587 0.160309
0.000000 0.178056 0.131050
0.000414 0.176067 0.124444
0.010885 0.177015 0.127654
0.047784 0.174180 0.127627
0.080811 0.175547 0.128840
0.109188 0.175227 0.132799
0.137049 0.173835 0.129603
0.163645 0.174084 0.133507
0.189850 0.174372 0.134893
0.215536 0.175170 0.138475
0.242265 0.177057 0.143773
0.266663 0.179110 0.144539
0.293755 0.179608 0.150191
0.326292 0.184623 0.158207
0.351216 0.190779 0.165641
0.381133 0.193182 0.173554
0.000000 0.202876 0.143320
0.000172 0.202476 0.140238
0.007520 0.200784 0.141736
0.046027 0.200784 0.139897
0.079277 0.201407 0.140776
0.109095 0.201813 0.144930
0.135097 0.199101 0.143017
0.161135 0.200028 0.145759
0.189719 0.201134 0.148111
0.218214 0.202137 0.151526
0.243753 0.203038 0.154092
0.268606 0.207350 0.159775
0.297408 0.208666 0.162043
0.327296 0.212296 0.170477
0.354897 0.215775 0.177930
0.385590 0.220348 0.184306
0.000000 0.232157 0.154771
0.000533 0.229504 0.154304
0.011465 0.227964 0.154590
0.040617 0.226196 0.151780
0.075545 0.227158 0.154276
0.109176 0.229281 0.156985
0.139461 0.228236 0.158797
0.165706 0.229968 0.161158
0.193844 0.231055 0.163416
0.221083 0.231404 0.165825
0.247268 0.231007 0.168244
0.273778 0.236988 0.176805
0.302097 0.237825 0.180737
0.330750 0.240293 0.185461
0.358825 0.245905 0.192293
0.391789 0.252176 0.200031
0.000000 0.261089 0.173769
0.000842 0.258016 0.170260
0.017946 0.259678 0.172154
0.055460 0.256663 0.171015
0.076770 0.256686 0.171457
0.112186 0.258388 0.171707
0.141839 0.259852 0.175773
0.168093 0.259312 0.177348
0.197885 0.261496 0.182135
0.225203 0.260915 0.181246
0.253276 0.261787 0.186812
0.279286 0.267375 0.193377
0.304732 0.272070 0.201464
0.335535 0.272779 0.203526
0.364247 0.277159 0.208941
0.392844 0.279889 0.212862
0.000000 0.293072 0.190309
0.000574 0.292724 0.190065
0.015372 0.292758 0.195032
0.063519 0.289286 0.191526
0.088259 0.287743 0.188203
0.116560 0.289766 0.190455
0.142651 0.290761 0.194544
0.173228 0.290531 0.195639
0.205241 0.292492 0.200101
0.230421 0.294909 0.204960
0.258022 0.295076 0.207988
0.286059 0.300009 0.210236
0.312872 0.303076 0.216659
0.337639 0.305339 0.223496
0.369804 0.309168 0.225778
0.394801 0.312268 0.231715
0.000000 0.326536 0.210249
0.000830 0.323915 0.210493
0.017060 0.323727 0.216007
0.054651 0.322458 0.210447
0.092256 0.321454 0.212218
0.120697 0.326205 0.217202
0.149511 0.326316 0.216449
0.177945 0.327843 0.221643
0.204939 0.329879 0.222870
0.232345 0.328721 0.221386
0.264436 0.329447 0.227695
0.295470 0.335746 0.234465
0.322730 0.337976 0.241297
0.347451 0.341801 0.242900
0.382497 0.348577 0.256105
0.408389 0.352902 0.257150
0.002946 0.359547 0.227521
0.006256 0.359774 0.227965
0.055290 0.357054 0.229928
0.077888 0.359320 0.237208
0.103557 0.356861 0.236195
0.129487 0.359390 0.234591
0.164162 0.363377 0.239376
0.188033 0.362791 0.241414
0.211634 0.363070 0.244389
0.242214 0.365898 0.250119
0.266324 0.368122 0.249941
0.301607 0.373453 0.259807
0.336460 0.378301 0.270613
0.366284 0.379992 0.274690
0.398793 0.389712 0.286746
0.428480 0.394727 0.287340
0.033900 0.397577 0.258824
0.021635 0.397630 0.262209
0.035579 0.397420 0.264029
0.094564 0.398334 0.259476
0.125867 0.400235 0.259104
0.141211 0.399105 0.262455
0.165048 0.401527 0.267918
0.195900 0.403171 0.269752
0.228425 0.403431 0.272708
0.259329 0.405999 0.279547
0.284787 0.411788 0.289737
0.312734 0.416001 0.288005
0.343376 0.417196 0.292797
0.378531 0.423629 0.298170
0.412713 0.428694 0.309279
0.442561 0.433385 0.310997
0.092243 0.446071 0.294304
0.093696 0.442930 0.294339
0.116377 0.446140 0.295014
0.123223 0.446596 0.299220
0.143902 0.445721 0.299079
0.162494 0.443067 0.296494
0.187537 0.444091 0.294961
0.217771 0.446370 0.300898
0.245297 0.448719 0.305068
0.270694 0.449158 0.305792
0.299559 0.452428 0.307214
0.332237 0.459854 0.318180
0.360148 0.461796 0.319948
0.391389 0.465678 0.322453
0.431971 0.477181 0.338956
0.466118 0.481848 0.349593
0.000000 0.000784 0.105098
0.001203 0.003713 0.112157
0.021909 0.000784 0.112784
0.054118 0.000628 0.117020
0.091137 0.000209 0.119111
0.123660 0.008366 0.124706
0.147921 0.026353 0.128471
0.168732 0.034249 0.131608
0.193412 0.040941 0.134954
0.219137 0.043137 0.137568
0.242876 0.043137 0.136209
0.267451 0.052915 0.144104
0.291921 0.048941 0.143686
0.317543 0.057935 0.149542
0.340549 0.069124 0.154981
0.371467 0.066698 0.164611
0.000000 0.019399 0.111895
0.000586 0.020786 0.116392
0.013867 0.019873 0.116894
0.054578 0.013208 0.120951
0.092615 0.020905 0.125163
0.119529 0.024941 0.126710
0.143038 0.036172 0.127163
0.167996 0.045853 0.132518
0.190613 0.045992 0.134135
0.216188 0.049610 0.137223
0.241865 0.054518 0.137168
0.269249 0.058454 0.145861
0.292465 0.060016 0.149793
0.317769 0.070100 0.154531
0.343739 0.071829 0.154803
0.374193 0.073085 0.162226
0.000000 0.043242 0.119424
0.000000 0.042614 0.121202
0.005877 0.046581 0.121495
0.051566 0.044497 0.124214
0.088906 0.048150 0.128175
0.115695 0.051852 0.129394
0.138102 0.055749 0.129611
0.163172 0.060026 0.133612
0.191812 0.061895 0.134337
0.218154 0.065213 0.137119
0.241934 0.066161 0.143268
0.265269 0.069874 0.144063
0.291859 0.077961 0.150170
0.320209 0.077950 0.154510
0.347336 0.080432 0.158783
0.368949 0.087875 0.161751
0.000000 0.079216 0.122353
0.000178 0.081391 0.124403
0.007603 0.076957 0.125302
0.046808 0.078557 0.130227
0.081945 0.078599 0.130227
0.109804 0.079111 0.131399
0.136659 0.079467 0.136502
0.160680 0.080722 0.139242
0.187953 0.081056 0.139660
0.214149 0.081223 0.140392
0.239686 0.084758 0.143320
0.265820 0.086160 0.148580
0.294808 0.089255 0.153977
0.316570 0.095749 0.158107
0.346144 0.099263 0.163859
0.372149 0.102557 0.165633
0.000000 0.104104 0.130091
0.000931 0.104160 0.128628
0.017084 0.102181 0.129527
0.044507 0.103195 0.131022
0.080370 0.102846 0.132863
0.109664 0.102954 0.134466
0.136241 0.104397 0.138593
0.160638 0.103143 0.140162
0.187577 0.103589 0.142923
0.214735 0.103352 0.144993
0.240802 0.103791 0.144575
0.264620 0.106364 0.150017
0.291210 0.107451 0.155859
0.319847 0.113318 0.161802
0.343704 0.122297 0.168809
0.371706 0.123911 0.176450
0.000000 0.127582 0.135425
0.000976 0.128418 0.135599
0.017081 0.128697 0.137830
0.041255 0.125804 0.137150
0.081621 0.125595 0.139520
0.108061 0.124880 0.138998
0.133124 0.126274 0.140392
0.160314 0.125839 0.140688
0.186248 0.126815 0.145011
0.212810 0.128105 0.148340
0.238606 0.129150 0.150501
0.264627 0.130894 0.157072
0.289517 0.131660 0.159164
0.316776 0.133804 0.161935
0.346127 0.143146 0.170649
0.373598 0.147932 0.180042
0.000000 0.153411 0.142745
0.000586 0.152617 0.140800
0.011503 0.152282 0.144774
0.037177 0.150651 0.147545
0.075618 0.148936 0.145621
0.103216 0.148863 0.143738
0.133396 0.150494 0.146918
0.160000 0.152471 0.148706
0.186437 0.153056 0.152136
0.212141 0.153663 0.155890
0.238954 0.153412 0.157438
0.264983 0.155901 0.164518
0.289287 0.157114 0.167529
0.318547 0.160032 0.167686
0.348413 0.166766 0.176178
0.374656 0.169079 0.184239
0.000000 0.179451 0.150536
0.000307 0.177980 0.151010
0.007313 0.175686 0.150557
0.032439 0.175268 0.152105
0.069612 0.174543 0.152676
0.099852 0.176122 0.153882
0.131880 0.173982 0.154050
0.160645 0.175564 0.155552
