example_ofxGpuLutCube/bin/data/ofxGpuLutCube/LUT/V27 (night faded).cube
LUT_3D_SIZE 6
0.000000 0.000000 0.000000
0.072157 0.000000 0.018823
0.156863 0.016471 0.029804
0.229804 0.037647 0.049412
0.298039 0.050980 0.073726
0.376236 0.062823 0.098039
0.000000 0.080000 0.027451
0.075294 0.078432 0.032628
0.151372 0.077961 0.038745
0.226667 0.077961 0.060549
0.296628 0.091294 0.089883
0.379333 0.101145 0.114415
0.010980 0.150588 0.076863
0.068393 0.150117 0.080784
0.143843 0.150588 0.088628
0.216784 0.148235 0.091764
0.296941 0.157804 0.115608
0.382447 0.168588 0.134816
0.009412 0.225882 0.127059
0.058980 0.229020 0.126902
0.145412 0.229177 0.138510
0.224628 0.231529 0.146353
0.303059 0.237961 0.157647
0.392627 0.252502 0.180313
0.045490 0.323137 0.191372
0.072941 0.319372 0.188392
0.156706 0.326274 0.200000
0.238275 0.327372 0.208941
0.328627 0.337255 0.223216
0.413090 0.356016 0.247757
0.109294 0.442706 0.278117
0.136055 0.445788 0.281945
0.197404 0.445075 0.282086
0.271992 0.446675 0.287608
0.362988 0.461529 0.306368
0.462314 0.481804 0.336862
0.000000 0.000784 0.105098
0.054118 0.000628 0.117020
0.147921 0.026353 0.128471
0.219137 0.043137 0.137568
0.291921 0.048941 0.143686
0.371467 0.066698 0.164611
0.000000 0.079216 0.122353
0.046808 0.078557 0.130227
0.136659 0.079467 0.136502
0.214149 0.081223 0.140392
0.294808 0.089255 0.153977
0.372149 0.102557 0.165633
0.000000 0.153411 0.142745
0.037177 0.150651 0.147545
0.133396 0.150494 0.146918
0.212141 0.153663 0.155890
0.289287 0.157114 0.167529
0.374656 0.169079 0.184239
0.000000 0.231372 0.174745
0.018384 0.228298 0.175906
0.128910 0.228424 0.180518
0.216031 0.230839 0.186667
0.297600 0.236580 0.198055
0.386070 0.250628 0.214897
0.000000 0.323765 0.229334
0.031467 0.323420 0.227702
0.141804 0.327059 0.232408
0.232439 0.328125 0.240408
0.320314 0.337631 0.254369
0.407892 0.353525 0.279264
0.049044 0.442706 0.301702
0.106494 0.446590 0.311639
0.179261 0.443059 0.309489
0.271208 0.454281 0.323771
0.361873 0.459680 0.335407
0.466103 0.481874 0.361270
0.000000 0.007059 0.211764
0.020235 0.010510 0.222275
0.122039 0.031216 0.220392
0.203765 0.046118 0.224314
0.283451 0.063216 0.241725
0.358980 0.076047 0.254855
0.000000 0.080157 0.227608
0.003451 0.081318 0.224973
0.111341 0.082917 0.227419
0.198557 0.085773 0.230274
0.281130 0.093647 0.246651
0.360204 0.109732 0.256129
0.000000 0.154510 0.229804
0.002886 0.151843 0.230714
0.101427 0.154447 0.236706
0.191937 0.154886 0.247404
0.279122 0.159436 0.255592
0.366155 0.172976 0.271490
0.000000 0.229804 0.256471
0.000188 0.229553 0.254714
0.090604 0.232063 0.261302
0.198369 0.233663 0.267890
0.282228 0.239529 0.275639
0.379449 0.252351 0.294846
0.000000 0.323137 0.292863
0.002259 0.324769 0.299702
0.093522 0.327874 0.304471
0.208408 0.331200 0.309333
0.304094 0.334902 0.321035
0.395465 0.352907 0.340954
0.000000 0.446620 0.371474
0.025148 0.446635 0.366996
0.149846 0.448692 0.374064
0.252984 0.455857 0.384974
0.343923 0.462195 0.398052
0.453600 0.481843 0.420762
0.000000 0.016471 0.312941
0.000000 0.030745 0.315922
0.063687 0.043765 0.317647
0.177412 0.055216 0.323137
0.263373 0.066353 0.324863
0.348800 0.085404 0.341921
0.000000 0.084392 0.317490
0.000000 0.084769 0.315953
0.046620 0.089726 0.323671
0.171451 0.091012 0.326588
0.261867 0.096565 0.332267
0.346894 0.111780 0.345498
0.000000 0.153098 0.327373
0.000000 0.154196 0.326839
0.025726 0.157114 0.329977
0.162353 0.157239 0.332988
0.262024 0.162353 0.342808
0.350290 0.175780 0.361191
0.000000 0.233098 0.340392
0.000000 0.232439 0.339890
0.028675 0.232157 0.346196
0.163796 0.236643 0.355545
0.260643 0.243922 0.373929
0.361875 0.256279 0.390372
0.000000 0.326745 0.383843
0.000000 0.329506 0.388769
0.028298 0.330416 0.389176
0.177914 0.333647 0.396235
0.285145 0.343153 0.411169
0.382728 0.359487 0.431315
0.000000 0.444353 0.447632
0.000000 0.447134 0.451845
0.081876 0.450282 0.456543
0.211092 0.459200 0.465043
0.329718 0.467497 0.482284
0.430941 0.484204 0.499286
0.000000 0.044706 0.415686
0.000000 0.050980 0.410823
0.000627 0.059608 0.416941
0.126902 0.064941 0.416628
0.235608 0.074196 0.423530
0.322934 0.087012 0.436816
0.000000 0.090824 0.415373
0.000000 0.092831 0.416408
0.001004 0.096188 0.420643
0.119780 0.099357 0.420423
0.232659 0.107200 0.428612
0.332996 0.120427 0.444315
0.000000 0.160627 0.426510
0.000000 0.158714 0.422965
0.000000 0.160910 0.426353
0.100518 0.163294 0.430024
0.227953 0.169506 0.441694
0.331969 0.177876 0.451885
0.000000 0.236079 0.439216
0.000000 0.234824 0.442918
0.000000 0.237019 0.445271
0.093177 0.243012 0.453616
0.233129 0.248628 0.464878
0.339630 0.261424 0.480078
0.000000 0.330824 0.471059
0.000000 0.331075 0.471717
0.000000 0.333208 0.478682
0.119843 0.337223 0.485490
0.253428 0.345726 0.502557
0.360153 0.364478 0.533195
0.000000 0.450549 0.545608
0.000000 0.448103 0.541493
0.002485 0.452158 0.547253
0.157031 0.462331 0.558493
0.290628 0.475777 0.581417
0.408063 0.488956 0.588924
0.000000 0.058824 0.505647
0.000000 0.070510 0.512628
0.000000 0.069804 0.511043
0.012228 0.076863 0.513412
0.190753 0.088604 0.527538
0.301726 0.109647 0.536864
0.000000 0.098071 0.509561
0.000000 0.103040 0.515029
0.000000 0.103052 0.514068
0.019981 0.110122 0.516442
0.192930 0.114822 0.525366
0.307907 0.128556 0.538517
0.000000 0.160800 0.516573
0.000000 0.164190 0.519061
0.000000 0.168126 0.524388
0.000268 0.172044 0.528802
0.190403 0.174894 0.537299
0.304071 0.190494 0.555632
0.000000 0.238423 0.538533
0.000000 0.240312 0.538429
0.000000 0.244209 0.541821
0.000207 0.249225 0.552116
0.181569 0.255857 0.560510
0.313507 0.265796 0.576934
0.000000 0.335647 0.578439
0.000000 0.332417 0.577664
0.000000 0.336933 0.577443
0.026955 0.341003 0.589633
0.195057 0.353115 0.603329
0.340793 0.370118 0.624729
0.000000 0.458353 0.634784
0.000000 0.457585 0.630956
0.000000 0.460062 0.644203
0.092418 0.466236 0.648886
0.247976 0.481114 0.671631
0.383880 0.497490 0.697219
