example_ofxGpuLutCube/bin/data/ofxGpuLutCube/LUT/V28 (soft vintage look).cube
LUT_3D_SIZE 16
0.012900 0.014500 0.016300
0.080820 0.000000 0.000000
0.149600 0.000000 0.000000
0.189360 0.000000 0.000000
0.248100 0.000000 0.000000
0.301500 0.000000 0.000000
0.383760 0.000000 0.000000
0.476580 0.000000 0.000000
0.553860 0.000000 0.000000
0.630940 0.000000 0.000000
0.715200 0.000000 0.000000
0.784700 0.000000 0.000000
0.846100 0.000000 0.000000
0.905220 0.000000 0.000000
0.912700 0.000000 0.000000
0.912700 0.000000 0.000000
0.000320 0.083900 0.002160
0.049920 0.062712 0.000000
0.103076 0.028288 0.000000
0.151108 0.013760 0.000000
0.225580 0.014928 0.000000
0.296960 0.012960 0.000000
0.386836 0.007284 0.000000
0.477608 0.000000 0.000000
0.554632 0.000000 0.000000
0.632176 0.000000 0.000000
0.717160 0.000000 0.000000
0.785540 0.000000 0.000000
0.846600 0.000000 0.000000
0.906200 0.000000 0.000000
0.913780 0.000000 0.000000
0.913780 0.000000 0.000000
0.000000 0.113000 0.000000
0.000000 0.113000 0.000000
0.073512 0.094824 0.000000
0.148360 0.075816 0.000000
0.222412 0.074052 0.000000
0.298080 0.072800 0.000000
0.389064 0.071916 0.000000
0.477440 0.061388 0.000000
0.554576 0.027884 0.000000
0.634508 0.006312 0.000000
0.719160 0.000000 0.000000
0.786260 0.000000 0.000000
0.846844 0.000000 0.000000
0.907564 0.000000 0.000000
0.915660 0.000000 0.000000
0.915660 0.000000 0.000000
0.000000 0.164920 0.000000
0.000000 0.164920 0.000000
0.012552 0.159976 0.000000
0.121128 0.144168 0.000000
0.220876 0.145060 0.000000
0.300720 0.141360 0.000000
0.390744 0.142556 0.000000
0.475984 0.139868 0.000000
0.556576 0.127100 0.000000
0.637644 0.094168 0.000000
0.721240 0.040000 0.000000
0.786612 0.000000 0.000000
0.846732 0.000000 0.000000
0.907964 0.000000 0.000000
0.918940 0.000000 0.000000
0.918940 0.000000 0.000000
0.000000 0.242320 0.000000
0.000000 0.242320 0.000000
0.000000 0.242320 0.000000
0.044544 0.227968 0.000000
0.183172 0.209868 0.000000
0.289340 0.211120 0.000000
0.387044 0.213212 0.000000
0.477712 0.212464 0.000000
0.560832 0.205360 0.000000
0.640804 0.187804 0.000000
0.722640 0.159100 0.000000
0.786436 0.125156 0.000000
0.845984 0.096024 0.000000
0.907744 0.060200 0.000000
0.923640 0.051120 0.000000
0.923640 0.051120 0.000000
0.000000 0.315600 0.000000
0.000000 0.315600 0.000000
0.000000 0.315600 0.000000
0.000000 0.315600 0.000000
0.107820 0.283220 0.000000
0.249700 0.279300 0.000000
0.369260 0.285960 0.000000
0.468200 0.285520 0.000000
0.558200 0.280080 0.000000
0.643240 0.268020 0.000000
0.722900 0.250000 0.000000
0.785540 0.229680 0.000000
0.844860 0.213720 0.000000
0.911020 0.205480 0.000000
0.935800 0.204500 0.000000
0.935800 0.204500 0.000000
0.000000 0.370440 0.000000
0.000000 0.370440 0.000000
0.000000 0.370440 0.000000
0.000000 0.370440 0.000000
0.018720 0.364856 0.000000
0.187960 0.346480 0.000000
0.323408 0.357940 0.000000
0.442396 0.362188 0.000000
0.542188 0.355852 0.000000
0.634012 0.345996 0.000000
0.719260 0.331540 0.000000
0.791384 0.321884 0.000000
0.853616 0.311328 0.000000
0.920304 0.306896 0.000000
0.954160 0.306520 0.000000
0.954160 0.306520 0.000000
0.000000 0.424120 0.000000
0.000000 0.424120 0.000000
0.000000 0.424120 0.000000
0.000000 0.424120 0.000000
0.000000 0.424120 0.000000
0.000000 0.424040 0.000000
0.259096 0.426928 0.000000
0.392436 0.434972 0.000000
0.510628 0.433932 0.000000
0.615352 0.424912 0.000000
0.705000 0.412940 0.000000
0.792100 0.410344 0.000000
0.863980 0.405936 0.000000
0.929916 0.401616 0.000000
0.974360 0.401280 0.000000
0.974360 0.401280 0.000000
0.000000 0.493320 0.000000
0.000000 0.493320 0.000000
0.000000 0.493320 0.000000
0.000000 0.493320 0.000000
0.000000 0.493320 0.000000
0.000000 0.493320 0.000000
0.132728 0.497072 0.000000
0.330212 0.504028 0.000000
0.456468 0.506700 0.000000
0.576984 0.506496 0.000000
0.683480 0.493500 0.000000
0.774292 0.489928 0.000000
0.858636 0.489152 0.000000
0.937884 0.493792 0.000000
0.992248 0.494496 0.000000
0.996280 0.494640 0.000000
0.000000 0.569820 0.000000
0.000000 0.569820 0.000000
0.000000 0.569820 0.000000
0.000000 0.569820 0.000000
0.000000 0.569820 0.000000
0.000000 0.569820 0.000000
0.000000 0.569820 0.000000
0.201232 0.574168 0.000000
0.391952 0.577816 0.000000
0.517836 0.580332 0.000000
0.638720 0.578240 0.000000
0.747684 0.568880 0.000000
0.839644 0.566872 0.000000
0.928988 0.575032 0.000000
0.995636 0.585416 0.000000
0.999740 0.584660 0.000000
0.000000 0.638200 0.000000
0.000000 0.638200 0.000000
0.000000 0.638200 0.000000
0.000000 0.638200 0.000000
0.000000 0.638200 0.000000
0.000000 0.638200 0.000000
0.000000 0.638200 0.000000
0.032600 0.639620 0.000000
0.293320 0.650900 0.000000
0.454320 0.650320 0.000000
0.582200 0.651200 0.000000
0.702040 0.651120 0.000000
0.813740 0.646480 0.000000
0.910780 0.653520 0.000000
0.986840 0.660240 0.000000
0.999800 0.655200 0.000000
0.000000 0.708040 0.000000
0.000000 0.708040 0.000000
0.000000 0.708040 0.000000
0.000000 0.708040 0.000000
0.000000 0.708040 0.000000
0.000000 0.708040 0.000000
0.000000 0.708040 0.000000
0.000000 0.708040 0.000000
0.070976 0.711464 0.000000
0.357164 0.721436 0.000000
0.518000 0.724840 0.000000
0.643072 0.723980 0.000000
0.767864 0.727500 0.000000
0.884120 0.733100 0.000000
0.969156 0.729208 0.000000
0.999844 0.720630 0.000000
0.000000 0.776080 0.000000
0.000000 0.776080 0.000000
0.000000 0.776080 0.000000
0.000000 0.776080 0.000000
0.000000 0.776080 0.000000
0.000000 0.776080 0.000000
0.000000 0.776080 0.000000
0.000000 0.776080 0.000000
0.000000 0.776080 0.000000
0.127632 0.785224 0.000000
0.435400 0.796900 0.000000
0.580952 0.797100 0.000000
0.711760 0.801212 0.000000
0.840688 0.811324 0.000000
0.937016 0.799588 0.000000
0.999588 0.787146 0.000000
0.000000 0.846480 0.000000
0.000000 0.846480 0.000000
0.000000 0.846480 0.000000
0.000000 0.846480 0.000000
0.000000 0.846480 0.000000
0.000000 0.846480 0.000000
0.000000 0.846480 0.000000
0.000000 0.846480 0.000000
0.000000 0.846480 0.000000
0.013824 0.847128 0.000000
0.276360 0.860740 0.000000
0.502872 0.870588 0.000000
0.652848 0.876060 0.000000
0.780048 0.878940 0.000000
0.887192 0.869364 0.000000
0.982128 0.857719 0.000000
0.000000 0.897680 0.000000
0.000000 0.897680 0.000000
0.000000 0.897680 0.000000
0.000000 0.897680 0.000000
0.000000 0.897680 0.000000
0.000000 0.897680 0.000000
0.000000 0.897680 0.000000
0.000000 0.897680 0.000000
0.000000 0.897680 0.000000
0.000000 0.897680 0.000000
0.000000 0.898640 0.000000
0.345752 0.931500 0.000000
0.580096 0.950060 0.000000
0.718688 0.947196 0.000000
0.827800 0.935912 0.000000
0.933402 0.928342 0.000000
0.000000 0.950759 0.000000
0.000000 0.950759 0.000000
0.000000 0.950759 0.000000
0.000000 0.950759 0.000000
0.000000 0.950759 0.000000
0.000000 0.950759 0.000000
0.000000 0.950759 0.000000
0.000000 0.950759 0.000000
0.000000 0.950759 0.000000
0.000000 0.950759 0.000000
0.000000 0.950759 0.000000
0.118357 0.963157 0.000000
0.450464 0.996459 0.000000
0.646152 0.999509 0.000000
0.771559 0.999514 0.000000
0.880541 0.995807 0.000000
0.009560 0.008020 0.043520
0.035848 0.000720 0.031316
0.093184 0.000000 0.018544
0.160768 0.000000 0.017392
0.229484 0.000000 0.013044
0.294280 0.000000 0.008580
0.387728 0.000000 0.003420
0.479176 0.000000 0.000000
0.556008 0.000000 0.000000
0.633036 0.000000 0.000000
0.717540 0.000000 0.000000
0.785640 0.000000 0.000000
0.846632 0.000000 0.000000
0.905752 0.000000 0.000000
0.913200 0.000000 0.000000
0.913200 0.000000 0.000000
0.001512 0.052940 0.036092
0.023367 0.035718 0.032162
0.090281 0.018916 0.011460
0.152009 0.010529 0.008983
0.227193 0.009970 0.008213
0.299664 0.006324 0.003936
0.391105 0.001157 0.000480
0.480153 0.000000 0.000000
0.556841 0.000000 0.000000
0.634030 0.000000 0.000000
0.718540 0.000000 0.000000
0.786304 0.000000 0.000000
0.847217 0.000000 0.000000
0.906647 0.000000 0.000000
0.914180 0.000000 0.000000
0.914180 0.000000 0.000000
0.000000 0.096556 0.023964
0.000000 0.096556 0.023964
0.057094 0.076784 0.018383
0.151730 0.074304 0.006281
0.226162 0.070758 0.003283
0.303072 0.067744 0.000480
0.394261 0.064406 0.000000
0.480398 0.049646 0.000000
0.557204 0.018629 0.000000
0.636957 0.004200 0.000000
0.721172 0.000000 0.000000
0.787559 0.000000 0.000000
0.847984 0.000000 0.000000
0.908589 0.000000 0.000000
0.916632 0.000000 0.000000
0.916632 0.000000 0.000000
0.000000 0.144300 0.019052
0.000000 0.144300 0.019052
0.007980 0.139110 0.020146
0.110578 0.136003 0.016338
0.225922 0.144832 0.000000
0.306016 0.140480 0.000000
0.395771 0.140527 0.000000
0.479217 0.136094 0.000000
0.559454 0.121179 0.000000
0.640115 0.084926 0.000000
0.723220 0.022000 0.000000
0.788020 0.000000 0.000000
0.847910 0.000000 0.000000
0.909104 0.000000 0.000000
0.919928 0.000000 0.000000
0.919928 0.000000 0.000000
0.000000 0.226628 0.024076
0.000000 0.226628 0.024076
0.000000 0.226628 0.024076
0.033379 0.210116 0.025180
0.173576 0.201661 0.014167
0.293808 0.211784 0.000000
0.391056 0.212784 0.000000
0.480909 0.211058 0.000000
0.563501 0.202774 0.000000
0.643171 0.183596 0.000000
0.724516 0.152292 0.000000
0.787796 0.116602 0.000000
0.847198 0.083993 0.000000
0.908878 0.052278 0.000000
0.924620 0.047016 0.000000
0.924620 0.047016 0.000000
0.000000 0.306060 0.024460
0.000000 0.306060 0.024460
0.000000 0.306060 0.024460
0.000000 0.306060 0.024460
0.084804 0.261528 0.024852
0.244660 0.276420 0.012120
0.372652 0.286744 0.000000
0.471220 0.285264 0.000000
0.560532 0.278912 0.000000
0.645500 0.266008 0.000000
0.724500 0.246820 0.000000
0.786788 0.226488 0.000000
0.845972 0.210064 0.000000
0.911860 0.201264 0.000000
0.936540 0.200156 0.000000
0.936540 0.200120 0.000000
0.000000 0.368992 0.019808
0.000000 0.368992 0.019808
0.000000 0.368992 0.019808
0.000000 0.368992 0.019808
0.015450 0.360624 0.019648
0.174104 0.333980 0.020184
0.321892 0.356586 0.005414
0.444838 0.362618 0.000000
0.544301 0.355412 0.000000
0.636238 0.345055 0.000000
0.720868 0.329940 0.000000
0.792429 0.320049 0.000000
0.854423 0.309191 0.000000
0.921159 0.304615 0.000000
0.954840 0.304160 0.000000
0.954840 0.304160 0.000000
0.000000 0.424004 0.013908
0.000000 0.424004 0.013908
0.000000 0.424004 0.013908
0.000000 0.424004 0.013908
0.000000 0.424004 0.013908
0.005920 0.423748 0.016932
0.251122 0.420330 0.013303
0.393762 0.435801 0.000000
0.512252 0.434095 0.000000
0.617203 0.424679 0.000000
0.706728 0.412484 0.000000
0.793523 0.409695 0.000000
0.864826 0.404854 0.000000
0.930718 0.400390 0.000000
0.974992 0.399900 0.000000
0.974992 0.399900 0.000000
0.000000 0.494468 0.008148
0.000000 0.494468 0.008148
0.000000 0.494468 0.008148
0.000000 0.494468 0.008148
0.000000 0.494468 0.008148
0.000000 0.494468 0.008148
0.130134 0.495182 0.007121
0.330950 0.504790 0.000000
0.457465 0.507282 0.000000
0.578291 0.506634 0.000000
0.685032 0.493668 0.000000
0.775497 0.489820 0.000000
0.859735 0.488848 0.000000
0.938631 0.493203 0.000000
0.992858 0.493756 0.000000
0.996832 0.493900 0.000000
0.000000 0.570660 0.000288
0.000000 0.570660 0.000288
0.000000 0.570660 0.000288
0.000000 0.570660 0.000288
0.000000 0.570660 0.000288
0.000000 0.570660 0.000288
0.000000 0.570660 0.000288
0.203177 0.574865 0.000000
0.392486 0.578519 0.000000
0.518582 0.580766 0.000000
0.639924 0.578856 0.000000
0.748739 0.569089 0.000000
0.840643 0.566932 0.000000
0.929952 0.575025 0.000000
0.996054 0.585063 0.000000
0.999740 0.584120 0.000000
0.000000 0.638740 0.000000
0.000000 0.638740 0.000000
0.000000 0.638740 0.000000
0.000000 0.638740 0.000000
0.000000 0.638740 0.000000
0.000000 0.638740 0.000000
0.000000 0.638740 0.000000
0.032880 0.640208 0.000000
0.293856 0.651536 0.000000
0.454528 0.650656 0.000000
0.582960 0.651920 0.000000
0.702872 0.651552 0.000000
0.814620 0.646768 0.000000
0.911660 0.653664 0.000000
0.987164 0.660060 0.000000
0.999800 0.655020 0.000000
0.000000 0.708532 0.000000
0.000000 0.708532 0.000000
0.000000 0.708532 0.000000
0.000000 0.708532 0.000000
0.000000 0.708532 0.000000
0.000000 0.708532 0.000000
0.000000 0.708508 0.000000
0.000000 0.708508 0.000000
0.071181 0.711836 0.000000
0.357590 0.722060 0.000000
0.518316 0.725488 0.000000
0.643686 0.724554 0.000000
0.768587 0.727913 0.000000
0.884840 0.733388 0.000000
0.969538 0.729182 0.000000
0.999847 0.720582 0.000000
0.000000 0.776668 0.000000
0.000000 0.776668 0.000000
0.000000 0.776668 0.000000
0.000000 0.776668 0.000000
0.000000 0.776668 0.000000
0.000000 0.776668 0.000000
0.000000 0.776668 0.000000
0.000000 0.776668 0.000000
0.000000 0.776668 0.000000
0.130525 0.785831 0.000000
0.435612 0.797440 0.000000
0.581340 0.797657 0.000000
0.712296 0.801630 0.000000
0.841243 0.811681 0.000000
0.937456 0.799660 0.000000
0.999593 0.787207 0.000000
0.000000 0.846876 0.000000
0.000000 0.846876 0.000000
0.000000 0.846876 0.000000
0.000000 0.846876 0.000000
0.000000 0.846876 0.000000
0.000000 0.846876 0.000000
0.000000 0.846876 0.000000
0.000000 0.846876 0.000000
0.000000 0.846876 0.000000
0.013936 0.847514 0.000000
0.276892 0.861232 0.000000
0.503110 0.871097 0.000000
0.653202 0.876478 0.000000
0.780344 0.879156 0.000000
0.887536 0.869494 0.000000
0.982448 0.857779 0.000000
0.000000 0.898016 0.000000
0.000000 0.898016 0.000000
0.000000 0.898016 0.000000
0.000000 0.898016 0.000000
0.000000 0.898016 0.000000
0.000000 0.898016 0.000000
0.000000 0.898016 0.000000
0.000000 0.898016 0.000000
0.000000 0.898016 0.000000
0.000000 0.898016 0.000000
0.000000 0.899144 0.000000
0.346381 0.931857 0.000000
0.580417 0.950368 0.000000
0.718935 0.947338 0.000000
0.828092 0.936022 0.000000
0.933718 0.928427 0.000000
0.000000 0.951059 0.000000
0.000000 0.951059 0.000000
0.000000 0.951059 0.000000
0.000000 0.951059 0.000000
0.000000 0.951059 0.000000
0.000000 0.951059 0.000000
0.000000 0.951059 0.000000
0.000000 0.951059 0.000000
0.000000 0.951059 0.000000
0.000000 0.951059 0.000000
0.000000 0.951059 0.000000
0.118785 0.963386 0.000000
0.450843 0.996557 0.000000
0.646372 0.999510 0.000000
0.771740 0.999515 0.000000
0.880722 0.995867 0.000000
0.011500 0.005200 0.066240
0.015140 0.001392 0.064292
0.047656 0.000000 0.054068
0.111864 0.000000 0.056036
0.193964 0.000000 0.057748
0.273940 0.000000 0.057320
0.372380 0.000000 0.057076
0.465420 0.000000 0.046532
0.554988 0.000000 0.017108
0.636940 0.000000 0.004032
0.722200 0.000000 0.000000
0.787984 0.000000 0.000000
0.848128 0.000000 0.000000
0.907136 0.000000 0.000000
0.914540 0.000000 0.000000
0.914540 0.000000 0.000000
0.005132 0.036148 0.061856
0.012082 0.024669 0.061816
0.048587 0.012094 0.057193
0.119451 0.009396 0.055126
0.199850 0.004814 0.054479
0.279696 0.000528 0.053092
0.378498 0.000000 0.050950
0.470885 0.000000 0.037318
0.557483 0.000000 0.013500
0.639290 0.000000 0.002237
0.723432 0.000000 0.000000
0.788799 0.000000 0.000000
0.848868 0.000000 0.000000
0.908084 0.000000 0.000000
0.915540 0.000000 0.000000
0.915540 0.000000 0.000000
0.000000 0.083268 0.056124
0.000288 0.081934 0.055817
0.027098 0.050387 0.061120
0.122337 0.064218 0.055437
0.206068 0.063562 0.050234
0.285460 0.060152 0.048580
0.384386 0.054013 0.044598
0.475299 0.034346 0.027986
0.560045 0.012497 0.009804
0.643182 0.001219 0.000384
0.726188 0.000000 0.000000
0.791030 0.000000 0.000000
0.851296 0.000000 0.000000
0.911421 0.000000 0.000000
0.919276 0.000000 0.000000
0.919276 0.000000 0.000000
0.000000 0.127172 0.051948
0.000000 0.127172 0.051948
0.005038 0.119622 0.056163
0.077914 0.108186 0.065046
0.206407 0.131946 0.043156
0.296260 0.135304 0.035940
0.391163 0.135923 0.031354
0.479882 0.130574 0.018399
0.564410 0.112193 0.007090
0.646245 0.070288 0.000000
0.727692 0.000000 0.000000
0.791542 0.000000 0.000000
0.851619 0.000000 0.000000
0.913306 0.000000 0.000000
0.923660 0.000000 0.000000
0.923660 0.000000 0.000000
0.000000 0.191060 0.056020
0.000000 0.191060 0.056020
0.000000 0.191060 0.056020
0.014800 0.171393 0.066446
0.140846 0.174006 0.061887
0.290908 0.206836 0.022668
0.395287 0.210776 0.011018
0.484794 0.208336 0.008593
0.569207 0.198560 0.002622
0.649080 0.176873 0.000000
0.728296 0.141128 0.000000
0.791203 0.095210 0.000000
0.850984 0.049203 0.000000
0.913176 0.036678 0.000000
0.928464 0.032408 0.000000
0.928464 0.032408 0.000000
0.000000 0.267220 0.060600
0.000000 0.267220 0.060600
0.000000 0.267220 0.060600
0.000000 0.267220 0.060600
0.053000 0.216380 0.074488
0.215100 0.252300 0.067180
0.377560 0.286284 0.007724
0.478540 0.284632 0.000224
0.565948 0.276728 0.000000
0.650888 0.262456 0.000000
0.727060 0.241020 0.000000
0.789924 0.218712 0.000000
0.849684 0.197340 0.000000
0.915380 0.183852 0.000000
0.939340 0.180900 0.000000
0.939340 0.180900 0.000000
0.000544 0.343084 0.061904
0.000544 0.343084 0.061904
0.000544 0.343084 0.061904
0.000544 0.343084 0.061904
0.008285 0.332092 0.064461
0.128472 0.290268 0.079352
0.297275 0.335833 0.053956
0.450894 0.363184 0.000845
0.549640 0.354195 0.000000
0.641474 0.343039 0.000000
0.724472 0.327344 0.000000
0.796673 0.316778 0.000000
0.858182 0.302244 0.000000
0.924723 0.295130 0.000000
0.957712 0.293564 0.000000
0.957712 0.293564 0.000000
0.000688 0.412092 0.057688
0.000688 0.412092 0.057688
0.000688 0.412092 0.057688
0.000688 0.412092 0.057688
0.000688 0.412092 0.057688
0.009712 0.386988 0.067304
0.209457 0.380551 0.076058
0.375511 0.421395 0.041990
0.516698 0.433978 0.000630
0.621898 0.423701 0.000000
0.711196 0.411496 0.000000
0.797832 0.408109 0.000000
0.868696 0.401208 0.000000
0.934296 0.394770 0.000000
0.977984 0.393420 0.000000
0.977984 0.393420 0.000000
0.000064 0.493532 0.053704
0.000064 0.493532 0.053704
0.000064 0.493532 0.053704
0.000064 0.493532 0.053704
0.000064 0.493532 0.053704
0.000064 0.493532 0.053704
0.095966 0.461934 0.065690
0.299326 0.474899 0.056060
0.454772 0.504390 0.012204
0.582196 0.506504 0.000000
0.689340 0.493864 0.000000
0.779675 0.489235 0.000000
0.864741 0.487800 0.000000
0.942347 0.490373 0.000000
0.995299 0.489926 0.000000
0.997728 0.490060 0.000000
0.000000 0.571936 0.042900
0.000000 0.571936 0.042900
0.000000 0.571936 0.042900
0.000000 0.571936 0.042900
0.000000 0.571936 0.042900
0.000000 0.571936 0.042900
0.000000 0.571936 0.042900
0.174369 0.551205 0.045199
0.387246 0.573570 0.014396
0.520698 0.580970 0.000691
0.643504 0.580056 0.000000
0.752465 0.569347 0.000000
0.845361 0.567245 0.000000
0.934846 0.574835 0.000000
0.998161 0.583079 0.000000
0.999740 0.581128 0.000000
0.000000 0.640900 0.013980
0.000000 0.640900 0.013980
0.000000 0.640900 0.013980
0.000000 0.640900 0.013980
0.000000 0.640900 0.013980
0.000000 0.640900 0.013980
0.000000 0.640900 0.013980
0.031452 0.640548 0.013800
0.290380 0.647572 0.008616
0.455916 0.651536 0.000000
0.585080 0.653000 0.000000
0.706012 0.652972 0.000000
0.819048 0.648148 0.000000
0.916040 0.654644 0.000000
0.989060 0.659060 0.000000
0.999800 0.653960 0.000000
0.000000 0.710000 0.002672
0.000000 0.710000 0.002672
0.000000 0.710000 0.002672
0.000000 0.710000 0.002672
0.000000 0.710000 0.002672
0.000000 0.710000 0.002672
0.000000 0.710000 0.002672
0.000000 0.710000 0.002672
0.071392 0.712227 0.001635
0.360019 0.723686 0.000000
0.519564 0.726180 0.000000
0.645847 0.726291 0.000000
0.772122 0.730174 0.000000
0.888852 0.735191 0.000000
0.971928 0.729041 0.000000
0.999865 0.720290 0.000000
0.000000 0.779044 0.000000
0.000000 0.779044 0.000000
0.000000 0.779044 0.000000
0.000000 0.779044 0.000000
0.000000 0.779044 0.000000
0.000000 0.779044 0.000000
0.000000 0.779044 0.000000
0.000000 0.779044 0.000000
0.000000 0.779044 0.000000
0.142722 0.787986 0.000000
0.437328 0.798288 0.000000
0.583108 0.799642 0.000000
0.715018 0.804462 0.000112
0.844394 0.813873 0.000000
0.940063 0.800324 0.000000
0.999620 0.787481 0.000000
0.000000 0.848708 0.000000
0.000000 0.848708 0.000000
0.000000 0.848708 0.000000
0.000000 0.848708 0.000000
0.000000 0.848708 0.000000
0.000000 0.848708 0.000000
0.000000 0.848708 0.000000
0.000000 0.848708 0.000000
0.000000 0.848708 0.000000
0.014466 0.849273 0.000000
0.281136 0.862656 0.000000
0.505037 0.873274 0.000000
0.653837 0.878474 0.006262
0.781446 0.880679 0.002899
0.889660 0.870849 0.000000
0.984325 0.858646 0.000000
0.000000 0.899948 0.000000
0.000000 0.899948 0.000000
0.000000 0.899948 0.000000
0.000000 0.899948 0.000000
0.000000 0.899948 0.000000
0.000000 0.899948 0.000000
0.000000 0.899948 0.000000
0.000000 0.899948 0.000000
0.000000 0.899948 0.000000
0.000000 0.899948 0.000000
0.000000 0.901472 0.000000
0.350857 0.933823 0.000000
0.577834 0.949349 0.012259
0.717642 0.947717 0.011674
0.829678 0.937972 0.000000
0.935715 0.929786 0.000000
0.000000 0.953119 0.000000
0.000000 0.953119 0.000000
0.000000 0.953119 0.000000
0.000000 0.953119 0.000000
0.000000 0.953119 0.000000
0.000000 0.953119 0.000000
0.000000 0.953119 0.000000
0.000000 0.953119 0.000000
0.000000 0.953119 0.000000
0.000000 0.953119 0.000000
0.000000 0.953119 0.000000
0.121305 0.965436 0.000000
0.450670 0.998055 0.000115
0.644044 0.997578 0.009026
0.772736 0.999535 0.000000
0.882302 0.997706 0.000000
0.016460 0.004080 0.098320
0.019572 0.001968 0.101236
0.032952 0.000000 0.107844
0.089032 0.000000 0.108916
0.167644 0.000000 0.110436
0.259700 0.000000 0.111240
0.356716 0.000000 0.116532
0.444236 0.000000 0.114180
0.532844 0.000000 0.102740
0.627980 0.000000 0.073776
0.726040 0.000000 0.023120
0.791888 0.000000 0.000000
0.850848 0.000000 0.000000
0.909536 0.000000 0.000000
0.916780 0.000000 0.000000
0.916780 0.000000 0.000000
0.014876 0.027108 0.095952
0.018642 0.023997 0.099915
0.033182 0.018046 0.109423
0.091310 0.008820 0.110658
0.174013 0.000389 0.108498
0.263744 0.000000 0.110004
0.359894 0.000000 0.114329
0.447576 0.000000 0.110604
0.537195 0.000000 0.097654
0.632557 0.000000 0.065424
0.729240 0.000000 0.007712
0.792719 0.000000 0.000000
0.851588 0.000000 0.000000
0.910548 0.000000 0.000000
0.917860 0.000000 0.000000
0.917860 0.000000 0.000000
0.000000 0.084516 0.093868
0.008186 0.075489 0.097337
0.026993 0.058150 0.107600
0.086993 0.054534 0.113142
0.178737 0.053540 0.107364
0.269364 0.046920 0.107604
0.363656 0.034397 0.111082
0.451168 0.016407 0.106082
0.543414 0.006372 0.091420
0.639349 0.000000 0.054502
0.732556 0.000000 0.000000
0.795142 0.000000 0.000000
0.854256 0.000000 0.000000
0.914381 0.000000 0.000000
0.922012 0.000000 0.000000
0.922012 0.000000 0.000000
0.000000 0.142244 0.102684
0.000000 0.142244 0.102684
0.006238 0.131686 0.105664
0.049303 0.088928 0.117530
0.172458 0.112657 0.104868
0.272164 0.123032 0.103348
0.367310 0.123808 0.105990
0.456685 0.117908 0.102422
0.549021 0.095623 0.085058
0.644626 0.049139 0.044736
0.733036 0.000000 0.000000
0.795411 0.000000 0.000000
0.854976 0.000000 0.000000
0.918557 0.000000 0.000000
0.928252 0.000000 0.000000
0.928252 0.000000 0.000000
0.000000 0.189588 0.096580
0.000000 0.189588 0.096580
0.000000 0.189569 0.096551
0.017462 0.154375 0.111239
0.112766 0.149606 0.116278
0.261868 0.185268 0.096812
0.367674 0.195541 0.092900
0.462503 0.196829 0.088039
0.556324 0.188499 0.071060
0.650894 0.166463 0.029923
0.732360 0.126568 0.000000
0.794730 0.077838 0.000000
0.854274 0.044090 0.000000
0.918642 0.019584 0.000000
0.933568 0.010296 0.000000
0.933568 0.010296 0.000000
0.000000 0.244180 0.097720
0.000000 0.244180 0.097720
0.000000 0.244180 0.097720
0.000000 0.244180 0.097720
0.047336 0.196860 0.123848
0.193900 0.230220 0.118540
0.351368 0.265772 0.082988
0.464844 0.272968 0.060368
0.561276 0.269352 0.041456
0.658152 0.257224 0.004656
0.730660 0.234140 0.000000
0.793012 0.212920 0.000000
0.854228 0.192076 0.000000
0.922676 0.170716 0.000000
0.945580 0.162100 0.000000
0.945580 0.162100 0.000000
0.003408 0.313932 0.108464
0.003408 0.313932 0.108464
0.003408 0.313932 0.108464
0.003408 0.313932 0.108464
0.008563 0.304079 0.112902
0.100088 0.260460 0.133016
0.271598 0.310239 0.115153
0.436411 0.349824 0.055910
0.556520 0.351357 0.005530
0.649033 0.339913 0.000000
0.731016 0.325744 0.000000
0.802430 0.316195 0.000000
0.864336 0.301882 0.000000
0.931658 0.289329 0.000000
0.963744 0.283244 0.000000
0.963744 0.283244 0.000000
0.003408 0.382844 0.107560
0.003408 0.382844 0.107560
0.003408 0.382844 0.107560
0.003408 0.382844 0.107560
0.003408 0.382844 0.107560
0.019664 0.353900 0.122296
0.179985 0.347786 0.133283
0.347582 0.394381 0.107033
