example_ofxGpuLutCube/bin/data/ofxGpuLutCube/LUT/V28 (soft vintage look).cube
LUT_3D_SIZE 6
0.012900 0.014500 0.016300
0.189360 0.000000 0.000000
0.383760 0.000000 0.000000
0.630940 0.000000 0.000000
0.846100 0.000000 0.000000
0.912700 0.000000 0.000000
0.000000 0.164920 0.000000
0.121128 0.144168 0.000000
0.390744 0.142556 0.000000
0.637644 0.094168 0.000000
0.846732 0.000000 0.000000
0.918940 0.000000 0.000000
0.000000 0.370440 0.000000
0.000000 0.370440 0.000000
0.323408 0.357940 0.000000
0.634012 0.345996 0.000000
0.853616 0.311328 0.000000
0.954160 0.306520 0.000000
0.000000 0.569820 0.000000
0.000000 0.569820 0.000000
0.000000 0.569820 0.000000
0.517836 0.580332 0.000000
0.839644 0.566872 0.000000
0.999740 0.584660 0.000000
0.000000 0.776080 0.000000
0.000000 0.776080 0.000000
0.000000 0.776080 0.000000
0.127632 0.785224 0.000000
0.711760 0.801212 0.000000
0.999588 0.787146 0.000000
0.000000 0.950759 0.000000
0.000000 0.950759 0.000000
0.000000 0.950759 0.000000
0.000000 0.950759 0.000000
0.450464 0.996459 0.000000
0.880541 0.995807 0.000000
0.016460 0.004080 0.098320
0.089032 0.000000 0.108916
0.356716 0.000000 0.116532
0.627980 0.000000 0.073776
0.850848 0.000000 0.000000
0.916780 0.000000 0.000000
0.000000 0.142244 0.102684
0.049303 0.088928 0.117530
0.367310 0.123808 0.105990
0.644626 0.049139 0.044736
0.854976 0.000000 0.000000
0.928252 0.000000 0.000000
0.003408 0.313932 0.108464
0.003408 0.313932 0.108464
0.271598 0.310239 0.115153
0.649033 0.339913 0.000000
0.864336 0.301882 0.000000
0.963744 0.283244 0.000000
0.000000 0.551920 0.099092
0.000000 0.551920 0.099092
0.000000 0.551920 0.099092
0.505984 0.566061 0.046848
0.850660 0.568138 0.000000
0.999740 0.575304 0.000000
0.000000 0.782724 0.038800
0.000000 0.782724 0.038800
0.000000 0.782724 0.038800
0.121659 0.771948 0.053475
0.708230 0.798349 0.051181
0.999676 0.788093 0.000000
0.000000 0.956237 0.000000
0.000000 0.956237 0.000000
0.000000 0.956237 0.000000
0.000000 0.956237 0.000000
0.443229 0.986338 0.032159
0.885814 0.999545 0.000000
0.119980 0.000000 0.311480
0.190784 0.000000 0.293980
0.412704 0.000000 0.283576
0.653680 0.000000 0.273300
0.852644 0.000000 0.276932
0.925060 0.000000 0.282620
0.075176 0.153124 0.316720
0.171345 0.136924 0.296122
0.404019 0.073829 0.284393
0.656351 0.000000 0.269358
0.860370 0.000000 0.267126
0.941028 0.000000 0.265532
0.000000 0.376700 0.355360
0.000000 0.376700 0.355360
0.302960 0.292058 0.295786
0.641933 0.301240 0.253445
0.883731 0.301051 0.284542
0.987040 0.288400 0.278908
0.000000 0.564052 0.335988
0.000000 0.564052 0.335988
0.028678 0.545951 0.336614
0.498128 0.512258 0.265756
0.864742 0.564150 0.271970
0.999900 0.568756 0.313572
0.000000 0.761984 0.315876
0.000000 0.761984 0.315876
0.000000 0.761984 0.315876
0.156695 0.706696 0.317758
0.710912 0.764926 0.319846
0.999844 0.781025 0.236159
0.000000 0.940936 0.277157
0.000000 0.940936 0.277157
0.000000 0.940936 0.277157
0.000000 0.940936 0.277157
0.405278 0.889112 0.283129
0.879803 0.983954 0.266729
0.282480 0.000000 0.568260
0.340528 0.000000 0.559560
0.518572 0.000000 0.514988
0.731040 0.000000 0.492344
0.923884 0.000000 0.524268
0.971660 0.000000 0.534320
0.257628 0.139868 0.566356
0.319564 0.113955 0.559624
0.507759 0.009690 0.512426
0.734986 0.000000 0.501481
0.930554 0.000000 0.528178
0.981796 0.000000 0.533964
0.000000 0.391864 0.609748
0.057667 0.381228 0.597794
0.440578 0.341610 0.511363
0.705084 0.297170 0.495317
0.940330 0.322080 0.551405
0.999936 0.278068 0.548260
0.000000 0.612520 0.611804
0.000000 0.612520 0.611804
0.000000 0.615098 0.615183
0.585354 0.537106 0.513475
0.905644 0.565942 0.533831
0.999500 0.546708 0.546540
0.000000 0.804492 0.580192
0.000000 0.804492 0.580192
0.000000 0.804492 0.580192
0.304636 0.771057 0.588030
0.755805 0.762291 0.517126
0.999777 0.766516 0.503840
0.000000 0.959291 0.531277
0.000000 0.959291 0.531277
0.000000 0.959291 0.531277
0.000000 0.959291 0.531277
0.478691 0.929699 0.530070
0.899855 0.977599 0.494733
0.453160 0.000000 0.809100
0.490280 0.000000 0.799368
0.624672 0.000000 0.786524
0.818272 0.000000 0.799652
0.977948 0.000000 0.781200
0.999020 0.000000 0.780000
0.431936 0.110976 0.806988
0.473220 0.102204 0.797756
0.614650 0.098866 0.785979
0.811182 0.147484 0.798213
0.978873 0.000000 0.785022
0.999900 0.000000 0.782260
0.289704 0.394300 0.820528
0.369172 0.396788 0.806166
0.570042 0.389303 0.780354
0.781765 0.390922 0.786823
0.966459 0.296715 0.785338
1.000000 0.226556 0.783788
0.000000 0.630212 0.859696
0.000000 0.630212 0.859696
0.221350 0.630309 0.859606
0.700656 0.602217 0.759270
0.921465 0.546772 0.777457
0.999856 0.500712 0.772536
0.000000 0.838768 0.845748
0.000000 0.838768 0.845748
0.000000 0.838768 0.845748
0.314550 0.834825 0.852286
0.792775 0.773223 0.765234
0.999704 0.755925 0.759866
0.000000 0.986349 0.773386
0.000000 0.986349 0.773386
0.000000 0.986349 0.773386
0.000000 0.986350 0.773387
0.567335 0.972592 0.777574
0.938970 0.991896 0.766810
0.613251 0.299709 0.999900
0.635363 0.291194 0.999979
0.716076 0.247392 0.999933
0.848956 0.053341 0.999687
0.999994 0.000000 0.997231
1.000000 0.000000 0.997227
0.600867 0.341529 0.999999
0.624092 0.334130 0.999999
0.707214 0.296704 0.999909
0.842576 0.172889 0.999716
0.999956 0.000000 0.997879
1.000000 0.000000 0.997939
0.546928 0.482684 0.999822
0.572829 0.475540 0.999870
0.665641 0.448686 0.999820
0.812445 0.389164 0.996605
0.984567 0.116102 0.999542
1.000000 0.063602 0.999622
0.287627 0.656145 0.999959
0.349368 0.651951 0.999999
0.532897 0.633235 0.999600
0.744589 0.600589 0.985249
0.946170 0.549748 0.998040
0.999920 0.510011 0.999570
0.204217 0.833077 0.999999
0.204217 0.833077 0.999999
0.224936 0.832554 0.999999
0.510344 0.819645 0.999809
0.855003 0.793503 0.988704
0.999900 0.781074 0.999539
0.000000 0.999644 0.999724
0.000000 0.999644 0.999724
0.000000 0.999644 0.999724
0.001052 0.999654 0.999725
0.603942 0.999491 0.999572
0.990082 0.999636 0.999701
