example_ofxGpuLutCube/bin/data/ofxGpuLutCube/LUT/V29 (retro bright fade).cube
LUT_3D_SIZE 6
0.056107 0.000000 0.000000
0.260026 0.000000 0.000000
0.646952 0.000000 0.000000
1.000000 0.000000 0.000000
1.000000 0.000000 0.000000
1.000000 0.000000 0.000000
0.000000 0.139205 0.000000
0.169796 0.117561 0.000000
0.532577 0.056752 0.000000
1.000000 0.000000 0.000000
1.000000 0.000000 0.000000
1.000000 0.000000 0.000000
0.000000 0.366872 0.000000
0.003221 0.361025 0.000000
0.337406 0.329796 0.000000
0.977236 0.232413 0.000000
1.000000 0.231103 0.000000
1.000000 0.282584 0.000000
0.000000 0.774914 0.000000
0.000000 0.801342 0.000000
0.021211 0.800295 0.000000
0.703354 0.726803 0.000000
1.000000 0.729170 0.000000
1.000000 0.784860 0.000000
0.000000 1.000000 0.000000
0.000000 1.000000 0.000000
0.034944 1.000000 0.000000
0.647644 1.000000 0.000000
1.000000 1.000000 0.000000
1.000000 1.000000 0.000000
0.000000 1.000000 0.000000
0.000000 1.000000 0.000000
0.050321 1.000000 0.000000
0.595002 1.000000 0.000000
1.000000 1.000000 0.000000
1.000000 1.000000 0.000000
0.044578 0.000000 0.124358
0.248619 0.000000 0.099848
0.631325 0.000000 0.030512
1.000000 0.000000 0.000000
1.000000 0.000000 0.000000
1.000000 0.000000 0.000000
0.000000 0.129568 0.049475
0.160114 0.109134 0.033495
0.520495 0.050862 0.002124
1.000000 0.000000 0.000000
1.000000 0.000000 0.000000
1.000000 0.000000 0.000000
0.000000 0.361317 0.000000
0.002938 0.358698 0.000000
0.335701 0.332176 0.000000
0.977726 0.239116 0.000000
1.000000 0.238139 0.000000
1.000000 0.290199 0.000000
0.000000 0.780093 0.000000
0.000000 0.807955 0.000000
0.031019 0.809283 0.000000
0.719621 0.740251 0.000000
1.000000 0.739391 0.000000
1.000000 0.789091 0.000000
0.000000 1.000000 0.000000
0.000000 1.000000 0.000000
0.035399 1.000000 0.000000
0.638082 1.000000 0.000000
1.000000 1.000000 0.000000
1.000000 1.000000 0.000000
0.000000 1.000000 0.000000
0.000000 1.000000 0.000000
0.037190 1.000000 0.000000
0.575506 1.000000 0.000000
1.000000 1.000000 0.000000
1.000000 1.000000 0.000000
0.015509 0.000000 0.555630
0.218929 0.000000 0.520739
0.598098 0.000000 0.443136
1.000000 0.000000 0.311679
1.000000 0.000000 0.280524
1.000000 0.000000 0.280772
0.000000 0.104518 0.447183
0.135597 0.086282 0.422374
0.494030 0.031701 0.364125
1.000000 0.000000 0.240832
1.000000 0.000000 0.225574
1.000000 0.000000 0.265927
0.000000 0.343876 0.270443
0.001773 0.345487 0.282156
0.321741 0.324718 0.283438
0.968988 0.235917 0.219801
1.000000 0.234887 0.233178
1.000000 0.288806 0.288548
0.000000 0.775563 0.017666
0.000000 0.804497 0.046142
0.036900 0.809888 0.050033
0.728927 0.744807 0.001695
1.000000 0.739581 0.002941
1.000000 0.783152 0.041079
0.000000 1.000000 0.004109
0.000000 1.000000 0.023053
0.028325 1.000000 0.016718
0.620046 1.000000 0.000000
1.000000 1.000000 0.000000
1.000000 1.000000 0.000000
0.000000 1.000000 0.082828
0.000000 1.000000 0.054765
0.020429 1.000000 0.011827
0.550097 1.000000 0.000000
0.996157 1.000000 0.000000
1.000000 1.000000 0.000000
0.000000 0.000000 1.000000
0.161956 0.000000 1.000000
0.535619 0.000000 1.000000
1.000000 0.000000 1.000000
1.000000 0.000000 0.992539
1.000000 0.000000 0.992406
0.000000 0.051763 1.000000
0.082468 0.034892 1.000000
0.438556 0.001769 1.000000
1.000000 0.000000 0.956541
1.000000 0.000000 0.942475
1.000000 0.000000 0.975579
0.000000 0.297189 0.981123
0.000000 0.302630 0.988968
0.278187 0.287208 0.991451
0.936466 0.202155 0.935930
1.000000 0.200430 0.934785
1.000000 0.258183 0.971055
0.000000 0.740062 0.721782
0.000000 0.770144 0.749621
0.019674 0.781092 0.747436
0.705647 0.718238 0.671783
1.000000 0.707149 0.662423
1.000000 0.744836 0.702981
0.000000 1.000000 0.668281
0.000000 1.000000 0.685925
0.000000 1.000000 0.662071
0.569980 1.000000 0.539153
0.991925 0.991259 0.439599
1.000000 0.985277 0.413777
0.000000 1.000000 0.713683
0.000000 1.000000 0.672121
0.000000 1.000000 0.608573
0.496599 1.000000 0.467310
0.959218 1.000000 0.342429
1.000000 1.000000 0.310365
0.000000 0.000000 1.000000
0.147007 0.000000 1.000000
0.515780 0.000000 1.000000
1.000000 0.000000 1.000000
1.000000 0.000000 1.000000
1.000000 0.000000 1.000000
0.000000 0.037401 1.000000
0.066237 0.020915 1.000000
0.418729 0.000188 1.000000
1.000000 0.000000 1.000000
1.000000 0.000000 1.000000
1.000000 0.000000 1.000000
0.000000 0.284287 1.000000
0.000000 0.292160 1.000000
0.264456 0.279951 1.000000
0.926262 0.195623 1.000000
1.000000 0.191092 1.000000
1.000000 0.251165 1.000000
0.000000 0.730670 1.000000
0.000000 0.760542 1.000000
0.020935 0.774321 1.000000
0.699785 0.709365 1.000000
1.000000 0.689135 1.000000
1.000000 0.717992 1.000000
0.000000 1.000000 1.000000
0.000000 1.000000 1.000000
0.000000 1.000000 1.000000
0.529308 1.000000 1.000000
0.956809 0.953447 0.964125
1.000000 0.943526 0.953881
0.000000 1.000000 1.000000
0.000000 1.000000 1.000000
0.000000 1.000000 1.000000
0.445235 1.000000 0.999213
0.912751 1.000000 0.919047
1.000000 1.000000 0.901560
0.000000 0.000000 1.000000
0.144571 0.000000 1.000000
0.509426 0.000000 1.000000
1.000000 0.000000 1.000000
1.000000 0.000000 1.000000
1.000000 0.000000 1.000000
0.000000 0.037785 1.000000
0.066593 0.023160 1.000000
0.416770 0.000645 1.000000
1.000000 0.000000 1.000000
1.000000 0.000000 1.000000
1.000000 0.000000 1.000000
0.000000 0.291560 1.000000
0.000000 0.303414 1.000000
0.275409 0.295150 1.000000
0.936160 0.212481 1.000000
1.000000 0.207285 1.000000
1.000000 0.271445 1.000000
0.000000 0.745266 1.000000
0.000000 0.777657 1.000000
0.043030 0.794982 1.000000
0.718869 0.727685 1.000000
1.000000 0.698918 1.000000
1.000000 0.721117 1.000000
0.000000 1.000000 1.000000
0.000000 1.000000 1.000000
0.000000 1.000000 1.000000
0.520548 1.000000 1.000000
0.952500 0.949178 1.000000
1.000000 0.937792 1.000000
0.000000 1.000000 1.000000
0.000000 1.000000 1.000000
0.000000 1.000000 1.000000
0.432036 1.000000 1.000000
0.905287 1.000000 1.000000
1.000000 1.000000 1.000000
