example_ofxGpuLutCube/bin/data/ofxGpuLutCube/LUT/V29 (retro bright fade).cube
LUT_3D_SIZE 16
0.056107 0.000000 0.000000
0.120061 0.000000 0.000000
0.185748 0.000000 0.000000
0.260026 0.000000 0.000000
0.353392 0.000000 0.000000
0.478467 0.000000 0.000000
0.646952 0.000000 0.000000
0.839705 0.000000 0.000000
1.000000 0.000000 0.000000
1.000000 0.000000 0.000000
1.000000 0.000000 0.000000
1.000000 0.000000 0.000000
1.000000 0.000000 0.000000
1.000000 0.000000 0.000000
1.000000 0.000000 0.000000
1.000000 0.000000 0.000000
0.029702 0.040302 0.000000
0.094483 0.032846 0.000000
0.159181 0.025330 0.000000
0.231728 0.015634 0.000000
0.322634 0.003807 0.000000
0.444331 0.000319 0.000000
0.609975 0.000000 0.000000
0.802060 0.000000 0.000000
1.000000 0.000000 0.000000
1.000000 0.000000 0.000000
1.000000 0.000000 0.000000
1.000000 0.000000 0.000000
1.000000 0.000000 0.000000
1.000000 0.000000 0.000000
1.000000 0.000000 0.000000
1.000000 0.000000 0.000000
0.004733 0.088156 0.000000
0.067414 0.080653 0.000000
0.131668 0.073228 0.000000
0.202792 0.064338 0.000000
0.291653 0.050910 0.000000
0.410137 0.029708 0.000000
0.572347 0.005030 0.000000
0.765265 0.000000 0.000000
0.981380 0.000000 0.000000
1.000000 0.000000 0.000000
1.000000 0.000000 0.000000
1.000000 0.000000 0.000000
1.000000 0.000000 0.000000
1.000000 0.000000 0.000000
1.000000 0.000000 0.000000
1.000000 0.000000 0.000000
0.000000 0.139205 0.000000
0.034072 0.132157 0.000000
0.098879 0.125459 0.000000
0.169796 0.117561 0.000000
0.257452 0.105647 0.000000
0.373571 0.086691 0.000000
0.532577 0.056752 0.000000
0.725532 0.018343 0.000000
0.942406 0.000000 0.000000
1.000000 0.000000 0.000000
1.000000 0.000000 0.000000
1.000000 0.000000 0.000000
1.000000 0.000000 0.000000
1.000000 0.000000 0.000000
1.000000 0.000000 0.000000
1.000000 0.000000 0.000000
0.000000 0.198682 0.000000
0.002079 0.192437 0.000000
0.055019 0.186942 0.000000
0.126571 0.180667 0.000000
0.213785 0.171004 0.000000
0.328475 0.154622 0.000000
0.485049 0.127752 0.000000
0.678937 0.092126 0.000000
0.896627 0.050718 0.000000
1.000000 0.014385 0.000000
1.000000 0.002922 0.000000
1.000000 0.002618 0.000000
1.000000 0.007212 0.000000
1.000000 0.013914 0.000000
1.000000 0.021236 0.000000
1.000000 0.031208 0.000000
0.000000 0.272353 0.000000
0.000000 0.267540 0.000000
0.006177 0.263641 0.000000
0.065901 0.259707 0.000000
0.153944 0.252476 0.000000
0.268243 0.239211 0.000000
0.423263 0.216348 0.000000
0.618332 0.183844 0.000000
0.835876 0.146761 0.000000
1.000000 0.106453 0.000000
1.000000 0.086330 0.000000
1.000000 0.087838 0.000000
1.000000 0.099781 0.000000
1.000000 0.115252 0.000000
1.000000 0.131489 0.000000
1.000000 0.148623 0.000000
0.000000 0.366872 0.000000
0.000000 0.364079 0.000000
0.000000 0.362282 0.000000
0.003221 0.361025 0.000000
0.068922 0.357175 0.000000
0.183567 0.348022 0.000000
0.337406 0.329796 0.000000
0.533378 0.301747 0.000000
0.750828 0.269504 0.000000
0.977236 0.232413 0.000000
1.000000 0.214100 0.000000
1.000000 0.217261 0.000000
1.000000 0.231103 0.000000
1.000000 0.248327 0.000000
1.000000 0.265737 0.000000
1.000000 0.282584 0.000000
0.000000 0.482793 0.000000
0.000000 0.483348 0.000000
0.000000 0.484811 0.000000
0.000000 0.487401 0.000000
0.001088 0.488222 0.000000
0.074929 0.484105 0.000000
0.228299 0.470990 0.000000
0.426264 0.447670 0.000000
0.646999 0.419449 0.000000
0.896134 0.384167 0.000000
1.000000 0.365160 0.000000
1.000000 0.367523 0.000000
1.000000 0.380711 0.000000
1.000000 0.397961 0.000000
1.000000 0.416700 0.000000
1.000000 0.437522 0.000000
0.000000 0.618388 0.000000
0.000000 0.623027 0.000000
0.000000 0.628816 0.000000
0.000000 0.635206 0.000000
0.000000 0.639953 0.000000
0.000000 0.639435 0.000000
0.122105 0.629689 0.000000
0.323333 0.608005 0.000000
0.546636 0.580935 0.000000
0.802083 0.545638 0.000000
0.988893 0.524947 0.000000
1.000000 0.527355 0.000000
1.000000 0.544318 0.000000
1.000000 0.565777 0.000000
1.000000 0.588240 0.000000
1.000000 0.610705 0.000000
0.000000 0.774914 0.000000
0.000000 0.783199 0.000000
0.000000 0.792257 0.000000
0.000000 0.801342 0.000000
0.000000 0.807784 0.000000
0.000000 0.808546 0.000000
0.021211 0.800295 0.000000
0.212463 0.781488 0.000000
0.440020 0.757608 0.000000
0.703354 0.726803 0.000000
0.923968 0.708681 0.000000
1.000000 0.712253 0.000000
1.000000 0.729170 0.000000
1.000000 0.749332 0.000000
1.000000 0.768405 0.000000
1.000000 0.784860 0.000000
0.000000 0.918049 0.000000
0.000000 0.928619 0.000000
0.000000 0.939117 0.000000
0.000000 0.949943 0.000000
0.000000 0.958177 0.000000
0.000000 0.961368 0.000000
0.000000 0.959488 0.000000
0.166914 0.950117 0.000000
0.394616 0.930487 0.000000
0.652526 0.901020 0.000000
0.874317 0.879387 0.000000
0.994526 0.878214 0.000000
1.000000 0.889375 0.000000
1.000000 0.903071 0.000000
1.000000 0.914938 0.000000
1.000000 0.924948 0.000000
0.000000 1.000000 0.000000
0.000000 1.000000 0.000000
0.000000 1.000000 0.000000
0.000000 1.000000 0.000000
0.000000 1.000000 0.000000
0.000000 1.000000 0.000000
0.005702 1.000000 0.000000
0.181328 1.000000 0.000000
0.397518 1.000000 0.000000
0.642459 0.999775 0.000000
0.861167 0.990842 0.000000
0.986310 0.986410 0.000000
1.000000 0.989072 0.000000
1.000000 0.993313 0.000000
1.000000 0.996916 0.000000
1.000000 0.999144 0.000000
0.000000 1.000000 0.000000
0.000000 1.000000 0.000000
0.000000 1.000000 0.000000
0.000000 1.000000 0.000000
0.000000 1.000000 0.000000
0.000000 1.000000 0.000000
0.034944 1.000000 0.000000
0.208373 1.000000 0.000000
0.414230 1.000000 0.000000
0.647644 1.000000 0.000000
0.863769 1.000000 0.000000
0.987635 1.000000 0.000000
1.000000 1.000000 0.000000
1.000000 1.000000 0.000000
1.000000 1.000000 0.000000
1.000000 1.000000 0.000000
0.000000 1.000000 0.000000
0.000000 1.000000 0.000000
0.000000 1.000000 0.000000
0.000000 1.000000 0.000000
0.000000 1.000000 0.000000
0.000000 1.000000 0.000000
0.056287 1.000000 0.000000
0.222259 1.000000 0.000000
0.419439 1.000000 0.000000
0.641655 1.000000 0.000000
0.857419 1.000000 0.000000
0.985494 1.000000 0.000000
1.000000 1.000000 0.000000
1.000000 1.000000 0.000000
1.000000 1.000000 0.000000
1.000000 1.000000 0.000000
0.000000 1.000000 0.000000
0.000000 1.000000 0.000000
0.000000 1.000000 0.000000
0.000000 1.000000 0.000000
0.000000 1.000000 0.000000
0.000000 1.000000 0.000000
0.061121 1.000000 0.000000
0.217029 1.000000 0.000000
0.407887 1.000000 0.000000
0.622416 1.000000 0.000000
0.840369 1.000000 0.000000
0.978913 1.000000 0.000000
1.000000 1.000000 0.000000
1.000000 1.000000 0.000000
1.000000 1.000000 0.000000
1.000000 1.000000 0.000000
0.000000 1.000000 0.000000
0.000000 1.000000 0.000000
0.000000 1.000000 0.000000
0.000000 1.000000 0.000000
0.000000 1.000000 0.000000
0.000000 1.000000 0.000000
0.050321 1.000000 0.000000
0.198988 1.000000 0.000000
0.385902 1.000000 0.000000
0.595002 1.000000 0.000000
0.815973 1.000000 0.000000
0.964124 1.000000 0.000000
1.000000 1.000000 0.000000
1.000000 1.000000 0.000000
1.000000 1.000000 0.000000
1.000000 1.000000 0.000000
0.052027 0.000000 0.000521
0.117002 0.000000 0.000000
0.182537 0.000000 0.000000
0.256447 0.000000 0.000000
0.349476 0.000000 0.000000
0.474075 0.000000 0.000000
0.642133 0.000000 0.000000
0.834703 0.000000 0.000000
1.000000 0.000000 0.000000
1.000000 0.000000 0.000000
1.000000 0.000000 0.000000
1.000000 0.000000 0.000000
1.000000 0.000000 0.000000
1.000000 0.000000 0.000000
1.000000 0.000000 0.000000
1.000000 0.000000 0.000000
0.026419 0.037174 0.000000
0.091185 0.029668 0.000000
0.155815 0.022133 0.000000
0.228218 0.012524 0.000000
0.318865 0.002402 0.000000
0.440046 0.000190 0.000000
0.605359 0.000000 0.000000
0.797349 0.000000 0.000000
0.999667 0.000000 0.000000
1.000000 0.000000 0.000000
1.000000 0.000000 0.000000
1.000000 0.000000 0.000000
1.000000 0.000000 0.000000
1.000000 0.000000 0.000000
1.000000 0.000000 0.000000
1.000000 0.000000 0.000000
0.002199 0.084801 0.000000
0.064089 0.077333 0.000000
0.128307 0.070144 0.000000
0.199401 0.061304 0.000000
0.288143 0.048006 0.000000
0.406300 0.027100 0.000000
0.568051 0.004013 0.000000
0.760823 0.000000 0.000000
0.976963 0.000000 0.000000
1.000000 0.000000 0.000000
1.000000 0.000000 0.000000
1.000000 0.000000 0.000000
1.000000 0.000000 0.000000
1.000000 0.000000 0.000000
1.000000 0.000000 0.000000
1.000000 0.000000 0.000000
0.000000 0.136009 0.000000
0.031022 0.129036 0.000000
0.095912 0.122547 0.000000
0.166871 0.114838 0.000000
0.254319 0.103147 0.000000
0.370205 0.084387 0.000000
0.528994 0.054783 0.000000
0.722000 0.016754 0.000000
0.938681 0.000000 0.000000
1.000000 0.000000 0.000000
1.000000 0.000000 0.000000
1.000000 0.000000 0.000000
1.000000 0.000000 0.000000
1.000000 0.000000 0.000000
1.000000 0.000000 0.000000
1.000000 0.000000 0.000000
0.000000 0.195732 0.000000
0.001782 0.189704 0.000000
0.052846 0.184418 0.000000
0.124418 0.178424 0.000000
0.211479 0.168958 0.000000
0.325979 0.152933 0.000000
0.482402 0.126570 0.000000
0.675967 0.091137 0.000000
0.893594 0.050133 0.000000
1.000000 0.014314 0.000000
1.000000 0.002902 0.000000
1.000000 0.002727 0.000000
1.000000 0.007680 0.000000
1.000000 0.014444 0.000000
1.000000 0.022048 0.000000
1.000000 0.032886 0.000000
0.000000 0.269863 0.000000
0.000000 0.265353 0.000000
0.005454 0.261773 0.000000
0.064844 0.257903 0.000000
0.152809 0.251039 0.000000
0.266857 0.238361 0.000000
0.421645 0.215938 0.000000
0.616723 0.183922 0.000000
0.833963 0.147323 0.000000
1.000000 0.107422 0.000000
1.000000 0.087441 0.000000
1.000000 0.089162 0.000000
1.000000 0.101379 0.000000
1.000000 0.117265 0.000000
1.000000 0.133822 0.000000
1.000000 0.151041 0.000000
0.000000 0.364967 0.000000
0.000000 0.362627 0.000000
0.000000 0.361265 0.000000
0.003144 0.360286 0.000000
0.069297 0.356899 0.000000
0.183506 0.348120 0.000000
0.337327 0.330528 0.000000
0.533173 0.302959 0.000000
0.750861 0.271385 0.000000
0.977722 0.234438 0.000000
1.000000 0.216194 0.000000
1.000000 0.219550 0.000000
1.000000 0.233330 0.000000
1.000000 0.250675 0.000000
1.000000 0.268041 0.000000
1.000000 0.285050 0.000000
0.000000 0.482045 0.000000
0.000000 0.482939 0.000000
0.000000 0.484888 0.000000
0.000000 0.487893 0.000000
0.001125 0.489098 0.000000
0.076427 0.485505 0.000000
0.229823 0.473123 0.000000
0.427918 0.449848 0.000000
0.648320 0.422109 0.000000
0.898263 0.387095 0.000000
1.000000 0.367576 0.000000
1.000000 0.369743 0.000000
1.000000 0.383104 0.000000
1.000000 0.400579 0.000000
1.000000 0.419970 0.000000
1.000000 0.441053 0.000000
0.000000 0.618954 0.000000
0.000000 0.623804 0.000000
0.000000 0.629913 0.000000
0.000000 0.636930 0.000000
0.000000 0.641834 0.000000
0.000000 0.641575 0.000000
0.125038 0.632110 0.000000
0.326176 0.610573 0.000000
0.549230 0.583522 0.000000
0.805187 0.548447 0.000000
0.992124 0.527986 0.000000
1.000000 0.530855 0.000000
1.000000 0.547963 0.000000
1.000000 0.569852 0.000000
1.000000 0.592369 0.000000
1.000000 0.614422 0.000000
0.000000 0.776597 0.000000
0.000000 0.785477 0.000000
0.000000 0.794341 0.000000
0.000000 0.803499 0.000000
0.000000 0.810178 0.000000
0.000000 0.810956 0.000000
0.023745 0.803130 0.000000
0.216723 0.784721 0.000000
0.445381 0.761841 0.000000
0.708493 0.731104 0.000000
0.930654 0.712844 0.000000
1.000000 0.716370 0.000000
1.000000 0.732795 0.000000
1.000000 0.752210 0.000000
1.000000 0.770715 0.000000
1.000000 0.786646 0.000000
0.000000 0.920600 0.000000
0.000000 0.931164 0.000000
0.000000 0.941913 0.000000
0.000000 0.953127 0.000000
0.000000 0.960271 0.000000
0.000000 0.964031 0.000000
0.000000 0.962570 0.000000
0.171914 0.953609 0.000000
0.398800 0.935100 0.000000
0.656374 0.905563 0.000000
0.878160 0.882872 0.000000
0.996502 0.880825 0.000000
1.000000 0.891028 0.000000
1.000000 0.903876 0.000000
1.000000 0.915350 0.000000
1.000000 0.924241 0.000000
0.000000 1.000000 0.000000
0.000000 1.000000 0.000000
0.000000 1.000000 0.000000
0.000000 1.000000 0.000000
0.000000 1.000000 0.000000
0.000000 1.000000 0.000000
0.006682 1.000000 0.000000
0.183540 1.000000 0.000000
0.398621 1.000000 0.000000
0.642576 1.000000 0.000000
0.861344 0.991745 0.000000
0.986571 0.986853 0.000000
1.000000 0.988993 0.000000
1.000000 0.992888 0.000000
1.000000 0.996080 0.000000
1.000000 0.998105 0.000000
0.000000 1.000000 0.000000
0.000000 1.000000 0.000000
0.000000 1.000000 0.000000
0.000000 1.000000 0.000000
0.000000 1.000000 0.000000
0.000000 1.000000 0.000000
0.035286 1.000000 0.000000
0.207383 1.000000 0.000000
0.412500 1.000000 0.000000
0.644546 1.000000 0.000000
0.861086 1.000000 0.000000
0.986393 1.000000 0.000000
1.000000 1.000000 0.000000
1.000000 1.000000 0.000000
1.000000 1.000000 0.000000
1.000000 1.000000 0.000000
0.000000 1.000000 0.000000
0.000000 1.000000 0.000000
0.000000 1.000000 0.000000
0.000000 1.000000 0.000000
0.000000 1.000000 0.000000
0.000000 1.000000 0.000000
0.054290 1.000000 0.000000
0.219081 1.000000 0.000000
0.415230 1.000000 0.000000
0.636575 1.000000 0.000000
0.852508 1.000000 0.000000
0.983232 1.000000 0.000000
1.000000 1.000000 0.000000
1.000000 1.000000 0.000000
1.000000 1.000000 0.000000
1.000000 1.000000 0.000000
0.000000 1.000000 0.000000
0.000000 1.000000 0.000000
0.000000 1.000000 0.000000
0.000000 1.000000 0.000000
0.000000 1.000000 0.000000
0.000000 1.000000 0.000000
0.057076 1.000000 0.000000
0.212118 1.000000 0.000000
0.402370 1.000000 0.000000
0.616262 1.000000 0.000000
0.834631 1.000000 0.000000
0.976054 1.000000 0.000000
1.000000 1.000000 0.000000
1.000000 1.000000 0.000000
1.000000 1.000000 0.000000
1.000000 1.000000 0.000000
0.000000 1.000000 0.000000
0.000000 1.000000 0.000000
0.000000 1.000000 0.000000
0.000000 1.000000 0.000000
0.000000 1.000000 0.000000
0.000000 1.000000 0.000000
0.045396 1.000000 0.000000
0.193230 1.000000 0.000000
0.379850 1.000000 0.000000
0.588393 1.000000 0.000000
0.809734 1.000000 0.000000
0.958853 1.000000 0.000000
1.000000 1.000000 0.000000
1.000000 1.000000 0.000000
1.000000 1.000000 0.000000
1.000000 1.000000 0.000000
0.048414 0.000000 0.045369
0.113880 0.000000 0.038435
0.179306 0.000000 0.031517
0.252901 0.000000 0.022251
0.345477 0.000000 0.009921
0.469496 0.000000 0.002899
0.637055 0.000000 0.000000
0.829579 0.000000 0.000000
1.000000 0.000000 0.000000
1.000000 0.000000 0.000000
1.000000 0.000000 0.000000
1.000000 0.000000 0.000000
1.000000 0.000000 0.000000
1.000000 0.000000 0.000000
1.000000 0.000000 0.000000
1.000000 0.000000 0.000000
0.023140 0.034045 0.022190
0.087822 0.026501 0.015336
0.152336 0.018897 0.009378
0.224561 0.009369 0.006406
0.314909 0.002005 0.002866
0.435572 0.000063 0.000000
0.600431 0.000000 0.000000
0.792572 0.000000 0.000000
0.999062 0.000000 0.000000
1.000000 0.000000 0.000000
1.000000 0.000000 0.000000
1.000000 0.000000 0.000000
1.000000 0.000000 0.000000
1.000000 0.000000 0.000000
1.000000 0.000000 0.000000
1.000000 0.000000 0.000000
0.000057 0.081704 0.006465
0.060703 0.074261 0.004716
0.124867 0.067154 0.003025
0.195907 0.058363 0.001222
0.284398 0.045174 0.000000
0.402088 0.024478 0.000000
0.563481 0.003229 0.000000
0.756522 0.000000 0.000000
0.972755 0.000000 0.000000
1.000000 0.000000 0.000000
1.000000 0.000000 0.000000
1.000000 0.000000 0.000000
1.000000 0.000000 0.000000
1.000000 0.000000 0.000000
1.000000 0.000000 0.000000
1.000000 0.000000 0.000000
0.000000 0.133013 0.000625
0.027897 0.126163 0.000000
0.092817 0.119772 0.000000
0.163642 0.112121 0.000000
0.250903 0.100690 0.000000
0.366561 0.082248 0.000000
0.525037 0.052954 0.000000
0.718067 0.015081 0.000000
0.934896 0.000000 0.000000
1.000000 0.000000 0.000000
1.000000 0.000000 0.000000
1.000000 0.000000 0.000000
1.000000 0.000000 0.000000
1.000000 0.000000 0.000000
1.000000 0.000000 0.000000
1.000000 0.000000 0.000000
0.000000 0.193028 0.000000
0.001467 0.187095 0.000000
0.050284 0.182008 0.000000
0.121774 0.176237 0.000000
0.208847 0.167066 0.000000
0.323115 0.151379 0.000000
0.479012 0.125347 0.000000
0.672707 0.090201 0.000000
0.890536 0.049738 0.000000
1.000000 0.014180 0.000000
1.000000 0.002920 0.000000
1.000000 0.002815 0.000000
1.000000 0.008042 0.000000
1.000000 0.015136 0.000000
1.000000 0.022940 0.000000
1.000000 0.034662 0.000000
0.000000 0.267515 0.000000
0.000000 0.263188 0.000000
0.004543 0.259864 0.000000
0.063352 0.256386 0.000000
0.151231 0.249901 0.000000
0.265005 0.237678 0.000000
0.419624 0.215639 0.000000
0.614741 0.184131 0.000000
0.831749 0.147865 0.000000
1.000000 0.108237 0.000000
1.000000 0.088605 0.000000
1.000000 0.090623 0.000000
1.000000 0.103154 0.000000
1.000000 0.119298 0.000000
1.000000 0.136331 0.000000
1.000000 0.153507 0.000000
0.000000 0.363246 0.000000
0.000000 0.361059 0.000000
0.000000 0.360090 0.000000
0.003006 0.359460 0.000000
0.069135 0.356561 0.000000
0.183121 0.348443 0.000000
0.336735 0.331240 0.000000
0.532696 0.304325 0.000000
0.750320 0.273210 0.000000
0.977997 0.236784 0.000000
1.000000 0.218403 0.000000
1.000000 0.221741 0.000000
1.000000 0.235813 0.000000
1.000000 0.252956 0.000000
1.000000 0.270275 0.000000
1.000000 0.287589 0.000000
0.000000 0.481136 0.000000
0.000000 0.482463 0.000000
0.000000 0.484852 0.000000
0.000000 0.488466 0.000000
0.001153 0.490171 0.000000
0.077528 0.487097 0.000000
0.230968 0.475201 0.000000
0.429140 0.452347 0.000000
0.649305 0.424875 0.000000
0.900145 0.389846 0.000000
1.000000 0.370175 0.000000
1.000000 0.371851 0.000000
1.000000 0.385446 0.000000
1.000000 0.403363 0.000000
1.000000 0.423349 0.000000
1.000000 0.444731 0.000000
0.000000 0.619315 0.000000
0.000000 0.624895 0.000000
0.000000 0.631122 0.000000
0.000000 0.638632 0.000000
0.000000 0.643909 0.000000
0.000000 0.643760 0.000000
0.128077 0.634535 0.000000
0.329100 0.613241 0.000000
0.551712 0.586304 0.000000
0.808445 0.551371 0.000000
0.995198 0.531036 0.000000
1.000000 0.534560 0.000000
1.000000 0.551640 0.000000
1.000000 0.573749 0.000000
1.000000 0.596359 0.000000
1.000000 0.617966 0.000000
0.000000 0.778265 0.000000
0.000000 0.787446 0.000000
0.000000 0.796571 0.000000
0.000000 0.805697 0.000000
0.000000 0.812385 0.000000
0.000000 0.813372 0.000000
0.027131 0.806205 0.000000
0.221273 0.788128 0.000000
0.450537 0.765889 0.000000
0.713859 0.735796 0.000000
0.937002 0.717009 0.000000
1.000000 0.720091 0.000000
1.000000 0.736319 0.000000
1.000000 0.754957 0.000000
1.000000 0.772739 0.000000
1.000000 0.788017 0.000000
0.000000 0.923186 0.000000
0.000000 0.933782 0.000000
0.000000 0.944577 0.000000
0.000000 0.955839 0.000000
0.000000 0.962495 0.000000
0.000000 0.966704 0.000000
0.000000 0.965569 0.000000
0.176873 0.956721 0.000000
0.402999 0.939538 0.000000
0.659603 0.909636 0.000000
0.881720 0.886266 0.000000
0.997393 0.883093 0.000000
1.000000 0.892473 0.000000
1.000000 0.904388 0.000000
1.000000 0.915206 0.000000
1.000000 0.923144 0.000000
0.000000 1.000000 0.000000
0.000000 1.000000 0.000000
0.000000 1.000000 0.000000
0.000000 1.000000 0.000000
0.000000 1.000000 0.000000
0.000000 1.000000 0.000000
0.008904 1.000000 0.000000
0.185412 1.000000 0.000000
0.399502 1.000000 0.000000
0.642411 1.000000 0.000000
0.861159 0.992523 0.000000
0.986643 0.987151 0.000000
1.000000 0.988861 0.000000
1.000000 0.992380 0.000000
1.000000 0.995071 0.000000
1.000000 0.996863 0.000000
0.000000 1.000000 0.000000
0.000000 1.000000 0.000000
0.000000 1.000000 0.000000
0.000000 1.000000 0.000000
0.000000 1.000000 0.000000
0.000000 1.000000 0.000000
0.035449 1.000000 0.000000
0.206287 1.000000 0.000000
0.410699 1.000000 0.000000
0.641448 1.000000 0.000000
0.857994 1.000000 0.000000
0.984892 1.000000 0.000000
1.000000 1.000000 0.000000
1.000000 1.000000 0.000000
1.000000 1.000000 0.000000
1.000000 1.000000 0.000000
0.000000 1.000000 0.000000
0.000000 1.000000 0.000000
0.000000 1.000000 0.000000
0.000000 1.000000 0.000000
0.000000 1.000000 0.000000
0.000000 1.000000 0.000000
0.051968 1.000000 0.000000
0.215586 1.000000 0.000000
0.411000 1.000000 0.000000
0.631289 1.000000 0.000000
0.847529 1.000000 0.000000
0.980926 1.000000 0.000000
1.000000 1.000000 0.000000
1.000000 1.000000 0.000000
1.000000 1.000000 0.000000
1.000000 1.000000 0.000000
0.000000 1.000000 0.000000
0.000000 1.000000 0.000000
0.000000 1.000000 0.000000
0.000000 1.000000 0.000000
0.000000 1.000000 0.000000
0.000000 1.000000 0.000000
0.052996 1.000000 0.000000
0.206954 1.000000 0.000000
0.396850 1.000000 0.000000
0.610012 1.000000 0.000000
0.828985 1.000000 0.000000
0.971664 1.000000 0.000000
1.000000 1.000000 0.000000
1.000000 1.000000 0.000000
1.000000 1.000000 0.000000
1.000000 1.000000 0.000000
0.000000 1.000000 0.000000
0.000000 1.000000 0.000000
0.000000 1.000000 0.000000
0.000000 1.000000 0.000000
0.000000 1.000000 0.000000
0.000000 1.000000 0.000000
0.041323 1.000000 0.000000
0.187604 1.000000 0.000000
0.373754 1.000000 0.000000
0.581925 1.000000 0.000000
0.803704 1.000000 0.000000
0.953530 1.000000 0.000000
1.000000 1.000000 0.000000
1.000000 1.000000 0.000000
1.000000 1.000000 0.000000
1.000000 1.000000 0.000000
0.044578 0.000000 0.124358
0.110002 0.000000 0.116819
0.175319 0.000000 0.109326
0.248619 0.000000 0.099848
0.340837 0.000000 0.085515
0.464306 0.000000 0.063286
0.631325 0.000000 0.030512
0.823818 0.000000 0.006429
1.000000 0.000000 0.000000
1.000000 0.000000 0.000000
1.000000 0.000000 0.000000
1.000000 0.000000 0.000000
1.000000 0.000000 0.000000
1.000000 0.000000 0.000000
1.000000 0.000000 0.000000
1.000000 0.000000 0.000000
0.019009 0.030065 0.099433
0.083716 0.022583 0.092111
0.148294 0.015115 0.084877
0.220347 0.005935 0.075784
0.310337 0.001542 0.062068
0.430740 0.000000 0.040400
0.595339 0.000000 0.013193
0.787265 0.000000 0.000262
0.998342 0.000000 0.000000
1.000000 0.000000 0.000000
1.000000 0.000000 0.000000
1.000000 0.000000 0.000000
1.000000 0.000000 0.000000
1.000000 0.000000 0.000000
1.000000 0.000000 0.000000
1.000000 0.000000 0.000000
0.000000 0.077962 0.075941
0.056640 0.070553 0.068891
0.120875 0.063525 0.062468
0.191975 0.054880 0.054878
0.280172 0.041910 0.042989
0.397617 0.021493 0.023885
0.558643 0.002570 0.006688
0.751436 0.000000 0.000000
0.967908 0.000000 0.000000
1.000000 0.000000 0.000000
1.000000 0.000000 0.000000
1.000000 0.000000 0.000000
1.000000 0.000000 0.000000
1.000000 0.000000 0.000000
1.000000 0.000000 0.000000
1.000000 0.000000 0.000000
0.000000 0.129568 0.049475
0.024198 0.122786 0.043537
0.089265 0.116482 0.038944
0.160114 0.109134 0.033495
0.247267 0.097940 0.024326
0.362678 0.079755 0.012878
0.520495 0.050862 0.002124
0.713634 0.013829 0.000000
0.930426 0.000000 0.000000
1.000000 0.000000 0.000000
1.000000 0.000000 0.000000
1.000000 0.000000 0.000000
1.000000 0.000000 0.000000
1.000000 0.000000 0.000000
1.000000 0.000000 0.000000
1.000000 0.000000 0.000000
0.000000 0.189893 0.017618
0.001266 0.184211 0.014806
0.047365 0.179312 0.013397
0.118905 0.173835 0.011773
0.205925 0.164947 0.009695
0.319906 0.149540 0.005032
0.475512 0.124123 0.000201
0.669366 0.089301 0.000000
0.887059 0.049245 0.000000
1.000000 0.014211 0.000000
1.000000 0.003084 0.000000
1.000000 0.003016 0.000000
1.000000 0.008456 0.000000
1.000000 0.015875 0.000000
1.000000 0.023874 0.000000
1.000000 0.036474 0.000000
0.000000 0.264951 0.000883
0.000000 0.260854 0.000546
0.003569 0.257889 0.000620
0.061565 0.254697 0.000729
0.149350 0.248574 0.000424
0.263013 0.236806 0.000000
0.417458 0.215258 0.000000
0.612527 0.184185 0.000000
0.829154 0.148662 0.000000
1.000000 0.109281 0.000000
1.000000 0.089897 0.000000
1.000000 0.092154 0.000000
1.000000 0.105052 0.000000
1.000000 0.121369 0.000000
1.000000 0.138633 0.000000
1.000000 0.156124 0.000000
0.000000 0.361317 0.000000
0.000000 0.359522 0.000000
0.000000 0.358912 0.000000
0.002938 0.358698 0.000000
0.068448 0.356359 0.000000
0.182457 0.348834 0.000000
0.335701 0.332176 0.000000
0.531484 0.305881 0.000000
0.749151 0.275228 0.000000
0.977726 0.239116 0.000000
1.000000 0.220773 0.000000
1.000000 0.223971 0.000000
1.000000 0.238139 0.000000
1.000000 0.255313 0.000000
1.000000 0.272495 0.000000
1.000000 0.290199 0.000000
0.000000 0.480391 0.000000
0.000000 0.481981 0.000000
0.000000 0.485023 0.000000
0.000000 0.489083 0.000000
0.001164 0.491405 0.000000
0.078134 0.488762 0.000000
0.231639 0.477319 0.000000
0.430026 0.454914 0.000000
