example_ofxGpuLutCube/bin/data/ofxGpuLutCube/LUT/V3 (warm drama fade_1).cube
LUT_3D_SIZE 16
0.000000 0.000000 0.000000
0.032924 0.000000 0.000000
0.068343 0.002264 0.000000
0.109455 0.010736 0.000000
0.158112 0.019673 0.000000
0.211884 0.029571 0.000000
0.267053 0.039630 0.000000
0.321665 0.049823 0.000000
0.376082 0.059741 0.000006
0.431891 0.070539 0.000452
0.490295 0.081828 0.001089
0.550620 0.093382 0.001729
0.611920 0.105371 0.002411
0.673999 0.117474 0.003123
0.736306 0.129317 0.003831
0.798109 0.141331 0.004544
0.004855 0.018188 0.000195
0.045295 0.024305 0.000159
0.081905 0.030493 0.000175
0.125248 0.043991 0.000128
0.173227 0.054006 0.000113
0.225193 0.063300 0.000247
0.277767 0.073123 0.000855
0.329830 0.082858 0.001485
0.381794 0.092604 0.002104
0.435687 0.102951 0.002791
0.493672 0.114168 0.003448
0.553578 0.125678 0.004087
0.614882 0.137473 0.004851
0.676543 0.149533 0.005507
0.738686 0.161346 0.006172
0.800805 0.173430 0.007177
0.009311 0.052529 0.003794
0.051047 0.065190 0.004262
0.095206 0.065002 0.003933
0.135610 0.066305 0.003783
0.185981 0.081981 0.003264
0.242161 0.099762 0.002870
0.297676 0.114601 0.003168
0.350704 0.125249 0.003582
0.402503 0.134414 0.004198
0.456289 0.143998 0.004885
0.512515 0.154283 0.005601
0.570709 0.164973 0.006343
0.629944 0.176180 0.007061
0.689668 0.187306 0.007861
0.749650 0.198755 0.008878
0.809377 0.210091 0.009666
0.014771 0.091998 0.008337
0.050084 0.099227 0.009870
0.108678 0.121349 0.008339
0.152456 0.112629 0.008759
0.197556 0.109503 0.009158
0.252563 0.125147 0.008407
0.309869 0.143082 0.007609
0.366720 0.161038 0.007386
0.422470 0.179379 0.007920
0.479114 0.192940 0.007777
0.536827 0.204860 0.008002
0.594939 0.214669 0.008745
0.654160 0.225121 0.009520
0.713771 0.235714 0.010458
0.773773 0.246563 0.011333
0.833545 0.257548 0.012093
0.021090 0.139007 0.013796
0.054022 0.142453 0.016071
0.104052 0.163801 0.015317
0.173269 0.184285 0.013402
0.218405 0.168925 0.014581
0.266932 0.159551 0.015504
0.322826 0.173911 0.014415
0.379042 0.191089 0.013804
0.435584 0.208917 0.013206
0.493940 0.227366 0.013237
0.555766 0.246955 0.012456
0.618575 0.267005 0.012965
0.680811 0.283271 0.013534
0.742735 0.296430 0.013489
0.802630 0.306447 0.014295
0.862430 0.316598 0.015048
0.028300 0.191864 0.019999
0.060681 0.194351 0.022382
0.102679 0.208466 0.022849
0.169004 0.237052 0.020978
0.246520 0.253933 0.019428
0.290538 0.231710 0.021257
0.340790 0.217407 0.022589
0.394235 0.226704 0.021969
0.450318 0.243269 0.020635
0.508543 0.261228 0.019959
0.569766 0.280280 0.019456
0.633225 0.300333 0.019054
0.697290 0.320978 0.019281
0.761809 0.341984 0.019859
0.828115 0.363185 0.018965
0.892381 0.380760 0.018462
0.035736 0.246484 0.026685
0.068090 0.249025 0.029120
0.104867 0.255234 0.031112
0.164167 0.283134 0.030164
0.246867 0.315723 0.027290
0.326259 0.325486 0.026178
0.363282 0.296050 0.028313
0.416248 0.280829 0.029753
0.466036 0.280830 0.029438
0.524073 0.297722 0.028048
0.584737 0.316233 0.027494
0.647719 0.335615 0.026785
0.712195 0.355703 0.026112
0.777728 0.376088 0.025165
0.842810 0.397014 0.025122
0.907220 0.418287 0.025979
0.043137 0.300852 0.033185
0.075427 0.303326 0.035602
0.110594 0.307105 0.037931
0.162803 0.329304 0.037506
0.238217 0.362554 0.035081
0.332568 0.393177 0.032349
0.407934 0.397824 0.032934
0.433919 0.358727 0.035269
0.492617 0.347260 0.036550
0.539566 0.335566 0.037841
0.600497 0.353202 0.035777
0.662807 0.371877 0.035169
0.727433 0.391213 0.033648
0.791970 0.411336 0.033208
0.857844 0.431500 0.031852
0.921965 0.452399 0.032813
0.050525 0.354870 0.039634
0.082774 0.357381 0.042078
0.117622 0.360260 0.044692
0.164197 0.375111 0.045681
0.234017 0.408098 0.043384
0.324767 0.444636 0.041428
0.418819 0.467124 0.038055
0.488870 0.469883 0.039641
0.506392 0.422899 0.042168
0.569760 0.412631 0.043408
0.617641 0.395040 0.045260
0.678411 0.408852 0.044127
0.742058 0.428110 0.043320
0.806533 0.447426 0.042242
0.871899 0.467011 0.040697
0.936938 0.487179 0.039753
0.058136 0.410657 0.046368
0.090377 0.413334 0.048779
0.125172 0.416053 0.051398
0.167489 0.423538 0.053748
0.232837 0.455155 0.052436
0.316734 0.491613 0.050258
0.415548 0.530051 0.045864
0.501000 0.540853 0.044802
0.565666 0.540275 0.046628
0.584057 0.491216 0.049201
0.648610 0.478977 0.050606
0.699342 0.459354 0.052471
0.758544 0.466397 0.052207
0.823356 0.485154 0.049620
0.887812 0.504297 0.048796
0.951548 0.524065 0.049206
0.066091 0.469279 0.053406
0.098261 0.471746 0.055830
0.133083 0.474683 0.058486
0.173568 0.478715 0.061465
0.233164 0.504875 0.060702
0.311791 0.541294 0.058227
0.403754 0.578776 0.056116
0.502509 0.611736 0.053301
0.582817 0.618218 0.051623
0.643652 0.611800 0.054000
0.664700 0.562598 0.056712
0.729852 0.548512 0.058166
0.783728 0.527720 0.060020
0.840335 0.526803 0.060669
0.905055 0.544232 0.057309
0.968668 0.563744 0.058176
0.074227 0.529911 0.060767
0.106410 0.532373 0.063169
0.141159 0.535278 0.065814
0.181167 0.538347 0.068839
0.235154 0.556466 0.069515
0.310073 0.592386 0.068166
0.395999 0.629916 0.065268
0.491456 0.667517 0.062275
0.587328 0.693975 0.059190
0.666929 0.698013 0.059162
0.725816 0.687026 0.061694
0.746998 0.635438 0.064498
0.813363 0.620876 0.065975
0.870406 0.601379 0.067865
0.923455 0.589019 0.068426
0.986750 0.605627 0.067384
0.082575 0.591681 0.068244
0.114698 0.594270 0.070673
0.149478 0.597074 0.073357
0.189529 0.600192 0.076512
0.238966 0.610163 0.078849
0.309353 0.644991 0.076713
0.391222 0.682177 0.074694
0.481152 0.719096 0.073115
0.579359 0.756534 0.069684
0.673830 0.775522 0.066078
0.754468 0.779541 0.067006
0.810994 0.763904 0.069673
0.829722 0.708828 0.072717
0.898055 0.695057 0.074161
0.958242 0.676969 0.075943
0.999684 0.655520 0.086591
0.091225 0.654008 0.076009
0.123124 0.656746 0.078547
0.158074 0.659396 0.081171
0.197986 0.662683 0.084232
0.244869 0.667537 0.087405
0.310791 0.697839 0.086418
0.388903 0.735003 0.084227
0.474088 0.771861 0.082300
0.566987 0.809138 0.079391
0.670434 0.846193 0.076175
0.764389 0.858066 0.073312
0.844486 0.861892 0.075237
0.897551 0.841553 0.077757
0.912105 0.781779 0.080840
0.982218 0.769336 0.082249
1.000000 0.742671 0.112130
0.099695 0.716850 0.083722
0.131700 0.719312 0.086158
0.166560 0.722008 0.088780
0.206457 0.725298 0.091845
0.252766 0.728981 0.095402
0.313566 0.750951 0.096312
0.388528 0.787902 0.094280
0.469584 0.824778 0.091765
0.558404 0.861387 0.090811
0.657692 0.900185 0.087574
0.765250 0.934414 0.084089
0.856539 0.941157 0.080005
0.936153 0.944578 0.083295
0.984387 0.918957 0.085743
0.993321 0.854122 0.089043
1.000000 0.828144 0.119097
0.108174 0.779216 0.091395
0.140207 0.781670 0.093781
0.174869 0.784528 0.096400
0.214762 0.787591 0.099433
0.261214 0.791453 0.103050
0.316686 0.804625 0.104913
0.388146 0.841246 0.102004
0.467343 0.877647 0.101393
0.552567 0.913988 0.100991
0.646839 0.952842 0.096657
0.752849 0.991183 0.095621
0.847206 0.999829 0.108468
0.929918 0.999868 0.111920
0.993782 0.999694 0.118699
1.000000 0.969835 0.122529
1.000000 0.905215 0.126019
0.000000 0.000000 0.027657
0.026892 0.000000 0.021466
0.067289 0.000000 0.018788
0.109565 0.000000 0.009581
0.156285 0.000000 0.004392
0.212044 0.003483 0.000872
0.267781 0.012420 0.000092
0.322491 0.022452 0.000000
0.376625 0.032588 0.000264
0.432313 0.043561 0.000869
0.490723 0.054770 0.001486
0.551030 0.066586 0.002139
0.612356 0.078586 0.002841
0.674439 0.090443 0.003567
0.736728 0.102549 0.004222
0.798532 0.114683 0.004938
0.001565 0.008074 0.017522
0.044385 0.027670 0.030606
0.080765 0.034068 0.029948
0.122412 0.041874 0.029790
0.170467 0.051073 0.030306
0.223557 0.061165 0.030885
0.277760 0.071725 0.031480
0.331715 0.082044 0.032137
0.385496 0.092490 0.032717
0.441198 0.103121 0.033321
0.499624 0.114476 0.033993
0.559848 0.126170 0.034695
0.621266 0.137948 0.035390
0.683197 0.149869 0.036123
0.745476 0.161927 0.036849
0.807531 0.173974 0.037570
0.007439 0.044802 0.025191
0.049319 0.062276 0.034846
0.094125 0.068915 0.034780
0.135795 0.075557 0.034549
0.185967 0.090362 0.034322
0.238822 0.102135 0.034749
0.291680 0.112162 0.035390
0.343810 0.121616 0.036011
0.395728 0.131175 0.036676
0.449683 0.141484 0.037376
0.506167 0.152039 0.038112
0.565074 0.163355 0.038835
0.625883 0.175124 0.039581
0.687350 0.186797 0.040294
0.749118 0.198641 0.041059
0.810620 0.210508 0.041785
0.014933 0.090716 0.031738
0.053941 0.101339 0.039640
0.101327 0.116752 0.040029
0.151109 0.116029 0.039739
0.197362 0.117395 0.039793
0.253110 0.134464 0.038986
0.310551 0.152520 0.038600
0.365983 0.168336 0.038825
0.419350 0.180706 0.039434
0.473655 0.190520 0.039882
0.529890 0.200331 0.040590
0.587931 0.210836 0.041358
0.647148 0.221616 0.042095
0.706977 0.232684 0.042935
0.766932 0.243916 0.043719
0.826599 0.255045 0.044522
0.021601 0.139382 0.037436
0.060226 0.148019 0.045196
0.099975 0.157682 0.046904
0.166639 0.181999 0.045153
0.217419 0.172062 0.045668
0.266757 0.167205 0.046133
0.323049 0.182943 0.045212
0.379539 0.200397 0.044779
0.435871 0.218401 0.044637
0.494892 0.236996 0.043949
0.555364 0.254918 0.044011
0.616201 0.269983 0.044330
0.676069 0.281384 0.045116
0.735752 0.291592 0.045865
0.795710 0.301943 0.046698
0.855403 0.312759 0.047488
0.028867 0.192381 0.043680
0.067199 0.200703 0.051482
0.103561 0.205487 0.054006
0.161886 0.230567 0.053034
0.241915 0.253515 0.051017
0.289741 0.235090 0.052338
0.339547 0.221978 0.053357
0.394334 0.235531 0.052742
0.450410 0.252473 0.051704
0.508895 0.270558 0.050979
0.570357 0.289783 0.050308
0.633056 0.310090 0.050899
0.697776 0.330757 0.050535
0.763323 0.350684 0.049614
0.826696 0.368216 0.050097
0.887845 0.381228 0.050838
0.036283 0.247002 0.050145
0.074565 0.255385 0.058009
0.110007 0.258566 0.060868
0.159766 0.276826 0.061113
0.238199 0.309880 0.058917
0.322030 0.325692 0.057497
0.362827 0.299466 0.059320
0.414606 0.284682 0.060598
0.466050 0.289650 0.060488
0.524051 0.306858 0.059167
0.584788 0.325402 0.058589
0.648504 0.344827 0.057158
0.712435 0.365245 0.057564
0.776972 0.385957 0.057866
0.843747 0.406468 0.055957
0.908233 0.427495 0.056539
0.043677 0.301356 0.056672
0.081928 0.309695 0.064534
0.117246 0.312864 0.067406
0.161285 0.323281 0.068932
0.231823 0.356019 0.067214
0.325322 0.390478 0.064727
0.404001 0.397845 0.064037
0.433601 0.362279 0.066302
0.490321 0.349707 0.067691
0.539798 0.344560 0.068478
0.600373 0.362118 0.067020
0.663248 0.380936 0.065809
0.727287 0.400623 0.065196
0.792828 0.420519 0.063499
0.857755 0.440999 0.063717
0.922983 0.461508 0.062954
0.051009 0.355349 0.063079
0.089248 0.363742 0.071047
0.124412 0.366846 0.073936
0.165847 0.372567 0.076499
0.229387 0.401776 0.075067
0.316138 0.438156 0.073316
0.412172 0.466037 0.070105
0.484677 0.469667 0.070825
0.506048 0.426361 0.073261
0.567563 0.414954 0.074591
0.616689 0.400670 0.075878
0.678388 0.417777 0.075193
0.742707 0.436546 0.072975
0.807461 0.455992 0.071923
0.872628 0.475915 0.071039
0.937891 0.496067 0.069983
0.058577 0.411079 0.069884
0.096807 0.419615 0.077819
0.131897 0.422587 0.080729
0.171976 0.425745 0.083839
0.229783 0.449011 0.083595
0.310146 0.485187 0.082081
0.405674 0.523113 0.078770
0.496256 0.540466 0.076080
0.563464 0.541779 0.077843
0.583749 0.494887 0.080566
0.647322 0.481912 0.081963
0.698177 0.464090 0.083240
0.758998 0.474915 0.082186
0.823030 0.494019 0.081471
0.887833 0.513436 0.080341
0.952647 0.532969 0.079294
0.066497 0.469696 0.076922
0.104696 0.478079 0.085151
0.139958 0.481207 0.087997
0.179876 0.484315 0.091053
0.231893 0.498924 0.092323
0.307107 0.534765 0.090767
0.395663 0.572505 0.087780
0.494646 0.609085 0.084762
0.577847 0.617825 0.083596
0.642270 0.614492 0.085414
0.664337 0.565969 0.088074
0.728923 0.551573 0.089567
0.781805 0.531029 0.091386
0.840147 0.534843 0.091595
0.904285 0.553544 0.090615
0.968606 0.572655 0.089548
0.074660 0.530296 0.084457
0.112979 0.538662 0.092501
0.148130 0.541780 0.095367
0.188050 0.544908 0.098428
0.236559 0.553098 0.100956
0.306296 0.586233 0.099582
0.389508 0.623633 0.097143
0.482240 0.660861 0.094621
0.580490 0.692677 0.090712
0.662602 0.697637 0.090584
0.724241 0.689285 0.093139
0.746658 0.638889 0.095898
0.812523 0.623963 0.097428
0.868348 0.603779 0.099299
0.922834 0.596495 0.099987
0.987119 0.613966 0.097647
0.083170 0.592031 0.092033
0.121337 0.600531 0.100036
0.156359 0.603590 0.102934
0.196286 0.606732 0.105971
0.242982 0.610891 0.109509
0.307675 0.638662 0.109049
0.386042 0.675861 0.106361
0.473807 0.712657 0.105219
0.569820 0.749754 0.102809
0.667744 0.774846 0.098504
0.750216 0.779188 0.098434
0.809393 0.766130 0.101001
0.829375 0.712230 0.103930
0.897213 0.698264 0.105432
0.956077 0.679412 0.107208
0.999809 0.661054 0.115854
0.091627 0.654506 0.099527
0.129763 0.662977 0.107614
0.164768 0.665930 0.110526
0.204784 0.669172 0.113571
0.251072 0.672815 0.117133
0.310625 0.691522 0.119173
0.385300 0.728375 0.116805
0.468026 0.765348 0.114559
0.558483 0.802853 0.110620
0.661517 0.840720 0.109028
0.758288 0.857223 0.106277
0.840263 0.861572 0.106469
0.896087 0.844006 0.109031
0.911719 0.785324 0.112055
0.981924 0.772696 0.113563
1.000000 0.745823 0.142497
0.100052 0.717150 0.107248
0.138232 0.725580 0.115324
0.173367 0.728556 0.118218
0.213198 0.731815 0.121292
0.259596 0.735454 0.124819
0.314651 0.746257 0.128371
0.385526 0.781838 0.125455
0.465049 0.818339 0.124305
0.550915 0.855244 0.121632
0.648586 0.893916 0.118699
0.756676 0.930851 0.115112
0.851311 0.940445 0.112592
0.931890 0.944295 0.114613
0.983185 0.921696 0.117081
0.992989 0.857675 0.120313
1.000000 0.832214 0.149515
0.108472 0.779510 0.114788
0.146799 0.787973 0.122999
0.181814 0.791094 0.125912
0.221696 0.794167 0.128951
0.268009 0.797940 0.132514
0.319700 0.803097 0.136533
0.387085 0.834888 0.135166
0.462674 0.871525 0.132196
0.546067 0.907885 0.131503
0.638934 0.946444 0.128452
0.744145 0.987090 0.124793
0.841582 0.999825 0.139601
0.925496 0.999865 0.143028
0.992808 0.999716 0.149274
1.000000 0.974077 0.152957
1.000000 0.909394 0.156628
0.000000 0.000000 0.063519
0.028793 0.000000 0.056437
0.054435 0.000000 0.049253
0.099965 0.000000 0.050797
0.155606 0.000000 0.042533
0.209812 0.000000 0.029562
0.261985 0.000000 0.018339
0.318580 0.000000 0.008117
0.375573 0.004563 0.003148
0.432804 0.013022 0.001336
0.491190 0.024387 0.001942
0.551510 0.036193 0.002615
0.612934 0.048300 0.003300
0.674886 0.060254 0.003988
0.737191 0.072340 0.004693
0.799234 0.084426 0.005395
0.000188 0.013275 0.053819
0.043583 0.026325 0.067896
0.076022 0.026410 0.061942
0.121664 0.028084 0.054207
0.171723 0.030596 0.043214
0.224697 0.036780 0.037772
0.279183 0.045189 0.036198
0.333197 0.055553 0.036631
0.386785 0.065908 0.037239
0.442606 0.076723 0.037869
0.500925 0.088020 0.038534
0.561160 0.099611 0.039211
0.622693 0.111563 0.039930
0.684554 0.123533 0.040640
0.746748 0.135487 0.041397
0.808811 0.147489 0.042110
0.003160 0.030853 0.041361
0.047052 0.054328 0.058763
0.091899 0.071831 0.069458
0.134076 0.078910 0.067941
0.182104 0.088232 0.067633
0.234923 0.098197 0.068255
0.289074 0.108529 0.068898
0.342733 0.118792 0.069546
0.396133 0.129077 0.070169
0.451775 0.139712 0.070790
0.510152 0.150998 0.071484
0.570362 0.162574 0.072169
0.631791 0.174381 0.072919
0.693759 0.186329 0.073662
0.755990 0.198310 0.074605
0.817951 0.210251 0.075346
0.008805 0.069591 0.050609
0.053672 0.096211 0.065459
0.098323 0.113159 0.074536
0.149665 0.120328 0.074470
0.197751 0.127666 0.074298
0.252874 0.143893 0.074130
0.307509 0.156671 0.074372
0.360286 0.167443 0.075012
0.412183 0.176667 0.075662
0.465904 0.186616 0.076392
0.522488 0.197072 0.077129
0.580914 0.208100 0.077888
0.640475 0.219361 0.078710
0.700899 0.230776 0.079621
0.762136 0.242588 0.080395
0.823504 0.254403 0.081119
0.018125 0.125327 0.061364
0.061537 0.148118 0.072524
0.103063 0.158483 0.080496
0.158853 0.177470 0.080713
0.215798 0.175751 0.080556
0.266553 0.176097 0.080656
0.323418 0.193224 0.079986
0.380257 0.211194 0.079482
0.436517 0.228221 0.079178
0.492951 0.243114 0.079667
0.550971 0.256107 0.080108
0.609068 0.266089 0.080981
0.668262 0.276373 0.081852
0.727974 0.287137 0.082676
0.787941 0.298161 0.083457
0.847647 0.308990 0.084242
0.028322 0.188081 0.069946
0.069091 0.202451 0.079003
0.109921 0.210824 0.086873
0.156854 0.223654 0.088568
0.234747 0.251216 0.086600
0.288823 0.238652 0.087272
0.339057 0.230393 0.088153
0.394521 0.245560 0.087412
0.450865 0.262877 0.086517
0.509394 0.280996 0.085897
0.570820 0.300539 0.085644
0.633585 0.320648 0.086015
0.697648 0.338915 0.085580
0.760182 0.354948 0.086044
0.820400 0.365559 0.086834
0.880249 0.375758 0.087632
0.036907 0.246965 0.076834
0.076532 0.257114 0.085643
0.117169 0.265560 0.093614
0.159655 0.272535 0.096387
0.229525 0.302900 0.094768
0.317178 0.325744 0.092869
0.362127 0.303249 0.094477
0.412669 0.288825 0.095794
0.466466 0.299469 0.094650
0.524354 0.316852 0.093951
0.585325 0.335715 0.093451
0.648525 0.355383 0.092884
0.713426 0.375657 0.091949
0.778740 0.396434 0.091711
0.843774 0.417357 0.091943
0.909232 0.437336 0.091317
0.044568 0.302214 0.083481
0.083843 0.311571 0.092310
0.124376 0.319831 0.100183
0.165352 0.324045 0.103526
0.226219 0.348807 0.102982
0.315723 0.385252 0.100616
0.399184 0.397682 0.099484
0.433210 0.366186 0.101496
0.488129 0.352704 0.102883
0.540075 0.354008 0.102527
0.600683 0.371762 0.101245
0.663369 0.390960 0.100808
0.728086 0.410695 0.099400
0.792814 0.431025 0.099379
0.857475 0.451890 0.099892
0.923462 0.472390 0.098477
0.051898 0.356213 0.090116
0.091140 0.365533 0.098811
0.131688 0.373832 0.106715
0.172201 0.377333 0.110110
0.226789 0.394546 0.111346
0.307510 0.431076 0.108591
0.404218 0.463731 0.106582
0.480094 0.469346 0.106092
0.505692 0.430364 0.108465
0.565267 0.417645 0.109825
0.616541 0.409988 0.110944
0.678947 0.427565 0.109223
0.742647 0.446760 0.108614
0.807476 0.466295 0.107356
0.872745 0.486279 0.106304
0.937155 0.507084 0.106944
0.059449 0.412134 0.096859
0.098670 0.421288 0.105594
0.139224 0.429559 0.113497
0.179659 0.433193 0.116895
0.229386 0.443204 0.119208
0.303865 0.478105 0.117595
0.395485 0.515814 0.114928
0.489540 0.539687 0.112531
0.558944 0.541667 0.113089
0.583462 0.498857 0.115604
0.645237 0.484682 0.117060
0.696609 0.469882 0.118240
0.759091 0.484632 0.116546
0.823247 0.503785 0.116006
0.888645 0.523186 0.114038
0.952794 0.543342 0.114424
0.067375 0.470571 0.103949
0.106540 0.479881 0.112668
0.147082 0.488212 0.120636
0.187540 0.491668 0.124010
0.234815 0.497418 0.127155
0.302965 0.527751 0.126421
0.387581 0.565135 0.124140
0.484235 0.602636 0.121034
0.572378 0.617450 0.118546
0.639644 0.616148 0.120502
0.663924 0.569955 0.123126
0.727877 0.555093 0.124691
0.780357 0.536562 0.126437
0.840168 0.544387 0.126110
0.905116 0.563060 0.124090
0.969056 0.582714 0.124144
0.075704 0.531144 0.111330
0.114672 0.540422 0.120019
0.155390 0.548784 0.128046
0.195670 0.552248 0.131492
0.242116 0.556041 0.135049
0.304024 0.579159 0.135244
0.383550 0.616155 0.133977
0.472809 0.653660 0.130529
0.571697 0.688813 0.127800
0.656892 0.697094 0.126461
0.722574 0.691887 0.128280
0.746297 0.642831 0.131031
0.811523 0.627496 0.132563
0.865886 0.606644 0.134553
0.922711 0.605886 0.135002
0.987265 0.623619 0.132299
0.084119 0.592896 0.118864
0.123000 0.602204 0.127592
0.163668 0.610529 0.135656
0.203984 0.614054 0.139058
0.250397 0.617770 0.142648
0.306986 0.632092 0.144951
0.381638 0.668709 0.142602
0.465757 0.705716 0.140550
0.559277 0.742877 0.137589
0.660708 0.773673 0.135052
0.745373 0.778822 0.133593
0.807642 0.768802 0.136212
0.829025 0.716235 0.139222
0.896166 0.701592 0.140787
0.953597 0.682137 0.142603
0.999802 0.667136 0.149597
0.092539 0.655465 0.126500
0.131412 0.664558 0.135259
0.172109 0.672884 0.143416
0.212321 0.676464 0.146870
0.258734 0.680108 0.150405
0.311464 0.688137 0.153224
0.381860 0.721625 0.151885
0.461780 0.758184 0.150459
0.549807 0.795259 0.147776
0.650579 0.834011 0.144339
0.751573 0.856830 0.141507
0.835504 0.861176 0.141809
0.894576 0.846608 0.144355
0.911353 0.789337 0.147422
0.981239 0.776569 0.148878
1.000000 0.749134 0.176813
0.100952 0.718039 0.134072
0.139969 0.727080 0.143061
0.180450 0.735567 0.151202
0.220834 0.739096 0.154562
0.267106 0.742777 0.158126
0.318425 0.746964 0.162037
0.383748 0.774658 0.161766
0.459826 0.811432 0.159541
0.543159 0.848379 0.156487
0.638556 0.887129 0.153582
0.746982 0.926056 0.151173
0.845101 0.940044 0.147918
0.927139 0.943888 0.149939
0.981822 0.924605 0.152430
0.992816 0.861519 0.155717
1.000000 0.836972 0.183768
0.109555 0.780360 0.142018
0.148367 0.789651 0.150766
0.189006 0.798025 0.158882
0.229353 0.801462 0.162254
0.275554 0.805250 0.165807
0.326784 0.809362 0.169772
0.386544 0.827843 0.171351
0.459392 0.864382 0.168886
0.540299 0.900533 0.168440
0.630807 0.938959 0.165554
0.734099 0.979850 0.161518
0.835227 0.999814 0.172747
0.920544 0.999861 0.178198
0.991773 0.999744 0.183657
1.000000 0.977983 0.187211
1.000000 0.914013 0.190706
0.000000 0.000000 0.106805
0.036528 0.000000 0.103808
0.053283 0.000000 0.088446
0.085258 0.000000 0.082340
0.137775 0.000000 0.088231
0.198720 0.000000 0.081136
0.261920 0.000000 0.070842
0.318593 0.000000 0.057199
0.372522 0.000000 0.040209
0.428897 0.000000 0.026212
0.488656 0.000000 0.013977
0.551041 0.004419 0.007528
0.613280 0.012290 0.004369
0.675478 0.023922 0.004571
0.737742 0.036073 0.005256
0.799787 0.048221 0.005936
0.000000 0.020503 0.102425
0.042658 0.024938 0.115358
0.075018 0.024828 0.105299
0.107746 0.024424 0.096533
0.161756 0.025715 0.094786
0.224095 0.028049 0.082476
0.281734 0.030627 0.066978
0.334637 0.032922 0.053538
0.387480 0.035992 0.043944
0.443311 0.042999 0.040889
0.501518 0.051783 0.039096
0.561854 0.063445 0.039790
0.623250 0.075453 0.040482
0.685299 0.087460 0.041212
0.747354 0.099619 0.041953
0.809388 0.111600 0.042668
0.001148 0.034864 0.082269
0.043876 0.057275 0.102094
0.090741 0.070337 0.113824
0.128411 0.070912 0.106944
0.180787 0.072928 0.098371
0.236586 0.076120 0.087246
0.290582 0.082482 0.080757
0.344465 0.090003 0.078321
0.398208 0.099694 0.078283
0.453941 0.110424 0.078936
0.512312 0.121721 0.079624
0.572547 0.133371 0.080319
0.633980 0.145124 0.081142
0.695901 0.157134 0.081946
0.758110 0.169062 0.082692
0.820137 0.181161 0.083424
0.004750 0.056817 0.069245
0.048684 0.079570 0.086517
0.096040 0.105231 0.105777
0.146623 0.123244 0.116248
0.195788 0.131250 0.114016
0.248823 0.141777 0.113718
0.302829 0.151827 0.114375
0.356355 0.162072 0.115003
0.409585 0.172139 0.115645
0.464825 0.182799 0.116299
0.522747 0.193834 0.117038
0.582978 0.205369 0.117734
0.644387 0.217273 0.118461
0.706319 0.229128 0.119274
0.768491 0.241089 0.119994
0.830462 0.252949 0.120746
0.010480 0.101318 0.081031
0.055645 0.126179 0.097124
0.103570 0.153974 0.112595
0.154624 0.173010 0.122552
0.214079 0.180952 0.122593
0.266915 0.188223 0.122399
0.323470 0.204680 0.122096
0.378318 0.219127 0.122260
0.431603 0.230987 0.122716
0.485383 0.240641 0.123440
0.541658 0.250776 0.124190
0.599804 0.261416 0.124994
0.659421 0.272480 0.125845
0.719593 0.283852 0.126638
0.779920 0.295228 0.127440
0.840149 0.306533 0.128275
0.021116 0.160689 0.094112
0.065741 0.188544 0.108727
0.112198 0.211671 0.120672
0.159469 0.223614 0.129390
0.225721 0.246447 0.129651
0.287057 0.242758 0.129345
0.338858 0.241096 0.129591
0.394904 0.257906 0.129213
0.451307 0.275520 0.128628
0.509646 0.293753 0.128524
0.570181 0.311610 0.128483
0.631012 0.326985 0.128898
0.691500 0.338850 0.129255
0.751220 0.349092 0.130077
0.811144 0.359575 0.130875
0.870825 0.370262 0.131710
0.031958 0.226866 0.106145
0.075956 0.252662 0.117410
0.120059 0.268284 0.127430
0.166403 0.277453 0.136140
0.222557 0.294432 0.137812
0.309594 0.323874 0.135401
0.361409 0.307702 0.136557
0.411035 0.295805 0.137697
0.466454 0.311439 0.136737
0.524883 0.329099 0.135556
0.585662 0.348206 0.135504
0.649064 0.368206 0.135048
0.713738 0.388749 0.134786
0.778720 0.408857 0.134535
0.842890 0.427142 0.134527
0.904588 0.441148 0.135224
0.042122 0.291589 0.114782
0.084603 0.311140 0.124483
0.127357 0.322616 0.134012
0.173665 0.331770 0.142784
0.224111 0.341964 0.145642
0.304368 0.376660 0.144032
0.393351 0.397581 0.141858
0.432860 0.370895 0.143627
