example_ofxGpuLutCube/bin/data/ofxGpuLutCube/LUT/V3 (warm drama fade_1).cube
LUT_3D_SIZE 6
0.000000 0.000000 0.000000
0.109455 0.010736 0.000000
0.267053 0.039630 0.000000
0.431891 0.070539 0.000452
0.611920 0.105371 0.002411
0.798109 0.141331 0.004544
0.014771 0.091998 0.008337
0.152456 0.112629 0.008759
0.309869 0.143082 0.007609
0.479114 0.192940 0.007777
0.654160 0.225121 0.009520
0.833545 0.257548 0.012093
0.035736 0.246484 0.026685
0.164167 0.283134 0.030164
0.363282 0.296050 0.028313
0.524073 0.297722 0.028048
0.712195 0.355703 0.026112
0.907220 0.418287 0.025979
0.058136 0.410657 0.046368
0.167489 0.423538 0.053748
0.415548 0.530051 0.045864
0.584057 0.491216 0.049201
0.758544 0.466397 0.052207
0.951548 0.524065 0.049206
0.082575 0.591681 0.068244
0.189529 0.600192 0.076512
0.391222 0.682177 0.074694
0.673830 0.775522 0.066078
0.829722 0.708828 0.072717
0.999684 0.655520 0.086591
0.108174 0.779216 0.091395
0.214762 0.787591 0.099433
0.388146 0.841246 0.102004
0.646839 0.952842 0.096657
0.929918 0.999868 0.111920
1.000000 0.905215 0.126019
0.000000 0.000000 0.106805
0.085258 0.000000 0.082340
0.261920 0.000000 0.070842
0.428897 0.000000 0.026212
0.613280 0.012290 0.004369
0.799787 0.048221 0.005936
0.004750 0.056817 0.069245
0.146623 0.123244 0.116248
0.302829 0.151827 0.114375
0.464825 0.182799 0.116299
0.644387 0.217273 0.118461
0.830462 0.252949 0.120746
0.031958 0.226866 0.106145
0.166403 0.277453 0.136140
0.361409 0.307702 0.136557
0.524883 0.329099 0.135556
0.713738 0.388749 0.134786
0.904588 0.441148 0.135224
0.060622 0.412824 0.129105
0.188341 0.441542 0.156302
0.384390 0.507091 0.158131
0.582989 0.503502 0.157905
0.759019 0.496606 0.159151
0.953526 0.555549 0.156019
0.085161 0.594125 0.151314
0.212613 0.622433 0.178442
0.377947 0.660203 0.185627
0.649769 0.769604 0.177426
0.828657 0.720964 0.181419
0.999783 0.677400 0.190652
0.110623 0.781359 0.174281
0.237858 0.809889 0.201656
0.389248 0.824018 0.213717
0.621253 0.930913 0.207320
0.914736 0.999857 0.220610
1.000000 0.919796 0.231897
0.000000 0.000000 0.284729
0.106647 0.000000 0.266540
0.190128 0.000000 0.205412
0.370510 0.000000 0.231324
0.588276 0.000000 0.206348
0.808241 0.000000 0.152737
0.000000 0.084961 0.257923
0.143123 0.117669 0.307206
0.265532 0.116919 0.259074
0.454015 0.121206 0.253188
0.654304 0.129654 0.203049
0.834935 0.137064 0.154077
0.011804 0.150437 0.175820
0.155776 0.228244 0.237110
0.354189 0.324378 0.308621
0.517917 0.355489 0.307845
0.696648 0.389439 0.310046
0.882061 0.424899 0.312424
0.033056 0.307980 0.221091
0.182312 0.403471 0.281295
0.375682 0.489519 0.331128
0.580643 0.522358 0.331397
0.760722 0.545340 0.330150
0.955671 0.607010 0.329799
0.069169 0.530222 0.271926
0.216341 0.618278 0.312958
0.399741 0.670240 0.353532
0.602486 0.737371 0.355827
0.826737 0.740060 0.355122
0.999760 0.725263 0.363371
0.104252 0.754220 0.304358
0.244763 0.816377 0.336843
0.424916 0.857568 0.376811
0.597602 0.895749 0.385679
0.886307 0.999829 0.390766
1.000000 0.942789 0.400610
0.000000 0.000000 0.478626
0.133999 0.000000 0.476487
0.213656 0.000000 0.414300
0.295931 0.000000 0.335770
0.515268 0.000000 0.411725
0.714726 0.000000 0.383464
0.000000 0.110144 0.474661
0.135612 0.110157 0.515628
0.284284 0.109060 0.476847
0.374909 0.109428 0.396246
0.583514 0.109140 0.432440
0.805826 0.118991 0.400680
0.000000 0.184189 0.385739
0.141205 0.257946 0.451544
0.350760 0.319154 0.517726
0.475983 0.318349 0.462390
0.683739 0.322788 0.458651
0.893004 0.330763 0.406379
0.019093 0.249240 0.291370
0.163004 0.326275 0.352253
0.364192 0.436151 0.440043
0.572979 0.540447 0.520180
0.753171 0.572747 0.517733
0.937995 0.607817 0.520342
0.035223 0.430171 0.358200
0.184808 0.499092 0.405529
0.392606 0.628901 0.489272
0.596930 0.721314 0.543476
0.823126 0.759437 0.544050
0.999769 0.778330 0.550784
0.073202 0.632158 0.404487
0.221182 0.725827 0.460776
0.428139 0.852427 0.522721
0.621727 0.908463 0.566917
0.845133 0.981676 0.570016
1.000000 0.967696 0.583873
0.000000 0.000000 0.693915
0.137253 0.000000 0.693879
0.254735 0.000000 0.649514
0.324581 0.000000 0.581260
0.414127 0.000000 0.482782
0.671763 0.000000 0.609613
0.000000 0.113861 0.693886
0.127296 0.101880 0.747023
0.315112 0.099997 0.730038
0.399414 0.100381 0.652207
0.496670 0.100834 0.550427
0.741371 0.105853 0.646634
0.000000 0.223948 0.623015
0.125567 0.283548 0.715876
0.342527 0.310906 0.749119
0.500903 0.309873 0.709604
0.598069 0.310115 0.617387
0.814061 0.311671 0.660865
0.009270 0.289066 0.527901
0.149732 0.365890 0.589771
0.347445 0.469746 0.681940
0.567883 0.533309 0.751482
0.705822 0.532412 0.688789
0.918593 0.536185 0.689031
0.027178 0.359667 0.421731
0.170865 0.436469 0.482773
0.372084 0.545082 0.569583
0.582705 0.660905 0.663710
0.811997 0.774232 0.751641
0.997610 0.808831 0.751141
0.034402 0.566149 0.516693
0.183107 0.629789 0.561250
0.393167 0.723184 0.625703
0.611742 0.855941 0.713896
0.838421 0.964412 0.777375
1.000000 0.995011 0.787328
0.000000 0.000000 0.918834
0.137383 0.000000 0.918581
0.291036 0.000000 0.895237
0.372034 0.000000 0.826766
0.443911 0.000000 0.748597
0.527907 0.000000 0.625848
0.000000 0.113914 0.918835
0.124322 0.099118 0.954362
0.327791 0.099438 0.954675
0.436278 0.101315 0.892731
0.517863 0.103656 0.814752
0.609792 0.107503 0.691475
0.000000 0.257299 0.876269
0.124646 0.296906 0.954586
0.338249 0.306911 0.964166
0.530915 0.307491 0.951640
0.623061 0.309832 0.873721
0.711336 0.313374 0.759841
0.000000 0.333392 0.775144
0.128442 0.402709 0.856877
0.338963 0.497103 0.943805
0.562244 0.527803 0.974559
0.732205 0.529320 0.936877
0.819973 0.532499 0.833192
0.021783 0.400583 0.664967
0.163444 0.477809 0.730459
0.358264 0.586079 0.818210
0.566188 0.695892 0.914255
0.808734 0.771296 0.986135
0.939428 0.773321 0.913891
0.035719 0.468913 0.551525
0.179145 0.545442 0.612779
0.380376 0.653555 0.699413
0.591039 0.767517 0.791171
0.823233 0.893187 0.892533
1.000000 0.999857 0.999359
