example_ofxGpuLutCube/bin/data/ofxGpuLutCube/LUT/V30 (retro B&W).cube
LUT_3D_SIZE 6
0.023500 0.023500 0.023500
0.060380 0.056460 0.052560
0.103560 0.097260 0.085520
0.151340 0.141980 0.123940
0.205460 0.189840 0.167040
0.266582 0.246982 0.219482
0.101140 0.094120 0.085520
0.149800 0.138644 0.124880
0.203460 0.186972 0.166124
0.264760 0.243900 0.216468
0.334880 0.308084 0.272784
0.408463 0.381043 0.337926
0.202380 0.185120 0.165480
0.263060 0.241580 0.214100
0.332680 0.306660 0.271360
0.404696 0.375840 0.335992
0.487208 0.451908 0.403296
0.566143 0.530843 0.479843
0.327860 0.301960 0.268220
0.401072 0.372872 0.331300
0.482960 0.447684 0.398580
0.560484 0.525184 0.474184
0.645012 0.605500 0.548260
0.719110 0.682226 0.623450
0.477680 0.442380 0.396080
0.558924 0.522984 0.472000
0.642808 0.601884 0.544800
0.717328 0.679676 0.622904
0.788400 0.752960 0.694764
0.850090 0.818691 0.766911
0.638926 0.595864 0.540925
0.715825 0.677366 0.621694
0.784908 0.749585 0.693061
0.846100 0.814700 0.763701
0.899483 0.872775 0.828844
0.937180 0.917444 0.889965
0.032180 0.032180 0.028280
0.075440 0.072160 0.064296
0.119992 0.113708 0.102312
0.169860 0.156860 0.141168
0.229820 0.210220 0.189996
0.294771 0.267401 0.239902
0.118244 0.112316 0.101000
0.169841 0.154528 0.138813
0.225588 0.205962 0.185262
0.291349 0.265612 0.237629
0.360801 0.333292 0.297493
0.435073 0.405374 0.362270
0.224320 0.204720 0.183560
0.291138 0.265630 0.238148
0.359724 0.332066 0.296168
0.434492 0.403908 0.360800
0.516418 0.480868 0.430130
0.594433 0.556754 0.502940
0.356080 0.328640 0.293348
0.430219 0.399668 0.356562
0.512776 0.477003 0.426322
0.592806 0.553665 0.499151
0.673797 0.633491 0.577243
0.748130 0.708901 0.653523
0.510420 0.474496 0.424184
0.592822 0.553401 0.497108
0.673036 0.632061 0.576006
0.745839 0.707225 0.651566
0.813480 0.780564 0.725133
0.868187 0.839902 0.792085
0.671105 0.628044 0.573026
0.740376 0.701732 0.646826
0.809228 0.774218 0.719301
0.865739 0.836688 0.788372
0.916071 0.890067 0.853922
0.952721 0.937080 0.914206
0.051000 0.048660 0.043100
0.092080 0.085520 0.077328
0.139604 0.130196 0.115456
0.192176 0.174900 0.156876
0.250988 0.231388 0.204368
0.320666 0.295559 0.260321
0.136752 0.128952 0.112940
0.190736 0.172384 0.155028
0.249213 0.229301 0.203736
0.316852 0.291293 0.259631
0.387998 0.360240 0.321936
0.470891 0.435639 0.389652
0.248600 0.229000 0.203940
0.316431 0.289424 0.258197
0.389089 0.359282 0.321222
0.467319 0.432055 0.386562
0.545588 0.509136 0.458165
0.630443 0.588896 0.532433
0.383520 0.354520 0.318284
0.463283 0.428735 0.382283
0.542604 0.506358 0.455930
0.626102 0.585033 0.528448
0.702912 0.662958 0.607247
0.774922 0.737152 0.681278
0.540700 0.505088 0.454412
0.623058 0.581646 0.525020
0.700660 0.661030 0.605943
0.770668 0.734906 0.677430
0.835122 0.803598 0.751232
0.888558 0.863005 0.817142
0.695464 0.656241 0.599008
0.768393 0.731213 0.674611
0.831999 0.800576 0.746310
0.887527 0.860968 0.813920
0.929277 0.909648 0.877155
0.966065 0.952682 0.937017
0.065100 0.061140 0.057240
0.109800 0.103560 0.092240
0.158436 0.146660 0.130024
0.214904 0.195944 0.175680
0.277660 0.254892 0.227480
0.349639 0.322199 0.286939
0.154480 0.145892 0.128328
0.211906 0.194830 0.172534
0.274974 0.252556 0.225104
0.343840 0.316384 0.281113
0.418988 0.388754 0.345882
0.498695 0.463086 0.412426
0.271516 0.249380 0.221980
0.343332 0.315901 0.280608
0.415529 0.386884 0.344314
0.497570 0.461709 0.412232
0.578308 0.541040 0.487157
0.660103 0.617930 0.562072
0.412540 0.382580 0.341004
0.494764 0.459464 0.409258
0.572846 0.536610 0.484472
0.655940 0.614947 0.558535
0.730332 0.691316 0.636042
0.797688 0.761462 0.706537
0.569408 0.534140 0.481892
0.654740 0.613849 0.557102
0.729256 0.690787 0.634858
0.797632 0.762056 0.705591
0.858828 0.827460 0.777802
0.906297 0.882293 0.841946
0.723705 0.686821 0.629604
0.795877 0.760572 0.702520
0.856264 0.824904 0.773881
0.904963 0.879865 0.839032
0.943909 0.927385 0.901781
0.976365 0.968389 0.955088
0.081600 0.077620 0.069820
0.126436 0.121584 0.106056
0.180388 0.165480 0.149780
0.237640 0.218032 0.196092
0.306660 0.279244 0.251760
0.374810 0.344242 0.308942
0.175816 0.163156 0.146836
0.233591 0.213940 0.192139
0.302740 0.275765 0.246840
0.370348 0.342434 0.306348
0.449427 0.415378 0.371472
0.529310 0.493391 0.443009
0.301160 0.274996 0.246260
0.369988 0.342002 0.305454
0.448791 0.415363 0.371105
0.527416 0.491323 0.440617
0.611754 0.570249 0.514756
0.686969 0.647252 0.590481
0.445492 0.413320 0.370212
0.523038 0.487489 0.436746
0.605851 0.566572 0.510608
0.684622 0.644481 0.587922
0.756294 0.719668 0.663270
0.822670 0.789705 0.734805
0.604724 0.565616 0.509000
0.684517 0.643026 0.587502
0.757108 0.719624 0.662096
0.821500 0.789070 0.734108
0.878881 0.850633 0.803306
0.922287 0.901893 0.863334
0.755084 0.716585 0.661677
0.817111 0.782587 0.727681
0.874398 0.846868 0.799801
0.919423 0.897915 0.862560
0.956013 0.942796 0.922975
0.988037 0.984127 0.979337
0.101960 0.094061 0.082400
0.146621 0.135652 0.122348
0.200741 0.185081 0.163881
0.259541 0.239941 0.212501
0.330129 0.303509 0.268209
0.403704 0.376265 0.333183
0.196892 0.180380 0.160812
0.258153 0.237621 0.210141
0.327313 0.301765 0.266483
0.399949 0.370616 0.331860
0.480871 0.445586 0.398369
0.561372 0.526072 0.475072
0.325441 0.300341 0.265064
0.396801 0.368917 0.328102
0.478668 0.443403 0.396187
0.556201 0.520891 0.469882
0.640117 0.600433 0.543970
0.718989 0.679804 0.622595
0.472936 0.437636 0.392137
0.553693 0.517138 0.465701
0.637745 0.596661 0.539728
0.711965 0.674125 0.617208
0.783801 0.748221 0.689847
0.844586 0.813187 0.760627
0.633712 0.591364 0.535692
0.711315 0.672111 0.616568
0.780854 0.745082 0.688099
0.843572 0.812204 0.760424
0.896467 0.869605 0.825081
0.937950 0.918349 0.888487
0.776303 0.740965 0.682163
0.841325 0.809925 0.758933
0.893163 0.868056 0.822540
0.935551 0.915891 0.886821
0.967726 0.959025 0.943367
0.999804 0.999765 0.999686
