example_ofxGpuLutCube/bin/data/ofxGpuLutCube/LUT/V30 (retro B&W).cube
LUT_3D_SIZE 16
0.023500 0.023500 0.023500
0.028020 0.028020 0.028020
0.044153 0.044153 0.039720
0.060380 0.056460 0.052560
0.072680 0.068780 0.060907
0.087600 0.083700 0.075800
0.103560 0.097260 0.085520
0.117387 0.111620 0.099867
0.135433 0.125760 0.111880
0.151340 0.141980 0.123940
0.167300 0.154267 0.138567
0.190093 0.170420 0.154793
0.205460 0.189840 0.167040
0.225927 0.206240 0.186640
0.246313 0.226713 0.199480
0.266582 0.246982 0.219482
0.044147 0.043887 0.039987
0.059864 0.055964 0.051798
0.072167 0.068752 0.060864
0.088179 0.084013 0.075859
0.103891 0.097182 0.085452
0.115127 0.109547 0.097691
0.131576 0.125767 0.109963
0.149925 0.139732 0.124324
0.166530 0.154256 0.138560
0.187067 0.170587 0.154523
0.205298 0.189396 0.167307
0.222922 0.203322 0.183267
0.243060 0.223460 0.199693
0.263683 0.243598 0.216180
0.290980 0.263978 0.236329
0.311289 0.283888 0.255869
0.072693 0.068793 0.060893
0.088156 0.083770 0.075848
0.103700 0.096725 0.085002
0.116957 0.112257 0.099955
0.136075 0.125382 0.112413
0.149620 0.138976 0.124464
0.166435 0.154248 0.138553
0.185948 0.170433 0.154011
0.204676 0.188502 0.167053
0.225073 0.205421 0.185301
0.245424 0.225824 0.199489
0.264144 0.243633 0.216210
0.290453 0.263660 0.236247
0.311893 0.284480 0.255952
0.335856 0.308437 0.273137
0.359910 0.332410 0.296596
0.101140 0.094120 0.085520
0.113727 0.109560 0.096985
0.130887 0.125087 0.109976
0.149800 0.138644 0.124880
0.165609 0.153388 0.137715
0.184060 0.169400 0.152660
0.203460 0.186972 0.166124
0.223260 0.203660 0.183280
0.243380 0.223780 0.199491
0.264760 0.243900 0.216468
0.290453 0.264033 0.236620
0.311567 0.284161 0.255101
0.334880 0.308084 0.272784
0.359611 0.332113 0.296137
0.384053 0.356579 0.316892
0.408463 0.381043 0.337926
0.130727 0.124720 0.110087
0.149737 0.138133 0.124982
0.166165 0.154098 0.138398
0.184445 0.170447 0.153513
0.203407 0.186667 0.166304
0.222833 0.203233 0.183287
0.243647 0.224047 0.199491
0.264750 0.243612 0.216159
0.289920 0.263816 0.236389
0.310931 0.283947 0.254367
0.336291 0.308840 0.273540
0.358217 0.329962 0.294662
0.383527 0.356068 0.316795
0.407176 0.379772 0.337348
0.433760 0.404249 0.361149
0.461031 0.425759 0.381619
0.164700 0.152933 0.137233
0.180024 0.166640 0.149553
0.202547 0.185547 0.165571
0.220673 0.201073 0.181160
0.240707 0.221107 0.198189
0.262311 0.241400 0.213933
0.287573 0.261693 0.234233
0.308827 0.282089 0.252020
0.331742 0.305540 0.270240
0.356073 0.327847 0.292547
0.380400 0.350333 0.314167
0.404340 0.374984 0.335153
0.431100 0.401313 0.358160
0.460640 0.425691 0.381460
0.486520 0.451224 0.403060
0.513576 0.478276 0.427277
0.202380 0.185120 0.165480
0.220420 0.200820 0.181060
0.240800 0.221200 0.198133
0.263060 0.241580 0.214100
0.287255 0.261544 0.234071
0.309773 0.283413 0.252793
0.332680 0.306660 0.271360
0.356079 0.327900 0.292600
0.380393 0.350860 0.314728
0.404696 0.375840 0.335992
0.431627 0.401567 0.358427
0.460113 0.425448 0.381193
0.487208 0.451908 0.403296
0.513519 0.478219 0.427224
0.539353 0.504053 0.453057
0.566143 0.530843 0.479843
0.240547 0.220947 0.197660
0.259092 0.239368 0.211875
0.286520 0.261187 0.233700
0.307635 0.281680 0.252007
0.330413 0.304504 0.269204
0.354869 0.326780 0.291480
0.379295 0.350295 0.313147
0.401744 0.372477 0.331429
0.429977 0.399740 0.356612
0.457663 0.423213 0.377883
0.483542 0.448260 0.400100
0.511345 0.476045 0.425058
0.536144 0.500844 0.449855
0.560544 0.525244 0.474244
0.590077 0.551259 0.498560
0.618714 0.577437 0.522515
0.287033 0.261453 0.233953
0.307177 0.281716 0.252000
0.331753 0.305884 0.270584
0.354420 0.326513 0.291213
0.378855 0.350388 0.312969
0.403280 0.375258 0.335173
0.430699 0.400305 0.357187
0.457119 0.422818 0.377723
0.485740 0.450462 0.402156
0.510905 0.475605 0.424627
0.536025 0.500724 0.449740
0.561018 0.525718 0.474718
0.592300 0.553256 0.499749
0.619097 0.578042 0.522893
0.645209 0.605888 0.548908
0.671290 0.632016 0.575296
0.327860 0.301960 0.268220
0.352444 0.324791 0.289491
0.376681 0.348713 0.311021
0.401072 0.372872 0.331300
0.427863 0.397439 0.354312
0.455673 0.421453 0.376720
0.482960 0.447684 0.398580
0.507812 0.472512 0.421531
0.535213 0.499913 0.448932
0.560484 0.525184 0.474184
0.589787 0.550587 0.498027
0.617981 0.577013 0.522529
0.645012 0.605500 0.548260
0.669099 0.629587 0.571091
0.697897 0.658556 0.601313
0.719110 0.682226 0.623450
0.376467 0.349033 0.311067
0.401013 0.373524 0.331689
0.427880 0.397467 0.354353
0.456447 0.422240 0.378033
0.483469 0.448193 0.399118
0.509356 0.474056 0.423111
0.535687 0.500387 0.449407
0.560364 0.525064 0.474064
0.591891 0.552604 0.497760
0.618827 0.577807 0.522373
0.645300 0.605667 0.548167
0.671040 0.631098 0.574880
0.697787 0.658300 0.600793
0.718867 0.681920 0.623467
0.747987 0.708724 0.653824
0.767196 0.730603 0.673063
0.422247 0.394773 0.351673
0.453511 0.419181 0.375693
0.479092 0.443815 0.397106
0.505628 0.470328 0.420165
0.533371 0.495920 0.444974
0.558433 0.522447 0.470511
0.587173 0.547869 0.495725
0.616369 0.575124 0.519444
0.643127 0.601916 0.545681
0.668587 0.627619 0.570557
0.693082 0.653487 0.596931
0.717127 0.680004 0.622730
0.740596 0.704501 0.648769
0.764812 0.729056 0.671222
0.788900 0.753556 0.694991
0.810366 0.775055 0.719126
0.477680 0.442380 0.396080
0.505365 0.470065 0.419795
0.533363 0.495185 0.444359
0.558924 0.522984 0.472000
0.587525 0.548279 0.496239
0.616473 0.574907 0.519487
0.642808 0.601884 0.544800
0.669113 0.627885 0.571071
0.693603 0.653996 0.597215
0.717328 0.679676 0.622904
0.741433 0.704833 0.649413
0.765512 0.729225 0.671979
0.788400 0.752960 0.694764
0.810103 0.774803 0.719227
0.830593 0.798419 0.743519
0.850090 0.818691 0.766911
0.533633 0.494867 0.443953
0.558447 0.522655 0.471442
0.586569 0.547440 0.495920
0.611793 0.572403 0.514539
0.642975 0.602488 0.544971
0.665147 0.625773 0.567147
0.692093 0.650519 0.595403
0.716351 0.678722 0.621967
0.740643 0.703483 0.648305
0.762659 0.725793 0.667479
0.787898 0.752433 0.694747
0.807323 0.772023 0.716741
0.827623 0.795720 0.740820
0.847333 0.815947 0.764427
0.864791 0.836552 0.788788
0.883613 0.856109 0.809102
0.586373 0.547433 0.496433
0.617583 0.575204 0.520304
0.642621 0.602929 0.544615
0.664273 0.624813 0.566273
0.694252 0.655027 0.597198
0.715978 0.677818 0.621704
0.740409 0.702713 0.647709
0.764572 0.727232 0.668599
0.787186 0.751764 0.694660
0.807229 0.771929 0.716869
0.829887 0.798258 0.743358
0.847587 0.816213 0.764953
0.864749 0.836280 0.788268
0.883940 0.856419 0.809371
0.900409 0.872916 0.829549
0.916479 0.889112 0.853253
0.638926 0.595864 0.540925
0.663512 0.624273 0.565512
0.690975 0.648429 0.593490
0.715825 0.677366 0.621694
0.739155 0.700922 0.646012
0.763165 0.725264 0.666437
0.784908 0.749585 0.693061
0.807370 0.772070 0.717151
0.827517 0.796125 0.741225
0.846100 0.814700 0.763701
0.865197 0.836404 0.788044
0.882978 0.855494 0.808457
0.899483 0.872775 0.828844
0.915884 0.889003 0.853092
0.928495 0.905216 0.873517
0.937180 0.917444 0.889965
0.023500 0.023500 0.023500
0.035838 0.035820 0.032180
0.052040 0.048400 0.044153
0.064545 0.060640 0.055940
0.076867 0.075611 0.067809
0.093062 0.087860 0.079733
0.107720 0.103664 0.091864
0.123663 0.117525 0.103941
0.141720 0.131744 0.118035
0.157903 0.147440 0.130284
0.174300 0.162187 0.146487
0.194255 0.177513 0.158955
0.213600 0.194781 0.174400
0.233988 0.214387 0.191407
0.254374 0.234774 0.207529
0.278510 0.255042 0.227642
0.051798 0.048140 0.043904
0.064038 0.060583 0.056174
0.076859 0.075857 0.068033
0.092822 0.085461 0.077271
0.105569 0.101413 0.089605
0.121889 0.115044 0.104261
0.139487 0.130068 0.115616
0.154236 0.144298 0.128472
0.172811 0.160374 0.144576
0.192221 0.174907 0.156661
0.210907 0.192522 0.171475
0.231052 0.211451 0.191213
0.251404 0.231596 0.204799
0.274790 0.251514 0.224032
0.298616 0.271658 0.243683
0.319602 0.295555 0.260325
0.076819 0.075588 0.067775
0.092554 0.085472 0.076844
0.108317 0.103761 0.092328
0.121688 0.114362 0.104103
0.138804 0.129926 0.115063
0.155109 0.145550 0.129708
0.172488 0.159679 0.143820
0.192666 0.174918 0.156840
0.212790 0.194769 0.173571
0.231116 0.211514 0.190924
0.251589 0.231642 0.205225
0.274891 0.251768 0.224298
0.299242 0.272207 0.243898
0.320096 0.295443 0.261015
0.343807 0.316326 0.281031
0.368045 0.340604 0.305270
0.105381 0.100625 0.089648
0.121599 0.113920 0.103988
0.137862 0.129905 0.114189
0.154146 0.144887 0.129035
0.171554 0.158424 0.142572
0.193197 0.175154 0.157111
0.211241 0.193515 0.171989
0.229703 0.210103 0.189225
0.251912 0.231896 0.205800
0.273813 0.250773 0.223316
0.297608 0.271651 0.243124
0.319625 0.294322 0.260707
0.343800 0.316336 0.281040
0.365432 0.337821 0.302469
0.392646 0.364731 0.327711
0.414304 0.386026 0.342953
0.137752 0.129947 0.114177
0.154162 0.145091 0.129236
0.172134 0.158404 0.142626
0.192827 0.174627 0.157258
0.210783 0.193282 0.171545
0.230930 0.211327 0.190268
0.251542 0.231526 0.205685
0.272705 0.250193 0.222750
0.299402 0.272472 0.243909
0.318956 0.293111 0.260127
0.343147 0.315681 0.280384
0.367326 0.339659 0.303610
0.391713 0.363407 0.326030
0.414216 0.385522 0.342774
0.445070 0.412670 0.369471
0.470398 0.435166 0.389709
0.171320 0.154493 0.138798
0.190407 0.172193 0.154937
0.208193 0.190843 0.171084
0.228511 0.208911 0.187709
0.248816 0.229193 0.203673
0.270098 0.248627 0.221193
0.294757 0.269275 0.241279
0.317649 0.291413 0.260052
0.341708 0.314255 0.278955
0.364731 0.337256 0.301209
0.389390 0.360743 0.321530
0.414448 0.385071 0.342616
0.441648 0.409009 0.365806
0.470219 0.434973 0.389036
0.497336 0.461955 0.411079
0.521860 0.485157 0.434421
0.208100 0.190840 0.171084
0.228487 0.208887 0.187610
0.248679 0.229065 0.203680
0.271425 0.249369 0.221950
0.295503 0.270049 0.242177
0.318173 0.291503 0.260088
0.342222 0.314781 0.279481
0.366270 0.338044 0.301992
0.390321 0.361176 0.322167
0.414678 0.384823 0.342594
0.442187 0.410051 0.366824
0.471155 0.435896 0.389506
0.496827 0.461444 0.410596
0.523027 0.487592 0.436783
0.549918 0.514620 0.463523
0.574481 0.537640 0.486277
0.248607 0.229007 0.203687
0.268988 0.247435 0.220028
0.293487 0.267925 0.240253
0.315687 0.288619 0.257075
0.340153 0.312695 0.277427
0.361129 0.333582 0.297707
0.387313 0.358707 0.320062
0.412017 0.382470 0.340478
0.440128 0.406976 0.363852
0.466231 0.430933 0.385193
0.495022 0.459722 0.408786
0.519785 0.483207 0.432255
0.545803 0.508910 0.457950
0.572406 0.535529 0.484316
0.602342 0.561460 0.508378
0.630694 0.589412 0.532692
0.295315 0.269517 0.242113
0.317276 0.289906 0.258157
0.339762 0.312306 0.277049
0.361244 0.333687 0.298024
0.389849 0.359604 0.321115
0.412165 0.382128 0.340239
0.440149 0.406744 0.363555
0.467524 0.432245 0.385812
0.494624 0.459324 0.408407
0.520056 0.483562 0.432611
0.547421 0.512121 0.461121
0.572678 0.535853 0.484647
0.602540 0.561624 0.508347
0.630590 0.589558 0.532580
0.657115 0.615834 0.559179
0.683255 0.642253 0.585350
0.337676 0.310183 0.274939
0.360597 0.333007 0.297585
0.386706 0.357128 0.318961
0.412376 0.381860 0.340005
0.439217 0.405944 0.362800
0.465501 0.430202 0.384520
0.491783 0.456483 0.406131
0.519076 0.481565 0.431778
0.545061 0.508965 0.457985
0.571318 0.534636 0.482573
0.602671 0.561651 0.508171
0.628073 0.585697 0.530100
0.653191 0.613420 0.555202
0.680839 0.638200 0.582827
0.705244 0.666040 0.609674
0.728005 0.688771 0.633848
0.387282 0.357127 0.319227
0.412650 0.381666 0.339775
0.439746 0.405986 0.362829
0.467842 0.432548 0.384760
0.493380 0.458080 0.407516
0.518853 0.481105 0.431765
0.544797 0.509000 0.458012
0.571779 0.535299 0.482841
0.602736 0.561543 0.507849
0.629276 0.588749 0.531318
0.656935 0.615162 0.559296
0.680435 0.638177 0.582457
0.704855 0.665642 0.609494
0.729288 0.690353 0.635118
0.753671 0.714794 0.657490
0.774207 0.737448 0.681290
0.434429 0.402909 0.359803
0.463491 0.429097 0.382871
0.490057 0.454757 0.404733
0.517667 0.479684 0.430835
0.542517 0.506240 0.455959
0.568523 0.533205 0.480426
0.599884 0.559504 0.503937
0.626486 0.585405 0.528540
0.652672 0.611596 0.554690
0.678878 0.637645 0.580951
0.703849 0.663978 0.608645
0.727383 0.688177 0.633208
0.751681 0.713033 0.655943
0.774035 0.737659 0.681515
0.797176 0.761812 0.706647
0.818421 0.786020 0.731110
0.489660 0.454360 0.404093
0.517355 0.479138 0.430862
0.542550 0.506612 0.456243
0.570311 0.534447 0.481033
0.600057 0.559273 0.503843
0.625733 0.585455 0.527804
0.653197 0.611865 0.555215
0.678317 0.637693 0.580414
0.703524 0.663561 0.608512
0.726727 0.687482 0.632582
0.752238 0.714012 0.657103
0.773004 0.736967 0.681234
0.797158 0.761816 0.706121
0.817609 0.785077 0.730071
0.837937 0.806556 0.754568
0.855273 0.823948 0.773165
0.542227 0.506441 0.455927
0.563584 0.528274 0.477064
0.601062 0.559418 0.504197
0.624090 0.581306 0.526083
0.648995 0.609372 0.550950
0.676371 0.633973 0.578362
0.701723 0.662325 0.607120
0.724425 0.685342 0.630322
0.748918 0.711261 0.656345
0.771091 0.735481 0.677035
0.794892 0.759569 0.703342
0.815167 0.782350 0.727308
0.835703 0.804214 0.752083
0.855407 0.824083 0.773024
0.872132 0.843995 0.796375
0.888291 0.864013 0.817136
0.601564 0.558984 0.504327
0.623003 0.580382 0.524991
0.648322 0.608771 0.550245
0.676089 0.633470 0.578084
0.700751 0.661362 0.606449
0.725434 0.686366 0.631223
0.749967 0.712961 0.656657
0.771101 0.735680 0.677242
0.795180 0.759880 0.702990
0.815433 0.782321 0.727315
0.835553 0.804071 0.751656
0.855604 0.824273 0.773208
0.872101 0.844421 0.797080
0.888856 0.864355 0.817478
0.904588 0.880810 0.840776
0.917045 0.897143 0.861540
0.647381 0.607795 0.549289
0.675055 0.632482 0.577288
0.699609 0.660367 0.604984
0.723973 0.684978 0.629872
0.748271 0.711880 0.656908
0.771271 0.735962 0.677282
0.795344 0.760044 0.702734
0.813396 0.779900 0.724979
0.833942 0.802528 0.749736
0.854200 0.822859 0.771844
0.871917 0.843244 0.796107
0.888222 0.863429 0.816519
0.904424 0.880141 0.840018
0.916995 0.893678 0.857853
0.929282 0.909662 0.877746
0.944909 0.925563 0.898032
0.027500 0.027500 0.027500
0.043627 0.040247 0.036305
0.056391 0.052491 0.048591
0.068780 0.068260 0.060380
0.084861 0.079996 0.072160
0.099862 0.093324 0.083873
0.113445 0.107980 0.097572
0.129944 0.123663 0.108240
0.147700 0.138040 0.123680
0.163452 0.151660 0.136012
0.185002 0.167647 0.151956
0.201300 0.185610 0.163140
0.221691 0.202080 0.182463
0.242072 0.222472 0.198960
0.262452 0.242852 0.215433
0.290048 0.262588 0.235187
0.056207 0.052532 0.048365
0.068299 0.064788 0.059915
0.084482 0.079853 0.071976
0.097246 0.092889 0.081550
0.113120 0.105812 0.094643
0.127078 0.121623 0.105989
0.146022 0.137608 0.122015
0.162120 0.148608 0.132914
0.182311 0.166407 0.150308
0.198842 0.182882 0.162988
0.219001 0.199401 0.179565
0.238947 0.219347 0.196426
0.259623 0.239550 0.212130
0.283854 0.259587 0.232175
0.307202 0.279742 0.251797
0.331365 0.304000 0.268700
0.084480 0.080436 0.072162
0.097175 0.092393 0.081061
0.112614 0.108182 0.096274
0.126972 0.121747 0.106150
0.145875 0.137027 0.121547
0.162129 0.149990 0.134319
0.181517 0.166533 0.150290
0.198973 0.182753 0.162937
0.219093 0.199493 0.179549
0.239186 0.219586 0.196732
0.259908 0.239733 0.212301
0.284139 0.259716 0.232291
0.307675 0.280319 0.251929
0.331476 0.304461 0.269161
0.355537 0.327686 0.292321
0.379928 0.349013 0.312748
0.112264 0.105643 0.093080
0.126740 0.121672 0.106129
0.145831 0.136440 0.121113
0.162335 0.149696 0.133999
0.179901 0.165708 0.149200
0.198963 0.182483 0.162732
0.219360 0.199760 0.179744
0.237816 0.218179 0.195552
0.258990 0.238544 0.211099
0.282338 0.258832 0.231390
0.307222 0.280000 0.250987
0.330136 0.303560 0.268981
0.355025 0.327040 0.291657
0.374519 0.346139 0.309978
0.401264 0.370875 0.330902
0.426944 0.395226 0.352115
0.145907 0.136585 0.121276
0.161175 0.149096 0.133397
0.179593 0.166045 0.149287
0.198656 0.182656 0.162237
0.218864 0.199247 0.179323
0.238799 0.219199 0.196548
0.259808 0.239643 0.212183
0.281264 0.257821 0.230368
0.306621 0.279672 0.250547
0.328753 0.302472 0.268177
0.353201 0.325668 0.290368
0.378058 0.347707 0.311398
0.402815 0.372641 0.332149
0.426002 0.394429 0.351300
0.454427 0.419318 0.374324
0.481323 0.446023 0.395487
0.176813 0.162624 0.146780
0.198198 0.180119 0.161571
0.216290 0.198668 0.176884
0.236633 0.216987 0.194235
0.257309 0.237234 0.209761
0.280065 0.256753 0.229287
0.304833 0.278175 0.248778
0.326343 0.300287 0.266202
0.350012 0.322440 0.287171
0.374327 0.345879 0.309277
0.400087 0.370139 0.329722
0.425528 0.394447 0.351319
0.453440 0.419112 0.374000
0.479661 0.444362 0.394525
0.506838 0.471538 0.420742
0.532423 0.497111 0.446112
0.216208 0.198653 0.176965
0.236626 0.216978 0.194064
0.257201 0.237212 0.209725
0.281008 0.257488 0.230008
0.305523 0.279242 0.249630
0.327129 0.301234 0.267297
0.350550 0.322987 0.287708
0.374424 0.346082 0.309219
0.400416 0.370997 0.330355
0.425363 0.394717 0.351591
0.454335 0.419816 0.374716
0.480147 0.444849 0.395736
0.506710 0.471410 0.420859
0.532188 0.496703 0.445709
0.559738 0.524299 0.473303
0.587825 0.549421 0.496872
0.254906 0.235306 0.207847
0.278711 0.255291 0.227836
0.303485 0.276283 0.248095
0.324116 0.296916 0.264730
0.349469 0.321917 0.286629
0.371858 0.344218 0.307619
0.396808 0.368411 0.327362
0.422005 0.392471 0.349343
0.451416 0.417931 0.373678
0.477482 0.442185 0.394584
0.503630 0.467279 0.417938
0.530373 0.493253 0.443590
0.556124 0.520486 0.468234
0.585418 0.546971 0.492831
0.614384 0.573186 0.516848
0.640691 0.599847 0.542920
0.302993 0.275871 0.248093
0.325259 0.299545 0.265947
0.349661 0.322131 0.286836
0.372770 0.344819 0.307433
0.397566 0.369070 0.327751
0.421809 0.392845 0.349714
0.451132 0.417875 0.373790
0.478272 0.442976 0.394903
0.505018 0.468757 0.419479
0.530787 0.493801 0.443768
0.556945 0.521136 0.468948
0.586008 0.547133 0.493451
0.613972 0.573214 0.516777
0.641025 0.599745 0.543201
0.667037 0.626340 0.569289
0.691688 0.652400 0.595661
0.347985 0.320520 0.285220
0.372180 0.344658 0.307146
0.396138 0.368630 0.327221
0.418808 0.390810 0.347639
0.449917 0.417113 0.373288
0.475799 0.440502 0.393653
0.502785 0.466674 0.417298
0.528738 0.492637 0.442272
0.556240 0.520321 0.468256
0.581231 0.544236 0.489773
0.612272 0.572321 0.515705
0.637126 0.597028 0.539205
0.664572 0.622335 0.566570
0.689074 0.649569 0.593094
0.713843 0.674812 0.619413
0.736142 0.699464 0.644358
0.396587 0.369158 0.327296
0.421370 0.393306 0.350178
0.450630 0.417591 0.374080
0.475274 0.439977 0.393434
0.504197 0.468296 0.418725
0.528424 0.492511 0.441896
0.556090 0.520120 0.468236
0.583612 0.545714 0.492975
0.612908 0.572795 0.516248
0.637164 0.596722 0.539204
0.665741 0.625299 0.567738
0.689262 0.649405 0.593284
0.713885 0.674714 0.619364
0.736742 0.699938 0.644888
0.761795 0.726241 0.668729
0.784752 0.749440 0.690606
0.447975 0.414755 0.371655
0.473709 0.438409 0.392165
0.500463 0.465112 0.415093
0.527030 0.491237 0.440425
0.552934 0.517533 0.466434
0.579612 0.542979 0.490132
0.610146 0.569808 0.513893
0.636826 0.595588 0.538783
0.662948 0.621742 0.564932
0.686634 0.646654 0.591309
0.713077 0.673829 0.618629
0.736487 0.699483 0.644481
0.760509 0.724423 0.667149
0.784145 0.748706 0.690010
0.806237 0.770937 0.714985
0.823744 0.791304 0.736404
0.500923 0.465623 0.415420
0.526567 0.490862 0.439880
0.553215 0.517824 0.466770
0.580479 0.543599 0.491954
0.609785 0.569973 0.513367
0.636735 0.594892 0.538709
0.663163 0.622115 0.565150
0.688600 0.647416 0.592052
0.713045 0.674008 0.618887
0.736142 0.698810 0.643639
0.761416 0.724822 0.666768
0.783455 0.747446 0.689382
0.805246 0.769405 0.714285
0.825375 0.793197 0.738297
0.846085 0.814686 0.762911
0.862809 0.831822 0.783921
0.553374 0.518003 0.467004
0.575643 0.540088 0.488658
0.606841 0.565081 0.510120
0.632736 0.592969 0.537053
0.660635 0.620301 0.562631
0.684152 0.644451 0.588205
0.711451 0.672202 0.615545
0.734622 0.695659 0.640486
0.758719 0.720000 0.664644
0.781392 0.744122 0.687432
0.803297 0.767997 0.712592
0.823292 0.791375 0.736475
0.842751 0.811351 0.759247
0.863103 0.832105 0.784046
0.880010 0.852056 0.804939
0.896369 0.868948 0.825282
0.609481 0.570448 0.512168
0.631880 0.591963 0.536818
0.659612 0.619961 0.561807
0.684859 0.645158 0.590043
0.711664 0.672563 0.615161
0.734893 0.695847 0.640796
0.760232 0.722453 0.665798
0.781058 0.744039 0.687189
0.803259 0.767839 0.712815
0.823536 0.791881 0.736981
0.843680 0.812284 0.761051
0.863381 0.832362 0.783981
0.879486 0.851756 0.804631
0.896351 0.869419 0.825556
0.912620 0.888192 0.848956
0.925115 0.904741 0.866536
0.659051 0.619846 0.561085
0.683947 0.644184 0.589024
0.711102 0.671897 0.614097
0.735183 0.696077 0.641149
0.759264 0.720140 0.664716
0.778084 0.741688 0.683976
0.803117 0.767804 0.712881
0.821551 0.788327 0.733427
0.841936 0.810536 0.757941
0.862009 0.830923 0.782248
0.878837 0.851307 0.804231
0.893305 0.866018 0.821782
0.911987 0.887763 0.847844
0.921433 0.901339 0.865554
0.936695 0.916995 0.886103
0.945531 0.929758 0.906145
0.032180 0.032180 0.028280
0.048400 0.044425 0.043419
0.060529 0.059427 0.052716
0.075440 0.072160 0.064296
0.091448 0.085052 0.076325
0.105120 0.100127 0.088380
0.119992 0.113708 0.102312
0.137351 0.127476 0.113813
0.153993 0.144060 0.127996
0.169860 0.156860 0.141168
0.190347 0.173347 0.155047
0.209433 0.190873 0.171007
0.229820 0.210220 0.189996
0.246827 0.227227 0.200260
0.274233 0.250993 0.223519
0.294771 0.267401 0.239902
0.060575 0.056727 0.052561
0.073142 0.069043 0.061136
0.089160 0.084499 0.075958
0.104393 0.097464 0.085730
0.117894 0.113011 0.100715
0.136027 0.126027 0.112268
0.152031 0.141795 0.124931
0.168343 0.154635 0.138823
0.190090 0.170960 0.154625
0.206782 0.190427 0.168732
0.226988 0.207338 0.187300
0.247118 0.227480 0.200977
0.267541 0.246879 0.219384
0.294166 0.267474 0.239716
0.315290 0.291275 0.259185
0.339531 0.312033 0.276733
0.089069 0.084064 0.075657
0.104185 0.097402 0.085749
0.117987 0.112610 0.100810
0.137044 0.126574 0.113093
0.153266 0.141724 0.126026
0.169086 0.154503 0.138784
0.190059 0.171184 0.154487
0.207048 0.190540 0.169277
0.227207 0.207570 0.187165
0.247188 0.227525 0.201413
0.268674 0.247721 0.220255
0.294554 0.268229 0.240298
0.315284 0.290558 0.258790
0.339585 0.312090 0.276791
0.363719 0.336242 0.300549
0.387554 0.360142 0.321051
0.118244 0.112316 0.101000
0.136811 0.126040 0.112670
0.152766 0.141379 0.125350
0.169841 0.154528 0.138813
0.190156 0.171448 0.154533
0.205232 0.188560 0.168101
0.225588 0.205962 0.185262
0.245995 0.226323 0.200540
0.267868 0.246657 0.219174
0.291349 0.265612 0.237629
0.315293 0.289928 0.258399
0.337132 0.309687 0.274391
0.360801 0.333292 0.297493
0.385178 0.357527 0.318053
0.410335 0.381932 0.338980
0.435073 0.405374 0.362270
0.153187 0.141200 0.125505
0.168743 0.154298 0.138599
0.189340 0.170823 0.153900
0.204913 0.188066 0.167536
0.226951 0.207335 0.186411
0.244886 0.225286 0.199752
0.267315 0.246027 0.218552
0.291825 0.266025 0.238481
0.314735 0.288813 0.257437
0.336919 0.309462 0.274170
0.362182 0.334638 0.298660
0.384741 0.356857 0.317631
0.409200 0.380979 0.338404
0.435962 0.405587 0.362478
0.465324 0.430038 0.385645
0.490953 0.455653 0.406929
0.184333 0.170193 0.153193
0.204108 0.187076 0.167333
0.224125 0.204525 0.183590
0.244708 0.225108 0.199752
0.265957 0.244699 0.217254
0.289660 0.264049 0.236529
0.313736 0.286485 0.256217
0.336388 0.308920 0.273624
0.359643 0.332168 0.296196
0.382840 0.355301 0.316753
0.409329 0.380747 0.338478
0.433818 0.403475 0.360373
0.464361 0.429488 0.384781
0.489891 0.454591 0.405672
0.516491 0.480873 0.429962
0.539783 0.503935 0.452969
0.224320 0.204720 0.183560
0.244601 0.225001 0.199750
0.266342 0.244963 0.217518
0.291138 0.265630 0.238148
0.314262 0.286917 0.256217
0.336217 0.308741 0.273447
0.359724 0.332066 0.296168
0.383881 0.356032 0.317997
0.409317 0.380445 0.338412
0.434492 0.403908 0.360800
0.465471 0.430179 0.385143
0.489777 0.454477 0.405351
0.516418 0.480868 0.430130
0.544035 0.506821 0.456112
0.568873 0.533284 0.482201
0.594433 0.556754 0.502940
0.264827 0.243407 0.215927
0.287181 0.261735 0.234232
0.310077 0.283976 0.252789
0.332877 0.306751 0.271458
0.356648 0.328794 0.293405
0.381322 0.353161 0.316191
0.406005 0.378099 0.337213
0.432124 0.401558 0.358433
