example_ofxGpuLutCube/bin/data/ofxGpuLutCube/LUT/V31 (hard B&W).cube
LUT_3D_SIZE 16
0.000000 0.000000 0.000000
0.000000 0.000000 0.000000
0.000128 0.000138 0.000122
0.027578 0.027919 0.027318
0.074849 0.075075 0.074649
0.134030 0.134224 0.133872
0.201932 0.202128 0.201815
0.275479 0.275663 0.275373
0.350658 0.350841 0.350567
0.434163 0.434359 0.434114
0.517447 0.517661 0.517386
0.590227 0.590425 0.590184
0.664075 0.664293 0.664046
0.752798 0.753051 0.752750
0.773718 0.773916 0.773682
0.779205 0.779440 0.779188
0.000000 0.000000 0.000000
0.000000 0.000000 0.000000
0.000311 0.000318 0.000301
0.034531 0.034798 0.034263
0.081562 0.081772 0.081366
0.142283 0.142479 0.142140
0.209440 0.209637 0.209325
0.283673 0.283861 0.283567
0.358485 0.358670 0.358393
0.441880 0.442082 0.441828
0.523661 0.523865 0.523600
0.595360 0.595563 0.595323
0.668424 0.668646 0.668401
0.755231 0.755485 0.755184
0.776651 0.776872 0.776632
0.781802 0.782042 0.781776
0.000000 0.000000 0.000000
0.000000 0.000000 0.000000
0.007842 0.008055 0.007628
0.052127 0.052377 0.051903
0.100357 0.100562 0.100178
0.166174 0.166368 0.166032
0.234184 0.234368 0.234065
0.310149 0.310330 0.310047
0.385219 0.385396 0.385123
0.469317 0.469500 0.469246
0.547062 0.547238 0.546987
0.615041 0.615250 0.614994
0.685676 0.685914 0.685654
0.765949 0.766183 0.765935
0.788615 0.788867 0.788653
0.792408 0.792620 0.792385
0.000000 0.000000 0.000000
0.000004 0.000005 0.000003
0.019440 0.019651 0.019239
0.066531 0.066763 0.066323
0.118854 0.119061 0.118685
0.188035 0.188218 0.187902
0.260829 0.261014 0.260717
0.337554 0.337738 0.337460
0.415433 0.415612 0.415351
0.500506 0.500726 0.500471
0.577224 0.577430 0.577173
0.640160 0.640392 0.640137
0.709578 0.709787 0.709541
0.781523 0.781753 0.781496
0.805906 0.806149 0.805886
0.808574 0.808766 0.808532
0.000000 0.000000 0.000000
0.000038 0.000039 0.000038
0.031093 0.031380 0.030813
0.081636 0.081852 0.081445
0.140927 0.141124 0.140766
0.210697 0.210880 0.210576
0.287584 0.287767 0.287489
0.364945 0.365128 0.364856
0.449951 0.450151 0.449889
0.531681 0.531878 0.531631
0.605991 0.606204 0.605961
0.666845 0.667066 0.666821
0.733056 0.733285 0.733019
0.797968 0.798221 0.797960
0.826059 0.826279 0.826088
0.827106 0.827317 0.827099
0.000000 0.000000 0.000000
0.000187 0.000192 0.000182
0.040218 0.040480 0.039966
0.097446 0.097647 0.097268
0.164920 0.165109 0.164770
0.236330 0.236515 0.236209
0.314576 0.314758 0.314492
0.392483 0.392666 0.392400
0.483603 0.483792 0.483543
0.563551 0.563759 0.563521
0.629835 0.630053 0.629796
0.691572 0.691812 0.691542
0.753643 0.753875 0.753633
0.812915 0.813135 0.812890
0.844072 0.844323 0.844073
0.844055 0.844299 0.844059
0.000000 0.000000 0.000000
0.001171 0.001191 0.001142
0.047372 0.047618 0.047138
0.108686 0.108893 0.108517
0.182137 0.182330 0.181996
0.258048 0.258236 0.257938
0.337873 0.338057 0.337785
0.419644 0.419853 0.419582
0.510937 0.511127 0.510870
0.591013 0.591197 0.590947
0.650138 0.650351 0.650093
0.712533 0.712772 0.712526
0.771390 0.771629 0.771358
0.824196 0.824431 0.824221
0.858700 0.858955 0.858686
0.858555 0.858828 0.858565
0.000091 0.000095 0.000091
0.003801 0.003903 0.003697
0.053233 0.053485 0.053016
0.116751 0.116950 0.116579
0.192788 0.192978 0.192654
0.273273 0.273457 0.273162
0.357156 0.357339 0.357054
0.446508 0.446693 0.446429
0.533413 0.533620 0.533369
0.610145 0.610363 0.610111
0.667895 0.668116 0.667877
0.729064 0.729300 0.729056
0.785255 0.785515 0.785236
0.833548 0.833779 0.833551
0.872596 0.872833 0.872601
0.872188 0.872434 0.872266
0.000386 0.000430 0.000344
0.004072 0.004344 0.003817
0.059515 0.059752 0.059302
0.125284 0.125487 0.125123
0.201846 0.202030 0.201714
0.284709 0.284892 0.284606
0.372027 0.372217 0.371937
0.468671 0.468890 0.468629
0.552502 0.552690 0.552435
0.623889 0.624096 0.623848
0.682363 0.682584 0.682342
0.741994 0.742251 0.741997
0.795810 0.796062 0.795790
0.840479 0.840736 0.840475
0.885281 0.885502 0.885271
0.884816 0.885051 0.884796
0.000114 0.000126 0.000106
0.004103 0.004209 0.004031
0.065957 0.066185 0.065741
0.134143 0.134346 0.133986
0.210471 0.210656 0.210348
0.293630 0.293813 0.293523
0.381472 0.381673 0.381392
0.482829 0.483019 0.482758
0.566710 0.566910 0.566653
0.635658 0.635884 0.635625
0.693861 0.694084 0.693844
0.752037 0.752249 0.752027
0.804283 0.804509 0.804266
0.845819 0.846041 0.845814
0.892176 0.892433 0.892161
0.895726 0.895952 0.895724
0.001227 0.001236 0.001214
0.013477 0.013595 0.013353
0.070730 0.070958 0.070529
0.141063 0.141249 0.140908
0.217386 0.217578 0.217272
0.300636 0.300820 0.300530
0.387250 0.387420 0.387152
0.490395 0.490597 0.490337
0.576576 0.576782 0.576523
0.645562 0.645784 0.645525
0.702940 0.703177 0.702925
0.759022 0.759251 0.759023
0.811150 0.811412 0.811160
0.850099 0.850339 0.850088
0.894536 0.894812 0.894582
0.904058 0.904342 0.904073
0.006338 0.006469 0.006217
0.014817 0.015038 0.014595
0.073597 0.073821 0.073405
0.144753 0.144946 0.144601
0.221371 0.221553 0.221256
0.306097 0.306279 0.305990
0.392897 0.393084 0.392813
0.495976 0.496177 0.495925
0.583565 0.583787 0.583530
0.652805 0.653035 0.652767
0.709856 0.710073 0.709818
0.763319 0.763560 0.763296
0.816225 0.816481 0.816230
0.853492 0.853714 0.853519
0.896380 0.896662 0.896406
0.910638 0.910869 0.910619
0.003307 0.003442 0.003191
0.013398 0.013624 0.013190
0.074269 0.074484 0.074070
0.146448 0.146634 0.146296
0.222654 0.222836 0.222532
0.309418 0.309602 0.309318
0.398881 0.399084 0.398816
0.501378 0.501567 0.501302
0.588930 0.589146 0.588893
0.658060 0.658268 0.658017
0.715054 0.715300 0.715049
0.765820 0.766065 0.765782
0.819027 0.819292 0.819013
0.855741 0.856000 0.855774
0.897181 0.897384 0.897168
0.915389 0.915604 0.915414
0.008906 0.008996 0.008819
0.018955 0.019136 0.018778
0.074259 0.074478 0.074054
0.147412 0.147615 0.147261
0.223030 0.223212 0.222908
0.310919 0.311110 0.310825
0.403786 0.403975 0.403708
0.505631 0.505821 0.505568
0.592709 0.592916 0.592666
0.661249 0.661459 0.661214
0.718236 0.718440 0.718254
0.767089 0.767334 0.767102
0.819728 0.819976 0.819735
0.856650 0.856874 0.856630
0.894974 0.895234 0.894986
0.918643 0.918911 0.918613
0.009812 0.010048 0.009603
0.016675 0.016969 0.016413
0.074916 0.075141 0.074720
0.147771 0.147976 0.147618
0.222880 0.223063 0.222754
0.311027 0.311216 0.310936
0.405836 0.406023 0.405748
0.507696 0.507921 0.507656
0.594262 0.594459 0.594212
0.662179 0.662399 0.662129
0.719166 0.719406 0.719174
0.767065 0.767303 0.767044
0.818467 0.818723 0.818437
0.856183 0.856429 0.856188
0.891959 0.892178 0.891988
0.920437 0.920629 0.920410
0.013976 0.014363 0.013589
0.028590 0.028920 0.028260
0.083571 0.083784 0.083380
0.154481 0.154680 0.154328
0.227704 0.227887 0.227581
0.315510 0.315695 0.315421
0.410228 0.410424 0.410150
0.511244 0.511439 0.511175
0.596700 0.596914 0.596642
0.663758 0.663968 0.663717
0.720397 0.720611 0.720412
0.768094 0.768290 0.768042
0.818946 0.819172 0.818943
0.856455 0.856726 0.856498
0.892276 0.892513 0.892301
0.920677 0.920830 0.920637
0.000000 0.000000 0.000000
0.000000 0.000000 0.000000
0.000120 0.000127 0.000112
0.028172 0.028482 0.027886
0.074988 0.075204 0.074792
0.132846 0.133044 0.132689
0.200788 0.200977 0.200652
0.274713 0.274900 0.274605
0.349849 0.350042 0.349765
0.434908 0.435097 0.434835
0.519339 0.519544 0.519274
0.591460 0.591670 0.591414
0.665314 0.665533 0.665288
0.754262 0.754528 0.754214
0.774541 0.774748 0.774508
0.780241 0.780454 0.780226
0.000000 0.000000 0.000000
0.000000 0.000000 0.000000
0.000289 0.000297 0.000283
0.034733 0.035000 0.034475
0.081689 0.081902 0.081496
0.141265 0.141455 0.141115
0.208339 0.208527 0.208215
0.282869 0.283059 0.282770
0.357991 0.358190 0.357905
0.442741 0.442944 0.442676
0.525431 0.525631 0.525365
0.596638 0.596842 0.596592
0.669675 0.669900 0.669654
0.756603 0.756868 0.756556
0.777507 0.777723 0.777487
0.782850 0.783068 0.782829
0.000000 0.000000 0.000000
0.000000 0.000000 0.000000
0.007788 0.007996 0.007581
0.052714 0.052963 0.052487
0.101566 0.101776 0.101390
0.166585 0.166775 0.166447
0.234049 0.234233 0.233930
0.310172 0.310357 0.310078
0.386200 0.386398 0.386117
0.470890 0.471087 0.470833
0.548096 0.548309 0.548051
0.616068 0.616289 0.616024
0.686658 0.686888 0.686635
0.766737 0.766970 0.766715
0.789316 0.789574 0.789359
0.793431 0.793652 0.793430
0.000000 0.000000 0.000000
0.000003 0.000004 0.000003
0.019197 0.019404 0.018989
0.067455 0.067678 0.067247
0.120781 0.120980 0.120618
0.189860 0.190044 0.189723
0.262209 0.262395 0.262093
0.338777 0.338961 0.338685
0.417748 0.417934 0.417671
0.501439 0.501640 0.501393
0.576739 0.576942 0.576700
0.640370 0.640592 0.640343
0.709333 0.709542 0.709300
0.781262 0.781504 0.781238
0.806159 0.806395 0.806137
0.809086 0.809278 0.809050
0.000000 0.000000 0.000000
0.000040 0.000041 0.000038
0.031342 0.031629 0.031070
0.081795 0.082019 0.081605
0.141057 0.141256 0.140903
0.210477 0.210660 0.210355
0.287260 0.287444 0.287169
0.364726 0.364916 0.364641
0.449333 0.449544 0.449273
0.530282 0.530497 0.530246
0.604553 0.604770 0.604522
0.665786 0.666000 0.665754
0.731787 0.732031 0.731766
0.796998 0.797247 0.796991
0.825574 0.825797 0.825607
0.826774 0.826997 0.826793
0.000000 0.000000 0.000000
0.000094 0.000096 0.000093
0.039744 0.040001 0.039493
0.096226 0.096438 0.096048
0.162949 0.163147 0.162807
0.234256 0.234450 0.234144
0.312540 0.312726 0.312457
0.390258 0.390453 0.390181
0.480815 0.481033 0.480767
0.560982 0.561194 0.560948
0.628109 0.628323 0.628065
0.689778 0.690007 0.689750
0.752180 0.752418 0.752176
0.811889 0.812120 0.811865
0.843190 0.843440 0.843197
0.843269 0.843513 0.843284
0.000000 0.000000 0.000000
0.000982 0.001008 0.000965
0.046322 0.046570 0.046086
0.107487 0.107693 0.107314
0.180686 0.180871 0.180544
0.256090 0.256272 0.255981
0.335646 0.335837 0.335558
0.416804 0.416996 0.416721
0.508437 0.508622 0.508369
0.588750 0.588955 0.588713
0.648423 0.648639 0.648382
0.710973 0.711197 0.710948
0.770092 0.770328 0.770074
0.823288 0.823504 0.823286
0.857896 0.858155 0.857874
0.857794 0.858081 0.857810
0.000036 0.000037 0.000035
0.002884 0.002973 0.002794
0.051899 0.052143 0.051675
0.115470 0.115670 0.115300
0.191569 0.191758 0.191441
0.271607 0.271790 0.271501
0.355196 0.355386 0.355113
0.443711 0.443905 0.443637
0.531137 0.531354 0.531096
0.608475 0.608692 0.608438
0.666377 0.666601 0.666351
0.727706 0.727940 0.727691
0.784236 0.784483 0.784216
0.832750 0.832996 0.832745
0.871771 0.872014 0.871771
0.871451 0.871700 0.871480
0.000147 0.000168 0.000121
0.002950 0.003204 0.002684
0.057905 0.058137 0.057679
0.123812 0.124007 0.123643
0.200522 0.200709 0.200397
0.283296 0.283479 0.283198
0.370335 0.370540 0.370249
0.466405 0.466605 0.466344
0.550459 0.550671 0.550406
0.622430 0.622639 0.622390
0.681023 0.681237 0.680991
0.740840 0.741074 0.740825
0.794923 0.795172 0.794904
0.839816 0.840072 0.839828
0.884566 0.884790 0.884550
0.884169 0.884387 0.884170
0.000013 0.000019 0.000006
0.003289 0.003373 0.003223
0.064345 0.064573 0.064128
0.132613 0.132811 0.132454
0.209257 0.209447 0.209134
0.292357 0.292530 0.292236
0.380196 0.380381 0.380118
0.481326 0.481517 0.481250
0.565074 0.565275 0.565036
0.634244 0.634459 0.634207
0.692614 0.692854 0.692599
0.751010 0.751240 0.751004
0.803406 0.803661 0.803396
0.845227 0.845460 0.845232
0.891635 0.891889 0.891616
0.895160 0.895401 0.895153
0.000952 0.000963 0.000940
0.011057 0.011165 0.010953
0.068955 0.069186 0.068747
0.139660 0.139857 0.139508
0.216409 0.216594 0.216287
0.299412 0.299595 0.299315
0.386183 0.386359 0.386104
0.489143 0.489346 0.489086
0.575172 0.575375 0.575115
0.644248 0.644466 0.644211
0.701772 0.702004 0.701732
0.758137 0.758370 0.758148
0.810374 0.810602 0.810368
0.849557 0.849814 0.849535
0.894056 0.894331 0.894098
0.903533 0.903796 0.903527
0.005043 0.005148 0.004938
0.013080 0.013283 0.012867
0.071672 0.071897 0.071476
0.143323 0.143520 0.143166
0.220299 0.220487 0.220181
0.304988 0.305174 0.304883
0.391532 0.391724 0.391457
0.494669 0.494874 0.494624
0.582279 0.582487 0.582237
0.651590 0.651833 0.651574
0.708794 0.709020 0.708774
0.762579 0.762798 0.762561
0.815463 0.815720 0.815492
0.852988 0.853200 0.852966
0.895945 0.896224 0.895944
0.910211 0.910419 0.910194
0.002508 0.002614 0.002422
0.009696 0.009906 0.009511
0.072046 0.072272 0.071842
0.144920 0.145108 0.144765
0.221666 0.221854 0.221549
0.308354 0.308536 0.308251
0.397381 0.397573 0.397308
0.499895 0.500122 0.499861
0.587597 0.587819 0.587567
0.656884 0.657093 0.656851
0.713957 0.714205 0.713920
0.765102 0.765340 0.765064
0.818367 0.818626 0.818349
0.855273 0.855481 0.855281
0.896730 0.896980 0.896723
0.914976 0.915225 0.915024
0.006181 0.006245 0.006117
0.016211 0.016371 0.016050
0.071445 0.071672 0.071238
0.145544 0.145745 0.145394
0.221816 0.222000 0.221690
0.309789 0.309973 0.309685
0.402214 0.402394 0.402128
0.504172 0.504362 0.504107
0.591415 0.591631 0.591381
0.660180 0.660387 0.660144
0.717193 0.717432 0.717157
0.766356 0.766590 0.766335
0.819105 0.819373 0.819115
0.856144 0.856392 0.856136
0.894580 0.894841 0.894585
0.918259 0.918544 0.918232
0.007933 0.008143 0.007741
0.014305 0.014583 0.014052
0.071700 0.071929 0.071501
0.145641 0.145844 0.145488
0.221427 0.221613 0.221304
0.309759 0.309950 0.309660
0.404444 0.404631 0.404355
0.506264 0.506496 0.506234
0.593004 0.593210 0.592957
0.661183 0.661417 0.661154
0.718194 0.718432 0.718165
0.766309 0.766531 0.766322
0.817915 0.818174 0.817897
0.855807 0.856057 0.855796
0.891596 0.891831 0.891599
0.920106 0.920333 0.920121
0.009226 0.009628 0.008820
0.024079 0.024425 0.023732
0.080356 0.080569 0.080159
0.152236 0.152436 0.152084
0.226158 0.226344 0.226036
0.314167 0.314360 0.314074
0.408824 0.409006 0.408734
0.509862 0.510075 0.509821
0.595484 0.595687 0.595440
0.662790 0.663006 0.662746
0.719397 0.719605 0.719368
0.767208 0.767430 0.767213
0.818358 0.818607 0.818312
0.856117 0.856371 0.856131
0.891921 0.892143 0.891908
0.920325 0.920497 0.920319
0.000000 0.000000 0.000000
0.000000 0.000000 0.000000
0.000107 0.000111 0.000100
0.028333 0.028620 0.028056
0.074236 0.074459 0.074037
0.128529 0.128721 0.128375
0.197412 0.197593 0.197280
0.271747 0.271934 0.271641
0.345803 0.345980 0.345705
0.434389 0.434575 0.434297
0.523416 0.523627 0.523368
0.595156 0.595352 0.595098
0.670612 0.670839 0.670600
0.760995 0.761238 0.760970
0.777229 0.777438 0.777193
0.783231 0.783500 0.783229
0.000000 0.000000 0.000000
0.000000 0.000000 0.000000
0.000278 0.000283 0.000270
0.034541 0.034813 0.034269
0.081243 0.081465 0.081056
0.137591 0.137788 0.137435
0.204831 0.205012 0.204699
0.279765 0.279958 0.279663
0.354666 0.354839 0.354572
0.443139 0.443320 0.443049
0.529994 0.530208 0.529948
0.600601 0.600793 0.600540
0.674944 0.675170 0.674937
0.763450 0.763693 0.763421
0.780519 0.780730 0.780486
0.785993 0.786259 0.786000
0.000000 0.000000 0.000000
0.000000 0.000000 0.000000
0.006125 0.006322 0.005932
0.052227 0.052478 0.052002
0.101581 0.101788 0.101409
0.164227 0.164413 0.164082
0.231166 0.231349 0.231047
0.308130 0.308316 0.308034
0.385914 0.386100 0.385827
0.473873 0.474063 0.473796
0.553007 0.553233 0.552968
0.620836 0.621050 0.620799
0.691701 0.691908 0.691678
0.773083 0.773302 0.773047
0.793115 0.793367 0.793109
0.797357 0.797606 0.797373
0.000000 0.000000 0.000000
0.000000 0.000000 0.000000
0.016863 0.017057 0.016669
0.068128 0.068357 0.067924
0.123823 0.124020 0.123661
0.192847 0.193034 0.192716
0.265416 0.265607 0.265318
0.342214 0.342386 0.342116
0.424204 0.424404 0.424130
0.507630 0.507824 0.507573
0.580174 0.580373 0.580122
0.644770 0.644982 0.644738
0.713512 0.713743 0.713486
0.786353 0.786576 0.786368
0.810530 0.810774 0.810544
0.813089 0.813308 0.813062
0.000000 0.000000 0.000000
0.000022 0.000022 0.000021
0.030490 0.030778 0.030209
0.082752 0.082966 0.082563
0.144660 0.144852 0.144500
0.215988 0.216178 0.215875
0.294405 0.294589 0.294295
0.372590 0.372770 0.372504
0.458974 0.459164 0.458901
0.537838 0.538032 0.537782
0.607184 0.607396 0.607142
0.668361 0.668593 0.668345
0.734712 0.734920 0.734674
0.800578 0.800831 0.800602
0.828806 0.829032 0.828819
0.829795 0.830045 0.829805
0.000000 0.000000 0.000000
0.000096 0.000097 0.000094
0.042157 0.042415 0.041908
0.098541 0.098742 0.098361
0.164757 0.164950 0.164615
0.235166 0.235349 0.235044
0.314592 0.314780 0.314500
0.395768 0.395951 0.395674
0.486262 0.486460 0.486197
0.564661 0.564884 0.564634
0.630649 0.630867 0.630613
0.690897 0.691105 0.690865
0.752827 0.753076 0.752824
0.813148 0.813399 0.813133
0.844425 0.844679 0.844430
0.844630 0.844877 0.844639
0.000000 0.000000 0.000000
0.000975 0.000992 0.000962
0.050107 0.050350 0.049876
0.110743 0.110947 0.110573
0.181481 0.181670 0.181348
0.254393 0.254583 0.254280
0.333709 0.333897 0.333619
0.417187 0.417382 0.417114
0.508867 0.509062 0.508804
0.588501 0.588703 0.588457
0.649137 0.649346 0.649095
0.710048 0.710293 0.710021
0.768417 0.768653 0.768406
0.822643 0.822878 0.822621
0.857288 0.857546 0.857275
0.857295 0.857531 0.857305
0.000001 0.000001 0.000001
0.002680 0.002730 0.002635
0.054772 0.055009 0.054551
0.117756 0.117962 0.117590
0.191447 0.191636 0.191313
0.270466 0.270644 0.270344
0.352750 0.352945 0.352665
0.440419 0.440611 0.440355
0.528562 0.528773 0.528509
0.606575 0.606797 0.606554
0.664348 0.664563 0.664326
0.725006 0.725234 0.724997
0.781729 0.781960 0.781732
0.830890 0.831105 0.830880
0.869570 0.869799 0.869574
0.869369 0.869623 0.869350
0.000156 0.000160 0.000145
0.002955 0.003157 0.002773
0.057143 0.057379 0.056922
0.122573 0.122771 0.122412
0.198318 0.198505 0.198187
0.280986 0.281164 0.280876
0.367559 0.367755 0.367487
0.461550 0.461746 0.461484
0.545980 0.546174 0.545914
0.619121 0.619338 0.619082
0.677642 0.677859 0.677602
0.737499 0.737725 0.737470
0.792083 0.792307 0.792080
0.837746 0.837981 0.837755
0.882036 0.882256 0.882050
0.881899 0.882169 0.881921
0.000005 0.000006 0.000003
0.002196 0.002222 0.002169
0.060992 0.061220 0.060773
0.128764 0.128960 0.128603
0.205573 0.205760 0.205442
0.288803 0.288997 0.288700
0.376661 0.376868 0.376586
0.476631 0.476831 0.476570
0.560579 0.560802 0.560548
0.630402 0.630604 0.630362
0.688963 0.689181 0.688942
0.747728 0.747950 0.747720
0.800555 0.800806 0.800552
0.843261 0.843494 0.843261
0.889801 0.890051 0.889792
0.892992 0.893227 0.892979
0.000682 0.000691 0.000675
0.008464 0.008551 0.008384
0.065520 0.065746 0.065304
0.135640 0.135838 0.135490
0.212556 0.212749 0.212429
0.295575 0.295758 0.295481
0.382794 0.382995 0.382717
0.485509 0.485715 0.485450
0.571175 0.571379 0.571127
0.640434 0.640643 0.640388
0.698349 0.698579 0.698333
0.755412 0.755655 0.755433
0.807708 0.807936 0.807708
0.847649 0.847918 0.847635
0.892316 0.892551 0.892291
0.901606 0.901830 0.901661
0.003741 0.003825 0.003661
0.011207 0.011401 0.011014
0.068806 0.069035 0.068604
0.140154 0.140351 0.140000
0.217418 0.217607 0.217299
0.301428 0.301601 0.301321
0.387602 0.387808 0.387525
0.490945 0.491144 0.490885
0.578640 0.578844 0.578591
0.648169 0.648393 0.648131
0.705622 0.705823 0.705597
0.760211 0.760462 0.760216
0.813068 0.813296 0.813047
0.851156 0.851410 0.851137
0.894246 0.894509 0.894279
0.908542 0.908825 0.908533
0.001818 0.001915 0.001737
0.007365 0.007581 0.007178
0.069575 0.069802 0.069364
0.142232 0.142427 0.142074
0.219501 0.219688 0.219379
0.305214 0.305402 0.305115
0.392785 0.392975 0.392710
0.495632 0.495834 0.495570
0.583886 0.584111 0.583854
0.653583 0.653805 0.653549
0.710916 0.711148 0.710904
0.763019 0.763239 0.762989
0.816104 0.816354 0.816099
0.853515 0.853754 0.853541
0.895290 0.895547 0.895290
0.913537 0.913792 0.913521
0.004390 0.004435 0.004345
0.014278 0.014420 0.014130
0.068873 0.069107 0.068662
0.143010 0.143208 0.142859
0.219653 0.219837 0.219525
0.306831 0.307025 0.306730
0.397387 0.397585 0.397310
0.499601 0.499804 0.499545
0.587634 0.587844 0.587595
0.657064 0.657291 0.657044
0.714307 0.714539 0.714274
0.764231 0.764492 0.764203
0.817188 0.817422 0.817185
0.854598 0.854838 0.854602
0.893291 0.893539 0.893312
0.917021 0.917251 0.917027
0.006620 0.006810 0.006431
0.012570 0.012832 0.012314
0.069364 0.069588 0.069153
0.142986 0.143178 0.142836
0.218964 0.219145 0.218836
0.306994 0.307181 0.306897
0.399914 0.400130 0.399855
0.501740 0.501942 0.501675
0.589287 0.589505 0.589251
0.658359 0.658579 0.658341
0.715501 0.715746 0.715483
0.764163 0.764412 0.764144
0.816161 0.816375 0.816134
0.854238 0.854514 0.854226
0.890369 0.890638 0.890338
0.918944 0.919237 0.918947
0.006495 0.006919 0.006047
0.020511 0.020896 0.020125
0.077704 0.077925 0.077503
0.149401 0.149599 0.149253
0.223601 0.223795 0.223475
0.311104 0.311292 0.310989
0.404292 0.404508 0.404228
0.505354 0.505544 0.505278
0.591742 0.591975 0.591715
0.659986 0.660197 0.659956
0.716700 0.716896 0.716646
0.765106 0.765346 0.765100
0.816636 0.816882 0.816626
0.854636 0.854911 0.854615
0.890600 0.890869 0.890574
0.919159 0.919457 0.919189
0.000000 0.000000 0.000000
0.000000 0.000000 0.000000
0.000066 0.000072 0.000061
0.025150 0.025453 0.024873
0.069673 0.069891 0.069470
0.119108 0.119305 0.118944
0.187822 0.188013 0.187690
0.263970 0.264153 0.263859
0.341022 0.341213 0.340930
0.427214 0.427405 0.427143
0.518902 0.519100 0.518841
0.594469 0.594676 0.594421
0.672542 0.672766 0.672508
0.762298 0.762513 0.762280
0.776814 0.777038 0.776823
0.783808 0.784010 0.783787
0.000000 0.000000 0.000000
0.000000 0.000000 0.000000
0.000080 0.000086 0.000075
0.027572 0.027868 0.027301
0.074128 0.074346 0.073928
0.130692 0.130890 0.130529
0.199205 0.199396 0.199077
0.274326 0.274513 0.274220
0.350078 0.350267 0.349987
0.437564 0.437759 0.437495
0.526997 0.527199 0.526945
0.601007 0.601223 0.600975
0.677677 0.677896 0.677644
0.766473 0.766704 0.766470
0.780491 0.780714 0.780498
0.786933 0.787158 0.786910
0.000000 0.000000 0.000000
0.000000 0.000000 0.000000
0.003445 0.003616 0.003281
0.050712 0.050954 0.050477
0.100491 0.100692 0.100310
0.162338 0.162532 0.162195
0.228657 0.228842 0.228531
0.305521 0.305708 0.305413
0.383194 0.383391 0.383108
0.473004 0.473191 0.472935
0.555309 0.555520 0.555275
0.624236 0.624455 0.624206
0.696841 0.697066 0.696808
0.780734 0.780974 0.780729
0.794882 0.795113 0.794907
0.799580 0.799838 0.799560
0.000000 0.000000 0.000000
0.000000 0.000000 0.000000
0.015203 0.015472 0.014919
0.066573 0.066809 0.066363
0.122407 0.122611 0.122249
0.191420 0.191604 0.191289
0.263510 0.263693 0.263397
0.341178 0.341362 0.341073
0.425120 0.425329 0.425061
0.510874 0.511073 0.510815
0.584864 0.585073 0.584822
0.649937 0.650158 0.649908
0.719406 0.719614 0.719368
0.793979 0.794215 0.793943
0.814031 0.814265 0.814019
0.816745 0.816970 0.816756
0.000000 0.000000 0.000000
0.000000 0.000000 0.000000
0.030477 0.030748 0.030205
0.081550 0.081758 0.081352
0.143853 0.144047 0.143691
0.217827 0.218012 0.217702
0.297654 0.297846 0.297557
0.377047 0.377232 0.376971
0.466037 0.466229 0.465961
0.544727 0.544923 0.544664
0.611749 0.611962 0.611718
0.674072 0.674288 0.674042
0.741026 0.741260 0.741011
0.808115 0.808380 0.808115
0.833011 0.833264 0.833022
0.834063 0.834312 0.834028
0.000000 0.000000 0.000000
0.000048 0.000049 0.000048
0.042351 0.042617 0.042106
0.097948 0.098158 0.097766
0.164399 0.164591 0.164258
0.237551 0.237734 0.237439
0.319537 0.319727 0.319440
0.403942 0.404141 0.403864
0.495873 0.496073 0.495814
0.573256 0.573456 0.573205
0.636926 0.637153 0.636897
0.696871 0.697092 0.696846
0.759107 0.759346 0.759078
0.820652 0.820865 0.820651
0.849130 0.849371 0.849138
0.849159 0.849420 0.849177
0.000000 0.000000 0.000000
0.000184 0.000186 0.000182
0.051524 0.051766 0.051295
0.112685 0.112885 0.112515
0.182469 0.182656 0.182331
0.254643 0.254831 0.254536
0.335243 0.335428 0.335148
0.423938 0.424117 0.423858
0.516869 0.517075 0.516819
0.596122 0.596335 0.596076
0.658107 0.658321 0.658069
0.717295 0.717520 0.717269
0.773545 0.773782 0.773531
0.829663 0.829917 0.829674
0.862707 0.862965 0.862705
0.862292 0.862562 0.862287
0.000000 0.000000 0.000000
0.001907 0.001924 0.001881
0.059009 0.059245 0.058792
0.123569 0.123763 0.123398
0.194588 0.194778 0.194456
0.272687 0.272867 0.272569
0.354524 0.354707 0.354430
0.445387 0.445586 0.445321
