example_ofxGpuLutCube/bin/data/ofxGpuLutCube/LUT/V31 (hard B&W).cube
LUT_3D_SIZE 6
0.000000 0.000000 0.000000
0.027578 0.027919 0.027318
0.201932 0.202128 0.201815
0.434163 0.434359 0.434114
0.664075 0.664293 0.664046
0.779205 0.779440 0.779188
0.000000 0.000000 0.000000
0.066531 0.066763 0.066323
0.260829 0.261014 0.260717
0.500506 0.500726 0.500471
0.709578 0.709787 0.709541
0.808574 0.808766 0.808532
0.000000 0.000000 0.000000
0.108686 0.108893 0.108517
0.337873 0.338057 0.337785
0.591013 0.591197 0.590947
0.771390 0.771629 0.771358
0.858555 0.858828 0.858565
0.000114 0.000126 0.000106
0.134143 0.134346 0.133986
0.381472 0.381673 0.381392
0.635658 0.635884 0.635625
0.804283 0.804509 0.804266
0.895726 0.895952 0.895724
0.003307 0.003442 0.003191
0.146448 0.146634 0.146296
0.398881 0.399084 0.398816
0.658060 0.658268 0.658017
0.819027 0.819292 0.819013
0.915389 0.915604 0.915414
0.013976 0.014363 0.013589
0.154481 0.154680 0.154328
0.410228 0.410424 0.410150
0.663758 0.663968 0.663717
0.818946 0.819172 0.818943
0.920677 0.920830 0.920637
0.000000 0.000000 0.000000
0.025150 0.025453 0.024873
0.187822 0.188013 0.187690
0.427214 0.427405 0.427143
0.672542 0.672766 0.672508
0.783808 0.784010 0.783787
0.000000 0.000000 0.000000
0.066573 0.066809 0.066363
0.263510 0.263693 0.263397
0.510874 0.511073 0.510815
0.719406 0.719614 0.719368
0.816745 0.816970 0.816756
0.000000 0.000000 0.000000
0.112685 0.112885 0.112515
0.335243 0.335428 0.335148
0.596122 0.596335 0.596076
0.773545 0.773782 0.773531
0.862292 0.862562 0.862287
0.000238 0.000284 0.000192
0.135709 0.135907 0.135552
0.385896 0.386086 0.385810
0.635374 0.635585 0.635344
0.801919 0.802147 0.801905
0.893368 0.893638 0.893346
0.001129 0.001194 0.001067
0.140065 0.140258 0.139908
0.389936 0.390130 0.389851
0.650946 0.651150 0.650900
0.813616 0.813835 0.813586
0.911738 0.912017 0.911748
0.004956 0.005383 0.004482
0.146257 0.146456 0.146107
0.399594 0.399781 0.399521
0.657076 0.657270 0.657039
0.814543 0.814816 0.814566
0.917819 0.918096 0.917788
0.000000 0.000000 0.000000
0.020348 0.020671 0.020048
0.187247 0.187435 0.187129
0.402057 0.402254 0.401979
0.640126 0.640343 0.640091
0.765459 0.765704 0.765477
0.000000 0.000000 0.000000
0.044740 0.044988 0.044497
0.241101 0.241286 0.240979
0.494592 0.494783 0.494519
0.713364 0.713605 0.713350
0.811950 0.812166 0.811934
0.000000 0.000000 0.000000
0.105609 0.105818 0.105433
0.344834 0.345027 0.344762
0.607479 0.607692 0.607447
0.788853 0.789071 0.788839
0.871581 0.871843 0.871560
0.000000 0.000000 0.000000
0.128824 0.129016 0.128657
0.408551 0.408737 0.408481
0.659485 0.659702 0.659455
0.824187 0.824429 0.824191
0.907795 0.908026 0.907829
0.000290 0.000297 0.000282
0.143087 0.143283 0.142936
0.431329 0.431519 0.431252
0.679941 0.680163 0.679924
0.834586 0.834844 0.834612
0.924190 0.924460 0.924179
0.003915 0.004047 0.003798
0.147863 0.148063 0.147709
0.430804 0.430987 0.430716
0.683877 0.684098 0.683848
0.831474 0.831707 0.831477
0.927370 0.927593 0.927341
0.000000 0.000000 0.000000
0.031228 0.031491 0.030971
0.205266 0.205449 0.205138
0.420571 0.420782 0.420516
0.653362 0.653586 0.653330
0.729588 0.729828 0.729552
0.000000 0.000000 0.000000
0.014109 0.014338 0.013879
0.206432 0.206615 0.206306
0.424771 0.424972 0.424705
0.652705 0.652923 0.652668
0.774285 0.774526 0.774270
0.000000 0.000000 0.000000
0.073326 0.073550 0.073128
0.325417 0.325604 0.325324
0.600084 0.600296 0.600053
0.787175 0.787398 0.787163
0.864647 0.864863 0.864652
0.000000 0.000000 0.000000
0.116368 0.116564 0.116198
0.397435 0.397624 0.397352
0.661509 0.661721 0.661476
0.834515 0.834761 0.834537
0.911870 0.912085 0.911851
0.003895 0.004305 0.003474
0.131809 0.132009 0.131646
0.431893 0.432092 0.431820
0.695005 0.695240 0.694985
0.850215 0.850432 0.850199
0.932657 0.932899 0.932642
0.002073 0.002320 0.001824
0.131180 0.131379 0.131026
0.440278 0.440474 0.440204
0.696767 0.696984 0.696739
0.846599 0.846815 0.846584
0.937206 0.937451 0.937162
0.000000 0.000000 0.000000
0.035063 0.035318 0.034818
0.218916 0.219102 0.218788
0.456237 0.456442 0.456176
0.661031 0.661246 0.661001
0.746883 0.747111 0.746860
0.000000 0.000000 0.000000
0.015820 0.016042 0.015608
0.215108 0.215300 0.214982
0.459217 0.459425 0.459161
0.669886 0.670101 0.669857
0.746907 0.747132 0.746899
0.000000 0.000000 0.000000
0.009014 0.009157 0.008860
0.269683 0.269870 0.269576
0.545937 0.546142 0.545894
0.752327 0.752560 0.752315
0.848233 0.848447 0.848232
0.000000 0.000000 0.000000
0.057047 0.057289 0.056825
0.378713 0.378899 0.378627
0.660755 0.660969 0.660729
0.832435 0.832697 0.832457
0.909724 0.909975 0.909764
0.000060 0.000073 0.000048
0.080098 0.080322 0.079898
0.422137 0.422338 0.422064
0.699252 0.699478 0.699232
0.858570 0.858842 0.858561
0.936585 0.936873 0.936606
0.014128 0.014468 0.013780
0.082728 0.082953 0.082531
0.426128 0.426334 0.426064
0.707626 0.707837 0.707554
0.857347 0.857630 0.857396
0.943187 0.943490 0.943292
0.000000 0.000000 0.000000
0.035681 0.035941 0.035437
0.221607 0.221802 0.221493
0.456610 0.456823 0.456549
0.672303 0.672544 0.672285
0.756924 0.757198 0.756878
0.000000 0.000000 0.000000
0.016308 0.016541 0.016101
0.215005 0.215203 0.214890
0.455353 0.455559 0.455291
0.675017 0.675240 0.674989
0.756924 0.757198 0.756878
0.000000 0.000000 0.000000
0.000000 0.000000 0.000000
0.175557 0.175739 0.175408
0.430719 0.430918 0.430644
0.662891 0.663103 0.662868
0.783841 0.784067 0.783809
0.000000 0.000000 0.000000
0.000000 0.000000 0.000000
0.329931 0.330118 0.329844
0.635070 0.635289 0.635036
0.813200 0.813450 0.813192
0.900701 0.900998 0.900761
0.001085 0.001242 0.000947
0.000526 0.000651 0.000439
0.384903 0.385089 0.384817
0.694128 0.694343 0.694099
0.854520 0.854743 0.854492
0.934881 0.935154 0.934846
0.017870 0.018190 0.017549
0.014310 0.014664 0.013960
0.398481 0.398669 0.398406
0.705483 0.705732 0.705463
0.861723 0.861967 0.861745
0.946291 0.946595 0.946292
