example_ofxGpuLutCube/bin/data/ofxGpuLutCube/LUT/V32 (80's contrast).cube
LUT_3D_SIZE 6
0.000715 0.000715 0.038272
0.084011 0.039032 0.049183
0.200827 0.069387 0.021092
0.369666 0.056614 0.032468
0.472006 0.036516 0.048062
0.514855 0.043931 0.054457
0.041230 0.118301 0.092535
0.102681 0.125298 0.087758
0.257728 0.135998 0.022455
0.460026 0.121440 0.045249
0.571193 0.090463 0.064521
0.608140 0.108352 0.070603
0.007347 0.208019 0.146835
0.017219 0.227008 0.135946
0.310784 0.274794 0.026216
0.563303 0.286287 0.063067
0.685932 0.282587 0.084289
0.724312 0.304985 0.090924
0.048620 0.363784 0.198394
0.091863 0.401390 0.190473
0.373820 0.517431 0.063405
0.680407 0.572872 0.083291
0.826062 0.583135 0.108251
0.862270 0.610177 0.114635
0.128427 0.450009 0.228863
0.112419 0.515228 0.213018
0.427337 0.649327 0.100229
0.757133 0.740388 0.096426
0.914632 0.765140 0.123560
0.947641 0.772674 0.134129
0.096241 0.530078 0.272369
0.213731 0.650450 0.193949
0.523876 0.735884 0.133438
0.823114 0.798199 0.107776
0.979300 0.822789 0.144516
0.993470 0.828104 0.207597
0.001509 0.043911 0.103237
0.081137 0.044872 0.103589
0.226982 0.032861 0.102852
0.428050 0.029896 0.092885
0.542090 0.048912 0.087374
0.584312 0.056119 0.093784
0.050302 0.126562 0.131212
0.109701 0.132788 0.136711
0.283621 0.141647 0.134265
0.516435 0.103590 0.128502
0.663572 0.070147 0.080373
0.712434 0.078594 0.088724
0.008074 0.226930 0.176431
0.135358 0.239559 0.180457
0.343651 0.302365 0.160627
0.628528 0.309590 0.156359
0.781880 0.272976 0.100653
0.826455 0.302553 0.108373
0.097646 0.406341 0.251243
0.170321 0.446736 0.256634
0.410055 0.580719 0.213522
0.757160 0.638651 0.213277
0.922059 0.644678 0.134217
0.960581 0.669633 0.131550
0.114666 0.492525 0.307905
0.136557 0.562831 0.310781
0.417314 0.733712 0.178659
0.834567 0.806213 0.161507
0.992236 0.825137 0.221857
0.993504 0.833216 0.223572
0.061822 0.583027 0.422476
0.157452 0.701290 0.431001
0.462818 0.817732 0.368109
0.858413 0.877488 0.321483
0.994033 0.886757 0.382979
0.994391 0.888103 0.452742
0.004827 0.116354 0.183233
0.057999 0.053325 0.214637
0.234798 0.033723 0.234084
0.454793 0.034165 0.241242
0.570371 0.053901 0.248352
0.609042 0.060518 0.261375
0.007984 0.162051 0.231125
0.108955 0.160963 0.237520
0.292062 0.155979 0.295101
0.557555 0.083732 0.301140
0.704356 0.077055 0.294950
0.753956 0.085792 0.306817
0.013825 0.276462 0.306286
0.132275 0.291232 0.319197
0.345133 0.348422 0.365272
0.697938 0.314265 0.358065
0.843623 0.260089 0.348789
0.879480 0.300420 0.363282
0.036859 0.472885 0.409756
0.178720 0.512681 0.431039
0.383596 0.658381 0.456170
0.777155 0.707839 0.481080
0.987551 0.707266 0.391762
0.994211 0.734417 0.417925
0.052171 0.560980 0.479711
0.104004 0.627405 0.508548
0.278934 0.808080 0.513565
0.842634 0.888840 0.486980
0.994902 0.893776 0.536852
0.995083 0.896617 0.562259
0.066372 0.641980 0.587143
0.085566 0.751238 0.636444
0.358169 0.870138 0.647967
0.829613 0.928808 0.649217
0.995794 0.940120 0.650896
0.996246 0.937596 0.701391
0.011615 0.163978 0.282588
0.017045 0.128894 0.333089
0.219183 0.025661 0.403889
0.471908 0.036545 0.433726
0.591760 0.057566 0.443098
0.629855 0.064472 0.461418
0.020359 0.221164 0.364405
0.037005 0.219572 0.394039
0.265900 0.155713 0.515081
0.566699 0.099959 0.535207
0.719731 0.079826 0.559077
0.761899 0.087136 0.581756
0.035444 0.344082 0.470239
0.067859 0.358385 0.498675
0.256952 0.373128 0.654538
0.680948 0.346528 0.666635
0.839153 0.282251 0.668764
0.872602 0.331568 0.686295
0.056554 0.546930 0.590035
0.128393 0.592252 0.630890
0.414865 0.709927 0.719807
0.772135 0.777735 0.769062
0.962967 0.764868 0.761780
0.989722 0.790725 0.772792
0.067928 0.632034 0.655605
0.077339 0.696582 0.708076
0.143792 0.856765 0.807297
0.788638 0.946549 0.831552
0.993315 0.956050 0.842986
0.997908 0.957759 0.851198
0.080212 0.693796 0.724193
0.094028 0.793978 0.803161
0.124276 0.908794 0.872629
0.782334 0.968616 0.891682
0.988993 0.982912 0.897569
0.998750 0.982349 0.915813
0.018875 0.191358 0.350662
0.024556 0.166655 0.396351
0.204720 0.041413 0.504044
0.476585 0.049139 0.548014
0.605458 0.059949 0.562242
0.640646 0.066165 0.578982
0.030994 0.259650 0.442052
0.038442 0.259888 0.486129
0.222848 0.069243 0.661585
0.582724 0.076194 0.701463
0.723331 0.080459 0.706849
0.768245 0.088347 0.739852
0.049957 0.379683 0.553455
0.058107 0.397474 0.598182
0.152348 0.379316 0.792420
0.662154 0.340711 0.826592
0.828561 0.275988 0.831697
0.865101 0.338223 0.848971
0.071971 0.581914 0.677225
0.079841 0.626638 0.722474
0.173420 0.749482 0.864609
0.735702 0.796933 0.931197
0.939999 0.785698 0.934262
0.969663 0.808503 0.940150
0.080054 0.659669 0.723262
0.090398 0.724293 0.782628
0.112778 0.875377 0.909841
0.751021 0.964604 0.965074
0.975689 0.979094 0.971423
0.999582 0.982739 0.974636
0.088695 0.711265 0.772641
0.103299 0.809822 0.856147
0.119072 0.917969 0.945179
0.750781 0.978934 0.974699
0.971582 0.997104 0.985389
0.999846 0.999842 0.992227
0.025968 0.222862 0.404930
0.033074 0.204892 0.456455
0.210227 0.058244 0.599147
0.526302 0.066599 0.646207
0.661406 0.069647 0.657736
0.699042 0.076135 0.681677
0.038752 0.294849 0.488535
0.047404 0.298693 0.537752
0.204898 0.151710 0.727853
0.599479 0.089139 0.776088
0.762420 0.092153 0.792360
0.797182 0.095387 0.810667
0.054510 0.404672 0.578030
0.063570 0.424998 0.629920
0.115449 0.417370 0.832223
0.659607 0.392375 0.869451
0.837712 0.338133 0.876390
0.871747 0.386866 0.892273
0.074935 0.593453 0.694347
0.084323 0.638794 0.746900
0.110843 0.758199 0.898548
0.719392 0.806785 0.960347
0.933385 0.797504 0.968337
0.966430 0.820639 0.971433
0.081647 0.665263 0.733903
0.093489 0.734092 0.800050
0.116097 0.878137 0.928304
0.733116 0.965122 0.984991
0.969139 0.981399 0.996150
0.998974 0.983255 0.999678
0.090430 0.715172 0.781687
0.104815 0.810341 0.863953
0.120666 0.917904 0.954229
0.738404 0.979342 0.987163
0.965256 0.998540 0.999467
0.999970 0.999970 0.999970
