example_ofxGpuLutCube/bin/data/ofxGpuLutCube/LUT/V32 (80's contrast).cube
LUT_3D_SIZE 16
0.000715 0.000715 0.038272
0.020113 0.000873 0.040923
0.051629 0.018379 0.049188
0.084011 0.039032 0.049183
0.117013 0.054211 0.053420
0.153018 0.059793 0.042156
0.200827 0.069387 0.021092
0.255217 0.071297 0.021400
0.315475 0.065677 0.026699
0.369666 0.056614 0.032468
0.413233 0.047521 0.038237
0.449882 0.033204 0.043852
0.472006 0.036516 0.048062
0.489684 0.039828 0.050712
0.506096 0.042442 0.052985
0.514855 0.043931 0.054457
0.029893 0.052716 0.060884
0.042370 0.052034 0.059390
0.061756 0.052867 0.059630
0.090195 0.059651 0.059419
0.126191 0.070505 0.062941
0.163565 0.078864 0.051487
0.215167 0.087024 0.030325
0.274585 0.092458 0.036528
0.336451 0.090349 0.030409
0.395017 0.073269 0.035866
0.440085 0.056976 0.049621
0.478723 0.037620 0.048218
0.505071 0.042288 0.052833
0.522828 0.045386 0.055895
0.527916 0.046391 0.062164
0.539496 0.048495 0.058969
0.040922 0.088706 0.076864
0.051458 0.084548 0.071499
0.069243 0.087466 0.071057
0.098777 0.093948 0.076182
0.136710 0.101875 0.071779
0.179909 0.107477 0.052051
0.235018 0.112541 0.021616
0.298163 0.111977 0.044450
0.364935 0.104894 0.046848
0.427851 0.090509 0.040480
0.475276 0.076171 0.048215
0.513344 0.053318 0.054595
0.537561 0.047936 0.058416
0.555634 0.051211 0.061653
0.561704 0.052347 0.062777
0.572559 0.055580 0.064501
0.041230 0.118301 0.092535
0.042206 0.118233 0.092372
0.064462 0.119945 0.085894
0.102681 0.125298 0.087758
0.141937 0.130745 0.083650
0.190920 0.134987 0.065409
0.257728 0.135998 0.022455
0.324608 0.135637 0.027629
0.396857 0.129713 0.037515
0.460026 0.121440 0.045249
0.512252 0.104867 0.054160
0.549313 0.093213 0.060452
0.571193 0.090463 0.064521
0.589152 0.087197 0.067611
0.602293 0.092817 0.069661
0.608140 0.108352 0.070603
0.042930 0.143260 0.109536
0.046561 0.143535 0.109598
0.041303 0.146993 0.105844
0.085893 0.152523 0.097141
0.145115 0.157174 0.089076
0.200661 0.163590 0.065988
0.275563 0.169805 0.023574
0.351989 0.171061 0.030433
0.424760 0.168224 0.040100
0.491892 0.163766 0.050999
0.544180 0.152698 0.059639
0.583271 0.143636 0.066500
0.607498 0.139085 0.070721
0.623666 0.144284 0.073423
0.636714 0.156216 0.075600
0.649387 0.158518 0.077803
0.017281 0.171864 0.129413
0.029110 0.171634 0.129412
0.007976 0.176455 0.127421
0.037410 0.185225 0.113285
0.145015 0.197358 0.080477
0.213808 0.207710 0.056620
0.292766 0.215327 0.024506
0.377751 0.218691 0.033703
0.457447 0.221404 0.044773
0.527179 0.215547 0.056728
0.582756 0.212532 0.066498
0.622554 0.202493 0.073261
0.646144 0.203072 0.077156
0.663137 0.205862 0.080254
0.671926 0.215439 0.081712
0.684839 0.223748 0.083748
0.007347 0.208019 0.146835
0.023559 0.208052 0.146835
0.037910 0.211974 0.144690
0.017219 0.227008 0.135946
0.128411 0.250421 0.086062
0.224594 0.263340 0.022947
0.310784 0.274794 0.026216
0.400242 0.284942 0.036505
0.487770 0.286677 0.050123
0.563303 0.286287 0.063067
0.620940 0.283357 0.072797
0.662450 0.280564 0.080162
0.685932 0.282587 0.084289
0.702445 0.289034 0.086919
0.715509 0.296485 0.089325
0.724312 0.304985 0.090924
0.016180 0.253120 0.162732
0.061106 0.253313 0.162523
0.059267 0.262007 0.160471
0.042947 0.277779 0.154776
0.099628 0.310358 0.118379
0.231065 0.330670 0.060660
0.329495 0.349767 0.030327
0.428442 0.362866 0.040552
0.520089 0.369916 0.055706
0.599678 0.371409 0.069392
0.659556 0.370343 0.079713
0.705347 0.371678 0.087395
0.731516 0.373346 0.091944
0.748040 0.378341 0.094770
0.760750 0.390471 0.097025
0.770162 0.403397 0.098642
0.031006 0.309475 0.180586
0.083904 0.309477 0.180170
0.052154 0.319985 0.180244
0.068975 0.340892 0.174943
0.111209 0.375611 0.143925
0.241086 0.410836 0.074628
0.352372 0.435890 0.043049
0.457062 0.455103 0.045754
0.557333 0.467460 0.062022
0.639404 0.475092 0.076137
0.705516 0.475219 0.087390
0.751456 0.477585 0.095619
0.779727 0.477892 0.100335
0.794801 0.485245 0.102972
0.807831 0.496464 0.105250
0.819891 0.509976 0.107329
0.048620 0.363784 0.198394
0.069770 0.368019 0.198555
0.062751 0.377994 0.198448
0.091863 0.401390 0.190473
0.126600 0.444880 0.160355
0.254719 0.485519 0.092245
0.373820 0.517431 0.063405
0.485804 0.542189 0.059281
0.594831 0.564673 0.068356
0.680407 0.572872 0.083291
0.748601 0.579379 0.094756
0.797680 0.582106 0.103279
0.826062 0.583135 0.108251
0.844129 0.589773 0.111315
0.857364 0.601877 0.113742
0.862270 0.610177 0.114635
0.089102 0.403228 0.212335
0.067338 0.413463 0.213133
0.094850 0.425686 0.212291
0.101057 0.452871 0.204946
0.138718 0.498252 0.167633
0.266294 0.546719 0.093804
0.393223 0.580046 0.094034
0.510336 0.610373 0.071162
0.623093 0.637010 0.075919
0.716591 0.655312 0.089388
0.784589 0.661070 0.101191
0.833189 0.665655 0.109611
0.866056 0.670464 0.115081
0.884286 0.676903 0.118370
0.893679 0.685383 0.120015
0.900968 0.687771 0.121142
0.121000 0.430792 0.223213
0.075801 0.444870 0.221153
0.097249 0.460254 0.220251
0.131569 0.488109 0.212511
0.173054 0.534687 0.181330
0.278058 0.585161 0.101180
0.411495 0.624476 0.090312
0.532211 0.659477 0.079549
0.642945 0.686822 0.084220
0.738882 0.707737 0.093179
0.814496 0.719137 0.106366
0.863715 0.724430 0.114779
0.891965 0.729193 0.119654
0.910758 0.734973 0.122930
0.921359 0.738269 0.124622
0.926018 0.742625 0.125423
0.128427 0.450009 0.228863
0.081264 0.464085 0.228885
0.089329 0.482858 0.225598
0.112419 0.515228 0.213018
0.172853 0.563046 0.173637
0.297267 0.609917 0.111403
0.427337 0.649327 0.100229
0.547270 0.685200 0.085469
0.658793 0.714635 0.089033
0.757133 0.740388 0.096426
0.835215 0.753995 0.109994
0.883462 0.760623 0.118217
0.914632 0.765140 0.123560
0.930178 0.770259 0.126302
0.939291 0.771559 0.130666
0.947641 0.772674 0.134129
0.128487 0.459753 0.232416
0.115133 0.476444 0.232515
0.097123 0.502876 0.224742
0.114434 0.539785 0.204871
0.174580 0.586990 0.163972
0.319257 0.627780 0.110248
0.443306 0.666170 0.108257
0.562773 0.703355 0.096148
0.675720 0.731341 0.091997
0.773207 0.754133 0.099213
0.848136 0.770190 0.112068
0.899107 0.778944 0.127108
0.932280 0.784449 0.129455
0.947201 0.788979 0.137845
0.956519 0.791590 0.134972
0.964773 0.791093 0.137738
0.087863 0.484049 0.246053
0.100264 0.517672 0.241391
0.112990 0.548140 0.229138
0.147047 0.588698 0.195529
0.237271 0.629157 0.099771
0.361352 0.660310 0.094797
0.477846 0.694485 0.087684
0.594353 0.727658 0.092126
0.700558 0.755172 0.096121
0.793580 0.774188 0.102694
0.868759 0.789062 0.117707
0.919171 0.797132 0.135588
0.954037 0.804796 0.138813
0.971863 0.804473 0.141808
0.977528 0.808515 0.141555
0.985396 0.811428 0.143862
0.096241 0.530078 0.272369
0.155056 0.572960 0.260011
0.142446 0.616481 0.232795
0.213731 0.650450 0.193949
0.306201 0.681334 0.144264
0.415606 0.705779 0.139051
0.523876 0.735884 0.133438
0.631759 0.760172 0.121065
0.733146 0.779773 0.102875
0.823114 0.798199 0.107776
0.897981 0.808656 0.131557
0.948609 0.819868 0.142208
0.979300 0.822789 0.144516
0.993075 0.828774 0.203503
0.993470 0.828613 0.208061
0.993470 0.828104 0.207597
0.000716 0.011124 0.049816
0.027432 0.007907 0.049937
0.058211 0.018789 0.050101
0.083866 0.038939 0.050753
0.119140 0.053570 0.054833
0.159440 0.063753 0.042935
0.207899 0.066522 0.021434
0.263282 0.069048 0.021804
0.327478 0.068332 0.027634
0.382086 0.055531 0.034183
0.428243 0.033834 0.040733
0.463028 0.035223 0.047470
0.488722 0.039827 0.053979
0.506670 0.042681 0.056346
0.522802 0.045531 0.056038
0.531215 0.046960 0.057450
0.031029 0.052463 0.061561
0.042922 0.054513 0.061295
0.069266 0.058361 0.060974
0.089848 0.066600 0.067922
0.129639 0.073714 0.063837
0.170606 0.083704 0.052623
0.226161 0.086024 0.035278
0.286120 0.089786 0.023973
0.349109 0.082214 0.030127
0.407211 0.070528 0.037456
0.457841 0.041394 0.044943
0.495387 0.040889 0.051449
0.521267 0.045386 0.055895
0.539001 0.048356 0.058831
0.552031 0.050674 0.061123
0.556630 0.051472 0.061911
0.040452 0.090812 0.077796
0.050918 0.089597 0.077516
0.074384 0.089868 0.077335
0.101232 0.093864 0.076814
0.137041 0.101533 0.075813
0.183500 0.108101 0.054001
0.246613 0.114327 0.021902
0.310473 0.112365 0.034565
0.378410 0.103114 0.034261
0.441031 0.088834 0.042495
0.492098 0.071842 0.050703
0.529830 0.048698 0.057134
0.554419 0.050908 0.061353
0.572415 0.054089 0.064499
0.585036 0.056317 0.066701
0.590317 0.057185 0.067559
0.041595 0.118471 0.096068
0.042261 0.120526 0.093096
0.067389 0.122089 0.090774
0.103224 0.127241 0.090847
0.144994 0.131840 0.085902
0.197309 0.136099 0.064907
0.265491 0.138227 0.029400
0.340087 0.136180 0.029300
0.413141 0.132339 0.040346
0.478388 0.121596 0.048261
0.530967 0.102362 0.057583
0.566020 0.090464 0.063343
0.589677 0.084691 0.067703
0.605601 0.082675 0.070252
0.620312 0.088602 0.072970
0.633582 0.090017 0.075021
0.042895 0.146019 0.114941
0.034069 0.146270 0.112319
0.044112 0.149673 0.109431
0.093959 0.154404 0.097786
0.148642 0.161234 0.091776
0.209006 0.167215 0.067217
0.287697 0.171926 0.024771
0.365576 0.174364 0.036877
0.444950 0.170115 0.043124
0.510184 0.162600 0.056760
0.565445 0.154122 0.063209
0.602218 0.142993 0.069653
0.625346 0.138188 0.073753
0.644716 0.140241 0.077158
0.659042 0.146794 0.079519
0.668322 0.162760 0.081091
0.039361 0.172325 0.133358
0.006873 0.175234 0.132425
0.018574 0.179345 0.129612
0.059399 0.191495 0.114656
0.148491 0.202430 0.089785
0.220668 0.213006 0.065119
0.304369 0.219778 0.038420
0.389467 0.222414 0.039985
0.472337 0.223250 0.047580
0.548136 0.219924 0.060410
0.605831 0.215978 0.070363
0.646415 0.208592 0.077372
0.667778 0.204904 0.081090
0.682842 0.210053 0.083590
0.695525 0.219516 0.085848
0.705983 0.228152 0.087505
0.038691 0.210451 0.147804
0.010192 0.212144 0.148083
0.052011 0.218445 0.147115
0.038446 0.233254 0.137726
0.134440 0.256958 0.084589
0.231627 0.272648 0.044695
0.325126 0.282507 0.031631
0.415553 0.288980 0.042130
0.504268 0.292264 0.052963
0.583979 0.292694 0.066472
0.643283 0.292128 0.076929
0.685098 0.290001 0.084046
0.711367 0.285738 0.088459
0.724434 0.293404 0.090740
0.737081 0.301669 0.092962
0.748415 0.313643 0.094860
0.019555 0.261321 0.166152
0.026187 0.264740 0.164477
0.071354 0.269737 0.163462
0.044678 0.287952 0.157160
0.101284 0.318673 0.121740
0.241913 0.341004 0.048689
0.347494 0.361681 0.036169
0.445249 0.374476 0.043508
0.537877 0.380610 0.058681
0.622117 0.382760 0.073246
0.685029 0.384739 0.084079
0.730370 0.383494 0.091821
0.755077 0.383604 0.096018
0.772865 0.388062 0.099093
0.785649 0.399403 0.101289
0.795267 0.413097 0.102908
0.037780 0.318595 0.184449
0.067576 0.322908 0.184394
0.083032 0.331764 0.184288
0.053133 0.355900 0.176632
0.114679 0.387893 0.142526
0.246428 0.420504 0.080679
0.367474 0.448533 0.066738
0.477736 0.467775 0.049736
0.578218 0.479866 0.065673
0.664039 0.487568 0.080560
0.731077 0.490950 0.091934
0.777533 0.492893 0.100093
0.805374 0.493461 0.104711
0.823210 0.500195 0.107926
0.833369 0.508211 0.109534
0.845805 0.521539 0.111728
0.053131 0.376250 0.203182
0.077459 0.381281 0.205751
0.083167 0.393703 0.203941
0.097448 0.416597 0.196793
0.131640 0.458206 0.164124
0.259826 0.501195 0.074170
0.389838 0.531566 0.091283
0.506598 0.559774 0.066497
0.616293 0.580977 0.072153
0.710012 0.590592 0.088242
0.778201 0.595566 0.100107
0.825294 0.597616 0.108217
0.856094 0.603202 0.113445
0.869929 0.607727 0.115842
0.883347 0.617456 0.118141
0.892122 0.626791 0.119657
0.065023 0.416506 0.218381
0.102677 0.424700 0.220060
0.086841 0.439765 0.218278
0.108569 0.466899 0.209578
0.145187 0.514663 0.176405
0.276632 0.562385 0.102909
0.410239 0.599235 0.089829
0.533414 0.630942 0.101552
0.646885 0.653684 0.079393
0.746006 0.672711 0.094561
0.816440 0.681035 0.106770
0.862960 0.684662 0.114543
0.895454 0.689779 0.120083
0.910490 0.693047 0.122683
0.919006 0.700693 0.124131
0.930402 0.709436 0.126168
0.076396 0.444862 0.228800
0.127635 0.452774 0.231796
0.122088 0.471936 0.229048
0.099186 0.502733 0.219470
0.159819 0.552075 0.183907
0.289816 0.602174 0.126106
0.427445 0.641444 0.100956
0.552317 0.676185 0.089901
0.669543 0.703219 0.089872
0.767658 0.725181 0.100166
0.842107 0.734732 0.114647
0.892784 0.741126 0.123543
0.922674 0.747204 0.125531
0.939702 0.750384 0.127834
0.948579 0.753911 0.129308
0.955404 0.757951 0.130409
0.124082 0.458842 0.239129
0.125355 0.471930 0.239926
0.133160 0.494344 0.237322
0.125995 0.527992 0.226171
0.181506 0.576134 0.187547
0.303554 0.627014 0.122905
0.440687 0.669285 0.109743
0.567909 0.706078 0.098859
0.687728 0.733725 0.093212
0.785076 0.755511 0.108731
0.862343 0.768914 0.123162
0.912648 0.776092 0.135080
0.941188 0.780980 0.134162
0.959403 0.784789 0.135974
0.968496 0.787205 0.133750
0.973378 0.789020 0.137177
0.089801 0.471889 0.246969
0.093544 0.489970 0.248081
0.124455 0.511942 0.245348
0.150366 0.549965 0.230853
0.177247 0.604005 0.180529
0.319504 0.649380 0.104765
0.455541 0.688265 0.123063
0.582729 0.724692 0.115805
0.700874 0.752232 0.095749
0.799910 0.774647 0.103834
0.877673 0.788588 0.125523
0.928539 0.794681 0.134346
0.958526 0.800594 0.140510
0.976774 0.804508 0.140920
0.983158 0.807659 0.143488
0.989631 0.807441 0.145119
0.132423 0.499481 0.277611
0.097534 0.533185 0.273474
0.115102 0.564548 0.267917
0.157591 0.602016 0.247164
0.187256 0.654026 0.188968
0.340480 0.692587 0.109602
0.477147 0.725453 0.128902
0.604132 0.753781 0.109606
0.721867 0.780436 0.100421
0.819854 0.798747 0.108197
0.898476 0.808693 0.131509
0.949115 0.815584 0.141788
0.982048 0.821133 0.146931
0.992913 0.825569 0.193217
0.993475 0.827693 0.209050
0.993475 0.831649 0.208375
0.145421 0.545588 0.319609
0.152198 0.589384 0.314681
0.158282 0.632494 0.302090
0.150948 0.671005 0.272325
0.212900 0.718013 0.204979
0.372558 0.748552 0.124929
0.510242 0.773369 0.139245
0.634440 0.796355 0.125375
0.748100 0.815243 0.107355
0.845295 0.828175 0.114132
0.924241 0.837240 0.140462
0.978588 0.842497 0.148392
0.993504 0.846014 0.221480
0.993504 0.848518 0.223486
0.993510 0.848717 0.225422
0.993626 0.852834 0.271388
0.000716 0.043931 0.056722
0.003397 0.043723 0.059206
0.056121 0.030052 0.070358
0.084379 0.038252 0.072292
0.122487 0.051787 0.075891
0.163626 0.057726 0.068384
0.219916 0.053569 0.046686
0.281148 0.046259 0.030447
0.344028 0.042101 0.033033
0.403359 0.027242 0.037990
0.456549 0.034150 0.044788
0.491596 0.040231 0.050798
0.517656 0.044631 0.055149
0.535596 0.047799 0.058280
0.548587 0.050083 0.060538
0.559719 0.051877 0.062312
0.027371 0.060892 0.080174
0.047155 0.061098 0.080915
0.067528 0.065399 0.084112
0.094433 0.067549 0.083057
0.131623 0.074634 0.084872
0.174327 0.082273 0.074644
0.239419 0.076026 0.045122
0.305530 0.071504 0.029713
0.372357 0.065149 0.033241
0.434574 0.039614 0.041388
0.484985 0.039102 0.049682
0.518682 0.044948 0.055463
0.543887 0.049317 0.059781
0.561327 0.052188 0.062620
0.576801 0.054906 0.065307
0.586810 0.056613 0.066993
0.039687 0.090745 0.091352
0.048621 0.091169 0.091588
0.073618 0.093232 0.092488
0.102322 0.098391 0.092005
0.139507 0.106580 0.091379
0.188716 0.111839 0.085279
0.258544 0.109231 0.062849
0.329379 0.103755 0.054427
0.400304 0.091836 0.059247
0.463989 0.072220 0.049018
0.518458 0.045764 0.055433
0.555032 0.051044 0.061488
0.580874 0.055648 0.066040
0.595549 0.058193 0.068556
0.611635 0.061092 0.071421
0.623527 0.063160 0.073467
0.033114 0.122850 0.106386
0.038359 0.123009 0.105243
0.064023 0.126640 0.105432
0.104941 0.130658 0.104250
0.147537 0.134519 0.103475
0.203741 0.138040 0.091392
0.278472 0.137139 0.071736
0.355998 0.133712 0.074515
0.431483 0.127187 0.071810
0.501116 0.110179 0.066415
0.554599 0.085769 0.064065
0.595701 0.063963 0.068533
0.620209 0.062517 0.072830
0.637179 0.065341 0.075623
0.652085 0.068141 0.078391
0.660665 0.072750 0.079710
0.040226 0.149245 0.125818
0.039560 0.148334 0.123361
0.065811 0.150733 0.121940
0.093843 0.158261 0.116974
0.152505 0.163875 0.111168
0.217587 0.171743 0.097734
0.297961 0.173786 0.064221
0.382313 0.173098 0.063847
0.463669 0.171184 0.077842
0.536018 0.158778 0.079698
0.593531 0.143121 0.068741
0.633357 0.128047 0.075109
0.656847 0.115532 0.079203
0.676232 0.115979 0.082452
0.686260 0.134924 0.084078
0.699194 0.140175 0.086533
0.034315 0.178329 0.143517
0.031728 0.178808 0.142053
0.073690 0.181214 0.141020
0.090973 0.192749 0.136235
0.151185 0.207621 0.115458
0.227539 0.217053 0.101978
0.315837 0.223348 0.066573
0.405129 0.226801 0.058233
0.495400 0.226101 0.085091
0.572504 0.221132 0.085896
0.635785 0.211390 0.075729
0.673971 0.203989 0.082080
0.698278 0.199439 0.086240
0.716500 0.201858 0.089409
0.727227 0.210802 0.091214
0.739274 0.219049 0.093420
0.052574 0.217788 0.157171
0.043871 0.218935 0.157397
0.092277 0.222243 0.157615
0.087626 0.236883 0.152098
0.135747 0.263635 0.122410
0.238876 0.279908 0.099483
0.335980 0.291162 0.098578
0.432073 0.297437 0.089287
0.527433 0.300332 0.103330
0.609523 0.300830 0.100568
0.675907 0.293312 0.083076
0.716727 0.287732 0.089324
0.742667 0.287517 0.093821
0.757840 0.293831 0.096519
0.770605 0.302490 0.098695
0.779497 0.316055 0.100160
0.062426 0.268789 0.176625
0.029799 0.274136 0.177038
0.099301 0.277555 0.177316
0.112549 0.294084 0.171905
0.110615 0.328955 0.146146
0.244992 0.355567 0.116212
0.358376 0.374018 0.120078
0.464130 0.386725 0.117232
0.561479 0.391406 0.118071
0.648897 0.396958 0.118090
0.716832 0.393231 0.107277
0.758671 0.390393 0.098563
0.789158 0.389544 0.101892
0.807102 0.396448 0.104972
0.816757 0.408915 0.106704
0.825470 0.422023 0.108069
0.080985 0.330585 0.198999
0.050251 0.337992 0.199595
0.110362 0.343668 0.199323
0.120247 0.364709 0.195780
0.134586 0.404102 0.171481
0.249325 0.441597 0.135837
0.379337 0.466252 0.134298
0.496451 0.488000 0.136182
0.602018 0.499868 0.134252
0.692755 0.507062 0.133123
0.763708 0.510481 0.121381
0.810449 0.508030 0.106986
0.838113 0.510039 0.110415
0.857211 0.515055 0.113705
0.866836 0.523729 0.115382
0.875275 0.535951 0.116777
0.089187 0.388462 0.220863
0.060218 0.397722 0.221632
0.133115 0.405744 0.222134
0.141057 0.429653 0.216616
0.136062 0.475895 0.191051
0.264504 0.524055 0.156832
0.400880 0.553758 0.155399
0.525166 0.580507 0.151664
0.639634 0.601624 0.151329
0.737785 0.615105 0.150630
0.810853 0.619361 0.139869
0.859177 0.621851 0.120716
0.889798 0.623397 0.119256
0.903595 0.626299 0.121733
0.915939 0.634185 0.123741
0.925797 0.647125 0.125494
0.068544 0.433581 0.237908
0.068915 0.439294 0.237113
0.103654 0.453257 0.237281
0.148241 0.482161 0.233605
0.144990 0.535227 0.199815
0.273167 0.586827 0.158849
0.420198 0.623362 0.164936
0.549527 0.652437 0.162475
0.666909 0.675662 0.156823
0.769791 0.694975 0.162876
0.843985 0.704659 0.163608
0.893554 0.707521 0.157463
0.926979 0.710834 0.125642
0.942133 0.713685 0.128164
0.952067 0.721291 0.129889
0.961319 0.731859 0.131446
0.113718 0.458838 0.253732
0.077656 0.468978 0.253366
0.107552 0.486711 0.253230
0.132072 0.520319 0.245751
0.145957 0.572288 0.204525
0.270115 0.631165 0.140649
0.434880 0.667277 0.147197
0.568245 0.700631 0.154217
0.686981 0.724134 0.167936
0.789543 0.744096 0.175466
0.866576 0.756827 0.182283
0.917037 0.761727 0.180167
0.947831 0.767571 0.165515
0.969327 0.770974 0.133899
0.977938 0.774533 0.134573
0.984277 0.778168 0.135821
0.093951 0.476286 0.265951
0.122341 0.489023 0.267693
0.095626 0.510690 0.266197
0.113902 0.544114 0.259063
0.152827 0.597065 0.215804
0.265414 0.659401 0.107786
0.442279 0.697179 0.125240
0.583782 0.730484 0.137080
0.708372 0.758894 0.159775
0.810872 0.777337 0.144994
0.890276 0.790524 0.154223
0.938655 0.796959 0.179875
0.967174 0.799157 0.180522
0.986374 0.804507 0.157323
0.993249 0.807534 0.182513
0.993446 0.809725 0.195376
0.075648 0.489446 0.283101
0.109972 0.506192 0.283998
0.097049 0.531810 0.281925
0.132700 0.570421 0.274684
0.154139 0.626648 0.232293
0.264789 0.687245 0.132321
0.449487 0.723707 0.102460
0.593033 0.755783 0.097487
0.719836 0.781152 0.109360
0.825713 0.799501 0.116114
0.905696 0.812558 0.134339
0.957722 0.818856 0.147717
0.987138 0.822042 0.154098
0.993470 0.825187 0.207662
0.993481 0.828409 0.208488
0.993481 0.828473 0.208899
0.076904 0.517700 0.321679
0.099105 0.546501 0.320744
0.107611 0.581138 0.319086
0.124066 0.619819 0.308787
0.151451 0.674442 0.267702
0.240896 0.733295 0.186756
0.458271 0.765315 0.141230
0.606658 0.790017 0.142437
0.736144 0.812077 0.116391
0.845689 0.825276 0.113705
0.928640 0.837120 0.140401
0.980687 0.839848 0.153264
0.993506 0.845128 0.222278
0.993515 0.847961 0.227149
0.993571 0.848341 0.250664
0.993599 0.848612 0.262716
0.078378 0.562580 0.369319
0.101713 0.606297 0.372324
0.160701 0.648459 0.369855
0.180247 0.684997 0.356329
0.188768 0.732230 0.317171
0.327142 0.772916 0.278499
0.489419 0.801856 0.265799
0.629279 0.825996 0.244990
0.755222 0.845119 0.209089
0.865673 0.858368 0.139324
0.949688 0.865867 0.139426
0.993538 0.868518 0.242840
0.993599 0.867630 0.262966
0.993759 0.866686 0.311313
0.993910 0.866210 0.351484
0.993973 0.870454 0.367837
0.001509 0.043911 0.103237
0.011349 0.041939 0.102714
0.047016 0.037647 0.103757
0.081137 0.044872 0.103589
0.124884 0.058050 0.108402
0.165320 0.062038 0.107879
0.226982 0.032861 0.102852
0.299024 0.013967 0.097069
0.367619 0.021663 0.095258
0.428050 0.029896 0.092885
0.478926 0.038254 0.089767
0.519240 0.044955 0.084361
0.542090 0.048912 0.087374
0.559216 0.052012 0.089140
0.572311 0.054173 0.092514
0.584312 0.056119 0.093784
0.007912 0.070474 0.113435
0.036283 0.068322 0.108780
0.058619 0.068896 0.111369
0.093426 0.072206 0.114519
0.131954 0.079877 0.116899
0.175320 0.082132 0.115182
0.244695 0.073647 0.108809
0.319990 0.062023 0.108610
0.392547 0.039686 0.106613
0.456569 0.034155 0.103925
0.509931 0.043190 0.097575
0.548980 0.050042 0.094424
0.577943 0.055060 0.079414
0.596802 0.058464 0.077018
0.609578 0.060636 0.077937
0.622161 0.062841 0.080400
0.032011 0.096347 0.121099
0.037323 0.096292 0.119697
0.068124 0.099857 0.121635
0.101297 0.104096 0.124983
0.141654 0.109581 0.126531
0.192637 0.114253 0.124629
0.264968 0.112587 0.123163
0.341395 0.104847 0.125243
0.414344 0.092905 0.124903
0.482450 0.061647 0.121660
0.541533 0.048910 0.114105
0.589852 0.057357 0.089963
0.619987 0.062486 0.072799
0.636776 0.065365 0.075646
0.650901 0.067945 0.078197
0.666385 0.070594 0.080816
0.050302 0.126562 0.131212
0.053331 0.127197 0.131247
0.077417 0.129343 0.134015
0.109701 0.132788 0.136711
0.148459 0.138580 0.137385
0.207228 0.141363 0.136048
0.283621 0.141647 0.134265
0.363910 0.139298 0.135235
0.444770 0.126902 0.133748
0.516435 0.103590 0.128502
0.580517 0.059033 0.117368
0.634902 0.065186 0.077693
0.663572 0.070147 0.080373
0.681035 0.073110 0.083303
0.696433 0.075787 0.085949
0.712434 0.078594 0.088724
0.027061 0.152293 0.145638
0.042574 0.152560 0.145508
0.081453 0.153663 0.145444
0.115697 0.158126 0.147867
0.151942 0.170901 0.145107
0.219494 0.177126 0.143128
0.305549 0.178848 0.138578
0.390135 0.179762 0.141422
0.475209 0.173774 0.141565
0.555172 0.154388 0.133599
0.621813 0.120264 0.115624
0.670781 0.077417 0.084939
0.702978 0.076879 0.087028
0.722467 0.080359 0.090469
0.731045 0.081868 0.091961
0.742265 0.083810 0.093881
0.006875 0.185792 0.160079
0.042322 0.185872 0.159450
0.089296 0.186891 0.160999
0.124762 0.192281 0.162126
0.151098 0.212050 0.152914
0.232735 0.226419 0.149359
0.324515 0.233818 0.148381
0.416691 0.233211 0.148841
0.509667 0.235317 0.148884
0.591423 0.223573 0.142017
0.662916 0.203107 0.124127
0.712142 0.178468 0.103439
0.743117 0.158528 0.094042
0.763233 0.155409 0.097515
0.771011 0.170491 0.098661
0.784275 0.180835 0.101213
0.008074 0.226930 0.176431
0.060263 0.229721 0.178018
0.101730 0.232156 0.180002
0.135358 0.239559 0.180457
0.162139 0.262555 0.174376
0.239668 0.288357 0.158458
0.343651 0.302365 0.160627
0.444781 0.308186 0.159662
0.542040 0.311016 0.159792
0.628528 0.309590 0.156359
0.700161 0.297354 0.142625
0.747837 0.285043 0.130389
0.781880 0.272976 0.100653
0.801644 0.277494 0.103998
0.817384 0.285539 0.106695
0.826455 0.302553 0.108373
0.024666 0.281325 0.198831
0.052064 0.285075 0.201886
0.110287 0.292092 0.201864
0.146935 0.302690 0.204655
0.177918 0.329831 0.198871
0.242184 0.368453 0.172247
0.364408 0.389406 0.173617
0.477598 0.401785 0.174336
