example_ofxGpuLutCube/bin/data/ofxGpuLutCube/LUT/V33 (80's contrast_1).cube
LUT_3D_SIZE 6
0.061056 0.068934 0.071584
0.208505 0.109492 0.067389
0.379100 0.126677 0.054160
0.585140 0.119152 0.091480
0.775005 0.092758 0.129105
0.898485 0.207294 0.154374
0.085530 0.172403 0.111780
0.220088 0.168469 0.091972
0.422935 0.194596 0.061400
0.635905 0.242642 0.100847
0.801224 0.320907 0.133485
0.909050 0.403426 0.155198
0.097043 0.268268 0.139512
0.232333 0.323230 0.126583
0.449903 0.276088 0.072785
0.672752 0.316440 0.107296
0.829955 0.406826 0.138591
0.917747 0.511606 0.155882
0.137426 0.395476 0.161744
0.264333 0.458279 0.147193
0.497453 0.527502 0.172999
0.696823 0.430593 0.110725
0.850485 0.493174 0.141894
0.921705 0.595152 0.155421
0.205385 0.583655 0.190508
0.326734 0.629792 0.169413
0.521931 0.692052 0.191987
0.732792 0.731483 0.220586
0.863323 0.634675 0.142295
0.926073 0.672645 0.154909
0.284563 0.780870 0.211304
0.402061 0.797903 0.199060
0.560664 0.832508 0.226275
0.734935 0.864227 0.270832
0.876387 0.883675 0.318094
0.933880 0.788253 0.153878
0.037220 0.137236 0.212045
0.126028 0.151671 0.166893
0.268554 0.194622 0.173188
0.482994 0.243338 0.199709
0.747754 0.274749 0.186187
0.891708 0.339564 0.162973
0.045456 0.154732 0.192295
0.160394 0.205123 0.221154
0.395561 0.222327 0.189350
0.629988 0.237655 0.167847
0.801221 0.286370 0.144139
0.911758 0.354803 0.156180
0.090333 0.359370 0.344878
0.163745 0.338746 0.245001
0.412067 0.327709 0.187580
0.645249 0.367902 0.186527
0.818604 0.457079 0.161236
0.920193 0.537925 0.162214
0.136724 0.485309 0.381101
0.211057 0.477471 0.246042
0.400772 0.529020 0.232918
0.667144 0.489795 0.167826
0.837968 0.538804 0.151193
0.923541 0.628716 0.155164
0.197228 0.645444 0.407369
0.293075 0.658658 0.257678
0.457036 0.692848 0.262472
0.683060 0.740003 0.283712
0.847151 0.668884 0.137911
0.927880 0.701096 0.154805
0.257931 0.807415 0.432492
0.380772 0.828374 0.283231
0.518860 0.836719 0.301799
0.689820 0.866860 0.334927
0.860233 0.894375 0.372315
0.935198 0.805452 0.153872
0.034855 0.212959 0.352793
0.052518 0.213108 0.292537
0.160592 0.259589 0.261050
0.384684 0.272259 0.221871
0.658538 0.359331 0.267696
0.869629 0.430618 0.289312
0.047510 0.226695 0.338052
0.055812 0.256111 0.393368
0.225621 0.292919 0.317207
0.505128 0.344274 0.314867
0.762933 0.395850 0.332537
0.922553 0.448866 0.324934
0.058700 0.248388 0.327717
0.073873 0.292304 0.372573
0.300294 0.382638 0.411062
0.622334 0.419158 0.388534
0.823515 0.459610 0.380787
0.937901 0.507242 0.347301
0.129807 0.483232 0.521916
0.150154 0.558762 0.556464
0.324391 0.566850 0.418927
0.648623 0.556420 0.344618
0.841614 0.604818 0.373905
0.944361 0.672096 0.316093
0.203180 0.722723 0.677544
0.210906 0.714635 0.583010
0.415236 0.722207 0.388933
0.642730 0.754973 0.402416
0.854168 0.716944 0.280828
0.944341 0.736071 0.254214
0.257846 0.857939 0.707699
0.284215 0.856123 0.586135
0.499490 0.863065 0.411499
0.665175 0.876725 0.437982
0.841230 0.903491 0.454869
0.937585 0.821249 0.158987
0.043114 0.308871 0.514696
0.068970 0.304896 0.433265
0.093197 0.311455 0.368311
0.252667 0.369479 0.262283
0.599594 0.361031 0.241398
0.833907 0.486494 0.396543
0.063104 0.321769 0.503939
0.058931 0.352026 0.571938
0.142135 0.359403 0.493288
0.402750 0.408054 0.338425
0.683539 0.440807 0.374016
0.881633 0.560882 0.554188
0.068910 0.329224 0.497044
0.084647 0.381332 0.559136
0.190230 0.431146 0.622268
0.495819 0.493881 0.497692
0.761449 0.558770 0.564217
0.939332 0.604850 0.598152
0.086988 0.360952 0.491274
0.107244 0.419819 0.547387
0.200422 0.490111 0.606618
0.584575 0.616208 0.632756
0.829518 0.666758 0.643776
0.958035 0.689563 0.624561
0.174781 0.617382 0.708567
0.198592 0.699661 0.764416
0.222356 0.738586 0.773416
0.619750 0.778010 0.600928
0.852739 0.764817 0.526914
0.961084 0.778252 0.528733
0.238890 0.831054 0.876895
0.253902 0.888483 0.886352
0.328763 0.916689 0.825928
0.662153 0.896792 0.581417
0.818490 0.911684 0.584523
0.960898 0.847447 0.354012
0.072096 0.438162 0.710788
0.097378 0.427093 0.619519
0.110213 0.425615 0.546772
0.206757 0.478483 0.513146
0.531222 0.471479 0.322524
0.799860 0.506560 0.424339
0.086226 0.443552 0.701168
0.077435 0.463254 0.749492
0.094009 0.454908 0.701112
0.282371 0.484221 0.626212
0.605614 0.528272 0.521468
0.845305 0.573869 0.588507
0.092247 0.450310 0.697053
0.104488 0.490165 0.746443
0.103680 0.508493 0.792522
0.371009 0.553710 0.742333
0.689917 0.581598 0.645519
0.886914 0.649794 0.717542
0.098805 0.459003 0.693423
0.116652 0.507579 0.742438
0.133189 0.552116 0.786462
0.480071 0.650620 0.823549
0.767232 0.685630 0.755699
0.936056 0.746477 0.808003
0.125139 0.504607 0.695756
0.144727 0.556750 0.742318
0.158636 0.595978 0.782068
0.492030 0.706059 0.820320
0.819426 0.810584 0.806387
0.973737 0.825950 0.815423
0.201967 0.706734 0.870302
0.220310 0.751481 0.893842
0.235585 0.802616 0.924299
0.447596 0.912715 0.939778
0.815082 0.923778 0.769921
0.975762 0.888302 0.677722
0.128999 0.576993 0.866582
0.131641 0.570193 0.839520
0.135360 0.564996 0.810616
0.139147 0.559093 0.777436
0.449055 0.607928 0.755661
0.768711 0.624794 0.697518
0.126826 0.572944 0.864499
0.125987 0.581814 0.889561
0.124479 0.576398 0.881935
0.146595 0.577810 0.853255
0.531237 0.648896 0.815530
0.810195 0.642239 0.769614
0.129997 0.577418 0.864183
0.136916 0.598365 0.889404
0.136776 0.607612 0.913092
0.212381 0.617637 0.909412
0.611573 0.699058 0.861422
0.845661 0.678647 0.823413
0.133215 0.582413 0.863193
0.146952 0.614138 0.889671
0.157286 0.640799 0.915221
0.279812 0.673533 0.947224
0.695331 0.761367 0.904753
0.888786 0.744013 0.871668
0.140174 0.593384 0.863480
0.155142 0.627576 0.889451
0.167003 0.656867 0.914651
0.300077 0.709976 0.945252
0.769356 0.829429 0.932846
0.934324 0.826202 0.907462
0.163896 0.635653 0.870650
0.177559 0.668638 0.895016
0.187554 0.694077 0.916458
0.334698 0.748180 0.939990
0.774259 0.859513 0.925599
0.948037 0.936360 0.910066
