example_ofxGpuLutCube/bin/data/ofxGpuLutCube/LUT/V33 (80's contrast_1).cube
LUT_3D_SIZE 16
0.061056 0.068934 0.071584
0.101459 0.084701 0.074965
0.153482 0.100768 0.077450
0.208505 0.109492 0.067389
0.262747 0.114108 0.048281
0.318783 0.121406 0.044738
0.379100 0.126677 0.054160
0.443240 0.127493 0.065635
0.512083 0.125347 0.077928
0.585140 0.119152 0.091480
0.657081 0.109350 0.105669
0.721418 0.099439 0.118279
0.775005 0.092758 0.129105
0.818514 0.114701 0.138071
0.857978 0.158503 0.146327
0.898485 0.207294 0.154374
0.071054 0.104789 0.087492
0.100785 0.104700 0.081420
0.153916 0.113531 0.082917
0.211228 0.123737 0.073010
0.269459 0.129092 0.052852
0.329021 0.137519 0.047172
0.392752 0.145704 0.056287
0.458987 0.151766 0.068121
0.528320 0.156311 0.080712
0.600695 0.159872 0.094485
0.670052 0.163936 0.107965
0.730625 0.172157 0.120003
0.780375 0.186079 0.129969
0.821688 0.206238 0.138418
0.860277 0.234073 0.146338
0.900364 0.268706 0.154374
0.079676 0.139920 0.099829
0.103788 0.144642 0.100177
0.155824 0.136584 0.089630
0.216800 0.138923 0.081080
0.278524 0.146615 0.060799
0.341772 0.160001 0.051551
0.407512 0.173428 0.058777
0.475305 0.186371 0.070817
0.545623 0.199829 0.083789
0.616661 0.215331 0.097198
0.683454 0.232081 0.110144
0.740391 0.250285 0.121468
0.787067 0.269368 0.130875
0.826556 0.289473 0.139051
0.863828 0.310927 0.146598
0.903112 0.337493 0.154631
0.085530 0.172403 0.111780
0.108018 0.176921 0.109592
0.158797 0.191709 0.112054
0.220088 0.168469 0.091972
0.287762 0.166433 0.068494
0.355129 0.180062 0.058173
0.422935 0.194596 0.061400
0.493422 0.208624 0.073941
0.564723 0.223917 0.087131
0.635905 0.242642 0.100847
0.701125 0.265213 0.113340
0.756498 0.291534 0.124361
0.801224 0.320907 0.133485
0.838381 0.349935 0.140821
0.873064 0.376242 0.148061
0.909050 0.403426 0.155198
0.090634 0.202587 0.123742
0.111698 0.207857 0.117159
0.156552 0.227357 0.115037
0.232638 0.240184 0.107270
0.291679 0.200001 0.082025
0.365618 0.202899 0.066748
0.435767 0.216077 0.063832
0.507542 0.230948 0.076255
0.579650 0.247699 0.089794
0.650681 0.267774 0.103457
0.715203 0.291775 0.115973
0.769759 0.320031 0.126875
0.812983 0.351552 0.135680
0.850411 0.384776 0.143183
0.886383 0.418242 0.150308
0.915223 0.450788 0.155929
0.093429 0.234913 0.132407
0.113871 0.240718 0.121272
0.155908 0.262557 0.113550
0.229046 0.285113 0.120218
0.317243 0.280314 0.096285
0.369790 0.235730 0.078619
0.444905 0.241453 0.067631
0.520011 0.253297 0.078507
0.591691 0.270962 0.091819
0.662259 0.292058 0.105439
0.726157 0.317287 0.118081
0.778725 0.347152 0.128550
0.822133 0.379837 0.137260
0.860787 0.414364 0.144956
0.898571 0.448445 0.152468
0.916514 0.481917 0.155933
0.097043 0.268268 0.139512
0.118066 0.274809 0.125533
0.160707 0.297932 0.117470
0.232333 0.323230 0.126583
0.316032 0.343941 0.133994
0.397187 0.313630 0.092932
0.449903 0.276088 0.072785
0.527295 0.282758 0.079473
0.602972 0.295191 0.093834
0.672752 0.316440 0.107296
0.735091 0.342461 0.119489
0.787047 0.373337 0.129908
0.829955 0.406826 0.138591
0.869488 0.442659 0.146543
0.908282 0.478130 0.154184
0.917747 0.511606 0.155882
0.106626 0.304025 0.147466
0.129175 0.312086 0.134113
0.170704 0.336228 0.125102
0.239524 0.363464 0.133063
0.320910 0.389140 0.143214
0.401432 0.399970 0.142554
0.473250 0.354153 0.087550
0.532595 0.320910 0.079951
0.610178 0.328671 0.094892
0.682558 0.343028 0.108834
0.744076 0.368756 0.121209
0.794428 0.400092 0.131132
0.837038 0.434154 0.139796
0.877179 0.470580 0.147747
0.914581 0.506773 0.155266
0.918992 0.540083 0.155677
0.120273 0.345648 0.154648
0.143651 0.355297 0.143291
0.183197 0.379090 0.132596
0.249957 0.407563 0.139896
0.326936 0.434603 0.149186
0.410782 0.456963 0.158413
0.486181 0.458541 0.146003
0.551069 0.403607 0.086785
0.616821 0.371824 0.095550
0.689797 0.382001 0.109949
0.752127 0.398880 0.122582
0.801662 0.428590 0.132404
0.843613 0.462737 0.140878
0.884277 0.499038 0.148877
0.918279 0.534855 0.155574
0.920364 0.568187 0.155525
0.137426 0.395476 0.161744
0.161559 0.406530 0.152411
0.199639 0.428985 0.140788
0.264333 0.458279 0.147193
0.337169 0.485469 0.155673
0.416780 0.509502 0.164573
0.497453 0.527502 0.172999
0.568634 0.526017 0.155992
0.630583 0.464885 0.096712
0.696823 0.430593 0.110725
0.759042 0.443405 0.123295
0.808943 0.462321 0.133426
0.850485 0.493174 0.141894
0.891296 0.528095 0.150093
0.919915 0.562541 0.155626
0.921705 0.595152 0.155421
0.157710 0.453531 0.172167
0.182414 0.465062 0.161052
0.219650 0.484665 0.148976
0.282481 0.513495 0.154544
0.351326 0.539985 0.162285
0.425557 0.563835 0.170547
0.505511 0.585007 0.179330
0.581555 0.599012 0.187298
0.646607 0.595264 0.171661
0.706656 0.529915 0.111073
0.766264 0.494298 0.124005
0.815036 0.509571 0.134023
0.857248 0.528573 0.142791
0.898594 0.558659 0.151048
0.921517 0.590755 0.155421
0.923079 0.620846 0.155167
0.180764 0.517282 0.181998
0.205846 0.528625 0.168468
0.242637 0.544395 0.156624
0.303505 0.571356 0.161989
0.368766 0.596387 0.169142
0.438227 0.618890 0.177021
0.512658 0.639570 0.185486
0.591654 0.657826 0.194283
0.661168 0.667928 0.202551
0.720447 0.664970 0.184373
0.770333 0.598238 0.122971
0.818993 0.565592 0.133974
0.862966 0.576829 0.143349
0.905224 0.593406 0.152015
0.923014 0.618960 0.155421
0.924556 0.646511 0.155164
0.205385 0.583655 0.190508
0.230968 0.594539 0.174514
0.268316 0.606312 0.164417
0.326734 0.629792 0.169413
0.388359 0.652405 0.176078
0.452826 0.673036 0.183683
0.521931 0.692052 0.191987
0.595498 0.709443 0.201316
0.671604 0.725148 0.211398
0.732792 0.731483 0.220586
0.780304 0.726210 0.205077
0.818775 0.666850 0.131640
0.863323 0.634675 0.142295
0.911218 0.639973 0.152518
0.924868 0.651496 0.155164
0.926073 0.672645 0.154909
0.231124 0.651293 0.197912
0.257186 0.661241 0.179027
0.295658 0.669484 0.172117
0.350845 0.688343 0.177152
0.408786 0.707882 0.183268
0.469581 0.725943 0.190962
0.533182 0.742514 0.199786
0.601115 0.757708 0.209954
0.672067 0.771496 0.221362
0.742144 0.783701 0.234280
0.792218 0.787591 0.245435
0.829205 0.783362 0.239023
0.857691 0.730591 0.138714
0.907338 0.696830 0.150408
0.927506 0.694813 0.154907
0.927972 0.702567 0.154753
0.257603 0.718303 0.204414
0.284302 0.727101 0.183235
0.324618 0.732001 0.180864
0.375911 0.745166 0.186224
0.430648 0.761036 0.192519
0.487192 0.775867 0.200586
0.546655 0.789352 0.210682
0.608779 0.801837 0.222284
0.673880 0.813634 0.235698
0.738563 0.824401 0.250427
0.796993 0.833834 0.266221
0.837994 0.836471 0.279470
0.871001 0.832512 0.282891
0.895576 0.781907 0.150711
0.930868 0.746708 0.154351
0.930606 0.742490 0.154392
0.284563 0.780870 0.211304
0.312495 0.788202 0.189123
0.355416 0.790976 0.192325
0.402061 0.797903 0.199060
0.453489 0.809886 0.206089
0.505985 0.821441 0.215292
0.560664 0.832508 0.226275
0.617041 0.843306 0.239458
0.675868 0.853872 0.254388
0.734935 0.864227 0.270832
0.788714 0.873519 0.287185
0.837099 0.882172 0.304010
0.876387 0.883675 0.318094
0.911919 0.877082 0.324576
0.933011 0.821044 0.162406
0.933880 0.788253 0.153878
0.060225 0.091207 0.115200
0.083771 0.093770 0.102928
0.126310 0.110733 0.108514
0.179023 0.128309 0.119384
0.239510 0.131175 0.110537
0.299314 0.131415 0.097327
0.360103 0.135615 0.091303
0.425871 0.141041 0.086540
0.495668 0.147078 0.083807
0.571229 0.149992 0.089897
0.647118 0.151015 0.103555
0.714046 0.155421 0.116570
0.769101 0.167307 0.127775
0.813988 0.186657 0.136852
0.854142 0.216076 0.145188
0.894967 0.252697 0.153542
0.060818 0.097690 0.109997
0.092011 0.108196 0.113289
0.144221 0.124496 0.112484
0.205869 0.135520 0.107242
0.268528 0.137893 0.088223
0.330473 0.143228 0.075290
0.394066 0.151010 0.068617
0.460789 0.156129 0.069286
0.533174 0.156741 0.081730
0.607614 0.154557 0.095814
0.678407 0.148534 0.109741
0.739138 0.142862 0.121793
0.786872 0.155628 0.131410
0.826731 0.179892 0.139600
0.864111 0.212159 0.147190
0.902886 0.251657 0.154901
0.060940 0.155599 0.151846
0.098799 0.150063 0.132565
0.146711 0.145359 0.116099
0.207614 0.154236 0.117367
0.271341 0.160474 0.100162
0.335614 0.169892 0.088090
0.401476 0.181462 0.081649
0.468474 0.193762 0.077593
0.539400 0.204842 0.083336
0.612769 0.215259 0.096274
0.682257 0.225890 0.109899
0.741532 0.238114 0.121664
0.789309 0.252932 0.131495
0.829017 0.270758 0.139669
0.866039 0.292791 0.147196
0.904681 0.320894 0.154940
0.062541 0.192572 0.170049
0.102931 0.185489 0.142170
0.141636 0.193209 0.131575
0.213915 0.179123 0.116170
0.279729 0.179592 0.104569
0.346206 0.190554 0.093869
0.413497 0.204750 0.086470
0.480992 0.221019 0.079972
0.552030 0.238336 0.085284
0.625643 0.257453 0.098599
0.693958 0.278527 0.111859
0.751545 0.301594 0.123299
0.796936 0.324458 0.132447
0.834565 0.346452 0.140219
0.870112 0.367842 0.147472
0.907294 0.389405 0.154942
0.064947 0.223627 0.184592
0.105920 0.217822 0.150270
0.138664 0.227160 0.134372
0.213062 0.244464 0.126709
0.284860 0.210849 0.107794
0.356371 0.211711 0.098509
0.425393 0.225554 0.091105
0.493717 0.242142 0.084554
0.565207 0.260761 0.087724
0.638654 0.281836 0.100891
0.706509 0.306508 0.114108
0.763380 0.334767 0.125494
0.808300 0.364998 0.134462
0.846323 0.395272 0.142215
0.881901 0.422268 0.149413
0.913287 0.446110 0.155617
0.069354 0.254967 0.196466
0.107281 0.251643 0.155035
0.138017 0.261453 0.136102
0.205188 0.283153 0.132393
0.297367 0.292470 0.121437
0.360460 0.245754 0.103817
0.435144 0.248956 0.095344
0.505260 0.263892 0.087845
0.576246 0.283086 0.089603
0.649749 0.305185 0.102935
0.716967 0.331020 0.115973
0.772472 0.360937 0.126988
0.817321 0.393482 0.136057
0.856481 0.426983 0.144072
0.894425 0.459264 0.151628
0.916734 0.488788 0.155930
0.076972 0.287284 0.206767
0.113083 0.286252 0.160464
0.144316 0.296270 0.142482
0.207621 0.320341 0.138699
0.290664 0.342510 0.146088
0.379803 0.336307 0.121465
0.439826 0.286992 0.099324
0.513986 0.291213 0.090652
0.586886 0.306266 0.091374
0.659372 0.328901 0.104549
0.725329 0.355802 0.117351
0.780551 0.386719 0.128500
0.825174 0.420399 0.137376
0.865383 0.455330 0.145512
0.904772 0.489750 0.153335
0.918059 0.520427 0.155679
0.088631 0.322826 0.216682
0.125098 0.323892 0.166553
0.156233 0.335174 0.151200
0.214637 0.360285 0.145903
0.292260 0.384403 0.152799
0.377434 0.403330 0.157411
0.458854 0.379751 0.119481
0.519105 0.332580 0.091552
0.594715 0.337835 0.092578
0.669305 0.354961 0.106124
0.734253 0.381865 0.118820
0.787644 0.413198 0.129569
0.832127 0.447507 0.138591
0.873069 0.483437 0.146815
0.913824 0.518888 0.154881
0.919462 0.549883 0.155677
0.102516 0.363946 0.226643
0.140048 0.367180 0.171872
0.171162 0.380161 0.159429
0.225992 0.404936 0.153794
0.298493 0.430153 0.159964
0.379579 0.453134 0.167372
0.460854 0.466654 0.169659
0.538883 0.432717 0.116182
0.601191 0.384115 0.093001
0.677215 0.392135 0.107319
0.743161 0.411086 0.120510
0.795040 0.441980 0.130827
0.838510 0.475915 0.139524
0.880140 0.511763 0.147917
0.918160 0.547030 0.155467
0.920893 0.578939 0.155422
0.119676 0.412214 0.235227
0.158475 0.419434 0.179947
0.189721 0.432912 0.167658
0.241498 0.456028 0.162103
0.310330 0.481586 0.167945
0.385427 0.505099 0.174708
0.467817 0.526001 0.182245
0.544111 0.535799 0.184728
0.617599 0.494861 0.114437
0.683667 0.444705 0.107924
0.750737 0.454031 0.121537
0.802820 0.473666 0.132103
0.845356 0.506181 0.140702
0.886780 0.540546 0.148870
0.920457 0.574665 0.155411
0.922272 0.606007 0.155421
0.139856 0.467575 0.242138
0.180366 0.478669 0.188678
0.211474 0.491957 0.175165
0.261380 0.511813 0.170940
0.327013 0.536907 0.176437
0.396565 0.559956 0.182857
0.472916 0.580763 0.189931
0.555919 0.599643 0.197589
0.627274 0.606149 0.199407
0.693965 0.558860 0.121401
0.755000 0.510304 0.121603
0.809374 0.519988 0.132766
0.852198 0.539597 0.141612
0.894015 0.570660 0.149934
0.922080 0.602051 0.155421
0.923704 0.631496 0.155164
0.162173 0.527264 0.247312
0.204636 0.542559 0.197472
0.236115 0.554977 0.181463
0.285422 0.570665 0.179821
0.347531 0.593885 0.184907
0.412892 0.615547 0.191166
0.483150 0.635509 0.198218
0.560367 0.654400 0.205985
0.641040 0.670391 0.214185
0.704694 0.673910 0.218048
0.757335 0.621859 0.123692
0.811024 0.579802 0.132110
0.858509 0.586083 0.142197
0.900971 0.603071 0.150941
0.923624 0.630176 0.155296
0.925149 0.656615 0.155123
0.186246 0.589459 0.249419
0.230435 0.608473 0.205250
0.262694 0.619492 0.187581
0.311069 0.630578 0.188772
0.370015 0.651080 0.193429
0.430784 0.670428 0.199439
0.496181 0.688890 0.206564
0.567080 0.706309 0.214854
0.643924 0.722735 0.223916
0.717968 0.735025 0.233613
0.771444 0.736523 0.240570
0.809419 0.685503 0.136859
0.857243 0.646796 0.140545
0.906913 0.648545 0.151407
0.925356 0.660191 0.155082
0.926703 0.681959 0.154907
0.212370 0.653814 0.248160
0.257391 0.674979 0.212087
0.290841 0.684276 0.194121
0.338285 0.691109 0.198300
0.393404 0.707861 0.202655
0.450909 0.724688 0.208469
0.511220 0.740502 0.215988
0.576268 0.755696 0.225031
0.646546 0.769848 0.235638
0.718933 0.782514 0.247403
0.782167 0.790899 0.259742
0.823789 0.790527 0.268979
0.851394 0.744999 0.151769
0.902114 0.707168 0.149035
0.927963 0.702716 0.154753
0.928401 0.709575 0.154651
0.240590 0.720341 0.255180
0.284856 0.739860 0.218551
0.320789 0.747057 0.202433
0.366802 0.750601 0.208795
0.417803 0.762292 0.213604
0.471716 0.775712 0.219483
0.527435 0.788514 0.227495
0.587568 0.800681 0.238107
0.651507 0.812605 0.250709
0.717874 0.823710 0.264661
0.780751 0.833667 0.279219
0.831402 0.839906 0.293990
0.867374 0.837958 0.305969
0.889808 0.793962 0.168561
0.931368 0.755419 0.154274
0.931068 0.748774 0.154392
0.269711 0.782860 0.263158
0.312801 0.798760 0.227289
0.351479 0.803568 0.215741
0.396110 0.805559 0.222802
0.441602 0.811467 0.229070
0.491739 0.821566 0.235442
0.543760 0.831996 0.244169
0.599586 0.842678 0.256030
0.657684 0.853542 0.270243
0.717370 0.864063 0.285916
0.774451 0.873807 0.301592
0.826027 0.882548 0.317288
0.871837 0.887851 0.332416
0.909134 0.883133 0.343662
0.929054 0.831894 0.179908
0.934252 0.793656 0.153875
0.051669 0.114984 0.164142
0.076020 0.118184 0.151497
0.106618 0.122150 0.135707
0.152702 0.133839 0.130565
0.200850 0.153312 0.143535
0.248415 0.171793 0.155820
0.302551 0.182202 0.158360
0.371801 0.187226 0.154498
0.453948 0.190775 0.148994
0.542395 0.196842 0.144302
0.626947 0.208233 0.141524
0.700445 0.222959 0.135307
0.760512 0.236213 0.131072
0.808976 0.249560 0.136486
0.851076 0.268182 0.144294
0.892824 0.293903 0.152710
0.052384 0.119287 0.155407
0.079800 0.128985 0.164070
0.117234 0.134812 0.147789
0.170757 0.151841 0.147892
0.228447 0.165954 0.154285
0.291247 0.169606 0.148228
0.358167 0.173564 0.143024
0.431895 0.177309 0.137904
0.508553 0.182700 0.133428
0.587132 0.189810 0.126586
0.660548 0.199668 0.120660
0.724622 0.209445 0.122224
0.777685 0.219926 0.129941
0.821304 0.235629 0.138282
0.860895 0.256569 0.146352
0.901284 0.284210 0.154629
0.052465 0.126298 0.150369
0.080154 0.140635 0.160809
0.127618 0.154586 0.163396
0.195225 0.169403 0.157337
0.263605 0.173699 0.145918
0.330736 0.177270 0.135772
0.400036 0.182160 0.128461
0.471726 0.186686 0.121634
0.545606 0.192438 0.113862
0.619532 0.197690 0.105266
0.689348 0.200869 0.111802
0.748014 0.210244 0.123216
0.794865 0.223826 0.132829
0.834396 0.242977 0.140938
0.871408 0.268765 0.148483
0.908915 0.301217 0.156049
0.051801 0.191607 0.201924
0.067125 0.202756 0.206880
0.128115 0.202385 0.184498
0.199788 0.193850 0.151791
0.265351 0.201932 0.157276
0.332447 0.210565 0.147265
0.402480 0.220863 0.139703
0.474320 0.232753 0.133967
0.548648 0.246296 0.129682
0.622275 0.263134 0.125875
0.689515 0.281252 0.122120
0.747258 0.298680 0.124589
0.794886 0.315071 0.132162
0.835436 0.331436 0.140507
0.873045 0.350696 0.148296
0.911245 0.374023 0.155956
0.062060 0.253580 0.245456
0.069096 0.247008 0.233334
0.126674 0.238553 0.188875
0.180972 0.248135 0.159157
0.274350 0.226849 0.144136
0.341442 0.231770 0.150410
0.411693 0.243414 0.142987
0.484061 0.257946 0.136184
0.558145 0.276697 0.129869
0.631148 0.299827 0.122633
0.697794 0.325178 0.118867
0.756129 0.350000 0.125587
0.802890 0.375040 0.133852
0.841755 0.398177 0.141296
0.877800 0.420121 0.148612
0.913845 0.440654 0.155917
0.071369 0.288671 0.259024
0.073918 0.279708 0.243891
0.127405 0.274406 0.191435
0.172625 0.284541 0.162449
0.265933 0.303133 0.158579
0.349001 0.261984 0.143091
0.421637 0.265713 0.143559
0.494482 0.280016 0.138023
0.568664 0.299046 0.132053
0.641340 0.322950 0.124396
0.707261 0.350453 0.119611
0.764787 0.379892 0.125902
0.811802 0.410250 0.134616
0.852186 0.440471 0.142970
0.890263 0.468065 0.150520
0.916798 0.491612 0.155930
0.082961 0.321888 0.269162
0.084349 0.312876 0.252492
0.136054 0.310461 0.195065
0.177479 0.321560 0.170693
0.256846 0.343633 0.167597
0.352800 0.353147 0.159392
0.428755 0.304329 0.137823
0.504115 0.305325 0.137384
0.578663 0.322810 0.132717
0.650609 0.346550 0.125558
0.716043 0.374312 0.120785
0.773092 0.404422 0.127101
0.819745 0.436886 0.136149
0.860830 0.470505 0.144368
0.901317 0.503415 0.152457
0.918551 0.531051 0.155678
0.095726 0.358159 0.279586
0.098058 0.349588 0.260591
0.148567 0.349954 0.198990
0.187798 0.362242 0.179198
0.257680 0.384920 0.175057
0.344849 0.405627 0.179441
0.436353 0.405341 0.162637
0.510153 0.351720 0.132703
0.587612 0.352763 0.130732
0.660034 0.372539 0.124422
0.724439 0.399752 0.121292
0.780330 0.430331 0.128189
0.826928 0.463481 0.137375
0.868707 0.498199 0.145669
0.910708 0.532069 0.154061
0.920026 0.561800 0.155677
0.110496 0.398795 0.288974
0.113898 0.391483 0.268201
0.163917 0.394973 0.202544
0.201726 0.408259 0.187402
0.264917 0.430577 0.183276
0.344626 0.452793 0.187571
0.432793 0.472133 0.192709
0.520319 0.465547 0.167899
0.591945 0.405874 0.125237
0.667704 0.407155 0.120106
0.733051 0.427878 0.120446
0.787753 0.458263 0.129117
0.833483 0.491277 0.138302
0.876051 0.525976 0.146815
0.916948 0.560029 0.154990
0.921490 0.590568 0.155421
0.128063 0.446431 0.298651
0.132728 0.441205 0.275089
0.183270 0.447712 0.208092
0.220309 0.461518 0.194869
0.279617 0.482242 0.192191
0.352857 0.504676 0.196408
0.434119 0.525872 0.201830
0.521705 0.542959 0.207268
0.603299 0.527795 0.171543
0.670100 0.464792 0.114542
0.741087 0.467488 0.119794
0.795751 0.488827 0.130286
0.840071 0.520872 0.139223
0.882656 0.554341 0.147878
0.920529 0.587238 0.155287
0.922924 0.617193 0.155287
0.147574 0.499446 0.307270
0.155388 0.496280 0.278658
0.206577 0.506974 0.214788
0.243633 0.520623 0.201637
0.299918 0.538083 0.201706
0.368291 0.559967 0.206136
0.442888 0.580654 0.211519
0.526141 0.600067 0.217746
0.609897 0.613965 0.224255
0.683749 0.591496 0.172602
0.742689 0.527886 0.118619
0.802893 0.531918 0.131193
0.847050 0.552348 0.140206
0.889690 0.583364 0.148877
0.922326 0.613920 0.155318
0.924253 0.642203 0.155164
0.168800 0.556440 0.314921
0.180943 0.555846 0.278324
0.232623 0.569704 0.221439
0.270413 0.581812 0.208030
0.324958 0.595847 0.211162
0.388746 0.615924 0.215678
0.457338 0.635357 0.221405
0.533199 0.654077 0.227955
0.617081 0.671761 0.235051
0.691727 0.681132 0.242974
0.751509 0.649970 0.171371
0.803017 0.593962 0.130024
0.853783 0.596066 0.140999
0.896706 0.614104 0.149827
0.924163 0.641189 0.155164
0.925780 0.666917 0.155029
0.190490 0.615416 0.321499
0.208832 0.617834 0.276421
0.259945 0.634081 0.227724
0.299777 0.643929 0.215138
0.352245 0.654037 0.220592
0.411844 0.671879 0.224988
0.475164 0.689418 0.230964
0.543945 0.706360 0.238232
0.619949 0.722592 0.246449
0.699619 0.736922 0.255233
0.762264 0.742061 0.264334
0.805639 0.707112 0.178384
0.851649 0.657852 0.139059
0.902814 0.657124 0.150266
0.925972 0.669844 0.155012
0.927273 0.691509 0.154907
0.212773 0.675123 0.327256
0.238304 0.681051 0.273327
0.288149 0.698515 0.233841
0.329919 0.705686 0.224167
0.379317 0.711901 0.230878
0.434827 0.726635 0.234986
0.493641 0.741516 0.241075
0.556610 0.756129 0.249267
0.625444 0.770081 0.259101
0.698564 0.782888 0.269829
0.769397 0.793357 0.281019
0.818387 0.795409 0.292967
0.849716 0.760651 0.191280
0.897848 0.715929 0.147893
0.928463 0.710053 0.154662
0.928937 0.717167 0.154650
0.234659 0.734064 0.333696
0.268705 0.744098 0.275246
0.316695 0.759816 0.240596
0.360116 0.764597 0.235065
0.406350 0.767860 0.242383
0.457516 0.777890 0.247200
0.511938 0.789683 0.253375
0.570239 0.801516 0.262438
0.633200 0.813152 0.274236
0.699269 0.824107 0.287452
0.764734 0.833983 0.300628
0.823381 0.842633 0.314246
0.864191 0.842539 0.327696
0.890854 0.807357 0.218264
0.931616 0.763092 0.154065
0.931529 0.755107 0.154185
0.255349 0.790454 0.346207
0.298943 0.801795 0.282814
0.345520 0.814712 0.251605
0.390017 0.817536 0.250265
0.433869 0.819079 0.257697
0.479432 0.824303 0.264046
0.530267 0.833796 0.270388
0.584421 0.843693 0.280135
0.642192 0.854205 0.293373
0.702147 0.864778 0.308432
0.761066 0.874777 0.323192
0.815553 0.883799 0.336975
0.866343 0.891420 0.350835
0.906705 0.888229 0.363234
0.932829 0.845956 0.238022
0.934757 0.799810 0.153875
0.037220 0.137236 0.212045
0.058612 0.140156 0.198232
0.090364 0.145703 0.184787
0.126028 0.151671 0.166893
0.175560 0.162787 0.156392
0.223724 0.174906 0.160014
0.268554 0.194622 0.173188
0.318789 0.216744 0.189365
0.390010 0.234894 0.200728
0.482994 0.243338 0.199709
0.582808 0.249033 0.194183
0.673411 0.258991 0.189781
0.747754 0.274749 0.186187
0.803945 0.296309 0.182479
0.849368 0.317622 0.171486
0.891708 0.339564 0.162973
0.040528 0.143265 0.203025
0.055167 0.149562 0.216516
0.094199 0.156520 0.202251
0.138233 0.163882 0.181004
0.197427 0.176616 0.170648
0.249300 0.191035 0.176694
0.299049 0.210427 0.190020
0.364248 0.225901 0.199532
0.449113 0.232785 0.198589
0.543638 0.237151 0.192754
0.634724 0.244564 0.187299
0.710805 0.258193 0.184444
0.771226 0.275657 0.179953
0.817790 0.294437 0.170069
0.858012 0.314286 0.159867
0.899157 0.335389 0.159402
0.042181 0.145564 0.197187
0.055856 0.157263 0.209989
0.094678 0.171114 0.222988
0.150651 0.181277 0.200194
0.219934 0.199990 0.194534
0.279314 0.212000 0.198615
0.347024 0.218735 0.197398
0.427742 0.221713 0.192859
0.511412 0.226243 0.189029
0.596149 0.231562 0.182696
0.672569 0.240657 0.176753
0.737110 0.251899 0.167217
0.787727 0.267663 0.157541
0.829329 0.284717 0.150142
0.868238 0.305037 0.151011
0.908871 0.325440 0.157115
0.045456 0.154732 0.192295
0.055583 0.166886 0.205126
0.095758 0.187434 0.220816
0.160394 0.205123 0.221154
0.245346 0.223802 0.212631
0.320026 0.221415 0.198894
0.395561 0.222327 0.189350
0.472823 0.224340 0.181678
0.552266 0.227759 0.173900
0.629988 0.237655 0.167847
0.699432 0.251574 0.161736
0.756542 0.268014 0.153541
0.801221 0.286370 0.144139
0.840602 0.304498 0.144889
0.878764 0.326391 0.150807
0.911758 0.354803 0.156180
0.054738 0.214863 0.240846
0.059130 0.239688 0.260253
0.075653 0.253322 0.265853
0.154718 0.261130 0.242035
0.254552 0.248088 0.189800
0.321014 0.258497 0.212534
0.392801 0.269194 0.205828
0.468929 0.280515 0.198384
0.548445 0.294124 0.193135
0.627522 0.310514 0.189119
0.698604 0.329083 0.186916
0.757849 0.349196 0.183595
0.805246 0.367455 0.176836
0.844680 0.386286 0.168997
0.882345 0.405413 0.165000
0.915649 0.426938 0.163277
0.073330 0.299294 0.306449
0.075868 0.310095 0.309267
0.084782 0.304898 0.295706
0.155043 0.300255 0.243199
0.221555 0.307335 0.201624
0.333787 0.281157 0.184622
0.402156 0.291413 0.207128
0.477619 0.304671 0.200493
0.556807 0.321988 0.193232
0.635358 0.344107 0.186451
0.706601 0.369897 0.180084
0.765495 0.396773 0.173136
0.811992 0.422774 0.171307
0.851664 0.448144 0.171690
0.889223 0.469852 0.173305
0.920425 0.491183 0.173933
0.090333 0.359370 0.344878
0.089020 0.353017 0.329085
0.098164 0.343981 0.307635
0.163745 0.338746 0.245001
0.217375 0.346191 0.210780
0.316650 0.364905 0.202628
0.412067 0.327709 0.187580
0.488581 0.328423 0.197596
0.567165 0.345465 0.193281
0.645249 0.367902 0.186527
0.715540 0.395181 0.180142
0.773051 0.425580 0.171584
0.818604 0.457079 0.161236
0.858622 0.487006 0.155685
0.898961 0.514109 0.160293
0.920193 0.537925 0.162214
0.104238 0.398963 0.359655
0.102649 0.388897 0.337558
0.112853 0.381522 0.313454
0.175712 0.379733 0.246047
0.222806 0.388289 0.219320
0.304920 0.409174 0.212122
0.406744 0.423222 0.208884
0.495854 0.376497 0.183890
