example_ofxGpuLutCube/bin/data/ofxGpuLutCube/LUT/V34 (80's contrast_2).cube
LUT_3D_SIZE 16
0.036712 0.059442 0.098249
0.045745 0.067851 0.099784
0.091054 0.072795 0.092513
0.143615 0.079073 0.071788
0.200367 0.078702 0.034256
0.255427 0.072834 0.034088
0.315677 0.058847 0.034088
0.372269 0.052608 0.034088
0.440893 0.001591 0.034088
0.512953 0.000000 0.034088
0.584826 0.000000 0.034088
0.651554 0.000000 0.034088
0.716173 0.000000 0.034088
0.780024 0.000000 0.034088
0.841186 0.000000 0.034088
0.899106 0.000000 0.034088
0.030113 0.091415 0.096965
0.039941 0.090264 0.100717
0.094809 0.086947 0.085478
0.145245 0.093179 0.065128
0.203448 0.087132 0.034088
0.261660 0.072677 0.034088
0.321076 0.056073 0.034088
0.379924 0.035653 0.034088
0.447580 0.000000 0.034088
0.518539 0.000000 0.034088
0.589154 0.000000 0.034088
0.655662 0.000000 0.034088
0.720754 0.000000 0.034088
0.784624 0.000000 0.034088
0.845716 0.000000 0.034088
0.903233 0.000000 0.034088
0.017495 0.135121 0.092815
0.019882 0.146268 0.089723
0.077509 0.134695 0.085284
0.160116 0.109085 0.038474
0.215798 0.111129 0.034088
0.272772 0.113447 0.034088
0.335905 0.106355 0.034088
0.396542 0.095357 0.034088
0.466266 0.051867 0.034088
0.537104 0.000295 0.034088
0.606105 0.000000 0.034088
0.671740 0.000000 0.034088
0.735604 0.000000 0.034088
0.797866 0.000000 0.034088
0.856921 0.000000 0.034088
0.913044 0.000000 0.034088
0.000989 0.181420 0.082650
0.000454 0.199484 0.066287
0.068072 0.192695 0.061348
0.150410 0.169756 0.046334
0.227174 0.134027 0.034088
0.298444 0.129188 0.034088
0.360772 0.129336 0.034088
0.427170 0.120639 0.034088
0.493882 0.101814 0.034088
0.561960 0.065598 0.034088
0.629563 0.017908 0.034088
0.695863 0.000000 0.034088
0.760596 0.000000 0.034088
0.821679 0.000000 0.034088
0.878108 0.000000 0.034088
0.930568 0.000000 0.034088
0.000000 0.225690 0.074510
0.000000 0.242908 0.055100
0.036829 0.250367 0.034562
0.149171 0.224511 0.040547
0.229064 0.197708 0.034088
0.308112 0.159474 0.034088
0.386603 0.146446 0.034088
0.468433 0.128945 0.034088
0.539931 0.109623 0.034088
0.607402 0.090267 0.034088
0.670625 0.070679 0.034088
0.731960 0.052713 0.034088
0.792516 0.052489 0.034088
0.849297 0.079302 0.034088
0.901562 0.110566 0.034088
0.941156 0.121848 0.034088
0.000000 0.264866 0.067903
0.000000 0.281084 0.046922
0.009323 0.299360 0.034088
0.144945 0.278167 0.034088
0.242609 0.252964 0.034088
0.313150 0.219376 0.034088
0.398349 0.182735 0.034088
0.488971 0.157266 0.034088
0.576442 0.135270 0.034088
0.650611 0.122461 0.034088
0.710809 0.115219 0.034088
0.767418 0.115166 0.034088
0.822985 0.128030 0.034088
0.878598 0.152873 0.034088
0.929735 0.193345 0.034088
0.956116 0.214148 0.034088
0.000000 0.306192 0.056681
0.000000 0.316994 0.040395
0.001185 0.336116 0.034088
0.140647 0.336599 0.034088
0.242754 0.309653 0.034088
0.329941 0.304520 0.034088
0.413234 0.264254 0.034088
0.508723 0.221539 0.034088
0.596323 0.187992 0.034088
0.671461 0.170093 0.034088
0.738365 0.164887 0.034088
0.799596 0.168698 0.034088
0.851645 0.187198 0.034088
0.902902 0.217175 0.034089
0.953462 0.253037 0.034088
0.975510 0.270431 0.034088
0.000000 0.344595 0.051209
0.000000 0.352775 0.037009
0.002023 0.374820 0.034088
0.148837 0.384415 0.034088
0.255443 0.362492 0.034088
0.353460 0.362480 0.034088
0.438480 0.370707 0.034088
0.527897 0.313148 0.034088
0.614368 0.272202 0.034088
0.688147 0.238278 0.034088
0.754806 0.228063 0.034088
0.815413 0.226062 0.034088
0.872547 0.244108 0.034088
0.925498 0.272354 0.034088
0.972704 0.309256 0.034088
0.978669 0.331892 0.034088
0.000000 0.378233 0.057042
0.000000 0.397865 0.034088
0.007804 0.416279 0.034088
0.163819 0.427665 0.034088
0.273438 0.411760 0.034088
0.363850 0.412272 0.034088
0.459543 0.420644 0.034088
0.543173 0.438148 0.034088
0.628102 0.374761 0.034088
0.701796 0.338903 0.034088
0.767185 0.306317 0.034088
0.827386 0.296292 0.034088
0.884238 0.301974 0.034088
0.937950 0.324516 0.034088
0.977647 0.366102 0.034088
0.977226 0.380758 0.034088
0.000000 0.425510 0.034197
0.000000 0.443059 0.034088
0.017706 0.457027 0.034088
0.182012 0.466190 0.034088
0.289108 0.455290 0.034088
0.373993 0.455600 0.034088
0.469463 0.474048 0.034088
0.547485 0.488740 0.034088
0.625853 0.515568 0.034088
0.705356 0.455303 0.034088
0.776439 0.417985 0.034088
0.836183 0.386342 0.034088
0.892610 0.371120 0.034088
0.946225 0.382378 0.034088
0.976112 0.414080 0.034089
0.975910 0.419841 0.034088
0.000000 0.477188 0.034088
0.000000 0.492570 0.034088
0.005652 0.509368 0.034088
0.186993 0.507672 0.034088
0.298086 0.500448 0.034088
0.383508 0.500737 0.034088
0.470308 0.520550 0.034088
0.559662 0.544578 0.034088
0.621151 0.565166 0.034088
0.693838 0.599993 0.034088
0.772043 0.547745 0.034089
0.836617 0.502751 0.034089
0.896878 0.467813 0.034088
0.950991 0.447582 0.034088
0.974052 0.468922 0.034088
0.974107 0.467552 0.034088
0.000000 0.517570 0.034088
0.000000 0.526465 0.034088
0.004148 0.545272 0.034088
0.193475 0.543157 0.034088
0.306488 0.541992 0.034088
0.393035 0.542242 0.034088
0.477230 0.563133 0.034088
0.561994 0.592498 0.034088
0.636108 0.618780 0.034088
0.686615 0.642725 0.034088
0.752793 0.684173 0.034088
0.825713 0.637909 0.034088
0.890851 0.583594 0.034088
0.950379 0.545003 0.034088
0.970945 0.532785 0.034088
0.971115 0.529097 0.034088
0.000000 0.541163 0.034088
0.000000 0.551378 0.034088
0.015416 0.571993 0.034088
0.204430 0.573811 0.034088
0.318064 0.577892 0.034088
0.407190 0.585332 0.034088
0.490209 0.610190 0.034088
0.565546 0.637978 0.034088
0.637020 0.669187 0.034088
0.700749 0.698333 0.034088
0.742552 0.719554 0.034088
0.804948 0.763666 0.034088
0.877201 0.719053 0.034088
0.946630 0.658387 0.034088
0.957486 0.627605 0.034088
0.959213 0.615051 0.034088
0.000000 0.609968 0.034088
0.000000 0.627672 0.034088
0.000000 0.666105 0.034088
0.144330 0.680442 0.034088
0.289878 0.681235 0.034088
0.389796 0.694776 0.034088
0.483709 0.723262 0.034088
0.565411 0.741105 0.034088
0.633494 0.754859 0.034088
0.693523 0.767752 0.034088
0.752323 0.786215 0.034088
0.793694 0.797921 0.034088
0.855112 0.833417 0.034088
0.930680 0.787841 0.034089
0.958818 0.730052 0.034088
0.959021 0.714565 0.034088
0.000000 0.708946 0.034088
0.000000 0.720078 0.034088
0.000000 0.747441 0.034088
0.033206 0.771886 0.034089
0.226852 0.798841 0.034088
0.356867 0.825658 0.034088
0.466878 0.845551 0.034088
0.557691 0.857322 0.034088
0.630902 0.860897 0.034088
0.694014 0.863901 0.034088
0.749534 0.865865 0.034088
0.800951 0.865287 0.034088
0.842983 0.869654 0.034088
0.904048 0.895381 0.034088
0.951828 0.839288 0.034088
0.954076 0.804912 0.034088
0.000000 0.872123 0.034089
0.000000 0.880960 0.034089
0.000000 0.899832 0.034089
0.000000 0.925523 0.034089
0.096352 0.931432 0.034088
0.321509 0.929976 0.034088
0.455655 0.926181 0.034088
0.554375 0.921748 0.034088
0.630688 0.916100 0.034088
0.693735 0.911491 0.034088
0.750392 0.907577 0.034089
0.802527 0.904420 0.034088
0.850202 0.903421 0.034088
0.899307 0.926875 0.034088
0.945783 0.928336 0.034088
0.948235 0.893805 0.034088
0.031252 0.071917 0.114033
0.050464 0.072921 0.118750
0.106974 0.066244 0.108109
0.157849 0.056809 0.088046
0.211237 0.027003 0.037658
0.260272 0.043572 0.034088
0.317183 0.030882 0.034088
0.374911 0.007933 0.034088
0.442916 0.000000 0.034088
0.514393 0.000000 0.034088
0.583415 0.000000 0.034088
0.649111 0.000000 0.034088
0.714524 0.000000 0.034088
0.778294 0.000000 0.034088
0.839387 0.000000 0.034088
0.897294 0.000000 0.034088
0.025907 0.087814 0.122106
0.035651 0.088523 0.122631
0.085705 0.093603 0.117490
0.142825 0.098207 0.100539
0.206528 0.097047 0.050755
0.265123 0.091345 0.034088
0.326535 0.080834 0.034088
0.384710 0.066370 0.034088
0.451537 0.007074 0.034088
0.522654 0.000000 0.034088
0.592776 0.000000 0.034088
0.658020 0.000000 0.034088
0.722421 0.000000 0.034088
0.785519 0.000000 0.034088
0.846515 0.000000 0.034088
0.903882 0.000000 0.034088
0.012035 0.137153 0.117194
0.020187 0.139154 0.117721
0.072942 0.133487 0.116016
0.153028 0.119030 0.084982
0.214928 0.121226 0.038006
0.275310 0.111972 0.034088
0.340965 0.096800 0.034088
0.401085 0.081986 0.034088
0.468861 0.033297 0.034088
0.538823 0.000000 0.034088
0.607058 0.000000 0.034088
0.671755 0.000000 0.034088
0.734765 0.000000 0.034088
0.796683 0.000000 0.034088
0.855884 0.000000 0.034088
0.912594 0.000000 0.034088
0.000000 0.181387 0.098662
0.000000 0.196374 0.102685
0.046478 0.195443 0.098034
0.147827 0.174114 0.078637
0.233801 0.139481 0.034088
0.296460 0.137231 0.034088
0.362150 0.135668 0.034088
0.423679 0.131951 0.034088
0.491101 0.112057 0.034088
0.561256 0.070331 0.034088
0.628788 0.018471 0.034088
0.693420 0.000000 0.034088
0.756252 0.000000 0.034088
0.816636 0.000000 0.034088
0.873570 0.000000 0.034088
0.927284 0.000000 0.034088
0.000000 0.223046 0.082491
0.000000 0.238892 0.088730
0.009891 0.253509 0.060339
0.141107 0.233750 0.062746
0.234049 0.203865 0.034088
0.317583 0.161891 0.034088
0.390193 0.153097 0.034088
0.463624 0.140143 0.034088
0.535722 0.124284 0.034088
0.602567 0.107688 0.034088
0.663255 0.095639 0.034088
0.723826 0.082593 0.034088
0.783310 0.079530 0.034088
0.840932 0.083009 0.034088
0.895833 0.093601 0.034089
0.940503 0.104108 0.034088
0.000000 0.265098 0.074863
0.000000 0.276951 0.074728
0.000000 0.304752 0.034384
0.133253 0.288338 0.034088
0.244169 0.259962 0.034088
0.322644 0.226468 0.034088
0.411408 0.185535 0.034088
0.506640 0.158603 0.034088
0.582464 0.142964 0.034088
0.647512 0.135134 0.034088
0.706402 0.131342 0.034088
0.761613 0.134441 0.034088
0.818760 0.144156 0.034088
0.872303 0.169267 0.034088
0.923082 0.204879 0.034088
0.951771 0.228440 0.034088
0.000000 0.306172 0.066819
0.000000 0.313616 0.063651
0.000000 0.344536 0.034088
0.126120 0.345277 0.034088
0.239910 0.315794 0.034088
0.330107 0.308315 0.034088
0.423716 0.272430 0.034088
0.522472 0.225760 0.034088
0.613283 0.191070 0.034088
0.687631 0.173971 0.034088
0.742936 0.175975 0.034088
0.795617 0.183025 0.034088
0.847933 0.200111 0.034089
0.899521 0.229980 0.034088
0.949377 0.268135 0.034088
0.971160 0.285456 0.034088
0.000000 0.344514 0.064932
0.000000 0.350225 0.057991
0.000000 0.382760 0.034088
0.131312 0.394019 0.034088
0.252089 0.370522 0.034088
0.352699 0.367583 0.034088
0.438646 0.374363 0.034088
0.537931 0.322105 0.034088
0.626763 0.279402 0.034088
0.700089 0.245524 0.034088
0.766827 0.235522 0.034088
0.824776 0.237467 0.034088
0.873355 0.255988 0.034088
0.922039 0.284269 0.034088
0.970131 0.320778 0.034088
0.978422 0.340813 0.034088
0.000000 0.378143 0.076699
0.000000 0.395700 0.041413
0.000000 0.424729 0.034088
0.144803 0.436421 0.034088
0.267787 0.419221 0.034088
0.362754 0.416941 0.034088
0.461888 0.425830 0.034088
0.543532 0.442604 0.034088
0.634623 0.385121 0.034088
0.710967 0.348250 0.034088
0.774343 0.315504 0.034089
0.835683 0.305926 0.034088
0.893689 0.312439 0.034088
0.941116 0.337112 0.034088
0.977265 0.374527 0.034088
0.976932 0.389883 0.034088
0.000000 0.421931 0.056044
0.000000 0.448285 0.034088
0.000000 0.465376 0.034088
0.162675 0.472839 0.034088
0.282248 0.462056 0.034088
0.372691 0.460675 0.034088
0.470250 0.479310 0.034088
0.550371 0.494179 0.034088
0.626660 0.520885 0.034088
0.708054 0.463895 0.034088
0.782375 0.428997 0.034088
0.841009 0.395687 0.034088
0.898490 0.380904 0.034088
0.954900 0.391911 0.034088
0.975719 0.425161 0.034088
0.975536 0.430214 0.034088
0.000000 0.475688 0.037033
0.000000 0.497803 0.034088
0.000000 0.515314 0.034088
0.166343 0.511374 0.034088
0.288885 0.505767 0.034088
0.380451 0.504824 0.034088
0.470253 0.524787 0.034088
0.561547 0.550198 0.034088
0.621747 0.568934 0.034088
0.694129 0.604069 0.034088
0.770948 0.553419 0.034088
0.840937 0.513156 0.034088
0.901410 0.475741 0.034088
0.956744 0.456427 0.034088
0.973812 0.474853 0.034088
0.973904 0.472561 0.034088
0.000000 0.519306 0.034149
0.000000 0.525694 0.034088
0.000000 0.545423 0.034088
0.174769 0.545345 0.034088
0.296507 0.544415 0.034088
0.389954 0.545826 0.034088
0.477411 0.567397 0.034088
0.563153 0.597161 0.034088
0.637708 0.623791 0.034088
0.686352 0.645087 0.034088
0.751726 0.686166 0.034088
0.824868 0.641749 0.034088
0.894215 0.591740 0.034088
0.955910 0.551430 0.034088
0.970694 0.538203 0.034088
0.970931 0.533096 0.034088
0.000000 0.543140 0.037800
0.000000 0.551052 0.034088
0.001640 0.571913 0.034088
0.188512 0.575448 0.034088
0.308174 0.578514 0.034088
0.402621 0.586470 0.034088
0.488290 0.612813 0.034088
0.565632 0.644545 0.034088
0.636778 0.674734 0.034088
0.701133 0.702443 0.034088
0.743127 0.722067 0.034088
0.803188 0.762618 0.034088
0.876233 0.719185 0.034088
0.952717 0.667080 0.034088
0.957131 0.630822 0.034088
0.958426 0.616065 0.034088
0.000000 0.623105 0.034088
0.000000 0.634413 0.034088
0.000000 0.667072 0.034088
0.118396 0.683731 0.034088
0.277549 0.688588 0.034088
0.385151 0.690375 0.034088
0.479258 0.720467 0.034088
0.563416 0.745152 0.034088
0.633816 0.760955 0.034088
0.693955 0.772475 0.034088
0.752795 0.788013 0.034088
0.793453 0.797964 0.034088
0.852628 0.830519 0.034088
0.931291 0.787475 0.034088
0.958514 0.734983 0.034088
0.958977 0.715299 0.034088
0.000000 0.721268 0.034088
0.000000 0.727120 0.034088
0.000000 0.749748 0.034088
0.020743 0.768779 0.034089
0.222151 0.788802 0.034088
0.349607 0.812136 0.034088
0.459670 0.837219 0.034089
0.553698 0.856768 0.034088
0.629748 0.864727 0.034088
0.693407 0.866964 0.034088
0.749106 0.866104 0.034088
0.800413 0.864133 0.034088
0.841939 0.868085 0.034088
0.902685 0.893482 0.034088
0.951856 0.838866 0.034089
0.954021 0.805762 0.034088
0.000000 0.883814 0.034089
0.000000 0.886505 0.034089
0.000000 0.902181 0.034089
0.000000 0.923554 0.034089
0.068217 0.932837 0.034088
0.301352 0.934773 0.034088
0.439855 0.931860 0.034088
0.545060 0.927428 0.034088
0.626288 0.922275 0.034088
0.692352 0.916972 0.034088
0.749192 0.912479 0.034088
0.801516 0.909134 0.034088
0.849973 0.906416 0.034088
0.896861 0.926211 0.034088
0.945523 0.930711 0.034088
0.948059 0.896480 0.034088
0.021569 0.090617 0.136847
0.035387 0.089611 0.136915
0.115919 0.078370 0.138717
0.172655 0.071450 0.116136
0.235132 0.047873 0.078880
0.295034 0.003558 0.034088
0.354161 0.000000 0.034088
0.401012 0.000000 0.034088
0.462107 0.000000 0.034088
0.527761 0.000000 0.034088
0.593776 0.000000 0.034088
0.656483 0.000000 0.034088
0.718048 0.000000 0.034088
0.779236 0.000000 0.034088
0.837783 0.000000 0.034088
0.894092 0.000000 0.034088
0.019698 0.096258 0.138967
0.027381 0.103386 0.145345
0.094192 0.097486 0.148623
0.162925 0.091464 0.127951
0.228552 0.065657 0.085191
0.288590 0.016457 0.034088
0.348288 0.000000 0.034088
0.400097 0.000000 0.034088
0.463410 0.000000 0.034088
0.530117 0.000000 0.034088
0.594957 0.000000 0.034088
0.657465 0.000000 0.034088
0.720004 0.000000 0.034088
0.781903 0.000000 0.034088
0.842022 0.000000 0.034088
0.899628 0.000000 0.034088
0.006556 0.125153 0.154536
0.009454 0.130278 0.157719
0.067485 0.128535 0.157091
0.139205 0.132150 0.144473
0.211823 0.132588 0.107106
0.284914 0.120447 0.034088
0.350116 0.103623 0.034088
0.419779 0.062315 0.034088
0.477429 0.016012 0.034088
0.544727 0.000000 0.034088
0.609727 0.000000 0.034088
0.672816 0.000000 0.034088
0.734730 0.000000 0.034088
0.796058 0.000000 0.034088
0.855444 0.000000 0.034088
0.912076 0.000000 0.034088
0.000000 0.185843 0.165417
0.000000 0.188035 0.150594
0.031040 0.191597 0.148424
0.132896 0.180827 0.134305
0.227139 0.157991 0.078409
0.294419 0.153432 0.034088
0.360813 0.143396 0.034088
0.431724 0.120645 0.034088
0.495097 0.086002 0.034088
0.560128 0.017909 0.034088
0.625460 0.000000 0.034088
0.688547 0.000000 0.034088
0.750380 0.000000 0.034088
0.810757 0.000000 0.034088
0.869081 0.000000 0.034088
0.924528 0.000000 0.034088
0.000000 0.233498 0.143050
0.000000 0.230062 0.127728
0.000000 0.256846 0.123320
0.107243 0.251752 0.104583
0.233785 0.215566 0.042894
0.317572 0.171694 0.034088
0.388335 0.165455 0.034088
0.459293 0.156144 0.034088
0.523282 0.149328 0.034088
0.585851 0.135765 0.034088
0.648640 0.118239 0.034088
0.709783 0.098182 0.034088
0.770681 0.076983 0.034088
0.829751 0.064625 0.034088
0.886246 0.053272 0.034088
0.940010 0.037610 0.034088
0.000000 0.273044 0.123480
0.000000 0.269892 0.100145
0.000000 0.304411 0.095903
0.077189 0.312368 0.039589
0.235661 0.276585 0.035531
0.322181 0.239300 0.034088
0.412478 0.195735 0.034088
0.494463 0.179565 0.034088
0.569579 0.167410 0.034088
0.635029 0.160799 0.034088
0.693578 0.157969 0.034088
0.749174 0.162258 0.034088
0.804707 0.171008 0.034088
0.856861 0.191371 0.034088
0.908181 0.220619 0.034088
0.948359 0.238911 0.034089
0.000000 0.307690 0.097530
0.000000 0.308771 0.089021
0.000000 0.344870 0.072859
0.062053 0.366403 0.034088
0.229593 0.333902 0.034088
0.334017 0.319723 0.034088
0.421380 0.284506 0.034088
0.517393 0.238831 0.034088
0.607533 0.204933 0.034088
0.677163 0.196386 0.034088
0.734141 0.197843 0.034088
0.786577 0.207285 0.034088
0.839268 0.222650 0.034088
0.889723 0.250805 0.034088
0.938559 0.286426 0.034088
0.963903 0.306832 0.034088
0.000000 0.339928 0.087570
0.000000 0.346556 0.093170
0.000000 0.389975 0.051183
0.068113 0.413086 0.034088
0.238565 0.388492 0.034088
0.347945 0.379274 0.034088
0.434623 0.380307 0.034088
0.532216 0.335276 0.034088
0.621871 0.293671 0.034088
0.696369 0.260192 0.034088
0.763924 0.248061 0.034088
0.816807 0.256272 0.034088
0.865836 0.275843 0.034088
0.914617 0.303634 0.034089
0.963371 0.338744 0.034088
0.978007 0.355206 0.034088
0.000000 0.371889 0.101723
0.000000 0.380373 0.103260
0.000000 0.441416 0.034124
0.088812 0.452333 0.034088
0.250983 0.434996 0.034088
0.354451 0.425815 0.034088
0.461099 0.435094 0.034088
0.542133 0.450723 0.034088
0.630428 0.398710 0.034088
0.707760 0.362403 0.034088
0.771565 0.329130 0.034088
0.832799 0.315924 0.034088
0.887916 0.325414 0.034089
0.935211 0.352114 0.034088
0.976022 0.388082 0.034088
0.976472 0.403651 0.034088
0.000000 0.400396 0.114803
0.000000 0.423183 0.090300
0.000000 0.481224 0.034088
0.117130 0.484927 0.034088
0.263168 0.475181 0.034088
0.364576 0.469947 0.034088
0.466198 0.487886 0.034088
0.554379 0.504062 0.034088
0.626238 0.529968 0.034088
0.706285 0.476754 0.034088
0.778516 0.440067 0.034088
0.837472 0.405254 0.034088
0.895778 0.388670 0.034088
0.951347 0.399710 0.034088
0.975282 0.437077 0.034088
0.974990 0.444885 0.034088
0.000000 0.431115 0.128575
0.000000 0.480652 0.068098
0.000000 0.514094 0.034088
0.123671 0.520372 0.034088
0.268545 0.515010 0.034088
0.370917 0.512124 0.034088
0.465565 0.531630 0.034088
0.560175 0.558038 0.034088
0.626276 0.578544 0.034088
0.693403 0.610800 0.034088
0.770611 0.561175 0.034088
0.835475 0.519142 0.034088
0.897276 0.480822 0.034088
0.954193 0.461849 0.034088
0.973578 0.480562 0.034088
0.973476 0.483009 0.034088
0.000000 0.485922 0.126657
0.000000 0.523150 0.059653
0.000000 0.544385 0.034088
0.136264 0.552659 0.034088
0.276920 0.549988 0.034088
0.379392 0.552666 0.034088
0.472356 0.572590 0.034088
0.560791 0.602210 0.034088
0.638224 0.631004 0.034088
0.690066 0.652559 0.034088
0.750424 0.689073 0.034088
0.823893 0.643622 0.034088
0.890688 0.594134 0.034088
0.952205 0.553176 0.034088
0.969086 0.542266 0.034088
0.970074 0.539596 0.034088
0.000000 0.534387 0.122338
0.000000 0.547171 0.073190
0.000000 0.571440 0.034088
0.154957 0.581571 0.034088
0.289767 0.581921 0.034088
0.390783 0.587517 0.034088
0.481160 0.613508 0.034088
0.562676 0.651264 0.034088
0.634599 0.681673 0.034088
0.700910 0.708530 0.034088
0.745126 0.726312 0.034088
0.801141 0.761328 0.034088
0.875715 0.718071 0.034088
0.950113 0.666867 0.034088
0.957225 0.632339 0.034088
0.958331 0.617709 0.034088
0.000000 0.619094 0.080103
0.000000 0.644007 0.035282
0.000000 0.672541 0.034088
0.056331 0.690800 0.034088
0.255011 0.692201 0.034088
0.374702 0.701108 0.034088
0.469939 0.712367 0.034088
0.557192 0.746113 0.034088
0.630983 0.767722 0.034088
0.692985 0.778305 0.034088
0.751317 0.790186 0.034088
0.793633 0.798749 0.034088
0.850668 0.828199 0.034088
0.931637 0.785812 0.034088
0.958395 0.736903 0.034088
0.958866 0.717118 0.034088
0.000000 0.723989 0.034088
0.000000 0.739294 0.034088
0.000000 0.758549 0.034088
0.005830 0.771352 0.034089
0.205369 0.783310 0.034088
0.337740 0.799881 0.034088
0.448718 0.824864 0.034088
0.545281 0.852420 0.034088
0.624075 0.867218 0.034088
0.690391 0.870248 0.034088
0.747265 0.866949 0.034088
0.799325 0.863516 0.034088
0.840564 0.866234 0.034088
0.900941 0.891238 0.034088
0.951875 0.838571 0.034089
0.953996 0.806147 0.034088
0.000000 0.892647 0.034089
0.000000 0.899841 0.034089
0.000000 0.908656 0.034089
0.000000 0.926130 0.034089
0.009007 0.930296 0.034089
0.281459 0.934550 0.034088
0.422514 0.939312 0.034088
0.531067 0.935768 0.034088
0.617324 0.931758 0.034088
0.686302 0.925246 0.034088
0.745338 0.920391 0.034088
0.799171 0.915663 0.034088
0.850683 0.912258 0.034088
0.894473 0.926624 0.034088
0.945095 0.933857 0.034088
0.947774 0.900811 0.034088
0.008034 0.111512 0.163207
0.024252 0.109345 0.161470
0.081594 0.106796 0.170406
0.191906 0.084198 0.150939
0.251453 0.063190 0.111230
0.320474 0.010671 0.034088
0.382132 0.000000 0.034088
0.446249 0.000000 0.034088
0.505180 0.000000 0.034088
0.556996 0.000000 0.034088
0.619271 0.000000 0.034088
0.677235 0.000000 0.034088
0.734156 0.000000 0.034088
0.790501 0.000000 0.034088
0.846231 0.000000 0.034088
0.900259 0.000000 0.034088
0.006385 0.115539 0.164885
0.013041 0.122563 0.171974
0.068597 0.120041 0.174288
0.182992 0.100484 0.163344
0.245839 0.084663 0.124812
0.322084 0.027226 0.035113
0.383573 0.000000 0.034088
0.450408 0.000000 0.034088
0.513147 0.000000 0.034088
0.561771 0.000000 0.034088
0.622687 0.000000 0.034088
0.679424 0.000000 0.034088
0.734968 0.000000 0.034088
0.791375 0.000000 0.034088
0.847203 0.000000 0.034088
0.901550 0.000000 0.034088
0.000563 0.128844 0.172473
0.000755 0.138186 0.179791
0.046608 0.144738 0.186663
0.155643 0.132272 0.185658
0.234839 0.121302 0.148486
0.317686 0.064838 0.049370
0.385162 0.010735 0.034088
0.455627 0.000000 0.034088
0.524616 0.000000 0.034088
0.569063 0.000000 0.034088
0.625990 0.000000 0.034088
0.680960 0.000000 0.034088
0.736263 0.000000 0.034088
0.792845 0.000000 0.034088
0.850145 0.000000 0.034088
0.906052 0.000000 0.034088
0.000000 0.169127 0.190303
0.000000 0.177442 0.195143
0.006223 0.184404 0.204025
0.111840 0.180089 0.204017
0.207522 0.180133 0.179652
0.296075 0.163878 0.111228
0.375025 0.136047 0.034088
0.447551 0.085474 0.034088
0.521172 0.013104 0.034088
0.578708 0.000000 0.034088
0.631270 0.000000 0.034088
0.689529 0.000000 0.034088
0.749204 0.000000 0.034088
0.809547 0.000000 0.034088
0.868322 0.000000 0.034088
0.924247 0.000000 0.034088
0.000000 0.229907 0.207291
0.000000 0.244296 0.206466
0.000000 0.249842 0.194033
0.047641 0.257312 0.185503
0.215674 0.233056 0.147483
0.313218 0.200372 0.073334
0.385461 0.192282 0.034088
0.456948 0.179941 0.034088
0.529515 0.152754 0.034088
0.598460 0.109715 0.034088
0.661644 0.046084 0.034088
0.705326 0.022854 0.034088
0.763194 0.000000 0.034088
0.824191 0.000000 0.034088
0.883067 0.000000 0.034088
0.938522 0.000000 0.034088
0.000000 0.298781 0.206330
0.000000 0.291488 0.180818
0.000000 0.287313 0.165548
0.000000 0.324168 0.146358
0.191610 0.308639 0.107905
0.320665 0.263322 0.034088
0.412033 0.212866 0.034088
0.490277 0.203390 0.034088
0.563822 0.194959 0.034088
0.629597 0.187815 0.034088
0.681552 0.190962 0.034088
0.735638 0.187060 0.034088
0.784538 0.190025 0.034088
0.842440 0.196204 0.034088
0.899117 0.213309 0.034088
0.947512 0.235956 0.034088
0.000000 0.332055 0.182767
0.000000 0.325827 0.164750
0.000000 0.322105 0.142445
0.000000 0.377807 0.105181
0.181081 0.372566 0.034088
0.331729 0.342894 0.034088
0.417965 0.306797 0.034088
0.515123 0.255793 0.034088
0.599036 0.228444 0.034088
0.660450 0.228965 0.034088
0.718315 0.231919 0.034088
0.771234 0.239353 0.034088
0.822541 0.252970 0.034088
0.872583 0.277013 0.034088
0.921779 0.308385 0.034088
0.954811 0.331509 0.034088
0.000000 0.362242 0.174933
0.000000 0.354780 0.150366
0.000000 0.354618 0.134149
0.000000 0.424192 0.055122
0.192679 0.419805 0.034088
0.329489 0.396200 0.034088
0.433202 0.393672 0.034088
0.525710 0.355658 0.034088
