example_ofxGpuLutCube/bin/data/ofxGpuLutCube/LUT/V34 (80's contrast_2).cube
LUT_3D_SIZE 6
0.036712 0.059442 0.098249
0.143615 0.079073 0.071788
0.315677 0.058847 0.034088
0.512953 0.000000 0.034088
0.716173 0.000000 0.034088
0.899106 0.000000 0.034088
0.000989 0.181420 0.082650
0.150410 0.169756 0.046334
0.360772 0.129336 0.034088
0.561960 0.065598 0.034088
0.760596 0.000000 0.034088
0.930568 0.000000 0.034088
0.000000 0.306192 0.056681
0.140647 0.336599 0.034088
0.413234 0.264254 0.034088
0.671461 0.170093 0.034088
0.851645 0.187198 0.034088
0.975510 0.270431 0.034088
0.000000 0.425510 0.034197
0.182012 0.466190 0.034088
0.469463 0.474048 0.034088
0.705356 0.455303 0.034088
0.892610 0.371120 0.034088
0.975910 0.419841 0.034088
0.000000 0.541163 0.034088
0.204430 0.573811 0.034088
0.490209 0.610190 0.034088
0.700749 0.698333 0.034088
0.877201 0.719053 0.034088
0.959213 0.615051 0.034088
0.000000 0.872123 0.034089
0.000000 0.925523 0.034089
0.455655 0.926181 0.034088
0.693735 0.911491 0.034088
0.850202 0.903421 0.034088
0.948235 0.893805 0.034088
0.008034 0.111512 0.163207
0.191906 0.084198 0.150939
0.382132 0.000000 0.034088
0.556996 0.000000 0.034088
0.734156 0.000000 0.034088
0.900259 0.000000 0.034088
0.000000 0.169127 0.190303
0.111840 0.180089 0.204017
0.375025 0.136047 0.034088
0.578708 0.000000 0.034088
0.749204 0.000000 0.034088
0.924247 0.000000 0.034088
0.000000 0.332055 0.182767
0.000000 0.377807 0.105181
0.417965 0.306797 0.034088
0.660450 0.228965 0.034088
0.822541 0.252970 0.034088
0.954811 0.331509 0.034088
0.000000 0.401156 0.163096
0.009432 0.501307 0.034088
0.455062 0.499875 0.034088
0.702591 0.492841 0.034088
0.891606 0.399529 0.034088
0.974307 0.462517 0.034088
0.000000 0.453733 0.208028
0.057129 0.592171 0.034088
0.467766 0.613310 0.034088
0.698419 0.714696 0.034088
0.876470 0.717699 0.034088
0.957085 0.621529 0.034088
0.000000 0.892131 0.034089
0.000000 0.931501 0.034089
0.401397 0.944864 0.034088
0.678458 0.934763 0.034088
0.850839 0.918981 0.034088
0.947462 0.905561 0.034089
0.000000 0.184221 0.249585
0.094900 0.174450 0.259317
0.460802 0.039379 0.076339
0.661038 0.000000 0.034088
0.818236 0.000000 0.034088
0.952666 0.000000 0.034088
0.000000 0.202296 0.258389
0.000000 0.236916 0.306904
0.447932 0.147793 0.185425
0.665288 0.000000 0.034088
0.821310 0.000000 0.034088
0.952960 0.000000 0.034088
0.000000 0.318246 0.330460
0.000000 0.366522 0.370236
0.313338 0.377727 0.387000
0.650878 0.296437 0.184433
0.830448 0.205451 0.034088
0.975393 0.201627 0.034088
0.000000 0.555431 0.467704
0.000000 0.524474 0.379575
0.275259 0.579467 0.221901
0.685933 0.553587 0.034088
0.872767 0.486837 0.034088
0.985779 0.531485 0.034088
0.000000 0.583398 0.416808
0.000000 0.539529 0.360982
0.343725 0.682864 0.059016
0.675242 0.738207 0.034088
0.870430 0.731175 0.034088
0.972017 0.642368 0.034088
0.000000 0.912947 0.323001
0.000000 0.927960 0.153884
0.017747 0.999969 0.034089
0.627134 0.999929 0.034090
0.846335 0.953381 0.034088
0.957124 0.927700 0.034089
0.000000 0.261509 0.343144
0.000000 0.251634 0.338358
0.387837 0.233074 0.285776
0.719757 0.000000 0.034088
0.848461 0.000000 0.034088
0.953627 0.000000 0.034088
0.000000 0.272212 0.352461
0.000000 0.296809 0.394229
0.348717 0.235618 0.378065
0.717641 0.035059 0.034088
0.850360 0.000000 0.034088
0.955505 0.000000 0.034088
0.000000 0.335022 0.410278
0.000000 0.383229 0.487242
0.146901 0.401708 0.559787
0.688395 0.299347 0.319999
0.861739 0.220980 0.188900
0.974832 0.194646 0.034089
0.000000 0.484877 0.545240
0.000000 0.532493 0.572400
0.000000 0.595280 0.634642
0.607618 0.584637 0.587548
0.846879 0.553099 0.499990
0.999431 0.510846 0.309707
0.000000 0.717028 0.663167
0.000000 0.757546 0.688803
0.000000 0.724135 0.619376
0.586597 0.768498 0.447851
0.881817 0.782372 0.063164
0.999969 0.718924 0.034089
0.000001 0.956825 0.712225
0.000000 0.967772 0.591239
0.000000 0.988099 0.506119
0.453877 0.999969 0.078412
0.821447 0.999821 0.049621
0.978018 0.958981 0.034088
0.000000 0.332117 0.453655
0.000000 0.328838 0.431101
0.278294 0.311753 0.427249
0.675485 0.216597 0.122489
0.890052 0.000000 0.034088
0.967758 0.000000 0.034088
0.000000 0.342568 0.476802
0.000000 0.358025 0.515395
0.171496 0.334247 0.499033
0.640969 0.275832 0.327347
0.892230 0.002747 0.179996
0.969842 0.088770 0.269021
0.000000 0.393232 0.534340
0.000000 0.427657 0.574354
0.000000 0.437002 0.639938
0.607319 0.304647 0.607939
0.887937 0.216655 0.505375
0.974513 0.294844 0.515371
0.000000 0.488284 0.619452
0.000000 0.539140 0.671479
0.000000 0.571191 0.720830
0.467714 0.566910 0.768221
0.870932 0.487352 0.665295
0.968816 0.532916 0.638584
0.000000 0.651934 0.739043
0.000000 0.685877 0.757865
0.000000 0.729751 0.797236
0.257409 0.780502 0.834503
0.814591 0.779838 0.743861
0.977107 0.754598 0.692822
0.000000 0.853733 0.864257
0.000000 0.911875 0.875210
0.000000 0.976328 0.887765
0.000000 0.999955 0.782436
0.747012 0.999969 0.604756
0.978590 0.970392 0.567344
0.000000 0.422961 0.579244
0.000000 0.421598 0.558001
0.131385 0.412285 0.529795
0.618221 0.351776 0.534254
0.858176 0.231482 0.533200
0.999957 0.109507 0.631379
0.000000 0.431141 0.606728
0.000000 0.440914 0.630125
0.000000 0.430554 0.605133
0.556635 0.301243 0.642879
0.869335 0.117961 0.610404
0.999969 0.032342 0.687425
0.000000 0.463941 0.640552
0.000000 0.486281 0.678124
0.000000 0.498573 0.737765
0.341554 0.379036 0.771397
0.836111 0.166693 0.770865
0.999969 0.181347 0.769520
0.000000 0.549394 0.734448
0.000000 0.590671 0.779889
0.000000 0.601959 0.804341
0.214732 0.588696 0.887978
0.767409 0.467348 0.847612
0.999969 0.427441 0.827713
0.000000 0.647510 0.822964
0.000000 0.683942 0.854561
0.000000 0.703078 0.873761
0.000183 0.716396 0.911138
0.751782 0.741644 0.875314
0.985020 0.681084 0.856695
0.000000 0.783616 0.913088
0.000000 0.820017 0.929744
0.000000 0.854309 0.943954
0.000000 0.892720 0.962870
0.638528 0.925658 0.934591
0.953397 0.956159 0.868230
