example_ofxGpuLutCube/bin/data/ofxGpuLutCube/LUT/V36 (hard faded).cube
LUT_3D_SIZE 6
0.003922 0.007843 0.003922
0.046274 0.021176 0.000000
0.184314 0.038432 0.000000
0.446275 0.073725 0.000000
0.565490 0.112157 0.000000
0.603883 0.129412 0.015686
0.000000 0.046274 0.023529
0.052392 0.057255 0.016471
0.241255 0.092235 0.000000
0.542745 0.156078 0.000000
0.648784 0.184314 0.000000
0.690941 0.211726 0.000118
0.000000 0.165490 0.067451
0.001882 0.182745 0.011294
0.323451 0.269177 0.000000
0.661177 0.352941 0.015686
0.768628 0.374118 0.031373
0.799953 0.406196 0.000000
0.024314 0.405490 0.203137
0.000000 0.445490 0.127843
0.419765 0.573490 0.000000
0.797647 0.668079 0.003765
0.898039 0.674981 0.012235
0.920745 0.697216 0.037749
0.000000 0.488628 0.237647
0.039529 0.549804 0.153098
0.467451 0.686275 0.006274
0.848627 0.799686 0.061177
0.948235 0.806118 0.084706
0.963137 0.808628 0.084683
0.000000 0.568470 0.254863
0.039216 0.614000 0.002377
0.548039 0.733255 0.000000
0.861137 0.820353 0.065090
0.961569 0.829781 0.096447
0.980392 0.831373 0.098039
0.000000 0.019608 0.047843
0.046274 0.023529 0.051765
0.184314 0.017725 0.030431
0.450980 0.000000 0.009412
0.584157 0.000000 0.012549
0.623490 0.002353 0.014118
0.000000 0.057255 0.065726
0.042040 0.065098 0.065349
0.241569 0.086588 0.040031
0.549584 0.058635 0.003765
0.675294 0.049506 0.000000
0.711945 0.096314 0.003765
0.000000 0.201255 0.130667
0.000000 0.207498 0.099168
0.321255 0.273506 0.021302
0.680847 0.330980 0.000000
0.797522 0.347608 0.000000
0.834130 0.387843 0.007529
0.003137 0.443137 0.264628
0.000000 0.491106 0.229804
0.375530 0.574651 0.000000
0.811765 0.680722 0.015843
0.922165 0.691263 0.021490
0.948201 0.714924 0.028530
0.031372 0.519216 0.319216
0.033161 0.590682 0.284706
0.384471 0.687059 0.003765
0.852361 0.810228 0.028423
0.972800 0.823529 0.075294
0.989765 0.828383 0.075294
0.000000 0.624118 0.437490
0.000000 0.675137 0.364265
0.453283 0.759843 0.263669
0.852844 0.844628 0.193368
0.999984 0.870681 0.168979
1.000000 0.871318 0.295161
0.000000 0.074510 0.189019
0.015373 0.009412 0.185412
0.189961 0.000000 0.206431
0.469020 0.000000 0.228235
0.600000 0.000000 0.247059
0.642274 0.000000 0.262737
0.000000 0.149020 0.258039
0.001694 0.105662 0.251796
0.247686 0.090823 0.266981
0.562134 0.017255 0.277647
0.693898 0.000000 0.283137
0.732963 0.020078 0.304764
0.010667 0.315765 0.375686
0.000377 0.311718 0.369036
0.296314 0.309616 0.338855
0.686902 0.342902 0.343530
0.821867 0.337569 0.341961
0.861922 0.389856 0.365616
0.003137 0.527059 0.483922
0.012925 0.578039 0.490667
0.253177 0.623655 0.390244
0.802353 0.713349 0.375812
0.963451 0.728628 0.365271
0.991209 0.759151 0.384273
0.000000 0.606275 0.546667
0.014118 0.670808 0.557333
0.148079 0.745098 0.452549
0.829239 0.857913 0.441004
0.998431 0.886306 0.426071
1.000000 0.888615 0.457980
0.000000 0.695490 0.649247
0.000000 0.746218 0.638000
0.346720 0.810085 0.586464
0.821931 0.897967 0.588908
0.994055 0.923882 0.581726
1.000000 0.927796 0.598157
0.000000 0.193726 0.380392
0.012549 0.140392 0.392157
0.207843 0.000000 0.407843
0.494118 0.000000 0.449412
0.629020 0.000000 0.464785
0.667412 0.000000 0.483913
0.000000 0.271372 0.472157
0.000000 0.260424 0.494933
0.251922 0.037333 0.510275
0.577914 0.012549 0.540863
0.711686 0.000000 0.551153
0.752091 0.020392 0.577507
0.000000 0.404706 0.578039
0.000000 0.411765 0.603545
0.252047 0.344188 0.625725
0.687059 0.375059 0.658196
0.830212 0.374369 0.664722
0.869897 0.426549 0.683098
0.043451 0.594353 0.682196
0.006023 0.646651 0.718588
0.109804 0.690071 0.724047
0.776471 0.771420 0.747451
0.948298 0.787200 0.747451
0.978785 0.814073 0.759202
0.030745 0.665882 0.729726
0.011294 0.735498 0.769569
0.097255 0.814902 0.780393
0.790839 0.917396 0.794102
0.981490 0.944659 0.793725
1.000000 0.951372 0.801064
0.000000 0.729263 0.787334
0.000000 0.792039 0.820314
0.147451 0.855765 0.831271
0.789773 0.940981 0.852441
0.977258 0.972057 0.853250
1.000000 0.977224 0.857184
0.000000 0.233726 0.463530
0.004706 0.232941 0.488628
0.220706 0.000000 0.518432
0.512157 0.000000 0.565490
0.648627 0.000000 0.582902
0.686236 0.000000 0.599216
0.000000 0.312157 0.556078
0.000000 0.308800 0.585882
0.253961 0.021961 0.640000
0.590087 0.000000 0.684424
0.727247 0.000000 0.695875
0.765451 0.018824 0.720108
0.000000 0.432941 0.650981
0.000000 0.442353 0.688628
0.210886 0.358745 0.769004
0.680314 0.383529 0.811765
0.832157 0.382243 0.820988
0.873194 0.441140 0.842314
0.039059 0.613020 0.753255
0.000000 0.657224 0.792157
0.107545 0.717961 0.865663
0.757584 0.793600 0.917898
0.938824 0.808816 0.924706
0.972215 0.836789 0.932518
0.004392 0.680784 0.792941
0.026823 0.746290 0.839216
0.044047 0.837333 0.905883
0.763137 0.940267 0.951059
0.968408 0.971953 0.958996
1.000000 0.979599 0.960785
0.000094 0.737137 0.833647
0.039324 0.802088 0.879922
0.128627 0.875215 0.932486
0.765948 0.959213 0.962350
0.966281 0.991520 0.972687
1.000000 0.998384 0.973318
0.000000 0.278313 0.529216
0.000000 0.268118 0.546549
0.237608 0.000000 0.593568
0.545020 0.000000 0.643733
0.683059 0.000000 0.658667
0.721451 0.000000 0.682079
0.000000 0.345843 0.599137
0.000000 0.345608 0.630809
0.254745 0.122298 0.701843
0.609041 0.056220 0.750466
0.752863 0.026667 0.763020
0.792823 0.086513 0.784941
0.000000 0.453255 0.677577
0.000000 0.465203 0.712429
0.179757 0.391418 0.809994
0.685327 0.423443 0.859537
0.843098 0.423409 0.870984
0.883020 0.474236 0.886972
0.029011 0.620392 0.771765
0.009388 0.663840 0.810973
0.047105 0.722321 0.892355
0.744633 0.797779 0.955261
0.934591 0.815655 0.964993
0.970173 0.839930 0.970196
0.000000 0.684706 0.806251
0.038927 0.750579 0.853481
0.000165 0.837666 0.925944
0.748290 0.944003 0.981161
0.963315 0.974745 0.994480
0.999961 0.983506 0.996062
0.000000 0.741020 0.843059
0.055290 0.801444 0.889318
0.116079 0.875247 0.951286
0.752910 0.962353 0.988173
0.960816 0.994510 0.999945
1.000000 1.000000 1.000000
