example_ofxGpuLutCube/bin/data/ofxGpuLutCube/LUT/V36 (hard faded).cube
LUT_3D_SIZE 16
0.003922 0.007843 0.003922
0.016209 0.011765 0.007843
0.025621 0.015686 0.006797
0.046274 0.021176 0.000000
0.071111 0.025621 0.000000
0.112419 0.033987 0.000000
0.184314 0.038432 0.000000
0.271634 0.042876 0.000000
0.363660 0.051503 0.000000
0.446275 0.073725 0.000000
0.505882 0.086275 0.000000
0.544575 0.099608 0.000000
0.565490 0.112157 0.000000
0.582223 0.120523 0.000000
0.595555 0.128889 0.014640
0.603883 0.129412 0.015686
0.000000 0.020131 0.012288
0.016209 0.020201 0.012288
0.029542 0.024191 0.012288
0.048366 0.029543 0.008628
0.079233 0.034510 0.000000
0.123747 0.042527 0.000000
0.197543 0.047320 0.000000
0.296209 0.056174 0.000000
0.397124 0.076863 0.000000
0.475817 0.096994 0.000000
0.534117 0.115817 0.001569
0.568087 0.117908 0.000000
0.590588 0.122092 0.000000
0.607320 0.130074 0.000000
0.616732 0.134902 0.000000
0.625058 0.138824 0.000000
0.000000 0.032419 0.019608
0.010859 0.033464 0.019608
0.028775 0.034510 0.018841
0.052183 0.040680 0.012549
0.086013 0.047320 0.000000
0.136383 0.055686 0.000000
0.218666 0.065725 0.000000
0.322353 0.082022 0.000000
0.426928 0.101961 0.000000
0.509281 0.125438 0.000000
0.565665 0.148235 0.015773
0.597908 0.151373 0.006832
0.616732 0.154510 0.000000
0.633464 0.161046 0.004183
0.646797 0.165490 0.003137
0.655124 0.166013 0.000000
0.000000 0.046274 0.023529
0.000627 0.050196 0.023529
0.018876 0.052392 0.022483
0.052392 0.057255 0.016471
0.090562 0.066457 0.000000
0.148758 0.078170 0.000000
0.241255 0.092235 0.000000
0.355555 0.114562 0.000000
0.461856 0.135425 0.000000
0.542745 0.156078 0.000000
0.600784 0.175425 0.004706
0.632209 0.183582 0.000000
0.648784 0.184314 0.000000
0.668654 0.198693 0.024418
0.682091 0.205961 0.024575
0.690941 0.211726 0.000118
0.000000 0.069020 0.029543
0.000000 0.071634 0.029020
0.002440 0.076079 0.022414
0.040785 0.084444 0.013961
0.094187 0.096017 0.000000
0.163747 0.111198 0.000000
0.265882 0.131765 0.000000
0.388758 0.160523 0.000000
0.499730 0.187852 0.000000
0.579346 0.207059 0.000000
0.633290 0.221699 0.012811
0.666667 0.225429 0.007390
0.687582 0.231582 0.010458
0.700392 0.237124 0.008366
0.709804 0.247320 0.015686
0.718131 0.253857 0.008484
0.000000 0.105882 0.040523
0.000000 0.110153 0.040000
0.000000 0.114771 0.028148
0.010980 0.123137 0.000784
0.088976 0.138910 0.000000
0.178649 0.161220 0.000000
0.294641 0.189281 0.000000
0.421003 0.221263 0.000000
0.537778 0.249325 0.000000
0.619346 0.271373 0.005229
0.673638 0.279739 0.002615
0.704837 0.286274 0.012549
0.723660 0.294902 0.031373
0.737516 0.301264 0.033377
0.745882 0.305882 0.002091
0.754209 0.321490 0.024654
0.000000 0.165490 0.067451
0.000000 0.169935 0.063007
0.000000 0.177516 0.051556
0.001882 0.182745 0.011294
0.069752 0.200889 0.000000
0.191895 0.232157 0.000000
0.323451 0.269177 0.000000
0.462483 0.307190 0.000000
0.579608 0.336209 0.000000
0.661177 0.352941 0.015686
0.716340 0.361046 0.005229
0.750170 0.368000 0.010457
0.768628 0.374118 0.031373
0.779347 0.382484 0.019294
0.787713 0.390850 0.002091
0.799953 0.406196 0.000000
0.000000 0.248104 0.112156
0.000000 0.253298 0.107225
0.000000 0.264767 0.091381
0.000000 0.269281 0.050092
0.037786 0.283922 0.000000
0.203312 0.324880 0.000000
0.359530 0.372078 0.000000
0.507730 0.414658 0.000000
0.629002 0.447599 0.007320
0.710379 0.459869 0.004183
0.763137 0.463094 0.010457
0.792418 0.465238 0.000000
0.811242 0.469804 0.026301
0.821176 0.478170 0.011433
0.836636 0.493595 0.014640
0.845451 0.510249 0.010981
0.000000 0.335947 0.162353
0.000000 0.345098 0.157647
0.000000 0.356863 0.142484
0.000000 0.365229 0.084810
0.039739 0.378039 0.001830
0.213333 0.425273 0.000000
0.392209 0.480994 0.000000
0.553203 0.531242 0.000000
0.675032 0.560785 0.004427
0.760523 0.572810 0.006065
0.811765 0.575948 0.008104
0.840383 0.575948 0.008627
0.855059 0.578301 0.011190
0.867190 0.582815 0.012933
0.878727 0.598204 0.034893
0.887543 0.610938 0.011030
0.024314 0.405490 0.203137
0.002614 0.418824 0.198431
0.021385 0.436392 0.187399
0.000000 0.445490 0.127843
0.043922 0.459869 0.001830
0.227713 0.510327 0.000000
0.419765 0.573490 0.000000
0.582693 0.625883 0.000000
0.712418 0.659346 0.004445
0.797647 0.668079 0.003765
0.849151 0.670850 0.015948
0.881673 0.674510 0.024313
0.898039 0.674981 0.012235
0.907974 0.681307 0.022902
0.915660 0.688471 0.037124
0.920745 0.697216 0.037749
0.015686 0.447059 0.220915
0.000000 0.465098 0.217255
0.018998 0.481830 0.206710
0.020392 0.497516 0.150065
0.043922 0.515730 0.003660
0.240959 0.568627 0.000000
0.440262 0.633464 0.006274
0.603312 0.688715 0.004445
0.737952 0.726100 0.020131
0.822484 0.735425 0.038693
0.877124 0.739869 0.045752
0.907451 0.742483 0.053595
0.924967 0.742483 0.050458
0.932985 0.746057 0.058998
0.939521 0.750152 0.065185
0.943765 0.756824 0.073124
0.000000 0.472157 0.231111
0.032401 0.493333 0.228758
0.023530 0.512906 0.213333
0.010458 0.527843 0.159739
0.048104 0.551111 0.023791
0.255948 0.604706 0.000000
0.454223 0.667033 0.000000
0.616854 0.721569 0.013455
0.750449 0.763260 0.028235
0.839843 0.780235 0.055163
0.892549 0.782397 0.072331
0.922876 0.783791 0.077194
0.939869 0.783791 0.078170
0.949804 0.786667 0.083137
0.952436 0.787713 0.076810
0.954771 0.789783 0.078431
0.000000 0.488628 0.237647
0.008052 0.511634 0.230327
0.015163 0.527477 0.210196
0.039529 0.549804 0.153098
0.054379 0.574118 0.012340
0.275294 0.626406 0.000000
0.467451 0.686275 0.006274
0.625360 0.740392 0.005229
0.758693 0.781961 0.029647
0.848627 0.799686 0.061177
0.900654 0.804706 0.078693
0.932079 0.804706 0.084706
0.948235 0.806118 0.084706
0.958170 0.808628 0.091503
0.962614 0.808628 0.081516
0.963137 0.808628 0.084683
0.000000 0.503791 0.246013
0.035677 0.530858 0.236079
0.007320 0.546144 0.203172
0.051765 0.568104 0.143268
0.061995 0.588758 0.002318
0.296209 0.643660 0.000000
0.480261 0.699921 0.000000
0.633726 0.750519 0.002091
0.763207 0.791895 0.025167
0.852497 0.810667 0.061177
0.904575 0.814640 0.077124
0.934902 0.814640 0.084183
0.953726 0.818562 0.091922
0.962614 0.818562 0.090963
0.967199 0.818562 0.093212
0.971475 0.821409 0.093072
0.000000 0.535164 0.250457
0.002684 0.549543 0.218039
0.000000 0.571643 0.157508
0.027399 0.587974 0.015582
0.161795 0.618545 0.000244
0.351547 0.665098 0.000000
0.512680 0.718536 0.000000
0.653334 0.762614 0.014640
0.771504 0.796602 0.041220
0.856732 0.815948 0.063895
0.907974 0.819085 0.079390
0.940410 0.823006 0.089691
0.959006 0.825568 0.093909
0.967199 0.826928 0.091242
0.972479 0.826928 0.094118
0.975948 0.826928 0.097482
0.000000 0.568470 0.254863
0.000000 0.581281 0.198772
0.000000 0.598052 0.110050
0.039216 0.614000 0.002377
0.249221 0.649517 0.000000
0.404980 0.691372 0.000000
0.548039 0.733255 0.000000
0.674653 0.775347 0.007320
0.779569 0.804667 0.036413
0.861137 0.820353 0.065090
0.911085 0.823503 0.081033
0.942724 0.827430 0.092005
0.961569 0.829781 0.096447
0.971503 0.831334 0.094089
0.976466 0.831334 0.094118
0.980392 0.831373 0.098039
0.003922 0.011765 0.016209
0.015756 0.012741 0.016209
0.029542 0.016732 0.016732
0.047843 0.021490 0.015163
0.073447 0.029543 0.006798
0.116340 0.034945 0.000349
0.184314 0.033516 0.000000
0.271634 0.036148 0.000000
0.368070 0.047616 0.000000
0.449516 0.057883 0.000000
0.509978 0.073203 0.000000
0.549019 0.096227 0.000000
0.573856 0.109542 0.000000
0.590588 0.121307 0.016331
0.600000 0.126275 0.028305
0.608327 0.126798 0.029281
0.000000 0.020201 0.020201
0.015303 0.021509 0.020654
0.029542 0.025481 0.020654
0.051765 0.029884 0.018994
0.079756 0.037909 0.009118
0.127367 0.042225 0.000349
0.201373 0.046107 0.000000
0.296963 0.051242 0.000000
0.397129 0.068845 0.000000
0.480171 0.091834 0.000000
0.538516 0.098672 0.000000
0.574396 0.110902 0.000000
0.597386 0.119547 0.000906
0.612811 0.127581 0.000453
0.625098 0.132357 0.000000
0.632977 0.138092 0.001360
0.000000 0.033464 0.025098
0.007492 0.034440 0.025149
0.028290 0.038190 0.025137
0.053333 0.042876 0.022776
0.086013 0.048802 0.012828
0.138998 0.055431 0.000395
0.221044 0.063589 0.000000
0.329280 0.076218 0.000000
0.432017 0.097194 0.000000
0.514632 0.118571 0.000000
0.572235 0.136238 0.001208
0.605229 0.144475 0.000000
0.624052 0.152614 0.013041
0.638573 0.157383 0.010436
0.651102 0.163729 0.004724
0.659429 0.164722 0.002998
0.000000 0.050405 0.029856
0.000586 0.052351 0.029675
0.018416 0.054829 0.028183
0.052392 0.061177 0.023216
0.091817 0.066869 0.013072
0.150327 0.078065 0.000453
0.244706 0.090730 0.000000
0.359373 0.110222 0.000000
0.468236 0.130646 0.000000
0.551006 0.153004 0.000000
0.608052 0.172567 0.004201
0.637908 0.181964 0.003291
0.653417 0.183143 0.000000
0.669020 0.189598 0.000000
0.686181 0.205752 0.033175
0.695072 0.209336 0.023844
0.000000 0.075312 0.037909
0.000000 0.076009 0.034473
0.002375 0.080205 0.031194
0.039948 0.085692 0.022606
0.093211 0.097107 0.007728
0.163747 0.111291 0.000163
0.267333 0.131570 0.000000
0.388758 0.154786 0.000000
0.503791 0.182762 0.000000
0.585882 0.201569 0.000000
0.639651 0.213397 0.005438
0.673203 0.222580 0.001115
0.692026 0.228723 0.000000
0.705320 0.234545 0.001115
0.716061 0.248577 0.026368
0.726481 0.253589 0.010365
0.000000 0.114249 0.049760
0.000000 0.115050 0.048738
0.000000 0.119169 0.038919
0.010701 0.127407 0.020078
0.088569 0.142832 0.000488
0.178649 0.164270 0.000000
0.296209 0.189351 0.000000
0.424836 0.218551 0.000000
0.542048 0.247495 0.000000
0.626667 0.268061 0.002266
0.679709 0.280813 0.008715
0.712924 0.286274 0.008203
0.729464 0.288697 0.000000
0.741961 0.297598 0.015337
0.754202 0.308607 0.007512
0.762576 0.317462 0.002134
0.000000 0.174274 0.079477
0.000000 0.178559 0.072314
0.000000 0.183024 0.060741
0.001799 0.189344 0.027702
0.065872 0.205110 0.000049
0.193586 0.236113 0.000000
0.328000 0.273099 0.000000
0.466405 0.307092 0.000000
0.584234 0.339085 0.008157
0.669543 0.354583 0.011294
0.724636 0.364968 0.003033
0.755033 0.367843 0.002043
0.773386 0.373020 0.013595
0.783791 0.382379 0.029543
0.795611 0.393932 0.011246
0.804405 0.407426 0.001673
0.000000 0.257220 0.124967
0.000000 0.265098 0.119351
0.000000 0.269639 0.098554
0.000000 0.276117 0.058213
0.035295 0.288299 0.000911
0.199140 0.326525 0.000000
0.359094 0.372730 0.000000
0.511407 0.418318 0.000000
0.633464 0.448072 0.008070
0.715085 0.463826 0.013002
0.770196 0.468735 0.007843
0.800750 0.469419 0.000139
0.815882 0.474057 0.027050
0.828497 0.481830 0.022292
0.841569 0.497290 0.027996
0.849895 0.510772 0.004859
0.002614 0.348758 0.179120
0.015839 0.361700 0.177651
0.000000 0.369795 0.156175
0.000000 0.376697 0.103843
0.034161 0.386281 0.004043
0.202701 0.429020 0.000000
0.388027 0.483922 0.000000
0.553168 0.531991 0.000000
0.679477 0.564773 0.000488
0.764967 0.577255 0.024342
0.817691 0.580392 0.000924
0.848749 0.582084 0.000121
0.863268 0.582850 0.008784
0.874510 0.590598 0.011957
0.886833 0.602649 0.034179
0.895647 0.618521 0.006921
0.002091 0.413595 0.214379
0.012605 0.430417 0.210614
0.000000 0.446386 0.198641
0.000000 0.456722 0.153830
0.035974 0.470086 0.028831
0.211712 0.514248 0.000000
0.415843 0.575101 0.000000
0.585666 0.629804 0.003172
0.716828 0.663401 0.000777
0.802771 0.675399 0.023634
0.856976 0.678536 0.029142
0.887582 0.678536 0.020601
0.903843 0.681328 0.032262
0.912418 0.685626 0.024052
0.920694 0.692553 0.037215
0.927913 0.701660 0.037754
0.003137 0.453333 0.231111
0.026800 0.473487 0.229612
0.020909 0.491759 0.215907
0.000000 0.505639 0.175390
0.037787 0.526606 0.071123
0.223675 0.571097 0.000174
0.438850 0.636863 0.000000
0.607198 0.692950 0.000976
0.739671 0.728889 0.022483
0.826684 0.739835 0.039547
0.880697 0.745650 0.056006
0.911896 0.746405 0.057516
0.929865 0.748287 0.062431
0.939346 0.750803 0.066498
0.943966 0.754446 0.065360
0.948209 0.761096 0.073124
0.002091 0.480523 0.242336
0.010495 0.498057 0.236098
0.016174 0.520179 0.221961
0.026391 0.534640 0.171507
0.040575 0.556628 0.053211
0.235817 0.606797 0.000093
0.450876 0.670588 0.002719
0.620619 0.725769 0.011573
0.751076 0.763748 0.030083
0.842315 0.780925 0.058301
0.896564 0.784314 0.074336
0.927320 0.786867 0.078449
0.944948 0.787880 0.080261
0.953970 0.789565 0.084266
0.958451 0.791664 0.078708
0.960786 0.794225 0.078431
0.000000 0.495425 0.250667
0.000279 0.516601 0.242342
0.001534 0.540235 0.226283
0.010311 0.553464 0.170196
0.045595 0.576191 0.040436
0.252497 0.626406 0.000000
0.459660 0.689412 0.000000
0.624750 0.742410 0.003033
0.758798 0.782282 0.029647
0.849882 0.801569 0.063059
0.903216 0.805229 0.078832
0.935216 0.808628 0.086421
0.952492 0.808816 0.087812
0.962301 0.810646 0.091399
0.964839 0.812368 0.085257
0.967582 0.812756 0.084706
0.000000 0.508375 0.259347
0.033760 0.536732 0.249621
0.002896 0.551495 0.221435
0.002928 0.570196 0.151948
0.053682 0.592319 0.011342
0.278954 0.643660 0.000000
0.471889 0.702404 0.010876
0.631931 0.753403 0.019957
0.762840 0.792157 0.030728
0.852608 0.811531 0.061288
0.905098 0.815163 0.078077
0.939272 0.818806 0.084946
0.957487 0.820580 0.093807
0.967059 0.822242 0.093839
0.971643 0.822816 0.093562
0.973062 0.823006 0.096062
0.048558 0.543983 0.283399
0.003077 0.568244 0.255111
0.000000 0.580776 0.211293
0.000181 0.592523 0.100357
0.068898 0.619037 0.003172
0.317281 0.665272 0.000000
0.491137 0.715817 0.000000
0.641207 0.762776 0.002091
0.767094 0.800262 0.026013
0.856983 0.817513 0.060664
0.909020 0.823529 0.081046
0.944854 0.827451 0.092026
0.965490 0.829804 0.097649
0.975425 0.831373 0.094257
0.980332 0.831373 0.097979
0.984280 0.831373 0.098038
0.037203 0.581276 0.304986
0.048774 0.604916 0.266972
0.002297 0.608079 0.177364
0.013595 0.621318 0.014668
0.141600 0.650284 0.007253
0.360052 0.691908 0.002092
0.517647 0.733773 0.000000
0.653708 0.771979 0.000000
0.771504 0.804675 0.000016
0.858561 0.824804 0.041757
0.913981 0.829613 0.076162
0.950063 0.833968 0.088104
0.970960 0.836301 0.092287
0.980910 0.836335 0.089792
0.988719 0.840223 0.092735
0.992607 0.840223 0.107189
0.000000 0.015686 0.029542
0.010859 0.015825 0.029542
0.028775 0.019608 0.029542
0.047843 0.023529 0.029542
0.075033 0.029543 0.026475
0.117298 0.032331 0.014292
0.185098 0.018823 0.000837
0.271634 0.000000 0.000000
0.367774 0.000192 0.000000
0.454118 0.024261 0.000000
0.513725 0.016645 0.000000
0.553464 0.032941 0.000000
0.580026 0.058039 0.000000
0.597909 0.067974 0.000000
0.608366 0.075294 0.000000
0.616693 0.075817 0.000000
0.000000 0.024191 0.033464
0.010315 0.024696 0.033464
0.029440 0.028113 0.033502
0.051765 0.032105 0.032551
0.081020 0.037974 0.028571
0.127669 0.040262 0.016296
0.201771 0.032426 0.000837
0.296828 0.025023 0.000000
0.397150 0.022945 0.000000
0.483660 0.037919 0.000000
0.544221 0.070466 0.000000
0.581577 0.088627 0.000000
0.603712 0.075852 0.000000
0.620131 0.076689 0.000000
0.633343 0.080227 0.000000
0.638426 0.113533 0.019124
0.000000 0.034510 0.037664
0.001150 0.037525 0.037664
0.024291 0.041307 0.037664
0.052859 0.045340 0.036821
0.085883 0.051242 0.032418
0.138998 0.054815 0.016831
0.223997 0.057272 0.000892
0.328820 0.056118 0.000000
0.431547 0.066964 0.000000
0.517124 0.083570 0.000000
0.577429 0.109479 0.000000
0.612061 0.108915 0.000000
0.632530 0.109264 0.000000
0.646275 0.114754 0.000000
0.658804 0.122199 0.003067
0.667168 0.125287 0.001534
0.000000 0.052811 0.042876
0.000230 0.055686 0.042723
0.010235 0.058764 0.041726
0.050405 0.063258 0.041035
0.091817 0.069766 0.034806
0.150327 0.079094 0.019974
0.243786 0.087916 0.001046
0.358327 0.097854 0.000000
0.467608 0.111477 0.000000
0.554039 0.127163 0.000000
0.610893 0.148706 0.000000
0.644720 0.153502 0.000000
0.663007 0.150798 0.000000
0.677706 0.156803 0.000000
0.688920 0.181748 0.028727
0.697895 0.186841 0.015294
0.000000 0.080000 0.051799
0.000000 0.080384 0.050178
0.001692 0.084331 0.047320
0.037846 0.090025 0.042074
0.092951 0.100427 0.033468
0.163747 0.113203 0.015808
0.265380 0.129464 0.001046
0.387712 0.148666 0.000000
0.503335 0.165057 0.000000
0.590065 0.178335 0.000000
0.647692 0.197159 0.000000
0.681569 0.206955 0.006135
0.700615 0.207982 0.000000
0.714118 0.217317 0.006135
0.725752 0.232505 0.018963
0.735420 0.238531 0.006292
0.000000 0.121307 0.065882
0.000000 0.123567 0.065104
0.000000 0.125484 0.057534
0.007634 0.131102 0.041656
0.083765 0.146243 0.026179
0.179927 0.166129 0.004067
0.295164 0.189142 0.000488
0.423617 0.213467 0.000000
0.544401 0.237996 0.000000
0.632262 0.255338 0.000000
0.688308 0.267829 0.007669
0.719715 0.277932 0.020270
0.737516 0.280471 0.006553
0.750513 0.290004 0.021856
0.763138 0.300218 0.009760
0.771987 0.313502 0.027056
0.000000 0.186981 0.097255
0.000000 0.190438 0.093856
0.000000 0.193816 0.082995
0.000920 0.195974 0.050447
0.058011 0.209331 0.011319
0.191163 0.237978 0.001464
0.326369 0.272262 0.000042
0.465360 0.304436 0.000000
0.587712 0.330248 0.000000
0.677072 0.350693 0.009202
0.732689 0.360749 0.007529
0.763399 0.366268 0.026921
0.781647 0.369516 0.005124
0.792980 0.379413 0.026820
0.804967 0.392028 0.019280
0.812980 0.408654 0.029856
0.000000 0.273464 0.147381
0.000000 0.279504 0.141168
0.000000 0.286205 0.124303
0.000000 0.287355 0.080795
0.028593 0.294416 0.011336
0.188067 0.330045 0.000070
0.354092 0.375219 0.000000
0.510362 0.417277 0.000000
0.636863 0.446727 0.000000
0.720471 0.463460 0.003904
0.778562 0.471169 0.015338
0.808959 0.471460 0.012569
0.825098 0.475548 0.016328
0.837142 0.482546 0.027242
0.849028 0.496732 0.016523
0.858331 0.514100 0.020580
0.015756 0.364444 0.200784
0.004592 0.374571 0.193656
0.000000 0.386424 0.180967
0.000000 0.389124 0.130206
0.018405 0.396474 0.040384
0.175948 0.429432 0.000000
0.378144 0.484114 0.000000
0.547974 0.534200 0.000000
0.682958 0.565229 0.000000
0.770001 0.581891 0.015895
0.824662 0.585923 0.002789
0.857116 0.587745 0.003137
0.871634 0.590093 0.008784
0.883870 0.594840 0.014048
0.895268 0.607260 0.033656
0.901356 0.622478 0.011074
0.032993 0.429281 0.233778
0.000000 0.443137 0.228758
0.000000 0.459256 0.218580
0.000000 0.469752 0.178280
0.016871 0.480878 0.078696
0.170632 0.515556 0.000349
0.404340 0.576743 0.000000
0.581159 0.632680 0.000000
0.720067 0.667242 0.000000
0.807613 0.680722 0.023059
0.862466 0.683399 0.030867
0.893936 0.683399 0.021881
0.910850 0.686400 0.019953
0.920784 0.690963 0.026140
0.928652 0.698381 0.039373
0.934415 0.709167 0.039395
0.039477 0.469020 0.252811
0.000720 0.483306 0.245490
0.002301 0.503814 0.235312
0.000000 0.517072 0.200819
0.018405 0.536500 0.106556
0.172927 0.572985 0.001307
0.423303 0.636967 0.000000
0.603329 0.694466 0.005368
0.742048 0.733031 0.017255
0.830118 0.746719 0.037909
0.887059 0.750501 0.061002
0.918954 0.751372 0.060479
0.936209 0.752523 0.058911
0.945098 0.756607 0.066579
0.952157 0.760831 0.067759
0.956565 0.767620 0.077046
0.041011 0.490981 0.264837
0.000483 0.508723 0.260392
0.000000 0.531521 0.248173
0.000000 0.544903 0.207059
0.013804 0.565943 0.103215
0.166885 0.606100 0.000860
0.430797 0.670379 0.000000
0.613024 0.728366 0.000000
0.752020 0.767091 0.022625
0.843876 0.785231 0.058301
0.901624 0.789903 0.075033
0.933856 0.792680 0.081376
0.951425 0.792680 0.082092
0.959539 0.794214 0.078919
0.964083 0.796357 0.081970
0.967582 0.798693 0.082353
0.009203 0.504209 0.274248
0.002510 0.529028 0.269804
0.028671 0.552913 0.258859
0.004852 0.563880 0.213616
0.021473 0.583233 0.096579
0.181629 0.626266 0.000349
0.435660 0.688701 0.000000
0.616331 0.744314 0.008052
0.756298 0.785952 0.026039
0.852204 0.805699 0.061177
0.907974 0.809673 0.080662
0.940967 0.813595 0.087903
0.959634 0.813595 0.090363
0.967477 0.813595 0.085292
0.972389 0.817363 0.086749
0.975931 0.817516 0.088628
0.000000 0.520523 0.290458
0.007636 0.547050 0.282052
0.039251 0.572902 0.267634
0.024401 0.583850 0.218510
0.026074 0.602971 0.092959
0.204967 0.644009 0.000349
0.442357 0.700535 0.000000
0.615496 0.754248 0.000000
0.755556 0.793133 0.022273
0.854118 0.815857 0.054498
0.909798 0.819863 0.079831
0.945263 0.823529 0.088254
0.964336 0.825729 0.090363
0.975499 0.827451 0.094118
0.980915 0.828218 0.097760
0.984285 0.830606 0.096993
0.002493 0.557386 0.327843
0.006204 0.584242 0.310797
0.005233 0.604517 0.285946
0.002614 0.611294 0.224153
0.034301 0.628985 0.095738
0.240052 0.669984 0.020078
0.452713 0.717571 0.012939
0.616698 0.763408 0.000767
0.755556 0.798031 0.000209
0.855843 0.822118 0.005944
0.918954 0.830536 0.052160
0.957446 0.836101 0.083922
0.978440 0.840262 0.088645
0.987993 0.840364 0.087303
0.992610 0.840645 0.112085
0.996069 0.843252 0.110622
0.000029 0.595137 0.362196
0.003019 0.622563 0.342092
0.042164 0.640910 0.310600
0.000000 0.642051 0.223818
0.061320 0.665183 0.145707
0.306139 0.701281 0.094072
0.480678 0.742291 0.028024
0.628871 0.777438 0.024261
0.759467 0.809607 0.020915
0.861671 0.831072 0.018376
0.930754 0.842562 0.017651
0.974039 0.847572 0.012714
0.995617 0.853000 0.022165
0.999943 0.853792 0.026343
0.999970 0.855879 0.036147
1.000000 0.853043 0.195604
0.000000 0.019608 0.047843
0.000941 0.019608 0.047843
0.021752 0.021176 0.048261
0.046274 0.023529 0.051765
0.074301 0.028706 0.050510
0.116340 0.030327 0.045229
0.184314 0.017725 0.030431
0.271530 0.000000 0.011085
0.367582 0.000000 0.009412
0.450980 0.000000 0.009412
0.515032 0.000000 0.009412
0.557072 0.000000 0.010980
0.584157 0.000000 0.012549
0.601830 0.001726 0.012549
0.614849 0.002353 0.014118
0.623490 0.002353 0.014118
0.000000 0.028183 0.052288
0.000899 0.028183 0.052288
0.022567 0.028859 0.053703
0.047027 0.032230 0.053856
0.078599 0.037183 0.053689
0.127669 0.040262 0.049499
0.201401 0.025558 0.032679
0.294397 0.000174 0.011294
0.396727 0.000000 0.010771
0.484382 0.000000 0.009412
0.547190 0.000105 0.009412
0.585883 0.000314 0.010771
0.609506 0.000314 0.012131
0.627137 0.001809 0.012131
0.638180 0.002353 0.012312
0.648795 0.002353 0.013909
0.000000 0.038954 0.058301
0.000460 0.040764 0.058301
0.015840 0.043503 0.058761
0.047760 0.046797 0.060486
0.084793 0.051660 0.057966
0.138998 0.057691 0.052915
0.221051 0.053856 0.036811
0.322284 0.029734 0.012682
0.426928 0.004392 0.009412
0.517124 0.004392 0.008575
0.580793 0.006850 0.007320
0.618471 0.009255 0.005752
0.640952 0.004235 0.006902
0.655101 0.004696 0.006902
0.667737 0.009882 0.006902
0.678427 0.009882 0.010876
0.000000 0.057255 0.065726
0.000000 0.057569 0.065516
0.003137 0.061553 0.065558
0.042040 0.065098 0.065349
0.088261 0.073799 0.064178
0.150327 0.082144 0.058196
0.241569 0.086588 0.040031
0.351791 0.083242 0.013386
0.460434 0.066991 0.010039
0.549584 0.058635 0.003765
0.614118 0.064418 0.000000
0.652842 0.079268 0.000000
0.675294 0.049506 0.000000
0.688732 0.041882 0.000000
0.701877 0.088157 0.000000
0.711945 0.096314 0.003765
0.000000 0.086536 0.077124
0.000000 0.087407 0.075625
0.000586 0.088443 0.072561
0.022536 0.093124 0.069856
0.088446 0.102996 0.068601
0.162632 0.117752 0.061176
0.264586 0.131922 0.041736
0.383045 0.138217 0.014383
0.498844 0.138248 0.010144
0.589187 0.138301 0.000000
0.651765 0.138405 0.000000
0.689673 0.150902 0.000000
0.710871 0.147744 0.000000
0.724647 0.159669 0.000000
0.738137 0.169610 0.000000
0.750787 0.179660 0.000000
0.000000 0.131242 0.096732
0.000000 0.134640 0.094640
0.000000 0.134640 0.089499
0.003556 0.136105 0.078379
0.072331 0.149542 0.070867
0.176558 0.170806 0.060392
0.291451 0.191634 0.040628
0.417342 0.206205 0.013455
0.541961 0.218196 0.003137
0.635242 0.226928 0.000000
0.697342 0.230588 0.000000
0.733647 0.237386 0.000000
0.752523 0.245229 0.000000
0.768105 0.251870 0.000000
0.780985 0.261386 0.000000
0.793653 0.278876 0.000000
0.000000 0.201255 0.130667
0.000000 0.204852 0.130186
0.000000 0.208230 0.120544
0.000000 0.207498 0.099168
0.031289 0.215268 0.073192
0.181072 0.242249 0.052915
0.321255 0.273506 0.021302
0.457307 0.297705 0.003346
0.584032 0.314374 0.000000
0.680847 0.330980 0.000000
0.742902 0.338248 0.000000
0.778510 0.341083 0.000000
0.797522 0.347608 0.000000
0.811838 0.357511 0.005145
0.824878 0.371190 0.000000
0.834130 0.387843 0.007529
0.000000 0.293229 0.183896
0.003807 0.301386 0.184370
0.000000 0.307695 0.170667
0.000000 0.304147 0.136512
0.012549 0.304746 0.078996
0.166257 0.333072 0.033342
0.343822 0.373260 0.003953
0.501898 0.409272 0.000063
