example_ofxGpuLutCube/bin/data/ofxGpuLutCube/LUT/V37 (hard blue faded).cube
LUT_3D_SIZE 16
0.031300 0.049000 0.060000
0.032273 0.049227 0.060007
0.034220 0.049993 0.060227
0.038160 0.051580 0.060700
0.058093 0.053827 0.060313
0.091167 0.058267 0.057000
0.134000 0.061040 0.046760
0.209907 0.052167 0.016933
0.286673 0.046540 0.000000
0.383400 0.037520 0.000000
0.481300 0.003900 0.000000
0.561247 0.000000 0.000000
0.625520 0.000000 0.000000
0.667447 0.000000 0.000000
0.686467 0.000000 0.000000
0.687100 0.000000 0.000000
0.031613 0.049880 0.060547
0.032595 0.050100 0.060560
0.034635 0.050953 0.060779
0.038776 0.052432 0.061172
0.059353 0.054790 0.060827
0.092529 0.059293 0.057353
0.136136 0.061964 0.046529
0.212356 0.053756 0.016315
0.291223 0.048236 0.000000
0.388852 0.039269 0.000000
0.485676 0.004578 0.000000
0.565854 0.000000 0.000000
0.629455 0.000000 0.000000
0.670684 0.000000 0.000000
0.689233 0.000000 0.000000
0.689400 0.000000 0.000000
0.030600 0.054493 0.062813
0.031724 0.054640 0.062821
0.033622 0.055500 0.063128
0.039331 0.056877 0.063400
0.063171 0.059211 0.062533
0.096733 0.063953 0.059167
0.145148 0.065889 0.045519
0.224260 0.058501 0.012884
0.305066 0.053856 0.000000
0.405833 0.043624 0.000000
0.502264 0.006373 0.000000
0.581430 0.000000 0.000000
0.642729 0.000000 0.000000
0.681885 0.000000 0.000000
0.699906 0.000000 0.000000
0.700067 0.000000 0.000000
0.015680 0.068220 0.067020
0.017241 0.068288 0.067024
0.019088 0.069144 0.067204
0.033460 0.070704 0.067140
0.066649 0.073335 0.065495
0.103780 0.078680 0.061400
0.160664 0.079932 0.042916
0.244299 0.073735 0.007173
0.331215 0.072701 0.000000
0.436948 0.064708 0.000000
0.530880 0.027260 0.000000
0.608181 0.000907 0.000000
0.663800 0.000000 0.000000
0.700453 0.000000 0.000000
0.717205 0.000000 0.000000
0.717300 0.000000 0.000000
0.000000 0.091040 0.074627
0.000000 0.091267 0.074650
0.000000 0.092290 0.074543
0.006953 0.094992 0.073924
0.064688 0.100309 0.068830
0.112436 0.108071 0.061676
0.181677 0.110355 0.037992
0.270030 0.110447 0.002094
0.363497 0.114396 0.000000
0.475123 0.111228 0.000000
0.568825 0.095593 0.000000
0.642247 0.063932 0.000000
0.693567 0.018571 0.000000
0.725450 0.009429 0.000000
0.739904 0.004016 0.000000
0.740017 0.003974 0.000000
0.000000 0.129333 0.085333
0.000000 0.130022 0.085444
0.000000 0.131438 0.085247
0.000507 0.134093 0.083620
0.031187 0.141742 0.073036
0.111400 0.154300 0.053033
0.209240 0.158160 0.021860
0.302133 0.160129 0.000000
0.406187 0.167618 0.000000
0.525073 0.168533 0.000000
0.617478 0.161622 0.000000
0.689138 0.146640 0.000000
0.737747 0.130847 0.000000
0.766033 0.116080 0.000000
0.779178 0.107893 0.000033
0.779300 0.107833 0.000033
0.000000 0.191860 0.092780
0.000000 0.192285 0.092625
0.000000 0.193576 0.091651
0.000000 0.197776 0.089284
0.000000 0.205788 0.080188
0.054513 0.223527 0.024040
0.214272 0.237668 0.000612
0.332775 0.246156 0.000000
0.453057 0.258093 0.000000
0.578184 0.265068 0.000000
0.672947 0.264747 0.000000
0.744707 0.258044 0.000000
0.790620 0.249200 0.000000
0.817867 0.240257 0.000087
0.830044 0.235523 0.000100
0.830160 0.235520 0.000100
0.000000 0.261613 0.092653
0.000000 0.262312 0.092267
0.000000 0.265222 0.090764
0.000000 0.271448 0.086116
0.000000 0.282144 0.073328
0.012124 0.302933 0.032502
0.212715 0.325840 0.000000
0.360044 0.347117 0.000000
0.497616 0.362640 0.000000
0.629935 0.374523 0.000000
0.727771 0.378424 0.000000
0.800519 0.375446 0.000000
0.846811 0.369415 0.000000
0.874147 0.362078 0.000046
0.885529 0.358260 0.000100
0.886111 0.358847 0.000100
0.000000 0.342087 0.078833
0.000000 0.343163 0.077565
0.000000 0.348397 0.073296
0.000000 0.356813 0.062605
0.000000 0.371855 0.031776
0.000000 0.396000 0.000000
0.177855 0.429528 0.000000
0.374130 0.466808 0.000000
0.531791 0.489477 0.000000
0.673225 0.503452 0.000000
0.776329 0.511160 0.000000
0.851501 0.510383 0.000000
0.899196 0.506357 0.000000
0.926884 0.499475 0.000000
0.939040 0.496377 0.000000
0.939373 0.496360 0.000000
0.000000 0.406080 0.050580
0.000000 0.407912 0.047628
0.000000 0.412925 0.038399
0.000000 0.423244 0.016808
0.000000 0.442305 0.000000
0.000000 0.475327 0.000000
0.097744 0.517648 0.000000
0.371431 0.563128 0.000000
0.550999 0.599628 0.000000
0.701852 0.617656 0.000000
0.812427 0.628767 0.000000
0.891980 0.631387 0.000000
0.942160 0.630168 0.000000
0.972072 0.625379 0.000000
0.984636 0.622537 0.000000
0.984740 0.622540 0.000000
0.000000 0.456033 0.006000
0.000000 0.457780 0.004667
0.000000 0.463636 0.000693
0.000000 0.476187 0.000000
0.000000 0.499869 0.000000
0.000000 0.538456 0.000000
0.062493 0.585673 0.000000
0.358533 0.638427 0.000000
0.553711 0.683838 0.000000
0.720013 0.712173 0.000000
0.834167 0.725133 0.000000
0.918558 0.730938 0.000000
0.971780 0.731100 0.000000
0.997911 0.727898 0.000000
1.000000 0.722982 0.000000
1.000000 0.723000 0.000000
0.000000 0.486673 0.000000
0.000000 0.488280 0.000000
0.000000 0.494986 0.000000
0.000000 0.508489 0.000000
0.000000 0.534600 0.000000
0.000000 0.575398 0.000000
0.029424 0.626487 0.000000
0.332429 0.684344 0.000000
0.544432 0.736418 0.000000
0.726380 0.778080 0.000000
0.843593 0.791587 0.000000
0.933551 0.800680 0.000000
0.988627 0.804147 0.000000
1.000000 0.799121 0.000000
1.000000 0.795325 0.000000
1.000000 0.795300 0.000000
0.000000 0.502220 0.000000
0.000000 0.503551 0.000000
0.000000 0.510700 0.000000
0.000000 0.524836 0.000000
0.000000 0.550585 0.000000
0.000000 0.591787 0.000000
0.000000 0.644512 0.000000
0.304531 0.705657 0.000000
0.530564 0.762140 0.000000
0.720848 0.808892 0.000000
0.849207 0.831753 0.000000
0.940912 0.842000 0.000000
0.995740 0.847484 0.000000
1.000000 0.843217 0.000000
1.000000 0.839600 0.000000
1.000000 0.839500 0.000000
0.000000 0.513647 0.000000
0.000000 0.515307 0.000000
0.000000 0.522192 0.000000
0.000000 0.535780 0.000000
0.000000 0.560975 0.000000
0.000000 0.601544 0.000000
0.000000 0.655035 0.000000
0.281746 0.717662 0.000000
0.520295 0.777842 0.000000
0.715899 0.827845 0.000000
0.851553 0.856029 0.000000
0.945893 0.867598 0.000000
0.997675 0.875023 0.000000
1.000000 0.871020 0.000000
1.000000 0.868947 0.000000
1.000000 0.868947 0.000000
0.000000 0.518667 0.000000
0.000000 0.520833 0.000000
0.000000 0.527720 0.000000
0.000000 0.540827 0.000000
0.000000 0.565629 0.000000
0.000000 0.604933 0.000000
0.000000 0.658260 0.000000
0.268910 0.721760 0.000000
0.512501 0.783110 0.000000
0.711853 0.834664 0.000000
0.855816 0.869733 0.000000
0.947487 0.877540 0.000000
0.997953 0.884633 0.000000
1.000000 0.881553 0.000000
1.000000 0.879600 0.000000
1.000000 0.879600 0.000000
0.000000 0.518700 0.000000
0.000000 0.520867 0.000000
0.000000 0.527819 0.000000
0.000000 0.540860 0.000000
0.000000 0.565687 0.000000
0.000000 0.604933 0.000000
0.000000 0.659290 0.000000
0.269571 0.722255 0.000000
0.512843 0.784394 0.000000
0.712473 0.835947 0.000000
0.856460 0.870658 0.000000
0.947585 0.878075 0.000000
0.997960 0.884660 0.000000
1.000000 0.881567 0.000000
1.000000 0.879600 0.000000
1.000000 0.879600 0.000000
0.031200 0.049013 0.060440
0.032173 0.049327 0.060440
0.034119 0.050093 0.060666
0.037953 0.051693 0.061059
0.057984 0.053907 0.060755
0.091389 0.058207 0.057418
0.134009 0.060937 0.047121
0.210008 0.051757 0.017297
0.287284 0.046148 0.000000
0.383615 0.036417 0.000000
0.480078 0.003602 0.000000
0.561078 0.000000 0.000000
0.625061 0.000000 0.000000
0.667447 0.000000 0.000000
0.686464 0.000000 0.000000
0.686600 0.000000 0.000000
0.031118 0.049994 0.060994
0.032393 0.050207 0.061000
0.034422 0.050990 0.061220
0.038476 0.052536 0.061687
0.059020 0.054772 0.061267
0.092744 0.059187 0.057905
0.136605 0.061928 0.046858
0.213261 0.053235 0.016307
0.291680 0.047653 0.000000
0.388122 0.038237 0.000000
0.485284 0.004344 0.000000
0.565371 0.000000 0.000000
0.628581 0.000000 0.000000
0.670689 0.000000 0.000000
0.688738 0.000000 0.000000
0.688931 0.000000 0.000000
0.030126 0.054614 0.063364
0.031483 0.054741 0.063366
0.033381 0.055583 0.063584
0.039012 0.056893 0.063766
0.062810 0.059147 0.062972
0.096738 0.063847 0.059583
0.145628 0.065537 0.045921
0.224985 0.057586 0.013063
0.306187 0.053076 0.000000
0.405693 0.042711 0.000000
0.501536 0.006418 0.000000
0.581342 0.000000 0.000000
0.642053 0.000000 0.000000
0.681496 0.000000 0.000000
0.699409 0.000000 0.000000
0.699538 0.000000 0.000000
0.015156 0.068125 0.067701
0.017097 0.068247 0.067683
0.018876 0.069130 0.067860
0.032910 0.070703 0.067838
0.066464 0.073268 0.066159
0.103955 0.078271 0.062003
0.161111 0.079143 0.043298
0.245079 0.073038 0.007363
0.331925 0.071842 0.000000
0.435604 0.063886 0.000000
0.530279 0.026266 0.000000
0.606976 0.000844 0.000000
0.663637 0.000000 0.000000
0.700088 0.000000 0.000000
0.716808 0.000000 0.000000
0.716909 0.000000 0.000000
0.000000 0.091133 0.075996
0.000000 0.091333 0.075960
0.000000 0.092362 0.075971
0.006605 0.094939 0.075247
0.064292 0.100296 0.070250
0.112228 0.107209 0.062805
0.181825 0.109421 0.038908
0.270953 0.109344 0.002204
0.363675 0.113876 0.000000
0.474362 0.111176 0.000000
0.567845 0.095196 0.000000
0.641589 0.062588 0.000000
0.692674 0.018431 0.000000
0.725334 0.008769 0.000000
0.739423 0.003492 0.000000
0.739516 0.003454 0.000000
0.000000 0.130258 0.087307
0.000000 0.130468 0.087269
0.000000 0.131654 0.087068
0.000451 0.134138 0.085304
0.030556 0.141497 0.075244
0.111159 0.154310 0.055117
0.208432 0.156487 0.025008
0.304370 0.159710 0.000000
0.406102 0.167194 0.000000
0.524073 0.168282 0.000000
0.616582 0.160767 0.000000
0.688627 0.146222 0.000000
0.737022 0.129802 0.000000
0.765816 0.114539 0.000000
0.778719 0.107194 0.000033
0.778827 0.107196 0.000033
0.000000 0.191396 0.094667
0.000000 0.192059 0.094603
0.000000 0.193847 0.093829
0.000000 0.198013 0.091477
0.000000 0.205454 0.082572
0.052607 0.223748 0.027401
0.216291 0.238897 0.001366
0.334146 0.245845 0.000000
0.452552 0.257483 0.000000
0.577065 0.264511 0.000000
0.672625 0.264371 0.000000
0.743594 0.257226 0.000000
0.790202 0.248755 0.000000
0.817494 0.239465 0.000087
0.829808 0.234697 0.000100
0.829735 0.234579 0.000100
0.000000 0.262140 0.095346
0.000000 0.262748 0.094978
0.000000 0.265641 0.093570
0.000000 0.271552 0.089156
0.000000 0.282831 0.076597
0.010869 0.303091 0.036093
0.212891 0.326904 0.000000
0.359753 0.346178 0.000000
0.496780 0.362127 0.000000
0.628964 0.374135 0.000000
0.727465 0.378331 0.000000
0.800479 0.374985 0.000000
0.846732 0.369418 0.000000
0.873635 0.360941 0.000046
0.885297 0.357939 0.000100
0.885364 0.357773 0.000100
0.000000 0.343588 0.082808
0.000000 0.345017 0.081587
0.000000 0.348846 0.077875
0.000000 0.357141 0.067360
0.000000 0.372236 0.038374
0.000000 0.396168 0.002688
0.173931 0.428755 0.000000
0.372374 0.466216 0.000000
0.530247 0.488944 0.000000
0.672197 0.502992 0.000000
0.776030 0.510568 0.000000
0.851480 0.510300 0.000000
0.899116 0.506199 0.000000
0.926898 0.498779 0.000000
0.939006 0.495597 0.000000
0.939122 0.495694 0.000000
0.000000 0.407041 0.056621
0.000000 0.408810 0.054433
0.000000 0.413501 0.045737
0.000000 0.424044 0.023830
0.000000 0.442744 0.001072
0.000000 0.475246 0.000000
0.090824 0.517102 0.000000
0.370006 0.563383 0.000000
0.549336 0.599827 0.000000
0.701110 0.617047 0.000000
0.812034 0.628893 0.000000
0.891935 0.631803 0.000000
0.942139 0.630179 0.000000
0.971820 0.624623 0.000000
0.984607 0.622553 0.000000
0.984723 0.622494 0.000000
0.000000 0.457042 0.012942
0.000000 0.458719 0.009245
0.000000 0.464404 0.003242
0.000000 0.476882 0.000000
0.000000 0.499807 0.000000
0.000000 0.538367 0.000000
0.059698 0.585657 0.000000
0.356070 0.638455 0.000000
0.551870 0.683416 0.000000
0.718194 0.711804 0.000000
0.833159 0.724852 0.000000
0.917890 0.730388 0.000000
0.971407 0.731178 0.000000
0.997754 0.727290 0.000000
1.000000 0.722069 0.000000
1.000000 0.722056 0.000000
0.000000 0.487239 0.000000
0.000000 0.489124 0.000000
0.000000 0.495717 0.000000
0.000000 0.508916 0.000000
0.000000 0.534378 0.000000
0.000000 0.575365 0.000000
0.024633 0.626273 0.000000
0.328885 0.684107 0.000000
0.541625 0.735966 0.000000
0.723580 0.777128 0.000000
0.842735 0.791670 0.000000
0.933017 0.801310 0.000000
0.988399 0.805696 0.000000
1.000000 0.799535 0.000000
1.000000 0.794365 0.000000
1.000000 0.794273 0.000000
0.000000 0.502573 0.000000
0.000000 0.504389 0.000000
0.000000 0.510806 0.000000
0.000000 0.524834 0.000000
0.000000 0.550466 0.000000
0.000000 0.591673 0.000000
0.000000 0.644211 0.000000
0.300692 0.705357 0.000000
0.529032 0.762143 0.000000
0.719013 0.808457 0.000000
0.848439 0.831475 0.000000
0.940138 0.841293 0.000000
0.995649 0.848363 0.000000
1.000000 0.843227 0.000000
1.000000 0.839693 0.000000
1.000000 0.839600 0.000000
0.000000 0.514180 0.000000
0.000000 0.515861 0.000000
0.000000 0.522756 0.000000
0.000000 0.536157 0.000000
0.000000 0.560809 0.000000
0.000000 0.600876 0.000000
0.000000 0.654241 0.000000
0.276634 0.716926 0.000000
0.517173 0.777351 0.000000
0.714385 0.827576 0.000000
0.850527 0.856493 0.000000
0.945271 0.867377 0.000000
0.997652 0.875275 0.000000
1.000000 0.871022 0.000000
1.000000 0.868948 0.000000
1.000000 0.868947 0.000000
0.000000 0.519233 0.000000
0.000000 0.521363 0.000000
0.000000 0.528289 0.000000
0.000000 0.541253 0.000000
0.000000 0.565116 0.000000
0.000000 0.604381 0.000000
0.000000 0.657733 0.000000
0.262046 0.720717 0.000000
0.508655 0.782451 0.000000
0.709290 0.834368 0.000000
0.854736 0.870259 0.000000
0.946532 0.877506 0.000000
0.997860 0.885705 0.000000
1.000000 0.883171 0.000000
1.000000 0.879780 0.000000
1.000000 0.879693 0.000000
0.000000 0.519729 0.000000
0.000000 0.521396 0.000000
0.000000 0.528292 0.000000
0.000000 0.541313 0.000000
0.000000 0.565155 0.000000
0.000000 0.604391 0.000000
0.000000 0.657733 0.000000
0.261621 0.720700 0.000000
0.508457 0.782671 0.000000
0.708346 0.833951 0.000000
0.855017 0.870652 0.000000
0.946377 0.877034 0.000000
0.997860 0.885694 0.000000
1.000000 0.881698 0.000000
1.000000 0.879792 0.000000
1.000000 0.879700 0.000000
0.030253 0.049440 0.063487
0.031222 0.049760 0.063506
0.032980 0.050533 0.063713
0.037016 0.052097 0.063985
0.057738 0.054223 0.063417
0.091151 0.058504 0.060216
0.134567 0.060997 0.049580
0.211064 0.051354 0.018619
0.288791 0.044844 0.000006
0.383311 0.033001 0.000000
0.481327 0.002173 0.000000
0.561621 0.000000 0.000000
0.626584 0.000000 0.000000
0.668571 0.000000 0.000000
0.687509 0.000000 0.000000
0.687667 0.000000 0.000000
0.030213 0.050440 0.064261
0.031403 0.050642 0.064262
0.033065 0.051498 0.064390
0.037367 0.052966 0.064591
0.058786 0.055048 0.064012
0.092348 0.059531 0.060741
0.137270 0.061925 0.049493
0.214336 0.052833 0.017699
0.292852 0.046762 0.000000
0.389372 0.034666 0.000000
0.485866 0.002554 0.000000
0.565253 0.000000 0.000000
0.629658 0.000000 0.000000
0.671781 0.000000 0.000000
0.690327 0.000000 0.000000
0.690434 0.000000 0.000000
0.028364 0.055073 0.067082
0.029728 0.055268 0.067106
0.031533 0.056094 0.067298
0.037092 0.057351 0.067484
0.062356 0.059535 0.066625
0.096519 0.064060 0.062969
0.145811 0.065824 0.049518
0.225628 0.056783 0.015037
0.307308 0.051832 0.000000
0.405846 0.039174 0.000000
0.501969 0.005011 0.000000
0.580905 0.000000 0.000000
0.643018 0.000000 0.000000
0.682629 0.000000 0.000000
0.700180 0.000000 0.000000
0.700316 0.000000 0.000000
0.014096 0.068876 0.072276
0.015799 0.069095 0.072355
0.017283 0.069777 0.072448
0.028817 0.071357 0.072539
0.065710 0.074018 0.071113
0.103781 0.079211 0.066995
0.161695 0.079586 0.048368
0.245906 0.071962 0.009908
0.332558 0.069860 0.000000
0.435496 0.060020 0.000000
0.530342 0.022758 0.000000
0.607508 0.000434 0.000000
0.664309 0.000000 0.000000
0.701480 0.000000 0.000000
0.717861 0.000000 0.000000
0.718007 0.000000 0.000000
0.000000 0.092112 0.081278
0.000000 0.092264 0.081211
0.000000 0.093303 0.081206
0.005530 0.095523 0.080418
0.061319 0.100735 0.076250
0.111334 0.108368 0.069189
0.182063 0.110193 0.045688
0.271571 0.108942 0.004387
0.364753 0.111818 0.000000
0.473119 0.109057 0.000000
0.566635 0.093014 0.000000
0.641526 0.057955 0.000000
0.693977 0.017372 0.000000
0.726191 0.007312 0.000000
0.740252 0.001626 0.000000
0.740472 0.001525 0.000000
0.000000 0.131458 0.093513
0.000000 0.131789 0.093497
0.000000 0.133020 0.093383
0.000345 0.135937 0.091945
0.028002 0.142886 0.082932
0.106892 0.153810 0.062758
0.207018 0.157048 0.033347
0.304966 0.159650 0.000123
0.405666 0.165135 0.000000
0.521309 0.166645 0.000000
0.615227 0.159075 0.000000
0.688044 0.143635 0.000000
0.737288 0.127588 0.000000
0.766504 0.112572 0.000000
0.778895 0.104102 0.000033
0.779326 0.103971 0.000033
0.000000 0.192885 0.102645
0.000000 0.193559 0.102476
0.000000 0.194647 0.101382
0.000000 0.198783 0.099193
0.000000 0.206565 0.091076
0.046791 0.227428 0.038439
0.216486 0.242523 0.002822
0.333884 0.246451 0.000000
0.449988 0.256001 0.000000
0.574139 0.263059 0.000000
0.670413 0.262762 0.000000
0.742477 0.255625 0.000000
0.790063 0.247354 0.000000
0.818112 0.238457 0.000087
0.829986 0.233097 0.000100
0.830153 0.233087 0.000100
0.000000 0.264516 0.106159
0.000000 0.265267 0.105417
0.000000 0.268800 0.104213
0.000000 0.274839 0.099724
0.000000 0.285902 0.088069
0.006071 0.305656 0.047649
0.206800 0.329069 0.000000
0.356949 0.345727 0.000000
0.492777 0.360377 0.000000
0.626217 0.372905 0.000000
0.725661 0.377428 0.000000
0.799139 0.374381 0.000000
0.846583 0.368392 0.000000
0.874024 0.360750 0.000046
0.885576 0.356490 0.000100
0.885831 0.356653 0.000100
0.000000 0.346392 0.098014
0.000000 0.347082 0.097282
0.000000 0.351304 0.093738
0.000000 0.359313 0.083984
0.000000 0.374110 0.060213
0.000000 0.397431 0.014158
0.160135 0.428583 0.000000
0.368217 0.465127 0.000000
0.526293 0.487750 0.000000
0.669557 0.502188 0.000000
0.774539 0.509894 0.000000
0.850381 0.509662 0.000000
0.899252 0.506158 0.000000
0.927085 0.498618 0.000000
0.939396 0.495122 0.000000
0.939107 0.495091 0.000000
0.000000 0.409885 0.078907
0.000000 0.411447 0.076402
0.000000 0.416097 0.069822
0.000000 0.426419 0.052390
0.000000 0.445012 0.012446
0.000000 0.475141 0.000000
0.081190 0.516272 0.000000
0.363830 0.562209 0.000000
0.546193 0.599992 0.000000
0.698488 0.617513 0.000000
0.810378 0.628718 0.000000
0.891127 0.631775 0.000000
0.942434 0.630637 0.000000
0.971971 0.625406 0.000000
0.984746 0.622099 0.000000
0.984702 0.622371 0.000000
0.000000 0.459684 0.045442
0.000000 0.461459 0.042141
0.000000 0.467445 0.030494
0.000000 0.479708 0.008492
0.000000 0.500606 0.000000
0.000000 0.536893 0.000000
0.050990 0.584597 0.000000
0.346706 0.637155 0.000000
0.545318 0.682530 0.000000
0.714420 0.711858 0.000000
0.831178 0.725196 0.000000
0.916462 0.730929 0.000000
0.971003 0.730923 0.000000
0.997756 0.726942 0.000000
1.000000 0.721325 0.000000
1.000000 0.721586 0.000000
0.000000 0.489684 0.015870
0.000000 0.491523 0.012416
0.000000 0.498065 0.004234
0.000000 0.510517 0.000179
0.000000 0.533856 0.000000
0.000000 0.573903 0.000000
0.006951 0.625271 0.000000
0.316612 0.683221 0.000000
0.533956 0.735669 0.000000
0.719496 0.777419 0.000000
0.840071 0.792000 0.000000
0.931455 0.801529 0.000000
0.987826 0.805190 0.000000
1.000000 0.800648 0.000000
1.000000 0.795423 0.000000
1.000000 0.795624 0.000000
0.000000 0.504920 0.003797
0.000000 0.506587 0.003062
0.000000 0.513084 0.000679
0.000000 0.525884 0.000000
0.000000 0.549948 0.000000
0.000000 0.590279 0.000000
0.000000 0.643006 0.000000
0.283215 0.704096 0.000000
0.519593 0.761324 0.000000
0.713815 0.808429 0.000000
0.845592 0.832233 0.000000
0.938185 0.842495 0.000000
0.995027 0.848588 0.000000
1.000000 0.844475 0.000000
1.000000 0.841013 0.000000
1.000000 0.841000 0.000000
0.000000 0.516304 0.004465
0.000000 0.517980 0.003749
0.000000 0.524808 0.001089
0.000000 0.537138 0.000000
0.000000 0.559758 0.000000
0.000000 0.599267 0.000000
0.000000 0.652384 0.000000
0.256376 0.715160 0.000000
0.507405 0.776140 0.000000
0.707950 0.826909 0.000000
0.848600 0.858037 0.000000
0.942948 0.867259 0.000000
0.997432 0.875360 0.000000
1.000000 0.872205 0.000000
1.000000 0.869158 0.000000
1.000000 0.869147 0.000000
0.000000 0.521433 0.010225
0.000000 0.523515 0.004692
0.000000 0.529950 0.001694
0.000000 0.542704 0.000000
0.000000 0.564346 0.000000
0.000000 0.602397 0.000000
0.000000 0.655433 0.000000
0.235361 0.718456 0.000000
0.497907 0.780469 0.000000
0.701051 0.832727 0.000000
0.850522 0.869844 0.000000
0.943474 0.877377 0.000000
0.997709 0.885948 0.000000
1.000000 0.883200 0.000000
1.000000 0.881001 0.000000
1.000000 0.881000 0.000000
0.000000 0.521467 0.010333
0.000000 0.523548 0.004692
0.000000 0.529978 0.001696
0.000000 0.542736 0.000000
0.000000 0.564372 0.000000
0.000000 0.602356 0.000000
0.000000 0.655435 0.000000
0.234802 0.718473 0.000000
0.497744 0.780456 0.000000
0.700961 0.832780 0.000000
0.850333 0.869735 0.000000
0.943710 0.877880 0.000000
0.997717 0.885874 0.000000
1.000000 0.883300 0.000000
1.000000 0.881100 0.000000
1.000000 0.881100 0.000000
0.027640 0.049860 0.072820
0.028792 0.049979 0.072881
0.031012 0.050711 0.072816
0.034344 0.052280 0.072928
0.055708 0.054224 0.072476
0.090100 0.058560 0.069700
0.134480 0.060156 0.059892
0.211152 0.046891 0.027716
0.289440 0.036424 0.001839
0.383448 0.016616 0.000000
0.479200 0.000000 0.000000
0.560393 0.000000 0.000000
0.626184 0.000000 0.000000
0.668667 0.000000 0.000000
0.687860 0.000000 0.000000
0.687900 0.000000 0.000000
0.026813 0.050908 0.074093
0.028411 0.050950 0.074093
0.030560 0.051675 0.074161
0.034261 0.053167 0.074190
0.056672 0.055039 0.073673
0.091299 0.059606 0.070784
0.136971 0.061214 0.060142
0.214457 0.048141 0.027047
0.293120 0.037894 0.001625
0.388180 0.018321 0.000000
0.482943 0.000000 0.000000
0.564275 0.000000 0.000000
0.629481 0.000000 0.000000
0.672275 0.000000 0.000000
0.690627 0.000000 0.000000
0.690756 0.000000 0.000000
0.023172 0.055569 0.078319
0.024866 0.055644 0.078308
0.027618 0.056203 0.078337
0.033206 0.057574 0.078388
0.059508 0.059334 0.077797
0.095524 0.064007 0.074807
0.145613 0.065059 0.062161
0.225606 0.051729 0.024691
0.307365 0.041708 0.000937
0.403656 0.021085 0.000000
0.499034 0.000100 0.000000
0.579297 0.000000 0.000000
0.642174 0.000000 0.000000
0.682800 0.000000 0.000000
0.700796 0.000000 0.000000
0.700715 0.000000 0.000000
0.008592 0.069604 0.086080
0.010594 0.069764 0.086098
0.012325 0.070417 0.086014
0.022270 0.071840 0.086115
0.060933 0.073931 0.085350
0.101995 0.079259 0.081831
0.160879 0.078455 0.065180
0.246315 0.065890 0.021797
0.332805 0.059792 0.000771
0.433479 0.040018 0.000000
0.526164 0.009095 0.000000
0.605312 0.000000 0.000000
0.663465 0.000000 0.000000
0.701172 0.000000 0.000000
0.718099 0.000000 0.000000
0.718101 0.000000 0.000000
0.000000 0.093447 0.097737
0.000000 0.093636 0.097669
0.000000 0.094528 0.097401
0.002866 0.096780 0.096953
0.053421 0.101950 0.095503
0.107497 0.109269 0.089178
0.181189 0.110335 0.067504
0.272211 0.104791 0.016592
0.365054 0.105809 0.000450
0.469971 0.099335 0.000000
0.561318 0.081515 0.000000
0.637193 0.033619 0.000000
0.690918 0.010951 0.000000
0.724244 0.000998 0.000000
0.739421 0.000000 0.000000
0.739713 0.000000 0.000000
0.000000 0.132887 0.114073
0.000000 0.133326 0.114029
0.000000 0.134453 0.113913
0.000000 0.137080 0.112608
0.021522 0.143256 0.107105
0.096909 0.155407 0.089367
0.205315 0.158536 0.062032
0.305321 0.156534 0.010419
0.404374 0.159918 0.000000
0.514192 0.158281 0.000000
0.606478 0.149724 0.000000
0.681112 0.132514 0.000000
0.733256 0.115624 0.000000
0.762938 0.098753 0.000000
0.776376 0.088630 0.000033
0.776750 0.088547 0.000033
0.000000 0.197280 0.127772
0.000000 0.197763 0.127530
0.000000 0.199450 0.126969
0.000000 0.203686 0.125262
0.000000 0.210604 0.118656
0.030193 0.228920 0.079620
0.208822 0.246298 0.013788
0.334760 0.247937 0.000954
0.444636 0.253141 0.000000
0.561678 0.256821 0.000000
0.658155 0.255715 0.000000
0.733992 0.248087 0.000000
0.785470 0.239682 0.000000
0.814588 0.230343 0.000087
0.826698 0.224850 0.000100
0.826669 0.224681 0.000100
0.000000 0.269868 0.135699
0.000000 0.270685 0.135374
0.000000 0.273091 0.133933
0.000000 0.278948 0.130578
0.000000 0.289268 0.122157
0.000000 0.307584 0.097528
0.185251 0.334327 0.000000
0.352750 0.346692 0.000000
