example_ofxGpuLutCube/bin/data/ofxGpuLutCube/LUT/V37 (hard blue faded).cube
LUT_3D_SIZE 6
0.031300 0.049000 0.060000
0.038160 0.051580 0.060700
0.134000 0.061040 0.046760
0.383400 0.037520 0.000000
0.625520 0.000000 0.000000
0.687100 0.000000 0.000000
0.015680 0.068220 0.067020
0.033460 0.070704 0.067140
0.160664 0.079932 0.042916
0.436948 0.064708 0.000000
0.663800 0.000000 0.000000
0.717300 0.000000 0.000000
0.000000 0.191860 0.092780
0.000000 0.197776 0.089284
0.214272 0.237668 0.000612
0.578184 0.265068 0.000000
0.790620 0.249200 0.000000
0.830160 0.235520 0.000100
0.000000 0.406080 0.050580
0.000000 0.423244 0.016808
0.097744 0.517648 0.000000
0.701852 0.617656 0.000000
0.942160 0.630168 0.000000
0.984740 0.622540 0.000000
0.000000 0.502220 0.000000
0.000000 0.524836 0.000000
0.000000 0.644512 0.000000
0.720848 0.808892 0.000000
0.995740 0.847484 0.000000
1.000000 0.839500 0.000000
0.000000 0.518700 0.000000
0.000000 0.540860 0.000000
0.000000 0.659290 0.000000
0.712473 0.835947 0.000000
0.997960 0.884660 0.000000
1.000000 0.879600 0.000000
0.027640 0.049860 0.072820
0.034344 0.052280 0.072928
0.134480 0.060156 0.059892
0.383448 0.016616 0.000000
0.626184 0.000000 0.000000
0.687900 0.000000 0.000000
0.008592 0.069604 0.086080
0.022270 0.071840 0.086115
0.160879 0.078455 0.065180
0.433479 0.040018 0.000000
0.663465 0.000000 0.000000
0.718101 0.000000 0.000000
0.000000 0.197280 0.127772
0.000000 0.203686 0.125262
0.208822 0.246298 0.013788
0.561678 0.256821 0.000000
0.785470 0.239682 0.000000
0.826669 0.224681 0.000100
0.000000 0.415200 0.126748
0.000000 0.431255 0.112282
0.063179 0.512906 0.000000
0.687860 0.610900 0.000000
0.937118 0.624837 0.000000
0.981230 0.616422 0.000000
0.000000 0.509300 0.082412
0.000000 0.529624 0.035350
0.000000 0.638696 0.000000
0.699768 0.806238 0.000000
0.994077 0.849427 0.000000
1.000000 0.842200 0.000000
0.000000 0.525700 0.085158
0.000000 0.546340 0.037084
0.000000 0.650628 0.000000
0.683764 0.829860 0.000000
0.996841 0.887022 0.000000
1.000000 0.881500 0.000000
0.000000 0.044840 0.181620
0.001180 0.048448 0.183016
0.127572 0.033060 0.195272
0.397516 0.000000 0.177096
0.637840 0.000000 0.161252
0.698206 0.000000 0.146866
0.000000 0.067248 0.212920
0.000000 0.071101 0.213605
0.143584 0.040492 0.228288
0.447952 0.000000 0.200129
0.672819 0.000000 0.186310
0.728094 0.000000 0.171478
0.000000 0.220096 0.311512
0.000000 0.227274 0.306947
0.066678 0.251866 0.310799
0.573071 0.194888 0.180560
0.767983 0.109323 0.083061
0.836876 0.061767 0.044668
0.000000 0.441980 0.373144
0.000000 0.469738 0.362384
0.000000 0.540431 0.334503
0.641408 0.615791 0.039747
0.903004 0.590295 0.000000
0.992228 0.595031 0.000000
0.000000 0.547920 0.357140
0.000000 0.567166 0.349215
0.000000 0.654657 0.307581
0.589316 0.793583 0.000000
0.951155 0.828127 0.000000
1.000000 0.833381 0.000000
0.000000 0.564363 0.364041
0.000000 0.581462 0.354678
0.000000 0.664700 0.312448
0.553824 0.812956 0.000000
0.957996 0.866816 0.000000
1.000000 0.870480 0.000000
0.000000 0.000000 0.380180
0.000000 0.000000 0.383764
0.129364 0.000000 0.400772
0.414872 0.000000 0.427888
0.659300 0.000000 0.437324
0.720700 0.000000 0.435603
0.000000 0.000000 0.412692
0.000000 0.000123 0.416602
0.137674 0.002312 0.438077
0.452440 0.000000 0.463073
0.690380 0.000000 0.468759
0.745822 0.000000 0.464598
0.000000 0.203196 0.528328
0.000000 0.211603 0.535033
0.009192 0.253415 0.550950
0.556043 0.129119 0.581088
0.780697 0.049704 0.534358
0.822534 0.027241 0.521658
0.000000 0.461384 0.630056
0.000000 0.488218 0.632924
0.000000 0.555122 0.642616
0.490455 0.635150 0.636583
0.886538 0.574818 0.542308
0.960149 0.545121 0.494717
0.000000 0.565380 0.655880
0.000000 0.604860 0.650396
0.000000 0.685363 0.657471
0.248557 0.838153 0.571206
0.912746 0.879558 0.433288
0.999796 0.873117 0.381209
0.000000 0.604174 0.659124
0.000000 0.620360 0.659768
0.000000 0.695456 0.664024
0.144382 0.855180 0.586744
0.906655 0.932133 0.419697
0.988955 0.914242 0.365804
0.000000 0.000000 0.521660
0.000000 0.000000 0.526792
0.086280 0.000000 0.545628
0.417020 0.000000 0.593188
0.670760 0.000000 0.616460
0.736300 0.000000 0.619040
0.000000 0.000000 0.549280
0.000000 0.000000 0.555700
0.105635 0.000017 0.577182
0.447245 0.000000 0.624764
0.698910 0.000000 0.645520
0.759177 0.000000 0.646699
0.000000 0.115892 0.640620
0.000000 0.136026 0.650038
0.000000 0.228276 0.685653
0.489531 0.094680 0.734573
0.765402 0.013234 0.731814
0.812725 0.000000 0.721002
0.000000 0.457064 0.774220
0.000000 0.467254 0.781674
0.000000 0.527550 0.810387
0.308577 0.540395 0.843501
0.858173 0.486414 0.844997
0.919515 0.459703 0.815960
0.000000 0.596980 0.821196
0.000000 0.611531 0.826832
0.000000 0.680952 0.854632
0.020981 0.831838 0.872881
0.852184 0.905343 0.877604
0.957987 0.902715 0.868324
0.000000 0.642894 0.839959
0.000000 0.630960 0.839203
0.000000 0.696972 0.864640
0.000000 0.857564 0.881896
0.831304 0.956960 0.881416
0.957874 0.966219 0.873980
0.000000 0.000000 0.563205
0.000000 0.000000 0.569526
0.048784 0.000000 0.588333
0.414273 0.000000 0.641508
0.675352 0.000000 0.670091
0.742805 0.000000 0.674505
0.000000 0.000000 0.588802
0.000000 0.000000 0.595006
0.069521 0.000060 0.616647
0.441524 0.000000 0.670207
0.700869 0.000000 0.696219
0.763984 0.000000 0.699206
0.000000 0.077448 0.668185
0.000000 0.101838 0.677038
0.000000 0.211443 0.716495
0.466123 0.084168 0.770804
0.756271 0.001769 0.777708
0.809188 0.000000 0.770649
0.000000 0.445763 0.807080
0.000000 0.451004 0.811002
0.000000 0.506287 0.843274
0.255488 0.517143 0.881973
0.826634 0.443898 0.901580
0.913035 0.414509 0.891975
0.000000 0.598120 0.857541
0.000000 0.609441 0.865660
0.000000 0.670532 0.894153
0.000000 0.820916 0.922216
0.819772 0.892780 0.952448
0.945800 0.896580 0.950580
0.299686 0.778301 0.930500
0.000000 0.629480 0.873081
0.000000 0.690580 0.902540
0.000000 0.851994 0.933020
0.804215 0.959883 0.963258
0.946494 0.969300 0.960695
