example_ofxGpuLutCube/bin/data/ofxGpuLutCube/LUT/V39 (retro B&W).cube
LUT_3D_SIZE 6
0.000000 0.000000 0.000000
0.028284 0.028284 0.028284
0.063947 0.063947 0.063947
0.100775 0.100775 0.100775
0.138080 0.138080 0.138080
0.175845 0.175845 0.175845
0.045514 0.045514 0.045514
0.021112 0.021112 0.021112
0.052177 0.052177 0.052177
0.089069 0.089069 0.089069
0.126245 0.126245 0.126245
0.163833 0.163833 0.163833
0.100732 0.100732 0.100732
0.070573 0.070573 0.070573
0.042225 0.042225 0.042225
0.077311 0.077311 0.077311
0.114341 0.114341 0.114341
0.151754 0.151754 0.151754
0.156854 0.156854 0.156854
0.126208 0.126208 0.126208
0.095779 0.095779 0.095779
0.067284 0.067284 0.067284
0.102597 0.102597 0.102597
0.139835 0.139835 0.139835
0.214532 0.214532 0.214532
0.182975 0.182975 0.182975
0.151961 0.151961 0.151961
0.121223 0.121223 0.121223
0.093346 0.093346 0.093346
0.128089 0.128089 0.128089
0.273678 0.273678 0.273678
0.241381 0.241381 0.241381
0.209242 0.209242 0.209242
0.177773 0.177773 0.177773
0.146725 0.146725 0.146725
0.116459 0.116459 0.116459
0.040686 0.040686 0.040686
0.101550 0.101550 0.101550
0.139852 0.139852 0.139852
0.177733 0.177733 0.177733
0.216304 0.216304 0.216304
0.255699 0.255699 0.255699
0.095800 0.095800 0.095800
0.156761 0.156761 0.156761
0.194323 0.194323 0.194323
0.233307 0.233307 0.233307
0.273099 0.273099 0.273093
0.313231 0.313255 0.313182
0.151914 0.151914 0.151914
0.212697 0.212697 0.212697
0.186515 0.186515 0.186515
0.223534 0.223534 0.223534
0.263118 0.263118 0.263118
0.303196 0.303209 0.303154
0.209375 0.209375 0.209375
0.272087 0.272087 0.272086
0.243182 0.243182 0.243182
0.212881 0.212881 0.212881
0.250464 0.250464 0.250464
0.290419 0.290419 0.290395
0.268942 0.268942 0.268942
0.332422 0.332418 0.332278
0.303267 0.303275 0.303228
0.270409 0.270409 0.270409
0.240555 0.240555 0.240555
0.277648 0.277648 0.277643
0.329428 0.329476 0.329367
0.397659 0.394306 0.390571
0.364798 0.363887 0.362792
0.330663 0.330649 0.330505
0.297731 0.297739 0.297714
0.265078 0.265078 0.265078
0.090710 0.090710 0.090710
0.153537 0.153537 0.153537
0.217445 0.217445 0.217445
0.257591 0.257591 0.257591
0.297742 0.297742 0.297711
0.337859 0.337865 0.337750
0.146736 0.146736 0.146736
0.211054 0.211054 0.211054
0.276970 0.276970 0.276962
0.317847 0.317863 0.317782
0.358891 0.358292 0.357537
0.404203 0.400170 0.395736
0.203991 0.203991 0.203991
0.270375 0.270375 0.270368
0.335916 0.335870 0.335633
0.379150 0.377244 0.375069
0.426467 0.419791 0.412540
0.476540 0.462870 0.448172
0.263268 0.263268 0.263268
0.330714 0.330714 0.330586
0.401519 0.397651 0.393394
0.369055 0.367801 0.366334
0.413244 0.408120 0.402530
0.462753 0.451135 0.438633
0.323743 0.323771 0.323682
0.395852 0.392636 0.389090
0.475779 0.462212 0.447617
0.437702 0.429587 0.420783
0.401298 0.397455 0.393236
0.446728 0.437382 0.427338
0.387589 0.385260 0.382639
0.469783 0.457188 0.443646
0.552307 0.526054 0.497952
0.513753 0.494074 0.473030
0.471929 0.458938 0.444983
0.431067 0.423818 0.415951
0.141608 0.141608 0.141608
0.205709 0.205709 0.205709
0.272160 0.272160 0.272160
0.339152 0.339115 0.338943
0.382995 0.380950 0.378688
0.430715 0.423590 0.415922
0.198703 0.198703 0.198703
0.264908 0.264908 0.264908
0.332500 0.332493 0.332346
0.405715 0.401495 0.396839
0.455851 0.445274 0.433884
0.506786 0.488307 0.468498
0.257687 0.257687 0.257687
0.325168 0.325201 0.325098
0.397964 0.394481 0.390644
0.480402 0.466142 0.450779
0.532465 0.509648 0.485206
0.582833 0.551205 0.517380
0.318096 0.318107 0.318039
0.389456 0.386832 0.383856
0.472043 0.459048 0.445060
0.556512 0.529512 0.500644
0.605149 0.569588 0.531606
0.652108 0.608516 0.561973
0.381325 0.379465 0.377349
0.462888 0.451288 0.438818
0.548714 0.523073 0.495652
0.628268 0.588676 0.546414
0.595187 0.561368 0.525254
0.639603 0.598085 0.553826
0.454307 0.444021 0.432955
0.539603 0.515553 0.489834
0.622684 0.584061 0.542805
0.694990 0.644779 0.591210
0.662269 0.617030 0.568767
0.624863 0.585865 0.544243
0.193384 0.193384 0.193384
0.259445 0.259445 0.259445
0.326975 0.327020 0.326935
0.399944 0.396372 0.392445
0.482268 0.467742 0.452150
0.534789 0.511567 0.486722
0.252191 0.252191 0.252191
0.319690 0.319720 0.319633
0.391477 0.388674 0.385548
0.474317 0.460990 0.446677
0.558880 0.531459 0.502153
0.609572 0.573215 0.534390
0.312427 0.312445 0.312372
0.383095 0.381007 0.378657
0.465072 0.453137 0.440282
0.550976 0.524938 0.497095
0.632133 0.591883 0.548926
0.678367 0.630582 0.579605
0.374933 0.373539 0.371928
0.455919 0.445326 0.433943
0.541772 0.517337 0.491191
0.624762 0.585779 0.544175
0.698412 0.647774 0.593735
0.739120 0.683715 0.624586
0.447201 0.437892 0.427853
0.532624 0.509768 0.485331
0.616191 0.578695 0.538647
0.691915 0.642173 0.589099
0.755302 0.698736 0.638375
0.790929 0.733549 0.672325
0.523941 0.502617 0.479769
0.607583 0.571588 0.533127
0.684308 0.635626 0.583675
0.751109 0.694692 0.634515
0.807730 0.751218 0.690921
0.782251 0.724836 0.663557
0.246590 0.246590 0.246590
0.314112 0.314136 0.314051
0.384834 0.382766 0.380333
0.467178 0.454999 0.441911
0.553213 0.526815 0.498540
0.635407 0.594530 0.550971
0.306824 0.306824 0.306763
0.376679 0.375140 0.373357
0.457976 0.447123 0.435418
0.543963 0.519150 0.492636
0.626912 0.587533 0.545511
0.701295 0.650176 0.595629
0.368456 0.367563 0.366439
0.448819 0.439301 0.428981
0.534667 0.511460 0.486639
0.618266 0.580383 0.539957
0.693802 0.643749 0.590345
0.759332 0.702321 0.641533
0.439782 0.431555 0.422598
0.525480 0.503865 0.480726
0.609522 0.573205 0.534380
0.686113 0.637166 0.584971
0.752747 0.696198 0.635911
0.812452 0.756161 0.696097
0.516530 0.496431 0.474916
0.600852 0.566016 0.528844
0.678367 0.630586 0.579589
0.745999 0.689968 0.630201
0.806139 0.749439 0.688917
0.872628 0.828231 0.780804
0.592792 0.559355 0.523691
0.670549 0.623961 0.574227
0.739154 0.683665 0.624479
0.799557 0.742324 0.681252
0.864647 0.818170 0.768534
0.953887 0.929873 0.904078
