example_ofxGpuLutCube/bin/data/ofxGpuLutCube/LUT/V39 (retro B&W).cube
LUT_3D_SIZE 16
0.000000 0.000000 0.000000
0.009440 0.009440 0.009440
0.018752 0.018752 0.018752
0.028284 0.028284 0.028284
0.039435 0.039435 0.039435
0.051616 0.051616 0.051616
0.063947 0.063947 0.063947
0.076128 0.076128 0.076128
0.088487 0.088487 0.088487
0.100775 0.100775 0.100775
0.113179 0.113179 0.113179
0.125643 0.125643 0.125643
0.138080 0.138080 0.138080
0.150612 0.150612 0.150612
0.163232 0.163232 0.163232
0.175845 0.175845 0.175845
0.014146 0.014146 0.014146
0.007463 0.007463 0.007463
0.015779 0.015779 0.015779
0.025278 0.025278 0.025278
0.035689 0.035689 0.035689
0.047793 0.047793 0.047793
0.060003 0.060003 0.060003
0.072279 0.072279 0.072279
0.084515 0.084515 0.084515
0.096900 0.096900 0.096900
0.109270 0.109270 0.109270
0.121696 0.121696 0.121696
0.134198 0.134198 0.134198
0.146675 0.146675 0.146675
0.159266 0.159266 0.159266
0.171843 0.171843 0.171843
0.028359 0.028359 0.028359
0.020565 0.020565 0.020565
0.014431 0.014431 0.014431
0.022258 0.022258 0.022258
0.032136 0.032136 0.032136
0.043973 0.043973 0.043973
0.056037 0.056037 0.056037
0.068430 0.068430 0.068430
0.080652 0.080652 0.080652
0.092959 0.092959 0.092959
0.105329 0.105329 0.105329
0.117704 0.117704 0.117704
0.130159 0.130159 0.130159
0.142710 0.142710 0.142710
0.155245 0.155245 0.155245
0.167871 0.167871 0.167871
0.045514 0.045514 0.045514
0.035906 0.035906 0.035906
0.027054 0.027054 0.027054
0.021112 0.021112 0.021112
0.028789 0.028789 0.028789
0.039986 0.039986 0.039986
0.052177 0.052177 0.052177
0.064535 0.064535 0.064535
0.076713 0.076713 0.076713
0.089069 0.089069 0.089069
0.101383 0.101383 0.101383
0.113803 0.113803 0.113803
0.126245 0.126245 0.126245
0.138747 0.138747 0.138747
0.151265 0.151265 0.151265
0.163833 0.163833 0.163833
0.063875 0.063875 0.063875
0.053806 0.053806 0.053806
0.043906 0.043906 0.043906
0.034324 0.034324 0.034324
0.027758 0.027758 0.027758
0.036311 0.036311 0.036311
0.048326 0.048326 0.048326
0.060559 0.060559 0.060559
0.072833 0.072833 0.072833
0.085131 0.085131 0.085131
0.097462 0.097462 0.097462
0.109867 0.109867 0.109867
0.122239 0.122239 0.122239
0.134737 0.134737 0.134737
0.147296 0.147296 0.147296
0.159792 0.159792 0.159792
0.082275 0.082275 0.082275
0.072266 0.072266 0.072266
0.062185 0.062185 0.062185
0.052195 0.052195 0.052195
0.042257 0.042257 0.042257
0.034705 0.034705 0.034705
0.044419 0.044419 0.044419
0.056727 0.056727 0.056727
0.068916 0.068916 0.068916
0.081185 0.081185 0.081185
0.093529 0.093529 0.093529
0.105910 0.105910 0.105910
0.118299 0.118299 0.118299
0.130791 0.130791 0.130791
0.143306 0.143306 0.143306
0.155795 0.155795 0.155795
0.100732 0.100732 0.100732
0.090605 0.090605 0.090605
0.080618 0.080618 0.080618
0.070573 0.070573 0.070573
0.060497 0.060497 0.060497
0.050523 0.050523 0.050523
0.042225 0.042225 0.042225
0.052669 0.052669 0.052669
0.065006 0.065006 0.065006
0.077311 0.077311 0.077311
0.089638 0.089638 0.089638
0.101996 0.101996 0.101996
0.114341 0.114341 0.114341
0.126845 0.126845 0.126845
0.139324 0.139324 0.139324
0.151754 0.151754 0.151754
0.119381 0.119381 0.119381
0.109205 0.109205 0.109205
0.099112 0.099112 0.099112
0.089020 0.089020 0.089020
0.078937 0.078937 0.078937
0.068925 0.068925 0.068925
0.058866 0.058866 0.058866
0.049498 0.049498 0.049498
0.061177 0.061177 0.061177
0.073415 0.073415 0.073415
0.085712 0.085712 0.085712
0.098059 0.098059 0.098059
0.110414 0.110414 0.110414
0.122886 0.122886 0.122886
0.135333 0.135333 0.135333
0.147797 0.147797 0.147797
0.138033 0.138033 0.138033
0.127826 0.127826 0.127826
0.117712 0.117712 0.117712
0.107605 0.107605 0.107605
0.097498 0.097498 0.097498
0.087438 0.087438 0.087438
0.077290 0.077290 0.077290
0.067185 0.067185 0.067185
0.057947 0.057947 0.057947
0.069545 0.069545 0.069545
0.081797 0.081797 0.081797
0.094152 0.094152 0.094152
0.106503 0.106503 0.106503
0.118917 0.118917 0.118917
0.131345 0.131345 0.131345
0.143768 0.143768 0.143768
0.156854 0.156854 0.156854
0.146617 0.146617 0.146617
0.136345 0.136345 0.136345
0.126208 0.126208 0.126208
0.116084 0.116084 0.116084
0.105913 0.105913 0.105913
0.095779 0.095779 0.095779
0.085726 0.085726 0.085726
0.075669 0.075669 0.075669
0.067284 0.067284 0.067284
0.077917 0.077917 0.077917
0.090190 0.090190 0.090190
0.102597 0.102597 0.102597
0.114980 0.114980 0.114980
0.127473 0.127473 0.127473
0.139835 0.139835 0.139835
0.175853 0.175853 0.175853
0.165557 0.165557 0.165557
0.155324 0.155324 0.155324
0.144942 0.144942 0.144942
0.134733 0.134733 0.134733
0.124556 0.124556 0.124556
0.114378 0.114378 0.114378
0.104267 0.104267 0.104267
0.094119 0.094119 0.094119
0.084037 0.084037 0.084037
0.076426 0.076426 0.076426
0.086313 0.086313 0.086313
0.098627 0.098627 0.098627
0.111046 0.111046 0.111046
0.123454 0.123454 0.123454
0.135887 0.135887 0.135887
0.195056 0.195056 0.195056
0.184632 0.184632 0.184632
0.174310 0.174310 0.174310
0.163886 0.163886 0.163886
0.153605 0.153605 0.153605
0.143368 0.143368 0.143368
0.133172 0.133172 0.133172
0.122909 0.122909 0.122909
0.112646 0.112646 0.112646
0.102607 0.102607 0.102607
0.092474 0.092474 0.092474
0.085016 0.085016 0.085016
0.094750 0.094750 0.094750
0.107130 0.107130 0.107130
0.119539 0.119539 0.119539
0.131955 0.131955 0.131955
0.214532 0.214532 0.214532
0.203819 0.203819 0.203819
0.193458 0.193458 0.193458
0.182975 0.182975 0.182975
0.172585 0.172585 0.172585
0.162246 0.162246 0.162246
0.151961 0.151961 0.151961
0.141661 0.141661 0.141661
0.131364 0.131364 0.131364
0.121223 0.121223 0.121223
0.111084 0.111084 0.111084
0.100941 0.100941 0.100941
0.093346 0.093346 0.093346
0.103255 0.103255 0.103255
0.115612 0.115612 0.115612
0.128089 0.128089 0.128089
0.233970 0.233970 0.233970
0.223326 0.223325 0.223326
0.212744 0.212744 0.212744
0.202214 0.202214 0.202214
0.191724 0.191724 0.191724
0.181300 0.181300 0.181300
0.170821 0.170821 0.170821
0.160544 0.160544 0.160544
0.150246 0.150246 0.150246
0.139899 0.139899 0.139899
0.129739 0.129739 0.129739
0.119561 0.119561 0.119561
0.109441 0.109441 0.109441
0.101450 0.101450 0.101450
0.111790 0.111790 0.111790
0.124079 0.124079 0.124079
0.253796 0.253796 0.253796
0.243102 0.243102 0.243102
0.232336 0.232336 0.232336
0.221730 0.221730 0.221730
0.211198 0.211198 0.211198
0.200488 0.200488 0.200488
0.189977 0.189977 0.189977
0.179610 0.179610 0.179610
0.169226 0.169226 0.169226
0.158815 0.158815 0.158815
0.148536 0.148536 0.148536
0.138284 0.138284 0.138284
0.128053 0.128053 0.128053
0.117875 0.117875 0.117875
0.108961 0.108961 0.108961
0.120200 0.120200 0.120200
0.273678 0.273678 0.273678
0.263021 0.263021 0.263021
0.252154 0.252154 0.252154
0.241381 0.241381 0.241381
0.230666 0.230666 0.230666
0.219900 0.219900 0.219900
0.209242 0.209242 0.209242
0.198814 0.198814 0.198814
0.188245 0.188245 0.188245
0.177773 0.177773 0.177773
0.167382 0.167382 0.167382
0.157068 0.157068 0.157068
0.146725 0.146725 0.146725
0.136499 0.136499 0.136499
0.126222 0.126222 0.126222
0.116459 0.116459 0.116459
0.012866 0.012866 0.012866
0.028462 0.028462 0.028462
0.040329 0.040329 0.040329
0.052284 0.052284 0.052284
0.064521 0.064521 0.064521
0.076718 0.076718 0.076718
0.089058 0.089058 0.089058
0.101412 0.101412 0.101412
0.113794 0.113794 0.113794
0.126238 0.126238 0.126238
0.138712 0.138712 0.138712
0.151284 0.151284 0.151284
0.163932 0.163932 0.163932
0.176572 0.176572 0.176572
0.189281 0.189281 0.189281
0.202115 0.202115 0.202115
0.027104 0.027104 0.027104
0.045779 0.045779 0.045779
0.057262 0.057262 0.057262
0.069420 0.069420 0.069420
0.081790 0.081790 0.081790
0.094040 0.094040 0.094040
0.106386 0.106386 0.106386
0.118826 0.118826 0.118826
0.131330 0.131330 0.131330
0.143769 0.143769 0.143769
0.156372 0.156372 0.156372
0.169052 0.169052 0.169052
0.181745 0.181745 0.181745
0.194488 0.194488 0.194488
0.207444 0.207444 0.207444
0.220271 0.220271 0.220271
0.043994 0.043994 0.043994
0.062908 0.062908 0.062908
0.056680 0.056680 0.056680
0.066800 0.066800 0.066800
0.079056 0.079056 0.079056
0.091391 0.091391 0.091391
0.103774 0.103774 0.103774
0.116169 0.116169 0.116169
0.128580 0.128580 0.128580
0.141112 0.141112 0.141112
0.153661 0.153661 0.153661
0.166288 0.166288 0.166288
0.179013 0.179013 0.179013
0.191782 0.191782 0.191782
0.204662 0.204662 0.204662
0.217599 0.217599 0.217599
0.062181 0.062181 0.062181
0.081257 0.081257 0.081257
0.072952 0.072952 0.072952
0.065477 0.065477 0.065477
0.075155 0.075155 0.075155
0.087463 0.087463 0.087463
0.099833 0.099833 0.099833
0.112182 0.112182 0.112182
0.124637 0.124637 0.124637
0.137111 0.137111 0.137111
0.149661 0.149661 0.149661
0.162278 0.162278 0.162278
0.174943 0.174943 0.174943
0.187717 0.187717 0.187717
0.200568 0.200568 0.200568
0.213367 0.213367 0.213367
0.080711 0.080711 0.080711
0.099762 0.099762 0.099762
0.091367 0.091367 0.091367
0.081300 0.081300 0.081300
0.073877 0.073877 0.073877
0.083562 0.083562 0.083562
0.095863 0.095863 0.095863
0.108254 0.108254 0.108254
0.120639 0.120639 0.120639
0.133119 0.133119 0.133119
0.145671 0.145671 0.145671
0.158254 0.158254 0.158254
0.170925 0.170925 0.170925
0.183651 0.183651 0.183651
0.196479 0.196479 0.196479
0.209288 0.209288 0.209288
0.099181 0.099181 0.099181
0.118364 0.118364 0.118364
0.109928 0.109928 0.109928
0.099807 0.099807 0.099807
0.089738 0.089738 0.089738
0.081974 0.081974 0.081974
0.091935 0.091935 0.091935
0.104298 0.104298 0.104298
0.116735 0.116735 0.116735
0.129153 0.129153 0.129153
0.141672 0.141672 0.141672
0.154239 0.154239 0.154239
0.166894 0.166894 0.166894
0.179591 0.179591 0.179591
0.192365 0.192365 0.192365
0.205184 0.205184 0.205184
0.117850 0.117850 0.117850
0.137054 0.137054 0.137054
0.128560 0.128560 0.128560
0.118411 0.118411 0.118411
0.108255 0.108255 0.108255
0.098163 0.098163 0.098163
0.089784 0.089784 0.089784
0.100382 0.100382 0.100382
0.112809 0.112809 0.112809
0.125229 0.125229 0.125229
0.137728 0.137728 0.137728
0.150239 0.150239 0.150239
0.162860 0.162860 0.162860
0.175564 0.175564 0.175564
0.188330 0.188330 0.188330
0.201081 0.201081 0.201081
0.136568 0.136568 0.136568
0.155937 0.155937 0.155937
0.147311 0.147311 0.147311
0.137121 0.137121 0.137121
0.126858 0.126858 0.126858
0.116710 0.116710 0.116710
0.106527 0.106527 0.106527
0.097207 0.097207 0.097207
0.108847 0.108847 0.108847
0.121221 0.121221 0.121221
0.133764 0.133764 0.133764
0.146244 0.146244 0.146244
0.158844 0.158844 0.158844
0.171492 0.171492 0.171492
0.184250 0.184250 0.184250
0.197021 0.197021 0.197021
0.155439 0.155439 0.155439
0.174898 0.174898 0.174898
0.166277 0.166277 0.166277
0.155954 0.155954 0.155954
0.145656 0.145656 0.145656
0.135370 0.135370 0.135370
0.125180 0.125180 0.125180
0.115038 0.115038 0.115038
0.105570 0.105570 0.105570
0.117301 0.117301 0.117301
0.129794 0.129794 0.129794
0.142285 0.142285 0.142285
0.154855 0.154855 0.154855
0.167498 0.167498 0.167498
0.180180 0.180180 0.180180
0.192969 0.192969 0.192969
0.174444 0.174444 0.174444
0.194142 0.194142 0.194142
0.185367 0.185367 0.185367
0.174945 0.174945 0.174945
0.164602 0.164602 0.164602
0.154229 0.154229 0.154229
0.143966 0.143966 0.143966
0.133713 0.133713 0.133713
0.123519 0.123519 0.123519
0.115113 0.115113 0.115113
0.125814 0.125814 0.125814
0.138316 0.138316 0.138316
0.150901 0.150901 0.150901
0.163487 0.163487 0.163487
0.176142 0.176142 0.176142
0.188921 0.188921 0.188921
0.193678 0.193678 0.193678
0.213357 0.213357 0.213357
0.204661 0.204661 0.204661
0.194156 0.194156 0.194156
0.183673 0.183673 0.183673
0.173236 0.173236 0.173236
0.162878 0.162878 0.162878
0.152549 0.152549 0.152549
0.142252 0.142252 0.142252
0.132062 0.132062 0.132062
0.124181 0.124181 0.124181
0.134362 0.134362 0.134362
0.146845 0.146845 0.146845
0.159516 0.159516 0.159516
0.172191 0.172191 0.172191
0.184846 0.184846 0.184846
0.213167 0.213167 0.213167
0.233012 0.233012 0.233012
0.224147 0.224147 0.224147
0.213518 0.213518 0.213518
0.202918 0.202918 0.202918
0.192399 0.192399 0.192399
0.181957 0.181957 0.181957
0.171520 0.171520 0.171520
0.161151 0.161151 0.161151
0.150840 0.150840 0.150840
0.140623 0.140623 0.140623
0.133034 0.133034 0.133034
0.142886 0.142886 0.142886
0.155517 0.155517 0.155517
0.168174 0.168174 0.168174
0.180759 0.180759 0.180759
0.232784 0.232783 0.232784
0.252830 0.252830 0.252830
0.243788 0.243788 0.243788
0.233113 0.233113 0.233113
0.222389 0.222389 0.222389
0.211797 0.211797 0.211797
0.201221 0.201221 0.201221
0.190688 0.190688 0.190688
0.180217 0.180217 0.180217
0.169821 0.169821 0.169821
0.159474 0.159474 0.159474
0.149160 0.149160 0.149160
0.141495 0.141495 0.141494
0.151538 0.151538 0.151538
0.164187 0.164187 0.164187
0.176749 0.176749 0.176749
0.252770 0.252770 0.252770
0.272910 0.272910 0.272910
0.263809 0.263809 0.263807
0.252976 0.252976 0.252976
0.242147 0.242147 0.242147
0.231357 0.231357 0.231357
0.220651 0.220651 0.220651
0.210047 0.210047 0.210047
0.199502 0.199502 0.199502
0.188977 0.188977 0.188977
0.178511 0.178511 0.178511
0.168093 0.168093 0.168093
0.157834 0.157834 0.157834
0.149571 0.149571 0.149571
0.160109 0.160109 0.160109
0.172799 0.172799 0.172799
0.272959 0.272959 0.272959
0.293040 0.293040 0.293030
0.283866 0.283866 0.283859
0.272883 0.272883 0.272881
0.262023 0.262023 0.262023
0.251131 0.251131 0.251131
0.240319 0.240319 0.240319
0.229611 0.229611 0.229611
0.218963 0.218963 0.218963
0.208262 0.208262 0.208262
0.197696 0.197696 0.197696
0.187223 0.187223 0.187223
0.176819 0.176819 0.176819
0.166394 0.166394 0.166394
0.157389 0.157389 0.157389
0.168760 0.168760 0.168760
0.292877 0.292877 0.292869
0.313001 0.313006 0.312940
0.303895 0.303903 0.303834
0.292934 0.292937 0.292926
0.282043 0.282043 0.282035
0.271112 0.271112 0.271111
0.260177 0.260177 0.260177
0.249247 0.249247 0.249247
0.238478 0.238478 0.238478
0.227713 0.227713 0.227713
0.217075 0.217075 0.217075
0.206453 0.206453 0.206453
0.195970 0.195970 0.195970
0.185477 0.185477 0.185477
0.174984 0.174984 0.174984
0.164883 0.164883 0.164883
0.025708 0.025708 0.025708
0.044440 0.044440 0.044440
0.064234 0.064234 0.064234
0.077251 0.077251 0.077251
0.089591 0.089591 0.089591
0.101897 0.101897 0.101897
0.114322 0.114322 0.114322
0.126765 0.126765 0.126765
0.139278 0.139278 0.139278
0.151798 0.151798 0.151798
0.164418 0.164418 0.164418
0.177113 0.177113 0.177113
0.189888 0.189888 0.189888
0.202765 0.202765 0.202765
0.215705 0.215705 0.215705
0.228672 0.228672 0.228672
0.042381 0.042381 0.042381
0.062947 0.062947 0.062947
0.082716 0.082716 0.082716
0.095811 0.095811 0.095811
0.108167 0.108167 0.108167
0.120589 0.120589 0.120589
0.133038 0.133038 0.133038
0.145568 0.145568 0.145568
0.158123 0.158123 0.158123
0.170798 0.170798 0.170798
0.183534 0.183534 0.183534
0.196326 0.196326 0.196326
0.209229 0.209229 0.209229
0.222217 0.222217 0.222217
0.235312 0.235312 0.235312
0.248398 0.248398 0.248398
0.060520 0.060520 0.060520
0.081234 0.081234 0.081234
0.100603 0.100603 0.100603
0.112296 0.112296 0.112296
0.124730 0.124730 0.124730
0.137187 0.137187 0.137187
0.149732 0.149732 0.149732
0.162343 0.162343 0.162343
0.175005 0.175005 0.175005
0.187770 0.187770 0.187770
0.200612 0.200612 0.200612
0.213550 0.213550 0.213550
0.226577 0.226577 0.226577
0.239727 0.239728 0.239728
0.252941 0.252941 0.252941
0.266171 0.266170 0.266170
0.078964 0.078964 0.078964
0.099810 0.099810 0.099810
0.117710 0.117710 0.117710
0.112961 0.112961 0.112961
0.122806 0.122806 0.122806
0.135315 0.135315 0.135315
0.147849 0.147849 0.147849
0.160482 0.160482 0.160482
0.173129 0.173129 0.173129
0.185855 0.185855 0.185855
0.198676 0.198676 0.198676
0.211624 0.211624 0.211624
0.224657 0.224657 0.224657
0.237781 0.237781 0.237781
0.250989 0.250989 0.250989
0.264269 0.264269 0.264269
0.097539 0.097539 0.097539
0.118290 0.118290 0.118290
0.136418 0.136418 0.136418
0.129042 0.129042 0.129042
0.121554 0.121554 0.121554
0.131358 0.131358 0.131358
0.143865 0.143866 0.143866
0.156447 0.156447 0.156447
0.169098 0.169098 0.169098
0.181799 0.181799 0.181799
0.194628 0.194628 0.194628
0.207516 0.207516 0.207516
0.220493 0.220493 0.220493
0.233589 0.233589 0.233589
0.246794 0.246794 0.246794
0.260021 0.260021 0.260021
0.116087 0.116087 0.116087
0.137061 0.137061 0.137061
0.155247 0.155247 0.155247
0.147852 0.147852 0.147852
0.137593 0.137593 0.137593
0.129756 0.129756 0.129756
0.139889 0.139889 0.139889
0.152447 0.152447 0.152447
0.165089 0.165090 0.165090
0.177759 0.177759 0.177759
0.190530 0.190530 0.190530
0.203389 0.203389 0.203389
0.216371 0.216370 0.216370
0.229436 0.229436 0.229436
0.242591 0.242591 0.242591
0.255757 0.255757 0.255757
0.134770 0.134770 0.134770
0.155913 0.155913 0.155913
0.174237 0.174237 0.174237
0.166745 0.166745 0.166745
0.156425 0.156425 0.156425
0.146119 0.146119 0.146119
0.137603 0.137603 0.137603
0.148437 0.148437 0.148437
0.161042 0.161042 0.161042
0.173726 0.173726 0.173726
0.186463 0.186463 0.186463
0.199308 0.199308 0.199308
0.212235 0.212235 0.212235
0.225272 0.225272 0.225272
0.238367 0.238367 0.238367
0.251537 0.251537 0.251537
0.153665 0.153665 0.153665
0.174963 0.174963 0.174963
0.193379 0.193379 0.193379
0.185868 0.185868 0.185868
0.175423 0.175423 0.175423
0.165077 0.165077 0.165077
0.154703 0.154703 0.154703
0.145140 0.145140 0.145140
0.157035 0.157035 0.157035
0.169665 0.169665 0.169665
0.182404 0.182404 0.182404
0.195216 0.195216 0.195216
0.208116 0.208116 0.208116
0.221122 0.221122 0.221122
0.234218 0.234218 0.234218
0.247327 0.247327 0.247327
0.172718 0.172718 0.172718
0.194103 0.194103 0.194103
0.212742 0.212742 0.212742
0.205146 0.205146 0.205146
0.194611 0.194611 0.194611
0.184116 0.184116 0.184116
0.173700 0.173700 0.173700
0.163301 0.163301 0.163301
0.153713 0.153713 0.153713
0.165665 0.165665 0.165665
0.178372 0.178372 0.178372
0.191146 0.191146 0.191146
0.204016 0.204016 0.204016
0.216985 0.216985 0.216985
0.230058 0.230058 0.230058
0.243106 0.243106 0.243106
0.191852 0.191852 0.191852
0.213548 0.213548 0.213548
0.232331 0.232331 0.232331
0.224619 0.224619 0.224619
0.213985 0.213986 0.213985
0.203389 0.203389 0.203389
0.192854 0.192854 0.192854
0.182392 0.182392 0.182392
0.172014 0.172014 0.172014
0.163349 0.163349 0.163349
0.174327 0.174327 0.174327
0.187081 0.187081 0.187081
0.199933 0.199933 0.199933
0.212860 0.212860 0.212860
0.225889 0.225889 0.225889
0.238913 0.238913 0.238913
0.211272 0.211272 0.211272
0.233202 0.233202 0.233202
0.252153 0.252153 0.252153
0.244363 0.244363 0.244363
0.233580 0.233580 0.233580
0.222871 0.222871 0.222871
0.212238 0.212238 0.212238
0.201654 0.201654 0.201654
0.191100 0.191100 0.191100
0.180660 0.180660 0.180660
0.172707 0.172707 0.172707
0.183022 0.183022 0.183022
0.195827 0.195827 0.195827
0.208733 0.208733 0.208733
0.221710 0.221710 0.221710
0.234777 0.234777 0.234777
0.230847 0.230847 0.230847
0.253084 0.253084 0.253084
0.272155 0.272155 0.272154
0.264272 0.264272 0.264269
0.253409 0.253409 0.253408
0.242592 0.242592 0.242592
0.231825 0.231825 0.231825
0.221117 0.221117 0.221117
0.210475 0.210475 0.210475
0.199911 0.199911 0.199911
0.189394 0.189394 0.189394
0.181677 0.181677 0.181676
0.191763 0.191763 0.191763
0.204646 0.204646 0.204646
0.217619 0.217619 0.217619
0.230581 0.230581 0.230581
0.250731 0.250731 0.250731
0.273148 0.273148 0.273147
0.292266 0.292266 0.292246
0.284343 0.284343 0.284330
0.273410 0.273410 0.273406
0.262492 0.262492 0.262490
0.251604 0.251604 0.251604
0.240788 0.240788 0.240788
0.230012 0.230012 0.230012
0.219339 0.219339 0.219339
0.208720 0.208720 0.208720
0.198143 0.198143 0.198143
0.190327 0.190327 0.190327
0.200553 0.200553 0.200553
0.213502 0.213502 0.213502
0.226420 0.226420 0.226420
0.270884 0.270884 0.270884
0.293235 0.293235 0.293204
0.312331 0.312343 0.312274
0.304447 0.304456 0.304395
0.293504 0.293504 0.293481
0.282532 0.282532 0.282522
0.271596 0.271596 0.271590
0.260700 0.260700 0.260695
0.249826 0.249826 0.249826
0.238988 0.238988 0.238988
0.228256 0.228256 0.228256
0.217584 0.217584 0.217584
0.206975 0.206975 0.206975
0.198597 0.198597 0.198597
0.209371 0.209371 0.209371
0.222284 0.222284 0.222284
0.291047 0.291047 0.291033
0.313529 0.313556 0.313485
0.332450 0.332489 0.332368
0.324535 0.324565 0.324451
0.313598 0.313610 0.313534
0.302657 0.302669 0.302614
0.291698 0.291698 0.291682
0.280728 0.280728 0.280720
0.269822 0.269822 0.269822
0.258876 0.258876 0.258876
0.248015 0.248015 0.248015
0.237241 0.237241 0.237241
0.226476 0.226476 0.226476
0.215832 0.215832 0.215832
0.206520 0.206520 0.206520
0.218202 0.218202 0.218202
0.311125 0.311125 0.311064
0.333508 0.333566 0.333438
0.352764 0.352560 0.352124
0.344806 0.344642 0.344322
0.333654 0.333637 0.333466
0.322697 0.322697 0.322609
0.311748 0.311764 0.311687
0.300780 0.300788 0.300760
0.289814 0.289814 0.289798
0.278839 0.278839 0.278831
0.267898 0.267898 0.267898
0.257050 0.257050 0.257050
0.246182 0.246182 0.246182
0.235397 0.235397 0.235397
0.224616 0.224616 0.224616
0.214132 0.214132 0.214132
0.040686 0.040686 0.040686
0.061097 0.061097 0.061097
0.081763 0.081763 0.081763
0.101550 0.101550 0.101550
0.114906 0.114906 0.114906
0.127354 0.127354 0.127354
0.139852 0.139852 0.139852
0.152403 0.152403 0.152403
0.165045 0.165045 0.165045
0.177733 0.177733 0.177733
0.190472 0.190472 0.190472
0.203348 0.203348 0.203348
0.216304 0.216304 0.216304
0.229361 0.229361 0.229361
0.242480 0.242480 0.242480
0.255699 0.255699 0.255699
0.058872 0.058872 0.058872
0.079627 0.079627 0.079627
0.100324 0.100324 0.100324
0.120189 0.120189 0.120189
0.133636 0.133636 0.133636
0.146145 0.146145 0.146145
0.158757 0.158757 0.158757
0.171406 0.171406 0.171406
0.184142 0.184142 0.184142
0.196907 0.196907 0.196907
0.209847 0.209847 0.209847
0.222846 0.222846 0.222846
0.235940 0.235940 0.235940
0.249130 0.249130 0.249130
0.262427 0.262427 0.262427
0.275691 0.275691 0.275690
0.077332 0.077332 0.077332
0.098025 0.098025 0.098025
0.118862 0.118862 0.118862
0.138897 0.138897 0.138897
0.152418 0.152418 0.152418
0.165055 0.165055 0.165055
0.177741 0.177741 0.177741
0.190505 0.190505 0.190505
0.203372 0.203372 0.203372
0.216317 0.216317 0.216317
0.229373 0.229373 0.229373
0.242526 0.242526 0.242526
0.255778 0.255778 0.255778
0.269116 0.269116 0.269113
0.282496 0.282496 0.282489
0.295826 0.295826 0.295801
0.095800 0.095800 0.095800
0.116703 0.116703 0.116703
0.137616 0.137616 0.137616
0.156761 0.156761 0.156761
0.168828 0.168828 0.168828
0.181534 0.181534 0.181534
0.194323 0.194323 0.194323
0.207230 0.207230 0.207230
0.220203 0.220203 0.220203
0.233307 0.233307 0.233307
0.246486 0.246486 0.246486
0.259751 0.259751 0.259751
0.273099 0.273099 0.273093
0.286490 0.286490 0.286479
0.299885 0.299891 0.299848
0.313231 0.313255 0.313182
0.114368 0.114368 0.114368
0.135377 0.135377 0.135377
0.156452 0.156452 0.156452
0.174218 0.174218 0.174218
0.170098 0.170098 0.170098
0.180112 0.180112 0.180112
0.192911 0.192911 0.192911
0.205790 0.205790 0.205790
0.218776 0.218776 0.218776
0.231851 0.231851 0.231851
0.245024 0.245024 0.245024
0.258278 0.258278 0.258278
0.271625 0.271625 0.271617
0.285002 0.285002 0.284986
0.298386 0.298392 0.298361
0.311734 0.311746 0.311682
0.133103 0.133103 0.133103
0.154208 0.154208 0.154208
0.175438 0.175438 0.175438
0.193328 0.193328 0.193328
0.186493 0.186493 0.186493
0.178470 0.178470 0.178470
0.188840 0.188840 0.188840
0.201687 0.201687 0.201687
0.214616 0.214616 0.214616
0.227683 0.227683 0.227683
0.240813 0.240813 0.240813
0.254052 0.254052 0.254052
0.267364 0.267364 0.267364
0.280752 0.280752 0.280733
0.294115 0.294118 0.294095
0.307501 0.307513 0.307441
0.151914 0.151914 0.151914
0.173170 0.173170 0.173170
0.194620 0.194620 0.194620
0.212697 0.212697 0.212697
0.205750 0.205750 0.205750
0.195242 0.195242 0.195242
0.186515 0.186515 0.186515
0.197589 0.197589 0.197589
0.210512 0.210512 0.210512
0.223534 0.223534 0.223534
0.236650 0.236650 0.236650
0.249835 0.249835 0.249835
0.263118 0.263118 0.263118
0.276486 0.276486 0.276477
0.289901 0.289903 0.289862
0.303196 0.303209 0.303154
0.170911 0.170911 0.170911
0.192363 0.192363 0.192363
0.214020 0.214020 0.214020
0.232295 0.232295 0.232295
0.225289 0.225289 0.225289
0.214607 0.214607 0.214607
0.204023 0.204023 0.204023
0.194212 0.194212 0.194212
