example_ofxGpuLutCube/bin/data/ofxGpuLutCube/LUT/V4 (violet drama fade).cube
LUT_3D_SIZE 16
0.000000 0.000000 0.000000
0.068524 0.000000 0.000000
0.122640 0.000000 0.000000
0.166046 0.000000 0.000000
0.217611 0.000000 0.000000
0.279165 0.000000 0.000000
0.347803 0.000000 0.000000
0.420612 0.000000 0.000000
0.494643 0.000000 0.000000
0.568158 0.000000 0.000000
0.641042 0.000000 0.000000
0.713426 0.000000 0.000000
0.785425 0.000000 0.000000
0.857106 0.000000 0.000000
0.928611 0.000000 0.000000
0.999665 0.000000 0.000000
0.000000 0.045282 0.000000
0.068524 0.045282 0.000000
0.122640 0.045282 0.000000
0.166046 0.045282 0.000000
0.217611 0.045282 0.000000
0.279165 0.045282 0.000000
0.347803 0.045282 0.000000
0.420612 0.045282 0.000000
0.494643 0.045282 0.000000
0.568158 0.045282 0.000000
0.641042 0.045282 0.000000
0.713426 0.045282 0.000000
0.785425 0.045282 0.000000
0.857106 0.045282 0.000000
0.928611 0.045282 0.000000
0.999665 0.045282 0.000000
0.000000 0.092517 0.000000
0.068524 0.092517 0.000000
0.122640 0.092517 0.000000
0.166046 0.092517 0.000000
0.217611 0.092517 0.000000
0.279165 0.092517 0.000000
0.347803 0.092517 0.000000
0.420612 0.092517 0.000000
0.494643 0.092517 0.000000
0.568158 0.092517 0.000000
0.641042 0.092517 0.000000
0.713426 0.092517 0.000000
0.785425 0.092517 0.000000
0.857106 0.092517 0.000000
0.928611 0.092517 0.000000
0.999665 0.092517 0.000000
0.000000 0.144306 0.000000
0.068524 0.144306 0.000000
0.122640 0.144306 0.000000
0.166046 0.144306 0.000000
0.217611 0.144306 0.000000
0.279165 0.144306 0.000000
0.347803 0.144306 0.000000
0.420612 0.144306 0.000000
0.494643 0.144306 0.000000
0.568158 0.144306 0.000000
0.641042 0.144306 0.000000
0.713426 0.144306 0.000000
0.785425 0.144306 0.000000
0.857106 0.144306 0.000000
0.928611 0.144306 0.000000
0.999665 0.144306 0.000000
0.000000 0.205308 0.000000
0.068524 0.205308 0.000000
0.122640 0.205308 0.000000
0.166046 0.205308 0.000000
0.217611 0.205308 0.000000
0.279165 0.205308 0.000000
0.347803 0.205308 0.000000
0.420612 0.205308 0.000000
0.494643 0.205308 0.000000
0.568158 0.205308 0.000000
0.641042 0.205308 0.000000
0.713426 0.205308 0.000000
0.785425 0.205308 0.000000
0.857106 0.205308 0.000000
0.928611 0.205308 0.000000
0.999665 0.205308 0.000000
0.000000 0.273356 0.000000
0.068524 0.273356 0.000000
0.122640 0.273356 0.000000
0.166046 0.273356 0.000000
0.217611 0.273356 0.000000
0.279165 0.273356 0.000000
0.347803 0.273356 0.000000
0.420612 0.273356 0.000000
0.494643 0.273356 0.000000
0.568158 0.273356 0.000000
0.641042 0.273356 0.000000
0.713426 0.273356 0.000000
0.785425 0.273356 0.000000
0.857106 0.273356 0.000000
0.928611 0.273356 0.000000
0.999665 0.273356 0.000000
0.000000 0.343976 0.000000
0.068524 0.343976 0.000000
0.122640 0.343976 0.000000
0.166046 0.343976 0.000000
0.217611 0.343976 0.000000
0.279165 0.343976 0.000000
0.347803 0.343976 0.000000
0.420612 0.343976 0.000000
0.494643 0.343976 0.000000
0.568158 0.343976 0.000000
0.641042 0.343976 0.000000
0.713426 0.343976 0.000000
0.785425 0.343976 0.000000
0.857106 0.343976 0.000000
0.928611 0.343976 0.000000
0.999665 0.343976 0.000000
0.000000 0.415778 0.000000
0.068524 0.415778 0.000000
0.122640 0.415778 0.000000
0.166046 0.415778 0.000000
0.217611 0.415778 0.000000
0.279165 0.415778 0.000000
0.347803 0.415778 0.000000
0.420612 0.415778 0.000000
0.494643 0.415778 0.000000
0.568158 0.415778 0.000000
0.641042 0.415778 0.000000
0.713426 0.415778 0.000000
0.785425 0.415778 0.000000
0.857106 0.415778 0.000000
0.928611 0.415778 0.000000
0.999665 0.415778 0.000000
0.000000 0.488106 0.000000
0.068524 0.488106 0.000000
0.122640 0.488106 0.000000
0.166046 0.488106 0.000000
0.217611 0.488106 0.000000
0.279165 0.488106 0.000000
0.347803 0.488106 0.000000
0.420612 0.488106 0.000000
0.494643 0.488106 0.000000
0.568158 0.488106 0.000000
0.641042 0.488106 0.000000
0.713426 0.488106 0.000000
0.785425 0.488106 0.000000
0.857106 0.488106 0.000000
0.928611 0.488106 0.000000
0.999665 0.488106 0.000000
0.000000 0.560718 0.000000
0.068524 0.560718 0.000000
0.122640 0.560718 0.000000
0.166046 0.560718 0.000000
0.217611 0.560718 0.000000
0.279165 0.560718 0.000000
0.347803 0.560718 0.000000
0.420612 0.560718 0.000000
0.494643 0.560718 0.000000
0.568158 0.560718 0.000000
0.641042 0.560718 0.000000
0.713426 0.560718 0.000000
0.785425 0.560718 0.000000
0.857106 0.560718 0.000000
0.928611 0.560718 0.000000
0.999665 0.560718 0.000000
0.000000 0.633565 0.000000
0.068524 0.633565 0.000000
0.122640 0.633565 0.000000
0.166046 0.633565 0.000000
0.217611 0.633565 0.000000
0.279165 0.633565 0.000000
0.347803 0.633565 0.000000
0.420612 0.633565 0.000000
0.494643 0.633565 0.000000
0.568158 0.633565 0.000000
0.641042 0.633565 0.000000
0.713426 0.633565 0.000000
0.785425 0.633565 0.000000
0.857106 0.633565 0.000000
0.928611 0.633565 0.000000
0.999665 0.633565 0.000000
0.000000 0.706621 0.000000
0.068524 0.706621 0.000000
0.122640 0.706621 0.000000
0.166046 0.706621 0.000000
0.217611 0.706621 0.000000
0.279165 0.706621 0.000000
0.347803 0.706621 0.000000
0.420612 0.706621 0.000000
0.494643 0.706621 0.000000
0.568158 0.706621 0.000000
0.641042 0.706621 0.000000
0.713426 0.706621 0.000000
0.785425 0.706621 0.000000
0.857106 0.706621 0.000000
0.928611 0.706621 0.000000
0.999665 0.706621 0.000000
0.000000 0.779816 0.000000
0.068524 0.779816 0.000000
0.122640 0.779816 0.000000
0.166046 0.779816 0.000000
0.217611 0.779816 0.000000
0.279165 0.779816 0.000000
0.347803 0.779816 0.000000
0.420612 0.779816 0.000000
0.494643 0.779816 0.000000
0.568158 0.779816 0.000000
0.641042 0.779816 0.000000
0.713426 0.779816 0.000000
0.785425 0.779816 0.000000
0.857106 0.779816 0.000000
0.928611 0.779816 0.000000
0.999665 0.779816 0.000000
0.000000 0.853142 0.000000
0.068524 0.853142 0.000000
0.122640 0.853142 0.000000
0.166046 0.853142 0.000000
0.217611 0.853142 0.000000
0.279165 0.853142 0.000000
0.347803 0.853142 0.000000
0.420612 0.853142 0.000000
0.494643 0.853142 0.000000
0.568158 0.853142 0.000000
0.641042 0.853142 0.000000
0.713426 0.853142 0.000000
0.785425 0.853142 0.000000
0.857106 0.853142 0.000000
0.928611 0.853142 0.000000
0.999665 0.853142 0.000000
0.000000 0.926562 0.000000
0.068524 0.926562 0.000000
0.122640 0.926562 0.000000
0.166046 0.926562 0.000000
0.217611 0.926562 0.000000
0.279165 0.926562 0.000000
0.347803 0.926562 0.000000
0.420612 0.926562 0.000000
0.494643 0.926562 0.000000
0.568158 0.926562 0.000000
0.641042 0.926562 0.000000
0.713426 0.926562 0.000000
0.785425 0.926562 0.000000
0.857106 0.926562 0.000000
0.928611 0.926562 0.000000
0.999665 0.926562 0.000000
0.000000 0.999656 0.000000
0.068524 0.999656 0.000000
0.122640 0.999656 0.000000
0.166046 0.999656 0.000000
0.217611 0.999656 0.000000
0.279165 0.999656 0.000000
0.347803 0.999656 0.000000
0.420612 0.999656 0.000000
0.494643 0.999656 0.000000
0.568158 0.999656 0.000000
0.641042 0.999656 0.000000
0.713426 0.999656 0.000000
0.785425 0.999656 0.000000
0.857106 0.999656 0.000000
0.928611 0.999656 0.000000
0.999665 0.999656 0.000000
0.000000 0.000000 0.139388
0.068524 0.000000 0.139388
0.122640 0.000000 0.139388
0.166046 0.000000 0.139388
0.217611 0.000000 0.139388
0.279165 0.000000 0.139388
0.347803 0.000000 0.139388
0.420612 0.000000 0.139388
0.494643 0.000000 0.139388
0.568158 0.000000 0.139388
0.641042 0.000000 0.139388
0.713426 0.000000 0.139388
0.785425 0.000000 0.139388
0.857106 0.000000 0.139388
0.928611 0.000000 0.139388
0.999665 0.000000 0.139388
0.000000 0.045282 0.139388
0.068524 0.045282 0.139388
0.122640 0.045282 0.139388
0.166046 0.045282 0.139388
0.217611 0.045282 0.139388
0.279165 0.045282 0.139388
0.347803 0.045282 0.139388
0.420612 0.045282 0.139388
0.494643 0.045282 0.139388
0.568158 0.045282 0.139388
0.641042 0.045282 0.139388
0.713426 0.045282 0.139388
0.785425 0.045282 0.139388
0.857106 0.045282 0.139388
0.928611 0.045282 0.139388
0.999665 0.045282 0.139388
0.000000 0.092517 0.139388
0.068524 0.092517 0.139388
0.122640 0.092517 0.139388
0.166046 0.092517 0.139388
0.217611 0.092517 0.139388
0.279165 0.092517 0.139388
0.347803 0.092517 0.139388
0.420612 0.092517 0.139388
0.494643 0.092517 0.139388
0.568158 0.092517 0.139388
0.641042 0.092517 0.139388
0.713426 0.092517 0.139388
0.785425 0.092517 0.139388
0.857106 0.092517 0.139388
0.928611 0.092517 0.139388
0.999665 0.092517 0.139388
0.000000 0.144306 0.139388
0.068524 0.144306 0.139388
0.122640 0.144306 0.139388
0.166046 0.144306 0.139388
0.217611 0.144306 0.139388
0.279165 0.144306 0.139388
0.347803 0.144306 0.139388
0.420612 0.144306 0.139388
0.494643 0.144306 0.139388
0.568158 0.144306 0.139388
0.641042 0.144306 0.139388
0.713426 0.144306 0.139388
0.785425 0.144306 0.139388
0.857106 0.144306 0.139388
0.928611 0.144306 0.139388
0.999665 0.144306 0.139388
0.000000 0.205308 0.139388
0.068524 0.205308 0.139388
0.122640 0.205308 0.139388
0.166046 0.205308 0.139388
0.217611 0.205308 0.139388
0.279165 0.205308 0.139388
0.347803 0.205308 0.139388
0.420612 0.205308 0.139388
0.494643 0.205308 0.139388
0.568158 0.205308 0.139388
0.641042 0.205308 0.139388
0.713426 0.205308 0.139388
0.785425 0.205308 0.139388
0.857106 0.205308 0.139388
0.928611 0.205308 0.139388
0.999665 0.205308 0.139388
0.000000 0.273356 0.139388
0.068524 0.273356 0.139388
0.122640 0.273356 0.139388
0.166046 0.273356 0.139388
0.217611 0.273356 0.139388
0.279165 0.273356 0.139388
0.347803 0.273356 0.139388
0.420612 0.273356 0.139388
0.494643 0.273356 0.139388
0.568158 0.273356 0.139388
0.641042 0.273356 0.139388
0.713426 0.273356 0.139388
0.785425 0.273356 0.139388
0.857106 0.273356 0.139388
0.928611 0.273356 0.139388
0.999665 0.273356 0.139388
0.000000 0.343976 0.139388
0.068524 0.343976 0.139388
0.122640 0.343976 0.139388
0.166046 0.343976 0.139388
0.217611 0.343976 0.139388
0.279165 0.343976 0.139388
0.347803 0.343976 0.139388
0.420612 0.343976 0.139388
0.494643 0.343976 0.139388
0.568158 0.343976 0.139388
0.641042 0.343976 0.139388
0.713426 0.343976 0.139388
0.785425 0.343976 0.139388
0.857106 0.343976 0.139388
0.928611 0.343976 0.139388
0.999665 0.343976 0.139388
0.000000 0.415778 0.139388
0.068524 0.415778 0.139388
0.122640 0.415778 0.139388
0.166046 0.415778 0.139388
0.217611 0.415778 0.139388
0.279165 0.415778 0.139388
0.347803 0.415778 0.139388
0.420612 0.415778 0.139388
0.494643 0.415778 0.139388
0.568158 0.415778 0.139388
0.641042 0.415778 0.139388
0.713426 0.415778 0.139388
0.785425 0.415778 0.139388
0.857106 0.415778 0.139388
0.928611 0.415778 0.139388
0.999665 0.415778 0.139388
0.000000 0.488106 0.139388
0.068524 0.488106 0.139388
0.122640 0.488106 0.139388
0.166046 0.488106 0.139388
0.217611 0.488106 0.139388
0.279165 0.488106 0.139388
0.347803 0.488106 0.139388
0.420612 0.488106 0.139388
0.494643 0.488106 0.139388
0.568158 0.488106 0.139388
0.641042 0.488106 0.139388
0.713426 0.488106 0.139388
0.785425 0.488106 0.139388
0.857106 0.488106 0.139388
0.928611 0.488106 0.139388
0.999665 0.488106 0.139388
0.000000 0.560718 0.139388
0.068524 0.560718 0.139388
0.122640 0.560718 0.139388
0.166046 0.560718 0.139388
0.217611 0.560718 0.139388
0.279165 0.560718 0.139388
0.347803 0.560718 0.139388
0.420612 0.560718 0.139388
0.494643 0.560718 0.139388
0.568158 0.560718 0.139388
0.641042 0.560718 0.139388
0.713426 0.560718 0.139388
0.785425 0.560718 0.139388
0.857106 0.560718 0.139388
0.928611 0.560718 0.139388
0.999665 0.560718 0.139388
0.000000 0.633565 0.139388
0.068524 0.633565 0.139388
0.122640 0.633565 0.139388
0.166046 0.633565 0.139388
0.217611 0.633565 0.139388
0.279165 0.633565 0.139388
0.347803 0.633565 0.139388
0.420612 0.633565 0.139388
0.494643 0.633565 0.139388
0.568158 0.633565 0.139388
0.641042 0.633565 0.139388
0.713426 0.633565 0.139388
0.785425 0.633565 0.139388
0.857106 0.633565 0.139388
0.928611 0.633565 0.139388
0.999665 0.633565 0.139388
0.000000 0.706621 0.139388
0.068524 0.706621 0.139388
0.122640 0.706621 0.139388
0.166046 0.706621 0.139388
0.217611 0.706621 0.139388
0.279165 0.706621 0.139388
0.347803 0.706621 0.139388
0.420612 0.706621 0.139388
0.494643 0.706621 0.139388
0.568158 0.706621 0.139388
0.641042 0.706621 0.139388
0.713426 0.706621 0.139388
0.785425 0.706621 0.139388
0.857106 0.706621 0.139388
0.928611 0.706621 0.139388
0.999665 0.706621 0.139388
0.000000 0.779816 0.139388
0.068524 0.779816 0.139388
0.122640 0.779816 0.139388
0.166046 0.779816 0.139388
0.217611 0.779816 0.139388
0.279165 0.779816 0.139388
0.347803 0.779816 0.139388
0.420612 0.779816 0.139388
0.494643 0.779816 0.139388
0.568158 0.779816 0.139388
0.641042 0.779816 0.139388
0.713426 0.779816 0.139388
0.785425 0.779816 0.139388
0.857106 0.779816 0.139388
0.928611 0.779816 0.139388
0.999665 0.779816 0.139388
0.000000 0.853142 0.139388
0.068524 0.853142 0.139388
0.122640 0.853142 0.139388
0.166046 0.853142 0.139388
0.217611 0.853142 0.139388
0.279165 0.853142 0.139388
0.347803 0.853142 0.139388
0.420612 0.853142 0.139388
0.494643 0.853142 0.139388
0.568158 0.853142 0.139388
0.641042 0.853142 0.139388
0.713426 0.853142 0.139388
0.785425 0.853142 0.139388
0.857106 0.853142 0.139388
0.928611 0.853142 0.139388
0.999665 0.853142 0.139388
0.000000 0.926562 0.139388
0.068524 0.926562 0.139388
0.122640 0.926562 0.139388
0.166046 0.926562 0.139388
0.217611 0.926562 0.139388
0.279165 0.926562 0.139388
0.347803 0.926562 0.139388
0.420612 0.926562 0.139388
0.494643 0.926562 0.139388
0.568158 0.926562 0.139388
0.641042 0.926562 0.139388
0.713426 0.926562 0.139388
0.785425 0.926562 0.139388
0.857106 0.926562 0.139388
0.928611 0.926562 0.139388
0.999665 0.926562 0.139388
0.000000 0.999656 0.139388
0.068524 0.999656 0.139388
0.122640 0.999656 0.139388
0.166046 0.999656 0.139388
0.217611 0.999656 0.139388
0.279165 0.999656 0.139388
0.347803 0.999656 0.139388
0.420612 0.999656 0.139388
0.494643 0.999656 0.139388
0.568158 0.999656 0.139388
0.641042 0.999656 0.139388
0.713426 0.999656 0.139388
0.785425 0.999656 0.139388
0.857106 0.999656 0.139388
0.928611 0.999656 0.139388
0.999665 0.999656 0.139388
0.000000 0.000000 0.221681
0.068524 0.000000 0.221681
0.122640 0.000000 0.221681
0.166046 0.000000 0.221681
0.217611 0.000000 0.221681
0.279165 0.000000 0.221681
0.347803 0.000000 0.221681
0.420612 0.000000 0.221681
0.494643 0.000000 0.221681
0.568158 0.000000 0.221681
0.641042 0.000000 0.221681
0.713426 0.000000 0.221681
0.785425 0.000000 0.221681
0.857106 0.000000 0.221681
0.928611 0.000000 0.221681
0.999665 0.000000 0.221681
0.000000 0.045282 0.221681
0.068524 0.045282 0.221681
0.122640 0.045282 0.221681
0.166046 0.045282 0.221681
0.217611 0.045282 0.221681
0.279165 0.045282 0.221681
0.347803 0.045282 0.221681
0.420612 0.045282 0.221681
0.494643 0.045282 0.221681
0.568158 0.045282 0.221681
0.641042 0.045282 0.221681
0.713426 0.045282 0.221681
0.785425 0.045282 0.221681
0.857106 0.045282 0.221681
0.928611 0.045282 0.221681
0.999665 0.045282 0.221681
0.000000 0.092517 0.221681
0.068524 0.092517 0.221681
0.122640 0.092517 0.221681
0.166046 0.092517 0.221681
0.217611 0.092517 0.221681
0.279165 0.092517 0.221681
0.347803 0.092517 0.221681
0.420612 0.092517 0.221681
0.494643 0.092517 0.221681
0.568158 0.092517 0.221681
0.641042 0.092517 0.221681
0.713426 0.092517 0.221681
0.785425 0.092517 0.221681
0.857106 0.092517 0.221681
0.928611 0.092517 0.221681
0.999665 0.092517 0.221681
0.000000 0.144306 0.221681
0.068524 0.144306 0.221681
0.122640 0.144306 0.221681
0.166046 0.144306 0.221681
0.217611 0.144306 0.221681
0.279165 0.144306 0.221681
0.347803 0.144306 0.221681
0.420612 0.144306 0.221681
0.494643 0.144306 0.221681
0.568158 0.144306 0.221681
0.641042 0.144306 0.221681
0.713426 0.144306 0.221681
0.785425 0.144306 0.221681
0.857106 0.144306 0.221681
0.928611 0.144306 0.221681
0.999665 0.144306 0.221681
0.000000 0.205308 0.221681
0.068524 0.205308 0.221681
0.122640 0.205308 0.221681
0.166046 0.205308 0.221681
0.217611 0.205308 0.221681
0.279165 0.205308 0.221681
0.347803 0.205308 0.221681
0.420612 0.205308 0.221681
0.494643 0.205308 0.221681
0.568158 0.205308 0.221681
0.641042 0.205308 0.221681
0.713426 0.205308 0.221681
0.785425 0.205308 0.221681
0.857106 0.205308 0.221681
0.928611 0.205308 0.221681
0.999665 0.205308 0.221681
0.000000 0.273356 0.221681
0.068524 0.273356 0.221681
0.122640 0.273356 0.221681
0.166046 0.273356 0.221681
0.217611 0.273356 0.221681
0.279165 0.273356 0.221681
0.347803 0.273356 0.221681
0.420612 0.273356 0.221681
0.494643 0.273356 0.221681
0.568158 0.273356 0.221681
0.641042 0.273356 0.221681
0.713426 0.273356 0.221681
0.785425 0.273356 0.221681
0.857106 0.273356 0.221681
0.928611 0.273356 0.221681
0.999665 0.273356 0.221681
0.000000 0.343976 0.221681
0.068524 0.343976 0.221681
0.122640 0.343976 0.221681
0.166046 0.343976 0.221681
0.217611 0.343976 0.221681
0.279165 0.343976 0.221681
0.347803 0.343976 0.221681
0.420612 0.343976 0.221681
0.494643 0.343976 0.221681
0.568158 0.343976 0.221681
0.641042 0.343976 0.221681
0.713426 0.343976 0.221681
0.785425 0.343976 0.221681
0.857106 0.343976 0.221681
0.928611 0.343976 0.221681
0.999665 0.343976 0.221681
0.000000 0.415778 0.221681
0.068524 0.415778 0.221681
0.122640 0.415778 0.221681
0.166046 0.415778 0.221681
0.217611 0.415778 0.221681
0.279165 0.415778 0.221681
0.347803 0.415778 0.221681
0.420612 0.415778 0.221681
0.494643 0.415778 0.221681
0.568158 0.415778 0.221681
0.641042 0.415778 0.221681
0.713426 0.415778 0.221681
0.785425 0.415778 0.221681
0.857106 0.415778 0.221681
0.928611 0.415778 0.221681
0.999665 0.415778 0.221681
0.000000 0.488106 0.221681
0.068524 0.488106 0.221681
0.122640 0.488106 0.221681
0.166046 0.488106 0.221681
0.217611 0.488106 0.221681
0.279165 0.488106 0.221681
0.347803 0.488106 0.221681
0.420612 0.488106 0.221681
0.494643 0.488106 0.221681
0.568158 0.488106 0.221681
0.641042 0.488106 0.221681
0.713426 0.488106 0.221681
0.785425 0.488106 0.221681
0.857106 0.488106 0.221681
0.928611 0.488106 0.221681
0.999665 0.488106 0.221681
0.000000 0.560718 0.221681
0.068524 0.560718 0.221681
0.122640 0.560718 0.221681
0.166046 0.560718 0.221681
0.217611 0.560718 0.221681
0.279165 0.560718 0.221681
0.347803 0.560718 0.221681
0.420612 0.560718 0.221681
0.494643 0.560718 0.221681
0.568158 0.560718 0.221681
0.641042 0.560718 0.221681
0.713426 0.560718 0.221681
0.785425 0.560718 0.221681
0.857106 0.560718 0.221681
0.928611 0.560718 0.221681
0.999665 0.560718 0.221681
0.000000 0.633565 0.221681
0.068524 0.633565 0.221681
0.122640 0.633565 0.221681
0.166046 0.633565 0.221681
0.217611 0.633565 0.221681
0.279165 0.633565 0.221681
0.347803 0.633565 0.221681
0.420612 0.633565 0.221681
0.494643 0.633565 0.221681
0.568158 0.633565 0.221681
0.641042 0.633565 0.221681
0.713426 0.633565 0.221681
0.785425 0.633565 0.221681
0.857106 0.633565 0.221681
0.928611 0.633565 0.221681
0.999665 0.633565 0.221681
0.000000 0.706621 0.221681
0.068524 0.706621 0.221681
0.122640 0.706621 0.221681
0.166046 0.706621 0.221681
0.217611 0.706621 0.221681
0.279165 0.706621 0.221681
0.347803 0.706621 0.221681
0.420612 0.706621 0.221681
0.494643 0.706621 0.221681
0.568158 0.706621 0.221681
0.641042 0.706621 0.221681
0.713426 0.706621 0.221681
0.785425 0.706621 0.221681
0.857106 0.706621 0.221681
0.928611 0.706621 0.221681
0.999665 0.706621 0.221681
0.000000 0.779816 0.221681
0.068524 0.779816 0.221681
0.122640 0.779816 0.221681
0.166046 0.779816 0.221681
0.217611 0.779816 0.221681
0.279165 0.779816 0.221681
0.347803 0.779816 0.221681
0.420612 0.779816 0.221681
0.494643 0.779816 0.221681
0.568158 0.779816 0.221681
0.641042 0.779816 0.221681
0.713426 0.779816 0.221681
0.785425 0.779816 0.221681
0.857106 0.779816 0.221681
0.928611 0.779816 0.221681
0.999665 0.779816 0.221681
0.000000 0.853142 0.221681
0.068524 0.853142 0.221681
0.122640 0.853142 0.221681
0.166046 0.853142 0.221681
0.217611 0.853142 0.221681
0.279165 0.853142 0.221681
0.347803 0.853142 0.221681
0.420612 0.853142 0.221681
0.494643 0.853142 0.221681
0.568158 0.853142 0.221681
0.641042 0.853142 0.221681
0.713426 0.853142 0.221681
0.785425 0.853142 0.221681
0.857106 0.853142 0.221681
0.928611 0.853142 0.221681
0.999665 0.853142 0.221681
0.000000 0.926562 0.221681
0.068524 0.926562 0.221681
0.122640 0.926562 0.221681
0.166046 0.926562 0.221681
0.217611 0.926562 0.221681
0.279165 0.926562 0.221681
0.347803 0.926562 0.221681
0.420612 0.926562 0.221681
0.494643 0.926562 0.221681
0.568158 0.926562 0.221681
0.641042 0.926562 0.221681
0.713426 0.926562 0.221681
0.785425 0.926562 0.221681
0.857106 0.926562 0.221681
0.928611 0.926562 0.221681
0.999665 0.926562 0.221681
0.000000 0.999656 0.221681
0.068524 0.999656 0.221681
0.122640 0.999656 0.221681
0.166046 0.999656 0.221681
0.217611 0.999656 0.221681
0.279165 0.999656 0.221681
0.347803 0.999656 0.221681
0.420612 0.999656 0.221681
0.494643 0.999656 0.221681
0.568158 0.999656 0.221681
0.641042 0.999656 0.221681
0.713426 0.999656 0.221681
0.785425 0.999656 0.221681
0.857106 0.999656 0.221681
0.928611 0.999656 0.221681
0.999665 0.999656 0.221681
0.000000 0.000000 0.259754
0.068524 0.000000 0.259754
0.122640 0.000000 0.259754
0.166046 0.000000 0.259754
0.217611 0.000000 0.259754
0.279165 0.000000 0.259754
0.347803 0.000000 0.259754
0.420612 0.000000 0.259754
0.494643 0.000000 0.259754
0.568158 0.000000 0.259754
0.641042 0.000000 0.259754
0.713426 0.000000 0.259754
0.785425 0.000000 0.259754
0.857106 0.000000 0.259754
0.928611 0.000000 0.259754
0.999665 0.000000 0.259754
0.000000 0.045282 0.259754
0.068524 0.045282 0.259754
0.122640 0.045282 0.259754
0.166046 0.045282 0.259754
0.217611 0.045282 0.259754
0.279165 0.045282 0.259754
0.347803 0.045282 0.259754
0.420612 0.045282 0.259754
0.494643 0.045282 0.259754
0.568158 0.045282 0.259754
0.641042 0.045282 0.259754
0.713426 0.045282 0.259754
0.785425 0.045282 0.259754
0.857106 0.045282 0.259754
0.928611 0.045282 0.259754
0.999665 0.045282 0.259754
0.000000 0.092517 0.259754
0.068524 0.092517 0.259754
0.122640 0.092517 0.259754
0.166046 0.092517 0.259754
0.217611 0.092517 0.259754
0.279165 0.092517 0.259754
0.347803 0.092517 0.259754
0.420612 0.092517 0.259754
0.494643 0.092517 0.259754
0.568158 0.092517 0.259754
0.641042 0.092517 0.259754
0.713426 0.092517 0.259754
0.785425 0.092517 0.259754
0.857106 0.092517 0.259754
0.928611 0.092517 0.259754
0.999665 0.092517 0.259754
0.000000 0.144306 0.259754
0.068524 0.144306 0.259754
0.122640 0.144306 0.259754
0.166046 0.144306 0.259754
0.217611 0.144306 0.259754
0.279165 0.144306 0.259754
0.347803 0.144306 0.259754
0.420612 0.144306 0.259754
0.494643 0.144306 0.259754
0.568158 0.144306 0.259754
0.641042 0.144306 0.259754
0.713426 0.144306 0.259754
0.785425 0.144306 0.259754
0.857106 0.144306 0.259754
0.928611 0.144306 0.259754
0.999665 0.144306 0.259754
0.000000 0.205308 0.259754
0.068524 0.205308 0.259754
0.122640 0.205308 0.259754
0.166046 0.205308 0.259754
0.217611 0.205308 0.259754
0.279165 0.205308 0.259754
0.347803 0.205308 0.259754
0.420612 0.205308 0.259754
0.494643 0.205308 0.259754
0.568158 0.205308 0.259754
0.641042 0.205308 0.259754
0.713426 0.205308 0.259754
0.785425 0.205308 0.259754
0.857106 0.205308 0.259754
0.928611 0.205308 0.259754
0.999665 0.205308 0.259754
0.000000 0.273356 0.259754
0.068524 0.273356 0.259754
0.122640 0.273356 0.259754
0.166046 0.273356 0.259754
0.217611 0.273356 0.259754
0.279165 0.273356 0.259754
0.347803 0.273356 0.259754
0.420612 0.273356 0.259754
0.494643 0.273356 0.259754
0.568158 0.273356 0.259754
0.641042 0.273356 0.259754
0.713426 0.273356 0.259754
0.785425 0.273356 0.259754
0.857106 0.273356 0.259754
0.928611 0.273356 0.259754
0.999665 0.273356 0.259754
0.000000 0.343976 0.259754
0.068524 0.343976 0.259754
0.122640 0.343976 0.259754
0.166046 0.343976 0.259754
0.217611 0.343976 0.259754
0.279165 0.343976 0.259754
0.347803 0.343976 0.259754
0.420612 0.343976 0.259754
0.494643 0.343976 0.259754
0.568158 0.343976 0.259754
0.641042 0.343976 0.259754
0.713426 0.343976 0.259754
0.785425 0.343976 0.259754
0.857106 0.343976 0.259754
0.928611 0.343976 0.259754
0.999665 0.343976 0.259754
0.000000 0.415778 0.259754
0.068524 0.415778 0.259754
0.122640 0.415778 0.259754
0.166046 0.415778 0.259754
0.217611 0.415778 0.259754
0.279165 0.415778 0.259754
0.347803 0.415778 0.259754
0.420612 0.415778 0.259754
