example_ofxGpuLutCube/bin/data/ofxGpuLutCube/LUT/V4 (violet drama fade).cube
LUT_3D_SIZE 6
0.000000 0.000000 0.000000
0.166046 0.000000 0.000000
0.347803 0.000000 0.000000
0.568158 0.000000 0.000000
0.785425 0.000000 0.000000
0.999665 0.000000 0.000000
0.000000 0.144306 0.000000
0.166046 0.144306 0.000000
0.347803 0.144306 0.000000
0.568158 0.144306 0.000000
0.785425 0.144306 0.000000
0.999665 0.144306 0.000000
0.000000 0.343976 0.000000
0.166046 0.343976 0.000000
0.347803 0.343976 0.000000
0.568158 0.343976 0.000000
0.785425 0.343976 0.000000
0.999665 0.343976 0.000000
0.000000 0.560718 0.000000
0.166046 0.560718 0.000000
0.347803 0.560718 0.000000
0.568158 0.560718 0.000000
0.785425 0.560718 0.000000
0.999665 0.560718 0.000000
0.000000 0.779816 0.000000
0.166046 0.779816 0.000000
0.347803 0.779816 0.000000
0.568158 0.779816 0.000000
0.785425 0.779816 0.000000
0.999665 0.779816 0.000000
0.000000 0.999656 0.000000
0.166046 0.999656 0.000000
0.347803 0.999656 0.000000
0.568158 0.999656 0.000000
0.785425 0.999656 0.000000
0.999665 0.999656 0.000000
0.000000 0.000000 0.259754
0.166046 0.000000 0.259754
0.347803 0.000000 0.259754
0.568158 0.000000 0.259754
0.785425 0.000000 0.259754
0.999665 0.000000 0.259754
0.000000 0.144306 0.259754
0.166046 0.144306 0.259754
0.347803 0.144306 0.259754
0.568158 0.144306 0.259754
0.785425 0.144306 0.259754
0.999665 0.144306 0.259754
0.000000 0.343976 0.259754
0.166046 0.343976 0.259754
0.347803 0.343976 0.259754
0.568158 0.343976 0.259754
0.785425 0.343976 0.259754
0.999665 0.343976 0.259754
0.000000 0.560718 0.259754
0.166046 0.560718 0.259754
0.347803 0.560718 0.259754
0.568158 0.560718 0.259754
0.785425 0.560718 0.259754
0.999665 0.560718 0.259754
0.000000 0.779816 0.259754
0.166046 0.779816 0.259754
0.347803 0.779816 0.259754
0.568158 0.779816 0.259754
0.785425 0.779816 0.259754
0.999665 0.779816 0.259754
0.000000 0.999656 0.259754
0.166046 0.999656 0.259754
0.347803 0.999656 0.259754
0.568158 0.999656 0.259754
0.785425 0.999656 0.259754
0.999665 0.999656 0.259754
0.000000 0.000000 0.413477
0.166046 0.000000 0.413477
0.347803 0.000000 0.413477
0.568158 0.000000 0.413477
0.785425 0.000000 0.413477
0.999665 0.000000 0.413477
0.000000 0.144306 0.413477
0.166046 0.144306 0.413477
0.347803 0.144306 0.413477
0.568158 0.144306 0.413477
0.785425 0.144306 0.413477
0.999665 0.144306 0.413477
0.000000 0.343976 0.413477
0.166046 0.343976 0.413477
0.347803 0.343976 0.413477
0.568158 0.343976 0.413477
0.785425 0.343976 0.413477
0.999665 0.343976 0.413477
0.000000 0.560718 0.413477
0.166046 0.560718 0.413477
0.347803 0.560718 0.413477
0.568158 0.560718 0.413477
0.785425 0.560718 0.413477
0.999665 0.560718 0.413477
0.000000 0.779816 0.413477
0.166046 0.779816 0.413477
0.347803 0.779816 0.413477
0.568158 0.779816 0.413477
0.785425 0.779816 0.413477
0.999665 0.779816 0.413477
0.000000 0.999656 0.413477
0.166046 0.999656 0.413477
0.347803 0.999656 0.413477
0.568158 0.999656 0.413477
0.785425 0.999656 0.413477
0.999665 0.999656 0.413477
0.000000 0.000000 0.594476
0.166046 0.000000 0.594476
0.347803 0.000000 0.594476
0.568158 0.000000 0.594476
0.785425 0.000000 0.594476
0.999665 0.000000 0.594476
0.000000 0.144306 0.594476
0.166046 0.144306 0.594476
0.347803 0.144306 0.594476
0.568158 0.144306 0.594476
0.785425 0.144306 0.594476
0.999665 0.144306 0.594476
0.000000 0.343976 0.594476
0.166046 0.343976 0.594476
0.347803 0.343976 0.594476
0.568158 0.343976 0.594476
0.785425 0.343976 0.594476
0.999665 0.343976 0.594476
0.000000 0.560718 0.594476
0.166046 0.560718 0.594476
0.347803 0.560718 0.594476
0.568158 0.560718 0.594476
0.785425 0.560718 0.594476
0.999665 0.560718 0.594476
0.000000 0.779816 0.594476
0.166046 0.779816 0.594476
0.347803 0.779816 0.594476
0.568158 0.779816 0.594476
0.785425 0.779816 0.594476
0.999665 0.779816 0.594476
0.000000 0.999656 0.594476
0.166046 0.999656 0.594476
0.347803 0.999656 0.594476
0.568158 0.999656 0.594476
0.785425 0.999656 0.594476
0.999665 0.999656 0.594476
0.000000 0.000000 0.792908
0.166046 0.000000 0.792908
0.347803 0.000000 0.792908
0.568158 0.000000 0.792908
0.785425 0.000000 0.792908
0.999665 0.000000 0.792908
0.000000 0.144306 0.792908
0.166046 0.144306 0.792908
0.347803 0.144306 0.792908
0.568158 0.144306 0.792908
0.785425 0.144306 0.792908
0.999665 0.144306 0.792908
0.000000 0.343976 0.792908
0.166046 0.343976 0.792908
0.347803 0.343976 0.792908
0.568158 0.343976 0.792908
0.785425 0.343976 0.792908
0.999665 0.343976 0.792908
0.000000 0.560718 0.792908
0.166046 0.560718 0.792908
0.347803 0.560718 0.792908
0.568158 0.560718 0.792908
0.785425 0.560718 0.792908
0.999665 0.560718 0.792908
0.000000 0.779816 0.792908
0.166046 0.779816 0.792908
0.347803 0.779816 0.792908
0.568158 0.779816 0.792908
0.785425 0.779816 0.792908
0.999665 0.779816 0.792908
0.000000 0.999656 0.792908
0.166046 0.999656 0.792908
0.347803 0.999656 0.792908
0.568158 0.999656 0.792908
0.785425 0.999656 0.792908
0.999665 0.999656 0.792908
0.000000 0.000000 0.999674
0.166046 0.000000 0.999674
0.347803 0.000000 0.999674
0.568158 0.000000 0.999674
0.785425 0.000000 0.999674
0.999665 0.000000 0.999674
0.000000 0.144306 0.999674
0.166046 0.144306 0.999674
0.347803 0.144306 0.999674
0.568158 0.144306 0.999674
0.785425 0.144306 0.999674
0.999665 0.144306 0.999674
0.000000 0.343976 0.999674
0.166046 0.343976 0.999674
0.347803 0.343976 0.999674
0.568158 0.343976 0.999674
0.785425 0.343976 0.999674
0.999665 0.343976 0.999674
0.000000 0.560718 0.999674
0.166046 0.560718 0.999674
0.347803 0.560718 0.999674
0.568158 0.560718 0.999674
0.785425 0.560718 0.999674
0.999665 0.560718 0.999674
0.000000 0.779816 0.999674
0.166046 0.779816 0.999674
0.347803 0.779816 0.999674
0.568158 0.779816 0.999674
0.785425 0.779816 0.999674
0.999665 0.779816 0.999674
0.000000 0.999656 0.999674
0.166046 0.999656 0.999674
0.347803 0.999656 0.999674
0.568158 0.999656 0.999674
0.785425 0.999656 0.999674
0.999665 0.999656 0.999674
