example_ofxGpuLutCube/bin/data/ofxGpuLutCube/LUT/V40 (retro B&W).cube
LUT_3D_SIZE 16
0.000000 0.000000 0.000000
0.014256 0.014256 0.014256
0.032876 0.032876 0.032876
0.059430 0.059430 0.059430
0.089121 0.089121 0.089121
0.121307 0.121307 0.121307
0.155860 0.155860 0.155860
0.192617 0.192617 0.192617
0.231571 0.231571 0.231571
0.272364 0.272364 0.272364
0.314921 0.314941 0.314860
0.358966 0.359058 0.358950
0.404327 0.404419 0.404327
0.450761 0.450822 0.450761
0.497900 0.497962 0.497900
0.545157 0.545218 0.545126
0.010803 0.010803 0.010803
0.028193 0.028193 0.028193
0.053540 0.053540 0.053540
0.082703 0.082703 0.082703
0.114378 0.114378 0.114378
0.148486 0.148486 0.148486
0.184734 0.184734 0.184734
0.223289 0.223289 0.223289
0.263629 0.263629 0.263629
0.305835 0.305839 0.305795
0.349610 0.349666 0.349572
0.394652 0.394744 0.394652
0.440846 0.440909 0.440846
0.487816 0.487877 0.487816
0.535318 0.535383 0.535287
0.582480 0.582602 0.582480
0.022888 0.022888 0.022888
0.047170 0.047170 0.047170
0.076278 0.076278 0.076278
0.107489 0.107489 0.107489
0.141060 0.141060 0.141060
0.176934 0.176934 0.176934
0.214929 0.214929 0.214929
0.254987 0.254987 0.254987
0.296750 0.296750 0.296717
0.340175 0.340248 0.340150
0.384978 0.385085 0.384978
0.431029 0.431108 0.431029
0.477884 0.477954 0.477884
0.525217 0.525285 0.525187
0.572684 0.572782 0.572660
0.619636 0.619736 0.619636
0.040289 0.040289 0.040289
0.068939 0.068939 0.068939
0.100024 0.100024 0.100024
0.133740 0.133740 0.133740
0.169208 0.169208 0.169208
0.206799 0.206799 0.206799
0.246387 0.246387 0.246387
0.287831 0.287831 0.287820
0.330920 0.330953 0.330878
0.375465 0.375542 0.375450
0.421232 0.421312 0.421232
0.467954 0.468015 0.467954
0.515210 0.515278 0.515187
0.562715 0.562806 0.562684
0.609958 0.610069 0.609958
0.656405 0.656496 0.656393
0.061639 0.061639 0.061639
0.092166 0.092166 0.092166
0.125220 0.125220 0.125220
0.160850 0.160850 0.160850
0.198614 0.198614 0.198614
0.237886 0.237886 0.237886
0.278928 0.278928 0.278928
0.321724 0.321739 0.321664
0.365902 0.365980 0.365889
0.411457 0.411549 0.411457
0.457986 0.458067 0.457986
0.505184 0.505253 0.505170
0.552655 0.552731 0.552624
0.600001 0.600115 0.599993
0.646817 0.646910 0.646788
0.692452 0.692560 0.692438
0.084442 0.084442 0.084442
0.116982 0.116982 0.116982
0.151860 0.151860 0.151860
0.189184 0.189184 0.189184
0.228666 0.228666 0.228666
0.270084 0.270084 0.270084
0.312547 0.312547 0.312498
0.356484 0.356573 0.356482
0.401740 0.401829 0.401740
0.448100 0.448173 0.448100
0.495192 0.495263 0.495171
0.542645 0.542720 0.542614
0.590004 0.590096 0.590000
0.636970 0.637062 0.636948
0.683067 0.683176 0.683045
0.727616 0.727738 0.727596
0.108697 0.108697 0.108697
0.143170 0.143170 0.143170
0.179788 0.179788 0.179788
0.218784 0.218784 0.218784
0.259796 0.259796 0.259796
0.302629 0.302649 0.302598
0.347032 0.347091 0.346999
0.392093 0.392184 0.392092
0.438212 0.438304 0.438212
0.485192 0.485262 0.485172
0.532562 0.532636 0.532536
0.580007 0.580098 0.580004
0.627059 0.627165 0.627056
0.673406 0.673497 0.673381
0.718484 0.718597 0.718454
0.761640 0.761762 0.761610
0.134460 0.134460 0.134460
0.170640 0.170640 0.170640
0.208995 0.208995 0.208995
0.249551 0.249551 0.249551
0.291959 0.291974 0.291944
0.336073 0.336124 0.336033
0.381615 0.381700 0.381609
0.428414 0.428479 0.428414
0.475228 0.475291 0.475228
0.522544 0.522628 0.522537
0.570009 0.570099 0.569988
0.617218 0.617309 0.617201
0.663693 0.663785 0.663663
0.709063 0.709177 0.709055
0.752836 0.752932 0.752805
0.794333 0.794483 0.794332
0.161646 0.161646 0.161646
0.199486 0.199486 0.199486
0.239413 0.239413 0.239413
0.281396 0.281397 0.281372
0.325084 0.325132 0.325053
0.370329 0.370420 0.370329
0.416825 0.416917 0.416825
0.464388 0.464453 0.464388
0.512457 0.512520 0.512426
0.559964 0.560033 0.559940
0.607226 0.607318 0.607226
0.653914 0.654022 0.653899
0.699535 0.699656 0.699533
0.743695 0.743797 0.743666
0.785848 0.785972 0.785824
0.825362 0.825485 0.825333
0.190125 0.190125 0.190125
0.229665 0.229665 0.229665
0.271014 0.271014 0.271012
0.314305 0.314324 0.314260
0.359113 0.359193 0.359089
0.405339 0.405428 0.405339
0.452651 0.452717 0.452651
0.500714 0.500775 0.500685
0.549010 0.549102 0.548980
0.597217 0.597309 0.597187
0.644100 0.644195 0.644088
0.689988 0.690104 0.689970
0.734478 0.734583 0.734451
0.777074 0.777196 0.777044
0.817328 0.817450 0.817297
0.854516 0.854638 0.854486
0.219818 0.219818 0.219818
0.260952 0.260952 0.260950
0.303592 0.303601 0.303546
0.348060 0.348126 0.348021
0.393936 0.394028 0.393936
0.440993 0.441064 0.440993
0.488867 0.488932 0.488859
0.537213 0.537275 0.537184
0.585488 0.585590 0.585468
0.633380 0.633472 0.633366
0.680295 0.680396 0.680267
0.725184 0.725286 0.725158
0.768173 0.768295 0.768173
0.808965 0.809087 0.808940
0.846965 0.847096 0.846943
0.881495 0.881627 0.881465
0.250773 0.250773 0.250773
0.293206 0.293208 0.293173
0.337104 0.337162 0.337066
0.382594 0.382679 0.382594
0.429413 0.429489 0.429413
0.477138 0.477216 0.477134
0.525353 0.525427 0.525336
0.573726 0.573817 0.573696
0.621714 0.621820 0.621712
0.668998 0.669092 0.668970
0.714992 0.715098 0.714962
0.759154 0.759276 0.759139
0.800520 0.800634 0.800496
0.839131 0.839263 0.839110
0.874556 0.874692 0.874539
0.906020 0.906158 0.905989
0.282629 0.282629 0.282629
0.326523 0.326565 0.326484
0.371456 0.371550 0.371456
0.417920 0.418011 0.417920
0.465398 0.465483 0.465398
0.513554 0.513615 0.513523
0.561890 0.561979 0.561859
0.610059 0.610162 0.610041
0.657535 0.657645 0.657505
0.703897 0.704016 0.703894
0.748625 0.748735 0.748594
0.791221 0.791334 0.791197
0.831095 0.831222 0.831051
0.867271 0.867399 0.867263
0.899743 0.899867 0.899714
0.927804 0.927938 0.927773
0.315879 0.315879 0.315818
0.360822 0.360906 0.360815
0.406550 0.406634 0.406550
0.453783 0.453853 0.453783
0.501772 0.501833 0.501750
0.550081 0.550170 0.550051
0.598314 0.598404 0.598313
0.646055 0.646148 0.646034
0.692744 0.692836 0.692713
0.737893 0.737989 0.737862
0.781074 0.781197 0.781044
0.821727 0.821849 0.821696
0.859267 0.859391 0.859252
0.893116 0.893244 0.893093
0.922285 0.922410 0.922255
0.946556 0.946678 0.946525
0.349908 0.349996 0.349874
0.395696 0.395764 0.395696
0.442278 0.442349 0.442278
0.490014 0.490075 0.490002
0.538323 0.538399 0.538293
0.586583 0.586674 0.586579
0.634434 0.634525 0.634411
0.681464 0.681556 0.681433
0.727041 0.727159 0.727037
0.770757 0.770874 0.770749
0.812079 0.812201 0.812049
0.850429 0.850577 0.850425
0.885291 0.885413 0.885260
0.915981 0.916108 0.915952
0.941816 0.941962 0.941786
0.962026 0.962178 0.962026
0.384903 0.384994 0.384903
0.431318 0.431383 0.431318
0.478368 0.478429 0.478360
0.526500 0.526561 0.526470
0.574723 0.574831 0.574709
0.622674 0.622776 0.622674
0.669914 0.670030 0.669908
0.716002 0.716094 0.715972
0.760183 0.760303 0.760152
0.802131 0.802253 0.802101
0.841315 0.841437 0.841285
0.877081 0.877217 0.877064
0.908852 0.908992 0.908822
0.935985 0.936116 0.935955
0.957847 0.957995 0.957817
0.974693 0.974846 0.974662
0.001707 0.001707 0.001707
0.016705 0.016705 0.016705
0.036486 0.036486 0.036486
0.063766 0.063766 0.063766
0.093937 0.093937 0.093937
0.126448 0.126448 0.126448
0.161402 0.161402 0.161402
0.198556 0.198556 0.198556
0.237708 0.237708 0.237708
0.278825 0.278825 0.278825
0.321600 0.321650 0.321551
0.365867 0.365958 0.365865
0.411411 0.411492 0.411411
0.457977 0.458065 0.457977
0.505184 0.505249 0.505158
0.552475 0.552567 0.552445
0.013014 0.013014 0.013014
0.031261 0.031261 0.031261
0.057231 0.057231 0.057231
0.086879 0.086879 0.086879
0.118883 0.118883 0.118883
0.153266 0.153266 0.153266
0.189871 0.189871 0.189871
0.228626 0.228626 0.228626
0.269312 0.269312 0.269307
0.311679 0.311689 0.311640
0.355642 0.355716 0.355604
0.400935 0.401015 0.400935
0.447249 0.447311 0.447249
0.494279 0.494341 0.494276
0.541784 0.541846 0.541754
0.588883 0.588979 0.588883
0.025946 0.025946 0.025946
0.050792 0.050792 0.050792
0.080243 0.080243 0.080243
0.111865 0.111865 0.111865
0.145722 0.145722 0.145722
0.181960 0.181960 0.181960
0.220233 0.220233 0.220233
0.260502 0.260502 0.260495
0.302541 0.302544 0.302502
0.346156 0.346229 0.346134
0.391150 0.391236 0.391150
0.437279 0.437367 0.437279
0.484257 0.484319 0.484250
0.531624 0.531686 0.531594
0.579083 0.579172 0.579060
0.625963 0.626055 0.625953
0.044389 0.044389 0.044389
0.072943 0.072943 0.072943
0.104385 0.104385 0.104385
0.138389 0.138389 0.138389
0.174157 0.174157 0.174157
0.212037 0.212037 0.212037
0.251869 0.251869 0.251869
0.293558 0.293570 0.293544
0.336829 0.336891 0.336797
0.381573 0.381663 0.381571
0.427494 0.427563 0.427494
0.474310 0.474371 0.474304
0.521605 0.521687 0.521595
0.569091 0.569183 0.569074
0.616294 0.616389 0.616294
0.662633 0.662727 0.662607
0.065971 0.065971 0.065971
0.096501 0.096501 0.096501
0.129854 0.129854 0.129854
0.165734 0.165734 0.165734
0.203804 0.203804 0.203804
0.243319 0.243319 0.243319
0.284612 0.284612 0.284594
0.327609 0.327642 0.327565
0.371981 0.372074 0.371981
0.417688 0.417762 0.417688
0.464334 0.464409 0.464333
0.511599 0.511660 0.511577
0.559054 0.559132 0.559032
0.606350 0.606446 0.606339
0.653055 0.653146 0.653030
0.698549 0.698652 0.698518
0.089145 0.089145 0.089145
0.121515 0.121515 0.121515
0.156681 0.156681 0.156681
0.194314 0.194314 0.194314
0.234052 0.234052 0.234052
0.275693 0.275693 0.275675
0.318409 0.318437 0.318373
0.362522 0.362611 0.362519
0.407940 0.408027 0.407940
0.454423 0.454500 0.454423
0.501573 0.501646 0.501562
0.549032 0.549113 0.549002
0.596376 0.596465 0.596365
0.643244 0.643352 0.643239
0.689166 0.689288 0.689162
0.733519 0.733631 0.733515
0.113721 0.113721 0.113721
0.147844 0.147844 0.147844
0.184849 0.184849 0.184849
0.224119 0.224119 0.224119
0.265354 0.265354 0.265354
0.308452 0.308475 0.308419
0.353029 0.353091 0.352998
0.398259 0.398351 0.398259
0.444541 0.444604 0.444541
0.491557 0.491618 0.491546
0.538973 0.539044 0.538940
0.586385 0.586479 0.586371
0.633370 0.633462 0.633363
0.679558 0.679652 0.679530
0.724431 0.724529 0.724401
0.767343 0.767443 0.767315
0.139772 0.139772 0.139772
0.175724 0.175724 0.175724
0.214275 0.214275 0.214275
0.255084 0.255084 0.255084
0.297729 0.297745 0.297700
0.342006 0.342076 0.341983
0.387729 0.387819 0.387727
0.434666 0.434751 0.434666
0.481606 0.481667 0.481582
0.528953 0.529035 0.528924
0.576404 0.576479 0.576386
0.623518 0.623612 0.623505
0.669874 0.669975 0.669855
0.715072 0.715170 0.715041
0.758584 0.758702 0.758553
0.799774 0.799896 0.799743
0.167183 0.167183 0.167183
0.204831 0.204831 0.204831
0.244914 0.244914 0.244914
0.287140 0.287141 0.287116
0.331008 0.331059 0.330953
0.376382 0.376465 0.376374
0.423081 0.423150 0.423081
0.470707 0.470791 0.470707
0.518890 0.518952 0.518860
0.566367 0.566455 0.566343
0.613575 0.613667 0.613557
0.660128 0.660225 0.660103
0.705586 0.705693 0.705571
0.749485 0.749602 0.749461
0.791357 0.791479 0.791326
0.830495 0.830617 0.830465
0.195812 0.195812 0.195812
0.235043 0.235043 0.235043
0.276627 0.276628 0.276614
0.320161 0.320184 0.320105
0.365162 0.365241 0.365137
0.411549 0.411637 0.411549
0.458984 0.459053 0.458983
0.507098 0.507161 0.507089
0.555433 0.555529 0.555412
0.603574 0.603667 0.603556
0.650349 0.650439 0.650321
0.696075 0.696193 0.696058
0.740308 0.740429 0.740301
0.782626 0.782745 0.782615
0.822522 0.822647 0.822495
0.859290 0.859412 0.859263
0.225865 0.225865 0.225865
0.266625 0.266625 0.266625
0.309344 0.309361 0.309307
0.354036 0.354110 0.354006
0.400087 0.400176 0.400087
0.447306 0.447371 0.447306
0.495257 0.495322 0.495233
0.543612 0.543685 0.543589
0.591864 0.591955 0.591861
0.639666 0.639758 0.639650
0.686401 0.686494 0.686372
0.731083 0.731189 0.731062
0.773823 0.773931 0.773796
0.814265 0.814387 0.814228
0.851846 0.851966 0.851815
0.885855 0.885987 0.885837
0.257116 0.257116 0.257116
0.298995 0.298997 0.298973
0.343009 0.343064 0.342959
0.388737 0.388822 0.388737
0.435671 0.435749 0.435671
0.483500 0.483563 0.483489
0.531775 0.531847 0.531744
0.580119 0.580211 0.580102
0.628038 0.628132 0.628036
0.675168 0.675272 0.675150
0.720957 0.721059 0.720937
0.764854 0.764967 0.764832
0.805876 0.805999 0.805860
0.844110 0.844229 0.844067
0.879031 0.879156 0.879004
0.909936 0.910074 0.909905
0.289265 0.289265 0.289256
0.332391 0.332421 0.332334
0.377482 0.377576 0.377474
0.424150 0.424229 0.424150
0.471739 0.471808 0.471729
0.519941 0.520015 0.519912
0.568285 0.568371 0.568269
0.616387 0.616480 0.616387
0.663737 0.663848 0.663734
0.709912 0.710021 0.709898
0.754379 0.754500 0.754361
0.796680 0.796803 0.796656
0.836145 0.836267 0.836115
0.871866 0.871990 0.871857
0.903779 0.903913 0.903758
0.931215 0.931349 0.931185
0.322600 0.322645 0.322539
0.366665 0.366757 0.366664
0.412758 0.412829 0.412758
0.460111 0.460196 0.460111
0.508154 0.508218 0.508129
0.556502 0.556593 0.556474
0.604656 0.604751 0.604648
0.652310 0.652401 0.652282
0.698788 0.698899 0.698776
0.743732 0.743845 0.743708
0.786586 0.786707 0.786574
0.826869 0.826991 0.826838
0.863955 0.864094 0.863944
0.897273 0.897409 0.897240
0.925836 0.925961 0.925806
0.949409 0.949551 0.949378
0.356852 0.356939 0.356845
0.401798 0.401885 0.401798
0.448593 0.448655 0.448593
0.496431 0.496496 0.496407
0.544702 0.544769 0.544672
0.592957 0.593051 0.592954
0.640708 0.640818 0.640696
0.687592 0.687707 0.687563
0.732941 0.733054 0.732931
0.776362 0.776465 0.776331
0.817315 0.817437 0.817286
0.855252 0.855387 0.855234
0.889584 0.889712 0.889555
0.919678 0.919811 0.919648
0.944840 0.944986 0.944810
0.964383 0.964513 0.964360
0.391284 0.391350 0.391284
0.437580 0.437649 0.437580
0.484745 0.484816 0.484737
0.532809 0.532883 0.532779
0.581083 0.581160 0.581055
0.628986 0.629080 0.628986
0.676094 0.676189 0.676069
0.721935 0.722055 0.721929
0.765841 0.765988 0.765837
0.807513 0.807635 0.807483
0.846231 0.846362 0.846209
0.881514 0.881651 0.881498
0.912720 0.912844 0.912690
0.939184 0.939307 0.939154
0.960327 0.960454 0.960323
0.976646 0.976799 0.976616
0.003682 0.003682 0.003682
0.018616 0.018616 0.018616
0.040308 0.040308 0.040308
0.068241 0.068241 0.068241
0.098772 0.098772 0.098772
0.131691 0.131691 0.131691
0.166934 0.166934 0.166934
0.204421 0.204421 0.204421
0.243930 0.243930 0.243930
0.285288 0.285288 0.285269
0.328345 0.328386 0.328284
0.372796 0.372888 0.372796
0.418525 0.418594 0.418525
0.465212 0.465281 0.465212
0.512474 0.512555 0.512448
0.559779 0.559840 0.559749
0.015059 0.015059 0.015059
0.034350 0.034350 0.034350
0.061673 0.061673 0.061673
0.091596 0.091596 0.091596
0.123985 0.123985 0.123985
0.158729 0.158729 0.158729
0.195654 0.195654 0.195654
0.234752 0.234752 0.234752
0.275655 0.275655 0.275651
0.318316 0.318352 0.318282
0.362446 0.362539 0.362446
0.407903 0.407970 0.407903
0.454399 0.454461 0.454399
0.501524 0.501594 0.501501
0.548985 0.549069 0.548954
0.596114 0.596225 0.596114
0.029256 0.029256 0.029256
0.055028 0.055028 0.055028
0.084372 0.084372 0.084372
0.116353 0.116353 0.116353
0.150585 0.150585 0.150585
0.187062 0.187062 0.187062
0.225597 0.225597 0.225597
0.266110 0.266110 0.266110
0.308383 0.308414 0.308344
0.352202 0.352286 0.352195
0.397356 0.397456 0.397356
0.443641 0.443720 0.443641
0.490678 0.490745 0.490661
0.538100 0.538183 0.538069
0.585511 0.585597 0.585502
0.632302 0.632393 0.632293
0.048602 0.048602 0.048602
0.077517 0.077517 0.077517
0.108812 0.108812 0.108812
0.143095 0.143095 0.143095
0.179144 0.179144 0.179144
0.217286 0.217286 0.217286
0.257370 0.257370 0.257370
0.299299 0.299310 0.299270
0.342772 0.342837 0.342728
0.387663 0.387765 0.387659
0.433733 0.433809 0.433733
0.480648 0.480711 0.480636
0.527991 0.528071 0.527960
0.575457 0.575552 0.575446
0.622593 0.622692 0.622584
0.668802 0.668889 0.668794
0.070540 0.070540 0.070540
0.101250 0.101250 0.101250
0.134497 0.134497 0.134497
0.170669 0.170669 0.170669
0.208956 0.208956 0.208956
0.248782 0.248782 0.248782
0.290308 0.290317 0.290281
0.333491 0.333536 0.333439
0.378050 0.378142 0.378050
0.423907 0.423982 0.423907
0.470660 0.470732 0.470660
0.517967 0.518032 0.517942
0.565428 0.565512 0.565397
0.612661 0.612765 0.612661
0.659254 0.659365 0.659246
0.704569 0.704669 0.704539
0.093943 0.093943 0.093943
0.126585 0.126585 0.126585
0.161586 0.161586 0.161586
0.199443 0.199443 0.199443
0.239441 0.239441 0.239441
0.281332 0.281332 0.281307
0.324242 0.324277 0.324208
0.368563 0.368638 0.368546
0.414133 0.414220 0.414133
0.460731 0.460810 0.460731
0.507934 0.508000 0.507909
0.555397 0.555497 0.555381
0.602707 0.602806 0.602703
0.649481 0.649582 0.649462
0.695250 0.695357 0.695235
0.739366 0.739477 0.739335
0.118731 0.118731 0.118731
0.153277 0.153277 0.153277
0.189967 0.189967 0.189967
0.229442 0.229442 0.229442
0.270951 0.270951 0.270937
0.314237 0.314261 0.314208
0.359024 0.359086 0.358998
0.404428 0.404494 0.404428
0.450797 0.450876 0.450797
0.497926 0.497991 0.497901
0.545350 0.545423 0.545323
0.592736 0.592824 0.592714
0.639636 0.639732 0.639620
0.685657 0.685767 0.685645
0.730320 0.730423 0.730298
0.772946 0.773068 0.772933
0.145141 0.145141 0.145141
0.181334 0.181334 0.181334
0.219602 0.219602 0.219602
0.260591 0.260591 0.260591
0.303474 0.303489 0.303432
0.347956 0.348031 0.347939
0.393876 0.393969 0.393876
0.440942 0.441031 0.440942
0.487948 0.488012 0.487921
0.535327 0.535417 0.535302
0.582745 0.582843 0.582729
0.629791 0.629882 0.629777
0.676019 0.676119 0.676005
0.721006 0.721126 0.721004
0.764271 0.764368 0.764243
0.805131 0.805252 0.805100
0.172896 0.172896 0.172896
0.210653 0.210653 0.210653
0.250391 0.250391 0.250391
0.292785 0.292790 0.292750
0.336891 0.336944 0.336862
0.382497 0.382586 0.382488
0.429306 0.429391 0.429306
0.477060 0.477141 0.477051
0.525245 0.525308 0.525215
0.572722 0.572808 0.572696
0.619873 0.619965 0.619858
0.666310 0.666401 0.666279
0.711578 0.711691 0.711568
0.755233 0.755340 0.755204
0.796777 0.796900 0.796772
0.835554 0.835674 0.835524
0.201811 0.201811 0.201811
0.241204 0.241204 0.241204
0.282354 0.282354 0.282339
0.326009 0.326055 0.325976
0.371194 0.371285 0.371191
0.417758 0.417836 0.417758
0.465283 0.465355 0.465281
0.513478 0.513545 0.513448
0.561792 0.561884 0.561768
0.609877 0.609969 0.609860
0.656558 0.656654 0.656532
0.702114 0.702218 0.702092
0.746114 0.746222 0.746093
0.788131 0.788251 0.788120
0.827663 0.827784 0.827628
0.863977 0.864099 0.863946
0.232056 0.232056 0.232056
0.272887 0.272887 0.272882
0.315280 0.315308 0.315229
0.360068 0.360159 0.360052
0.406256 0.406346 0.406256
0.453586 0.453654 0.453586
0.501610 0.501674 0.501601
0.549975 0.550065 0.549952
0.598194 0.598301 0.598193
0.645884 0.645978 0.645878
0.692472 0.692575 0.692461
0.736938 0.737050 0.736912
0.779383 0.779507 0.779367
0.819472 0.819593 0.819444
0.856621 0.856749 0.856597
0.890147 0.890269 0.890116
0.263328 0.263328 0.263328
0.305577 0.305581 0.305538
0.349082 0.349162 0.349061
0.394877 0.394963 0.394877
0.441949 0.442030 0.441949
0.489846 0.489915 0.489834
0.538135 0.538200 0.538105
0.586457 0.586557 0.586440
0.634303 0.634409 0.634297
0.681284 0.681389 0.681258
0.726855 0.726975 0.726844
0.770488 0.770605 0.770458
0.811164 0.811286 0.811149
0.848979 0.849100 0.848947
0.883411 0.883535 0.883382
0.913771 0.913898 0.913741
0.295786 0.295786 0.295755
0.339206 0.339281 0.339170
0.383716 0.383808 0.383710
0.430373 0.430451 0.430373
0.478077 0.478144 0.478075
0.526297 0.526384 0.526280
0.574637 0.574727 0.574607
0.622670 0.622761 0.622669
0.669908 0.670000 0.669882
0.715886 0.715981 0.715859
0.760075 0.760197 0.760057
0.802052 0.802162 0.802027
0.841105 0.841228 0.841076
0.876363 0.876487 0.876340
0.907713 0.907857 0.907695
0.934531 0.934670 0.934500
0.329347 0.329392 0.329286
0.373492 0.373581 0.373487
0.419061 0.419151 0.419061
0.466422 0.466505 0.466422
0.514499 0.514569 0.514483
0.562856 0.562946 0.562835
0.610971 0.611062 0.610957
0.658488 0.658581 0.658462
0.704806 0.704913 0.704789
0.749494 0.749614 0.749474
0.792050 0.792172 0.792027
0.831959 0.832078 0.831918
0.868575 0.868699 0.868550
0.901323 0.901467 0.901303
0.929285 0.929418 0.929255
0.952164 0.952293 0.952134
0.363549 0.363660 0.363546
0.408937 0.409026 0.408937
0.454979 0.455046 0.454979
0.502808 0.502872 0.502799
0.551095 0.551185 0.551065
0.599260 0.599356 0.599256
0.646948 0.647045 0.646924
0.693656 0.693754 0.693628
0.738789 0.738889 0.738766
0.781934 0.782034 0.781908
0.822503 0.822624 0.822485
0.859995 0.860113 0.859964
0.893787 0.893926 0.893779
0.923257 0.923404 0.923247
0.947751 0.947873 0.947720
0.966628 0.966781 0.966602
0.398371 0.398441 0.398371
0.444440 0.444531 0.444440
0.491190 0.491257 0.491182
0.539252 0.539318 0.539226
0.587451 0.587542 0.587451
0.635276 0.635367 0.635273
0.682213 0.682311 0.682189
0.727830 0.727922 0.727800
0.771487 0.771608 0.771478
0.812779 0.812901 0.812755
0.851097 0.851219 0.851066
0.885870 0.886003 0.885840
0.916455 0.916602 0.916424
0.942245 0.942389 0.942214
0.962709 0.962857 0.962705
0.978515 0.978660 0.978485
0.005499 0.005499 0.005499
0.020991 0.020991 0.020991
0.043989 0.043989 0.043989
0.072764 0.072764 0.072764
0.103636 0.103636 0.103636
0.136963 0.136963 0.136963
0.172599 0.172599 0.172599
0.210385 0.210385 0.210385
0.250169 0.250169 0.250169
0.291812 0.291814 0.291787
0.335087 0.335136 0.335038
0.379754 0.379846 0.379754
0.425637 0.425721 0.425637
0.472461 0.472527 0.472461
0.519767 0.519828 0.519713
0.567063 0.567154 0.567032
0.017185 0.017185 0.017185
0.037731 0.037731 0.037731
0.065569 0.065569 0.065569
0.096329 0.096329 0.096329
0.129146 0.129146 0.129146
0.164284 0.164284 0.164284
0.201567 0.201567 0.201567
0.240904 0.240904 0.240904
0.282137 0.282138 0.282131
0.325018 0.325058 0.324964
0.369391 0.369479 0.369391
0.415004 0.415084 0.415004
0.461591 0.461672 0.461591
0.508830 0.508891 0.508804
0.556304 0.556369 0.556273
0.603345 0.603452 0.603345
0.032279 0.032279 0.032279
0.058843 0.058843 0.058843
0.088619 0.088619 0.088619
0.121372 0.121372 0.121372
0.155972 0.155972 0.155972
0.192784 0.192784 0.192784
0.231662 0.231662 0.231662
0.272460 0.272460 0.272452
0.314965 0.314989 0.314919
0.358999 0.359080 0.358986
0.404346 0.404433 0.404346
0.450773 0.450850 0.450773
0.497874 0.497944 0.497866
0.545333 0.545409 0.545305
0.592709 0.592805 0.592708
0.639435 0.639527 0.639408
0.052750 0.052750 0.052750
0.082059 0.082059 0.082059
0.113656 0.113656 0.113656
0.147844 0.147844 0.147844
0.184230 0.184230 0.184230
0.222648 0.222648 0.222648
0.263016 0.263016 0.263016
0.305162 0.305181 0.305127
0.348853 0.348920 0.348818
0.393921 0.394009 0.393921
0.440120 0.440193 0.440120
0.487107 0.487184 0.487102
0.534502 0.534581 0.534471
0.581942 0.582030 0.581925
0.628998 0.629089 0.628994
0.675063 0.675170 0.675043
0.075049 0.075049 0.075049
0.106275 0.106275 0.106275
0.139746 0.139746 0.139746
0.175693 0.175693 0.175693
0.214232 0.214232 0.214232
0.254267 0.254267 0.254267
0.296033 0.296033 0.296006
0.339426 0.339486 0.339392
0.384171 0.384263 0.384171
0.430167 0.430243 0.430167
0.477008 0.477070 0.477003
0.524358 0.524428 0.524335
0.571800 0.571888 0.571782
0.618985 0.619076 0.618973
0.665459 0.665556 0.665437
0.710584 0.710706 0.710575
0.098810 0.098810 0.098810
0.131844 0.131844 0.131844
0.167080 0.167080 0.167080
0.204704 0.204704 0.204704
0.244906 0.244906 0.244906
0.287023 0.287023 0.286999
0.330133 0.330188 0.330102
0.374643 0.374734 0.374642
0.420366 0.420453 0.420366
0.467066 0.467133 0.467062
0.514316 0.514397 0.514301
0.561796 0.561882 0.561776
0.609044 0.609151 0.609037
0.655708 0.655799 0.655691
0.701300 0.701418 0.701296
0.745190 0.745312 0.745165
0.123933 0.123933 0.123933
0.158768 0.158768 0.158768
0.195720 0.195720 0.195720
0.234908 0.234908 0.234908
0.276553 0.276553 0.276537
0.320110 0.320148 0.320058
0.365058 0.365144 0.365035
0.410628 0.410704 0.410627
0.457110 0.457176 0.457110
0.504297 0.504369 0.504277
0.551734 0.551823 0.551707
0.599080 0.599169 0.599077
0.645886 0.645982 0.645861
0.691749 0.691859 0.691729
0.736185 0.736301 0.736177
0.778535 0.778671 0.778523
0.150555 0.150555 0.150555
0.187065 0.187065 0.187065
0.225615 0.225615 0.225615
0.266258 0.266258 0.266254
0.309266 0.309289 0.309227
0.353960 0.354036 0.353944
0.400021 0.400100 0.400021
0.447222 0.447313 0.447222
