example_ofxGpuLutCube/bin/data/ofxGpuLutCube/LUT/V40 (retro B&W).cube
LUT_3D_SIZE 6
0.000000 0.000000 0.000000
0.059430 0.059430 0.059430
0.155860 0.155860 0.155860
0.272364 0.272364 0.272364
0.404327 0.404419 0.404327
0.545157 0.545218 0.545126
0.040289 0.040289 0.040289
0.133740 0.133740 0.133740
0.246387 0.246387 0.246387
0.375465 0.375542 0.375450
0.515210 0.515278 0.515187
0.656405 0.656496 0.656393
0.108697 0.108697 0.108697
0.218784 0.218784 0.218784
0.347032 0.347091 0.346999
0.485192 0.485262 0.485172
0.627059 0.627165 0.627056
0.761640 0.761762 0.761610
0.190125 0.190125 0.190125
0.314305 0.314324 0.314260
0.452651 0.452717 0.452651
0.597217 0.597309 0.597187
0.734478 0.734583 0.734451
0.854516 0.854638 0.854486
0.282629 0.282629 0.282629
0.417920 0.418011 0.417920
0.561890 0.561979 0.561859
0.703897 0.704016 0.703894
0.831095 0.831222 0.831051
0.927804 0.927938 0.927773
0.384903 0.384994 0.384903
0.526500 0.526561 0.526470
0.669914 0.670030 0.669908
0.802131 0.802253 0.802101
0.908852 0.908992 0.908822
0.974693 0.974846 0.974662
0.005499 0.005499 0.005499
0.072764 0.072764 0.072764
0.172599 0.172599 0.172599
0.291812 0.291814 0.291787
0.425637 0.425721 0.425637
0.567063 0.567154 0.567032
0.052750 0.052750 0.052750
0.147844 0.147844 0.147844
0.263016 0.263016 0.263016
0.393921 0.394009 0.393921
0.534502 0.534581 0.534471
0.675063 0.675170 0.675043
0.123933 0.123933 0.123933
0.234908 0.234908 0.234908
0.365058 0.365144 0.365035
0.504297 0.504369 0.504277
0.645886 0.645982 0.645861
0.778535 0.778671 0.778523
0.207640 0.207640 0.207640
0.331997 0.332041 0.331955
0.471624 0.471688 0.471621
0.616193 0.616287 0.616182
0.751889 0.752002 0.751863
0.868591 0.868737 0.868585
0.302453 0.302460 0.302416
0.436745 0.436826 0.436745
0.581016 0.581107 0.580993
0.721827 0.721934 0.721811
0.846033 0.846157 0.846002
0.937756 0.937903 0.937732
0.405522 0.405613 0.405522
0.545673 0.545765 0.545650
0.688305 0.688396 0.688295
0.818019 0.818141 0.818002
0.920138 0.920286 0.920108
0.980356 0.980508 0.980326
0.011420 0.011420 0.011420
0.084934 0.084934 0.084934
0.189694 0.189694 0.189694
0.311594 0.311605 0.311557
0.447155 0.447225 0.447155
0.588908 0.589000 0.588908
0.064329 0.064329 0.064329
0.162333 0.162333 0.162333
0.282119 0.282119 0.282098
0.415012 0.415101 0.415012
0.556310 0.556390 0.556296
0.695925 0.696030 0.695894
0.139631 0.139631 0.139631
0.253436 0.253436 0.253436
0.383398 0.383485 0.383392
0.523512 0.523578 0.523486
0.664611 0.664705 0.664572
0.795120 0.795242 0.795092
0.225800 0.225800 0.225800
0.352298 0.352374 0.352276
0.490742 0.490811 0.490726
0.635076 0.635171 0.635066
0.768971 0.769083 0.768952
0.882081 0.882214 0.882061
0.322390 0.322439 0.322329
0.458243 0.458310 0.458243
0.600131 0.600228 0.600130
0.739480 0.739591 0.739466
0.860430 0.860552 0.860407
0.946890 0.947029 0.946859
0.426618 0.426685 0.426618
0.567534 0.567608 0.567517
0.706544 0.706660 0.706538
0.833424 0.833527 0.833394
0.930682 0.930820 0.930652
0.985577 0.985724 0.985571
0.017352 0.017352 0.017352
0.097519 0.097519 0.097519
0.205180 0.205180 0.205180
0.331659 0.331696 0.331599
0.468839 0.468903 0.468839
0.610716 0.610808 0.610716
0.076217 0.076217 0.076217
0.177063 0.177063 0.177063
0.299298 0.299307 0.299269
0.436372 0.436439 0.436372
0.578192 0.578268 0.578176
0.716591 0.716696 0.716570
0.153883 0.153883 0.153883
0.270142 0.270142 0.270142
0.401842 0.401936 0.401842
0.545281 0.545360 0.545267
0.685635 0.685727 0.685605
0.813445 0.813562 0.813420
0.244311 0.244311 0.244311
0.372903 0.372986 0.372895
0.512473 0.512539 0.512448
0.653823 0.653934 0.653798
0.785755 0.785866 0.785729
0.894995 0.895148 0.894965
0.342647 0.342715 0.342596
0.479966 0.480029 0.479961
0.621757 0.621850 0.621728
0.756870 0.756992 0.756841
0.874238 0.874362 0.874210
0.955146 0.955268 0.955125
0.448514 0.448599 0.448514
0.589361 0.589474 0.589361
0.726954 0.727070 0.726948
0.848341 0.848469 0.848316
0.940406 0.940532 0.940379
0.990498 0.990650 0.990491
0.024133 0.024133 0.024133
0.110476 0.110476 0.110476
0.220919 0.220919 0.220919
0.349536 0.349603 0.349495
0.490516 0.490589 0.490502
0.632337 0.632428 0.632337
0.088478 0.088478 0.088478
0.192169 0.192169 0.192169
0.316702 0.316711 0.316644
0.455310 0.455377 0.455310
0.599883 0.599974 0.599876
0.736878 0.736982 0.736848
0.168407 0.168407 0.168407
0.287056 0.287056 0.287045
0.420441 0.420529 0.420441
0.564511 0.564600 0.564486
0.706316 0.706418 0.706301
0.831193 0.831315 0.831163
0.260784 0.260784 0.260784
0.391290 0.391375 0.391290
0.531692 0.531754 0.531665
0.672511 0.672622 0.672498
0.804226 0.804348 0.804216
0.908814 0.908967 0.908784
0.363148 0.363240 0.363143
0.501676 0.501749 0.501660
0.643180 0.643280 0.643169
0.776121 0.776237 0.776100
0.887511 0.887647 0.887491
0.962628 0.962791 0.962613
0.470060 0.470121 0.470060
0.611085 0.611176 0.611085
0.747013 0.747134 0.747012
0.864662 0.864787 0.864644
0.949323 0.949459 0.949292
0.995196 0.995349 0.995165
0.032668 0.032668 0.032668
0.123879 0.123879 0.123879
0.236913 0.236913 0.236913
0.367532 0.367623 0.367507
0.509681 0.509760 0.509663
0.653737 0.653858 0.653737
0.101109 0.101109 0.101109
0.207582 0.207582 0.207582
0.334251 0.334312 0.334224
0.474251 0.474313 0.474251
0.618924 0.619032 0.618917
0.756715 0.756837 0.756685
0.183265 0.183265 0.183265
0.304233 0.304246 0.304182
0.439177 0.439243 0.439177
0.583591 0.583678 0.583585
0.724303 0.724425 0.724286
0.848235 0.848356 0.848204
0.277372 0.277372 0.277372
0.409767 0.409847 0.409767
0.550843 0.550910 0.550818
0.690850 0.690948 0.690822
0.820144 0.820252 0.820116
0.921697 0.921819 0.921667
0.381234 0.381326 0.381234
0.520867 0.520936 0.520837
0.661935 0.662026 0.661907
0.792770 0.792892 0.792740
0.900132 0.900270 0.900107
0.970264 0.970435 0.970234
0.492063 0.492154 0.492063
0.632613 0.632723 0.632613
0.766627 0.766750 0.766597
0.880229 0.880351 0.880198
0.958404 0.958544 0.958392
0.999807 0.999900 0.999777
