example_ofxGpuLutCube/bin/data/ofxGpuLutCube/LUT/V5 (navy drama fade).cube
LUT_3D_SIZE 6
0.000000 0.000000 0.000000
0.161621 0.003369 0.003369
0.362616 0.007586 0.007586
0.598132 0.012494 0.012494
0.783588 0.016370 0.016370
0.953259 0.019922 0.019922
0.000000 0.149957 0.000000
0.169514 0.149957 0.000000
0.371942 0.152434 0.009399
0.604413 0.158228 0.018003
0.789495 0.162223 0.022277
0.959119 0.165784 0.025782
0.000000 0.375897 0.000000
0.169508 0.375894 0.000004
0.380305 0.375899 0.000020
0.622495 0.376689 0.008950
0.808139 0.379465 0.018080
0.975022 0.383438 0.026807
0.000000 0.620856 0.000000
0.169578 0.620839 0.000017
0.380305 0.620852 0.000006
0.627290 0.620851 0.000011
0.821349 0.620844 0.001159
0.993514 0.621702 0.012496
0.000000 0.818103 0.000000
0.169514 0.818090 0.000024
0.380294 0.818085 0.000019
0.627350 0.818072 0.000031
0.821766 0.818115 0.000031
0.999658 0.818164 0.000031
0.000000 0.999719 0.000000
0.169519 0.999719 0.000048
0.380297 0.999713 0.000103
0.627295 0.999719 0.000000
0.821826 0.999701 0.000019
0.999724 0.999719 0.000000
0.000000 0.000000 0.258368
0.158217 0.009830 0.236464
0.345944 0.020614 0.241478
0.586592 0.021508 0.254193
0.776863 0.022596 0.259690
0.951465 0.023596 0.263445
0.000000 0.149951 0.258368
0.169330 0.150190 0.257562
0.364115 0.158776 0.255141
0.605119 0.160629 0.261537
0.791347 0.164138 0.265329
0.961006 0.167677 0.268905
0.000004 0.375894 0.258382
0.169507 0.375897 0.258377
0.380205 0.375908 0.258534
0.616482 0.379509 0.268579
0.800205 0.383926 0.274192
0.969847 0.387481 0.277715
0.000000 0.620856 0.258358
0.169508 0.620857 0.258375
0.380293 0.620856 0.258368
0.627295 0.620855 0.258379
0.819177 0.621183 0.263676
0.988967 0.623477 0.273611
0.000020 0.818101 0.258386
0.169507 0.818103 0.258374
0.380289 0.818093 0.258358
0.627264 0.818097 0.258362
0.821801 0.818120 0.258374
0.999427 0.818114 0.259219
0.000000 0.999719 0.258447
0.169526 0.999719 0.258370
0.380340 0.999709 0.258431
0.627309 0.999719 0.258386
0.821807 0.999701 0.258350
0.999725 0.999718 0.258370
0.000000 0.000000 0.466205
0.167314 0.003224 0.454762
0.346976 0.025638 0.419595
0.567372 0.036990 0.431140
0.755328 0.037791 0.444802
0.929297 0.038167 0.453674
0.000016 0.149967 0.466157
0.169505 0.149957 0.466205
0.361965 0.164941 0.435846
0.584436 0.175462 0.446324
0.774134 0.175828 0.457368
0.948942 0.176225 0.463772
0.000006 0.375893 0.466207
0.169507 0.375889 0.466206
0.380186 0.376043 0.465704
0.612790 0.383381 0.465608
0.801440 0.385584 0.469772
0.971386 0.388996 0.473322
0.000006 0.620848 0.466245
0.169499 0.620848 0.466229
0.380286 0.620856 0.466211
0.627283 0.620853 0.466206
0.815124 0.622707 0.474431
0.982765 0.626686 0.481318
0.000000 0.818103 0.466145
0.169505 0.818101 0.466231
0.380285 0.818103 0.466184
0.627285 0.818103 0.466205
0.821781 0.818095 0.466195
0.997592 0.818307 0.470860
0.000121 0.999719 0.466229
0.169504 0.999716 0.466178
0.380300 0.999719 0.466204
0.627283 0.999714 0.466200
0.821783 0.999719 0.466205
0.999724 0.999719 0.466205
0.000000 0.000000 0.660517
0.169340 0.000364 0.659027
0.360816 0.018720 0.613231
0.570014 0.040748 0.598067
0.743252 0.049868 0.607217
0.908566 0.054114 0.618708
0.000016 0.149955 0.660520
0.169512 0.149963 0.660531
0.373899 0.157479 0.637676
0.583823 0.181124 0.611904
0.757069 0.190223 0.620989
0.928402 0.191145 0.634081
0.000031 0.375902 0.660528
0.169486 0.375907 0.660495
0.380271 0.375909 0.660524
0.604687 0.392567 0.632728
0.782868 0.398784 0.643853
0.956078 0.399438 0.653352
0.000031 0.620875 0.660464
0.169509 0.620841 0.660518
0.380293 0.620858 0.660523
0.626730 0.621260 0.659846
0.812386 0.625331 0.662170
0.982405 0.628700 0.665696
0.000000 0.818103 0.660473
0.169505 0.818102 0.660512
0.380286 0.818103 0.660493
0.627282 0.818103 0.660528
0.821796 0.818103 0.660517
0.994265 0.819533 0.667726
0.000025 0.999671 0.660594
0.169493 0.999704 0.660544
0.380286 0.999719 0.660543
0.627278 0.999714 0.660530
0.821796 0.999709 0.660507
0.999725 0.999719 0.660518
0.000000 0.000000 0.832910
0.169548 0.000019 0.832800
0.369610 0.012561 0.794743
0.574258 0.042661 0.748582
0.746223 0.052831 0.755609
0.904692 0.061175 0.763976
0.000031 0.149970 0.832794
0.169520 0.149951 0.832910
0.378123 0.153434 0.820099
0.591598 0.180015 0.769081
0.760040 0.193189 0.769423
0.918493 0.201513 0.777734
0.000025 0.375918 0.832808
0.169540 0.375889 0.832944
0.380296 0.375895 0.832907
0.615860 0.387234 0.803193
0.780891 0.404647 0.790236
0.940421 0.412340 0.799165
0.000037 0.620833 0.832939
0.169500 0.620876 0.832903
0.380297 0.620854 0.832921
0.627281 0.620859 0.832913
0.803460 0.633916 0.812839
0.969396 0.638056 0.823391
0.000024 0.818080 0.832921
0.169483 0.818105 0.832886
0.380301 0.818087 0.832926
0.627272 0.818103 0.832900
0.821151 0.818560 0.832220
0.991377 0.821821 0.835646
0.000000 0.999719 0.832959
0.169536 0.999719 0.832910
0.380324 0.999719 0.832911
0.627282 0.999719 0.832918
0.821790 0.999719 0.832905
0.999725 0.999719 0.832910
0.000000 0.000000 0.999740
0.169494 0.000024 0.999741
0.374450 0.008278 0.971270
0.589458 0.034281 0.919162
0.749104 0.055684 0.899215
0.907556 0.064039 0.907570
0.000000 0.149951 0.999740
0.169530 0.149942 0.999725
0.379981 0.150592 0.997128
0.604455 0.172359 0.941751
0.762875 0.196075 0.913067
0.921369 0.204389 0.921381
0.000031 0.375922 0.999577
0.169536 0.375891 0.999740
0.380302 0.375897 0.999735
0.622407 0.382362 0.978314
0.786857 0.404894 0.939471
0.942213 0.415852 0.942226
0.000128 0.620819 0.999729
0.169502 0.620872 0.999707
0.380313 0.620857 0.999729
0.627276 0.620851 0.999740
0.813484 0.629301 0.976996
0.964796 0.645130 0.964809
0.000031 0.818145 0.999662
0.169535 0.818097 0.999724
0.380304 0.818097 0.999722
0.627295 0.818103 0.999723
0.821790 0.818103 0.999740
0.983002 0.829755 0.983015
0.000000 0.999719 0.999741
0.169507 0.999719 0.999740
0.380286 0.999719 0.999740
0.627282 0.999719 0.999740
0.821790 0.999719 0.999740
0.999699 0.999737 0.999715
