example_ofxGpuLutCube/bin/data/ofxGpuLutCube/LUT/V5 (navy drama fade).cube
LUT_3D_SIZE 16
0.000000 0.000000 0.000000
0.062886 0.001298 0.001298
0.115971 0.002411 0.002411
0.161621 0.003369 0.003369
0.216333 0.004520 0.004520
0.284190 0.005951 0.005951
0.362616 0.007586 0.007586
0.445380 0.009285 0.009285
0.525301 0.010976 0.010976
0.598132 0.012494 0.012494
0.663829 0.013875 0.013875
0.724886 0.015149 0.015149
0.783588 0.016370 0.016370
0.840963 0.017576 0.017576
0.897450 0.018752 0.018752
0.953259 0.019922 0.019922
0.000000 0.047009 0.000000
0.065693 0.047048 0.000472
0.118734 0.047899 0.003143
0.163863 0.048981 0.004825
0.218264 0.050214 0.006282
0.286017 0.051649 0.007778
0.364473 0.053321 0.009443
0.447241 0.055051 0.011147
0.527102 0.056711 0.012777
0.599983 0.058195 0.014344
0.665677 0.059600 0.015724
0.726756 0.060844 0.017019
0.785458 0.062091 0.018240
0.842790 0.063307 0.019403
0.899259 0.064491 0.020561
0.955131 0.065638 0.021794
0.000000 0.096027 0.000000
0.065960 0.096027 0.000000
0.121504 0.096038 0.000286
0.167966 0.096357 0.002490
0.222415 0.097315 0.005349
0.289333 0.098910 0.008282
0.366628 0.100900 0.011055
0.449178 0.102703 0.013054
0.529076 0.104375 0.014750
0.601853 0.105897 0.016215
0.667621 0.107276 0.017668
0.728647 0.108558 0.018909
0.787338 0.109799 0.020121
0.844722 0.110982 0.021336
0.901168 0.112192 0.022469
0.957059 0.113329 0.023722
0.000000 0.149957 0.000000
0.065987 0.149941 0.000016
0.121647 0.149971 0.000014
0.169514 0.149957 0.000000
0.225909 0.150088 0.001934
0.294126 0.150901 0.005628
0.371942 0.152434 0.009399
0.453929 0.154321 0.012624
0.532030 0.156558 0.016049
0.604413 0.158228 0.018003
0.669702 0.159743 0.019749
0.730767 0.161023 0.021030
0.789495 0.162223 0.022277
0.846783 0.163442 0.023396
0.903344 0.164612 0.024645
0.959119 0.165784 0.025782
0.000000 0.214703 0.000000
0.065960 0.214706 0.000002
0.121641 0.214703 0.000000
0.169510 0.214703 0.000000
0.226879 0.214703 0.000014
0.297504 0.214770 0.001145
0.376926 0.215366 0.005603
0.459376 0.216731 0.010227
0.538695 0.218364 0.013632
0.610082 0.220230 0.017223
0.674870 0.221863 0.019782
0.735344 0.223308 0.021723
0.792935 0.224911 0.024001
0.849649 0.226322 0.025785
0.905853 0.227609 0.027154
0.961652 0.228780 0.028315
0.000000 0.291636 0.000000
0.065968 0.291636 0.000000
0.121643 0.291628 0.000008
0.169507 0.291648 0.000012
0.226867 0.291641 0.000005
0.298028 0.291639 0.000014
0.380050 0.291640 0.000570
0.464347 0.292024 0.005470
0.544386 0.293054 0.010133
0.616921 0.294332 0.013838
0.682617 0.295509 0.016364
0.742589 0.296977 0.019480
0.800450 0.298362 0.022109
0.857047 0.299759 0.024492
0.912212 0.301329 0.027065
0.968039 0.302495 0.028194
0.000000 0.375897 0.000000
0.065945 0.375897 0.000000
0.121629 0.375904 0.000007
0.169508 0.375894 0.000004
0.226884 0.375909 0.000012
0.298049 0.375911 0.000019
0.380305 0.375899 0.000020
0.467013 0.375880 0.000251
0.549307 0.376011 0.003750
0.622495 0.376689 0.008950
0.688477 0.377502 0.012409
0.749390 0.378507 0.015537
0.808139 0.379465 0.018080
0.864939 0.380645 0.020861
0.920547 0.381943 0.023810
0.975022 0.383438 0.026807
0.000000 0.461746 0.000000
0.065932 0.461746 0.000000
0.121622 0.461746 0.000000
0.169492 0.461744 0.000001
0.226917 0.461746 0.000000
0.298037 0.461764 0.000019
0.380264 0.461768 0.000023
0.467104 0.461746 0.000004
0.550870 0.461768 0.000036
0.627047 0.461768 0.000638
0.693306 0.462018 0.006494
0.755507 0.462453 0.008989
0.813839 0.463246 0.013568
0.871372 0.464062 0.016389
0.927686 0.464974 0.019387
0.982964 0.466086 0.022516
0.000000 0.544300 0.000000
0.065956 0.544300 0.000000
0.121698 0.544258 0.000021
0.169529 0.544309 0.000014
0.226890 0.544300 0.000000
0.298092 0.544299 0.000001
0.380279 0.544322 0.000023
0.467133 0.544275 0.000029
0.550873 0.544298 0.000029
0.627275 0.544284 0.000008
0.696130 0.544326 0.000031
0.759033 0.544352 0.002927
0.818861 0.544571 0.006404
0.876631 0.545042 0.010613
0.933356 0.545701 0.013947
0.989510 0.546362 0.016857
0.000000 0.620856 0.000000
0.066034 0.620807 0.000025
0.121681 0.620832 0.000031
0.169578 0.620839 0.000017
0.226879 0.620858 0.000028
0.298059 0.620856 0.000000
0.380305 0.620852 0.000006
0.467144 0.620839 0.000029
0.550894 0.620861 0.000006
0.627290 0.620851 0.000011
0.696173 0.620862 0.000014
0.760221 0.620832 0.000022
0.821349 0.620844 0.001159
0.880417 0.620927 0.003790
0.937191 0.621238 0.008851
0.993514 0.621702 0.012496
0.000000 0.690572 0.000000
0.065951 0.690582 0.000022
0.121679 0.690574 0.000010
0.169511 0.690556 0.000010
0.226917 0.690568 0.000015
0.298014 0.690572 0.000000
0.380298 0.690564 0.000008
0.467077 0.690572 0.000000
0.550942 0.690572 0.000000
0.627252 0.690578 0.000010
0.696191 0.690562 0.000034
0.760194 0.690577 0.000016
0.821791 0.690584 0.000027
0.881959 0.690532 0.000018
0.940577 0.690632 0.001532
0.997038 0.690774 0.006400
0.000000 0.755556 0.000000
0.065941 0.755568 0.000018
0.121648 0.755537 0.000017
0.169503 0.755549 0.000012
0.226872 0.755557 0.000014
0.298024 0.755582 0.000026
0.380323 0.755563 0.000019
0.467181 0.755526 0.000031
0.550917 0.755540 0.000016
0.627271 0.755581 0.000025
0.696182 0.755561 0.000014
0.760206 0.755564 0.000040
0.821785 0.755537 0.000012
0.881905 0.755583 0.000027
0.941199 0.755542 0.000029
0.999682 0.755570 0.000014
0.000000 0.818103 0.000000
0.065977 0.818102 0.000004
0.121627 0.818103 0.000000
0.169514 0.818090 0.000024
0.226901 0.818096 0.000031
0.298086 0.818087 0.000017
0.380294 0.818085 0.000019
0.467063 0.818133 0.000031
0.550899 0.818108 0.000030
0.627350 0.818072 0.000031
0.696163 0.818107 0.000004
0.760195 0.818113 0.000010
0.821766 0.818115 0.000031
0.881959 0.818063 0.000017
0.941182 0.818131 0.000020
0.999658 0.818164 0.000031
0.000000 0.879415 0.000000
0.065998 0.879396 0.000011
0.121608 0.879433 0.000019
0.169464 0.879431 0.000017
0.226887 0.879410 0.000027
0.298076 0.879410 0.000031
0.380296 0.879413 0.000011
0.467081 0.879429 0.000030
0.550867 0.879428 0.000029
0.627317 0.879398 0.000020
0.696209 0.879419 0.000025
0.760176 0.879421 0.000014
0.821755 0.879428 0.000014
0.881936 0.879415 0.000012
0.941230 0.879398 0.000035
0.999725 0.879376 0.000244
0.000000 0.939901 0.000000
0.065975 0.939904 0.000004
0.121632 0.939896 0.000004
0.169510 0.939922 0.000029
0.226920 0.939875 0.000016
0.298130 0.939877 0.000030
0.380269 0.939924 0.000026
0.467056 0.939899 0.000002
0.550827 0.939926 0.000025
0.627344 0.939880 0.000022
0.696170 0.939917 0.000019
0.760134 0.939915 0.000015
0.821760 0.939918 0.000018
0.881908 0.939938 0.000043
0.941176 0.939920 0.000030
0.999716 0.939853 0.000214
0.000000 0.999719 0.000000
0.066069 0.999667 0.000043
0.121694 0.999674 0.000055
0.169519 0.999719 0.000048
0.226983 0.999658 0.000031
0.298106 0.999709 0.000010
0.380297 0.999713 0.000103
0.467110 0.999717 0.000143
0.550898 0.999719 0.000142
0.627295 0.999719 0.000000
0.696289 0.999688 0.000031
0.760254 0.999704 0.000014
0.821826 0.999701 0.000019
0.881925 0.999719 0.000064
0.941146 0.999719 0.000000
0.999724 0.999719 0.000000
0.000000 0.000000 0.095359
0.061222 0.003953 0.087182
0.110293 0.007153 0.087951
0.156221 0.007574 0.090970
0.212387 0.007711 0.093541
0.282116 0.008052 0.095564
0.362443 0.008713 0.097302
0.445758 0.010168 0.099067
0.525802 0.011747 0.100703
0.598823 0.013184 0.102193
0.664532 0.014578 0.103627
0.725570 0.015832 0.104843
0.784284 0.017066 0.106073
0.841675 0.018288 0.107248
0.898140 0.019442 0.108432
0.953941 0.020604 0.109660
0.000000 0.047009 0.095359
0.065248 0.047661 0.093853
0.115559 0.050641 0.092468
0.161829 0.051095 0.094434
0.217893 0.051480 0.095988
0.286261 0.052596 0.097508
0.365002 0.054059 0.099142
0.447919 0.055733 0.100855
0.527832 0.057416 0.102565
0.600653 0.058919 0.104075
0.666352 0.060279 0.105420
0.727408 0.061567 0.106737
0.786137 0.062800 0.107882
0.843457 0.063980 0.109131
0.899994 0.065175 0.110303
0.955798 0.066342 0.111429
0.000000 0.096027 0.095359
0.065958 0.096029 0.095362
0.120402 0.096625 0.095477
0.165835 0.097636 0.096707
0.220667 0.098695 0.098005
0.288643 0.100050 0.099429
0.367060 0.101683 0.101056
0.449837 0.103414 0.102766
0.529745 0.105099 0.104443
0.602603 0.106591 0.106018
0.668317 0.107969 0.107388
0.729347 0.109244 0.108645
0.788080 0.110466 0.109883
0.845437 0.111670 0.111078
0.901941 0.112850 0.112271
0.957748 0.114012 0.113438
0.000000 0.149957 0.095359
0.065960 0.149957 0.095359
0.121641 0.149957 0.095359
0.169098 0.150055 0.095945
0.224178 0.150795 0.098273
0.291342 0.152320 0.100908
0.369255 0.154126 0.103109
0.451980 0.155882 0.104911
0.531864 0.157529 0.106565
0.604694 0.159067 0.108103
0.670415 0.160427 0.109484
0.731437 0.161712 0.110740
0.790145 0.162942 0.111953
0.847517 0.164142 0.113163
0.904050 0.165299 0.114378
0.959824 0.166476 0.115513
0.000014 0.214718 0.095359
0.065960 0.214703 0.095359
0.121641 0.214703 0.095359
0.169507 0.214703 0.095359
0.226814 0.214707 0.095490
0.296289 0.215079 0.098094
0.374644 0.216343 0.101917
0.456262 0.218306 0.105666
0.535251 0.220246 0.108351
0.607653 0.221903 0.110294
0.672948 0.223410 0.112016
0.733986 0.224703 0.113289
0.792705 0.225925 0.114513
0.850055 0.227122 0.115701
0.906545 0.228314 0.116872
0.962366 0.229465 0.118055
0.000000 0.291636 0.095377
0.065960 0.291638 0.095376
0.121647 0.291636 0.095359
0.169513 0.291626 0.095349
0.226878 0.291646 0.095369
0.298036 0.291630 0.095354
0.379348 0.291768 0.097223
0.462827 0.292605 0.101907
0.542171 0.294084 0.106111
0.614112 0.295717 0.109431
0.679167 0.297239 0.111762
0.739249 0.298789 0.114116
0.796927 0.300355 0.116439
0.854000 0.301631 0.117862
0.909612 0.303122 0.119939
0.965394 0.304314 0.121083
0.000003 0.375891 0.095379
0.065960 0.375897 0.095366
0.121628 0.375897 0.095359
0.169524 0.375895 0.095356
0.226893 0.375909 0.095371
0.298050 0.375897 0.095359
0.380282 0.375911 0.095359
0.466837 0.375926 0.095946
0.547951 0.376348 0.100960
0.620950 0.377278 0.105151
0.686285 0.378470 0.108652
0.747212 0.379589 0.111106
0.805087 0.380916 0.114004
0.861650 0.382272 0.116489
0.917388 0.383656 0.118666
0.973000 0.384832 0.120307
0.000000 0.461746 0.095361
0.065964 0.461746 0.095355
0.121620 0.461747 0.095358
0.169533 0.461743 0.095357
0.226879 0.461743 0.095356
0.298041 0.461747 0.095360
0.380281 0.461746 0.095359
0.467083 0.461744 0.095340
0.550851 0.461745 0.095478
0.625767 0.461843 0.098976
0.692466 0.462313 0.102442
0.753627 0.463047 0.106281
0.812331 0.463953 0.109331
0.868922 0.465123 0.112918
0.924939 0.466237 0.115678
0.979918 0.467483 0.118591
0.000000 0.544300 0.095352
0.065964 0.544300 0.095362
0.121660 0.544273 0.095331
0.169500 0.544300 0.095359
0.226893 0.544300 0.095359
0.298046 0.544283 0.095343
0.380263 0.544301 0.095361
0.467127 0.544303 0.095362
0.550919 0.544300 0.095383
0.627306 0.544275 0.095383
0.695926 0.544314 0.096115
0.758242 0.544457 0.099811
0.817405 0.544901 0.104036
0.875236 0.545525 0.107124
0.931226 0.546427 0.111058
0.986923 0.547359 0.113890
0.000000 0.620856 0.095307
0.065958 0.620855 0.095334
0.121643 0.620855 0.095355
0.169508 0.620856 0.095359
0.226894 0.620859 0.095363
0.298053 0.620845 0.095348
0.380324 0.620848 0.095352
0.467095 0.620856 0.095360
0.550888 0.620856 0.095359
0.627266 0.620856 0.095343
0.696179 0.620865 0.095341
0.760207 0.620860 0.095357
0.820767 0.620870 0.098033
0.879261 0.621112 0.101427
0.936176 0.621566 0.105302
0.992256 0.622159 0.108705
0.000009 0.690555 0.095355
0.065941 0.690557 0.095371
0.121643 0.690585 0.095376
0.169485 0.690567 0.095355
0.226891 0.690562 0.095349
0.298013 0.690571 0.095358
0.380313 0.690545 0.095333
0.467108 0.690587 0.095374
0.550874 0.690565 0.095352
0.627285 0.690576 0.095363
0.696230 0.690556 0.095381
0.760228 0.690578 0.095379
0.821795 0.690564 0.095365
0.881524 0.690584 0.096454
0.939665 0.690661 0.099201
0.995996 0.690922 0.103530
0.000000 0.755556 0.095404
0.065963 0.755558 0.095327
0.121639 0.755558 0.095359
0.169530 0.755559 0.095362
0.226887 0.755544 0.095347
0.298032 0.755547 0.095350
0.380272 0.755579 0.095383
0.467055 0.755557 0.095360
0.550902 0.755546 0.095350
0.627256 0.755558 0.095361
0.696217 0.755560 0.095363
0.760208 0.755557 0.095350
0.821794 0.755559 0.095364
0.881924 0.755588 0.095342
0.941201 0.755545 0.095362
0.999039 0.755599 0.097011
0.000000 0.818103 0.095337
0.065973 0.818115 0.095345
0.121648 0.818099 0.095350
0.169476 0.818110 0.095366
0.226913 0.818093 0.095349
0.298046 0.818100 0.095356
0.380300 0.818095 0.095351
0.467087 0.818127 0.095384
0.550883 0.818119 0.095375
0.627322 0.818100 0.095356
0.696190 0.818106 0.095362
0.760222 0.818104 0.095360
0.821807 0.818110 0.095356
0.881936 0.818110 0.095354
0.941243 0.818082 0.095404
0.999704 0.818093 0.095406
0.000001 0.879413 0.095405
0.065972 0.879432 0.095363
0.121642 0.879425 0.095371
0.169502 0.879409 0.095354
0.226873 0.879425 0.095369
0.298018 0.879409 0.095354
0.380257 0.879421 0.095366
0.467105 0.879405 0.095349
0.550910 0.879419 0.095364
0.627319 0.879394 0.095339
0.696197 0.879418 0.095363
0.760204 0.879417 0.095362
0.821764 0.879435 0.095379
0.881918 0.879425 0.095350
0.941212 0.879419 0.095373
0.999705 0.879422 0.095441
0.000000 0.939901 0.095405
0.065980 0.939924 0.095348
0.121613 0.939913 0.095381
0.169477 0.939924 0.095382
0.226920 0.939889 0.095348
0.298009 0.939902 0.095360
0.380318 0.939886 0.095345
0.467148 0.939878 0.095337
0.550943 0.939879 0.095338
0.627308 0.939876 0.095335
0.696215 0.939894 0.095353
0.760219 0.939887 0.095346
0.821792 0.939887 0.095346
0.881958 0.939879 0.095338
0.941213 0.939904 0.095381
0.999691 0.939949 0.095331
0.000004 0.999711 0.095397
0.065964 0.999719 0.095395
0.121690 0.999692 0.095340
0.169505 0.999719 0.095470
0.226918 0.999704 0.095345
0.298037 0.999701 0.095358
0.380300 0.999719 0.095359
0.467136 0.999692 0.095349
0.550900 0.999713 0.095478
0.627274 0.999716 0.095386
0.696232 0.999719 0.095516
0.760217 0.999703 0.095417
0.821818 0.999703 0.095417
0.881930 0.999716 0.095517
0.941216 0.999715 0.095356
0.999724 0.999719 0.095359
0.000000 0.000000 0.183473
0.064989 0.001330 0.179006
0.113321 0.007185 0.167751
0.154102 0.011090 0.165896
0.205227 0.013798 0.168614
0.272701 0.014763 0.173331
0.352715 0.015062 0.177810
0.438133 0.015164 0.181169
0.519902 0.015763 0.183559
0.595578 0.015778 0.185264
0.662387 0.016583 0.186672
0.725156 0.017008 0.187828
0.784375 0.018015 0.189050
0.842127 0.018981 0.190196
0.898798 0.020100 0.191360
0.954592 0.021255 0.192549
0.000020 0.047029 0.183396
0.065907 0.047091 0.183171
0.118079 0.050433 0.174878
0.158670 0.054922 0.170629
0.210167 0.057410 0.173191
0.278717 0.057917 0.177681
0.359139 0.058170 0.181201
0.443609 0.058911 0.183753
0.526069 0.059226 0.185552
0.600552 0.059946 0.187026
0.666624 0.061139 0.188420
0.728062 0.062221 0.189608
0.786786 0.063448 0.190846
0.844121 0.064645 0.192079
0.900636 0.065817 0.193216
0.956441 0.066984 0.194374
0.000000 0.096020 0.183473
0.065960 0.096027 0.183473
0.121175 0.096565 0.181898
0.163292 0.100645 0.175606
0.215583 0.102798 0.177899
0.284552 0.103253 0.181426
0.365172 0.103628 0.183873
0.449552 0.104548 0.185734
0.530153 0.105834 0.187378
0.603242 0.107255 0.188864
0.668941 0.108632 0.190236
0.729982 0.109898 0.191532
0.788688 0.111123 0.192752
0.846055 0.112321 0.193952
0.902562 0.113516 0.195150
0.958345 0.114662 0.196350
0.000005 0.149954 0.183478
0.065956 0.149957 0.183469
0.121641 0.149957 0.183473
0.168118 0.150989 0.181789
0.221820 0.152750 0.182241
0.290517 0.153617 0.184326
0.369555 0.154926 0.186116
0.452586 0.156511 0.187805
0.532515 0.158198 0.189480
0.605336 0.159706 0.190987
0.671060 0.161085 0.192371
0.732089 0.162360 0.193666
0.790794 0.163585 0.194853
0.848161 0.164783 0.196075
0.904648 0.165958 0.197245
0.960452 0.167124 0.198476
0.000004 0.214703 0.183465
0.065960 0.214703 0.183484
0.121641 0.214703 0.183473
0.169507 0.214703 0.183473
0.226277 0.214942 0.183831
0.294538 0.215994 0.186165
0.372587 0.217699 0.188419
0.455140 0.219511 0.190357
0.535016 0.221163 0.191999
0.607867 0.222695 0.193536
0.673585 0.224068 0.194914
0.734629 0.225348 0.196203
0.793357 0.226565 0.197418
0.850698 0.227768 0.198623
0.907207 0.228934 0.199798
0.963009 0.230114 0.200962
0.000000 0.291636 0.183479
0.065967 0.291643 0.183466
0.121641 0.291636 0.183467
0.169507 0.291636 0.183473
0.226878 0.291636 0.183473
0.297895 0.291652 0.183754
0.378056 0.292173 0.186651
0.460333 0.293738 0.190751
0.539202 0.295627 0.193857
0.611351 0.297376 0.196154
0.676603 0.298888 0.197929
0.737650 0.300195 0.199223
0.796360 0.301429 0.200421
0.853708 0.302592 0.201631
0.910246 0.303760 0.202826
0.966025 0.304929 0.203967
0.000000 0.375897 0.183479
0.065960 0.375897 0.183464
0.121641 0.375897 0.183492
0.169510 0.375908 0.183477
0.226878 0.375897 0.183473
0.298041 0.375897 0.183473
0.380289 0.375883 0.183473
0.466218 0.376025 0.185223
0.546653 0.376872 0.189890
0.619065 0.378196 0.193557
0.683827 0.379707 0.196824
0.744117 0.381137 0.199274
0.801825 0.382655 0.201698
0.858148 0.384186 0.203878
0.914469 0.385418 0.205302
0.969322 0.386938 0.207264
0.000000 0.461746 0.183500
0.065977 0.461762 0.183474
0.121641 0.461746 0.183495
0.169507 0.461737 0.183452
0.226874 0.461757 0.183485
0.298035 0.461746 0.183474
0.380285 0.461724 0.183452
0.467125 0.461751 0.183493
0.550730 0.461760 0.183851
0.624912 0.462082 0.188162
0.690933 0.462826 0.192001
0.751849 0.463813 0.195189
0.809634 0.465104 0.198747
0.866522 0.466269 0.201160
0.922250 0.467630 0.203642
0.976919 0.469093 0.206310
0.000000 0.544300 0.183464
0.065960 0.544300 0.183461
0.121641 0.544300 0.183485
0.169507 0.544299 0.183452
0.226888 0.544300 0.183473
0.298035 0.544292 0.183465
0.380287 0.544295 0.183469
0.467104 0.544302 0.183475
0.550897 0.544300 0.183471
0.627287 0.544298 0.183478
0.695177 0.544353 0.185948
0.756751 0.544780 0.190333
0.815624 0.545476 0.194078
0.873437 0.546180 0.196459
0.929797 0.547181 0.199259
0.985455 0.548137 0.201697
0.000000 0.620856 0.183509
0.065960 0.620856 0.183510
0.121640 0.620854 0.183498
0.169495 0.620853 0.183488
0.226879 0.620857 0.183475
0.298037 0.620856 0.183473
0.380268 0.620849 0.183467
0.467120 0.620840 0.183457
0.550890 0.620872 0.183490
0.627302 0.620841 0.183488
0.696183 0.620856 0.183460
0.759978 0.620849 0.184104
0.819931 0.621009 0.187763
0.877953 0.621389 0.191464
0.934949 0.621953 0.194635
0.990397 0.622814 0.198514
0.000000 0.690572 0.183447
0.065960 0.690572 0.183466
0.121639 0.690570 0.183508
0.169516 0.690572 0.183455
0.226905 0.690564 0.183465
0.298011 0.690600 0.183502
0.380282 0.690580 0.183482
0.467065 0.690570 0.183471
0.550902 0.690573 0.183474
0.627278 0.690593 0.183495
0.696188 0.690580 0.183474
0.760192 0.690593 0.183457
0.821780 0.690569 0.183464
0.881013 0.690600 0.185883
0.938669 0.690785 0.189179
0.995020 0.691220 0.192839
0.000000 0.755556 0.183474
0.065979 0.755574 0.183463
0.121641 0.755556 0.183476
0.169518 0.755553 0.183460
0.226902 0.755557 0.183474
0.298040 0.755550 0.183467
0.380268 0.755559 0.183476
0.467125 0.755558 0.183475
0.550908 0.755565 0.183482
0.627279 0.755552 0.183469
0.696204 0.755550 0.183467
0.760217 0.755550 0.183471
0.821803 0.755561 0.183487
0.881920 0.755557 0.183452
0.940832 0.755565 0.184484
0.998184 0.755647 0.187241
0.000000 0.818103 0.183492
0.065960 0.818103 0.183448
0.121641 0.818103 0.183478
0.169525 0.818103 0.183445
0.226890 0.818101 0.183471
0.298022 0.818120 0.183490
0.380271 0.818123 0.183493
0.467074 0.818105 0.183475
0.550875 0.818096 0.183466
0.627317 0.818108 0.183478
0.696216 0.818085 0.183456
0.760221 0.818099 0.183470
0.821795 0.818078 0.183478
0.881968 0.818086 0.183501
0.941226 0.818074 0.183500
0.999722 0.818101 0.183539
0.000000 0.879415 0.183425
0.065962 0.879417 0.183456
0.121645 0.879419 0.183445
0.169501 0.879420 0.183476
0.226894 0.879402 0.183461
0.298002 0.879426 0.183484
0.380288 0.879401 0.183460
0.467129 0.879415 0.183473
0.550877 0.879418 0.183476
0.627299 0.879410 0.183468
0.696190 0.879405 0.183464
0.760235 0.879398 0.183457
0.821780 0.879417 0.183476
0.881948 0.879403 0.183480
0.941180 0.879417 0.183455
0.999710 0.879431 0.183459
0.000007 0.939887 0.183465
0.065944 0.939884 0.183493
0.121661 0.939920 0.183461
0.169501 0.939897 0.183458
0.226876 0.939903 0.183476
0.298064 0.939893 0.183465
0.380284 0.939897 0.183470
0.467151 0.939901 0.183473
0.550900 0.939881 0.183454
0.627317 0.939899 0.183471
0.696189 0.939896 0.183469
0.760217 0.939913 0.183485
0.821771 0.939904 0.183477
0.881916 0.939889 0.183462
0.941178 0.939942 0.183463
0.999691 0.939904 0.183448
0.000055 0.999675 0.183526
0.066037 0.999719 0.183446
0.121641 0.999719 0.183466
0.169471 0.999701 0.183504
0.226900 0.999719 0.183502
0.298021 0.999719 0.183533
0.380264 0.999719 0.183491
0.467129 0.999717 0.183587
0.550893 0.999719 0.183514
0.627293 0.999701 0.183456
0.696195 0.999719 0.183547
0.760243 0.999711 0.183465
0.821790 0.999719 0.183620
0.881936 0.999700 0.183455
0.941219 0.999719 0.183482
0.999725 0.999719 0.183473
0.000000 0.000000 0.258368
0.065822 0.000212 0.257599
0.117784 0.004288 0.245786
0.158217 0.009830 0.236464
0.206501 0.015088 0.233088
0.269897 0.018418 0.236424
0.345944 0.020614 0.241478
0.430508 0.020672 0.247241
0.511705 0.021273 0.251179
0.586592 0.021508 0.254193
0.654158 0.021747 0.256407
0.717326 0.021854 0.258172
0.776863 0.022596 0.259690
0.837080 0.022332 0.260980
0.894776 0.022888 0.262119
0.951465 0.023596 0.263445
0.000011 0.047009 0.258379
0.065972 0.047009 0.258366
0.120642 0.048409 0.253614
0.163029 0.053096 0.243369
0.211110 0.058844 0.237903
0.274213 0.062409 0.240750
0.351226 0.064100 0.246003
0.436203 0.064059 0.251182
0.518728 0.064053 0.254658
0.593068 0.064655 0.257007
0.661020 0.064825 0.258808
0.723370 0.065377 0.260238
0.783869 0.065682 0.261595
0.842755 0.066153 0.262709
0.900143 0.066863 0.263797
0.956131 0.067963 0.264957
0.000005 0.096036 0.258373
0.065977 0.096027 0.258382
0.121616 0.096084 0.258139
0.167193 0.098556 0.251177
0.215817 0.104516 0.242917
0.279040 0.108092 0.245405
0.357361 0.109119 0.250684
0.442319 0.109288 0.254841
0.524780 0.109464 0.257534
0.598893 0.110235 0.259456
0.667008 0.110403 0.260873
0.729394 0.110992 0.262086
0.788678 0.111949 0.263283
0.846442 0.112944 0.264447
0.903096 0.114050 0.265574
0.958907 0.115223 0.266785
0.000000 0.149951 0.258368
0.065962 0.149957 0.258369
0.121644 0.149957 0.258372
0.169330 0.150190 0.257562
0.221273 0.154453 0.249531
0.284716 0.158167 0.250582
0.364115 0.158776 0.255141
0.449080 0.159177 0.258058
0.531217 0.159639 0.260018
0.605119 0.160629 0.261537
0.671249 0.161797 0.262871
0.732637 0.162908 0.264122
0.791347 0.164138 0.265329
0.848703 0.165325 0.266498
0.905212 0.166522 0.267744
0.961006 0.167677 0.268905
0.000025 0.214698 0.258367
0.065951 0.214704 0.258359
0.121641 0.214703 0.258368
0.169507 0.214703 0.258368
0.225942 0.215459 0.256864
0.291997 0.218185 0.256204
0.371592 0.218985 0.258964
0.455289 0.220263 0.260861
0.535583 0.221711 0.262475
0.608420 0.223235 0.264010
0.674142 0.224628 0.265380
0.735170 0.225886 0.266658
0.793886 0.227116 0.267870
0.851241 0.228308 0.269074
0.907745 0.229498 0.270276
0.963548 0.230651 0.271456
0.000000 0.291636 0.258368
0.065960 0.291636 0.258373
0.121638 0.291636 0.258365
0.169507 0.291636 0.258368
0.226878 0.291636 0.258368
0.297581 0.291833 0.258584
0.376568 0.292984 0.261254
0.458726 0.294884 0.263816
0.538609 0.296571 0.265510
0.611441 0.298077 0.267026
0.677158 0.299463 0.268410
0.738179 0.300733 0.269659
0.796919 0.301945 0.270907
0.854236 0.303176 0.272071
0.910748 0.304353 0.273258
0.966593 0.305482 0.274473
0.000004 0.375894 0.258382
0.065957 0.375894 0.258389
0.121641 0.375897 0.258392
0.169507 0.375897 0.258377
0.226878 0.375897 0.258370
0.298035 0.375897 0.258368
0.380205 0.375908 0.258534
0.464935 0.376365 0.261700
0.544596 0.377777 0.265497
0.616482 0.379509 0.268579
0.681164 0.381186 0.271014
0.741753 0.382614 0.272737
0.800205 0.383926 0.274192
0.857545 0.385128 0.275381
0.914053 0.386304 0.276560
0.969847 0.387481 0.277715
0.000001 0.461744 0.258350
0.065960 0.461746 0.258399
0.121641 0.461746 0.258377
0.169507 0.461746 0.258370
0.226878 0.461745 0.258367
0.298035 0.461764 0.258383
0.380286 0.461746 0.258368
0.467094 0.461731 0.258358
