example_ofxGpuLutCube/bin/data/ofxGpuLutCube/LUT/V6 (peach vintage).cube
LUT_3D_SIZE 16
0.000000 0.000000 0.000000
0.000000 0.000000 0.000000
0.082228 0.000000 0.004047
0.144955 0.000000 0.006226
0.213766 0.000000 0.001679
0.293828 0.000000 0.000000
0.382959 0.000000 0.000000
0.472957 0.000000 0.000000
0.564184 0.000000 0.000000
0.653278 0.000000 0.000000
0.737758 0.000000 0.000000
0.817697 0.000000 0.000000
0.890141 0.000000 0.000000
0.954210 0.000000 0.000000
1.000000 0.042695 0.074372
1.000000 0.142035 0.150728
0.000000 0.000238 0.000000
0.000906 0.001746 0.000490
0.083232 0.003558 0.004407
0.145032 0.003074 0.006259
0.212778 0.002953 0.000339
0.293547 0.006598 0.000000
0.380223 0.025536 0.000000
0.468605 0.009820 0.000000
0.558817 0.002983 0.000000
0.649601 0.000000 0.000000
0.736300 0.000000 0.000000
0.815648 0.000000 0.000000
0.886975 0.000000 0.000000
0.951201 0.006316 0.000000
0.999887 0.086458 0.073834
1.000000 0.152964 0.147560
0.023590 0.078950 0.042488
0.025639 0.082623 0.040607
0.087013 0.078324 0.047012
0.154468 0.092987 0.010742
0.226099 0.105040 0.000000
0.307158 0.115334 0.000000
0.391553 0.120052 0.000000
0.478495 0.121819 0.000000
0.567887 0.121328 0.000000
0.655558 0.118663 0.000000
0.739168 0.115523 0.000000
0.818424 0.115554 0.000000
0.890402 0.119914 0.000000
0.954217 0.131317 0.000000
1.000000 0.152668 0.080454
1.000000 0.196217 0.153502
0.030726 0.135848 0.074049
0.030712 0.144932 0.048476
0.129413 0.159172 0.003564
0.153330 0.130704 0.078194
0.224596 0.143114 0.055403
0.318035 0.184482 0.000000
0.397738 0.192540 0.000000
0.481519 0.197227 0.000000
0.568951 0.200940 0.000000
0.656499 0.203103 0.000000
0.740505 0.204050 0.000000
0.818090 0.204513 0.000000
0.888291 0.206160 0.000000
0.951706 0.210965 0.000000
0.999906 0.223142 0.086564
1.000000 0.251391 0.156885
0.029420 0.228000 0.092000
0.047450 0.238589 0.069055
0.146247 0.247697 0.021688
0.233735 0.247991 0.012227
0.235927 0.199653 0.119826
0.290923 0.198983 0.125679
0.415805 0.249789 0.000000
0.496135 0.277178 0.000000
0.582340 0.282376 0.000000
0.665332 0.284778 0.000000
0.745913 0.285923 0.000000
0.822737 0.287009 0.000000
0.893030 0.287964 0.000000
0.955577 0.290381 0.015356
1.000000 0.296666 0.100881
1.000000 0.317551 0.169925
0.061311 0.304906 0.125643
0.062574 0.319286 0.106306
0.145046 0.324407 0.077406
0.249662 0.335906 0.000000
0.318822 0.319720 0.065675
0.311742 0.263828 0.162448
0.345757 0.254533 0.191934
0.490211 0.303136 0.096736
0.588171 0.351885 0.000000
0.669264 0.363976 0.000000
0.749142 0.365820 0.000000
0.823740 0.365911 0.000000
0.891850 0.365252 0.000000
0.953680 0.365338 0.046900
1.000000 0.369152 0.114571
1.000000 0.383953 0.181609
0.088429 0.384399 0.163241
0.090937 0.406000 0.152565
0.148522 0.408406 0.117875
0.247311 0.415896 0.075277
0.361455 0.427029 0.000000
0.408472 0.395922 0.115938
0.393856 0.334450 0.207914
0.407378 0.316554 0.257862
0.563088 0.361702 0.172910
0.682398 0.412584 0.027094
0.756253 0.446235 0.000000
0.829599 0.447177 0.000000
0.897440 0.445589 0.003650
0.957926 0.443641 0.086338
1.000000 0.444098 0.137593
1.000000 0.455495 0.204007
0.110207 0.459998 0.197482
0.113787 0.484544 0.191522
0.148535 0.487562 0.152689
0.245448 0.495215 0.121625
0.356902 0.508523 0.032606
0.460645 0.509431 0.000000
0.498417 0.472543 0.159041
0.474575 0.403085 0.250915
0.465936 0.375842 0.318454
0.626218 0.417638 0.242488
0.755398 0.466352 0.143514
0.832486 0.504921 0.068442
0.896565 0.521902 0.057258
0.956483 0.518287 0.110398
1.000000 0.516799 0.158888
1.000000 0.524651 0.224462
0.127846 0.533214 0.228952
0.131819 0.559454 0.225904
0.145792 0.565229 0.183234
0.242989 0.573699 0.158996
0.350422 0.586756 0.114689
0.472511 0.602411 0.000000
0.557210 0.590288 0.084781
0.595424 0.555704 0.205206
0.568614 0.482634 0.299950
0.550406 0.449969 0.381814
0.696877 0.486006 0.326122
0.819940 0.525381 0.246752
0.905908 0.558900 0.169478
0.961105 0.589088 0.157518
1.000000 0.592535 0.191558
1.000000 0.597960 0.258452
0.151339 0.617450 0.266459
0.159514 0.639858 0.265891
0.158608 0.644411 0.222956
0.244901 0.651185 0.199518
0.346315 0.661374 0.167549
0.458546 0.672627 0.109096
0.578607 0.681409 0.000000
0.640235 0.657139 0.151828
0.673910 0.622132 0.255526
0.652274 0.555152 0.352256
0.632593 0.526092 0.448884
0.755815 0.557523 0.421626
0.872108 0.586183 0.350180
0.958421 0.609773 0.270184
1.000000 0.637298 0.254540
1.000000 0.667109 0.289401
0.187106 0.692256 0.306218
0.197476 0.709414 0.307256
0.194510 0.715853 0.272264
0.256877 0.724031 0.246317
0.349932 0.734047 0.222892
0.453895 0.745418 0.186007
0.568475 0.756185 0.120522
0.673182 0.755178 0.089784
0.730269 0.731966 0.228495
0.760440 0.697822 0.329747
0.741665 0.638422 0.431250
0.721498 0.615699 0.533776
0.814915 0.647285 0.544597
0.921801 0.666065 0.483998
0.997461 0.679365 0.418732
1.000000 0.700667 0.388995
0.245341 0.768753 0.359582
0.255666 0.780485 0.361174
0.252239 0.784911 0.332721
0.286931 0.791937 0.302589
0.364853 0.799841 0.284125
0.454475 0.807797 0.255229
0.554477 0.814677 0.211314
0.663513 0.819210 0.136929
0.746195 0.808464 0.194086
0.802210 0.790027 0.307007
0.827640 0.758731 0.413989
0.811728 0.711668 0.520228
0.793238 0.693502 0.611835
0.860235 0.726181 0.649982
0.956343 0.746620 0.614067
1.000000 0.769378 0.593140
0.328838 0.841441 0.429157
0.340215 0.849993 0.432879
0.336204 0.853223 0.410482
0.349551 0.859503 0.380521
0.408633 0.866641 0.366685
0.481312 0.874608 0.346252
0.565953 0.881840 0.315291
0.660200 0.886218 0.268377
0.761604 0.886628 0.206784
0.828091 0.871811 0.314309
0.879820 0.856535 0.426850
0.895404 0.826989 0.535633
0.881610 0.790789 0.626254
0.864788 0.775761 0.700341
0.908695 0.808540 0.754935
0.992764 0.839758 0.752473
0.431324 0.900932 0.513091
0.439777 0.905824 0.516005
0.436803 0.908735 0.500090
0.437762 0.914384 0.472933
0.475699 0.919575 0.460888
0.525200 0.924950 0.441699
0.586595 0.929719 0.413518
0.660151 0.933081 0.374259
0.746111 0.934965 0.322236
0.833308 0.931616 0.315403
0.893492 0.919414 0.440772
0.937870 0.908110 0.550682
0.945761 0.881661 0.641971
0.934024 0.854326 0.716015
0.920714 0.843970 0.777243
0.953402 0.884223 0.848831
0.563525 0.958739 0.624244
0.579366 0.965047 0.635173
0.576096 0.966820 0.623649
0.570679 0.970204 0.601382
0.589648 0.973358 0.589978
0.619635 0.977081 0.576720
0.659216 0.980980 0.558107
0.707941 0.983977 0.530399
0.766897 0.985384 0.490331
0.838607 0.985324 0.435982
0.907530 0.977728 0.495295
0.956951 0.967850 0.603087
0.990376 0.959639 0.689086
0.991981 0.938105 0.759669
0.983188 0.920282 0.816130
0.976158 0.918179 0.867062
0.679914 0.999911 0.724722
0.688276 0.999945 0.730218
0.686390 0.999960 0.722862
0.683360 0.999990 0.708900
0.692451 1.000000 0.699217
0.710153 1.000000 0.689631
0.733653 1.000000 0.675751
0.764120 1.000000 0.656920
0.803230 1.000000 0.632364
0.852430 1.000000 0.601348
0.911948 1.000000 0.560416
0.963875 0.999997 0.664253
0.998345 0.999929 0.749274
1.000000 0.993243 0.804028
1.000000 0.974152 0.847332
1.000000 0.959260 0.881676
0.000000 0.000671 0.001025
0.000311 0.000558 0.001119
0.082292 0.000000 0.005994
0.144697 0.000000 0.010249
0.213520 0.000000 0.013045
0.295751 0.000000 0.008081
0.381847 0.000000 0.001740
0.467609 0.000000 0.000000
0.555084 0.000000 0.000000
0.643352 0.000000 0.000000
0.729067 0.000000 0.000000
0.810588 0.000000 0.000000
0.884804 0.000000 0.000000
0.950522 0.000000 0.009882
0.999774 0.000000 0.089235
1.000000 0.127693 0.152895
0.000024 0.000481 0.000869
0.001668 0.001797 0.001974
0.083396 0.003566 0.008219
0.144761 0.007508 0.011430
0.213220 0.009213 0.013545
0.295398 0.004550 0.007201
0.380035 0.002019 0.001522
0.463808 0.000000 0.000000
0.549903 0.000000 0.000000
0.639808 0.000000 0.000000
0.727263 0.000000 0.000000
0.807893 0.000000 0.000000
0.880764 0.000000 0.000000
0.947006 0.000000 0.003949
0.999254 0.062597 0.086485
1.000000 0.140356 0.150073
0.025016 0.077694 0.048178
0.032629 0.082893 0.043402
0.088362 0.078917 0.054475
0.155834 0.095416 0.026757
0.228802 0.105201 0.016698
0.308608 0.109374 0.004505
0.390278 0.110857 0.000954
0.474484 0.110519 0.000000
0.560889 0.108175 0.000000
0.647756 0.104550 0.000000
0.732555 0.100632 0.000000
0.813064 0.100377 0.000000
0.886328 0.106270 0.000000
0.951325 0.120083 0.017750
0.999876 0.144583 0.094682
1.000000 0.189108 0.158391
0.045108 0.133452 0.085698
0.054051 0.144633 0.074236
0.126462 0.160886 0.035749
0.156839 0.136345 0.090974
0.232441 0.150427 0.070475
0.318390 0.183795 0.003975
0.395522 0.187345 0.000517
0.476164 0.190359 0.000000
0.561110 0.192861 0.000000
0.648760 0.194746 0.000000
0.733824 0.195843 0.000000
0.812287 0.196669 0.000000
0.883416 0.198701 0.000000
0.948529 0.204564 0.021275
0.999443 0.217364 0.098398
1.000000 0.245996 0.161561
0.073005 0.226309 0.126723
0.071974 0.237360 0.109829
0.135411 0.247236 0.071612
0.231748 0.250394 0.041363
0.236490 0.202397 0.129739
0.294571 0.202766 0.130787
0.412523 0.250500 0.033729
0.492004 0.272451 0.000000
0.576389 0.276470 0.000000
0.659318 0.278613 0.000000
0.740974 0.280272 0.000000
0.818874 0.281865 0.000000
0.890066 0.283279 0.000000
0.953460 0.286040 0.057523
1.000000 0.293629 0.113004
1.000000 0.314924 0.177068
0.088862 0.303209 0.156143
0.088511 0.317161 0.142980
0.134837 0.323701 0.101331
0.241058 0.334710 0.044151
0.317464 0.320930 0.084147
0.311320 0.265104 0.169430
0.347675 0.256338 0.193545
0.488102 0.303206 0.104189
0.581120 0.349410 0.000000
0.663464 0.358692 0.000000
0.744363 0.361175 0.000000
0.819576 0.361514 0.000000
0.888166 0.361084 0.001316
0.951470 0.361909 0.073482
0.999746 0.366287 0.124493
1.000000 0.381827 0.187849
0.109677 0.383007 0.188942
0.111750 0.402095 0.180727
0.138882 0.406065 0.135528
0.238675 0.413732 0.100046
0.356474 0.426565 0.002304
0.407095 0.396411 0.125691
0.393410 0.335370 0.213395
0.409098 0.318147 0.259436
0.562434 0.362247 0.175980
0.678155 0.411643 0.067011
0.752874 0.443201 0.000000
0.827019 0.444011 0.000060
0.895343 0.442739 0.046876
0.956537 0.441290 0.100763
1.000000 0.442720 0.147445
1.000000 0.454918 0.211688
0.127586 0.460896 0.219478
0.130927 0.483560 0.215121
0.140014 0.487841 0.167362
0.238436 0.495250 0.138764
0.350572 0.507986 0.080977
0.458409 0.510013 0.020248
0.495889 0.471569 0.165592
0.471979 0.401910 0.254092
0.465062 0.375626 0.318963
0.625324 0.417542 0.243381
0.754066 0.466288 0.147628
0.829714 0.504337 0.086434
0.894010 0.519104 0.079406
0.954916 0.516162 0.121330
0.999982 0.515431 0.166993
1.000000 0.524376 0.231868
0.142953 0.535536 0.248817
0.147217 0.561044 0.247420
0.145275 0.567346 0.200962
0.237330 0.575834 0.172939
0.345829 0.588587 0.133009
0.468873 0.603719 0.018644
0.557045 0.592195 0.098783
0.595165 0.556553 0.210883
0.567341 0.482393 0.303097
0.549477 0.450010 0.383176
0.696889 0.486162 0.326454
0.819495 0.525653 0.248546
0.904231 0.559091 0.176307
0.960201 0.589110 0.164776
1.000000 0.592162 0.199688
1.000000 0.598486 0.266609
0.165315 0.620853 0.284637
0.173981 0.643858 0.285566
0.168711 0.648710 0.244578
0.241108 0.655272 0.212270
0.342884 0.664243 0.181358
0.455028 0.673934 0.128125
0.575330 0.681473 0.000183
0.638306 0.656807 0.158610
0.672538 0.621730 0.259314
0.651282 0.555040 0.355016
0.631870 0.526599 0.451207
0.755840 0.557422 0.421403
0.871627 0.586097 0.350560
0.957905 0.609818 0.271480
1.000000 0.638414 0.259715
1.000000 0.667997 0.297565
0.200577 0.695747 0.323735
0.211678 0.713792 0.325968
0.208498 0.720102 0.293419
0.255442 0.728350 0.258478
0.348510 0.737946 0.235591
0.452534 0.748513 0.199802
0.566563 0.757965 0.139332
0.672523 0.756415 0.104039
0.729161 0.732038 0.233528
0.759534 0.697773 0.332529
0.740743 0.638276 0.433588
0.720698 0.615879 0.535486
0.814896 0.646987 0.544033
0.921964 0.666397 0.484446
0.997579 0.680570 0.420950
1.000000 0.703217 0.395994
0.256988 0.771285 0.374221
0.270998 0.785824 0.379359
0.267722 0.790347 0.352846
0.289713 0.796923 0.315699
0.365377 0.803457 0.296174
0.453417 0.810013 0.266536
0.552218 0.815499 0.222610
0.660920 0.819291 0.152174
0.745164 0.808868 0.199928
0.801628 0.790405 0.311046
0.827447 0.759229 0.417094
0.811240 0.711936 0.522327
0.792476 0.693482 0.612846
0.860488 0.726048 0.649595
0.957027 0.747503 0.615110
1.000000 0.771097 0.595860
0.339742 0.842891 0.442553
0.354250 0.853092 0.449070
0.350793 0.856607 0.428240
0.356009 0.863245 0.393656
0.412941 0.870094 0.379573
0.483488 0.877360 0.358220
0.566091 0.883578 0.326236
0.658945 0.886993 0.278564
0.759856 0.886815 0.215884
0.827094 0.871823 0.317756
0.878994 0.856471 0.429472
0.894818 0.826912 0.537135
0.880818 0.790435 0.626868
0.864443 0.775988 0.701299
0.909774 0.809690 0.756138
0.993818 0.841439 0.754618
0.442419 0.902276 0.525641
0.453406 0.908150 0.530875
0.450983 0.911362 0.515965
0.448138 0.916896 0.486929
0.481629 0.921596 0.472315
0.528280 0.926268 0.451751
0.587290 0.930370 0.422072
0.659483 0.933388 0.382165
0.744928 0.935199 0.330394
0.832717 0.932156 0.319789
0.893150 0.919820 0.444253
0.937421 0.908244 0.552653
0.945367 0.881630 0.642769
0.933683 0.854305 0.716630
0.920832 0.844550 0.778403
0.954233 0.885109 0.849719
0.570542 0.959217 0.632664
0.588931 0.966325 0.645818
0.586101 0.968232 0.634982
0.580292 0.971515 0.613015
0.595802 0.974826 0.599357
0.624262 0.978275 0.585555
0.661689 0.981680 0.565724
0.708648 0.984244 0.536934
0.766364 0.985360 0.496179
0.837475 0.985175 0.442022
0.906797 0.977741 0.496836
0.956282 0.967698 0.603669
0.989846 0.959429 0.689256
0.991818 0.938196 0.760181
0.983334 0.920777 0.817307
0.976558 0.919052 0.868493
0.685456 0.999916 0.731150
0.695583 0.999956 0.738208
0.693880 0.999972 0.731183
0.690022 0.999998 0.716811
0.696002 1.000000 0.704675
0.712377 1.000000 0.694179
0.734716 1.000000 0.679620
0.764577 1.000000 0.660567
0.803362 1.000000 0.636350
0.852233 1.000000 0.605810
0.911375 1.000000 0.565228
0.963497 0.999997 0.665159
0.998151 0.999929 0.749775
1.000000 0.993308 0.804522
1.000000 0.974261 0.847772
1.000000 0.959358 0.882079
0.000000 0.046021 0.071040
0.000000 0.039401 0.072342
0.083207 0.000000 0.085402
0.146159 0.000000 0.093360
0.218726 0.000000 0.097736
0.305052 0.000000 0.091579
0.388063 0.000000 0.085134
0.472241 0.000000 0.081631
0.558611 0.000000 0.075448
0.646271 0.000000 0.067503
0.732021 0.000000 0.060371
0.812941 0.000000 0.063722
0.886439 0.000000 0.077244
0.951691 0.000000 0.098763
0.999955 0.000000 0.129586
1.000000 0.102239 0.179134
0.000000 0.043781 0.069038
0.001816 0.035195 0.074251
0.084924 0.004658 0.086647
0.147962 0.002823 0.093524
0.221565 0.000000 0.095005
0.304507 0.000000 0.088811
0.386318 0.000000 0.084665
0.468038 0.000000 0.080842
0.553734 0.000000 0.074577
0.643394 0.000000 0.066273
0.730115 0.000000 0.059153
0.809962 0.000000 0.061303
0.882205 0.000000 0.074500
0.948124 0.000000 0.095963
0.999431 0.000000 0.127461
1.000000 0.118383 0.176552
0.051430 0.069416 0.073865
0.066334 0.077295 0.080874
0.094837 0.093217 0.096700
0.160032 0.092763 0.096802
0.236106 0.089146 0.095414
0.314223 0.081842 0.091124
0.394901 0.072385 0.087206
0.478032 0.059251 0.082538
0.563699 0.044921 0.075583
0.650179 0.028533 0.066959
0.735108 0.023990 0.060455
0.815161 0.023901 0.065580
0.887786 0.037002 0.079877
0.952339 0.075063 0.102120
0.999990 0.118343 0.133433
1.000000 0.175213 0.184283
0.085444 0.116302 0.112184
0.092645 0.129537 0.121404
0.111212 0.157612 0.118805
0.166561 0.153417 0.125548
0.246114 0.168110 0.108082
0.321232 0.175209 0.094817
0.398268 0.175153 0.089268
0.478576 0.175188 0.083013
0.563778 0.175187 0.075248
0.651563 0.175120 0.066186
0.736163 0.175315 0.059704
0.814070 0.175996 0.065977
0.884654 0.179249 0.080125
0.949539 0.187184 0.103554
0.999608 0.203361 0.136196
1.000000 0.236670 0.187200
0.103738 0.211331 0.170822
0.112129 0.222878 0.173374
0.125344 0.240439 0.147330
0.218081 0.255990 0.106256
0.241914 0.214032 0.158638
0.313027 0.218869 0.147245
0.412497 0.257156 0.101317
0.493452 0.264613 0.088228
0.577665 0.266780 0.078209
0.660733 0.267615 0.069262
0.742807 0.269034 0.065149
0.820474 0.270277 0.073798
0.891160 0.272137 0.090644
0.954262 0.275900 0.114737
1.000000 0.284833 0.148041
1.000000 0.308672 0.200938
0.120021 0.290666 0.204807
0.130003 0.305006 0.207122
0.135633 0.316893 0.172854
0.213408 0.331606 0.125201
0.315231 0.328400 0.120090
0.315441 0.273612 0.192135
0.362972 0.268234 0.203264
0.497207 0.313889 0.129809
0.581577 0.349265 0.082840
0.665080 0.352515 0.073495
0.745962 0.354156 0.072322
0.820859 0.354257 0.080240
0.889079 0.353883 0.096684
0.952243 0.355123 0.122345
0.999877 0.360494 0.157158
1.000000 0.377684 0.211026
0.142412 0.372798 0.238671
0.153445 0.391035 0.242412
0.151479 0.398126 0.203891
0.213384 0.409655 0.153731
0.335111 0.424502 0.105210
0.407018 0.402680 0.152961
0.396936 0.342464 0.232127
0.421521 0.327995 0.267999
0.572985 0.371946 0.188995
0.678050 0.417033 0.116281
0.753908 0.439929 0.084629
0.828090 0.439351 0.095556
0.896058 0.438000 0.115038
0.957082 0.436792 0.141598
1.000000 0.438748 0.176798
1.000000 0.452105 0.233422
0.163236 0.453031 0.269927
0.172948 0.474972 0.273911
0.166384 0.480830 0.235469
0.214740 0.491855 0.182248
0.329643 0.505630 0.142261
0.453618 0.515370 0.087251
0.496142 0.476445 0.186596
0.474557 0.407482 0.269416
0.475332 0.383926 0.326771
0.634679 0.425686 0.252298
0.757981 0.472449 0.169292
0.829952 0.508499 0.127537
0.894620 0.515979 0.129782
0.955396 0.513164 0.157550
1.000000 0.512893 0.194450
1.000000 0.522739 0.252807
0.179744 0.530370 0.297710
0.186630 0.554916 0.301532
0.179536 0.561148 0.265809
0.214082 0.573061 0.209644
0.326635 0.587319 0.177150
0.452751 0.603207 0.120775
0.554224 0.596717 0.131923
0.595738 0.560776 0.228619
0.569503 0.487203 0.316724
0.555059 0.457067 0.393511
0.704154 0.492621 0.333067
0.823934 0.531083 0.258813
0.904086 0.563579 0.200755
0.960238 0.590819 0.190480
1.000000 0.590591 0.224339
1.000000 0.597589 0.285755
0.200020 0.616949 0.330949
0.209155 0.639457 0.335151
0.203317 0.644495 0.302793
0.221010 0.653871 0.244135
0.325674 0.663170 0.216574
0.439700 0.673042 0.173531
0.563862 0.681452 0.092586
0.635791 0.659579 0.180486
0.673418 0.625492 0.274011
0.653153 0.559419 0.367617
0.635582 0.533143 0.462269
0.761415 0.562687 0.426904
0.874923 0.590533 0.357826
0.959526 0.613425 0.281705
1.000000 0.642366 0.276574
1.000000 0.667897 0.316205
0.230723 0.693123 0.365264
0.242336 0.710919 0.369848
0.238480 0.716938 0.342546
0.243055 0.727335 0.288207
0.335116 0.737736 0.265613
0.440119 0.748653 0.233872
0.555273 0.758043 0.183621
0.668446 0.758830 0.137160
0.727135 0.734038 0.250053
0.760197 0.700994 0.345507
0.741646 0.641969 0.445392
0.722125 0.621150 0.545908
0.818889 0.651006 0.548170
0.924320 0.669874 0.489468
0.997893 0.683237 0.425759
1.000000 0.707418 0.409208
0.283687 0.768957 0.411781
0.298305 0.783682 0.418244
0.294756 0.788246 0.395413
0.290525 0.796149 0.346414
0.356957 0.803027 0.321819
0.443982 0.809580 0.293574
0.542641 0.815121 0.252894
0.651834 0.819150 0.193110
0.742240 0.810740 0.218037
0.800394 0.792290 0.324622
0.828026 0.762145 0.428926
0.811629 0.714868 0.531948
0.793334 0.697229 0.620567
0.863530 0.728907 0.652362
0.958978 0.749778 0.617713
1.000000 0.772722 0.597938
0.362227 0.839910 0.474120
0.376473 0.849707 0.480953
0.374001 0.853906 0.463279
0.369866 0.861730 0.426180
0.412085 0.869910 0.403429
0.480187 0.877346 0.382686
0.560602 0.883465 0.351545
0.652195 0.886862 0.305988
0.754177 0.887320 0.242716
0.824860 0.873114 0.330599
0.877752 0.857737 0.440912
0.894870 0.828960 0.545678
0.880823 0.792394 0.633235
0.864651 0.778261 0.706389
0.911978 0.811527 0.757744
0.995116 0.842428 0.755393
0.461855 0.900005 0.552183
0.473125 0.906128 0.557838
0.471252 0.909510 0.544715
0.466438 0.915142 0.516807
0.484997 0.920864 0.492102
0.528996 0.925499 0.472205
0.585574 0.929724 0.443248
0.655738 0.933041 0.404442
0.740125 0.935250 0.354725
0.830065 0.933267 0.332743
0.891661 0.920843 0.454227
0.936424 0.909119 0.559995
0.945281 0.883014 0.648157
0.933634 0.855622 0.720792
0.921000 0.846149 0.781932
0.955844 0.886365 0.850824
0.582747 0.957001 0.650579
0.599815 0.963843 0.662508
0.597258 0.965815 0.652508
0.592088 0.969323 0.632307
0.598871 0.973872 0.612443
0.626448 0.977565 0.599512
0.662649 0.981125 0.580477
0.707969 0.983725 0.552569
0.764452 0.985028 0.513731
0.834512 0.985145 0.462655
0.905040 0.978445 0.504077
0.955127 0.968295 0.608983
0.989069 0.959938 0.693156
0.991690 0.939021 0.763138
0.983248 0.921539 0.819629
0.976500 0.919794 0.870333
0.693840 0.998909 0.743567
0.703641 0.999939 0.750310
0.702035 0.999956 0.743635
0.698181 0.999983 0.729884
0.698278 1.000000 0.713194
0.713897 1.000000 0.702886
0.735585 1.000000 0.688766
0.764774 1.000000 0.670546
0.802952 1.000000 0.647489
0.851020 1.000000 0.618178
0.909272 1.000000 0.579238
0.962246 0.999998 0.668278
0.997649 0.999932 0.751986
1.000000 0.993484 0.806259
1.000000 0.974683 0.849239
1.000000 0.959737 0.883342
0.000000 0.083961 0.121755
0.000000 0.070167 0.126407
0.068343 0.001197 0.139670
0.149377 0.000000 0.152119
0.222845 0.000000 0.165243
0.306206 0.000000 0.173977
0.389758 0.000000 0.172430
0.475266 0.000000 0.162548
0.562761 0.000000 0.146319
0.650333 0.000000 0.141527
0.736196 0.000000 0.140786
0.816308 0.000000 0.142905
0.888827 0.000000 0.148824
0.953374 0.000000 0.160238
1.000000 0.000000 0.180187
1.000000 0.001547 0.218934
0.000000 0.078003 0.119516
0.000000 0.066110 0.128511
0.071467 0.023438 0.141738
0.151133 0.000558 0.154154
0.225362 0.000000 0.166213
0.306588 0.000000 0.171937
0.388079 0.000000 0.168460
0.470995 0.000000 0.156498
0.558130 0.000000 0.143879
0.648185 0.000000 0.140967
0.734309 0.000000 0.140169
0.813120 0.000000 0.141581
0.884465 0.000000 0.146532
0.949919 0.000000 0.158040
0.999722 0.000000 0.178236
1.000000 0.038172 0.217199
0.036479 0.116636 0.130311
0.058027 0.121289 0.137135
0.083173 0.107495 0.151648
0.164157 0.087896 0.168166
0.238811 0.085259 0.173072
0.316909 0.038620 0.170398
0.398191 0.000000 0.161605
0.481664 0.000000 0.151504
0.567310 0.000000 0.146786
0.653937 0.000000 0.143131
0.738999 0.000000 0.142212
0.818237 0.000000 0.144624
0.889948 0.000000 0.150976
0.953926 0.000000 0.162873
1.000000 0.024544 0.183419
1.000000 0.143868 0.223442
0.099129 0.125258 0.133464
0.110326 0.134394 0.142224
0.134869 0.151146 0.156616
0.172715 0.170231 0.176791
0.247058 0.165746 0.172577
0.322878 0.155549 0.164066
0.400407 0.147483 0.157900
0.481103 0.140280 0.152656
0.567079 0.132749 0.147833
0.655457 0.126574 0.144406
0.739676 0.123031 0.143618
0.816760 0.124828 0.145426
0.886599 0.131979 0.151264
0.951136 0.147322 0.163928
0.999874 0.173103 0.185742
1.000000 0.217906 0.226836
0.162070 0.177931 0.179171
0.168149 0.188576 0.189028
0.173204 0.208945 0.204001
0.188294 0.243902 0.199106
0.249155 0.232401 0.201017
0.334267 0.244624 0.182983
0.413142 0.250678 0.166481
0.495046 0.248710 0.160089
0.579796 0.246902 0.153377
0.663550 0.245401 0.148656
0.745883 0.245402 0.148011
0.822971 0.246499 0.151339
0.892916 0.249302 0.159262
0.955566 0.255159 0.172994
1.000000 0.267466 0.195902
1.000000 0.296492 0.238782
0.164938 0.265873 0.243052
0.172950 0.279339 0.251965
0.179827 0.292870 0.249487
0.193385 0.319502 0.217787
0.299969 0.339133 0.170709
0.321111 0.287553 0.227488
0.389887 0.288654 0.219216
0.499421 0.327797 0.174435
0.583161 0.338940 0.157318
0.667616 0.340018 0.153143
0.748538 0.340453 0.152682
0.822862 0.339844 0.155787
0.890537 0.339591 0.163700
0.953469 0.341951 0.179019
1.000000 0.349223 0.203858
1.000000 0.369686 0.248629
0.177592 0.351242 0.285736
0.186968 0.367773 0.294592
0.194135 0.376971 0.283762
0.203220 0.398140 0.241600
0.292952 0.419208 0.190141
0.403893 0.413544 0.192468
0.402557 0.354701 0.262880
0.444569 0.345025 0.280996
0.591571 0.389506 0.212120
0.678121 0.426290 0.168005
0.755934 0.431640 0.161851
0.829785 0.430454 0.167267
0.897240 0.428959 0.177946
0.957953 0.428329 0.195118
1.000000 0.431404 0.221204
1.000000 0.446908 0.268924
0.192588 0.435431 0.320897
0.203086 0.455906 0.330784
0.211109 0.464035 0.316943
0.215900 0.481607 0.269888
0.290208 0.500016 0.213886
0.428773 0.517255 0.165692
0.495273 0.485124 0.219889
0.479126 0.417542 0.295800
