example_ofxGpuLutCube/bin/data/ofxGpuLutCube/LUT/V6 (peach vintage).cube
LUT_3D_SIZE 6
0.000000 0.000000 0.000000
0.144955 0.000000 0.006226
0.382959 0.000000 0.000000
0.653278 0.000000 0.000000
0.890141 0.000000 0.000000
1.000000 0.142035 0.150728
0.030726 0.135848 0.074049
0.153330 0.130704 0.078194
0.397738 0.192540 0.000000
0.656499 0.203103 0.000000
0.888291 0.206160 0.000000
1.000000 0.251391 0.156885
0.088429 0.384399 0.163241
0.247311 0.415896 0.075277
0.393856 0.334450 0.207914
0.682398 0.412584 0.027094
0.897440 0.445589 0.003650
1.000000 0.455495 0.204007
0.151339 0.617450 0.266459
0.244901 0.651185 0.199518
0.578607 0.681409 0.000000
0.652274 0.555152 0.352256
0.872108 0.586183 0.350180
1.000000 0.667109 0.289401
0.328838 0.841441 0.429157
0.349551 0.859503 0.380521
0.565953 0.881840 0.315291
0.828091 0.871811 0.314309
0.881610 0.790789 0.626254
0.992764 0.839758 0.752473
0.679914 0.999911 0.724722
0.683360 0.999990 0.708900
0.733653 1.000000 0.675751
0.852430 1.000000 0.601348
0.998345 0.999929 0.749274
1.000000 0.959260 0.881676
0.000000 0.083961 0.121755
0.149377 0.000000 0.152119
0.389758 0.000000 0.172430
0.650333 0.000000 0.141527
0.888827 0.000000 0.148824
1.000000 0.001547 0.218934
0.099129 0.125258 0.133464
0.172715 0.170231 0.176791
0.400407 0.147483 0.157900
0.655457 0.126574 0.144406
0.886599 0.131979 0.151264
1.000000 0.217906 0.226836
0.177592 0.351242 0.285736
0.203220 0.398140 0.241600
0.402557 0.354701 0.262880
0.678121 0.426290 0.168005
0.897240 0.428959 0.177946
1.000000 0.446908 0.268924
0.230106 0.606885 0.387087
0.248639 0.646691 0.332611
0.539144 0.680185 0.184000
0.656506 0.567548 0.390571
0.880829 0.598638 0.370780
1.000000 0.667663 0.348378
0.401994 0.834225 0.526796
0.412215 0.857127 0.491858
0.551443 0.882585 0.395142
0.820648 0.875608 0.353529
0.880822 0.795881 0.644576
0.996735 0.844203 0.756667
0.708451 0.996087 0.765087
0.712494 0.999953 0.752491
0.737276 1.000000 0.705024
0.848794 1.000000 0.639816
0.996679 0.999939 0.755963
1.000000 0.960408 0.885662
0.000000 0.148409 0.323784
0.033428 0.065159 0.358367
0.395073 0.000000 0.402609
0.654140 0.000000 0.422182
0.891473 0.000000 0.402844
1.000000 0.000000 0.387779
0.010269 0.276541 0.355932
0.069707 0.221638 0.378571
0.401337 0.083746 0.410310
0.661263 0.000000 0.416634
0.890508 0.000000 0.387942
1.000000 0.029265 0.394370
0.257454 0.326099 0.348378
0.298074 0.353400 0.372045
0.415813 0.415163 0.428264
0.681949 0.383769 0.400242
0.899965 0.379235 0.393010
1.000000 0.425050 0.432738
0.380433 0.526814 0.510933
0.399499 0.570642 0.538431
0.445870 0.654235 0.488167
0.669360 0.614384 0.519351
0.899595 0.648104 0.464708
1.000000 0.671165 0.503707
0.513328 0.802873 0.684301
0.546000 0.827130 0.691809
0.570820 0.864114 0.618994
0.785458 0.888644 0.485567
0.881266 0.815020 0.702576
0.999968 0.854696 0.764069
0.759710 0.981542 0.848589
0.769080 0.987891 0.845578
0.766802 0.999946 0.798877
0.837416 1.000000 0.740373
0.986586 0.999976 0.774779
1.000000 0.964162 0.898389
0.000000 0.275895 0.595795
0.000000 0.191765 0.608194
0.349322 0.000000 0.638653
0.658197 0.000000 0.670372
0.885297 0.000000 0.659821
1.000000 0.000000 0.638627
0.000000 0.367610 0.598158
0.000000 0.313397 0.608530
0.322859 0.148063 0.641095
0.660199 0.000000 0.673184
0.883385 0.000000 0.655445
1.000000 0.150605 0.635721
0.194233 0.531924 0.595020
0.241184 0.548167 0.611631
0.327768 0.449611 0.650470
0.675816 0.347732 0.691159
0.890654 0.392261 0.661836
1.000000 0.430981 0.646042
0.426265 0.539839 0.576769
0.460767 0.561386 0.594908
0.550511 0.610055 0.630994
0.679011 0.678222 0.690935
0.888322 0.663014 0.673538
1.000000 0.673049 0.678879
0.681418 0.718307 0.723802
0.695921 0.742930 0.746957
0.701452 0.795597 0.783857
0.732989 0.870404 0.757945
0.882510 0.845159 0.785158
1.000000 0.869721 0.774477
0.827709 0.955400 0.921345
0.833543 0.962144 0.923466
0.840263 0.978488 0.916988
0.848877 0.999976 0.870113
0.959203 1.000000 0.804113
1.000000 0.971140 0.921215
0.000000 0.402625 0.825589
0.000000 0.352294 0.832064
0.154599 0.211297 0.850022
0.607001 0.000000 0.873204
0.868662 0.000000 0.883289
1.000000 0.089612 0.856429
0.000000 0.473967 0.827454
0.000000 0.432899 0.833246
0.083252 0.282671 0.850885
0.594828 0.009283 0.872448
0.868398 0.000000 0.883162
1.000000 0.242495 0.856873
0.260446 0.655006 0.819826
0.302161 0.641579 0.827735
0.306777 0.536782 0.848885
0.569078 0.388395 0.876264
0.874688 0.336056 0.889385
1.000000 0.476584 0.861061
0.496825 0.748998 0.812245
0.519206 0.758155 0.818613
0.574290 0.780384 0.832735
0.634493 0.709787 0.865359
0.878461 0.644658 0.890694
1.000000 0.700475 0.871373
0.691559 0.781252 0.812826
0.706530 0.790057 0.819673
0.742960 0.809258 0.833172
0.804714 0.843107 0.857249
0.890265 0.888667 0.895857
1.000000 0.894334 0.897578
0.914565 0.916175 0.916890
0.918941 0.921632 0.922729
0.924711 0.936558 0.939150
0.928508 0.970340 0.966294
0.938484 0.999994 0.947961
0.999821 0.984965 0.962316
0.311577 0.619496 0.999954
0.301769 0.592288 0.999977
0.307734 0.489820 1.000000
0.542717 0.378871 1.000000
0.828285 0.000000 1.000000
1.000000 0.193022 1.000000
0.384783 0.665114 0.999911
0.377690 0.641597 0.999937
0.349406 0.538694 1.000000
0.547437 0.433344 1.000000
0.826665 0.040052 1.000000
1.000000 0.278003 1.000000
0.560669 0.793860 0.993828
0.555389 0.777902 0.995942
0.534786 0.710674 0.999958
0.582503 0.592252 1.000000
0.822694 0.388486 1.000000
1.000000 0.474201 1.000000
0.700364 0.916602 0.981019
0.702381 0.910460 0.982294
0.707805 0.883465 0.987278
0.693732 0.797251 0.999769
0.822576 0.673833 1.000000
1.000000 0.685763 1.000000
0.817259 0.938235 0.975184
0.820030 0.939427 0.975789
0.829507 0.943662 0.978041
0.850141 0.952865 0.982736
0.880426 0.910826 0.997102
0.999997 0.901786 1.000000
0.903186 0.951411 0.969358
0.905702 0.952516 0.969962
0.915247 0.956728 0.972251
0.934734 0.965626 0.977298
0.972120 0.984137 0.988730
1.000000 1.000000 1.000000
