example_ofxGpuLutCube/bin/data/ofxGpuLutCube/LUT/V7 (peach vintage_1).cube
LUT_3D_SIZE 16
0.084808 0.066132 0.045624
0.116699 0.070506 0.047223
0.185235 0.079527 0.047605
0.265784 0.088001 0.045086
0.373501 0.092371 0.034751
0.470143 0.091298 0.024973
0.549200 0.089783 0.022315
0.606781 0.088497 0.020965
0.648159 0.088584 0.020003
0.687695 0.089789 0.018994
0.722900 0.091339 0.018189
0.754793 0.094529 0.017621
0.786133 0.097730 0.017127
0.816677 0.100552 0.017310
0.841172 0.105279 0.020253
0.863237 0.111510 0.023270
0.092576 0.103957 0.055138
0.120163 0.106313 0.056220
0.180220 0.114273 0.056596
0.255189 0.124042 0.054275
0.343574 0.131609 0.047037
0.449137 0.135986 0.034521
0.541743 0.137269 0.025161
0.619786 0.139919 0.022458
0.671449 0.142074 0.021092
0.714165 0.144092 0.019823
0.752323 0.146415 0.018749
0.783838 0.148965 0.018069
0.812735 0.152051 0.019020
0.839731 0.156017 0.021486
0.864836 0.160336 0.023920
0.886332 0.165933 0.026707
0.095974 0.160008 0.065859
0.126081 0.159464 0.066634
0.188186 0.164692 0.065636
0.264294 0.173253 0.061273
0.350903 0.181298 0.052341
0.458221 0.187976 0.037477
0.552044 0.191785 0.026482
0.633138 0.197369 0.023275
0.690049 0.201485 0.021586
0.732948 0.204911 0.020275
0.771902 0.208521 0.019038
0.804085 0.211922 0.018263
0.834525 0.215528 0.017871
0.862396 0.220170 0.019690
0.888870 0.225381 0.021696
0.910425 0.230703 0.024092
0.078644 0.232434 0.071179
0.115377 0.228691 0.072026
0.187972 0.230084 0.069974
0.271161 0.236485 0.063412
0.361684 0.244334 0.051980
0.470534 0.252919 0.034788
0.564010 0.260321 0.025659
0.644411 0.269417 0.023699
0.707162 0.275936 0.021797
0.750573 0.280203 0.020260
0.789752 0.284650 0.018793
0.822589 0.288352 0.017893
0.852422 0.291857 0.017433
0.881506 0.295698 0.017030
0.909977 0.299862 0.016627
0.934008 0.304064 0.017213
0.040885 0.314140 0.074915
0.083121 0.308596 0.074478
0.171240 0.307782 0.070297
0.270069 0.313293 0.060193
0.368297 0.321907 0.045411
0.479859 0.331936 0.027926
0.572751 0.341004 0.025591
0.653783 0.351144 0.023396
0.720930 0.359205 0.021027
0.765951 0.364060 0.019136
0.805448 0.368874 0.017407
0.839012 0.372651 0.016348
0.867401 0.376080 0.015718
0.893664 0.380564 0.015121
0.918405 0.385691 0.014806
0.935843 0.389381 0.015112
0.005595 0.378784 0.093770
0.044060 0.383328 0.084490
0.140645 0.380983 0.072206
0.261410 0.385754 0.057410
0.369202 0.395130 0.040059
0.483487 0.406043 0.027025
0.581883 0.416703 0.024699
0.664159 0.428237 0.022096
0.735673 0.438718 0.019285
0.783038 0.444902 0.016959
0.822469 0.450724 0.014883
0.853665 0.456894 0.013238
0.878886 0.461934 0.012311
0.903633 0.466828 0.011883
0.921041 0.470507 0.011711
0.934433 0.473456 0.011850
0.000000 0.434546 0.099311
0.018374 0.439557 0.100572
0.101674 0.448720 0.078119
0.246802 0.451096 0.057101
0.365321 0.461155 0.036306
0.484196 0.471920 0.025956
0.587883 0.483401 0.023323
0.671278 0.495889 0.020353
0.746170 0.508352 0.016870
0.795205 0.516039 0.013882
0.830945 0.524351 0.011239
0.861745 0.531761 0.009196
0.887349 0.537019 0.008474
0.908135 0.541274 0.008184
0.921249 0.544075 0.008047
0.934384 0.546977 0.008293
0.000000 0.489868 0.100579
0.011268 0.492784 0.101727
0.058174 0.513491 0.091962
0.226129 0.511389 0.059885
0.358689 0.521017 0.035752
0.483223 0.532102 0.024751
0.592313 0.544602 0.021557
0.677891 0.558015 0.017921
0.755538 0.571941 0.013521
0.804661 0.582520 0.009855
0.839839 0.592198 0.007075
0.871819 0.600347 0.005038
0.898014 0.606081 0.004350
0.912919 0.609272 0.004185
0.925851 0.612150 0.004446
0.938612 0.615054 0.005195
0.000000 0.538395 0.102981
0.007642 0.541977 0.103289
0.041703 0.560749 0.102539
0.195633 0.570097 0.065058
0.349170 0.578534 0.036053
0.480833 0.589135 0.022906
0.595567 0.601401 0.019382
0.683432 0.614707 0.015310
0.763686 0.629452 0.010296
0.813443 0.642531 0.006695
0.849628 0.652996 0.004055
0.882858 0.662329 0.001955
0.906652 0.668258 0.001347
0.919684 0.671513 0.001552
0.931980 0.674615 0.002281
0.942846 0.677458 0.003442
0.000000 0.581549 0.107336
0.007599 0.586045 0.107297
0.034874 0.603704 0.106772
0.164161 0.619470 0.076596
0.340472 0.624687 0.042885
0.477407 0.636940 0.022235
0.597966 0.649999 0.018511
0.688916 0.664130 0.014248
0.771280 0.679853 0.009014
0.824009 0.695209 0.005067
0.860854 0.706303 0.002391
0.894818 0.716356 0.000578
0.916787 0.722523 0.000176
0.929108 0.725819 0.000582
0.939871 0.728825 0.001516
0.950528 0.731785 0.002759
0.000000 0.623576 0.113271
0.007599 0.629370 0.113565
0.027575 0.643801 0.113564
0.128867 0.668508 0.096065
0.330951 0.667145 0.055854
0.473470 0.680020 0.027385
0.599166 0.693182 0.019781
0.693078 0.706778 0.015600
0.776822 0.722339 0.010571
0.833107 0.739768 0.006236
0.870670 0.752228 0.003550
0.905159 0.763371 0.001644
0.926459 0.770388 0.000869
0.937591 0.774089 0.001286
0.948125 0.777635 0.002038
0.958648 0.781141 0.003016
0.000000 0.662571 0.122889
0.007599 0.670425 0.122991
0.020172 0.682185 0.122422
0.101544 0.714388 0.115755
0.320301 0.709270 0.071579
0.469278 0.721695 0.038486
0.599137 0.735940 0.021955
0.696092 0.748541 0.018254
0.780921 0.763624 0.014020
0.841209 0.781859 0.009780
0.879538 0.794872 0.006977
0.914170 0.806201 0.004805
0.934898 0.813491 0.003564
0.945295 0.817156 0.003861
0.955250 0.820614 0.008085
0.964959 0.824019 0.014750
0.000000 0.698688 0.133588
0.007599 0.707757 0.133674
0.016760 0.718774 0.133586
0.094296 0.750603 0.133277
0.309451 0.747564 0.091787
0.464435 0.760020 0.057184
0.597252 0.776208 0.032026
0.697824 0.789624 0.021894
0.784169 0.804262 0.018146
0.848238 0.822977 0.014160
0.886924 0.836478 0.014087
0.920571 0.847549 0.018860
0.939820 0.854769 0.023900
0.949379 0.858390 0.030860
0.958927 0.861892 0.040241
0.968423 0.865388 0.050620
0.000000 0.733827 0.147020
0.007599 0.743619 0.147823
0.017003 0.754405 0.148421
0.091056 0.784512 0.153719
0.299768 0.782884 0.115238
0.461252 0.794071 0.079146
0.595282 0.810217 0.051924
0.697451 0.824405 0.039628
0.785115 0.839848 0.035407
0.852095 0.859218 0.037559
0.890990 0.874307 0.044959
0.924774 0.886490 0.053567
0.943692 0.894260 0.060205
0.953236 0.898526 0.067065
0.962792 0.902350 0.075352
0.972323 0.906110 0.083773
0.000000 0.768437 0.162654
0.009531 0.777264 0.165561
0.021382 0.786530 0.168610
0.089496 0.816042 0.177237
0.290115 0.815959 0.144717
0.458928 0.826860 0.110285
0.594093 0.842419 0.079202
0.697507 0.856014 0.064841
0.784754 0.871731 0.063754
0.855124 0.891284 0.069077
0.894809 0.907052 0.078933
0.928891 0.919398 0.088625
0.948433 0.927611 0.095222
0.958201 0.932410 0.100689
0.967971 0.936720 0.107239
0.977610 0.940839 0.113969
0.004431 0.800171 0.184548
0.014704 0.809256 0.188321
0.026486 0.818493 0.191923
0.088810 0.847171 0.203159
0.280638 0.848743 0.177249
0.456685 0.858448 0.147920
0.592001 0.873457 0.123153
0.696428 0.886538 0.104585
0.784381 0.901864 0.098801
0.858104 0.920338 0.100245
0.898340 0.936452 0.109408
0.932579 0.949138 0.119176
0.952794 0.955554 0.125417
0.962234 0.958252 0.130293
0.971897 0.960894 0.137188
0.981625 0.963411 0.144593
0.084743 0.068142 0.065261
0.112249 0.072396 0.070405
0.167541 0.080140 0.073963
0.234396 0.088065 0.075761
0.311683 0.094540 0.073731
0.404832 0.096031 0.065612
0.490800 0.093714 0.057007
0.572794 0.088591 0.049113
0.629699 0.087233 0.047413
0.670945 0.088098 0.047479
0.709972 0.089452 0.048213
0.744949 0.091235 0.049874
0.774948 0.094795 0.052730
0.803346 0.099370 0.056892
0.829801 0.103876 0.061461
0.854983 0.108519 0.066645
0.090403 0.094708 0.068045
0.113784 0.097541 0.070928
0.160905 0.104384 0.073271
0.223531 0.113074 0.074037
0.294259 0.121920 0.073511
0.388416 0.127733 0.066621
0.481031 0.130608 0.058396
0.569365 0.130644 0.050133
0.640860 0.132036 0.048423
0.687573 0.133853 0.048879
0.729169 0.136197 0.050015
0.765682 0.139399 0.052295
0.796100 0.143373 0.055375
0.824248 0.147657 0.058976
0.851577 0.152038 0.063842
0.876724 0.157341 0.068780
0.096328 0.139794 0.078867
0.121379 0.141245 0.081262
0.170741 0.146423 0.082812
0.235439 0.154764 0.082601
0.308282 0.164288 0.080600
0.402007 0.171466 0.072047
0.497052 0.176523 0.061857
0.584867 0.179449 0.052225
0.659552 0.184121 0.050167
0.709197 0.187742 0.050057
0.750810 0.191502 0.050877
0.787411 0.196056 0.053048
0.817718 0.200773 0.056040
0.845764 0.205616 0.059435
0.873257 0.210941 0.063918
0.899343 0.216913 0.068625
0.089901 0.201504 0.087525
0.119530 0.200639 0.090117
0.176366 0.204106 0.091030
0.247107 0.211190 0.089169
0.324235 0.220574 0.085158
0.419339 0.228524 0.074136
0.517256 0.235591 0.061211
0.604708 0.241125 0.050998
0.681605 0.248502 0.047801
0.733947 0.253575 0.047012
0.775579 0.258467 0.047653
0.812295 0.264144 0.049941
0.842783 0.269431 0.052712
0.870739 0.274773 0.056317
0.898135 0.280478 0.060554
0.924497 0.286423 0.065176
0.062460 0.282660 0.093492
0.097207 0.278686 0.095533
0.166869 0.279119 0.095737
0.251483 0.284306 0.091342
0.336658 0.293162 0.084153
0.435684 0.301872 0.069175
0.536773 0.310461 0.053004
0.623773 0.317546 0.043527
0.701682 0.326750 0.039964
0.756841 0.332501 0.038814
0.798455 0.337487 0.039099
0.836081 0.343106 0.040850
0.866985 0.348187 0.044066
0.894604 0.353162 0.048044
0.920609 0.358869 0.053142
0.943218 0.365674 0.059624
0.016868 0.361900 0.105055
0.061617 0.359644 0.103789
0.138510 0.357525 0.099859
0.244660 0.362037 0.091797
0.341443 0.371048 0.081002
0.446428 0.380521 0.062781
0.552067 0.390549 0.046255
0.637797 0.399700 0.040927
0.716355 0.410741 0.038918
0.774877 0.417878 0.037829
0.817543 0.423195 0.037254
0.857223 0.428648 0.036990
0.888783 0.433933 0.037997
0.911783 0.440205 0.044426
0.933569 0.446693 0.051628
0.948034 0.451682 0.057293
0.000983 0.420743 0.122069
0.021998 0.427036 0.123344
0.102250 0.430400 0.107696
0.229384 0.432336 0.094194
0.339270 0.441447 0.080037
0.450318 0.451672 0.059035
0.560367 0.462979 0.043222
0.647771 0.473033 0.039935
0.727880 0.485291 0.038386
0.789445 0.493707 0.037122
0.832548 0.499825 0.036294
0.868384 0.507647 0.035976
0.898168 0.514551 0.036553
0.921351 0.520561 0.042731
0.937590 0.525341 0.048979
0.949304 0.529269 0.054218
0.000000 0.478652 0.126493
0.012340 0.481897 0.129404
0.061064 0.499189 0.122758
0.204261 0.497196 0.100791
0.332702 0.505850 0.082365
0.450601 0.516824 0.058965
0.565997 0.529414 0.042777
0.656663 0.540024 0.039597
0.737874 0.552795 0.037873
0.802887 0.562475 0.036357
0.843390 0.571167 0.035441
0.877614 0.580140 0.035344
0.908023 0.587748 0.036141
0.928481 0.593141 0.042679
0.940486 0.596684 0.048206
0.951967 0.600266 0.053676
0.000000 0.532592 0.131416
0.007717 0.535665 0.133866
0.040228 0.552779 0.136486
0.165643 0.561354 0.112151
0.321838 0.566734 0.087697
0.448110 0.577638 0.062031
0.569596 0.590553 0.042983
0.663675 0.601455 0.039433
0.746192 0.615022 0.037605
0.813333 0.627163 0.035907
0.852496 0.637924 0.035138
0.886843 0.647625 0.035189
0.917071 0.656091 0.039167
0.932210 0.660400 0.045439
0.943498 0.663788 0.051110
0.953209 0.666978 0.056582
0.000000 0.578960 0.139188
0.007599 0.583682 0.141336
0.030706 0.598702 0.143969
0.126002 0.619551 0.129993
0.310074 0.620086 0.097318
0.444719 0.631525 0.069753
0.571707 0.646079 0.046934
0.670026 0.657297 0.039920
0.754182 0.670967 0.037973
0.824158 0.684987 0.036375
0.862788 0.696806 0.036209
0.895997 0.706774 0.041249
0.924025 0.715236 0.049171
0.936678 0.718978 0.054667
0.946459 0.722014 0.059839
0.955940 0.725118 0.066061
0.000000 0.623153 0.148401
0.007599 0.628425 0.150343
0.022058 0.639153 0.152117
0.100093 0.668060 0.148723
0.299395 0.664771 0.113272
0.440992 0.676075 0.084954
0.571801 0.691154 0.060107
0.674460 0.703737 0.043529
0.760375 0.718075 0.040144
0.832552 0.733851 0.040338
0.870259 0.746904 0.046949
0.903127 0.757725 0.055238
0.929879 0.766670 0.062657
0.941139 0.770616 0.068406
0.950754 0.773909 0.075048
0.960296 0.777244 0.082385
0.000000 0.664704 0.158793
0.007599 0.671956 0.161075
0.017144 0.681440 0.162753
0.082010 0.712765 0.167408
0.285290 0.708799 0.133178
0.436237 0.719208 0.104657
0.570867 0.733967 0.078499
0.676194 0.746414 0.058990
0.763294 0.760653 0.053178
0.836898 0.776878 0.055310
0.875636 0.790681 0.064058
0.908959 0.801872 0.073500
0.934958 0.811020 0.081798
0.945328 0.815244 0.087772
0.954981 0.818948 0.094578
0.964585 0.822656 0.101665
0.000000 0.701928 0.171425
0.007599 0.710963 0.173906
0.016307 0.721459 0.175737
0.074756 0.751375 0.184518
0.268229 0.750982 0.155905
0.431081 0.760828 0.128013
0.569302 0.775555 0.101920
0.676726 0.787901 0.083447
0.764972 0.802142 0.075119
0.840537 0.818730 0.074959
0.880670 0.833250 0.084538
0.914323 0.844573 0.094664
0.939398 0.853541 0.103073
0.949525 0.857881 0.108661
0.959185 0.861529 0.115100
0.968783 0.865173 0.121858
0.000000 0.737745 0.186101
0.007600 0.747448 0.188924
0.017206 0.757531 0.192143
0.073287 0.785559 0.204323
0.245800 0.790659 0.183603
0.427062 0.797429 0.155648
0.567737 0.812785 0.131212
0.676466 0.825823 0.113553
0.765811 0.840538 0.103998
0.843379 0.858062 0.099213
0.885309 0.873861 0.107417
0.919206 0.885667 0.117573
0.943620 0.894826 0.125768
0.953687 0.899609 0.131295
0.963397 0.903316 0.137632
0.973002 0.906951 0.144357
0.000431 0.773188 0.205317
0.010478 0.781600 0.210007
0.021810 0.790495 0.214580
0.073583 0.816991 0.226858
0.226904 0.827472 0.214367
0.423835 0.831979 0.184918
0.566797 0.846604 0.163953
0.676081 0.859223 0.148695
0.765918 0.873925 0.139973
0.845371 0.891388 0.133989
0.889711 0.908095 0.138929
0.923910 0.920342 0.149266
0.948441 0.929864 0.158775
0.958647 0.935240 0.166036
0.968362 0.939642 0.175050
0.978050 0.943863 0.184688
0.005485 0.805853 0.228742
0.015604 0.813969 0.233549
0.026784 0.822709 0.238207
0.075472 0.847312 0.250703
0.205299 0.864310 0.247601
0.422584 0.863626 0.215582
0.566495 0.877722 0.197322
0.675929 0.890257 0.184316
0.766446 0.904540 0.178389
0.847356 0.921128 0.177631
0.893651 0.937971 0.184797
0.927987 0.950837 0.195486
0.953009 0.958692 0.204034
0.963245 0.961350 0.209800
0.973049 0.963922 0.219058
0.982778 0.966497 0.228002
0.083919 0.072377 0.102826
0.110816 0.077251 0.114979
0.161061 0.084486 0.122991
0.221477 0.092084 0.129004
0.288539 0.099151 0.130367
0.372186 0.102357 0.126325
0.455752 0.101502 0.120478
0.538505 0.096875 0.114071
0.607524 0.092991 0.110669
0.654561 0.093415 0.110884
0.693854 0.094317 0.112028
0.731447 0.095321 0.113929
0.766881 0.096678 0.116638
0.796989 0.100353 0.121212
0.824237 0.104431 0.126431
0.849934 0.108833 0.132666
0.089649 0.095655 0.093601
0.112306 0.098921 0.099201
0.154533 0.105255 0.103649
0.212446 0.113380 0.107128
0.276308 0.121983 0.110092
0.356964 0.128922 0.109791
0.447381 0.132948 0.106505
0.533889 0.133810 0.102247
0.614725 0.133424 0.099906
0.669627 0.135101 0.102116
0.711877 0.136720 0.105111
0.751454 0.138412 0.108624
0.787176 0.141194 0.113316
0.816715 0.145149 0.119167
0.844656 0.149392 0.125545
0.870501 0.154540 0.132222
0.094857 0.136289 0.102500
0.118845 0.138657 0.107543
0.163357 0.144143 0.111314
0.224100 0.152139 0.113994
0.290333 0.161195 0.115794
0.371626 0.168846 0.113687
0.464303 0.174585 0.108610
0.550556 0.177580 0.103033
0.631964 0.180432 0.099600
0.690688 0.184436 0.101060
0.733518 0.187817 0.103903
0.773337 0.191396 0.107441
0.808597 0.195769 0.112478
0.837841 0.200670 0.118531
0.865568 0.205854 0.124920
0.892308 0.211331 0.131771
0.090420 0.192254 0.112217
0.118494 0.192574 0.117059
0.169183 0.196149 0.120411
0.235263 0.202915 0.122019
0.305366 0.212027 0.122564
0.388599 0.220109 0.118199
0.484050 0.227553 0.110665
0.570989 0.232286 0.103148
0.651936 0.237977 0.098690
0.714293 0.244003 0.098972
0.757837 0.248621 0.101343
0.797741 0.253810 0.104848
0.832759 0.259664 0.110034
0.861896 0.265325 0.116258
0.889665 0.271205 0.122754
0.916724 0.277319 0.129481
0.069964 0.268612 0.120351
0.101341 0.265656 0.125045
0.161315 0.266543 0.128207
0.240087 0.271586 0.128063
0.317733 0.280479 0.126629
0.405694 0.288975 0.119377
0.505210 0.298067 0.108695
0.593555 0.304306 0.098526
0.674301 0.312235 0.092626
0.739227 0.319615 0.091080
0.783249 0.324620 0.093287
0.822482 0.330222 0.097275
0.857215 0.336196 0.102846
0.886068 0.341577 0.109354
0.913393 0.347029 0.116303
0.939321 0.352958 0.123760
0.026006 0.350517 0.131925
0.071047 0.347043 0.134199
0.134389 0.345809 0.134634
0.231718 0.350139 0.132068
0.322024 0.358847 0.127732
0.416911 0.367482 0.117573
0.521384 0.377335 0.104135
0.612918 0.384516 0.091373
0.693853 0.393904 0.084513
0.762514 0.402568 0.083705
0.807333 0.407713 0.086300
0.846082 0.413523 0.091110
0.881098 0.419556 0.097176
0.908475 0.425232 0.104748
0.931301 0.432099 0.113885
0.950852 0.438792 0.122999
0.001571 0.414642 0.150978
0.023938 0.421336 0.153807
0.099481 0.420818 0.145150
0.212454 0.422946 0.138053
0.319654 0.431299 0.130793
0.422133 0.440523 0.117963
0.532114 0.451814 0.101620
0.627042 0.460607 0.086689
0.708955 0.471327 0.080401
0.780897 0.481366 0.079471
0.827066 0.486958 0.081940
0.864636 0.493392 0.087477
0.894912 0.501654 0.096045
0.918863 0.508591 0.105479
0.939871 0.514864 0.114741
0.952042 0.519264 0.122633
0.000000 0.474194 0.158668
0.011798 0.477434 0.163464
0.059059 0.492641 0.162330
0.180305 0.491352 0.147871
0.311510 0.498331 0.136537
0.422097 0.508062 0.121717
0.538101 0.520185 0.103201
0.636475 0.529747 0.086820
0.719511 0.541101 0.080840
0.794138 0.552081 0.079162
0.841320 0.558684 0.082274
0.873705 0.567544 0.090410
0.903493 0.576462 0.099515
0.927676 0.583322 0.109125
0.941969 0.587773 0.117481
0.953542 0.591700 0.125763
0.000000 0.531097 0.166473
0.007706 0.533250 0.170159
0.037934 0.548122 0.175742
0.138792 0.558081 0.163183
0.298576 0.560650 0.145490
0.418877 0.570567 0.129491
0.541360 0.583554 0.109125
0.643191 0.593981 0.091310
0.727686 0.606152 0.085227
0.805066 0.618196 0.083065
0.849547 0.627566 0.087992
0.881482 0.637419 0.097021
0.911934 0.646806 0.106789
0.932971 0.653174 0.116318
0.944633 0.656995 0.124298
0.954579 0.660482 0.132319
0.000000 0.579332 0.175520
0.007599 0.584078 0.179359
0.025912 0.596125 0.184092
0.097389 0.621396 0.183730
0.280079 0.618642 0.159265
0.412562 0.628605 0.142324
0.542177 0.642038 0.120804
0.647694 0.652875 0.101977
0.733950 0.665245 0.095354
0.813836 0.678070 0.093138
0.856678 0.689406 0.099691
0.889085 0.699595 0.109464
0.919922 0.709287 0.119832
0.936966 0.714840 0.128258
0.946999 0.718308 0.135819
0.956606 0.721675 0.143898
0.000000 0.624182 0.187264
0.007599 0.629596 0.191152
0.018210 0.638066 0.194795
0.076266 0.669800 0.203107
0.262307 0.666387 0.177824
0.407241 0.676217 0.160098
0.542675 0.690329 0.138809
0.650777 0.702246 0.120774
0.739002 0.715477 0.112768
0.819897 0.729832 0.110893
0.864110 0.742960 0.118260
0.897094 0.753677 0.128436
0.928223 0.763685 0.138934
0.941729 0.768678 0.146611
0.951371 0.772100 0.154447
0.960963 0.775473 0.162524
0.000000 0.667926 0.200574
0.007599 0.674641 0.204609
0.016238 0.682954 0.208182
0.066738 0.711697 0.219191
0.238026 0.713395 0.200510
0.401521 0.720612 0.180544
0.542166 0.734457 0.160586
0.652362 0.746418 0.144564
0.742186 0.759408 0.136664
0.824050 0.774092 0.134035
0.870210 0.788315 0.141281
0.903649 0.799686 0.151703
0.934163 0.810007 0.162383
0.946089 0.815110 0.169582
0.955745 0.818853 0.177391
0.965318 0.822604 0.186211
0.000000 0.706464 0.215666
0.007599 0.715434 0.220022
0.016102 0.725618 0.223946
0.062851 0.750939 0.236143
0.204613 0.761777 0.227799
0.394551 0.764114 0.203590
0.540893 0.777312 0.185002
0.653232 0.789191 0.170951
0.744504 0.801915 0.164336
0.827453 0.816464 0.161349
0.875498 0.831304 0.168367
0.909267 0.842842 0.178956
0.938927 0.852990 0.189645
0.950237 0.858114 0.197061
0.959888 0.861867 0.205966
0.969461 0.865575 0.215069
0.000000 0.743064 0.232417
0.007635 0.752717 0.236959
0.017835 0.761897 0.242113
0.061761 0.785113 0.254783
0.176949 0.805155 0.256133
0.389532 0.802756 0.227673
0.539959 0.816381 0.210225
0.653663 0.829036 0.198261
0.746199 0.842306 0.192950
0.830233 0.857313 0.191996
0.880378 0.872971 0.199343
0.914527 0.885046 0.210245
0.943367 0.895191 0.221099
0.954456 0.900387 0.228375
0.964161 0.904137 0.236904
0.973762 0.907786 0.245727
0.001121 0.778325 0.252294
0.011129 0.786666 0.257959
0.021899 0.795220 0.263278
0.061372 0.816195 0.275370
0.159674 0.841793 0.283355
0.386141 0.837945 0.253128
0.539860 0.850920 0.237113
0.653727 0.863411 0.227173
0.747238 0.877062 0.222988
0.832205 0.892807 0.224041
0.885015 0.909082 0.231829
0.919353 0.921757 0.242750
0.947873 0.932452 0.253470
0.958890 0.938373 0.260470
0.968547 0.942883 0.268762
0.978124 0.946881 0.277531
0.005851 0.810947 0.274651
0.015879 0.818782 0.280155
0.026503 0.827071 0.285461
0.062039 0.846143 0.297019
0.153019 0.873226 0.308906
0.384571 0.870225 0.281365
0.540650 0.882601 0.266048
0.654907 0.894961 0.256797
0.749053 0.908066 0.253529
0.833703 0.923684 0.255986
0.888941 0.939806 0.264718
0.923748 0.952943 0.276386
0.953119 0.961375 0.287440
0.964111 0.964169 0.293634
0.973911 0.966727 0.301140
0.983611 0.969233 0.309146
0.081317 0.076813 0.162628
0.109802 0.081554 0.179918
0.158125 0.088187 0.192788
0.214347 0.095327 0.203761
0.276058 0.102029 0.205624
0.351278 0.106472 0.204814
0.432439 0.106489 0.201106
0.512600 0.102875 0.196676
0.587122 0.097799 0.192845
0.641200 0.097209 0.192417
0.682133 0.097921 0.193551
0.719543 0.099060 0.196051
0.755968 0.099854 0.199098
0.790695 0.101569 0.203615
0.820207 0.104636 0.209071
0.846494 0.108575 0.215393
0.087623 0.098958 0.134842
0.110473 0.102652 0.145132
0.150850 0.108763 0.153106
0.205553 0.116421 0.160536
0.264606 0.124456 0.167563
0.335856 0.131864 0.173274
0.422518 0.136318 0.175233
0.505664 0.138106 0.176082
0.589775 0.136788 0.175990
0.653256 0.137160 0.179201
0.698220 0.138612 0.183660
0.737667 0.140162 0.188409
0.775419 0.141639 0.193401
0.810244 0.143790 0.199143
0.839063 0.147414 0.206213
0.865882 0.152057 0.214064
0.091794 0.137440 0.139832
0.115650 0.140329 0.149190
0.158087 0.145708 0.156509
0.215782 0.153281 0.163419
0.277456 0.161838 0.170074
0.349290 0.169982 0.175072
0.437983 0.175844 0.176489
0.521816 0.179570 0.177120
0.605867 0.180936 0.177169
0.673045 0.184033 0.180592
0.719123 0.187357 0.185235
0.759347 0.190604 0.190034
0.797407 0.194094 0.195374
0.831712 0.197904 0.201161
0.859746 0.202527 0.207804
0.887012 0.207580 0.215608
0.089852 0.188671 0.148931
0.115083 0.189499 0.157448
0.162331 0.193393 0.164489
0.225560 0.200035 0.170494
0.291045 0.208535 0.176088
0.364883 0.217098 0.179437
0.456003 0.224393 0.179210
0.540903 0.229730 0.178515
0.624482 0.233374 0.177967
0.694587 0.238974 0.181658
0.741455 0.243649 0.186458
0.782287 0.248159 0.191275
0.820754 0.253041 0.196645
0.854301 0.258623 0.202961
0.882456 0.264505 0.209870
0.909828 0.270574 0.217134
0.073867 0.260272 0.159333
0.103416 0.258172 0.167282
0.154217 0.259840 0.173869
0.229195 0.265769 0.178879
0.302335 0.274383 0.183066
0.381184 0.283439 0.184366
0.477189 0.292203 0.182062
0.564146 0.298799 0.179885
0.647651 0.304459 0.178279
0.719302 0.312145 0.181300
0.767693 0.317557 0.185997
0.808584 0.322442 0.190961
0.846707 0.327718 0.196247
0.879115 0.333498 0.202905
0.906641 0.339045 0.209861
0.933453 0.344753 0.217192
0.028882 0.343796 0.171708
0.074672 0.339779 0.178159
0.128742 0.339048 0.182523
0.216979 0.343464 0.186093
0.304604 0.351114 0.188446
0.390963 0.359657 0.187813
0.492453 0.369010 0.183216
0.582890 0.376440 0.179260
0.666780 0.383529 0.176675
0.740611 0.392617 0.178835
0.791048 0.398398 0.182988
0.832042 0.403311 0.188055
0.869653 0.409048 0.194212
0.901975 0.414797 0.201080
0.928430 0.420426 0.208634
0.951691 0.427067 0.217544
0.001641 0.411454 0.190588
0.023365 0.417823 0.197422
0.096006 0.416038 0.195713
0.190899 0.418426 0.195538
0.299074 0.425488 0.195418
0.394700 0.434728 0.192925
0.502738 0.445346 0.186262
0.598040 0.454098 0.180504
0.683066 0.462533 0.177140
0.759132 0.472828 0.178426
0.812081 0.479211 0.181939
0.853339 0.484262 0.187069
0.889881 0.490618 0.194300
0.918078 0.498074 0.203508
0.940531 0.504841 0.213313
0.955705 0.510116 0.221923
0.000000 0.472838 0.201318
0.010721 0.475815 0.208768
0.053441 0.489821 0.215586
0.153609 0.489492 0.209240
0.286810 0.493999 0.204436
0.392600 0.503466 0.200096
0.507752 0.514737 0.191292
0.607352 0.524082 0.184238
