example_ofxGpuLutCube/bin/data/ofxGpuLutCube/LUT/V7 (peach vintage_1).cube
LUT_3D_SIZE 6
0.084808 0.066132 0.045624
0.265784 0.088001 0.045086
0.549200 0.089783 0.022315
0.687695 0.089789 0.018994
0.786133 0.097730 0.017127
0.863237 0.111510 0.023270
0.078644 0.232434 0.071179
0.271161 0.236485 0.063412
0.564010 0.260321 0.025659
0.750573 0.280203 0.020260
0.852422 0.291857 0.017433
0.934008 0.304064 0.017213
0.000000 0.434546 0.099311
0.246802 0.451096 0.057101
0.587883 0.483401 0.023323
0.795205 0.516039 0.013882
0.887349 0.537019 0.008474
0.934384 0.546977 0.008293
0.000000 0.581549 0.107336
0.164161 0.619470 0.076596
0.597966 0.649999 0.018511
0.824009 0.695209 0.005067
0.916787 0.722523 0.000176
0.950528 0.731785 0.002759
0.000000 0.698688 0.133588
0.094296 0.750603 0.133277
0.597252 0.776208 0.032026
0.848238 0.822977 0.014160
0.939820 0.854769 0.023900
0.968423 0.865388 0.050620
0.004431 0.800171 0.184548
0.088810 0.847171 0.203159
0.592001 0.873457 0.123153
0.858104 0.920338 0.100245
0.952794 0.955554 0.125417
0.981625 0.963411 0.144593
0.081317 0.076813 0.162628
0.214347 0.095327 0.203761
0.432439 0.106489 0.201106
0.641200 0.097209 0.192417
0.755968 0.099854 0.199098
0.846494 0.108575 0.215393
0.089852 0.188671 0.148931
0.225560 0.200035 0.170494
0.456003 0.224393 0.179210
0.694587 0.238974 0.181658
0.820754 0.253041 0.196645
0.909828 0.270574 0.217134
0.001641 0.411454 0.190588
0.190899 0.418426 0.195538
0.502738 0.445346 0.186262
0.759132 0.472828 0.178426
0.889881 0.490618 0.194300
0.955705 0.510116 0.221923
0.000000 0.581689 0.224894
0.074484 0.623254 0.248774
0.510402 0.639896 0.211482
0.791235 0.673851 0.198041
0.914001 0.702826 0.222251
0.957780 0.717687 0.251114
0.000000 0.712640 0.269236
0.049265 0.748577 0.292298
0.509189 0.779803 0.267054
0.807531 0.816886 0.258246
0.935469 0.852266 0.287403
0.969921 0.866250 0.311239
0.006018 0.816956 0.326601
0.042335 0.843761 0.346459
0.512763 0.887802 0.334034
0.816985 0.927005 0.329186
0.951871 0.963199 0.360340
0.984265 0.971440 0.380730
0.084436 0.072333 0.378039
0.216499 0.084989 0.419034
0.399000 0.095332 0.435557
0.604514 0.092952 0.443112
0.731093 0.094090 0.451022
0.831130 0.099389 0.465161
0.084377 0.186108 0.328213
0.212628 0.198597 0.365774
0.410100 0.220119 0.403324
0.646250 0.229945 0.427876
0.788229 0.239804 0.451767
0.890079 0.251393 0.474044
0.000285 0.407930 0.374741
0.146642 0.413083 0.405019
0.437994 0.432660 0.432277
0.701425 0.451677 0.448234
0.854145 0.469346 0.471693
0.954999 0.484077 0.493639
0.000000 0.588370 0.413916
0.051241 0.617040 0.450634
0.425542 0.637276 0.462499
0.729555 0.662301 0.469838
0.896235 0.684663 0.492868
0.964016 0.703723 0.519651
0.000000 0.729232 0.456150
0.029101 0.751467 0.480842
0.408160 0.790476 0.501517
0.747065 0.818081 0.502967
0.919425 0.846546 0.528024
0.973327 0.866024 0.553667
0.007155 0.836758 0.500593
0.037130 0.858908 0.522437
0.409613 0.906415 0.545071
0.762588 0.935347 0.543855
0.937132 0.967052 0.569906
0.987054 0.978779 0.593161
0.129315 0.058069 0.529877
0.239063 0.069274 0.554705
0.399602 0.077819 0.578735
0.588717 0.080090 0.596337
0.719445 0.080930 0.608267
0.818657 0.085893 0.622771
0.096792 0.177010 0.490372
0.231746 0.189662 0.529579
0.406314 0.206447 0.569780
0.619755 0.213398 0.600200
0.769375 0.219453 0.623887
0.872505 0.230171 0.645064
0.002271 0.397407 0.545580
0.166465 0.397475 0.574014
0.423830 0.415221 0.609370
0.667614 0.430995 0.633128
0.830373 0.446001 0.656140
0.935967 0.459951 0.675737
0.000000 0.588686 0.584008
0.052429 0.613488 0.621200
0.391669 0.630518 0.644153
0.690488 0.650341 0.657991
0.869398 0.670405 0.680048
0.971431 0.684704 0.699588
0.000000 0.739783 0.622292
0.028595 0.757368 0.644808
0.341908 0.797700 0.680133
0.703164 0.816834 0.683022
0.895775 0.842028 0.704688
0.979045 0.859982 0.725904
0.010671 0.852621 0.657828
0.040599 0.872316 0.678445
0.312355 0.927081 0.720079
0.719700 0.940395 0.710984
0.917772 0.967831 0.732314
0.992697 0.982073 0.752551
0.172266 0.048389 0.626733
0.272822 0.057517 0.650020
0.416262 0.065787 0.674424
0.587923 0.067840 0.695587
0.714800 0.067369 0.710154
0.810667 0.071343 0.725035
0.151391 0.165900 0.614053
0.263783 0.177444 0.645722
0.421787 0.190386 0.682122
0.615200 0.194551 0.713911
0.759897 0.197831 0.737650
0.859278 0.207619 0.757614
0.069305 0.372451 0.666252
0.223442 0.379594 0.693269
0.441033 0.396523 0.729421
0.659302 0.410136 0.757692
0.818984 0.423247 0.780990
0.920642 0.436543 0.799490
0.000000 0.585917 0.714131
0.075351 0.611294 0.750226
0.407734 0.618071 0.767219
0.676048 0.634928 0.787648
0.854664 0.652983 0.810379
0.961890 0.665638 0.828807
0.003110 0.744839 0.748670
0.033009 0.760224 0.768548
0.346774 0.795099 0.803526
0.682820 0.811438 0.813823
0.878186 0.833298 0.835289
0.984439 0.847595 0.853600
0.015461 0.863628 0.780480
0.045351 0.881384 0.799691
0.299566 0.932122 0.844223
0.696249 0.938512 0.839629
0.899362 0.963069 0.860757
0.998715 0.979362 0.879444
0.211885 0.040901 0.699031
0.309539 0.048647 0.719494
0.439981 0.054096 0.740719
0.592613 0.054913 0.761978
0.713627 0.052552 0.778561
0.806952 0.054621 0.794452
0.204487 0.157074 0.703957
0.302689 0.167063 0.729580
0.444758 0.176540 0.759595
0.621606 0.177837 0.787095
0.755920 0.180085 0.808594
0.852054 0.189668 0.828006
0.142784 0.353047 0.756124
0.288902 0.366032 0.784072
0.470596 0.380879 0.813522
0.665942 0.392897 0.837272
0.815098 0.404717 0.857884
0.912661 0.417499 0.875266
0.006736 0.579332 0.813231
0.137848 0.595200 0.837584
0.448057 0.604801 0.856368
0.681795 0.620107 0.874100
0.849787 0.636485 0.893280
0.952853 0.648468 0.909035
0.007384 0.746048 0.849483
0.042900 0.761265 0.867836
0.400993 0.785911 0.892211
0.686160 0.801691 0.902846
0.871826 0.821757 0.921233
0.980789 0.834345 0.936422
0.019598 0.870478 0.881810
0.048876 0.884807 0.897315
0.370664 0.920286 0.925909
0.696297 0.933992 0.928890
0.891565 0.956792 0.946751
0.999837 0.972842 0.963720
