example_ofxGpuLutCube/bin/data/ofxGpuLutCube/LUT/V8 (milk fade).cube
LUT_3D_SIZE 16
0.160784 0.145098 0.133333
0.155294 0.151373 0.143529
0.169412 0.150589 0.139608
0.203921 0.153725 0.149020
0.255686 0.150588 0.141176
0.345098 0.156863 0.141176
0.429804 0.167843 0.127059
0.526274 0.170196 0.120785
0.623529 0.182745 0.114509
0.705098 0.195294 0.102745
0.788235 0.211765 0.082353
0.861176 0.221177 0.081569
0.916078 0.232942 0.067451
0.963137 0.248627 0.076862
0.997647 0.267451 0.089412
0.988353 0.290039 0.109647
0.163921 0.155294 0.149020
0.157177 0.152627 0.146667
0.173804 0.156235 0.144314
0.207059 0.160000 0.150588
0.263843 0.165020 0.139451
0.342745 0.171765 0.141176
0.438588 0.177569 0.128784
0.528784 0.189020 0.123137
0.614745 0.201568 0.115608
0.703059 0.210824 0.103059
0.784314 0.221961 0.088628
0.853333 0.232000 0.077647
0.916235 0.247529 0.072941
0.968941 0.261961 0.078588
0.997177 0.278431 0.095216
0.995341 0.294808 0.123710
0.160784 0.163922 0.146667
0.159373 0.158902 0.155608
0.164392 0.165647 0.139922
0.207686 0.175059 0.141804
0.271843 0.184627 0.141176
0.353725 0.191372 0.134117
0.443137 0.201569 0.128627
0.532236 0.213333 0.117019
0.620079 0.223373 0.105726
0.708863 0.236706 0.097412
0.785883 0.246274 0.090980
0.849725 0.257412 0.077020
0.907294 0.267137 0.079216
0.963137 0.280941 0.086745
0.997647 0.298196 0.104157
0.990682 0.315184 0.125380
0.151373 0.182745 0.152941
0.165647 0.178980 0.156863
0.180706 0.182588 0.156235
0.203921 0.194510 0.148079
0.276235 0.213490 0.142431
0.366274 0.229020 0.137255
0.451294 0.242353 0.131137
0.542274 0.254746 0.122667
0.632628 0.264784 0.108863
0.715137 0.276863 0.101804
0.789019 0.287059 0.094118
0.856000 0.291294 0.085804
0.916078 0.304784 0.086118
0.974432 0.316079 0.101176
0.999529 0.326431 0.116079
1.000000 0.343420 0.140972
0.142745 0.221961 0.151372
0.160157 0.225725 0.162667
0.187451 0.220706 0.157490
0.216941 0.225725 0.171294
0.268235 0.247059 0.167216
0.354510 0.267451 0.148235
0.454745 0.292706 0.126902
0.554823 0.309490 0.124549
0.637020 0.315765 0.107608
0.719372 0.325490 0.099921
0.793725 0.333333 0.098824
0.858824 0.339451 0.100549
0.914666 0.347451 0.104314
0.967372 0.358745 0.114980
0.997961 0.367216 0.134745
0.999984 0.381898 0.177733
0.121569 0.290196 0.180392
0.154510 0.281569 0.179608
0.200784 0.281569 0.191373
0.238431 0.281569 0.188235
0.288628 0.296470 0.193725
0.345098 0.321569 0.196078
0.443922 0.342745 0.174902
0.549804 0.362353 0.144314
0.640784 0.378039 0.116078
0.720785 0.386667 0.116078
0.796078 0.388235 0.109804
0.854902 0.392941 0.116078
0.916078 0.396078 0.122353
0.972549 0.402353 0.138039
1.000000 0.409412 0.157647
1.000000 0.419530 0.203530
0.118431 0.363922 0.206274
0.154980 0.359059 0.210667
0.211608 0.356392 0.218667
0.263686 0.348235 0.230588
0.314510 0.358274 0.235765
0.364706 0.381176 0.228236
0.435922 0.402667 0.232000
0.527843 0.426667 0.218196
0.628235 0.447373 0.188706
0.719372 0.454902 0.158274
0.790588 0.454118 0.140392
0.854274 0.453333 0.145569
0.914353 0.453647 0.161412
0.962667 0.456785 0.182118
0.999059 0.465569 0.208471
0.999976 0.469027 0.236682
0.137255 0.437647 0.252549
0.164392 0.435765 0.247843
0.217255 0.434039 0.260078
0.285647 0.425255 0.263216
0.337412 0.421647 0.280627
0.385098 0.433726 0.292549
0.442981 0.456157 0.279843
0.518117 0.482353 0.289098
0.610353 0.501176 0.274040
0.704000 0.515294 0.244549
0.789804 0.523137 0.219608
0.853961 0.520000 0.198275
0.910275 0.517490 0.191530
0.961725 0.519372 0.221647
0.991215 0.520000 0.254118
0.999969 0.537835 0.279859
0.165490 0.503529 0.277647
0.203922 0.504157 0.296784
0.248628 0.499294 0.309020
0.309491 0.495530 0.312157
0.360627 0.490667 0.325804
0.410196 0.493334 0.333333
0.467451 0.509490 0.337568
0.523137 0.528784 0.333020
0.587765 0.552627 0.343059
0.678274 0.576157 0.341804
0.761569 0.592157 0.316863
0.835765 0.589647 0.291764
0.900235 0.583373 0.273726
0.951686 0.582745 0.278745
0.990588 0.576471 0.291137
0.996894 0.584988 0.326761
0.218040 0.577255 0.339608
0.241726 0.578824 0.346667
0.291294 0.575843 0.355921
0.335843 0.570823 0.365333
0.386823 0.565961 0.369882
0.445490 0.556079 0.386667
0.490510 0.564235 0.389334
0.541490 0.583530 0.399529
0.601098 0.606745 0.398902
0.673098 0.624000 0.406431
0.747451 0.643922 0.416470
0.811294 0.652863 0.389490
0.879686 0.649412 0.369726
0.934275 0.646275 0.360941
0.981804 0.640314 0.359686
0.993733 0.642361 0.374016
0.270588 0.639216 0.403922
0.299608 0.648628 0.407059
0.325490 0.640785 0.408627
0.369412 0.643921 0.418039
0.429020 0.635294 0.429020
0.478431 0.635294 0.439216
0.523137 0.630588 0.443922
0.574902 0.634510 0.455686
0.621961 0.662745 0.461961
0.670588 0.675294 0.475294
0.733333 0.686275 0.482353
0.793725 0.703530 0.488628
0.858823 0.714509 0.484706
0.915294 0.711373 0.462745
0.959216 0.708235 0.462745
0.995921 0.705882 0.458863
0.350588 0.709804 0.469020
0.371921 0.711059 0.467451
0.394824 0.708549 0.474353
0.426824 0.702902 0.473098
0.472157 0.701647 0.480628
0.513726 0.692549 0.491764
0.565804 0.690510 0.510431
0.599373 0.692079 0.514039
0.647686 0.704627 0.524706
0.693176 0.720941 0.531922
0.736470 0.736471 0.540392
0.788863 0.748235 0.559059
0.833255 0.758431 0.566588
0.880314 0.765333 0.565961
0.935843 0.762980 0.562510
0.972314 0.771686 0.568510
0.446275 0.767059 0.538824
0.456784 0.763451 0.539765
0.475451 0.760784 0.542588
0.498667 0.760784 0.550117
0.533019 0.760784 0.557647
0.571765 0.756079 0.556863
0.607216 0.751216 0.572235
0.641726 0.745568 0.574431
0.679372 0.749961 0.588863
0.708706 0.763294 0.598118
0.745882 0.777255 0.599215
0.787294 0.787138 0.610353
0.831215 0.799686 0.632314
0.865725 0.801568 0.637333
0.912157 0.813020 0.651451
0.947239 0.815632 0.659569
0.546667 0.810980 0.617255
0.559686 0.808000 0.618824
0.572078 0.815372 0.622902
0.582745 0.812863 0.620392
0.610824 0.807216 0.630431
0.634510 0.806275 0.629020
0.669334 0.804549 0.646275
0.696941 0.797647 0.649726
0.719530 0.802039 0.659137
0.748863 0.805334 0.669020
0.780392 0.818039 0.677647
0.806118 0.827922 0.681883
0.840000 0.836079 0.697568
0.874510 0.845490 0.702588
0.907137 0.845020 0.714196
0.934690 0.847066 0.725420
0.644706 0.850980 0.696471
0.645020 0.853804 0.696000
0.655059 0.854745 0.694745
0.665098 0.850353 0.699137
0.682824 0.851608 0.698510
0.699608 0.852549 0.701961
0.722823 0.849569 0.709490
0.745412 0.843765 0.720627
0.774274 0.838745 0.724392
0.787608 0.841883 0.730667
0.811765 0.848628 0.733333
0.833412 0.861176 0.747451
0.854431 0.865569 0.757019
0.884549 0.871843 0.759530
0.901333 0.882353 0.768157
0.925286 0.888588 0.781780
0.732823 0.889921 0.752588
0.741326 0.890745 0.758094
0.735200 0.893122 0.765804
0.750792 0.889953 0.768973
0.755647 0.889961 0.770533
0.772078 0.886079 0.764314
0.783153 0.889921 0.779208
0.801200 0.889106 0.780016
0.820086 0.885969 0.783216
0.834220 0.886000 0.792549
0.858471 0.889921 0.807333
0.872729 0.892377 0.805945
0.885279 0.898627 0.823090
0.897890 0.908008 0.823058
0.918321 0.912729 0.830157
0.933175 0.913607 0.838744
0.161569 0.152941 0.149804
0.162039 0.152000 0.151216
0.173333 0.151530 0.153255
0.202823 0.148392 0.146980
0.260078 0.144941 0.140392
0.345882 0.148235 0.141176
0.434510 0.151216 0.141490
0.523921 0.158902 0.135686
0.619922 0.175216 0.121882
0.708863 0.185882 0.117804
0.786667 0.199216 0.105882
0.855843 0.211137 0.102118
0.916862 0.231059 0.099765
0.974588 0.245490 0.103530
1.000000 0.264000 0.115137
1.000000 0.288447 0.138643
0.154353 0.153412 0.145569
0.158871 0.153788 0.146604
0.171984 0.157208 0.145725
0.210384 0.155828 0.146604
0.263184 0.162761 0.145663
0.347765 0.163765 0.144627
0.436047 0.168784 0.138823
0.528565 0.176533 0.132612
0.617412 0.192722 0.127090
0.701584 0.200722 0.119090
0.784941 0.214902 0.108392
0.855059 0.229020 0.103121
0.916863 0.243514 0.103592
0.966306 0.259451 0.106227
0.998525 0.275514 0.121349
0.996577 0.297100 0.139961
0.153569 0.160157 0.147608
0.159780 0.163388 0.150086
0.172674 0.165804 0.151718
0.213082 0.169694 0.149710
0.272690 0.179263 0.150400
0.348079 0.187137 0.144784
0.440816 0.195388 0.135027
0.533741 0.207812 0.128659
0.616816 0.217851 0.124015
0.704220 0.229082 0.117082
0.784471 0.240941 0.108863
0.852737 0.251953 0.102212
0.912910 0.266730 0.102557
0.967624 0.280032 0.110212
0.997145 0.293616 0.125772
0.999498 0.315004 0.153043
0.145412 0.189647 0.160784
0.163043 0.185725 0.160000
0.180204 0.184251 0.163012
0.208063 0.194667 0.155984
0.275702 0.210761 0.155043
0.365647 0.226039 0.142902
0.445961 0.237051 0.139043
0.539137 0.251357 0.131922
0.632251 0.259890 0.126777
0.713757 0.271372 0.124235
0.786353 0.282980 0.112000
0.854369 0.292235 0.109365
0.914165 0.302870 0.115859
0.966369 0.312659 0.125019
0.997898 0.327624 0.138698
0.999517 0.343290 0.166213
0.139764 0.228549 0.175373
0.154447 0.233004 0.172141
0.188831 0.227451 0.178071
0.220706 0.232471 0.179451
0.273788 0.246965 0.177725
0.357019 0.273255 0.164235
0.458698 0.294494 0.144314
0.549302 0.305443 0.134745
0.633129 0.314102 0.128596
0.716329 0.322855 0.125929
0.793255 0.330353 0.125647
0.855780 0.340486 0.121569
0.914353 0.345631 0.128000
0.968816 0.356047 0.143561
0.998306 0.366808 0.166965
0.999972 0.382770 0.187939
0.127059 0.291765 0.202353
0.151216 0.291765 0.190589
0.192000 0.290824 0.201726
0.237804 0.286431 0.200471
0.288628 0.296314 0.206275
0.352157 0.319216 0.205490
0.444079 0.350431 0.187137
0.551372 0.367372 0.162039
0.639843 0.377412 0.140706
0.714196 0.380392 0.137412
0.787451 0.385882 0.130196
0.849412 0.394510 0.144157
0.905412 0.401883 0.150431
0.958118 0.406274 0.157333
0.996235 0.411608 0.186039
0.993788 0.423466 0.204674
0.136157 0.366431 0.232941
0.150369 0.365961 0.220455
0.202353 0.360628 0.224094
0.260831 0.354729 0.237020
0.309804 0.360471 0.240251
0.367059 0.380235 0.245020
0.437082 0.400659 0.240377
0.527529 0.428110 0.232533
0.628173 0.443420 0.204800
0.717302 0.451545 0.175718
0.792627 0.452549 0.165804
0.852329 0.455216 0.170980
0.910024 0.453396 0.178636
0.957961 0.458416 0.195953
0.997082 0.465537 0.219357
0.999379 0.473368 0.247014
0.144471 0.441412 0.271373
0.164329 0.438275 0.262714
0.215561 0.434573 0.266353
0.274541 0.433694 0.270620
0.334306 0.426667 0.284016
0.389333 0.433255 0.294275
0.443765 0.455341 0.293396
0.514667 0.478839 0.298729
0.609788 0.503561 0.284549
0.704628 0.516894 0.255780
0.784471 0.525490 0.234824
0.849757 0.521537 0.219106
0.909490 0.517898 0.216784
0.954416 0.522165 0.234980
0.989553 0.526463 0.263592
0.999026 0.527042 0.287268
0.170823 0.511059 0.300235
0.195451 0.507168 0.307137
0.242918 0.503718 0.309898
0.299890 0.504345 0.316173
0.360533 0.493678 0.328565
0.410667 0.489098 0.337568
0.461333 0.507420 0.346855
0.523702 0.529788 0.346541
0.597239 0.555513 0.350431
0.676769 0.573239 0.341239
0.759373 0.587608 0.320157
0.839592 0.585914 0.296157
0.900957 0.582149 0.281036
0.948894 0.581396 0.292204
0.987670 0.579043 0.303749
0.999045 0.582257 0.335481
0.217569 0.580079 0.356549
0.237114 0.579294 0.353192
0.277804 0.576565 0.355451
0.330008 0.571671 0.367624
0.386886 0.564423 0.378573
0.441882 0.560000 0.392000
0.488251 0.564047 0.390777
0.542243 0.581270 0.399969
0.600471 0.604110 0.404988
0.667169 0.626259 0.409945
0.740078 0.640157 0.417255
0.813678 0.649318 0.395828
0.880972 0.650761 0.378886
0.930666 0.646243 0.364455
0.979827 0.640784 0.370353
0.996966 0.641716 0.384066
0.274510 0.650980 0.411765
0.296784 0.648471 0.408628
0.321412 0.646432 0.415529
0.367843 0.642039 0.421177
0.422275 0.637647 0.428392
0.476863 0.631373 0.439216
0.527529 0.629020 0.449569
0.573176 0.638118 0.462275
0.617098 0.660078 0.466667
0.673255 0.674510 0.474039
0.734118 0.691765 0.483137
0.790274 0.707608 0.491765
0.858039 0.713254 0.488157
0.914510 0.710118 0.468706
0.956706 0.708863 0.464157
0.999741 0.705898 0.469710
0.357961 0.708078 0.470431
0.367874 0.709992 0.477365
0.388737 0.707388 0.473569
0.424753 0.706133 0.482227
0.469929 0.702431 0.485961
0.520941 0.695686 0.495373
0.562416 0.690322 0.510149
0.602071 0.689757 0.517239
0.641223 0.703686 0.524015
0.686588 0.716612 0.536627
0.734588 0.733647 0.543686
0.788078 0.747608 0.554635
0.831467 0.758212 0.566808
0.881913 0.760470 0.566180
0.936000 0.766525 0.558714
0.975901 0.767208 0.564822
0.447843 0.760941 0.546039
0.458792 0.761851 0.542870
0.473004 0.763984 0.549804
0.502368 0.760470 0.549803
0.531702 0.758369 0.554855
0.569882 0.748862 0.559059
0.610792 0.744972 0.569004
0.647812 0.743310 0.585129
0.678557 0.746070 0.591655
0.708832 0.762729 0.601223
0.746666 0.772392 0.611294
0.791717 0.784753 0.621647
0.834102 0.796517 0.630274
0.864722 0.804800 0.642322
0.907483 0.810479 0.646839
0.950969 0.815655 0.651573
0.553882 0.807373 0.618824
0.555796 0.812298 0.617286
0.569883 0.812549 0.626604
0.587702 0.810541 0.620580
0.605741 0.808314 0.627514
0.638274 0.805334 0.635608
0.664126 0.802824 0.642667
0.698510 0.798275 0.649130
0.721223 0.796518 0.655655
0.750243 0.804141 0.669741
0.783059 0.811294 0.675922
0.810792 0.822149 0.685898
0.837114 0.832282 0.697286
0.867231 0.841067 0.699796
0.901961 0.849506 0.716863
0.925363 0.853911 0.727507
0.641255 0.851608 0.687529
0.645710 0.852423 0.689286
0.652267 0.850886 0.694024
0.665067 0.850384 0.695655
0.680251 0.851043 0.699263
0.701804 0.850824 0.703843
0.719498 0.848879 0.710243
0.742086 0.846494 0.714855
0.768314 0.842353 0.727655
0.790337 0.844141 0.730071
0.810980 0.852549 0.737725
0.832722 0.859169 0.747639
0.855968 0.864282 0.751875
0.880690 0.871937 0.760282
0.905757 0.878431 0.772800
0.918820 0.883424 0.781445
0.730478 0.883773 0.761882
0.735394 0.893845 0.756764
0.728478 0.895239 0.760329
0.744083 0.891500 0.761659
0.755286 0.889340 0.762754
0.765074 0.891530 0.769749
0.777988 0.889928 0.780888
0.796533 0.889285 0.779349
0.822177 0.888061 0.790040
0.836723 0.886621 0.789605
0.854604 0.893820 0.799584
0.865814 0.895324 0.807804
0.885701 0.899229 0.812825
0.906450 0.904869 0.821553
0.917729 0.911161 0.828635
0.930039 0.913568 0.836401
0.152157 0.152941 0.154510
0.157177 0.153726 0.151373
0.167529 0.150432 0.149176
0.201412 0.149804 0.161098
0.269961 0.140549 0.165333
0.341960 0.134902 0.156078
0.434196 0.139137 0.157490
0.526274 0.141490 0.145569
0.619138 0.150274 0.138667
0.704941 0.166275 0.143843
0.781176 0.183530 0.133334
0.855686 0.204706 0.136628
0.913568 0.223843 0.136471
0.972549 0.240784 0.143373
0.998117 0.264785 0.153725
0.996894 0.290808 0.167749
0.158745 0.152471 0.157177
0.160063 0.153820 0.158118
0.171545 0.158086 0.157396
0.204298 0.151059 0.161663
0.268361 0.150306 0.158902
0.343058 0.152627 0.158118
0.438086 0.154573 0.158243
0.529694 0.161443 0.149804
0.618165 0.172863 0.145663
0.704596 0.187482 0.143247
0.784628 0.202039 0.137412
0.849067 0.220988 0.132204
0.913192 0.238777 0.141396
0.969663 0.254212 0.143278
0.999718 0.276455 0.158808
0.998292 0.301773 0.179006
0.158274 0.160314 0.163294
0.153945 0.165804 0.158651
0.173396 0.167247 0.162039
0.207404 0.171137 0.159278
0.269804 0.175874 0.162479
0.349804 0.181490 0.161726
0.442761 0.184282 0.156298
0.537475 0.193945 0.153537
0.621051 0.202729 0.142996
0.702996 0.216063 0.141521
0.777883 0.230745 0.136314
0.848816 0.248063 0.140486
0.909679 0.260769 0.137255
0.964643 0.279215 0.144533
0.999372 0.293772 0.163733
0.994874 0.316906 0.184604
0.145725 0.188549 0.177098
0.153443 0.194667 0.176722
0.180800 0.188204 0.176094
0.210792 0.195106 0.174337
0.279592 0.210510 0.167498
0.357961 0.219765 0.160471
0.448157 0.231341 0.160690
0.540612 0.240000 0.155294
0.633224 0.248785 0.152282
0.712408 0.264376 0.145788
0.784157 0.274039 0.143843
0.854212 0.286337 0.145506
0.908549 0.298416 0.147796
0.968533 0.310337 0.158588
0.998996 0.329412 0.176031
0.999222 0.348310 0.202154
0.135216 0.241255 0.194823
0.148235 0.239623 0.192188
0.181334 0.238745 0.190463
0.222243 0.238118 0.194102
0.274855 0.255969 0.191718
0.361412 0.274353 0.181804
0.461616 0.290824 0.167090
0.549616 0.300392 0.164768
0.631435 0.308549 0.158996
0.712753 0.319718 0.150996
0.786510 0.326274 0.154039
0.852674 0.333773 0.160063
0.914667 0.342745 0.167373
0.965113 0.357177 0.174024
0.996612 0.367781 0.197459
0.997341 0.383074 0.220677
0.124706 0.302745 0.218824
0.149020 0.301490 0.219608
0.183687 0.301020 0.212863
0.240784 0.295373 0.217882
0.290353 0.301176 0.222117
0.349804 0.323138 0.224314
0.445490 0.351372 0.208941
0.547921 0.363607 0.187294
0.635765 0.371765 0.174745
0.714510 0.377098 0.172706
0.787451 0.381176 0.170980
0.845020 0.390118 0.172079
0.907765 0.396078 0.181020
0.961098 0.402981 0.201098
0.992627 0.415059 0.209569
0.996862 0.432024 0.240533
0.125961 0.375843 0.251138
0.153318 0.376910 0.251922
0.190525 0.374714 0.244361
0.253647 0.366431 0.251890
0.311592 0.366902 0.263247
0.365020 0.384627 0.261490
0.438463 0.405459 0.263498
0.533898 0.432596 0.249788
0.625757 0.446024 0.228455
0.714949 0.450886 0.208690
0.788706 0.449412 0.196392
0.849443 0.453961 0.199780
0.905914 0.459137 0.211796
0.956737 0.459137 0.225851
0.995388 0.465537 0.246117
1.000000 0.480530 0.272165
0.154823 0.444863 0.294118
0.174463 0.446557 0.291106
0.202949 0.444612 0.281631
0.274478 0.440094 0.295561
0.339043 0.434290 0.300925
0.392157 0.438746 0.312313
0.443514 0.458573 0.314980
0.522572 0.485333 0.319498
0.609537 0.506918 0.306572
0.699859 0.520000 0.280282
0.783843 0.525020 0.258981
0.849475 0.521286 0.243075
0.909678 0.518933 0.248502
0.957490 0.521066 0.265569
0.989271 0.526086 0.286181
0.999948 0.533912 0.308575
0.197491 0.510117 0.329883
0.207843 0.515451 0.324486
0.234071 0.509364 0.329067
0.295561 0.509364 0.328941
0.357365 0.499545 0.343592
0.409098 0.498980 0.350588
0.464470 0.508643 0.356141
0.522949 0.534400 0.357271
0.594353 0.556486 0.358400
0.678651 0.576596 0.359592
0.762510 0.590275 0.339922
0.833035 0.587921 0.315482
0.895498 0.586196 0.304596
0.946824 0.577788 0.305098
0.987514 0.580674 0.327467
0.997513 0.587220 0.358690
0.245177 0.583059 0.384000
0.247404 0.583686 0.380706
0.267671 0.581961 0.368063
0.324141 0.575435 0.376345
0.384941 0.570730 0.385883
0.446431 0.563137 0.393882
0.497161 0.565333 0.406306
0.543435 0.583090 0.413176
0.600784 0.607059 0.415938
0.669929 0.626635 0.421741
0.740706 0.641255 0.427608
0.811169 0.650071 0.406337
0.878619 0.651263 0.394196
0.931827 0.647749 0.380267
0.975686 0.641882 0.383121
0.998049 0.644353 0.398660
0.298039 0.653333 0.432157
0.307921 0.651608 0.432784
0.325647 0.650509 0.427608
0.368314 0.648000 0.432000
0.425412 0.643451 0.438275
0.481569 0.640000 0.445490
0.524392 0.633726 0.463373
0.571137 0.639059 0.477176
0.622588 0.660392 0.472784
0.678902 0.674667 0.484078
0.738039 0.697255 0.499608
0.789804 0.708706 0.502588
0.848785 0.712470 0.490510
0.912784 0.712470 0.480470
0.963921 0.711686 0.485647
0.999027 0.707474 0.480000
0.371451 0.707922 0.492863
0.378290 0.711718 0.490949
0.389333 0.712753 0.485804
0.424721 0.708988 0.487812
0.466604 0.704345 0.493333
0.511059 0.697726 0.506510
0.564486 0.692957 0.520596
0.601757 0.693113 0.522949
0.642416 0.705286 0.536502
0.687561 0.718525 0.544847
0.736784 0.733804 0.554509
0.792690 0.748831 0.566870
0.836989 0.756455 0.574965
0.886180 0.762353 0.572706
0.936471 0.765804 0.566619
0.970932 0.769220 0.570935
0.457883 0.764079 0.547608
0.464439 0.765616 0.552063
0.469364 0.766996 0.553443
0.496094 0.763733 0.556329
0.528973 0.762165 0.561632
0.566745 0.750431 0.570353
0.605929 0.751968 0.576094
0.642573 0.746729 0.591027
0.681600 0.747984 0.597176
0.711247 0.761255 0.609129
0.748549 0.771451 0.616157
0.791561 0.787984 0.620047
0.830306 0.798682 0.637051
0.866698 0.805333 0.645459
0.911529 0.813020 0.649380
0.948513 0.817862 0.659550
0.562039 0.811137 0.626667
0.561318 0.818447 0.621082
0.568753 0.809537 0.623215
0.583937 0.810290 0.632126
0.604016 0.813741 0.632157
0.633882 0.806902 0.632471
0.665161 0.802917 0.640471
0.698918 0.798934 0.655404
0.720878 0.795169 0.665569
0.751153 0.804047 0.677898
0.781804 0.812862 0.681412
0.808376 0.824251 0.689443
0.840220 0.831812 0.703937
0.867576 0.841475 0.706321
0.897851 0.847781 0.719655
0.929583 0.854882 0.731085
0.642666 0.854117 0.696784
0.646212 0.854620 0.692016
0.652267 0.854557 0.694149
0.663686 0.853176 0.704439
0.683326 0.851169 0.698823
0.696941 0.850667 0.697882
0.722886 0.847937 0.708235
0.747200 0.845647 0.718212
0.771168 0.844518 0.727247
0.788737 0.847341 0.735843
0.813334 0.850196 0.735529
0.836518 0.860204 0.748612
0.853773 0.866541 0.757082
0.880376 0.873067 0.762478
0.903592 0.879906 0.771357
0.922439 0.884508 0.791027
0.732808 0.891553 0.756455
0.734489 0.891213 0.764561
0.736121 0.890693 0.761015
0.746769 0.890122 0.770401
0.752695 0.892435 0.765877
0.770518 0.893843 0.773647
0.784373 0.893015 0.773887
0.798569 0.888189 0.779563
0.823611 0.890033 0.788353
0.834248 0.886029 0.793509
0.858510 0.889961 0.805835
0.866776 0.898101 0.807798
0.884295 0.896137 0.819802
0.898833 0.907405 0.826121
0.918651 0.911158 0.828623
0.936989 0.917381 0.839622
0.155294 0.156079 0.163922
0.155294 0.149334 0.166431
0.166274 0.151686 0.170510
0.202667 0.146039 0.179922
0.261804 0.140549 0.185412
0.341960 0.128628 0.187451
0.440471 0.109020 0.186980
0.532549 0.100706 0.177569
0.622902 0.117019 0.180706
0.708078 0.143686 0.184627
0.790588 0.167843 0.186666
0.851922 0.194667 0.185569
0.916706 0.218823 0.186667
0.970667 0.238275 0.191058
0.998117 0.266039 0.209569
1.000000 0.293945 0.230463
0.155608 0.158745 0.174118
0.156298 0.156455 0.170039
0.169286 0.157334 0.177224
0.206557 0.151310 0.185004
0.264596 0.148674 0.189773
0.353725 0.135686 0.188862
0.442102 0.126588 0.185976
0.532706 0.136219 0.188580
0.622181 0.149647 0.185443
0.707482 0.168659 0.182023
0.784628 0.191372 0.187608
0.852957 0.211075 0.186290
0.910431 0.230871 0.186949
0.968408 0.255341 0.192345
0.996957 0.279341 0.211137
0.999522 0.303096 0.231053
0.145725 0.166588 0.177725
0.153318 0.170070 0.177474
0.171890 0.168376 0.184502
0.205396 0.169255 0.188266
0.269051 0.168596 0.189584
0.347922 0.166431 0.189961
0.446651 0.166212 0.195326
0.532204 0.180518 0.191184
0.625820 0.189804 0.189176
0.706761 0.206024 0.192973
0.783530 0.221961 0.189647
0.851451 0.240157 0.187796
0.909804 0.258133 0.190964
0.969788 0.279090 0.196235
0.998996 0.296659 0.210918
0.999843 0.323144 0.242273
0.145725 0.187294 0.191529
0.150808 0.192910 0.197553
0.170259 0.198871 0.199561
0.211796 0.206776 0.200314
0.281349 0.209255 0.202133
0.361098 0.214745 0.201255
0.453553 0.222808 0.203734
0.538855 0.233098 0.195451
0.629459 0.246400 0.192941
0.712157 0.258353 0.192219
0.787294 0.267765 0.192157
0.855843 0.279937 0.195828
0.912690 0.297286 0.205521
0.969663 0.313726 0.210290
0.997114 0.332800 0.217694
0.996737 0.357007 0.242329
0.101333 0.243764 0.222432
0.124141 0.248282 0.231341
0.162133 0.253679 0.230118
0.221114 0.253051 0.219702
0.283388 0.261239 0.223592
0.365804 0.277490 0.213804
0.458855 0.286306 0.208000
0.548988 0.294117 0.210698
0.632816 0.304282 0.207435
0.714259 0.316329 0.207090
0.790902 0.323765 0.209882
0.853177 0.334902 0.210761
0.910275 0.347388 0.217820
0.962729 0.360314 0.222965
0.998494 0.373804 0.243012
0.998602 0.390641 0.255915
0.065098 0.312156 0.269020
0.107608 0.313411 0.256000
0.164235 0.313568 0.248000
0.228863 0.315451 0.242980
0.288470 0.316862 0.250353
0.352941 0.332549 0.252549
0.456784 0.353883 0.238431
0.550431 0.368000 0.225569
0.628235 0.368627 0.218039
0.712627 0.377098 0.222902
0.787451 0.384314 0.218039
0.850667 0.393255 0.222902
0.905882 0.399843 0.234981
0.961725 0.406745 0.245019
0.997647 0.421333 0.255372
1.000000 0.432087 0.281444
0.072628 0.390902 0.290039
0.121067 0.389584 0.288941
0.183122 0.387639 0.287906
0.244737 0.386384 0.284392
0.310965 0.383090 0.284957
0.370667 0.389647 0.290980
0.442729 0.414118 0.294619
0.533772 0.435733 0.285678
0.630149 0.445647 0.264345
0.719216 0.451388 0.248973
0.781177 0.453176 0.246588
0.853082 0.456471 0.250604
0.907545 0.457631 0.254212
0.955357 0.465161 0.269271
0.992753 0.473192 0.291671
0.999981 0.488035 0.306744
0.122196 0.452392 0.325490
0.159278 0.458855 0.324110
0.213114 0.462180 0.322667
0.260549 0.455153 0.309992
0.334400 0.447843 0.324894
0.392784 0.445647 0.333020
0.450918 0.465851 0.336063
0.523200 0.491733 0.339075
