example_ofxGpuLutCube/bin/data/ofxGpuLutCube/LUT/V8 (milk fade).cube
LUT_3D_SIZE 6
0.160784 0.145098 0.133333
0.203921 0.153725 0.149020
0.429804 0.167843 0.127059
0.705098 0.195294 0.102745
0.916078 0.232942 0.067451
0.988353 0.290039 0.109647
0.151373 0.182745 0.152941
0.203921 0.194510 0.148079
0.451294 0.242353 0.131137
0.715137 0.276863 0.101804
0.916078 0.304784 0.086118
1.000000 0.343420 0.140972
0.118431 0.363922 0.206274
0.263686 0.348235 0.230588
0.435922 0.402667 0.232000
0.719372 0.454902 0.158274
0.914353 0.453647 0.161412
0.999976 0.469027 0.236682
0.218040 0.577255 0.339608
0.335843 0.570823 0.365333
0.490510 0.564235 0.389334
0.673098 0.624000 0.406431
0.879686 0.649412 0.369726
0.993733 0.642361 0.374016
0.446275 0.767059 0.538824
0.498667 0.760784 0.550117
0.607216 0.751216 0.572235
0.708706 0.763294 0.598118
0.831215 0.799686 0.632314
0.947239 0.815632 0.659569
0.732823 0.889921 0.752588
0.750792 0.889953 0.768973
0.783153 0.889921 0.779208
0.834220 0.886000 0.792549
0.885279 0.898627 0.823090
0.933175 0.913607 0.838744
0.155294 0.156079 0.163922
0.202667 0.146039 0.179922
0.440471 0.109020 0.186980
0.708078 0.143686 0.184627
0.916706 0.218823 0.186667
1.000000 0.293945 0.230463
0.145725 0.187294 0.191529
0.211796 0.206776 0.200314
0.453553 0.222808 0.203734
0.712157 0.258353 0.192219
0.912690 0.297286 0.205521
0.996737 0.357007 0.242329
0.072628 0.390902 0.290039
0.244737 0.386384 0.284392
0.442729 0.414118 0.294619
0.719216 0.451388 0.248973
0.907545 0.457631 0.254212
0.999981 0.488035 0.306744
0.242039 0.589333 0.412236
0.321255 0.588486 0.398306
0.495027 0.573741 0.422996
0.670055 0.631404 0.442573
0.881882 0.655028 0.415906
0.996813 0.647509 0.418137
0.474824 0.766588 0.577725
0.498353 0.765490 0.571263
0.607686 0.755733 0.584377
0.718525 0.762259 0.615906
0.831686 0.797302 0.648596
0.946650 0.817831 0.668974
0.723490 0.894565 0.762792
0.738053 0.890173 0.766066
0.783112 0.891842 0.772707
0.834236 0.887309 0.801026
0.884966 0.901106 0.813616
0.930870 0.917381 0.842698
0.093333 0.150588 0.309020
0.200000 0.144000 0.333020
0.424470 0.100392 0.353882
0.698823 0.082823 0.373020
0.912784 0.209569 0.373647
0.997647 0.347231 0.400063
0.026824 0.226667 0.340549
0.166651 0.210102 0.357019
0.439655 0.208659 0.383435
0.701490 0.241067 0.381741
0.904878 0.314008 0.392565
0.998442 0.396737 0.413630
0.000000 0.381490 0.414902
0.189585 0.400125 0.418635
0.444173 0.432816 0.424753
0.695247 0.453584 0.423781
0.892110 0.478682 0.429208
0.998587 0.514116 0.460766
0.023843 0.627294 0.537412
0.244957 0.626792 0.525647
0.492424 0.618729 0.510714
0.674730 0.641976 0.533208
0.868110 0.660424 0.516486
0.995751 0.669261 0.536497
0.411451 0.788549 0.627921
0.485898 0.780298 0.628235
0.602541 0.773145 0.631906
0.717208 0.763263 0.652235
0.831028 0.800502 0.685835
0.946220 0.821754 0.688285
0.712376 0.891616 0.774604
0.739200 0.894681 0.786155
0.767012 0.898102 0.792041
0.827545 0.890576 0.804863
0.882610 0.898477 0.823515
0.934698 0.919710 0.845153
0.001569 0.158431 0.519216
0.099765 0.148863 0.530980
0.394353 0.112000 0.549490
0.675137 0.069333 0.576784
0.893176 0.220863 0.562196
1.000000 0.402729 0.572518
0.000941 0.255529 0.538196
0.022463 0.228675 0.545129
0.391655 0.220643 0.567278
0.678808 0.227608 0.585600
0.887875 0.320502 0.568627
0.998081 0.466668 0.590610
0.000941 0.418510 0.570510
0.119278 0.431153 0.580455
0.400157 0.435043 0.591749
0.679341 0.446620 0.611953
0.865976 0.506698 0.599122
0.991956 0.590524 0.628455
0.062746 0.589490 0.629961
0.243702 0.602228 0.635702
0.456314 0.624502 0.638682
0.671906 0.657318 0.644674
0.850918 0.671969 0.646369
0.980624 0.690822 0.657347
0.177725 0.804079 0.741177
0.312753 0.808408 0.744470
0.523012 0.803419 0.719749
0.709365 0.789365 0.713694
0.830275 0.808941 0.740015
0.945669 0.827120 0.728624
0.576643 0.911945 0.797529
0.620367 0.910878 0.801352
0.714389 0.907248 0.812656
0.813343 0.900323 0.814822
0.881202 0.900635 0.842682
0.933129 0.919781 0.865537
0.006274 0.189804 0.733333
0.001569 0.182902 0.731608
0.334902 0.172235 0.748706
0.623216 0.156549 0.758274
0.877176 0.222432 0.761412
0.993710 0.425310 0.716212
0.000157 0.284549 0.730353
0.006526 0.264533 0.743529
0.330290 0.266823 0.751812
0.624220 0.266039 0.759781
0.877271 0.318055 0.764926
0.998573 0.472441 0.730000
0.005490 0.460079 0.747451
0.000659 0.460768 0.742588
0.350777 0.450604 0.759404
0.617349 0.459577 0.768533
0.865663 0.494808 0.774431
0.983268 0.596154 0.746199
0.011765 0.612706 0.761726
0.189898 0.617381 0.774902
0.420926 0.635294 0.773960
0.634008 0.655404 0.773898
0.835420 0.672408 0.787294
0.960690 0.720990 0.777370
0.314353 0.756392 0.802353
0.381428 0.758212 0.797584
0.524016 0.772078 0.798933
0.687027 0.792878 0.799278
0.829365 0.816910 0.806463
0.943645 0.829211 0.809434
0.435114 0.911137 0.893051
0.471617 0.915736 0.886228
0.584686 0.922870 0.885614
0.729838 0.915454 0.864554
0.866169 0.912876 0.866287
0.933905 0.925309 0.880673
0.000039 0.297686 0.901686
0.006251 0.303145 0.901600
0.301882 0.311780 0.906322
0.574941 0.336722 0.905545
0.809537 0.365820 0.909482
0.999688 0.485647 0.901688
0.007004 0.369867 0.894636
0.001242 0.368637 0.897327
0.319694 0.379984 0.900596
0.578193 0.395907 0.901029
0.810008 0.428246 0.908601
0.999687 0.524219 0.909413
0.000031 0.509592 0.894596
0.167711 0.521471 0.902596
0.380248 0.514433 0.896973
0.592947 0.529763 0.904169
0.802866 0.553490 0.901322
0.985531 0.622345 0.903184
0.001553 0.634447 0.889969
0.092052 0.643672 0.897106
0.372439 0.646737 0.897605
0.628144 0.680014 0.895605
0.803410 0.693701 0.901261
0.968267 0.732400 0.904047
0.274541 0.761490 0.906423
0.347681 0.761017 0.913645
0.485151 0.780309 0.909692
0.646036 0.798089 0.903856
0.799926 0.820368 0.902515
0.944001 0.834471 0.914111
0.470510 0.874157 0.932864
0.513608 0.868156 0.921411
0.589873 0.884417 0.921427
0.705890 0.891678 0.917575
0.832793 0.908194 0.927483
0.933175 0.929062 0.921297
