example_ofxGpuLutCube/bin/data/ofxGpuLutCube/LUT/V9 (milk fade_1).cube
LUT_3D_SIZE 6
0.145098 0.152941 0.141176
0.176470 0.156863 0.155294
0.368627 0.167059 0.139608
0.670588 0.197647 0.118431
0.910588 0.240000 0.086275
1.000000 0.290039 0.137098
0.141960 0.174118 0.155294
0.175216 0.178667 0.158118
0.403451 0.226980 0.134745
0.680157 0.274039 0.110431
0.916079 0.303529 0.096471
0.999969 0.351255 0.173059
0.127843 0.326274 0.218824
0.230275 0.316078 0.229961
0.368471 0.360784 0.257255
0.692079 0.443608 0.173177
0.914980 0.455686 0.167686
0.999984 0.479066 0.260165
0.215686 0.554510 0.356863
0.302745 0.551373 0.370981
0.459451 0.541176 0.409726
0.634353 0.605804 0.452236
0.873412 0.652078 0.420549
0.984941 0.636878 0.410133
0.494117 0.765490 0.589019
0.519686 0.758588 0.572549
0.620549 0.746666 0.602510
0.714196 0.756236 0.651137
0.809255 0.785255 0.695687
0.884518 0.809317 0.721537
0.780000 0.846902 0.772353
0.778447 0.846941 0.772251
0.800541 0.846941 0.787184
0.828800 0.840651 0.800502
0.850831 0.850894 0.819333
0.874392 0.854823 0.831098
0.146667 0.159215 0.163922
0.174432 0.152471 0.167843
0.378510 0.123764 0.178980
0.669647 0.142274 0.180235
0.916863 0.213647 0.182588
0.999992 0.296290 0.235984
0.127843 0.181177 0.183373
0.183968 0.192188 0.187482
0.397051 0.214557 0.199373
0.679781 0.251953 0.188517
0.908831 0.294776 0.198620
0.997490 0.354994 0.256113
0.068706 0.354824 0.277176
0.219702 0.352722 0.270777
0.386008 0.376659 0.298886
0.697568 0.441538 0.242071
0.910274 0.454714 0.253553
0.995785 0.484624 0.324717
0.223216 0.570510 0.409726
0.305882 0.571765 0.405584
0.469647 0.553035 0.436047
0.640753 0.614588 0.482698
0.866353 0.658667 0.453302
0.978221 0.645511 0.454011
0.503373 0.769882 0.601882
0.530980 0.764141 0.604329
0.625976 0.754322 0.618510
0.724141 0.754886 0.657192
0.809098 0.787577 0.706259
0.886773 0.807603 0.729184
0.776024 0.847718 0.788698
0.785010 0.843841 0.790243
0.799733 0.846141 0.792656
0.831164 0.841151 0.795722
0.854614 0.847762 0.813762
0.870502 0.858706 0.837249
0.102745 0.154510 0.277647
0.171608 0.149961 0.291137
0.370196 0.120470 0.328784
0.667451 0.069490 0.354823
0.914823 0.162824 0.358274
1.000000 0.344047 0.401451
0.035294 0.212392 0.311059
0.143310 0.197271 0.320502
0.396894 0.195294 0.357020
0.676455 0.216345 0.368188
0.909490 0.288282 0.379200
0.998753 0.395572 0.415181
0.000628 0.358588 0.383530
0.135467 0.378259 0.399027
0.410008 0.407969 0.403451
0.681819 0.437647 0.410039
0.894463 0.471875 0.423592
0.995681 0.522687 0.469696
0.005490 0.616784 0.529882
0.186949 0.617286 0.524769
0.477522 0.607404 0.513286
0.654494 0.633506 0.551090
0.868110 0.662620 0.527216
0.956000 0.672235 0.561745
0.442196 0.780392 0.644078
0.520910 0.778008 0.653145
0.629114 0.770447 0.660235
0.727906 0.760816 0.685051
0.813930 0.788580 0.727843
0.882868 0.810301 0.737443
0.763435 0.848572 0.787953
0.777429 0.853984 0.794034
0.799877 0.850823 0.796587
0.825889 0.845659 0.808819
0.851190 0.850407 0.815081
0.872086 0.857130 0.835742
0.004706 0.152941 0.486274
0.068706 0.150431 0.490981
0.359843 0.114980 0.520627
0.645020 0.042039 0.553725
0.898667 0.171137 0.564706
0.999961 0.405757 0.576321
0.003137 0.239059 0.504627
0.003263 0.209569 0.521192
0.356235 0.200220 0.545820
0.656533 0.197365 0.573741
0.895467 0.291074 0.561914
0.990874 0.474521 0.588926
0.000000 0.399372 0.552628
0.004267 0.407874 0.556894
0.360314 0.413459 0.586008
0.672063 0.425098 0.604172
0.876267 0.494808 0.599655
0.960343 0.606773 0.642935
0.000628 0.585098 0.628863
0.153067 0.597145 0.634478
0.424816 0.623529 0.640000
0.673600 0.658541 0.647216
0.848628 0.678432 0.660675
0.929942 0.705829 0.679307
0.212078 0.805490 0.750588
0.349459 0.804424 0.749145
0.553694 0.797365 0.731169
0.734431 0.785318 0.728251
0.815686 0.794290 0.753318
0.892730 0.811274 0.760910
0.691953 0.859545 0.785875
0.714706 0.857650 0.792464
0.773699 0.854985 0.805471
0.820381 0.852125 0.813896
0.848674 0.855676 0.818852
0.872031 0.860251 0.837475
0.003922 0.173333 0.723137
0.002510 0.168471 0.728157
0.305882 0.151372 0.737098
0.616941 0.112471 0.757647
0.882823 0.176313 0.767216
0.988109 0.423694 0.712996
0.001882 0.265725 0.729412
0.005145 0.238494 0.739325
0.290133 0.237333 0.747388
0.609129 0.234479 0.764643
0.877772 0.290227 0.768313
0.974169 0.482273 0.710378
0.002980 0.446118 0.747137
0.001255 0.442196 0.746886
0.288314 0.427451 0.755639
0.607655 0.442698 0.767655
0.864377 0.486118 0.774651
0.944524 0.615381 0.739572
0.001883 0.599530 0.770353
0.057694 0.610478 0.767592
0.391467 0.632847 0.768972
0.636831 0.655655 0.772831
0.831529 0.683357 0.776157
0.908888 0.742413 0.769547
0.344314 0.747137 0.788235
0.415937 0.750180 0.789772
0.558023 0.766620 0.797365
0.711874 0.787263 0.793820
0.821114 0.805333 0.798149
0.880439 0.818127 0.792830
0.607349 0.860282 0.831302
0.625848 0.865517 0.837456
0.699111 0.863561 0.834021
0.779939 0.859851 0.828183
0.846436 0.857931 0.832060
0.866644 0.862604 0.843105
0.003883 0.266353 0.866549
0.007796 0.270251 0.870361
0.256322 0.281984 0.869671
0.542816 0.312408 0.874220
0.775122 0.366502 0.867326
0.964627 0.520550 0.866355
0.003114 0.338572 0.863302
0.000659 0.335691 0.865374
0.269877 0.348963 0.866590
0.548929 0.376009 0.860019
0.777918 0.428363 0.867315
0.955844 0.556133 0.867139
0.002330 0.482926 0.864910
0.075958 0.494202 0.863192
0.354519 0.494177 0.863208
0.578138 0.520361 0.859205
0.776977 0.563024 0.855754
0.922438 0.655891 0.851593
0.000047 0.608651 0.860102
0.103169 0.616454 0.857399
0.384431 0.629487 0.857559
0.646491 0.681746 0.846475
0.789832 0.708119 0.849595
0.898000 0.748877 0.850062
0.405262 0.742690 0.855655
0.454099 0.738235 0.858808
0.562392 0.761319 0.856149
0.695548 0.784419 0.849292
0.809713 0.810761 0.852304
0.880667 0.821945 0.849419
0.646432 0.831217 0.862472
0.655978 0.835160 0.856959
0.706408 0.841396 0.852525
0.771632 0.847019 0.849458
0.832848 0.856416 0.854855
0.882003 0.866550 0.854785
