example_ofxGpuLutCube/bin/data/ofxGpuLutCube/LUT/V9 (milk fade_1).cube
LUT_3D_SIZE 16
0.145098 0.152941 0.141176
0.147451 0.155294 0.151373
0.157647 0.156863 0.149020
0.176470 0.156863 0.155294
0.218823 0.156078 0.147451
0.282353 0.160784 0.141176
0.368627 0.167059 0.139608
0.461177 0.174118 0.138823
0.567843 0.186666 0.126274
0.670588 0.197647 0.118431
0.760784 0.207843 0.098039
0.839216 0.222745 0.089412
0.910588 0.240000 0.086275
0.970196 0.255687 0.092549
1.000000 0.272157 0.114510
1.000000 0.290039 0.137098
0.152941 0.152941 0.151372
0.147608 0.158588 0.148078
0.156235 0.159529 0.151373
0.177569 0.158274 0.155764
0.226039 0.162510 0.144000
0.294118 0.169412 0.151372
0.380863 0.178039 0.143686
0.470432 0.186666 0.133333
0.569569 0.196706 0.127686
0.668549 0.210510 0.115921
0.756863 0.222745 0.101961
0.842353 0.237176 0.091451
0.916392 0.253333 0.092235
0.966588 0.267765 0.094118
0.998588 0.283765 0.115765
0.998447 0.302611 0.146424
0.145098 0.164706 0.142745
0.145255 0.159216 0.160470
0.160157 0.164235 0.149333
0.181490 0.168627 0.153725
0.231372 0.176000 0.148549
0.299608 0.183529 0.141176
0.385255 0.195608 0.140392
0.480000 0.208157 0.129098
0.576627 0.221961 0.120314
0.670745 0.231373 0.111686
0.760784 0.243922 0.101961
0.840941 0.258824 0.090196
0.910432 0.271530 0.090824
0.969412 0.282823 0.100235
1.000000 0.299765 0.122039
0.996894 0.319882 0.154298
0.141960 0.174118 0.155294
0.146510 0.173020 0.162353
0.158902 0.174275 0.161255
0.175216 0.178667 0.158118
0.232627 0.192314 0.152314
0.315294 0.211764 0.147451
0.403451 0.226980 0.134745
0.495687 0.243922 0.130980
0.587294 0.262745 0.124706
0.680157 0.274039 0.110431
0.767058 0.290980 0.101961
0.849098 0.292079 0.096471
0.916079 0.303529 0.096471
0.967529 0.317334 0.113412
0.998745 0.333019 0.136471
0.999969 0.351255 0.173059
0.140392 0.206274 0.163921
0.144784 0.206117 0.167843
0.170353 0.202667 0.167372
0.180392 0.212079 0.172392
0.222588 0.218039 0.177412
0.290981 0.244706 0.165490
0.401098 0.274666 0.148392
0.501019 0.295372 0.131922
0.592000 0.309804 0.118745
0.685804 0.320627 0.106980
0.774118 0.334118 0.104314
0.850353 0.342745 0.106510
0.920000 0.352000 0.116079
0.971451 0.362667 0.137412
0.998118 0.369569 0.161569
0.995294 0.381898 0.195804
0.137255 0.250980 0.180392
0.141177 0.258824 0.174118
0.170980 0.254118 0.184314
0.202353 0.257255 0.196863
0.239216 0.264314 0.202353
0.274510 0.278431 0.207843
0.371765 0.314510 0.200784
0.493333 0.347451 0.164706
0.606275 0.366274 0.133334
0.692549 0.377255 0.126275
0.772549 0.384314 0.117647
0.853333 0.394510 0.119216
0.912941 0.403922 0.127843
0.963137 0.410196 0.156078
0.992941 0.418039 0.181961
1.000000 0.423451 0.223254
0.127843 0.326274 0.218824
0.138824 0.324706 0.215059
0.180079 0.324235 0.221804
0.230275 0.316078 0.229961
0.266824 0.321725 0.239843
0.310589 0.341960 0.247059
0.368471 0.360784 0.257255
0.461177 0.394510 0.248000
0.586039 0.424627 0.219765
0.692079 0.443608 0.173177
0.782745 0.447843 0.144314
0.857098 0.456627 0.154039
0.914980 0.455686 0.167686
0.961412 0.460079 0.192784
0.995137 0.463372 0.224000
0.999984 0.479066 0.260165
0.134117 0.402353 0.258039
0.150588 0.398431 0.261490
0.196078 0.392471 0.266980
0.245647 0.388706 0.269490
0.297725 0.389177 0.282039
0.338039 0.396863 0.293334
0.392941 0.417569 0.297255
0.457412 0.439686 0.318588
0.548392 0.473569 0.322353
0.675451 0.502902 0.271216
0.774118 0.518431 0.245491
0.848627 0.523765 0.212706
0.914980 0.520627 0.212078
0.955764 0.520000 0.237176
0.986980 0.520627 0.265725
0.997639 0.527781 0.305678
0.168628 0.474510 0.317647
0.176941 0.471843 0.304157
0.213647 0.471529 0.303372
0.275765 0.465255 0.320941
0.324706 0.461334 0.329098
0.369412 0.459608 0.337255
0.420549 0.475922 0.353098
0.469333 0.497412 0.360627
0.540236 0.521255 0.376941
0.636549 0.551843 0.385412
0.745882 0.581176 0.345883
0.830431 0.589647 0.324392
0.893020 0.589020 0.299921
0.943843 0.580863 0.292392
0.983216 0.574588 0.308392
0.997545 0.581082 0.358792
0.215686 0.554510 0.356863
0.220392 0.555451 0.361569
0.254432 0.552628 0.361569
0.302745 0.551373 0.370981
0.356549 0.543216 0.383216
0.420392 0.529412 0.392941
0.459451 0.541176 0.409726
0.511843 0.561098 0.418667
0.569569 0.581177 0.428706
0.634353 0.605804 0.452236
0.707451 0.630588 0.463529
0.796392 0.648784 0.444079
0.873412 0.652078 0.420549
0.922980 0.651451 0.404235
0.957647 0.640314 0.396392
0.984941 0.636878 0.410133
0.278431 0.631373 0.419608
0.283137 0.638431 0.424314
0.302745 0.632942 0.414902
0.349804 0.629804 0.436863
0.411764 0.624314 0.442353
0.450980 0.619608 0.443137
0.501176 0.617255 0.467451
0.556863 0.621177 0.480784
0.600784 0.643137 0.499608
0.651765 0.665098 0.505098
0.701961 0.682353 0.533333
0.768628 0.699608 0.557647
0.835294 0.714509 0.545883
0.885490 0.717647 0.527059
0.923137 0.712157 0.526275
0.945020 0.705921 0.529334
0.367843 0.701961 0.493333
0.380706 0.705725 0.496314
0.389490 0.702431 0.498510
0.428392 0.697412 0.493490
0.471216 0.693961 0.504627
0.515294 0.688627 0.520000
0.562980 0.684706 0.531608
0.598902 0.685019 0.545726
0.638431 0.695686 0.558275
0.684235 0.713098 0.580706
0.725490 0.728627 0.596079
0.767686 0.738039 0.617882
0.810824 0.753726 0.635137
0.850353 0.763765 0.632627
0.890353 0.763451 0.631059
0.915953 0.767004 0.639953
0.494117 0.765490 0.589019
0.492862 0.756863 0.575529
0.499608 0.759843 0.571294
0.519686 0.758588 0.572549
0.552627 0.757490 0.589490
0.581176 0.751373 0.596079
0.620549 0.746666 0.602510
0.651451 0.740235 0.614431
0.685333 0.745254 0.633255
0.714196 0.756236 0.651137
0.752941 0.765490 0.662745
0.781333 0.774118 0.669333
0.809255 0.785255 0.695687
0.830588 0.791529 0.706980
0.862118 0.801412 0.717490
0.884518 0.809317 0.721537
0.607059 0.800000 0.654902
0.614588 0.798902 0.657725
0.619451 0.801255 0.664157
0.626981 0.800000 0.655372
0.646745 0.793882 0.662902
0.675295 0.795294 0.674510
0.694588 0.792470 0.685333
0.714196 0.784784 0.681569
0.740549 0.784784 0.687843
0.761255 0.791372 0.710745
0.784313 0.796863 0.719216
0.799529 0.805490 0.726431
0.821177 0.812863 0.742118
0.837490 0.816627 0.755922
0.854588 0.821490 0.767686
0.868894 0.825067 0.784157
0.703529 0.824314 0.727059
0.705255 0.826353 0.725019
0.710117 0.827137 0.730353
0.715765 0.825882 0.727215
0.721726 0.826667 0.728627
0.739608 0.823529 0.732549
0.757177 0.820706 0.737725
0.766117 0.819294 0.749020
0.781804 0.819921 0.757176
0.794353 0.818039 0.756078
0.813333 0.820392 0.765490
0.820392 0.828235 0.777569
0.828078 0.833412 0.783216
0.849412 0.833412 0.792627
0.857883 0.837961 0.791529
0.865035 0.837655 0.803765
0.780000 0.846902 0.772353
0.787749 0.844612 0.779255
0.775342 0.850078 0.772376
0.778447 0.846941 0.772251
0.791726 0.841490 0.782463
0.803491 0.835294 0.776314
0.800541 0.846941 0.787184
0.816141 0.846118 0.795772
0.825522 0.839875 0.795929
0.828800 0.840651 0.800502
0.838981 0.846863 0.803726
0.844557 0.849294 0.807663
0.850831 0.850894 0.819333
0.863412 0.854000 0.825733
0.869671 0.850149 0.826376
0.874392 0.854823 0.831098
0.152157 0.156863 0.146667
0.149647 0.156235 0.149176
0.155451 0.154196 0.151529
0.179294 0.153569 0.155294
0.223686 0.149334 0.153882
0.283137 0.152941 0.152157
0.372235 0.157177 0.144784
0.467922 0.165961 0.140862
0.565177 0.174118 0.132706
0.669176 0.190117 0.125647
0.764706 0.200784 0.118431
0.839843 0.214275 0.109804
0.905883 0.230902 0.102118
0.970510 0.250980 0.112157
0.999059 0.268549 0.127529
0.998423 0.290055 0.158165
0.145412 0.157333 0.150588
0.149396 0.155420 0.154949
0.151969 0.154667 0.149177
0.178698 0.158055 0.153318
0.227482 0.160282 0.152063
0.294431 0.163137 0.150588
0.377380 0.170980 0.148392
0.469365 0.180580 0.142118
0.572016 0.192502 0.137475
0.664502 0.202290 0.124486
0.758274 0.215530 0.115451
0.840565 0.230337 0.113600
0.914384 0.242290 0.111216
0.971984 0.262996 0.117992
0.995702 0.282165 0.138823
0.999942 0.303064 0.157553
0.139451 0.158745 0.159686
0.147169 0.163074 0.154071
0.161882 0.161067 0.153694
0.190243 0.166714 0.155577
0.230024 0.173678 0.152439
0.300706 0.180235 0.151216
0.384471 0.188769 0.146165
0.477898 0.203733 0.139576
0.570886 0.215780 0.130541
0.662683 0.229961 0.126557
0.760313 0.240314 0.115137
0.839184 0.251796 0.109741
0.907451 0.270494 0.111749
0.969318 0.281161 0.120910
0.997741 0.296816 0.145976
0.994362 0.322491 0.174122
0.141333 0.178196 0.163451
0.149051 0.178761 0.167373
0.160753 0.179012 0.164988
0.179576 0.183655 0.161851
0.229271 0.198400 0.160721
0.313255 0.215373 0.150588
0.396141 0.228173 0.144910
0.488815 0.239749 0.137819
0.586322 0.253302 0.136313
0.675733 0.267984 0.125302
0.765333 0.276706 0.125804
0.847090 0.292455 0.120533
0.912721 0.305129 0.120157
0.969067 0.316800 0.133835
0.997867 0.330070 0.160282
0.998121 0.347633 0.189106
0.135373 0.206588 0.176941
0.150337 0.210541 0.171764
0.171859 0.208972 0.174933
0.192314 0.212110 0.181710
0.226447 0.223216 0.184345
0.295216 0.246118 0.172235
0.401537 0.272282 0.157427
0.499985 0.290102 0.138980
0.592973 0.304408 0.132831
0.685898 0.317051 0.131294
0.771765 0.329726 0.125647
0.847937 0.340957 0.128376
0.917208 0.347859 0.137976
0.967404 0.358902 0.152784
0.998243 0.369380 0.177130
0.999052 0.383141 0.204226
0.123921 0.261177 0.197647
0.144628 0.262275 0.196706
0.166431 0.262118 0.193098
0.208471 0.258980 0.200000
0.240471 0.265569 0.207686
0.283922 0.284706 0.218823
0.372549 0.319529 0.204078
0.495686 0.347451 0.171922
0.608000 0.364392 0.151215
0.690196 0.370980 0.140706
0.774902 0.384314 0.141177
0.848627 0.390588 0.145255
0.913098 0.396863 0.160313
0.960157 0.403137 0.166588
0.994823 0.417255 0.201883
0.996117 0.425843 0.238212
0.136157 0.334117 0.230745
0.144188 0.331984 0.223718
0.177569 0.329192 0.227828
0.224377 0.326055 0.238870
0.268424 0.323670 0.247310
0.308706 0.341019 0.257882
0.371357 0.360314 0.265914
0.465788 0.393255 0.258635
0.583247 0.426510 0.223749
0.693961 0.441851 0.185380
0.782274 0.448471 0.163922
0.852204 0.455968 0.168910
0.916361 0.456533 0.182086
0.960659 0.460800 0.206682
0.995388 0.463812 0.237427
0.997195 0.476777 0.273465
0.142274 0.403294 0.267608
0.154478 0.404455 0.266447
0.180298 0.404455 0.263561
0.244800 0.395420 0.272345
0.291325 0.391875 0.289883
0.338353 0.400157 0.298510
0.391122 0.418824 0.311184
0.457600 0.441035 0.323231
0.550964 0.475294 0.316706
0.670683 0.505788 0.282039
0.773490 0.522039 0.251137
0.852455 0.520157 0.225820
0.910055 0.519780 0.224502
0.951592 0.519027 0.248847
0.985757 0.520659 0.276298
0.999940 0.528583 0.315493
0.168000 0.473569 0.314039
0.178573 0.477867 0.314008
0.207153 0.475232 0.310996
0.264628 0.471216 0.324800
0.324204 0.461773 0.333302
0.370981 0.461020 0.346823
0.418102 0.475545 0.359749
0.475796 0.498886 0.368282
0.542055 0.524612 0.386855
0.633161 0.549835 0.382180
0.735843 0.579765 0.357176
0.826730 0.589929 0.326212
0.896251 0.586415 0.303686
0.947325 0.578133 0.303435
0.977976 0.575749 0.323106
0.999915 0.580041 0.363242
0.210510 0.554039 0.368157
0.226604 0.555357 0.369474
0.244581 0.553663 0.366306
0.299169 0.550024 0.369192
0.361098 0.540863 0.382526
0.415686 0.534117 0.393726
0.453082 0.540392 0.411325
0.508235 0.558682 0.422055
0.564706 0.581145 0.439121
0.631247 0.603921 0.452016
0.707608 0.627765 0.470431
0.794384 0.650196 0.447781
0.867200 0.653459 0.422870
0.917647 0.649318 0.404423
0.957804 0.643169 0.402541
0.983512 0.636900 0.417595
0.271373 0.635294 0.441569
0.293333 0.635608 0.428549
0.306823 0.630118 0.430902
0.352000 0.632627 0.431530
0.399373 0.625882 0.436549
0.450980 0.619608 0.450980
0.505098 0.613647 0.466823
0.553882 0.623529 0.483137
0.596549 0.645490 0.495059
0.656470 0.661804 0.515765
0.713725 0.682353 0.539608
0.766432 0.702117 0.551843
0.834510 0.715765 0.555608
0.884078 0.717020 0.538666
0.926274 0.711843 0.535059
0.955145 0.703584 0.524753
0.369255 0.702902 0.498039
0.381867 0.703592 0.502431
0.388706 0.702964 0.501522
0.419576 0.701961 0.496502
0.466729 0.697255 0.508863
0.515294 0.691451 0.522981
0.559781 0.684141 0.539514
0.602039 0.683922 0.548863
0.638682 0.697600 0.558525
0.682384 0.710839 0.580047
0.727372 0.726275 0.597490
0.770071 0.738353 0.618729
0.806086 0.752125 0.635420
0.848502 0.762039 0.638808
0.887937 0.763921 0.634227
0.914676 0.767009 0.639046
0.489412 0.760471 0.581490
0.496565 0.759435 0.581584
0.503247 0.759404 0.574462
0.517804 0.758651 0.580612
0.546823 0.755075 0.585788
0.589333 0.748863 0.593255
0.621302 0.745380 0.603357
0.651451 0.740800 0.611984
0.687216 0.741051 0.627545
0.716894 0.755922 0.645773
0.750118 0.763451 0.661333
0.779796 0.775027 0.675545
0.808973 0.783090 0.700675
0.832314 0.787357 0.711216
0.860643 0.798745 0.712502
0.885062 0.803122 0.716521
0.607373 0.800627 0.651765
0.613020 0.800596 0.662400
0.612549 0.799436 0.660925
0.622588 0.798180 0.657537
0.646714 0.797741 0.667608
0.671529 0.794667 0.674823
0.694839 0.790431 0.676267
0.721726 0.784972 0.688910
0.734902 0.785725 0.702964
0.757929 0.791059 0.710902
0.785255 0.798588 0.721569
0.799624 0.802510 0.733522
0.819890 0.809569 0.741208
0.835200 0.816345 0.746228
0.853365 0.820078 0.762949
0.868127 0.827561 0.770525
0.703216 0.825255 0.727686
0.709929 0.825569 0.724925
0.709772 0.824847 0.730196
0.712282 0.825098 0.724926
0.720502 0.824941 0.727404
0.739608 0.825882 0.738039
0.752377 0.822337 0.740204
0.768031 0.820863 0.745066
0.782086 0.816596 0.752721
0.797302 0.816251 0.759937
0.807529 0.821961 0.765334
0.819608 0.827419 0.774525
0.833788 0.829302 0.781176
0.842573 0.832816 0.789961
0.855781 0.838965 0.794698
0.862388 0.841859 0.802303
0.773733 0.846149 0.776957
0.780918 0.846933 0.778022
0.776879 0.847548 0.778370
0.782494 0.845672 0.780855
0.787537 0.846297 0.778072
0.797302 0.845365 0.783263
0.799115 0.844883 0.791074
0.812719 0.844246 0.791241
0.822161 0.843594 0.799988
0.827627 0.842350 0.801434
0.840565 0.845349 0.806769
0.842521 0.848643 0.807015
0.851624 0.850365 0.822908
0.857942 0.852863 0.816182
0.864275 0.852499 0.817103
0.870463 0.856338 0.824094
0.149804 0.152941 0.160784
0.149334 0.153412 0.159215
0.156235 0.156235 0.161569
0.173177 0.153098 0.155294
0.221490 0.152157 0.157333
0.288628 0.144314 0.156863
0.379137 0.147608 0.157019
0.470589 0.148706 0.154353
0.566589 0.160000 0.152471
0.664000 0.172392 0.145098
0.757647 0.192157 0.143529
0.842824 0.204078 0.140549
0.913098 0.224941 0.135530
0.969569 0.243765 0.150588
0.998745 0.268235 0.168471
0.993780 0.293153 0.188894
0.151843 0.152471 0.163608
0.146667 0.156361 0.159121
0.157710 0.157835 0.155514
0.181929 0.159216 0.160408
0.229396 0.153035 0.157553
0.292706 0.154039 0.159059
0.376721 0.159874 0.156204
0.473067 0.169318 0.154479
0.568314 0.179859 0.155357
0.668204 0.189177 0.147074
0.761726 0.205177 0.145882
0.840000 0.222902 0.142180
0.911247 0.240439 0.142274
0.972110 0.261522 0.151435
0.999372 0.275953 0.167875
0.999984 0.306296 0.200872
0.140392 0.160471 0.164549
0.147827 0.164518 0.157804
0.159498 0.163953 0.162259
0.185976 0.162573 0.164643
0.227200 0.171671 0.162196
0.296000 0.180078 0.164863
0.381616 0.183059 0.158086
0.483765 0.192314 0.157710
0.572612 0.203608 0.149804
0.666980 0.214682 0.146102
0.759529 0.229647 0.146510
0.835639 0.245428 0.143247
0.908580 0.262651 0.144031
0.967561 0.277459 0.151059
0.995357 0.297945 0.172894
0.996881 0.319889 0.196574
0.136000 0.181177 0.177726
0.143059 0.185977 0.170478
0.161757 0.183279 0.171419
0.182714 0.186917 0.169788
0.238996 0.199655 0.168847
0.309804 0.212079 0.166745
0.395294 0.220329 0.163984
0.489035 0.229208 0.160847
0.580894 0.245020 0.153945
0.673506 0.259984 0.151498
0.765177 0.271686 0.150902
0.841663 0.286463 0.146760
0.912345 0.300298 0.151812
0.970322 0.312596 0.166369
0.996361 0.329569 0.187075
0.999372 0.348745 0.219696
0.123137 0.218667 0.188549
0.144251 0.218824 0.187325
0.158777 0.222777 0.182933
0.189647 0.218510 0.185945
0.228549 0.230337 0.199655
0.302745 0.249255 0.187765
0.406965 0.269239 0.171168
0.498196 0.284298 0.164141
0.595075 0.301741 0.161129
0.682447 0.311027 0.156110
0.769882 0.321098 0.155765
0.848439 0.335184 0.157961
0.917616 0.348392 0.168502
0.963168 0.357428 0.180674
0.997208 0.370824 0.206776
0.997956 0.387026 0.236330
0.116863 0.276079 0.207059
0.137098 0.273882 0.210196
0.165490 0.272157 0.210510
0.205647 0.267765 0.214274
0.245647 0.271373 0.220706
0.284706 0.288628 0.227451
0.384314 0.322039 0.223059
0.497098 0.348863 0.190274
0.601882 0.357647 0.175215
0.689098 0.368627 0.170666
0.772549 0.383530 0.165490
0.843137 0.388235 0.173961
0.908235 0.397490 0.180392
0.954039 0.403765 0.199843
0.991059 0.413490 0.225412
1.000000 0.427326 0.257859
0.119530 0.340392 0.248314
0.147012 0.340016 0.247216
0.176784 0.338039 0.242667
0.222212 0.334275 0.246306
0.270965 0.333867 0.257600
0.314510 0.346980 0.261961
0.374839 0.368251 0.276423
0.471655 0.401381 0.269835
0.589365 0.427608 0.241098
0.695937 0.443294 0.212455
0.780549 0.443294 0.191059
0.852831 0.452392 0.199090
0.912157 0.455090 0.215529
0.960094 0.462996 0.235357
0.991184 0.467827 0.256565
0.998276 0.478990 0.292617
0.131765 0.412235 0.285647
0.162541 0.414463 0.287969
0.189459 0.408910 0.283671
0.239906 0.407655 0.288691
0.297914 0.401223 0.302871
0.345255 0.402981 0.318431
0.394573 0.423529 0.320784
0.462588 0.448408 0.340078
0.556706 0.479529 0.332800
0.673725 0.507984 0.299796
0.770667 0.520000 0.267608
0.852925 0.521161 0.249067
0.913192 0.516674 0.253208
0.949333 0.516423 0.270651
0.987576 0.526839 0.300894
0.999369 0.531272 0.333186
0.178824 0.484392 0.330823
0.194667 0.484486 0.338792
0.218824 0.482322 0.326337
0.265255 0.477051 0.325835
0.326024 0.473757 0.341898
0.374118 0.469490 0.353569
0.426196 0.475859 0.368220
0.481662 0.502118 0.381490
0.545161 0.527216 0.395796
0.635828 0.556549 0.398431
0.738039 0.582745 0.367373
0.830337 0.588423 0.339169
0.893867 0.587576 0.319341
0.943059 0.580298 0.313694
0.979168 0.578165 0.340298
0.997399 0.583313 0.372063
0.225098 0.559216 0.388392
0.240377 0.566306 0.389365
0.256941 0.560596 0.378228
0.291326 0.557083 0.378227
0.355231 0.550023 0.392910
0.419765 0.537882 0.405177
0.464126 0.544502 0.421365
0.510526 0.562541 0.430243
0.566117 0.584502 0.440659
0.631467 0.606557 0.464879
0.708706 0.632941 0.475451
0.794070 0.651796 0.453145
0.864973 0.656533 0.435608
0.919937 0.651388 0.419169
0.961631 0.636392 0.418541
0.983899 0.637310 0.435821
0.292549 0.643921 0.446274
0.301490 0.644706 0.446745
0.320157 0.636863 0.446745
0.348392 0.641882 0.449255
0.402666 0.632157 0.450980
0.460393 0.629020 0.454117
0.509647 0.615686 0.481255
0.554039 0.623373 0.500863
0.605490 0.647843 0.506510
0.661647 0.659451 0.525020
0.717647 0.685491 0.546667
0.768627 0.705412 0.568157
0.835137 0.714509 0.555765
0.885961 0.717647 0.537568
0.922980 0.716706 0.543059
0.956698 0.703600 0.539647
0.382902 0.707765 0.518588
0.390118 0.709239 0.517522
0.402478 0.706761 0.514980
0.424941 0.705255 0.508455
0.462557 0.699576 0.515702
0.512627 0.693804 0.528157
0.560000 0.688282 0.540298
0.599623 0.686620 0.557678
0.640533 0.696031 0.571859
0.684172 0.712502 0.587545
0.725490 0.725333 0.607215
0.769318 0.740863 0.622808
0.808627 0.753757 0.640408
0.850667 0.763043 0.638023
0.886494 0.767780 0.635577
0.912343 0.767385 0.641708
0.497098 0.758588 0.586823
0.502651 0.759969 0.589051
0.509898 0.761130 0.587514
0.519686 0.758620 0.587263
0.547043 0.756361 0.591467
0.585569 0.754510 0.604235
0.626102 0.747294 0.608470
0.654839 0.744031 0.621710
0.688722 0.743906 0.637898
0.719498 0.756267 0.648282
0.752314 0.764706 0.664784
0.781741 0.772361 0.675388
0.808345 0.783937 0.697600
0.833067 0.788706 0.714792
0.860110 0.800784 0.719498
0.884854 0.810144 0.719860
0.615686 0.803137 0.662745
0.620737 0.800627 0.669490
0.621333 0.799404 0.668957
0.628110 0.797396 0.657663
0.651075 0.800408 0.669898
0.667137 0.798432 0.674510
0.688847 0.794729 0.682510
0.720722 0.787576 0.688345
0.733522 0.787451 0.698510
0.757521 0.793412 0.711780
0.784313 0.796078 0.721255
0.800063 0.803106 0.733615
0.819890 0.810165 0.747670
0.835074 0.818949 0.753820
0.853961 0.820988 0.765553
0.866111 0.825887 0.771261
0.706196 0.822745 0.724078
0.707294 0.827514 0.727059
0.718463 0.827765 0.734557
0.717459 0.827012 0.728408
0.724863 0.822243 0.729129
0.740706 0.820706 0.736000
0.753882 0.821333 0.739953
0.767624 0.821051 0.749647
0.784564 0.821427 0.754541
0.798651 0.820015 0.759937
0.814902 0.821490 0.766588
0.821302 0.825443 0.778698
0.830714 0.830902 0.781804
0.844894 0.835545 0.783184
0.854275 0.837271 0.797302
0.865545 0.842137 0.815528
0.772949 0.847686 0.773043
0.779807 0.848036 0.777840
0.779432 0.846358 0.785851
0.784960 0.843854 0.785180
0.790966 0.848140 0.779746
0.802753 0.846141 0.784824
0.797863 0.844265 0.788245
0.807271 0.846260 0.791064
0.827299 0.845658 0.791741
0.831183 0.841107 0.804412
0.839043 0.843796 0.816165
0.843349 0.848784 0.811121
0.848991 0.850215 0.813781
0.859670 0.850886 0.821240
0.869677 0.854315 0.819024
0.870595 0.858675 0.824949
0.146667 0.159215 0.163922
0.150588 0.154667 0.164235
0.157490 0.153098 0.169098
0.174432 0.152471 0.167843
0.219608 0.153412 0.178039
0.298039 0.141176 0.181961
0.378510 0.123764 0.178980
0.474353 0.120471 0.175686
0.572863 0.126745 0.173804
0.669647 0.142274 0.180235
0.767058 0.163921 0.184314
0.847843 0.190902 0.184470
0.916863 0.213647 0.182588
0.970824 0.242510 0.192627
0.996863 0.267608 0.216784
0.999992 0.296290 0.235984
0.144941 0.158118 0.171765
0.147169 0.156737 0.169663
0.152439 0.158839 0.172832
0.178165 0.157710 0.178227
0.226635 0.152157 0.181773
0.300235 0.149020 0.187921
0.382369 0.142808 0.178039
0.475953 0.142588 0.176439
0.577224 0.153631 0.177820
0.671843 0.168345 0.184722
0.761098 0.183843 0.182274
0.843263 0.208345 0.181459
0.911623 0.226886 0.179545
0.966964 0.253490 0.193726
0.999874 0.279718 0.218823
0.998133 0.305110 0.239849
0.147294 0.157961 0.172706
0.141678 0.166651 0.176376
0.154227 0.166714 0.179451
0.181710 0.168847 0.176816
0.231341 0.166902 0.182400
0.294118 0.166274 0.185568
0.385380 0.168251 0.189459
0.478620 0.176753 0.182933
0.577506 0.188549 0.184564
0.668737 0.201129 0.185631
0.757647 0.217726 0.186667
0.843294 0.233883 0.186290
0.912094 0.255122 0.192345
0.965051 0.278463 0.205898
0.995231 0.299325 0.217820
0.997509 0.321118 0.243005
0.127843 0.181177 0.183373
0.136910 0.188110 0.188047
0.153977 0.191059 0.186102
0.183968 0.192188 0.187482
0.238619 0.196392 0.193569
0.307921 0.203294 0.189961
0.397051 0.214557 0.199373
0.488408 0.220674 0.192094
0.582275 0.232973 0.190713
0.679781 0.251953 0.188517
0.768313 0.264784 0.191059
0.844298 0.279937 0.194322
0.908831 0.294776 0.198620
0.966808 0.313600 0.215686
0.996737 0.334463 0.230494
0.997490 0.354994 0.256113
0.104314 0.220549 0.204235
0.121412 0.232125 0.210541
0.149364 0.232816 0.212925
0.193286 0.231059 0.210416
0.238086 0.239875 0.211451
0.314039 0.254902 0.208471
0.404455 0.269993 0.197396
0.501835 0.281035 0.203671
0.591686 0.290949 0.202165
0.686965 0.305255 0.198149
0.774902 0.316079 0.199686
0.846933 0.331420 0.202761
0.912219 0.343121 0.211043
0.962792 0.357679 0.223717
0.997208 0.372706 0.244173
0.996732 0.400711 0.272163
0.079216 0.282353 0.238431
0.098823 0.285177 0.241569
0.148549 0.285961 0.233725
0.201255 0.284079 0.240000
0.251294 0.287059 0.247059
0.300392 0.304313 0.249411
0.397490 0.329569 0.238745
0.509647 0.347608 0.214117
0.599373 0.356392 0.211608
0.691608 0.368627 0.213333
0.775687 0.380392 0.209412
0.850667 0.387608 0.219137
0.908863 0.397490 0.233098
0.959686 0.403765 0.237490
0.994824 0.422275 0.263059
1.000000 0.433663 0.295506
0.068706 0.354824 0.277176
0.110871 0.355953 0.281098
0.163733 0.356486 0.274165
0.219702 0.352722 0.270777
0.273726 0.347921 0.276549
0.317019 0.352627 0.288314
0.386008 0.376659 0.298886
0.484706 0.407028 0.291169
0.592879 0.430745 0.269459
0.697568 0.441538 0.242071
0.778667 0.443921 0.237490
0.851200 0.454024 0.241757
0.910274 0.454714 0.253553
0.959717 0.461616 0.271875
0.990933 0.472220 0.299357
0.995785 0.484624 0.324717
0.097255 0.429176 0.323294
0.131545 0.425255 0.315200
0.186322 0.425976 0.318055
0.236769 0.425726 0.314039
0.296659 0.418165 0.316674
0.351530 0.416157 0.334745
0.406871 0.429177 0.345380
0.468988 0.453427 0.359781
