example_ofxGpuLutCube/bin/data/ofxGpuLutCube/LUT/z2-domained.cube
TITLE "16x16x16 Adobe/IRIDAS cube 3D LUT exported with GrossGrade v0.1.027.1 (beta) 64 bit"
DOMAIN_MIN 10 10 10
DOMAIN_MAX 11 11 11
LUT_3D_SIZE 6
10.000000000 10.000000000 10.000000000
10.199999809 10.000000000 10.000000000
10.399999619 10.000000000 10.000000000
10.600000381 10.000000000 10.000000000
10.800000191 10.000000000 10.000000000
11.000000000 10.000000000 10.000000000
10.000000000 10.150000572 10.000000000
10.199999809 10.150000572 10.000000000
10.399999619 10.150000572 10.000000000
10.600000381 10.150000572 10.000000000
10.800000191 10.150000572 10.000000000
11.000000000 10.150000572 10.000000000
10.000000000 10.300000191 10.000000000
10.199999809 10.300000191 10.000000000
10.399999619 10.300000191 10.000000000
10.600000381 10.300000191 10.000000000
10.800000191 10.300000191 10.000000000
11.000000000 10.300000191 10.000000000
10.000000000 10.449999809 10.000000000
10.199999809 10.449999809 10.000000000
10.399999619 10.449999809 10.000000000
10.600000381 10.449999809 10.000000000
10.800000191 10.449999809 10.000000000
11.000000000 10.449999809 10.000000000
10.000000000 10.599999428 10.000000000
10.199999809 10.599999428 10.000000000
10.399999619 10.599999428 10.000000000
10.600000381 10.599999428 10.000000000
10.800000191 10.599999428 10.000000000
11.000000000 10.599999428 10.000000000
10.000000000 10.750000000 10.000000000
10.199999809 10.750000000 10.000000000
10.399999619 10.750000000 10.000000000
10.600000381 10.750000000 10.000000000
10.800000191 10.750000000 10.000000000
11.000000000 10.750000000 10.000000000
10.000000000 10.050000191 10.199999809
10.199999809 10.050000191 10.199999809
10.399999619 10.050000191 10.199999809
10.600000381 10.050000191 10.199999809
10.800000191 10.050000191 10.199999809
11.000000000 10.050000191 10.199999809
10.000000000 10.200000763 10.199999809
10.199999809 10.200000763 10.199999809
10.399999619 10.200000763 10.199999809
10.600000381 10.200000763 10.199999809
10.800000191 10.200000763 10.199999809
11.000000000 10.200000763 10.199999809
10.000000000 10.350000381 10.199999809
10.199999809 10.350000381 10.199999809
10.399999619 10.350000381 10.199999809
10.600000381 10.350000381 10.199999809
10.800000191 10.350000381 10.199999809
11.000000000 10.350000381 10.199999809
10.000000000 10.500000000 10.199999809
10.199999809 10.500000000 10.199999809
10.399999619 10.500000000 10.199999809
10.600000381 10.500000000 10.199999809
10.800000191 10.500000000 10.199999809
11.000000000 10.500000000 10.199999809
10.000000000 10.649999619 10.199999809
10.199999809 10.649999619 10.199999809
10.399999619 10.649999619 10.199999809
10.600000381 10.649999619 10.199999809
10.800000191 10.649999619 10.199999809
11.000000000 10.649999619 10.199999809
10.000000000 10.800000191 10.199999809
10.199999809 10.800000191 10.199999809
10.399999619 10.800000191 10.199999809
10.600000381 10.800000191 10.199999809
10.800000191 10.800000191 10.199999809
11.000000000 10.800000191 10.199999809
10.000000000 10.099999428 10.399999619
10.199999809 10.099999428 10.399999619
10.399999619 10.099999428 10.399999619
10.600000381 10.099999428 10.399999619
10.800000191 10.099999428 10.399999619
11.000000000 10.099999428 10.399999619
10.000000000 10.250000000 10.399999619
10.199999809 10.250000000 10.399999619
10.399999619 10.250000000 10.399999619
10.600000381 10.250000000 10.399999619
10.800000191 10.250000000 10.399999619
11.000000000 10.250000000 10.399999619
10.000000000 10.399999619 10.399999619
10.199999809 10.399999619 10.399999619
10.399999619 10.399999619 10.399999619
10.600000381 10.399999619 10.399999619
10.800000191 10.399999619 10.399999619
11.000000000 10.399999619 10.399999619
10.000000000 10.549999237 10.399999619
10.199999809 10.549999237 10.399999619
10.399999619 10.549999237 10.399999619
10.600000381 10.549999237 10.399999619
10.800000191 10.549999237 10.399999619
11.000000000 10.549999237 10.399999619
10.000000000 10.699998856 10.399999619
10.199999809 10.699998856 10.399999619
10.399999619 10.699998856 10.399999619
10.600000381 10.699998856 10.399999619
10.800000191 10.699998856 10.399999619
11.000000000 10.699998856 10.399999619
10.000000000 10.849999428 10.399999619
10.199999809 10.849999428 10.399999619
10.399999619 10.849999428 10.399999619
10.600000381 10.849999428 10.399999619
10.800000191 10.849999428 10.399999619
11.000000000 10.849999428 10.399999619
10.000000000 10.150000572 10.600000381
10.199999809 10.150000572 10.600000381
10.399999619 10.150000572 10.600000381
10.600000381 10.150000572 10.600000381
10.800000191 10.150000572 10.600000381
11.000000000 10.150000572 10.600000381
10.000000000 10.300001144 10.600000381
10.199999809 10.300001144 10.600000381
10.399999619 10.300001144 10.600000381
10.600000381 10.300001144 10.600000381
10.800000191 10.300001144 10.600000381
11.000000000 10.300001144 10.600000381
10.000000000 10.450000763 10.600000381
10.199999809 10.450000763 10.600000381
10.399999619 10.450000763 10.600000381
10.600000381 10.450000763 10.600000381
10.800000191 10.450000763 10.600000381
11.000000000 10.450000763 10.600000381
10.000000000 10.600000381 10.600000381
10.199999809 10.600000381 10.600000381
10.399999619 10.600000381 10.600000381
10.600000381 10.600000381 10.600000381
10.800000191 10.600000381 10.600000381
11.000000000 10.600000381 10.600000381
10.000000000 10.750000000 10.600000381
10.199999809 10.750000000 10.600000381
10.399999619 10.750000000 10.600000381
10.600000381 10.750000000 10.600000381
10.800000191 10.750000000 10.600000381
11.000000000 10.750000000 10.600000381
10.000000000 10.900000572 10.600000381
10.199999809 10.900000572 10.600000381
10.399999619 10.900000572 10.600000381
10.600000381 10.900000572 10.600000381
10.800000191 10.900000572 10.600000381
11.000000000 10.900000572 10.600000381
10.000000000 10.199999809 10.800000191
10.199999809 10.199999809 10.800000191
10.399999619 10.199999809 10.800000191
10.600000381 10.199999809 10.800000191
10.800000191 10.199999809 10.800000191
11.000000000 10.199999809 10.800000191
10.000000000 10.350000381 10.800000191
10.199999809 10.350000381 10.800000191
10.399999619 10.350000381 10.800000191
10.600000381 10.350000381 10.800000191
10.800000191 10.350000381 10.800000191
11.000000000 10.350000381 10.800000191
10.000000000 10.500000000 10.800000191
10.199999809 10.500000000 10.800000191
10.399999619 10.500000000 10.800000191
10.600000381 10.500000000 10.800000191
10.800000191 10.500000000 10.800000191
11.000000000 10.500000000 10.800000191
10.000000000 10.649999619 10.800000191
10.199999809 10.649999619 10.800000191
10.399999619 10.649999619 10.800000191
10.600000381 10.649999619 10.800000191
10.800000191 10.649999619 10.800000191
11.000000000 10.649999619 10.800000191
10.000000000 10.799999237 10.800000191
10.199999809 10.799999237 10.800000191
10.399999619 10.799999237 10.800000191
10.600000381 10.799999237 10.800000191
10.800000191 10.799999237 10.800000191
11.000000000 10.799999237 10.800000191
10.000000000 10.949999809 10.800000191
10.199999809 10.949999809 10.800000191
10.399999619 10.949999809 10.800000191
10.600000381 10.949999809 10.800000191
10.800000191 10.949999809 10.800000191
11.000000000 10.949999809 10.800000191
10.000000000 10.250000000 11.000000000
10.199999809 10.250000000 11.000000000
10.399999619 10.250000000 11.000000000
10.600000381 10.250000000 11.000000000
10.800000191 10.250000000 11.000000000
11.000000000 10.250000000 11.000000000
10.000000000 10.400000572 11.000000000
10.199999809 10.400000572 11.000000000
10.399999619 10.400000572 11.000000000
10.600000381 10.400000572 11.000000000
10.800000191 10.400000572 11.000000000
11.000000000 10.400000572 11.000000000
10.000000000 10.550000191 11.000000000
10.199999809 10.550000191 11.000000000
10.399999619 10.550000191 11.000000000
10.600000381 10.550000191 11.000000000
10.800000191 10.550000191 11.000000000
11.000000000 10.550000191 11.000000000
10.000000000 10.699999809 11.000000000
10.199999809 10.699999809 11.000000000
10.399999619 10.699999809 11.000000000
10.600000381 10.699999809 11.000000000
10.800000191 10.699999809 11.000000000
11.000000000 10.699999809 11.000000000
10.000000000 10.849999428 11.000000000
10.199999809 10.849999428 11.000000000
10.399999619 10.849999428 11.000000000
10.600000381 10.849999428 11.000000000
10.800000191 10.849999428 11.000000000
11.000000000 10.849999428 11.000000000
10.000000000 11.000000000 11.000000000
10.199999809 11.000000000 11.000000000
10.399999619 11.000000000 11.000000000
10.600000381 11.000000000 11.000000000
10.800000191 11.000000000 11.000000000
11.000000000 11.000000000 11.000000000
