example_ofxGpuLutCube/bin/data/ofxGpuLutCube/LUT/z2-domained.cube
TITLE "16x16x16 Adobe/IRIDAS cube 3D LUT exported with GrossGrade v0.1.027.1 (beta) 64 bit"
DOMAIN_MIN 10 10 10
DOMAIN_MAX 11 11 11
LUT_3D_SIZE 16
10.000000000 10.000000000 10.000000000
10.066666603 10.000000000 10.000000000
10.133333206 10.000000000 10.000000000
10.199999809 10.000000000 10.000000000
10.266666412 10.000000000 10.000000000
10.333333015 10.000000000 10.000000000
10.399999619 10.000000000 10.000000000
10.466666222 10.000000000 10.000000000
10.533333778 10.000000000 10.000000000
10.600000381 10.000000000 10.000000000
10.666666985 10.000000000 10.000000000
10.733333588 10.000000000 10.000000000
10.800000191 10.000000000 10.000000000
10.866666794 10.000000000 10.000000000
10.933333397 10.000000000 10.000000000
11.000000000 10.000000000 10.000000000
10.000000000 10.050000191 10.000000000
10.066666603 10.050000191 10.000000000
10.133333206 10.050000191 10.000000000
10.199999809 10.050000191 10.000000000
10.266666412 10.050000191 10.000000000
10.333333015 10.050000191 10.000000000
10.399999619 10.050000191 10.000000000
10.466666222 10.050000191 10.000000000
10.533333778 10.050000191 10.000000000
10.600000381 10.050000191 10.000000000
10.666666985 10.050000191 10.000000000
10.733333588 10.050000191 10.000000000
10.800000191 10.050000191 10.000000000
10.866666794 10.050000191 10.000000000
10.933333397 10.050000191 10.000000000
11.000000000 10.050000191 10.000000000
10.000000000 10.100000381 10.000000000
10.066666603 10.100000381 10.000000000
10.133333206 10.100000381 10.000000000
10.199999809 10.100000381 10.000000000
10.266666412 10.100000381 10.000000000
10.333333015 10.100000381 10.000000000
10.399999619 10.100000381 10.000000000
10.466666222 10.100000381 10.000000000
10.533333778 10.100000381 10.000000000
10.600000381 10.100000381 10.000000000
10.666666985 10.100000381 10.000000000
10.733333588 10.100000381 10.000000000
10.800000191 10.100000381 10.000000000
10.866666794 10.100000381 10.000000000
10.933333397 10.100000381 10.000000000
11.000000000 10.100000381 10.000000000
10.000000000 10.150000572 10.000000000
10.066666603 10.150000572 10.000000000
10.133333206 10.150000572 10.000000000
10.199999809 10.150000572 10.000000000
10.266666412 10.150000572 10.000000000
10.333333015 10.150000572 10.000000000
10.399999619 10.150000572 10.000000000
10.466666222 10.150000572 10.000000000
10.533333778 10.150000572 10.000000000
10.600000381 10.150000572 10.000000000
10.666666985 10.150000572 10.000000000
10.733333588 10.150000572 10.000000000
10.800000191 10.150000572 10.000000000
10.866666794 10.150000572 10.000000000
10.933333397 10.150000572 10.000000000
11.000000000 10.150000572 10.000000000
10.000000000 10.199999809 10.000000000
10.066666603 10.199999809 10.000000000
10.133333206 10.199999809 10.000000000
10.199999809 10.199999809 10.000000000
10.266666412 10.199999809 10.000000000
10.333333015 10.199999809 10.000000000
10.399999619 10.199999809 10.000000000
10.466666222 10.199999809 10.000000000
10.533333778 10.199999809 10.000000000
10.600000381 10.199999809 10.000000000
10.666666985 10.199999809 10.000000000
10.733333588 10.199999809 10.000000000
10.800000191 10.199999809 10.000000000
10.866666794 10.199999809 10.000000000
10.933333397 10.199999809 10.000000000
11.000000000 10.199999809 10.000000000
10.000000000 10.250000000 10.000000000
10.066666603 10.250000000 10.000000000
10.133333206 10.250000000 10.000000000
10.199999809 10.250000000 10.000000000
10.266666412 10.250000000 10.000000000
10.333333015 10.250000000 10.000000000
10.399999619 10.250000000 10.000000000
10.466666222 10.250000000 10.000000000
10.533333778 10.250000000 10.000000000
10.600000381 10.250000000 10.000000000
10.666666985 10.250000000 10.000000000
10.733333588 10.250000000 10.000000000
10.800000191 10.250000000 10.000000000
10.866666794 10.250000000 10.000000000
10.933333397 10.250000000 10.000000000
11.000000000 10.250000000 10.000000000
10.000000000 10.300000191 10.000000000
10.066666603 10.300000191 10.000000000
10.133333206 10.300000191 10.000000000
10.199999809 10.300000191 10.000000000
10.266666412 10.300000191 10.000000000
10.333333015 10.300000191 10.000000000
10.399999619 10.300000191 10.000000000
10.466666222 10.300000191 10.000000000
10.533333778 10.300000191 10.000000000
10.600000381 10.300000191 10.000000000
10.666666985 10.300000191 10.000000000
10.733333588 10.300000191 10.000000000
10.800000191 10.300000191 10.000000000
10.866666794 10.300000191 10.000000000
10.933333397 10.300000191 10.000000000
11.000000000 10.300000191 10.000000000
10.000000000 10.350000381 10.000000000
10.066666603 10.350000381 10.000000000
10.133333206 10.350000381 10.000000000
10.199999809 10.350000381 10.000000000
10.266666412 10.350000381 10.000000000
10.333333015 10.350000381 10.000000000
10.399999619 10.350000381 10.000000000
10.466666222 10.350000381 10.000000000
10.533333778 10.350000381 10.000000000
10.600000381 10.350000381 10.000000000
10.666666985 10.350000381 10.000000000
10.733333588 10.350000381 10.000000000
10.800000191 10.350000381 10.000000000
10.866666794 10.350000381 10.000000000
10.933333397 10.350000381 10.000000000
11.000000000 10.350000381 10.000000000
10.000000000 10.399999619 10.000000000
10.066666603 10.399999619 10.000000000
10.133333206 10.399999619 10.000000000
10.199999809 10.399999619 10.000000000
10.266666412 10.399999619 10.000000000
10.333333015 10.399999619 10.000000000
10.399999619 10.399999619 10.000000000
10.466666222 10.399999619 10.000000000
10.533333778 10.399999619 10.000000000
10.600000381 10.399999619 10.000000000
10.666666985 10.399999619 10.000000000
10.733333588 10.399999619 10.000000000
10.800000191 10.399999619 10.000000000
10.866666794 10.399999619 10.000000000
10.933333397 10.399999619 10.000000000
11.000000000 10.399999619 10.000000000
10.000000000 10.449999809 10.000000000
10.066666603 10.449999809 10.000000000
10.133333206 10.449999809 10.000000000
10.199999809 10.449999809 10.000000000
10.266666412 10.449999809 10.000000000
10.333333015 10.449999809 10.000000000
10.399999619 10.449999809 10.000000000
10.466666222 10.449999809 10.000000000
10.533333778 10.449999809 10.000000000
10.600000381 10.449999809 10.000000000
10.666666985 10.449999809 10.000000000
10.733333588 10.449999809 10.000000000
10.800000191 10.449999809 10.000000000
10.866666794 10.449999809 10.000000000
10.933333397 10.449999809 10.000000000
11.000000000 10.449999809 10.000000000
10.000000000 10.500000000 10.000000000
10.066666603 10.500000000 10.000000000
10.133333206 10.500000000 10.000000000
10.199999809 10.500000000 10.000000000
10.266666412 10.500000000 10.000000000
10.333333015 10.500000000 10.000000000
10.399999619 10.500000000 10.000000000
10.466666222 10.500000000 10.000000000
10.533333778 10.500000000 10.000000000
10.600000381 10.500000000 10.000000000
10.666666985 10.500000000 10.000000000
10.733333588 10.500000000 10.000000000
10.800000191 10.500000000 10.000000000
10.866666794 10.500000000 10.000000000
10.933333397 10.500000000 10.000000000
11.000000000 10.500000000 10.000000000
10.000000000 10.550000191 10.000000000
10.066666603 10.550000191 10.000000000
10.133333206 10.550000191 10.000000000
10.199999809 10.550000191 10.000000000
10.266666412 10.550000191 10.000000000
10.333333015 10.550000191 10.000000000
10.399999619 10.550000191 10.000000000
10.466666222 10.550000191 10.000000000
10.533333778 10.550000191 10.000000000
10.600000381 10.550000191 10.000000000
10.666666985 10.550000191 10.000000000
10.733333588 10.550000191 10.000000000
10.800000191 10.550000191 10.000000000
10.866666794 10.550000191 10.000000000
10.933333397 10.550000191 10.000000000
11.000000000 10.550000191 10.000000000
10.000000000 10.599999428 10.000000000
10.066666603 10.599999428 10.000000000
10.133333206 10.599999428 10.000000000
10.199999809 10.599999428 10.000000000
10.266666412 10.599999428 10.000000000
10.333333015 10.599999428 10.000000000
10.399999619 10.599999428 10.000000000
10.466666222 10.599999428 10.000000000
10.533333778 10.599999428 10.000000000
10.600000381 10.599999428 10.000000000
10.666666985 10.599999428 10.000000000
10.733333588 10.599999428 10.000000000
10.800000191 10.599999428 10.000000000
10.866666794 10.599999428 10.000000000
10.933333397 10.599999428 10.000000000
11.000000000 10.599999428 10.000000000
10.000000000 10.650000572 10.000000000
10.066666603 10.650000572 10.000000000
10.133333206 10.650000572 10.000000000
10.199999809 10.650000572 10.000000000
10.266666412 10.650000572 10.000000000
10.333333015 10.650000572 10.000000000
10.399999619 10.650000572 10.000000000
10.466666222 10.650000572 10.000000000
10.533333778 10.650000572 10.000000000
10.600000381 10.650000572 10.000000000
10.666666985 10.650000572 10.000000000
10.733333588 10.650000572 10.000000000
10.800000191 10.650000572 10.000000000
10.866666794 10.650000572 10.000000000
10.933333397 10.650000572 10.000000000
11.000000000 10.650000572 10.000000000
10.000000000 10.699999809 10.000000000
10.066666603 10.699999809 10.000000000
10.133333206 10.699999809 10.000000000
10.199999809 10.699999809 10.000000000
10.266666412 10.699999809 10.000000000
10.333333015 10.699999809 10.000000000
10.399999619 10.699999809 10.000000000
10.466666222 10.699999809 10.000000000
10.533333778 10.699999809 10.000000000
10.600000381 10.699999809 10.000000000
10.666666985 10.699999809 10.000000000
10.733333588 10.699999809 10.000000000
10.800000191 10.699999809 10.000000000
10.866666794 10.699999809 10.000000000
10.933333397 10.699999809 10.000000000
11.000000000 10.699999809 10.000000000
10.000000000 10.750000000 10.000000000
10.066666603 10.750000000 10.000000000
10.133333206 10.750000000 10.000000000
10.199999809 10.750000000 10.000000000
10.266666412 10.750000000 10.000000000
10.333333015 10.750000000 10.000000000
10.399999619 10.750000000 10.000000000
10.466666222 10.750000000 10.000000000
10.533333778 10.750000000 10.000000000
10.600000381 10.750000000 10.000000000
10.666666985 10.750000000 10.000000000
10.733333588 10.750000000 10.000000000
10.800000191 10.750000000 10.000000000
10.866666794 10.750000000 10.000000000
10.933333397 10.750000000 10.000000000
11.000000000 10.750000000 10.000000000
10.000000000 10.016667366 10.066666603
10.066666603 10.016667366 10.066666603
10.133333206 10.016667366 10.066666603
10.199999809 10.016667366 10.066666603
10.266666412 10.016667366 10.066666603
10.333333015 10.016667366 10.066666603
10.399999619 10.016667366 10.066666603
10.466666222 10.016667366 10.066666603
10.533333778 10.016667366 10.066666603
10.600000381 10.016667366 10.066666603
10.666666985 10.016667366 10.066666603
10.733333588 10.016667366 10.066666603
10.800000191 10.016667366 10.066666603
10.866666794 10.016667366 10.066666603
10.933333397 10.016667366 10.066666603
11.000000000 10.016667366 10.066666603
10.000000000 10.066667557 10.066666603
10.066666603 10.066667557 10.066666603
10.133333206 10.066667557 10.066666603
10.199999809 10.066667557 10.066666603
10.266666412 10.066667557 10.066666603
10.333333015 10.066667557 10.066666603
10.399999619 10.066667557 10.066666603
10.466666222 10.066667557 10.066666603
10.533333778 10.066667557 10.066666603
10.600000381 10.066667557 10.066666603
10.666666985 10.066667557 10.066666603
10.733333588 10.066667557 10.066666603
10.800000191 10.066667557 10.066666603
10.866666794 10.066667557 10.066666603
10.933333397 10.066667557 10.066666603
11.000000000 10.066667557 10.066666603
10.000000000 10.116667747 10.066666603
10.066666603 10.116667747 10.066666603
10.133333206 10.116667747 10.066666603
10.199999809 10.116667747 10.066666603
10.266666412 10.116667747 10.066666603
10.333333015 10.116667747 10.066666603
10.399999619 10.116667747 10.066666603
10.466666222 10.116667747 10.066666603
10.533333778 10.116667747 10.066666603
10.600000381 10.116667747 10.066666603
10.666666985 10.116667747 10.066666603
10.733333588 10.116667747 10.066666603
10.800000191 10.116667747 10.066666603
10.866666794 10.116667747 10.066666603
10.933333397 10.116667747 10.066666603
11.000000000 10.116667747 10.066666603
10.000000000 10.166667938 10.066666603
10.066666603 10.166667938 10.066666603
10.133333206 10.166667938 10.066666603
10.199999809 10.166667938 10.066666603
10.266666412 10.166667938 10.066666603
10.333333015 10.166667938 10.066666603
10.399999619 10.166667938 10.066666603
10.466666222 10.166667938 10.066666603
10.533333778 10.166667938 10.066666603
10.600000381 10.166667938 10.066666603
10.666666985 10.166667938 10.066666603
10.733333588 10.166667938 10.066666603
10.800000191 10.166667938 10.066666603
10.866666794 10.166667938 10.066666603
10.933333397 10.166667938 10.066666603
11.000000000 10.166667938 10.066666603
10.000000000 10.216667175 10.066666603
10.066666603 10.216667175 10.066666603
10.133333206 10.216667175 10.066666603
10.199999809 10.216667175 10.066666603
10.266666412 10.216667175 10.066666603
10.333333015 10.216667175 10.066666603
10.399999619 10.216667175 10.066666603
10.466666222 10.216667175 10.066666603
10.533333778 10.216667175 10.066666603
10.600000381 10.216667175 10.066666603
10.666666985 10.216667175 10.066666603
10.733333588 10.216667175 10.066666603
10.800000191 10.216667175 10.066666603
10.866666794 10.216667175 10.066666603
10.933333397 10.216667175 10.066666603
11.000000000 10.216667175 10.066666603
10.000000000 10.266667366 10.066666603
10.066666603 10.266667366 10.066666603
10.133333206 10.266667366 10.066666603
10.199999809 10.266667366 10.066666603
10.266666412 10.266667366 10.066666603
10.333333015 10.266667366 10.066666603
10.399999619 10.266667366 10.066666603
10.466666222 10.266667366 10.066666603
10.533333778 10.266667366 10.066666603
10.600000381 10.266667366 10.066666603
10.666666985 10.266667366 10.066666603
10.733333588 10.266667366 10.066666603
10.800000191 10.266667366 10.066666603
10.866666794 10.266667366 10.066666603
10.933333397 10.266667366 10.066666603
11.000000000 10.266667366 10.066666603
10.000000000 10.316667557 10.066666603
10.066666603 10.316667557 10.066666603
10.133333206 10.316667557 10.066666603
10.199999809 10.316667557 10.066666603
10.266666412 10.316667557 10.066666603
10.333333015 10.316667557 10.066666603
10.399999619 10.316667557 10.066666603
10.466666222 10.316667557 10.066666603
10.533333778 10.316667557 10.066666603
10.600000381 10.316667557 10.066666603
10.666666985 10.316667557 10.066666603
10.733333588 10.316667557 10.066666603
10.800000191 10.316667557 10.066666603
10.866666794 10.316667557 10.066666603
10.933333397 10.316667557 10.066666603
11.000000000 10.316667557 10.066666603
10.000000000 10.366667747 10.066666603
10.066666603 10.366667747 10.066666603
10.133333206 10.366667747 10.066666603
10.199999809 10.366667747 10.066666603
10.266666412 10.366667747 10.066666603
10.333333015 10.366667747 10.066666603
10.399999619 10.366667747 10.066666603
10.466666222 10.366667747 10.066666603
10.533333778 10.366667747 10.066666603
10.600000381 10.366667747 10.066666603
10.666666985 10.366667747 10.066666603
10.733333588 10.366667747 10.066666603
10.800000191 10.366667747 10.066666603
10.866666794 10.366667747 10.066666603
10.933333397 10.366667747 10.066666603
11.000000000 10.366667747 10.066666603
10.000000000 10.416666985 10.066666603
10.066666603 10.416666985 10.066666603
10.133333206 10.416666985 10.066666603
10.199999809 10.416666985 10.066666603
10.266666412 10.416666985 10.066666603
10.333333015 10.416666985 10.066666603
10.399999619 10.416666985 10.066666603
10.466666222 10.416666985 10.066666603
10.533333778 10.416666985 10.066666603
10.600000381 10.416666985 10.066666603
10.666666985 10.416666985 10.066666603
10.733333588 10.416666985 10.066666603
10.800000191 10.416666985 10.066666603
10.866666794 10.416666985 10.066666603
10.933333397 10.416666985 10.066666603
11.000000000 10.416666985 10.066666603
10.000000000 10.466667175 10.066666603
10.066666603 10.466667175 10.066666603
10.133333206 10.466667175 10.066666603
10.199999809 10.466667175 10.066666603
10.266666412 10.466667175 10.066666603
10.333333015 10.466667175 10.066666603
10.399999619 10.466667175 10.066666603
10.466666222 10.466667175 10.066666603
10.533333778 10.466667175 10.066666603
10.600000381 10.466667175 10.066666603
10.666666985 10.466667175 10.066666603
10.733333588 10.466667175 10.066666603
10.800000191 10.466667175 10.066666603
10.866666794 10.466667175 10.066666603
10.933333397 10.466667175 10.066666603
11.000000000 10.466667175 10.066666603
10.000000000 10.516667366 10.066666603
10.066666603 10.516667366 10.066666603
10.133333206 10.516667366 10.066666603
10.199999809 10.516667366 10.066666603
10.266666412 10.516667366 10.066666603
10.333333015 10.516667366 10.066666603
10.399999619 10.516667366 10.066666603
10.466666222 10.516667366 10.066666603
10.533333778 10.516667366 10.066666603
10.600000381 10.516667366 10.066666603
10.666666985 10.516667366 10.066666603
10.733333588 10.516667366 10.066666603
10.800000191 10.516667366 10.066666603
10.866666794 10.516667366 10.066666603
10.933333397 10.516667366 10.066666603
11.000000000 10.516667366 10.066666603
10.000000000 10.566667557 10.066666603
10.066666603 10.566667557 10.066666603
10.133333206 10.566667557 10.066666603
10.199999809 10.566667557 10.066666603
10.266666412 10.566667557 10.066666603
10.333333015 10.566667557 10.066666603
10.399999619 10.566667557 10.066666603
10.466666222 10.566667557 10.066666603
10.533333778 10.566667557 10.066666603
10.600000381 10.566667557 10.066666603
10.666666985 10.566667557 10.066666603
10.733333588 10.566667557 10.066666603
10.800000191 10.566667557 10.066666603
10.866666794 10.566667557 10.066666603
10.933333397 10.566667557 10.066666603
11.000000000 10.566667557 10.066666603
10.000000000 10.616666794 10.066666603
10.066666603 10.616666794 10.066666603
10.133333206 10.616666794 10.066666603
10.199999809 10.616666794 10.066666603
10.266666412 10.616666794 10.066666603
10.333333015 10.616666794 10.066666603
10.399999619 10.616666794 10.066666603
10.466666222 10.616666794 10.066666603
10.533333778 10.616666794 10.066666603
10.600000381 10.616666794 10.066666603
10.666666985 10.616666794 10.066666603
10.733333588 10.616666794 10.066666603
10.800000191 10.616666794 10.066666603
10.866666794 10.616666794 10.066666603
10.933333397 10.616666794 10.066666603
11.000000000 10.616666794 10.066666603
10.000000000 10.666667938 10.066666603
10.066666603 10.666667938 10.066666603
10.133333206 10.666667938 10.066666603
10.199999809 10.666667938 10.066666603
10.266666412 10.666667938 10.066666603
10.333333015 10.666667938 10.066666603
10.399999619 10.666667938 10.066666603
10.466666222 10.666667938 10.066666603
10.533333778 10.666667938 10.066666603
10.600000381 10.666667938 10.066666603
10.666666985 10.666667938 10.066666603
10.733333588 10.666667938 10.066666603
10.800000191 10.666667938 10.066666603
10.866666794 10.666667938 10.066666603
10.933333397 10.666667938 10.066666603
11.000000000 10.666667938 10.066666603
10.000000000 10.716667175 10.066666603
10.066666603 10.716667175 10.066666603
10.133333206 10.716667175 10.066666603
10.199999809 10.716667175 10.066666603
10.266666412 10.716667175 10.066666603
10.333333015 10.716667175 10.066666603
10.399999619 10.716667175 10.066666603
10.466666222 10.716667175 10.066666603
10.533333778 10.716667175 10.066666603
10.600000381 10.716667175 10.066666603
10.666666985 10.716667175 10.066666603
10.733333588 10.716667175 10.066666603
10.800000191 10.716667175 10.066666603
10.866666794 10.716667175 10.066666603
10.933333397 10.716667175 10.066666603
11.000000000 10.716667175 10.066666603
10.000000000 10.766667366 10.066666603
10.066666603 10.766667366 10.066666603
10.133333206 10.766667366 10.066666603
10.199999809 10.766667366 10.066666603
10.266666412 10.766667366 10.066666603
10.333333015 10.766667366 10.066666603
10.399999619 10.766667366 10.066666603
10.466666222 10.766667366 10.066666603
10.533333778 10.766667366 10.066666603
10.600000381 10.766667366 10.066666603
10.666666985 10.766667366 10.066666603
10.733333588 10.766667366 10.066666603
10.800000191 10.766667366 10.066666603
10.866666794 10.766667366 10.066666603
10.933333397 10.766667366 10.066666603
11.000000000 10.766667366 10.066666603
10.000000000 10.033332825 10.133333206
10.066666603 10.033332825 10.133333206
10.133333206 10.033332825 10.133333206
10.199999809 10.033332825 10.133333206
10.266666412 10.033332825 10.133333206
10.333333015 10.033332825 10.133333206
10.399999619 10.033332825 10.133333206
10.466666222 10.033332825 10.133333206
10.533333778 10.033332825 10.133333206
10.600000381 10.033332825 10.133333206
10.666666985 10.033332825 10.133333206
10.733333588 10.033332825 10.133333206
10.800000191 10.033332825 10.133333206
10.866666794 10.033332825 10.133333206
10.933333397 10.033332825 10.133333206
11.000000000 10.033332825 10.133333206
10.000000000 10.083333015 10.133333206
10.066666603 10.083333015 10.133333206
10.133333206 10.083333015 10.133333206
10.199999809 10.083333015 10.133333206
10.266666412 10.083333015 10.133333206
10.333333015 10.083333015 10.133333206
10.399999619 10.083333015 10.133333206
10.466666222 10.083333015 10.133333206
10.533333778 10.083333015 10.133333206
10.600000381 10.083333015 10.133333206
10.666666985 10.083333015 10.133333206
10.733333588 10.083333015 10.133333206
10.800000191 10.083333015 10.133333206
10.866666794 10.083333015 10.133333206
10.933333397 10.083333015 10.133333206
11.000000000 10.083333015 10.133333206
10.000000000 10.133333206 10.133333206
10.066666603 10.133333206 10.133333206
10.133333206 10.133333206 10.133333206
10.199999809 10.133333206 10.133333206
10.266666412 10.133333206 10.133333206
10.333333015 10.133333206 10.133333206
10.399999619 10.133333206 10.133333206
10.466666222 10.133333206 10.133333206
10.533333778 10.133333206 10.133333206
10.600000381 10.133333206 10.133333206
10.666666985 10.133333206 10.133333206
10.733333588 10.133333206 10.133333206
10.800000191 10.133333206 10.133333206
10.866666794 10.133333206 10.133333206
10.933333397 10.133333206 10.133333206
11.000000000 10.133333206 10.133333206
10.000000000 10.183333397 10.133333206
10.066666603 10.183333397 10.133333206
10.133333206 10.183333397 10.133333206
10.199999809 10.183333397 10.133333206
10.266666412 10.183333397 10.133333206
10.333333015 10.183333397 10.133333206
10.399999619 10.183333397 10.133333206
10.466666222 10.183333397 10.133333206
10.533333778 10.183333397 10.133333206
10.600000381 10.183333397 10.133333206
10.666666985 10.183333397 10.133333206
10.733333588 10.183333397 10.133333206
10.800000191 10.183333397 10.133333206
10.866666794 10.183333397 10.133333206
10.933333397 10.183333397 10.133333206
11.000000000 10.183333397 10.133333206
10.000000000 10.233332634 10.133333206
10.066666603 10.233332634 10.133333206
10.133333206 10.233332634 10.133333206
10.199999809 10.233332634 10.133333206
10.266666412 10.233332634 10.133333206
10.333333015 10.233332634 10.133333206
10.399999619 10.233332634 10.133333206
10.466666222 10.233332634 10.133333206
10.533333778 10.233332634 10.133333206
10.600000381 10.233332634 10.133333206
10.666666985 10.233332634 10.133333206
10.733333588 10.233332634 10.133333206
10.800000191 10.233332634 10.133333206
10.866666794 10.233332634 10.133333206
10.933333397 10.233332634 10.133333206
11.000000000 10.233332634 10.133333206
10.000000000 10.283332825 10.133333206
10.066666603 10.283332825 10.133333206
10.133333206 10.283332825 10.133333206
10.199999809 10.283332825 10.133333206
10.266666412 10.283332825 10.133333206
10.333333015 10.283332825 10.133333206
10.399999619 10.283332825 10.133333206
10.466666222 10.283332825 10.133333206
10.533333778 10.283332825 10.133333206
10.600000381 10.283332825 10.133333206
10.666666985 10.283332825 10.133333206
10.733333588 10.283332825 10.133333206
10.800000191 10.283332825 10.133333206
10.866666794 10.283332825 10.133333206
10.933333397 10.283332825 10.133333206
11.000000000 10.283332825 10.133333206
10.000000000 10.333333015 10.133333206
10.066666603 10.333333015 10.133333206
10.133333206 10.333333015 10.133333206
