TEST_thumbGenerator/bin/data/LUTs/Sutro.cube
TITLE "16x16x16 Adobe/IRIDAS cube 3D LUT exported with GrossGrade v0.1.027.1 (beta) 64 bit"
DOMAIN_MIN 0 0 0
DOMAIN_MAX 1 1 1
LUT_3D_SIZE 16
0.196099997 0.027500000 0.090200000
0.204686657 0.035820004 0.097999997
0.230113342 0.052040003 0.097999997
0.279200017 0.072160006 0.116840012
0.323893368 0.087340005 0.122639999
0.375166684 0.107200012 0.133333340
0.447860032 0.134120017 0.156060010
0.502986670 0.154766664 0.166520000
0.559713304 0.172813326 0.182480007
0.603960037 0.186639994 0.195280001
0.648366690 0.202599987 0.209133327
0.670313358 0.210733324 0.213593334
0.694880009 0.218820006 0.221939996
0.713180006 0.223499998 0.227500007
0.721333325 0.231139988 0.231139988
0.729399979 0.235300004 0.231399998
0.200000003 0.071646675 0.098266661
0.204686657 0.071386673 0.097999997
0.237653330 0.083700001 0.102260001
0.280000031 0.093600012 0.109560005
0.322593331 0.114253342 0.124986678
0.381926686 0.137500003 0.142760009
0.448120028 0.160486683 0.160020009
0.507193327 0.183526665 0.170686662
0.563879967 0.203386664 0.184560001
0.606559992 0.217526674 0.197140008
0.644986629 0.227473333 0.205459997
0.671613336 0.239986658 0.213593334
0.695926726 0.251266658 0.225920007
0.713440001 0.252826661 0.227760002
0.721593320 0.259586662 0.231399983
0.729399979 0.263486654 0.231399998
0.201040000 0.101666674 0.095673338
0.213626668 0.105393343 0.095413335
0.241813347 0.112933345 0.103040002
0.280520022 0.127353355 0.113980018
0.332806706 0.152133346 0.130973339
0.388233364 0.170193344 0.143020019
0.453580052 0.195013359 0.162359998
0.510313332 0.217013344 0.172286659
0.561846614 0.235833332 0.184559986
0.608380020 0.254393339 0.201300010
0.646546721 0.263493329 0.207800001
0.671353340 0.276593357 0.218560010
0.695660055 0.278933376 0.225386679
0.716560006 0.284480006 0.230879992
0.728359997 0.295153320 0.237639979
0.732779980 0.292293340 0.230879992
0.208600000 0.154500023 0.114480004
0.223786697 0.159180015 0.111886673
0.255699992 0.162380025 0.123160005
0.283120006 0.165500015 0.122380003
0.329686701 0.185360029 0.131240010
0.385113358 0.203140020 0.143800005
0.453320056 0.232980028 0.165480003
0.506413341 0.251486689 0.173066661
0.564966679 0.272913337 0.185359985
0.606299996 0.285500020 0.196060002
0.647846699 0.299320012 0.208600000
0.670053363 0.306700021 0.214139998
0.692540050 0.316840023 0.221939996
0.716300011 0.323940009 0.226700008
0.724973321 0.332800031 0.234779984
0.730179965 0.334100008 0.232179999
0.224566668 0.216173351 0.125499994
0.246253341 0.221213356 0.127320006
0.277633369 0.225113362 0.130453333
0.300646693 0.222513363 0.128646672
0.328906655 0.221213341 0.127580002
0.388493329 0.246800020 0.147699997
0.453060031 0.269266695 0.161839992
0.507713377 0.294906676 0.173066661
0.565486670 0.310560018 0.187446669
0.605260015 0.330946684 0.199740008
0.648106694 0.343273371 0.210466653
0.674213350 0.350326687 0.217519999
0.692800045 0.357346684 0.222719997
0.714219987 0.366026670 0.227500007
0.719973326 0.367326677 0.230100021
0.730439961 0.373826683 0.232440010
0.239233345 0.282366693 0.139899999
0.262740016 0.290426672 0.144060001
0.293853343 0.293613374 0.147980005
0.319720000 0.292313337 0.146660000
0.351886690 0.295960009 0.147699997
0.388233364 0.296733350 0.150299996
0.450460047 0.313213348 0.164959997
0.511079967 0.341686696 0.175133333
0.564153314 0.359746695 0.187180012
0.604700029 0.375686675 0.198180020
0.647066712 0.388233364 0.209133342
0.671613336 0.395026684 0.215960011
0.695660055 0.409426659 0.224586666
0.715260029 0.411766678 0.226166666
0.721333325 0.416706681 0.231139988
0.729399979 0.420933366 0.227500007
0.265080035 0.368620068 0.157620013
0.284426689 0.373880029 0.160540015
0.312153339 0.377260059 0.163920000
0.341159999 0.375700086 0.164700001
0.370200038 0.375440061 0.162100017
0.410726696 0.380900055 0.166000009
0.453320056 0.372580051 0.161580011
0.508493304 0.394780040 0.172019988
0.563666642 0.413600028 0.186159983
0.604700029 0.429060042 0.196060002
0.648366690 0.444700003 0.211799994
0.671353340 0.450940043 0.214139998
0.695660055 0.460380048 0.224320009
0.713699996 0.466420025 0.228019997
0.723413348 0.473440051 0.231139988
0.731739998 0.477660030 0.229839996
0.280266672 0.432433367 0.170680001
0.298826665 0.432173342 0.170686662
0.328893334 0.436333358 0.173833340
0.356320024 0.436593384 0.172780007
0.387446672 0.436333358 0.174366668
0.425106704 0.437373340 0.171473339
0.472666681 0.438153356 0.174366668
0.512653351 0.439973354 0.176186666
0.566006660 0.458540052 0.189033329
0.608379960 0.476846695 0.202860013
0.644466639 0.488113344 0.207313329
0.674213350 0.505893350 0.218560010
0.694880009 0.519206703 0.225920007
0.718426704 0.528093338 0.231399998
0.724973321 0.534120023 0.235039994
0.729659975 0.536726654 0.229580000
0.296180010 0.509026647 0.182220012
0.318646669 0.512926638 0.184560001
0.344853342 0.511626661 0.184300005
0.371740013 0.513706684 0.184300005
0.405486703 0.515786648 0.188199997
0.444693327 0.513706625 0.188999996
0.490759999 0.512926638 0.186639994
0.526793361 0.512926638 0.186120003
0.565486670 0.512666643 0.188773319
0.608380020 0.527593315 0.199220002
0.646286666 0.540373385 0.209933326
0.671353340 0.550873280 0.216999993
0.698080003 0.559713364 0.225920007
0.715260029 0.564686656 0.229580000
0.723413348 0.567353308 0.229580000
0.729399979 0.573073328 0.229580000
0.309019983 0.555299997 0.196880013
0.331226647 0.561806679 0.201560006
0.357639998 0.561540008 0.203120008
0.390599996 0.565500021 0.203120008
0.421406686 0.562873304 0.203120008
0.460913360 0.565500021 0.203380004
0.506680071 0.563939989 0.203120008
0.541193366 0.563939989 0.201040000
0.581446648 0.565500021 0.204680011
0.610200047 0.562380016 0.201560020
0.644726694 0.571260035 0.208066672
0.677146673 0.583813310 0.219080001
0.695680022 0.593720019 0.226699993
0.713180006 0.601026654 0.228540003
0.718933344 0.601559997 0.229059994
0.729399979 0.611760020 0.231399998
0.320266664 0.602600038 0.209166646
0.340946674 0.607866704 0.213066652
0.364973366 0.604433358 0.210466653
0.397940010 0.607066691 0.213066652
0.433993340 0.606266737 0.211506650
0.470600009 0.607866704 0.210466653
0.518940091 0.607866704 0.210466653
0.554766715 0.607866704 0.208366662
0.594753385 0.607866645 0.213880002
0.620146692 0.605526567 0.210466653
0.647066653 0.606566668 0.211800009
0.673953354 0.611506701 0.215700001
0.694880009 0.621986687 0.223253340
0.713180006 0.627466679 0.227500007
0.723933339 0.633706689 0.231399998
0.730699956 0.640500009 0.231399998
0.329400003 0.636079967 0.215700001
0.349006653 0.640246689 0.218820006
0.378826678 0.642913342 0.221420005
0.407820016 0.641020000 0.220380008
0.438706696 0.641046703 0.219600007
0.474273354 0.642353296 0.217000008
0.525480032 0.643953323 0.222460002
0.563913345 0.642086685 0.220380008
0.604446650 0.644193292 0.222460002
0.628499985 0.640500009 0.219080001
0.655420005 0.639726639 0.217260018
0.677146673 0.642059982 0.222460002
0.697813392 0.647073388 0.225653350
0.713180006 0.652286649 0.227500007
0.722113311 0.656720042 0.232179999
0.726539969 0.660619974 0.228540003
0.336500019 0.661140025 0.226700008
0.356626689 0.664600015 0.226180002
0.380913377 0.664860010 0.225920007
0.410960019 0.664340019 0.226700008
0.450460047 0.665120006 0.226700008
0.488133341 0.665120006 0.226700008
0.534120083 0.666680038 0.226700008
0.575146675 0.664340019 0.226700008
0.610453367 0.664340019 0.226700008
0.640039980 0.667460024 0.229039997
0.664586723 0.667720020 0.229300007
0.679513335 0.665120006 0.226699993
0.695660055 0.665120006 0.227500007
0.716300011 0.669019997 0.227500007
0.721599996 0.672940016 0.231399998
0.729399979 0.672940016 0.230619997
0.337819993 0.677879989 0.228019997
0.361846656 0.681866646 0.228019997
0.386393338 0.681866646 0.228019997
0.415459991 0.682646632 0.228799999
0.455186665 0.682386637 0.228540003
0.492833346 0.685246646 0.231399998
0.541140020 0.685246646 0.231399998
0.583826661 0.685246646 0.231399998
0.615960002 0.681866646 0.229320005
0.644720018 0.685246646 0.231399998
0.666666687 0.685246646 0.231399998
0.684193313 0.684726655 0.230879992
0.701200008 0.685246646 0.231399998
0.713699996 0.681866646 0.228019997
0.721599996 0.685779989 0.231659979
0.729919970 0.685779989 0.228019997
0.341199994 0.693840027 0.231399998
0.365746647 0.697740018 0.235040009
0.393759996 0.697740018 0.235300004
0.422480017 0.697740018 0.236080006
0.459086686 0.700406671 0.235040009
0.497773379 0.697740018 0.235040009
0.542740047 0.697740018 0.235040009
0.589286685 0.699346721 0.236860007
0.623553336 0.697740018 0.233220011
0.649920046 0.697740018 0.232700005
0.674499989 0.697740018 0.235300004
0.691760004 0.697740018 0.235040009
0.708760023 0.697740018 0.235819995
0.720806658 0.697740018 0.234780014
0.725239992 0.697480023 0.235040009
0.733039975 0.697740018 0.235040009
0.345099986 0.702000022 0.231399998
0.369646668 0.705900013 0.235300004
0.397660017 0.705900013 0.235300004
0.430620015 0.705900013 0.236080006
0.462986678 0.705900013 0.235300004
0.501933336 0.709800005 0.235300004
0.550600052 0.705900013 0.235300004
0.593706667 0.704079986 0.235300004
0.625893354 0.705900013 0.235300004
0.651780009 0.703559995 0.232960001
0.675799966 0.705900013 0.235300004
0.695919991 0.705900013 0.235300004
0.712140024 0.705900013 0.235300004
0.724979997 0.705900013 0.235300004
0.729139984 0.705900013 0.235300004
0.733299971 0.705900013 0.235300004
0.203639999 0.039726667 0.099573337
0.208846673 0.043626666 0.103566669
0.237133339 0.052040003 0.110846668
0.278160036 0.068260007 0.122640006
0.327606678 0.087600008 0.131766662
0.376726687 0.108533345 0.146953359
0.448120028 0.134380013 0.167046666
0.502986670 0.153466672 0.179366663
0.559453309 0.171253309 0.198966652
0.605780005 0.186906666 0.211246669
0.645506680 0.198959991 0.222986668
0.671613336 0.212553337 0.234006673
0.691760063 0.218300000 0.238426670
0.712660015 0.223766670 0.240766659
0.717339993 0.227500007 0.243626669
0.725499988 0.231399998 0.248139992
0.203899994 0.071646675 0.106679998
0.213366657 0.076333337 0.110846668
0.249446660 0.088646665 0.122380011
0.287880003 0.101926677 0.124726683
0.336993366 0.122313343 0.138533339
0.391620010 0.145366684 0.157940000
0.459106714 0.169913352 0.175666675
0.516873360 0.191633344 0.189033344
0.572039962 0.213580012 0.209419996
0.616706669 0.226166666 0.219873339
0.654093385 0.239733338 0.231666654
0.684713304 0.254126668 0.243633345
0.704840004 0.259593368 0.247866690
0.721326649 0.264533311 0.252566665
0.733306646 0.271906674 0.256206661
0.738079965 0.272426665 0.260373324
0.200520009 0.108513340 0.114226669
0.218053341 0.117626674 0.119180009
0.250233322 0.124993347 0.122906670
0.291260004 0.138533339 0.132540017
0.336993366 0.158140019 0.145106673
0.392140001 0.184053347 0.164706662
0.459886730 0.206806690 0.182226658
0.515833318 0.226413354 0.192153335
0.574379981 0.249926671 0.217006668
0.614626646 0.258819997 0.223513350
0.658026636 0.276340008 0.237126678
0.681333303 0.286540002 0.247073337
0.711626709 0.292553335 0.254646689
0.721846640 0.297239989 0.256466687
0.734093308 0.304866642 0.260893315
0.745620012 0.305133343 0.264539987
0.213100001 0.154500023 0.119700015
0.234006673 0.166546673 0.127326667
0.266893327 0.171500027 0.132280007
0.294640005 0.178000018 0.132286668
0.340633333 0.191886708 0.145640016
0.393706679 0.216180027 0.161066666
0.463806689 0.238446727 0.176966682
0.521293342 0.262220025 0.190333351
0.572819948 0.280799985 0.211499989
0.620400012 0.296206683 0.222746670
0.658286631 0.311126679 0.233746663
0.688120008 0.325753331 0.244166672
0.707440019 0.336446673 0.251786679
0.722106636 0.338006675 0.256466687
0.734099984 0.345380008 0.260633320
0.744840026 0.352140009 0.266946644
0.220640004 0.215913355 0.131766662
0.254386663 0.232393354 0.144846678
0.282073349 0.233180031 0.145633355
0.307999998 0.230840027 0.146166682
0.340373367 0.232920036 0.145366684
0.395520002 0.259613335 0.163406670
0.461460024 0.280266702 0.176446676
0.521033347 0.306653351 0.196106687
0.574373305 0.324440002 0.212846667
0.617226660 0.338553339 0.223513350
0.660626650 0.354493350 0.236086681
0.683933318 0.366553336 0.244693339
0.711620033 0.373573363 0.253606677
0.725239992 0.377233356 0.256466687
0.731506646 0.383540034 0.257246703
0.744319975 0.389786661 0.262966663
0.241833329 0.284966707 0.150046676
0.273206681 0.299860030 0.161846653
0.298553318 0.302226692 0.163666651
0.327600002 0.305346668 0.166266665
0.360240012 0.305086672 0.165746674
0.393986672 0.303786665 0.161846668
0.464073390 0.326780021 0.180666670
0.520006657 0.350340009 0.194233343
0.570433319 0.369680017 0.211500004
0.616733313 0.385600030 0.226686671
0.657759964 0.398446679 0.237646684
0.684199989 0.409140021 0.246559992
0.709266663 0.423280030 0.252026707
0.722626626 0.427700043 0.255946696
0.733826637 0.435586691 0.260113329
0.744319975 0.438713372 0.264273316
0.265599996 0.365460038 0.166786671
0.293326646 0.378040045 0.177806661
0.318946660 0.385846704 0.181966662
0.347466677 0.385586709 0.182746664
0.378806680 0.386106700 0.180926681
0.418280005 0.386106700 0.183526680
0.466680050 0.382206708 0.181966662
0.518173337 0.402333379 0.193713352
0.571253300 0.420120031 0.208886668
0.615926683 0.440026700 0.223513350
0.656986713 0.455146700 0.234526679
0.682633281 0.466940045 0.242593333
0.710060000 0.477906734 0.254386663
0.723666668 0.482346743 0.258553356
0.736219943 0.491486728 0.264013320
0.746659994 0.493306726 0.265346646
0.280266672 0.430353343 0.178793341
0.307206661 0.444713354 0.189293340
0.337253332 0.454633355 0.197406679
0.367839992 0.455413342 0.196313336
0.400813311 0.454373360 0.198706672
0.438193351 0.455680043 0.198706672
0.486286670 0.452293336 0.200266674
0.522633374 0.454373360 0.200006679
0.575153291 0.470593333 0.214926675
0.618313313 0.489419997 0.227726683
0.659326673 0.510320008 0.237906665
0.685753345 0.525233328 0.245739996
0.711360037 0.535426676 0.254386663
0.725239992 0.539593339 0.258026689
0.731746674 0.545359969 0.261673331
0.741459966 0.549566686 0.264013320
0.294626653 0.506946683 0.199486658
0.327066690 0.523119986 0.211499989
0.356853336 0.528886616 0.216746658
0.385619998 0.528106630 0.214926675
0.417760015 0.527846634 0.215186656
0.454366684 0.526026607 0.213320017
0.501946747 0.528626621 0.214926675
0.539073348 0.528366625 0.214620009
0.581446648 0.528886676 0.217006668
0.618006647 0.534913361 0.223253354
0.658026695 0.553219974 0.237126678
0.686533332 0.563879967 0.247073323
0.710046709 0.571259975 0.252806723
0.723146677 0.576719999 0.257766694
0.732266665 0.585386634 0.258553326
0.743539989 0.587473273 0.264320016
0.306679994 0.555040002 0.214926660
0.338046640 0.571786702 0.225906670
0.365493357 0.573866665 0.227466673
0.397380024 0.575686693 0.230066672
0.427973360 0.572826684 0.227726683
0.469553351 0.574126661 0.228506669
0.516346693 0.575686693 0.229546666
0.553993344 0.575946689 0.229806677
0.589553356 0.575426698 0.229286671
0.620399952 0.577246666 0.231146663
0.654093385 0.587706625 0.237646669
0.683153331 0.596846700 0.249420002
0.707460046 0.607080042 0.250226676
0.721846640 0.613846660 0.254653335
0.733306646 0.621473312 0.259846687
0.745100021 0.625379980 0.263746649
0.316300005 0.602340043 0.222986668
0.345626652 0.618793368 0.231666669
0.377780020 0.623306632 0.235826671
0.410426676 0.623306632 0.238166645
0.441053331 0.623046637 0.236606672
0.479220033 0.623046637 0.235306680
0.528886676 0.624346673 0.237906665
0.566540003 0.623046637 0.237126678
0.608373344 0.624346673 0.239986658
0.636053324 0.622786582 0.238946661
0.659326732 0.620646656 0.235566676
0.681333303 0.627206683 0.242326677
0.706420004 0.635026634 0.249186665
0.726019979 0.640766680 0.257246703
0.733826637 0.647846699 0.260373324
0.749000013 0.653826714 0.266413331
0.329140007 0.635013342 0.233486667
0.358206689 0.651233315 0.245740011
0.386393338 0.655660033 0.248666659
0.413846672 0.655400038 0.246793345
0.451240033 0.656466663 0.248926669
0.493353367 0.658286691 0.248899996
0.540366709 0.656466663 0.249966666
0.580873311 0.657246709 0.249966666
0.617760003 0.658546686 0.249966666
0.645240009 0.656466663 0.249706656
0.671093345 0.656466663 0.249706656
0.685239971 0.656466663 0.248926669
0.706939995 0.658546686 0.252566665
0.722639978 0.664593339 0.256733358
0.734086633 0.669279993 0.261413336
0.745360017 0.672946692 0.267746657
0.333566666 0.661406696 0.244146675
0.361586690 0.673466682 0.251786649
0.393746674 0.680559993 0.255686700
0.425606698 0.680559993 0.254906684
0.460133344 0.678426683 0.253873348
0.499333352 0.681599975 0.255686700
0.548240006 0.680559993 0.257246703
0.592146695 0.681339979 0.259326696
0.624313354 0.679780006 0.258546680
0.653580010 0.680559993 0.256206691
0.676886618 0.680559993 0.258026719
0.694106698 0.681339979 0.256726712
0.710560024 0.680299997 0.257506669
0.727566659 0.681339979 0.259593338
0.733046651 0.684979975 0.262973338
0.745360017 0.688899994 0.270866662
0.337033331 0.681079984 0.243886665
0.369386673 0.693586707 0.255946696
0.398186684 0.697486699 0.259853333
0.431146681 0.697486699 0.257253349
0.463513345 0.697486699 0.256213367
0.501420021 0.698553383 0.258813351
0.552420020 0.696966708 0.259333342
0.595273376 0.696966708 0.257773340
0.628759980 0.697486699 0.258553326
0.658026695 0.697486699 0.259586692
0.682626665 0.698286712 0.260106683
0.701193333 0.700153351 0.262186646
0.716046691 0.697226703 0.262453347
0.725499988 0.697486699 0.259853333
0.733566642 0.697486699 0.260373324
0.741719961 0.698266685 0.264273316
0.344839990 0.693840027 0.251786649
0.373813331 0.706420004 0.264013320
0.405473322 0.713180006 0.267479986
0.435320020 0.710579991 0.265066653
0.471919984 0.709800005 0.267479986
0.511386693 0.712400019 0.266413301
0.557366729 0.710326672 0.266406655
0.599473357 0.711359978 0.267173320
0.634480059 0.709800005 0.265880018
0.663540006 0.710326672 0.265346646
0.690193355 0.710060000 0.267479986
0.703040004 0.710060000 0.265073299
0.720799983 0.713180006 0.270339966
0.729399979 0.709540009 0.267479986
0.737293303 0.709800005 0.267480016
0.748740017 0.710326672 0.271646678
0.345099986 0.701733351 0.252046645
0.377806693 0.717866659 0.267746687
0.405733317 0.718386650 0.267746657
0.433240026 0.715799987 0.265066653
0.473226666 0.715526640 0.265073359
0.512693346 0.714746654 0.264013320
0.561006725 0.718646646 0.267746657
0.598133326 0.718386650 0.265613317
0.636346698 0.718386650 0.267746657
0.660366654 0.714746654 0.261933327
0.686786652 0.714746654 0.264013320
0.711879969 0.723653316 0.270606637
0.720539987 0.717606664 0.264273316
0.729139984 0.718386650 0.264013320
0.733566642 0.718126655 0.263753325
0.741719961 0.714746654 0.264013320
0.201040000 0.054900002 0.122640006
0.209900007 0.054900002 0.123166673
0.241293341 0.055420004 0.130453333
0.282320023 0.071120001 0.138860002
0.324933350 0.086040005 0.152666688
0.374386668 0.101933345 0.161006674
0.447326690 0.135160014 0.189540029
0.502986670 0.153726667 0.203653350
0.559713304 0.172553316 0.225113317
0.603960037 0.185353339 0.237393335
0.642633319 0.203379989 0.252559990
0.671353340 0.210733324 0.259333313
0.693060040 0.219340011 0.266680002
0.712140024 0.223499998 0.271640003
0.720279992 0.224299997 0.275553346
0.729399979 0.231399998 0.283440024
0.208066672 0.083700001 0.129920006
0.225860000 0.088646680 0.132273346
0.246500015 0.092286669 0.131753340
0.284420013 0.101666674 0.137493342
0.335413337 0.127586663 0.159506664
0.389286697 0.145366669 0.174860016
0.455406725 0.170440003 0.194493353
0.514479995 0.195273340 0.213320017
0.572299957 0.213060006 0.235573322
0.617746651 0.228246674 0.248106673
0.655946672 0.243639991 0.264019996
0.683933318 0.255426645 0.272433311
0.708226681 0.259073317 0.276080042
0.722106636 0.264800012 0.281800002
0.729926646 0.272166669 0.288913339
0.741979957 0.272686660 0.293599993
0.200520009 0.108513340 0.126540005
0.218313336 0.117626674 0.132013336
0.259086698 0.134106681 0.144853354
0.300119996 0.150333345 0.157093346
0.344286680 0.171500012 0.170980021
0.404206693 0.193200022 0.190066680
0.477673352 0.222486690 0.214613363
0.532526672 0.244460016 0.234793350
0.594246626 0.262726665 0.249406680
0.635793388 0.276606679 0.261946678
0.671880007 0.290226698 0.274526656
0.700933337 0.298286676 0.282586694
0.723659992 0.310573339 0.295946658
0.734353304 0.317366660 0.301666707
0.750053346 0.328893334 0.310346693
0.754473329 0.329153359 0.314506650
0.209380001 0.155020028 0.132540002
0.233226672 0.166286677 0.140693352
0.274253339 0.180353358 0.153453335
0.300373316 0.187720045 0.154493362
0.353206664 0.210966691 0.173833355
0.405766696 0.227973372 0.186413333
0.476560056 0.255133361 0.213313371
0.534126699 0.278693348 0.234013349
0.587700009 0.298299998 0.252526671
0.633193314 0.312953323 0.266673326
0.671880007 0.330720007 0.281013340
0.700673342 0.340413332 0.291773349
0.726779997 0.351633340 0.302506626
0.740146637 0.354233354 0.304853350
0.749533355 0.360813320 0.309293360
0.761059999 0.366293341 0.317626655
0.222226679 0.216173351 0.151613340
0.253346652 0.232653365 0.160033345
0.289953351 0.245753363 0.168873340
0.319466650 0.248613358 0.169140011
0.352420002 0.252526700 0.172786683
0.406033367 0.269533336 0.189013347
0.476300031 0.298313349 0.214613363
0.530953407 0.316893369 0.228760019
0.590606630 0.342480004 0.250446677
0.635793388 0.357113361 0.265100002
0.675553322 0.371239990 0.281026661
0.704313338 0.385080010 0.288393348
0.726520002 0.392660022 0.297246695
0.737286627 0.395000041 0.299326658
0.749793351 0.403160036 0.306439996
0.757406652 0.410180032 0.317886651
0.242353335 0.284966707 0.168353334
0.271126688 0.300920010 0.177220002
0.305600017 0.312380016 0.185906678
0.341413349 0.318706691 0.196046680
0.371773392 0.313953370 0.193446696
0.407326698 0.315846682 0.188766688
0.479240030 0.342733353 0.215393364
0.535180032 0.365213394 0.233960003
0.592426658 0.389286667 0.254926652
0.637113333 0.405246675 0.266386658
0.674499989 0.418820024 0.281826705
0.704833329 0.433226675 0.290746719
0.724439979 0.445226669 0.300906688
0.738586605 0.448886693 0.303766668
0.749793351 0.452526689 0.307486683
0.757939994 0.459106684 0.315806687
0.265340000 0.365460038 0.185613349
0.290986687 0.377780050 0.194233358
0.333573341 0.398433357 0.214093357
0.359719992 0.398953378 0.214873359
0.394766688 0.397133380 0.216173351
0.430593371 0.398680031 0.217013329
0.479233384 0.401293397 0.220393345
0.533346653 0.418820053 0.233753338
0.592946649 0.442633361 0.253873318
0.634519994 0.459853381 0.262493342
0.671099961 0.475300074 0.277126700
0.701713324 0.489693403 0.287846684
0.724179983 0.501440048 0.295946658
0.740666628 0.507700026 0.302186698
0.751353383 0.512913406 0.306959987
0.757939994 0.517680049 0.315026671
0.280266672 0.428273350 0.204966679
0.309813350 0.448653340 0.216760010
0.346933335 0.466433346 0.231620014
0.382240027 0.472413361 0.239993349
0.413580030 0.468513340 0.235053346
0.454933345 0.475273341 0.241813347
0.501953363 0.475286663 0.241046682
0.543500066 0.473466694 0.238173336
0.591646671 0.491773337 0.254926652
0.633700013 0.510586679 0.265100002
0.673439980 0.529406667 0.281046689
0.702233315 0.538820088 0.288913339
0.724699974 0.553460002 0.300920039
0.737546682 0.558680058 0.305880040
0.750833392 0.565213323 0.313726664
0.755806684 0.569440007 0.318666697
0.296493322 0.506413341 0.225633323
0.327586651 0.523126662 0.238433316
0.365493357 0.542466640 0.252313346
0.402100027 0.546673298 0.256213367
0.435846686 0.547193289 0.257266670
0.471106678 0.546126664 0.254146665
0.518433332 0.546379983 0.253886670
0.555820048 0.545846641 0.252799988
0.595806658 0.545326710 0.254393339
0.634753346 0.551913321 0.264553338
0.675033391 0.571266651 0.281546652
0.702233315 0.580646694 0.287846684
0.723140001 0.594506681 0.297766715
0.736473382 0.600013316 0.303266704
0.752653360 0.607333362 0.312146634
0.757939994 0.609946668 0.312686682
0.310060024 0.559199989 0.239213333
0.339086682 0.573606670 0.250186682
0.378293335 0.592693329 0.267193347
0.415160000 0.596853316 0.269793332
0.446793348 0.596073329 0.267193347
0.484213322 0.597373366 0.267973334
