TEST_thumbGenerator/bin/data/LUTs/Sutro.cube
TITLE "16x16x16 Adobe/IRIDAS cube 3D LUT exported with GrossGrade v0.1.027.1 (beta) 64 bit"
DOMAIN_MIN 0 0 0
DOMAIN_MAX 1 1 1
LUT_3D_SIZE 6
0.196099997 0.027500000 0.090200000
0.279200017 0.072160006 0.116840012
0.447860032 0.134120017 0.156060010
0.603960037 0.186639994 0.195280001
0.694880009 0.218820006 0.221939996
0.729399979 0.235300004 0.231399998
0.208600000 0.154500023 0.114480004
0.283120006 0.165500015 0.122380003
0.453320056 0.232980028 0.165480003
0.606299996 0.285500020 0.196060002
0.692540050 0.316840023 0.221939996
0.730179965 0.334100008 0.232179999
0.265080035 0.368620068 0.157620013
0.341159999 0.375700086 0.164700001
0.453320056 0.372580051 0.161580011
0.604700029 0.429060042 0.196060002
0.695660055 0.460380048 0.224320009
0.731739998 0.477660030 0.229839996
0.309019983 0.555299997 0.196880013
0.390599996 0.565500021 0.203120008
0.506680071 0.563939989 0.203120008
0.610200047 0.562380016 0.201560020
0.695680022 0.593720019 0.226699993
0.729399979 0.611760020 0.231399998
0.336500019 0.661140025 0.226700008
0.410960019 0.664340019 0.226700008
0.534120083 0.666680038 0.226700008
0.640039980 0.667460024 0.229039997
0.695660055 0.665120006 0.227500007
0.729399979 0.672940016 0.230619997
0.345099986 0.702000022 0.231399998
0.430620015 0.705900013 0.236080006
0.550600052 0.705900013 0.235300004
0.651780009 0.703559995 0.232960001
0.712140024 0.705900013 0.235300004
0.733299971 0.705900013 0.235300004
0.210999995 0.071380004 0.163139999
0.279200017 0.069040008 0.161600009
0.447860032 0.134900019 0.216440037
0.603960037 0.186639994 0.270620018
0.693320036 0.218820006 0.299600035
0.729399979 0.231399998 0.323100030
0.209380001 0.152160034 0.156820014
0.317640007 0.201600030 0.196840033
0.490980089 0.273700058 0.261180013
0.654100060 0.335680038 0.322340012
0.737280011 0.367860019 0.361580044
0.771740019 0.382760018 0.372540027
0.261960000 0.362340033 0.213320047
0.372560054 0.415700108 0.261200041
0.497280061 0.423500061 0.269000024
0.650979996 0.480760038 0.318420023
0.738059998 0.526260078 0.357640058
0.777260005 0.545080066 0.378780037
0.306679994 0.557640016 0.270579994
0.427440017 0.614899993 0.327060044
0.550580025 0.618800044 0.327060044
0.655660033 0.618800044 0.333340019
0.742740035 0.651760042 0.363139987
0.776460052 0.665879965 0.379560024
0.336500019 0.664340019 0.309020042
0.459620029 0.710579991 0.363160044
0.584280014 0.718400061 0.363960028
0.688620031 0.719999969 0.366300017
0.745100021 0.720020056 0.366300017
0.778060019 0.729399979 0.378000021
0.342759997 0.702000022 0.321540028
0.468200028 0.760820031 0.369420052
0.596860051 0.767840028 0.380360007
0.698060036 0.763940036 0.375660032
0.749020040 0.765500009 0.378000051
0.772520006 0.763940036 0.379560024
0.267420024 0.135680020 0.367020071
0.337260008 0.135680020 0.364700049
0.452540010 0.135680020 0.365460038
0.603960037 0.187439993 0.423540026
0.693320036 0.220379993 0.454920053
0.729399979 0.229060009 0.473700047
0.265859991 0.225120038 0.363120049
0.374120057 0.276100010 0.416460097
0.496480048 0.277680010 0.419600040
0.656440020 0.335680008 0.481560051
0.739619970 0.369420022 0.518440068
0.773299992 0.378000021 0.530160069
0.265080035 0.366280049 0.360780060
0.377240032 0.420380056 0.417260081
0.562340021 0.504360080 0.496460080
0.723160028 0.572540045 0.567060113
0.809400022 0.609440088 0.601540089
0.840759993 0.624320090 0.616460025
0.305079997 0.556859970 0.418820024
0.425880015 0.613340020 0.479980052
0.625920057 0.695699990 0.570180058
0.729400098 0.696480036 0.573360085
0.811760008 0.729400098 0.604740024
0.841580033 0.745880008 0.619580030
0.334120035 0.661960006 0.451760054
0.458039999 0.714480042 0.520780087
0.654880047 0.795300066 0.603140056
0.757640064 0.800800085 0.608640015
0.816460013 0.801580071 0.614120066
0.842360020 0.806280017 0.620360017
0.345099986 0.699600041 0.480000049
0.470600009 0.766280055 0.538040102
0.665899992 0.832960010 0.617240012
0.767859995 0.835299969 0.617240012
0.821159959 0.836080015 0.622760057
0.846260011 0.840020061 0.626660049
0.308239996 0.191380009 0.545060039
0.385879993 0.194539994 0.549840033
0.502720058 0.192939997 0.552960038
0.606299996 0.190600008 0.549060047
0.692540050 0.218820006 0.575680017
0.729399979 0.233740002 0.589819968
0.308239996 0.284720033 0.548260033
0.425880045 0.334900022 0.592960000
0.551400065 0.341160029 0.600780070
0.655659974 0.338020027 0.599200070
0.737280011 0.369420022 0.630580008
0.771740019 0.382760018 0.643119991
0.305900007 0.424320042 0.547460020
0.426660031 0.482360065 0.595300078
0.620360076 0.573320091 0.671380043
0.721599996 0.574140072 0.668260098
0.810200036 0.612560034 0.700399995
0.838420033 0.624320090 0.712180018
0.305900007 0.556860030 0.547460020
0.426660031 0.616460025 0.599979997
0.625100017 0.695680082 0.672160029
0.781199992 0.759979963 0.731760025
0.855660081 0.790579975 0.759980023
0.890200019 0.801560044 0.775680006
0.334100008 0.661940038 0.580379963
0.458040029 0.712920070 0.632160068
0.653320014 0.794520020 0.701179981
0.809419990 0.854100049 0.759980023
0.861140013 0.858020008 0.763100028
0.894100010 0.866680026 0.778800011
0.345099986 0.699600041 0.587480009
0.467420042 0.765500009 0.645500004
0.667460024 0.833739996 0.713699996
0.823559999 0.898840010 0.780359983
0.868239999 0.900420010 0.778020024
0.897280037 0.897280037 0.777240038
0.333299994 0.219600007 0.633740008
0.410939991 0.222719997 0.634519994
0.527079999 0.222719997 0.635299981
0.632939994 0.221940011 0.632939994
0.695660055 0.221939996 0.632939994
0.729399979 0.231399998 0.641540051
0.327840000 0.314500004 0.628259957
0.450180024 0.367860049 0.679980040
0.579600036 0.370980024 0.683160007
0.683160067 0.370980024 0.679980040
0.734880030 0.370980024 0.682380021
0.769400001 0.380360007 0.689440012
0.333299994 0.461180061 0.634519994
0.452580035 0.521560073 0.679199994
0.648640037 0.606320024 0.750580013
0.750600100 0.611780047 0.753740072
0.809400022 0.614120066 0.756839991
0.837639987 0.622720063 0.767820001
0.333299994 0.589039981 0.631399989
0.453360051 0.645500004 0.680000007
0.651760042 0.720780015 0.751360059
0.806280017 0.787460029 0.804679990
0.858020008 0.792160034 0.810980022
0.896440029 0.805519998 0.823559999
0.336500019 0.661140025 0.636860013
0.458840042 0.712920010 0.682380021
0.652540088 0.795300066 0.753720045
0.811760008 0.857219994 0.814119995
0.890180051 0.890180051 0.839980066
0.923139989 0.898860037 0.848640025
0.345099986 0.702000022 0.646300018
0.468219995 0.763920009 0.695680022
0.665900052 0.832960010 0.765479982
0.822759986 0.900400043 0.822780013
0.899640024 0.925499976 0.852540016
0.924719989 0.922379971 0.849420011
0.341199994 0.231399998 0.666700006
0.423520029 0.235300004 0.670599997
0.543540001 0.233740002 0.672940016
0.652520001 0.235300004 0.670599997
0.708240032 0.235300004 0.674499989
0.729399979 0.235300004 0.670599997
0.345099986 0.329420030 0.663500011
0.464300007 0.378780037 0.709039986
0.594500005 0.381180048 0.716820002
0.697280049 0.378780037 0.715279996
0.749020040 0.379560024 0.715279996
0.770179987 0.379560024 0.711359978
0.339639992 0.473700047 0.665099978
0.466640025 0.538040042 0.714479983
0.659620047 0.622759998 0.783519983
0.763140023 0.626660049 0.789800048
0.819640040 0.627480090 0.791360021
0.842360020 0.625920057 0.787460029
0.341199994 0.605520010 0.666700006
0.465860009 0.664320052 0.713719964
0.662780046 0.735700011 0.785860062
0.813320041 0.798400044 0.833739996
0.866659999 0.803160012 0.839980006
0.894879997 0.805519998 0.841540039
0.341199994 0.665120006 0.665899992
0.468200028 0.722360015 0.716059983
0.665120065 0.807060063 0.789020061
0.817219973 0.868219972 0.839980006
0.899640024 0.899640024 0.872940004
0.927840054 0.903540015 0.877620041
0.345099986 0.702000022 0.670599997
0.468980044 0.763140023 0.716840029
0.665900052 0.834519982 0.789800048
0.821219981 0.898840010 0.843940020
0.900420010 0.928620040 0.873719990
0.929400027 0.933300018 0.878400028
