TEST_thumbGenerator/bin/data/LUTs/Walden.cube
TITLE "16x16x16 Adobe/IRIDAS cube 3D LUT exported with GrossGrade v0.1.027.1 (beta) 64 bit"
DOMAIN_MIN 0 0 0
DOMAIN_MAX 1 1 1
LUT_3D_SIZE 16
0.000000000 0.031399999 0.058800001
0.000260001 0.039200000 0.074760005
0.021173337 0.043633334 0.082400002
0.052580021 0.055680003 0.088640012
0.096466683 0.062700003 0.101999998
0.145133346 0.073200010 0.111100003
0.211780056 0.087080017 0.130220011
0.284993351 0.099606670 0.144580007
0.383786619 0.119733334 0.168859988
0.481600016 0.130180001 0.181180000
0.596099973 0.159466654 0.214366645
0.674780011 0.180113345 0.233973339
0.742720008 0.191400021 0.260359973
0.804146707 0.221406698 0.292006701
0.845266581 0.241793290 0.312393278
0.874499977 0.262699991 0.329400003
0.003639999 0.059586670 0.066960000
0.000260001 0.059846669 0.071120009
0.021173337 0.060900006 0.079193339
0.051800020 0.075806670 0.084220007
0.094913356 0.087346680 0.098286681
0.144286692 0.101680011 0.108760007
0.218546718 0.118166685 0.129146680
0.297266692 0.136206672 0.148739994
0.384833276 0.155040011 0.167566657
0.489920020 0.178546667 0.189300001
0.603153288 0.205473319 0.217526659
0.680006683 0.228780016 0.240246668
0.749040008 0.249686658 0.263040006
0.801026702 0.278400034 0.288626701
0.845526576 0.299046636 0.313179940
0.874759972 0.319433361 0.333826661
0.000000000 0.088393338 0.078933336
0.000786669 0.088653341 0.078926668
0.021693340 0.089433342 0.082920000
0.053633358 0.102193348 0.089173347
0.095180027 0.118940011 0.101146676
0.150853351 0.134646669 0.115533337
0.221920058 0.151900023 0.132560015
0.299080014 0.176720008 0.154506668
0.397099972 0.200533330 0.174373314
0.499073356 0.225606680 0.196620002
0.601819992 0.250719965 0.220133319
0.677926660 0.278946668 0.240513325
0.752680004 0.305113345 0.263819993
0.801806688 0.334873378 0.286286712
0.849433243 0.359506637 0.316826642
0.878933370 0.380673349 0.338340014
0.000000000 0.130200014 0.087860003
0.002606675 0.128126696 0.085000016
0.027433345 0.128133357 0.085260011
0.056480020 0.138020024 0.088640012
0.099353358 0.152946696 0.102706678
0.154233351 0.168640018 0.113200016
0.224320039 0.191380039 0.132560015
0.296693355 0.212026700 0.149306685
0.397619963 0.242360011 0.171773314
0.496460021 0.262740016 0.189040005
0.609699905 0.302766651 0.221713319
0.680786669 0.327053338 0.239979997
0.749040008 0.354500026 0.267459989
0.804666698 0.385606706 0.295140028
0.843373239 0.411993295 0.316559970
0.876079977 0.437660038 0.338079989
0.000000000 0.175933346 0.101999998
0.013626671 0.176973358 0.099066667
0.038433343 0.181393355 0.104080006
0.069506697 0.186426684 0.105640009
0.102473348 0.190853372 0.109020010
0.159726679 0.217220023 0.124460004
0.222760037 0.230846688 0.134900004
0.298273355 0.255393356 0.151386678
0.398446620 0.284979999 0.172813311
0.494900018 0.312413365 0.192939997
0.608393252 0.350293338 0.224059984
0.683386683 0.377540022 0.240806669
0.751399994 0.404973358 0.267199963
0.804146707 0.435573369 0.291500002
0.844199896 0.463526607 0.315253288
0.878400028 0.489706695 0.337300003
0.001300002 0.226166680 0.113733344
0.019873342 0.234486699 0.114253342
0.047293343 0.237933353 0.117633343
0.081053354 0.246546686 0.124980010
0.126500025 0.255933374 0.129166678
0.167333350 0.261466682 0.132033333
0.232160047 0.273953348 0.145359993
0.304073364 0.295433342 0.156066656
0.400006622 0.327826649 0.176713318
0.491479993 0.355300039 0.191120014
0.605233252 0.394766659 0.220933333
0.683646679 0.425846696 0.244213343
0.749040008 0.454913378 0.265899986
0.805186689 0.488660067 0.289160013
0.847866595 0.518926561 0.320293278
0.878400028 0.545133352 0.338600010
0.001560006 0.289400041 0.126280025
0.030106675 0.298820049 0.130220011
0.062453344 0.308480054 0.136460021
0.097240031 0.314540029 0.137240022
0.142726704 0.326260030 0.143033370
0.188526675 0.334640026 0.147960007
0.239180058 0.326260030 0.145880014
0.315553367 0.350600034 0.161580011
0.397099972 0.370460033 0.174373329
0.491740018 0.400000006 0.189040005
0.602633238 0.441806674 0.218559980
0.681046665 0.472953349 0.241573334
0.749000013 0.508239985 0.265900016
0.802586675 0.543813467 0.289926708
0.844193220 0.571753323 0.316819966
0.878400028 0.596040010 0.341199994
0.007800000 0.351906687 0.143020004
0.043666672 0.365473360 0.150340006
0.071133345 0.365226686 0.149273336
0.115040019 0.383533359 0.161060005
0.160233349 0.391080022 0.165739998
0.204193354 0.397913337 0.161839992
0.266686708 0.397393346 0.165219992
0.322113335 0.400513351 0.166259989
0.406813323 0.422720015 0.180399984
0.491780013 0.444186687 0.189773321
0.602633297 0.487333357 0.220899984
0.680786669 0.519486725 0.241020009
0.752160013 0.556353390 0.269799978
0.806786716 0.592653394 0.294620037
0.847086549 0.617506623 0.318426609
0.876320004 0.638466716 0.337300003
0.019600000 0.440766633 0.161059991
0.050486665 0.452826649 0.164959982
0.090993337 0.458039999 0.169393331
0.133080006 0.474766642 0.176193342
0.185060024 0.489686668 0.185626671
0.236846671 0.489686638 0.186379999
0.292273402 0.485480011 0.182740003
0.349773347 0.489166647 0.185906664
0.415399998 0.489686668 0.180873320
0.508000016 0.513446629 0.197919995
0.604453266 0.543266594 0.218819991
0.683646679 0.577000022 0.242600009
0.755039930 0.608613312 0.268500000
0.803106666 0.640020013 0.290460020
0.847613215 0.668519914 0.316559970
0.878186643 0.688853323 0.339120001
0.029840000 0.537220001 0.178839996
0.064013340 0.546940029 0.182999998
0.109293349 0.553439975 0.191120014
0.152940035 0.563940048 0.196880013
0.209413365 0.574919999 0.200260013
0.261173368 0.578306675 0.201040000
0.327040046 0.581160069 0.203940019
0.378573358 0.578600049 0.196880013
0.451006651 0.573866665 0.201820001
0.515280008 0.578080058 0.202340007
0.599479973 0.593953371 0.216453373
0.680786669 0.626653373 0.242379993
0.753720045 0.659599960 0.269019991
0.804146707 0.687546730 0.292006701
0.844193339 0.708720028 0.314993292
0.879239976 0.731759965 0.338039994
0.047066651 0.637899935 0.205266640
0.076066673 0.638453305 0.201826647
0.128600001 0.648866653 0.216966644
0.175660014 0.655679941 0.219846666
0.238933340 0.665099978 0.228506655
0.290199995 0.666633308 0.228766650
0.357366681 0.666399956 0.229806647
0.416440010 0.665333271 0.225386649
0.489666611 0.663786650 0.222786665
0.547693372 0.665859997 0.226426661
0.611799955 0.664033234 0.228766650
0.684686720 0.684419990 0.243953332
0.749559999 0.711146593 0.263300002
0.803886712 0.741673291 0.291226685
0.844459891 0.758679926 0.315253288
0.879733324 0.779066682 0.341199994
0.058540005 0.717906654 0.228253335
0.091253340 0.723373353 0.227213338
0.147426680 0.729680002 0.238419995
0.202353358 0.737766683 0.244993329
0.264053345 0.743513346 0.247853339
0.322346687 0.746420026 0.252013355
0.393973380 0.746120036 0.253313333
0.459386706 0.747486711 0.253573328
0.529146612 0.746420026 0.252040029
0.587180018 0.748760045 0.251753330
0.643920004 0.747486711 0.252820015
0.697526693 0.751386702 0.256720006
0.755020022 0.762313366 0.270580024
0.801286697 0.781413376 0.289680004
0.845793247 0.798933387 0.314759940
0.878400028 0.818273306 0.341199994
0.072140001 0.793720007 0.248639971
0.112913340 0.793726683 0.252546668
0.171726674 0.803160012 0.262780011
0.225860015 0.807860017 0.268240005
0.294653356 0.813319981 0.279500037
0.356066704 0.809939981 0.277113348
0.429800063 0.814119995 0.280039996
0.501693308 0.811240017 0.278166682
0.563646615 0.812799990 0.277680010
0.617280066 0.814899981 0.276859999
0.674793303 0.814619958 0.280526668
0.716093302 0.812539995 0.277413309
0.760760009 0.813319981 0.280799985
0.810726702 0.825379968 0.295400023
0.848113239 0.838400006 0.315773308
0.878400028 0.855660021 0.341199994
0.084726691 0.851246715 0.269026697
0.133040041 0.854626715 0.279513389
0.190306708 0.856186688 0.284726679
0.249400064 0.863553405 0.293586701
0.319980055 0.860633373 0.297506690
0.384840041 0.865633428 0.299093366
0.460166752 0.863033414 0.299906701
0.537540078 0.863553405 0.300426692
0.600253344 0.863553405 0.302506715
0.650686681 0.862486660 0.300426692
0.701173306 0.860886753 0.300426692
0.743500054 0.863020003 0.299373358
0.778806686 0.866933405 0.303546727
0.813086689 0.863553345 0.304326713
0.845793247 0.871886671 0.316819966
0.878400028 0.888106704 0.341199994
0.101213299 0.900166571 0.296959966
0.154213309 0.904066563 0.305633277
0.217786640 0.903546572 0.316039979
0.277393311 0.905113220 0.319179982
0.355026662 0.907193244 0.330953270
0.418526649 0.907193244 0.324713290
0.504573345 0.906153262 0.328353286
0.578046560 0.910313249 0.331993282
0.629266620 0.908233225 0.330433279
0.675819933 0.908233225 0.328353286
0.723119915 0.908233225 0.328353286
0.761546671 0.908233225 0.327573270
0.798933208 0.907973230 0.331993282
0.829039991 0.907713234 0.328353286
0.853333235 0.908493280 0.332253337
0.882133305 0.916559935 0.352379978
0.121600002 0.933300018 0.313699991
0.166793346 0.929660022 0.318126678
0.234533340 0.933300018 0.333299994
0.301940024 0.937300026 0.342759997
0.378013372 0.938340008 0.350040019
0.448366702 0.941200018 0.349000007
0.537280083 0.942759991 0.350560009
0.599213362 0.941200018 0.349000007
0.651733279 0.941200018 0.349000007
0.696500003 0.941200018 0.349000007
0.739866674 0.941200018 0.349000007
0.775173306 0.941200018 0.347959995
0.809440017 0.938080013 0.349000007
0.841020048 0.944060028 0.352380008
0.861919999 0.941460013 0.352640003
0.878400028 0.941200018 0.352899998
0.000000000 0.039460000 0.087346673
0.000000000 0.043366667 0.091246672
0.021433339 0.048140004 0.103299998
0.055180013 0.059580006 0.116060011
0.100366682 0.067740001 0.127586678
0.143506691 0.073200010 0.134113342
0.212560043 0.085520014 0.152940020
0.283380002 0.101166673 0.171253338
0.382226646 0.119733334 0.203653321
0.483940035 0.136480004 0.224866673
0.590319991 0.155826643 0.251499981
0.671920002 0.177253336 0.279520035
0.742720008 0.196600005 0.300426662
0.800766706 0.218026698 0.326273382
0.841533244 0.238419950 0.350053310
0.866959989 0.259059995 0.366793334
0.000000000 0.059846669 0.087606668
0.000786669 0.064533338 0.092553332
0.029580005 0.072946683 0.108246669
0.064560026 0.089166678 0.121786684
0.116853349 0.100893334 0.137233332
0.162853345 0.111113340 0.145633340
0.237366721 0.133053333 0.172513336
0.313440025 0.146933332 0.190340012
0.417013288 0.171213329 0.218833327
0.515566647 0.190873340 0.242133349
0.626399934 0.222240001 0.277399987
0.697793365 0.240260005 0.298280001
0.760526657 0.267213315 0.322633296
0.815940082 0.293846697 0.352646708
0.853853226 0.322906613 0.378326625
0.883179963 0.343813330 0.399233371
0.000000000 0.092033342 0.095666669
0.002086672 0.097240008 0.104606673
0.023000009 0.098026678 0.104866669
0.061960027 0.117626682 0.122053348
0.111133359 0.131253347 0.141206682
0.163893342 0.148240015 0.153980017
0.239193395 0.169926688 0.174106687
0.325240016 0.193720013 0.199753344
0.429806620 0.222753331 0.226166666
0.520026684 0.243913352 0.246813357
0.629526615 0.277906656 0.280766696
0.699873328 0.307720006 0.310573339
0.766773343 0.332786649 0.333306670
0.819586694 0.357946694 0.361060023
0.860353231 0.390293270 0.392713279
0.883699954 0.405226678 0.407566667
0.000000000 0.126560017 0.101406679
0.006253340 0.139060035 0.113726683
0.034793343 0.143300012 0.114246689
0.062220026 0.147726700 0.119726688
0.111933358 0.167586684 0.142253339
0.172566697 0.189553365 0.158666670
0.246826753 0.212286726 0.178013369
0.328620046 0.238446683 0.201833338
0.436613321 0.264080018 0.228493318
0.532546699 0.295433342 0.256993324
0.634479940 0.321546674 0.281813353
0.705620050 0.354506701 0.310853332
0.770739973 0.378306657 0.338833302
0.820113361 0.408613414 0.364960045
0.857759953 0.441839963 0.390299976
0.892799973 0.472446680 0.417259991
0.000000000 0.178013340 0.125506669
0.015966678 0.193460017 0.129413337
0.047033343 0.200033352 0.136713341
0.077926688 0.202386692 0.141986683
0.121293359 0.212793365 0.148486674
0.177506685 0.237413362 0.164453343
0.247086734 0.252533346 0.177493349
0.329653323 0.279213339 0.204433322
0.431366652 0.307940036 0.225359991
0.531506658 0.340933353 0.255693346
0.633706629 0.373340011 0.281820029
0.707179964 0.409420043 0.308226675
0.772560000 0.439213336 0.337813318
0.821153343 0.471140057 0.364700019
0.858273208 0.494126678 0.389773309
0.883960009 0.521300018 0.410159975
0.001300002 0.226166680 0.138280019
0.033746671 0.250186682 0.150600001
0.061420005 0.256760031 0.157100007
0.096726686 0.262753367 0.159966677
0.140120029 0.271353364 0.168900028
0.181933358 0.280286670 0.172540024
0.262260050 0.307440042 0.192153350
0.331513375 0.320273370 0.201840013
0.430073321 0.353486687 0.225126669
0.526786625 0.384820014 0.252013355
0.636339962 0.422206670 0.283679992
0.704840004 0.454393357 0.313459992
0.775680006 0.491240054 0.339093328
0.819073319 0.518433332 0.363140047
0.860359907 0.549033284 0.394026607
0.885259986 0.572826684 0.413306653
0.004453351 0.290960044 0.154500023
0.036866672 0.316346705 0.168093339
0.071393348 0.321553379 0.173040003
0.108206704 0.332520068 0.176713347
0.163673356 0.348520041 0.191353351
0.203646705 0.351886749 0.192673370
0.266426742 0.357633352 0.194553345
0.337240040 0.376746714 0.205513343
0.429546654 0.395580024 0.226166666
0.527306676 0.430066705 0.250193357
0.635013282 0.469833344 0.284979969
0.704033375 0.502446651 0.313726664
0.776719987 0.544340014 0.338333338
0.824320078 0.574613392 0.364440054
0.863533199 0.602119923 0.393499941
0.886560023 0.625360012 0.412273318
0.007586671 0.343793362 0.167046666
0.052826669 0.381960005 0.193980008
0.088393345 0.391360015 0.197413340
0.129686683 0.402873337 0.203146666
0.180120021 0.413100004 0.207860008
0.234753355 0.429820031 0.219353348
0.292533398 0.429840028 0.218053341
0.347180039 0.430873394 0.219353348
0.441553295 0.451519996 0.235266656
0.535673380 0.484439999 0.258040011
0.637126625 0.524686635 0.288619965
0.707700014 0.562100053 0.315313339
0.772560000 0.590573311 0.342233330
0.822753370 0.621980011 0.369393378
0.861439943 0.646793306 0.394546628
0.888900042 0.669253349 0.415153325
0.019859996 0.440766633 0.186179996
0.062973335 0.477113307 0.212546647
0.107480004 0.487826675 0.215406671
0.153726682 0.502746642 0.225386664
0.207853347 0.509293318 0.235053331
0.261213332 0.520246625 0.238180012
0.327320039 0.522606611 0.242080003
0.381959975 0.523379922 0.238953322
0.455693305 0.524213254 0.240260005
0.527606606 0.535139978 0.250453323
0.633206606 0.578559995 0.288100004
0.702993333 0.606273293 0.307966679
0.772819936 0.637673318 0.335686654
0.820406735 0.669506669 0.364440054
0.858013272 0.692279935 0.387946635
0.886819959 0.707679987 0.407299995
0.031399999 0.537220001 0.213366672
0.071393341 0.566286623 0.234533355
0.122620016 0.577006638 0.243433356
0.171766683 0.590313375 0.250713348
0.222220019 0.595046639 0.254880011
0.287340015 0.610193312 0.266933322
0.354506731 0.610686660 0.268493325
0.416220039 0.609399974 0.265373319
0.489693314 0.608346641 0.265893340
0.550586641 0.609126627 0.266413331
0.633739948 0.629253387 0.284979999
0.704813361 0.656486690 0.310566664
0.772300005 0.685466707 0.339093328
0.819073319 0.711099982 0.367040008
0.859833241 0.737259924 0.390866607
0.890200019 0.753740013 0.413073331
0.047839988 0.638679981 0.239206657
0.083939999 0.657539964 0.256179988
0.143526658 0.668266535 0.269019961
0.191106707 0.679479957 0.275826693
0.253846675 0.686246634 0.283120006
0.316339999 0.688906670 0.288880020
0.386140049 0.688066602 0.289666682
0.460166693 0.691799939 0.291226655
0.524213314 0.692273319 0.288653344
0.579620004 0.693359971 0.289926648
0.640506625 0.692806602 0.290446669
0.711399972 0.714259923 0.316873342
0.770219982 0.736213326 0.334099978
0.820893347 0.763893306 0.364179999
0.856713355 0.783546627 0.387433290
0.888119996 0.799193382 0.411199987
0.059580006 0.717906654 0.264340013
0.106953338 0.740113378 0.286806673
0.167293340 0.746160030 0.300159991
0.217273355 0.757113338 0.304846674
0.284933388 0.762079954 0.315299988
0.357626677 0.768613338 0.326266676
0.430580050 0.769946635 0.328633338
0.503793359 0.770726621 0.324966669
0.567573309 0.773326695 0.329646677
0.614113331 0.765733361 0.323406667
0.678439975 0.771773338 0.329673320
0.714533329 0.764159977 0.324186683
0.773086607 0.781420052 0.339893371
0.818033338 0.804206729 0.365220040
0.859059870 0.822526634 0.391099960
0.890200019 0.834500015 0.414673328
0.072140001 0.793720007 0.293066651
0.124973342 0.809426665 0.312393337
0.188726678 0.817233324 0.327833354
0.243646696 0.822000027 0.330713362
0.310566723 0.828239977 0.342233360
0.386406660 0.829540014 0.345613301
0.461726725 0.829540014 0.347713351
0.538580060 0.829540014 0.346679986
0.598433256 0.832400024 0.345099986
0.651206672 0.831099987 0.349273354
0.700913310 0.829540014 0.347200006
0.738560021 0.832140028 0.349280000
0.781666696 0.830066681 0.348480016
0.824606657 0.843166709 0.369653374
0.857493222 0.855666697 0.390573293
0.887340009 0.869539976 0.412519991
0.085246682 0.847333372 0.310326695
0.152906701 0.866413414 0.338080049
0.210426718 0.864593387 0.347453356
0.272453398 0.871893346 0.358460039
0.352166712 0.874753356 0.377006739
0.426940084 0.874753356 0.379620016
0.504833400 0.874493361 0.381180018
0.574920058 0.873713374 0.380140036
0.629266679 0.874753356 0.380660057
0.676346660 0.875013351 0.380660027
0.726773381 0.876053393 0.381960034
0.761806667 0.875793397 0.382480025
0.795813322 0.875793397 0.379880071
0.825653374 0.875793397 0.380920053
0.861919880 0.885246694 0.397666633
0.887080014 0.896186709 0.417520016
0.100946635 0.900159895 0.341459960
0.170433298 0.912393212 0.366266608
0.230626658 0.912393212 0.378066629
0.302213311 0.917093217 0.391346633
0.378793299 0.920286536 0.398966640
0.459906608 0.921586514 0.408333272
0.542479932 0.921819866 0.404959947
0.604719877 0.921846509 0.406766623
0.659106493 0.920286536 0.404173285
0.703779876 0.922366560 0.405473292
0.747439921 0.920553207 0.406773299
0.779853344 0.920553207 0.405733287
0.815939963 0.920026541 0.408333272
0.845000029 0.920286536 0.408586591
0.865646601 0.920546532 0.409113288
0.890720010 0.928353310 0.422480017
0.117600001 0.933300018 0.362626672
0.187440008 0.938080013 0.383800030
0.251280010 0.941720009 0.398713350
0.320260048 0.942240000 0.404973358
0.404740006 0.942759991 0.413819999
0.483413339 0.944060028 0.423780024
0.573360026 0.946920037 0.422740012
0.628493309 0.944326639 0.426380008
0.678199947 0.947179973 0.422740012
0.716366649 0.945360005 0.422740012
0.760253310 0.947700024 0.426380008
0.797893345 0.949000001 0.428266674
0.824620008 0.945620000 0.421960026
0.850206673 0.945620000 0.422473341
0.873453259 0.949000001 0.422473341
0.886820018 0.945620000 0.423000008
0.000000000 0.047620002 0.120746680
0.000786669 0.047880005 0.124473348
0.024553336 0.048140004 0.128113329
0.058560017 0.059320003 0.144333348
0.098040022 0.071640007 0.157100007
0.146173343 0.079453334 0.168613344
0.212040037 0.088380001 0.189020023
0.288113356 0.102206677 0.212020010
0.378539979 0.121293329 0.235526666
0.477913350 0.131740004 0.262206703
0.595046580 0.157126650 0.299626648
0.671386659 0.178553343 0.321846664
0.740119994 0.195040002 0.345873326
0.797386706 0.218026698 0.373046696
0.838413239 0.235033303 0.397666633
0.867219985 0.262699991 0.422733337
0.000260001 0.068526670 0.120746680
0.005473338 0.073213339 0.129160002
0.025853340 0.076860003 0.136440009
0.064560018 0.089946680 0.153706670
0.117120020 0.108246669 0.173579991
0.169159994 0.117093340 0.185360014
0.235546723 0.126813352 0.201060042
0.318699986 0.149013340 0.226940021
0.420653313 0.174900010 0.257266670
0.520286679 0.197633341 0.286019981
0.623539925 0.219093338 0.317113340
0.697266698 0.245000020 0.347433358
0.756606638 0.266953319 0.367313325
0.812820077 0.297220021 0.401566714
0.850733221 0.316326618 0.426639974
0.879453361 0.344073325 0.451279998
0.000000000 0.092813335 0.120746680
0.001826671 0.097760007 0.132799998
0.037913345 0.117366672 0.152133346
0.080253355 0.134113342 0.167073369
0.124686696 0.147986680 0.188240021
0.192160025 0.172006682 0.213840023
0.264340073 0.187706694 0.227973357
0.349526703 0.211513355 0.256433368
0.454139978 0.239226684 0.284460008
0.556879997 0.269533366 0.314773351
0.654359937 0.295946658 0.345646709
0.721846640 0.324719995 0.378580004
0.786440015 0.352906704 0.403906673
0.827733397 0.375126719 0.426113367
0.869293213 0.404959977 0.458819956
0.891240001 0.425880015 0.476346701
0.000780003 0.132800013 0.129940018
0.010686675 0.142260030 0.142520010
0.047033343 0.159446687 0.162126690
0.078173362 0.167593360 0.167593345
0.128586695 0.188760027 0.191633359
0.188506693 0.208620027 0.207053348
0.273980111 0.235013381 0.237153366
0.357113361 0.259620011 0.260940015
0.465326637 0.290500045 0.295433342
0.569153309 0.320513368 0.325486690
0.661186635 0.350300014 0.355053306
0.729646683 0.384046704 0.386666656
0.790600002 0.415973365 0.420386702
0.833726764 0.444440067 0.442606747
0.869813204 0.473486632 0.470353276
0.901473343 0.504279971 0.497246683
0.000000000 0.173073351 0.142513350
0.020906670 0.192413360 0.160813347
0.058553346 0.213313356 0.181193337
0.092040025 0.220686674 0.182500005
0.132806674 0.228493363 0.187720031
0.193206698 0.253573358 0.215126678
0.279446721 0.280286700 0.241333365
0.363926679 0.308746696 0.265633374
0.470313311 0.340673357 0.291999996
0.572793365 0.376986712 0.329166681
0.666939914 0.407086700 0.358673334
0.734139979 0.440266669 0.387433350
0.795019984 0.470046699 0.420646697
0.836066723 0.501433372 0.442346722
0.868773222 0.528913319 0.468773276
0.898013353 0.561286688 0.498286664
0.000000000 0.227966681 0.166013330
0.027700009 0.249406695 0.182500005
0.071653344 0.272660017 0.205486670
0.107166693 0.280013382 0.208900020
0.153993383 0.289660037 0.215153351
0.199740037 0.299626708 0.223806679
0.291493416 0.331986696 0.255706668
0.362626702 0.352700025 0.269533366
0.472653329 0.386653364 0.298859984
0.569413304 0.420646667 0.329686701
0.664826632 0.456733316 0.358973354
0.734899998 0.492040038 0.389800012
0.792680025 0.522860050 0.421426654
0.836066723 0.555273414 0.445206732
0.874493241 0.584859967 0.474519968
0.896733344 0.609686673 0.496466666
0.005460006 0.291800052 0.183820024
0.038953349 0.317913383 0.203400031
0.086253360 0.343000054 0.222773373
0.127033368 0.352173358 0.228506714
0.176713362 0.361833394 0.238980025
0.225586712 0.375700057 0.247586727
0.298573405 0.391113400 0.259866685
0.370200008 0.406006724 0.269013345
0.474260002 0.433473349 0.297793329
0.566773295 0.469013393 0.324706674
0.659886599 0.506959975 0.354006648
0.731006682 0.543566763 0.385873348
0.790859997 0.578033388 0.417006642
0.835546732 0.605760098 0.442333400
0.867473245 0.629006624 0.467433304
0.896713376 0.655140042 0.494126678
0.011266666 0.347953349 0.203133345
0.051786672 0.383780032 0.226680011
0.102740020 0.413886696 0.247060016
0.150340036 0.430573344 0.261173308
0.199206695 0.440540016 0.267453372
0.253080040 0.453626692 0.276626676
0.325240046 0.462740034 0.285220027
0.384306699 0.465353370 0.284713358
0.475820005 0.483366698 0.301200032
0.569413364 0.518966734 0.330466688
0.666679919 0.558953404 0.363426626
0.734126687 0.591353357 0.392933369
0.792940021 0.624320030 0.420386672
0.835040033 0.648360014 0.443646699
0.872673273 0.672673404 0.474519968
0.895920038 0.695706666 0.495686680
0.024033329 0.444719970 0.227986664
0.066920005 0.480799973 0.252533346
0.127333343 0.511119962 0.277386665
0.166820034 0.526253343 0.282626659
0.223506689 0.534113288 0.292533338
0.284720004 0.548499942 0.303259969
0.356606692 0.558406591 0.312440008
0.424059987 0.562113285 0.314799994
0.490433365 0.556833267 0.309520006
0.563693345 0.573046625 0.323666692
0.666419983 0.614379942 0.361566663
0.730186641 0.637666643 0.381179988
0.790340006 0.669246674 0.418826640
0.836326718 0.695179999 0.444460034
0.871373177 0.718166649 0.473206639
0.897493303 0.736993313 0.492826670
0.031920001 0.537753344 0.252793342
0.073473342 0.569926620 0.275820017
0.136233345 0.598433375 0.304066718
0.190853357 0.614379942 0.316853344
0.247846708 0.618853331 0.323666662
0.313466698 0.629793286 0.333593339
