TEST_thumbGenerator/bin/data/LUTs/Walden.cube
TITLE "16x16x16 Adobe/IRIDAS cube 3D LUT exported with GrossGrade v0.1.027.1 (beta) 64 bit"
DOMAIN_MIN 0 0 0
DOMAIN_MAX 1 1 1
LUT_3D_SIZE 6
0.000000000 0.031399999 0.058800001
0.052580021 0.055680003 0.088640012
0.211780056 0.087080017 0.130220011
0.481600016 0.130180001 0.181180000
0.742720008 0.191400021 0.260359973
0.874499977 0.262699991 0.329400003
0.000000000 0.130200014 0.087860003
0.056480020 0.138020024 0.088640012
0.224320039 0.191380039 0.132560015
0.496460021 0.262740016 0.189040005
0.749040008 0.354500026 0.267459989
0.876079977 0.437660038 0.338079989
0.001560006 0.289400041 0.126280025
0.097240031 0.314540029 0.137240022
0.239180058 0.326260030 0.145880014
0.491740018 0.400000006 0.189040005
0.749000013 0.508239985 0.265900016
0.878400028 0.596040010 0.341199994
0.029840000 0.537220001 0.178839996
0.152940035 0.563940048 0.196880013
0.327040046 0.581160069 0.203940019
0.515280008 0.578080058 0.202340007
0.753720045 0.659599960 0.269019991
0.879239976 0.731759965 0.338039994
0.072140001 0.793720007 0.248639971
0.225860015 0.807860017 0.268240005
0.429800063 0.814119995 0.280039996
0.617280066 0.814899981 0.276859999
0.760760009 0.813319981 0.280799985
0.878400028 0.855660021 0.341199994
0.121600002 0.933300018 0.313699991
0.301940024 0.937300026 0.342759997
0.537280083 0.942759991 0.350560009
0.696500003 0.941200018 0.349000007
0.809440017 0.938080013 0.349000007
0.878400028 0.941200018 0.352899998
0.000780003 0.055680003 0.167080015
0.055700019 0.059580006 0.176440015
0.218800038 0.091760002 0.224300027
0.478420019 0.131740004 0.295680016
0.740379989 0.193739980 0.387439996
0.866699994 0.258800000 0.466640025
0.000780003 0.134900019 0.163160026
0.093360029 0.188240036 0.221200034
0.298020095 0.255660027 0.291740030
0.595260024 0.343540043 0.387460053
0.797660053 0.433720052 0.478420049
0.902779996 0.515300035 0.559180021
0.003900000 0.288620055 0.213320017
0.141960055 0.372520089 0.286280066
0.323940068 0.418820053 0.323140025
0.598420024 0.501940012 0.394540042
0.809440017 0.607079983 0.488660008
0.902000010 0.679220021 0.566300035
0.031399999 0.537220001 0.285500020
0.206260026 0.635280013 0.372540027
0.425120085 0.665080011 0.411780030
0.620379984 0.669020057 0.414140046
0.810220003 0.740380049 0.494120032
0.902000010 0.800760031 0.570200086
0.070579998 0.792160034 0.378839970
0.288620025 0.848639965 0.464299977
0.549020112 0.864319980 0.507440031
0.705100000 0.862739921 0.506640017
0.816480041 0.864340007 0.508260012
0.901979983 0.894880056 0.566300035
0.116820000 0.933300018 0.451020032
0.379580051 0.960799992 0.548260033
0.642380059 0.963919997 0.587460041
0.763899982 0.961579978 0.583560050
0.853320003 0.961579978 0.584320009
0.905120015 0.960799992 0.584340036
0.007800000 0.091760002 0.323140025
0.099600017 0.097260013 0.344300032
0.234500036 0.095660008 0.348260045
0.481559992 0.134900004 0.403160006
0.744279981 0.196860000 0.505919993
0.870599985 0.261139989 0.581179976
0.000780003 0.182700038 0.312960029
0.141180038 0.248620063 0.392180055
0.319240034 0.273700029 0.429820061
0.591400027 0.341160029 0.501960039
0.803920031 0.439240038 0.597640038
0.900380015 0.516860008 0.655700028
0.001560006 0.302760035 0.312120050
0.146640047 0.383520067 0.394500047
0.397620082 0.486260086 0.498800069
0.687820017 0.600000083 0.598440111
0.847860038 0.684700072 0.672920048
0.913699985 0.741960049 0.729440033
0.029840000 0.537220001 0.389020026
0.208640039 0.634519994 0.484700054
0.524700105 0.736480057 0.597640038
0.701960027 0.743540049 0.615680039
0.850979984 0.804700077 0.677640021
0.914479971 0.846280038 0.727840006
0.074499987 0.792160034 0.489439994
0.289440066 0.848620057 0.578820050
0.636080027 0.898039997 0.676860034
0.770180047 0.901980102 0.691780031
0.858040035 0.901980042 0.694900036
0.913699985 0.926259995 0.730200052
0.121600002 0.933300018 0.564740062
0.377240062 0.957679987 0.647840023
0.716120064 0.978060007 0.737240076
0.818040013 0.976460040 0.745140016
0.887840033 0.978060007 0.744300008
0.917599976 0.978060007 0.748260021
0.032180004 0.127839997 0.516839981
0.156060010 0.140419990 0.549060047
0.316860050 0.142760009 0.551360011
0.496460021 0.139640003 0.544340014
0.741960049 0.194519997 0.618860006
0.868259966 0.258800000 0.682359993
0.032959998 0.253360003 0.518439949
0.200000033 0.321560025 0.596860051
0.412540078 0.351400018 0.631380022
0.600000083 0.350600004 0.628259957
0.802340031 0.436100036 0.699620008
0.900400043 0.518420041 0.756860018
0.032180019 0.374920040 0.516059995
0.206280053 0.468220055 0.600020051
0.516080081 0.590580046 0.694120049
0.691740036 0.603940070 0.704340041
0.850199997 0.688620031 0.768639982
0.913699985 0.745860040 0.817260027
0.031399999 0.537220001 0.514500022
0.210980058 0.636860073 0.605500042
0.522360146 0.731760025 0.698800027
0.767840028 0.811780035 0.775680065
0.883160055 0.856499970 0.828220010
0.919999957 0.890160024 0.865100026
0.067480005 0.793720007 0.607060015
0.288620055 0.848640025 0.684700012
0.638460100 0.898060024 0.771760046
0.824320018 0.932560027 0.834540069
0.893299997 0.936500072 0.839240015
0.924719989 0.954540014 0.869780064
0.117600001 0.933300018 0.672119975
0.383500040 0.957679987 0.749800026
0.708220065 0.975699961 0.818820000
0.866659999 0.990599990 0.874520004
0.912140012 0.988200009 0.877660036
0.927839994 0.990599990 0.878460050
0.072140001 0.183520019 0.741160035
0.218840018 0.196079999 0.756080031
0.408620030 0.200759992 0.756860018
0.598439991 0.196099997 0.754519999
0.745839894 0.199979991 0.756080031
0.870599985 0.261920005 0.805460036
0.068240009 0.317640007 0.735700011
0.279220045 0.410200030 0.801559985
0.527040064 0.439240009 0.821160018
0.690160036 0.440020055 0.818039954
0.806239963 0.441579998 0.820380032
0.898800015 0.515300035 0.858820021
0.065860003 0.464320004 0.734139979
0.283900052 0.570980012 0.806280077
0.622720122 0.676080048 0.864319980
0.763140023 0.697239995 0.874520004
0.854100049 0.698020041 0.876080036
0.912919998 0.744300008 0.906660020
0.072159991 0.625880003 0.739600062
0.286240041 0.716100037 0.810220003
0.634520054 0.800780058 0.870620012
0.820420027 0.858060062 0.915319979
0.891740024 0.867420077 0.918439984
0.925499976 0.894940019 0.941960096
0.072939999 0.793720007 0.748260021
0.286280036 0.848640025 0.807820022
0.635260105 0.897240102 0.875300050
0.826660037 0.931780040 0.914519966
0.918460011 0.957660019 0.945080042
0.936500013 0.970160067 0.962339997
0.120800003 0.933300018 0.799979985
0.376460016 0.957679987 0.858020008
0.708240032 0.977260053 0.906660020
0.866659999 0.990599990 0.945080042
0.935720026 0.999220014 0.965460002
0.937300026 0.996100008 0.960020006
0.121600002 0.250999987 0.917599976
0.301940024 0.271380007 0.918399990
0.522360027 0.266700000 0.916039944
0.683140039 0.269039989 0.916040003
0.800760031 0.263499975 0.917599976
0.874499977 0.262699991 0.913699985
0.121600002 0.404700011 0.912140012
0.371000051 0.505860031 0.945100009
0.635280013 0.535680056 0.952120006
0.756080031 0.530220032 0.946659982
0.849420071 0.531780005 0.949000001
0.909799993 0.533340037 0.948220015
0.123939991 0.560740054 0.908239961
0.380400062 0.655660033 0.941980004
0.707440078 0.751380026 0.971759975
0.819600046 0.761560023 0.974099994
0.887059987 0.766260087 0.973320007
0.916859984 0.761560023 0.967819989
0.120759994 0.707419991 0.912919998
0.379580051 0.789820015 0.942760050
0.717680037 0.853340030 0.970979989
0.860419989 0.898060024 0.986640036
0.919219971 0.903519988 0.986640036
0.929400027 0.901960015 0.982740045
0.118400000 0.840760052 0.909799993
0.377240032 0.889400005 0.942759991
0.709780037 0.931760073 0.973320007
0.863539994 0.954519987 0.987420022
0.935720026 0.970940053 0.999220014
0.937300026 0.971720040 0.996100008
0.121600002 0.933300018 0.917599976
0.376460046 0.960020006 0.945879996
0.707440019 0.980400026 0.970160007
0.864319980 0.988200009 0.984300017
0.931740046 0.995320022 0.995320022
0.933300018 1.000000000 0.996100008
